(1001)
(T1  D=1.5 CR=0 - ZMIN=-10 - flat end mill)
G90 G94
G17
G21

(2D Pocket2 2)
T1
S5000 M3
G54
M8
G0 X26.667 Y2.596
Z9
Z4
G1 Z2.8 F500
G3 X26.741 Y2.844 Z2.704 I-0.375 J0.248
G1 Y7.344 Z1.066
G3 X25.841 Y7.344 Z0.552 I-0.45 J0
G1 Y7.201 Z0.5
Y2.844
G3 X26.741 Y2.844 I0.45 J0
G1 Y7.344
G3 X25.841 Y7.344 I-0.45 J0
G1 Y7.201
Y5.828 Z0
Y2.844
G3 X26.741 Y2.844 I0.45 J0
G1 Y7.344
G3 X25.841 Y7.344 I-0.45 J0
G1 Y5.828
Y4.454 Z-0.5
Y2.844
G3 X26.741 Y2.844 I0.45 J0
G1 Y7.344
G3 X25.841 Y7.344 I-0.45 J0
G1 Y5.828
Y4.454
Y3.08 Z-1
Y2.844
G3 X26.741 Y2.844 I0.45 J0
G1 Y7.344
G3 X25.841 Y7.344 I-0.45 J0
G1 Y4.454
Y3.08
Y2.844 Z-1.086
G3 X26.659 Y2.585 Z-1.5 I0.45 J0
X26.741 Y2.844 I-0.368 J0.259
G1 Y7.344
G3 X25.841 Y7.344 I-0.45 J0
G1 Y3.08
Y2.844
G3 X26.659 Y2.585 I0.45 J0
X26.741 Y2.844 Z-1.601 I-0.368 J0.259
G1 Y3.941 Z-2
Y7.344
G3 X25.841 Y7.344 I-0.45 J0
G1 Y2.844
G3 X26.741 Y2.844 I0.45 J0
G1 Y3.941
Y5.315 Z-2.5
Y7.344
G3 X25.841 Y7.344 I-0.45 J0
G1 Y2.844
G3 X26.741 Y2.844 I0.45 J0
G1 Y5.315
Y6.689 Z-3
Y7.344
G3 X25.841 Y7.344 I-0.45 J0
G1 Y2.844
G3 X26.741 Y2.844 I0.45 J0
G1 Y5.315
Y6.689
Y7.344 Z-3.238
G3 X26.279 Y7.794 Z-3.5 I-0.45 J0
X25.841 Y7.344 I0.012 J-0.45
G1 Y2.844
G3 X26.741 Y2.844 I0.45 J0
G1 Y6.689
Y7.344
G3 X26.279 Y7.794 I-0.45 J0
X25.841 Y7.344 Z-3.753 I0.012 J-0.45
G1 Y6.665 Z-4
Y2.844
G3 X26.741 Y2.844 I0.45 J0
G1 Y7.344
G3 X25.841 Y7.344 I-0.45 J0
G1 Y6.665
Y5.291 Z-4.5
Y2.844
G3 X26.741 Y2.844 I0.45 J0
G1 Y7.344
G3 X25.841 Y7.344 I-0.45 J0
G1 Y5.291
Y3.918 Z-5
Y2.844
G3 X26.741 Y2.844 I0.45 J0
G1 Y7.344
G3 X25.841 Y7.344 I-0.45 J0
G1 Y5.291
Y3.918
Y2.844 Z-5.391
G3 X25.938 Y2.566 Z-5.5 I0.45 J0
X26.741 Y2.844 I0.354 J0.278
G1 Y7.344
G3 X25.841 Y7.344 I-0.45 J0
G1 Y3.918
Y2.844
G3 X25.938 Y2.566 I0.45 J0
X26.741 Y2.844 Z-5.905 I0.354 J0.278
G1 Y3.104 Z-6
Y7.344
G3 X25.841 Y7.344 I-0.45 J0
G1 Y2.844
G3 X26.741 Y2.844 I0.45 J0
G1 Y3.104
Y4.478 Z-6.5
Y7.344
G3 X25.841 Y7.344 I-0.45 J0
G1 Y2.844
G3 X26.741 Y2.844 I0.45 J0
G1 Y4.478
Y5.851 Z-7
Y7.344
G3 X25.841 Y7.344 I-0.45 J0
G1 Y2.844
G3 X26.741 Y2.844 I0.45 J0
G1 Y4.478
Y5.851
Y7.225 Z-7.5
Y7.344
G3 X25.841 Y7.344 I-0.45 J0
G1 Y2.844
G3 X26.741 Y2.844 I0.45 J0
G1 Y5.851
Y7.225
Y7.344 Z-7.543
G3 X25.869 Y7.499 Z-8 I-0.45 J0
G1 X25.848 Y7.423
X25.841 Y7.344
Y2.844
G3 X26.741 Y2.844 I0.45 J0
G1 Y7.225
Y7.344
G3 X25.869 Y7.499 I-0.45 J0
G1 X25.848 Y7.423 Z-8.029
X25.841 Y7.344 Z-8.058
Y6.129 Z-8.5
Y2.844
G3 X26.741 Y2.844 I0.45 J0
G1 Y7.344
G3 X25.841 Y7.344 I-0.45 J0
G1 Y6.129
Y4.755 Z-9
Y2.844
G3 X26.741 Y2.844 I0.45 J0
G1 Y7.344
G3 X25.841 Y7.344 I-0.45 J0
G1 Y4.755
Y3.381 Z-9.5
Y2.844
G3 X26.741 Y2.844 I0.45 J0
G1 Y7.344
G3 X25.841 Y7.344 I-0.45 J0
G1 Y4.755
Y3.381
Y2.844 Z-9.696
G3 X26.419 Y2.412 Z-10 I0.45 J0
X26.741 Y2.844 I-0.128 J0.432
G1 Y7.344
G3 X25.841 Y7.344 I-0.45 J0
G1 Y3.381
Y2.844
G3 X26.419 Y2.412 I0.45 J0
G0 Z6
X28.87 Y2.95
Z4
G1 Z2.8 F500
Y2.844 Z2.761
G3 X29.87 Y2.844 Z2.19 I0.5 J0
G1 Y7.344 Z0.552
X29.865 Y7.415 Z0.526
X29.85 Y7.484 Z0.5
G3 X28.87 Y7.344 I-0.48 J-0.141
G1 Y2.844
G3 X29.87 Y2.844 I0.5 J0
G1 Y7.344
X29.865 Y7.415
X29.85 Y7.484
G3 X28.873 Y7.398 Z0 I-0.48 J-0.141
G1 X28.87 Y7.344
Y2.844
G3 X29.87 Y2.844 I0.5 J0
G1 Y7.344
G3 X28.873 Y7.398 I-0.5 J0
G1 X28.87 Y7.344 Z-0.02
Y6.025 Z-0.5
Y2.844
G3 X29.87 Y2.844 I0.5 J0
G1 Y7.344
G3 X28.87 Y7.344 I-0.5 J0
G1 Y6.025
Y4.651 Z-1
Y2.844
G3 X29.87 Y2.844 I0.5 J0
G1 Y7.344
G3 X28.87 Y7.344 I-0.5 J0
G1 Y4.651
Y3.277 Z-1.5
Y2.844
G3 X29.87 Y2.844 I0.5 J0
G1 Y7.344
G3 X28.87 Y7.344 I-0.5 J0
G1 Y4.651
Y3.277
Y2.844 Z-1.658
G3 X29.523 Y2.368 Z-2 I0.5 J0
X29.87 Y2.844 I-0.153 J0.476
G1 Y7.344
G3 X28.87 Y7.344 I-0.5 J0
G1 Y3.277
Y2.844
G3 X29.523 Y2.368 I0.5 J0
X29.87 Y2.844 Z-2.229 I-0.153 J0.476
G1 Y3.587 Z-2.5
Y7.344
G3 X28.87 Y7.344 I-0.5 J0
G1 Y2.844
G3 X29.87 Y2.844 I0.5 J0
G1 Y3.587
Y4.961 Z-3
Y7.344
G3 X28.87 Y7.344 I-0.5 J0
G1 Y2.844
G3 X29.87 Y2.844 I0.5 J0
G1 Y4.961
Y6.335 Z-3.5
Y7.344
G3 X28.87 Y7.344 I-0.5 J0
G1 Y2.844
G3 X29.87 Y2.844 I0.5 J0
G1 Y4.961
Y6.335
Y7.344 Z-3.867
G3 X29.743 Y7.677 Z-4 I-0.5 J0
X28.87 Y7.344 I-0.373 J-0.333
G1 Y2.844
G3 X29.87 Y2.844 I0.5 J0
G1 Y6.335
Y7.344
G3 X29.743 Y7.677 I-0.5 J0
X28.87 Y7.344 Z-4.439 I-0.373 J-0.333
G1 Y7.176 Z-4.5
Y2.844
G3 X29.87 Y2.844 I0.5 J0
G1 Y7.344
G3 X28.87 Y7.344 I-0.5 J0
G1 Y7.176
Y5.803 Z-5
Y2.844
G3 X29.87 Y2.844 I0.5 J0
G1 Y7.344
G3 X28.87 Y7.344 I-0.5 J0
G1 Y5.803
Y4.429 Z-5.5
Y2.844
G3 X29.87 Y2.844 I0.5 J0
G1 Y7.344
G3 X28.87 Y7.344 I-0.5 J0
G1 Y5.803
Y4.429
Y3.055 Z-6
Y2.844
G3 X29.87 Y2.844 I0.5 J0
G1 Y7.344
G3 X28.87 Y7.344 I-0.5 J0
G1 Y4.429
Y3.055
Y2.844 Z-6.077
G3 X29.713 Y2.479 Z-6.5 I0.5 J0
X29.87 Y2.844 I-0.342 J0.364
G1 Y7.344
G3 X28.87 Y7.344 I-0.5 J0
G1 Y3.055
Y2.844
G3 X29.713 Y2.479 I0.5 J0
X29.87 Y2.844 Z-6.649 I-0.342 J0.364
G1 Y3.809 Z-7
Y7.344
G3 X28.87 Y7.344 I-0.5 J0
G1 Y2.844
G3 X29.87 Y2.844 I0.5 J0
G1 Y3.809
Y5.183 Z-7.5
Y7.344
G3 X28.87 Y7.344 I-0.5 J0
G1 Y2.844
G3 X29.87 Y2.844 I0.5 J0
G1 Y5.183
Y6.557 Z-8
Y7.344
G3 X28.87 Y7.344 I-0.5 J0
G1 Y2.844
G3 X29.87 Y2.844 I0.5 J0
G1 Y5.183
Y6.557
Y7.344 Z-8.286
G3 X29.564 Y7.805 Z-8.5 I-0.5 J0
X28.87 Y7.344 I-0.194 J-0.461
G1 Y2.844
G3 X29.87 Y2.844 I0.5 J0
G1 Y6.557
Y7.344
G3 X29.564 Y7.805 I-0.5 J0
X28.87 Y7.344 Z-8.858 I-0.194 J-0.461
G1 Y6.954 Z-9
Y2.844
G3 X29.87 Y2.844 I0.5 J0
G1 Y7.344
G3 X28.87 Y7.344 I-0.5 J0
G1 Y6.954
Y5.581 Z-9.5
Y2.844
G3 X29.87 Y2.844 I0.5 J0
G1 Y7.344
G3 X28.87 Y7.344 I-0.5 J0
G1 Y5.581
Y4.207 Z-10
Y2.844
G3 X29.87 Y2.844 I0.5 J0
G1 Y7.344
G3 X28.87 Y7.344 I-0.5 J0
G1 Y5.581
Y4.207
G0 Z6
X31.974 Y7.293
Z4
G1 Z2.8 F500
Y2.844 Z1.181
G3 X33.074 Y2.844 Z0.552 I0.55 J0
G1 Y2.986 Z0.5
Y7.344
G3 X31.974 Y7.344 I-0.55 J0
G1 Y2.844
G3 X33.074 Y2.844 I0.55 J0
G1 Y2.986
Y4.36 Z0
Y7.344
G3 X31.974 Y7.344 I-0.55 J0
G1 Y2.844
G3 X33.074 Y2.844 I0.55 J0
G1 Y4.36
Y5.734 Z-0.5
Y7.344
G3 X31.974 Y7.344 I-0.55 J0
G1 Y2.844
G3 X33.074 Y2.844 I0.55 J0
G1 Y4.36
Y5.734
Y7.108 Z-1
Y7.344
G3 X31.974 Y7.344 I-0.55 J0
G1 Y2.844
G3 X33.074 Y2.844 I0.55 J0
G1 Y5.734
Y7.108
Y7.344 Z-1.086
G3 X32.262 Y7.827 Z-1.5 I-0.55 J0
X31.974 Y7.344 I0.262 J-0.483
G1 Y2.844
G3 X33.074 Y2.844 I0.55 J0
G1 Y7.108
Y7.344
G3 X32.262 Y7.827 I-0.55 J0
X31.974 Y7.344 Z-1.715 I0.262 J-0.483
G1 Y6.561 Z-2
Y2.844
G3 X33.074 Y2.844 I0.55 J0
G1 Y7.344
G3 X31.974 Y7.344 I-0.55 J0
G1 Y6.561
Y5.187 Z-2.5
Y2.844
G3 X33.074 Y2.844 I0.55 J0
G1 Y7.344
G3 X31.974 Y7.344 I-0.55 J0
G1 Y5.187
Y3.813 Z-3
Y2.844
G3 X33.074 Y2.844 I0.55 J0
G1 Y7.344
G3 X31.974 Y7.344 I-0.55 J0
G1 Y5.187
Y3.813
Y2.844 Z-3.353
G3 X32.117 Y2.475 Z-3.5 I0.55 J0
X33.074 Y2.844 I0.408 J0.369
G1 Y7.344
G3 X31.974 Y7.344 I-0.55 J0
G1 Y3.813
Y2.844
G3 X32.117 Y2.475 I0.55 J0
X33.074 Y2.844 Z-3.982 I0.408 J0.369
G1 Y2.894 Z-4
Y7.344
G3 X31.974 Y7.344 I-0.55 J0
G1 Y2.844
G3 X33.074 Y2.844 I0.55 J0
G1 Y2.894
Y4.268 Z-4.5
Y7.344
G3 X31.974 Y7.344 I-0.55 J0
G1 Y2.844
G3 X33.074 Y2.844 I0.55 J0
G1 Y4.268
Y5.642 Z-5
Y7.344
G3 X31.974 Y7.344 I-0.55 J0
G1 Y2.844
G3 X33.074 Y2.844 I0.55 J0
G1 Y4.268
Y5.642
Y7.016 Z-5.5
Y7.344
G3 X31.974 Y7.344 I-0.55 J0
G1 Y2.844
G3 X33.074 Y2.844 I0.55 J0
G1 Y5.642
Y7.016
Y7.344 Z-5.62
G3 X32.346 Y7.864 Z-6 I-0.55 J0
X31.974 Y7.344 I0.178 J-0.52
G1 Y2.844
G3 X33.074 Y2.844 I0.55 J0
G1 Y7.016
Y7.344
G3 X32.346 Y7.864 I-0.55 J0
X31.974 Y7.344 Z-6.248 I0.178 J-0.52
G1 Y6.653 Z-6.5
Y2.844
G3 X33.074 Y2.844 I0.55 J0
G1 Y7.344
G3 X31.974 Y7.344 I-0.55 J0
G1 Y6.653
Y5.279 Z-7
Y2.844
G3 X33.074 Y2.844 I0.55 J0
G1 Y7.344
G3 X31.974 Y7.344 I-0.55 J0
G1 Y5.279
Y3.905 Z-7.5
Y2.844
G3 X33.074 Y2.844 I0.55 J0
G1 Y7.344
G3 X31.974 Y7.344 I-0.55 J0
G1 Y5.279
Y3.905
Y2.844 Z-7.886
G3 X32.061 Y2.548 Z-8 I0.55 J0
X33.074 Y2.844 I0.464 J0.296
G1 Y7.344
G3 X31.974 Y7.344 I-0.55 J0
G1 Y3.905
Y2.844
G3 X32.061 Y2.548 I0.55 J0
X33.073 Y2.802 Z-8.5 I0.464 J0.296
G1 X33.074 Y2.844
Y7.344
G3 X31.974 Y7.344 I-0.55 J0
G1 Y2.844
G3 X33.073 Y2.802 I0.55 J0
G1 X33.074 Y2.844 Z-8.515
Y4.176 Z-9
Y7.344
G3 X31.974 Y7.344 I-0.55 J0
G1 Y2.844
G3 X33.074 Y2.844 I0.55 J0
G1 Y4.176
Y5.55 Z-9.5
Y7.344
G3 X31.974 Y7.344 I-0.55 J0
G1 Y2.844
G3 X33.074 Y2.844 I0.55 J0
G1 Y5.55
Y6.923 Z-10
Y7.344
G3 X31.974 Y7.344 I-0.55 J0
G1 Y2.844
G3 X33.074 Y2.844 I0.55 J0
G1 Y5.55
Y6.923
G0 Z6
X35.677 Y7.136
Z4
G1 Z2.8 F500
Y2.844 Z1.238
G3 X36.877 Y2.844 Z0.552 I0.6 J0
G1 Y2.986 Z0.5
Y7.344
G3 X35.677 Y7.344 I-0.6 J0
G1 Y2.844
G3 X36.877 Y2.844 I0.6 J0
G1 Y2.986
Y4.36 Z0
Y7.344
G3 X35.677 Y7.344 I-0.6 J0
G1 Y2.844
G3 X36.877 Y2.844 I0.6 J0
G1 Y4.36
Y5.734 Z-0.5
Y7.344
G3 X35.677 Y7.344 I-0.6 J0
G1 Y2.844
G3 X36.877 Y2.844 I0.6 J0
G1 Y4.36
Y5.734
Y7.108 Z-1
Y7.344
G3 X35.677 Y7.344 I-0.6 J0
G1 Y2.844
G3 X36.877 Y2.844 I0.6 J0
G1 Y5.734
Y7.108
Y7.344 Z-1.086
G3 X36.085 Y7.912 Z-1.5 I-0.6 J0
X35.677 Y7.344 I0.192 J-0.569
G1 Y2.844
G3 X36.877 Y2.844 I0.6 J0
G1 Y7.108
Y7.344
G3 X36.085 Y7.912 I-0.6 J0
X35.677 Y7.344 Z-1.772 I0.192 J-0.569
G1 Y6.718 Z-2
Y2.844
G3 X36.877 Y2.844 I0.6 J0
G1 Y7.344
G3 X35.677 Y7.344 I-0.6 J0
G1 Y6.718
Y5.344 Z-2.5
Y2.844
G3 X36.877 Y2.844 I0.6 J0
G1 Y7.344
G3 X35.677 Y7.344 I-0.6 J0
G1 Y5.344
Y3.97 Z-3
Y2.844
G3 X36.877 Y2.844 I0.6 J0
G1 Y7.344
G3 X35.677 Y7.344 I-0.6 J0
G1 Y5.344
Y3.97
Y2.844 Z-3.41
X35.682 Y2.762 Z-3.44
X35.699 Y2.681 Z-3.47
X35.727 Y2.603 Z-3.5
G3 X36.877 Y2.844 I0.55 J0.24
G1 Y7.344
G3 X35.677 Y7.344 I-0.6 J0
G1 Y3.97
Y2.844
X35.682 Y2.762
X35.699 Y2.681
X35.727 Y2.603
G3 X36.82 Y2.589 Z-4 I0.55 J0.24
X36.877 Y2.844 I-0.543 J0.255
G1 Y7.344
G3 X35.677 Y7.344 I-0.6 J0
G1 Y2.844
G3 X36.82 Y2.589 I0.6 J0
X36.877 Y2.844 Z-4.096 I-0.543 J0.255
G1 Y3.954 Z-4.5
Y7.344
G3 X35.677 Y7.344 I-0.6 J0
G1 Y2.844
G3 X36.877 Y2.844 I0.6 J0
G1 Y3.954
Y5.328 Z-5
Y7.344
G3 X35.677 Y7.344 I-0.6 J0
G1 Y2.844
G3 X36.877 Y2.844 I0.6 J0
G1 Y5.328
Y6.701 Z-5.5
Y7.344
G3 X35.677 Y7.344 I-0.6 J0
G1 Y2.844
G3 X36.877 Y2.844 I0.6 J0
G1 Y5.328
Y6.701
Y7.344 Z-5.734
G3 X36.484 Y7.907 Z-6 I-0.6 J0
X35.677 Y7.344 I-0.207 J-0.563
G1 Y2.844
G3 X36.877 Y2.844 I0.6 J0
G1 Y6.701
Y7.344
G3 X36.484 Y7.907 I-0.6 J0
X35.677 Y7.344 Z-6.42 I-0.207 J-0.563
G1 Y7.124 Z-6.5
Y2.844
G3 X36.877 Y2.844 I0.6 J0
G1 Y7.344
G3 X35.677 Y7.344 I-0.6 J0
G1 Y7.124
Y5.75 Z-7
Y2.844
G3 X36.877 Y2.844 I0.6 J0
G1 Y7.344
G3 X35.677 Y7.344 I-0.6 J0
G1 Y5.75
Y4.376 Z-7.5
Y2.844
G3 X36.877 Y2.844 I0.6 J0
G1 Y7.344
G3 X35.677 Y7.344 I-0.6 J0
G1 Y5.75
Y4.376
Y3.003 Z-8
Y2.844
G3 X36.877 Y2.844 I0.6 J0
G1 Y7.344
G3 X35.677 Y7.344 I-0.6 J0
G1 Y4.376
Y3.003
Y2.844 Z-8.058
G3 X36.54 Y2.305 Z-8.5 I0.6 J0
X36.877 Y2.844 I-0.263 J0.539
G1 Y7.344
G3 X35.677 Y7.344 I-0.6 J0
G1 Y3.003
Y2.844
G3 X36.54 Y2.305 I0.6 J0
X36.877 Y2.844 Z-8.744 I-0.263 J0.539
G1 Y3.548 Z-9
Y7.344
G3 X35.677 Y7.344 I-0.6 J0
G1 Y2.844
G3 X36.877 Y2.844 I0.6 J0
G1 Y3.548
Y4.921 Z-9.5
Y7.344
G3 X35.677 Y7.344 I-0.6 J0
G1 Y2.844
G3 X36.877 Y2.844 I0.6 J0
G1 Y4.921
Y6.295 Z-10
Y7.344
G3 X35.677 Y7.344 I-0.6 J0
G1 Y2.844
G3 X36.877 Y2.844 I0.6 J0
G1 Y4.921
Y6.295
G0 Z6
X39.118 Y6.979
Z4
G1 Z2.8 F500
Y2.844 Z1.295
G3 X40.417 Y2.844 Z0.552 I0.65 J0
G1 Y2.986 Z0.5
Y7.344
G3 X39.118 Y7.344 I-0.65 J0
G1 Y2.844
G3 X40.417 Y2.844 I0.65 J0
G1 Y2.986
Y4.36 Z0
Y7.344
G3 X39.118 Y7.344 I-0.65 J0
G1 Y2.844
G3 X40.417 Y2.844 I0.65 J0
G1 Y4.36
Y5.734 Z-0.5
Y7.344
G3 X39.118 Y7.344 I-0.65 J0
G1 Y2.844
G3 X40.417 Y2.844 I0.65 J0
G1 Y4.36
Y5.734
Y7.108 Z-1
Y7.344
G3 X39.118 Y7.344 I-0.65 J0
G1 Y2.844
G3 X40.417 Y2.844 I0.65 J0
G1 Y5.734
Y7.108
Y7.344 Z-1.086
G3 X39.652 Y7.983 Z-1.5 I-0.65 J0
X39.118 Y7.344 I0.116 J-0.64
G1 Y2.844
G3 X40.417 Y2.844 I0.65 J0
G1 Y7.108
Y7.344
G3 X39.652 Y7.983 I-0.65 J0
X39.118 Y7.344 Z-1.829 I0.116 J-0.64
G1 Y6.875 Z-2
Y2.844
G3 X40.417 Y2.844 I0.65 J0
G1 Y7.344
G3 X39.118 Y7.344 I-0.65 J0
G1 Y6.875
Y5.501 Z-2.5
Y2.844
G3 X40.417 Y2.844 I0.65 J0
G1 Y7.344
G3 X39.118 Y7.344 I-0.65 J0
G1 Y5.501
Y4.127 Z-3
Y2.844
G3 X40.417 Y2.844 I0.65 J0
G1 Y7.344
G3 X39.118 Y7.344 I-0.65 J0
G1 Y5.501
Y4.127
Y2.844 Z-3.467
X39.124 Y2.754 Z-3.5
G3 X40.417 Y2.844 I0.644 J0.09
G1 Y7.344
G3 X39.118 Y7.344 I-0.65 J0
G1 Y4.127
Y2.844
X39.124 Y2.754
G3 X40.177 Y2.339 Z-4 I0.644 J0.09
X40.417 Y2.844 I-0.41 J0.505
G1 Y7.344
G3 X39.118 Y7.344 I-0.65 J0
G1 Y2.844
G3 X40.177 Y2.339 I0.65 J0
X40.417 Y2.844 Z-4.21 I-0.41 J0.505
G1 Y3.64 Z-4.5
Y7.344
G3 X39.118 Y7.344 I-0.65 J0
G1 Y2.844
G3 X40.417 Y2.844 I0.65 J0
G1 Y3.64
Y5.013 Z-5
Y7.344
G3 X39.118 Y7.344 I-0.65 J0
G1 Y2.844
G3 X40.417 Y2.844 I0.65 J0
G1 Y5.013
Y6.387 Z-5.5
Y7.344
G3 X39.118 Y7.344 I-0.65 J0
G1 Y2.844
G3 X40.417 Y2.844 I0.65 J0
G1 Y5.013
Y6.387
Y7.344 Z-5.848
G3 X40.288 Y7.733 Z-6 I-0.65 J0
X39.118 Y7.344 I-0.521 J-0.389
G1 Y2.844
G3 X40.417 Y2.844 I0.65 J0
G1 Y6.387
Y7.344
G3 X40.288 Y7.733 I-0.65 J0
X39.165 Y7.589 Z-6.5 I-0.521 J-0.389
G1 X39.139 Y7.51
X39.123 Y7.427
X39.118 Y7.344
Y2.844
G3 X40.417 Y2.844 I0.65 J0
G1 Y7.344
G3 X39.165 Y7.589 I-0.65 J0
G1 X39.139 Y7.51 Z-6.53
X39.123 Y7.427 Z-6.561
X39.118 Y7.344 Z-6.591
Y6.221 Z-7
Y2.844
G3 X40.417 Y2.844 I0.65 J0
G1 Y7.344
G3 X39.118 Y7.344 I-0.65 J0
G1 Y6.221
Y4.848 Z-7.5
Y2.844
G3 X40.417 Y2.844 I0.65 J0
G1 Y7.344
G3 X39.118 Y7.344 I-0.65 J0
G1 Y4.848
Y3.474 Z-8
Y2.844
G3 X40.417 Y2.844 I0.65 J0
G1 Y7.344
G3 X39.118 Y7.344 I-0.65 J0
G1 Y4.848
Y3.474
Y2.844 Z-8.229
G3 X39.499 Y2.252 Z-8.5 I0.65 J0
X40.417 Y2.844 I0.269 J0.592
G1 Y7.344
G3 X39.118 Y7.344 I-0.65 J0
G1 Y3.474
Y2.844
G3 X39.499 Y2.252 I0.65 J0
X40.417 Y2.844 Z-8.973 I0.269 J0.592
G1 Y2.919 Z-9
Y7.344
G3 X39.118 Y7.344 I-0.65 J0
G1 Y2.844
G3 X40.417 Y2.844 I0.65 J0
G1 Y2.919
Y4.293 Z-9.5
Y7.344
G3 X39.118 Y7.344 I-0.65 J0
G1 Y2.844
G3 X40.417 Y2.844 I0.65 J0
G1 Y4.293
Y5.667 Z-10
Y7.344
G3 X39.118 Y7.344 I-0.65 J0
G1 Y2.844
G3 X40.417 Y2.844 I0.65 J0
G1 Y4.293
Y5.667
G0 Z6
X44.071 Y7.819
Z4
G1 Z2.8 F500
G3 X42.857 Y7.344 Z2.19 I-0.514 J-0.475
G1 Y2.844 Z0.552
X42.861 Y2.773 Z0.526
X42.872 Y2.702 Z0.5
G3 X44.257 Y2.844 I0.686 J0.142
G1 Y7.344
G3 X42.857 Y7.344 I-0.7 J0
G1 Y2.844
X42.861 Y2.773
X42.872 Y2.702
G3 X43.95 Y2.264 Z0 I0.686 J0.142
X44.257 Y2.844 I-0.393 J0.58
G1 Y7.344
G3 X42.857 Y7.344 I-0.7 J0
G1 Y2.844
G3 X43.95 Y2.264 I0.7 J0
X44.257 Y2.844 Z-0.249 I-0.393 J0.58
G1 Y3.535 Z-0.5
Y7.344
G3 X42.857 Y7.344 I-0.7 J0
G1 Y2.844
G3 X44.257 Y2.844 I0.7 J0
G1 Y3.535
Y4.909 Z-1
Y7.344
G3 X42.857 Y7.344 I-0.7 J0
G1 Y2.844
G3 X44.257 Y2.844 I0.7 J0
G1 Y4.909
Y6.282 Z-1.5
Y7.344
G3 X42.857 Y7.344 I-0.7 J0
G1 Y2.844
G3 X44.257 Y2.844 I0.7 J0
G1 Y4.909
Y6.282
Y7.344 Z-1.886
G3 X44.189 Y7.646 Z-2 I-0.7 J0
X42.857 Y7.344 I-0.632 J-0.302
G1 Y2.844
G3 X44.257 Y2.844 I0.7 J0
G1 Y6.282
Y7.344
G3 X44.189 Y7.646 I-0.7 J0
X43.037 Y7.812 Z-2.5 I-0.632 J-0.302
X42.857 Y7.344 I0.52 J-0.469
G1 Y2.844
G3 X44.257 Y2.844 I0.7 J0
G1 Y7.344
G3 X43.037 Y7.812 I-0.7 J0
X42.857 Y7.344 Z-2.687 I0.52 J-0.469
G1 Y6.483 Z-3
Y2.844
G3 X44.257 Y2.844 I0.7 J0
G1 Y7.344
G3 X42.857 Y7.344 I-0.7 J0
G1 Y6.483
Y5.11 Z-3.5
Y2.844
G3 X44.257 Y2.844 I0.7 J0
G1 Y7.344
G3 X42.857 Y7.344 I-0.7 J0
G1 Y5.11
Y3.736 Z-4
Y2.844
G3 X44.257 Y2.844 I0.7 J0
G1 Y7.344
G3 X42.857 Y7.344 I-0.7 J0
G1 Y5.11
Y3.736
Y2.844 Z-4.325
G3 X43.017 Y2.399 Z-4.5 I0.7 J0
X44.257 Y2.844 I0.541 J0.445
G1 Y7.344
G3 X42.857 Y7.344 I-0.7 J0
G1 Y3.736
Y2.844
G3 X43.017 Y2.399 I0.7 J0
X44.175 Y2.514 Z-5 I0.541 J0.445
X44.257 Y2.844 I-0.617 J0.33
G1 Y7.344
G3 X42.857 Y7.344 I-0.7 J0
G1 Y2.844
G3 X44.175 Y2.514 I0.7 J0
X44.257 Y2.844 Z-5.125 I-0.617 J0.33
G1 Y3.874 Z-5.5
Y7.344
G3 X42.857 Y7.344 I-0.7 J0
G1 Y2.844
G3 X44.257 Y2.844 I0.7 J0
G1 Y3.874
Y5.248 Z-6
Y7.344
G3 X42.857 Y7.344 I-0.7 J0
G1 Y2.844
G3 X44.257 Y2.844 I0.7 J0
G1 Y5.248
Y6.621 Z-6.5
Y7.344
G3 X42.857 Y7.344 I-0.7 J0
G1 Y2.844
G3 X44.257 Y2.844 I0.7 J0
G1 Y5.248
Y6.621
Y7.344 Z-6.763
G3 X43.976 Y7.905 Z-7 I-0.7 J0
X42.857 Y7.344 I-0.418 J-0.561
G1 Y2.844
G3 X44.257 Y2.844 I0.7 J0
G1 Y6.621
Y7.344
G3 X43.976 Y7.905 I-0.7 J0
X42.879 Y7.516 Z-7.5 I-0.418 J-0.561
G1 X42.863 Y7.431
X42.857 Y7.344
Y2.844
G3 X44.257 Y2.844 I0.7 J0
G1 Y7.344
G3 X42.879 Y7.516 I-0.7 J0
G1 X42.863 Y7.431 Z-7.532
X42.857 Y7.344 Z-7.563
Y6.144 Z-8
Y2.844
G3 X44.257 Y2.844 I0.7 J0
G1 Y7.344
G3 X42.857 Y7.344 I-0.7 J0
G1 Y6.144
Y4.771 Z-8.5
Y2.844
G3 X44.257 Y2.844 I0.7 J0
G1 Y7.344
G3 X42.857 Y7.344 I-0.7 J0
G1 Y4.771
Y3.397 Z-9
Y2.844
G3 X44.257 Y2.844 I0.7 J0
G1 Y7.344
G3 X42.857 Y7.344 I-0.7 J0
G1 Y4.771
Y3.397
Y2.844 Z-9.201
G3 X43.286 Y2.199 Z-9.5 I0.7 J0
X44.257 Y2.844 I0.271 J0.645
G1 Y7.344
G3 X42.857 Y7.344 I-0.7 J0
G1 Y3.397
Y2.844
G3 X43.286 Y2.199 I0.7 J0
X44.257 Y2.839 Z-10 I0.271 J0.645
G1 Y2.844
Y7.344
G3 X42.857 Y7.344 I-0.7 J0
G1 Y2.844
G3 X44.257 Y2.839 I0.7 J0
G0 Z6
X46.854 Y2.468
Z4
G1 Z2.8 F500
G3 X48.065 Y3.22 Z1.985 I0.605 J0.376
X46.854 Y2.468 Z1.171 I-0.605 J-0.376
X48.172 Y2.844 Z0.5 I0.605 J0.376
X47.217 Y2.844 I-0.477 J0
X47.702 Y2.844 I0.243 J0
G1 Y7.344
G3 X47.217 Y7.344 I-0.243 J0
G1 Y2.844
G2 X47.058 Y2.545 I-0.36 J0
G3 X47.064 Y2.207 I0.112 J-0.167
X48.209 Y2.844 I0.396 J0.637
G1 Y7.344
G3 X46.709 Y7.344 I-0.75 J0
G1 Y2.844
G3 X47.064 Y2.207 I0.75 J0
G1 X47.21 Y2.176
G3 X48.172 Y2.844 Z0 I0.249 J0.668
X47.217 Y2.844 I-0.477 J0
X47.702 Y2.844 I0.243 J0
G1 Y7.344
G3 X47.217 Y7.344 I-0.243 J0
G1 Y2.844
G2 X47.058 Y2.545 I-0.36 J0
G3 X47.064 Y2.207 I0.112 J-0.167
X48.209 Y2.844 I0.396 J0.637
G1 Y7.344
G3 X46.709 Y7.344 I-0.75 J0
G1 Y2.844
G3 X47.064 Y2.207 I0.75 J0
G1 X47.21 Y2.176
G3 X48.172 Y2.844 Z-0.5 I0.249 J0.668
X47.217 Y2.844 I-0.477 J0
X47.702 Y2.844 I0.243 J0
G1 Y7.344
G3 X47.217 Y7.344 I-0.243 J0
G1 Y2.844
G2 X47.058 Y2.545 I-0.36 J0
G3 X47.064 Y2.207 I0.112 J-0.167
X48.209 Y2.844 I0.396 J0.637
G1 Y7.344
G3 X46.709 Y7.344 I-0.75 J0
G1 Y2.844
G3 X47.064 Y2.207 I0.75 J0
G1 X47.21 Y2.176
G3 X48.172 Y2.844 Z-1 I0.249 J0.668
X47.217 Y2.844 I-0.477 J0
X47.702 Y2.844 I0.243 J0
G1 Y7.344
G3 X47.217 Y7.344 I-0.243 J0
G1 Y2.844
G2 X47.058 Y2.545 I-0.36 J0
G3 X47.064 Y2.207 I0.112 J-0.167
X48.209 Y2.844 I0.396 J0.637
G1 Y7.344
G3 X46.709 Y7.344 I-0.75 J0
G1 Y2.844
G3 X47.064 Y2.207 I0.75 J0
G1 X47.21 Y2.176
G3 X48.172 Y2.844 Z-1.5 I0.249 J0.668
X47.217 Y2.844 I-0.477 J0
X47.702 Y2.844 I0.243 J0
G1 Y7.344
G3 X47.217 Y7.344 I-0.243 J0
G1 Y2.844
G2 X47.058 Y2.545 I-0.36 J0
G3 X47.064 Y2.207 I0.112 J-0.167
X48.209 Y2.844 I0.396 J0.637
G1 Y7.344
G3 X46.709 Y7.344 I-0.75 J0
G1 Y2.844
G3 X47.064 Y2.207 I0.75 J0
G1 X47.21 Y2.176
G3 X48.172 Y2.844 Z-2 I0.249 J0.668
X47.217 Y2.844 I-0.477 J0
X47.702 Y2.844 I0.243 J0
G1 Y7.344
G3 X47.217 Y7.344 I-0.243 J0
G1 Y2.844
G2 X47.058 Y2.545 I-0.36 J0
G3 X47.064 Y2.207 I0.112 J-0.167
X48.209 Y2.844 I0.396 J0.637
G1 Y7.344
G3 X46.709 Y7.344 I-0.75 J0
G1 Y2.844
G3 X47.064 Y2.207 I0.75 J0
G1 X47.21 Y2.176
G3 X48.172 Y2.844 Z-2.5 I0.249 J0.668
X47.217 Y2.844 I-0.477 J0
X47.702 Y2.844 I0.243 J0
G1 Y7.344
G3 X47.217 Y7.344 I-0.243 J0
G1 Y2.844
G2 X47.058 Y2.545 I-0.36 J0
G3 X47.064 Y2.207 I0.112 J-0.167
X48.209 Y2.844 I0.396 J0.637
G1 Y7.344
G3 X46.709 Y7.344 I-0.75 J0
G1 Y2.844
G3 X47.064 Y2.207 I0.75 J0
G1 X47.21 Y2.176
G3 X48.172 Y2.844 Z-3 I0.249 J0.668
X47.217 Y2.844 I-0.477 J0
X47.702 Y2.844 I0.243 J0
G1 Y7.344
G3 X47.217 Y7.344 I-0.243 J0
G1 Y2.844
G2 X47.058 Y2.545 I-0.36 J0
G3 X47.064 Y2.207 I0.112 J-0.167
X48.209 Y2.844 I0.396 J0.637
G1 Y7.344
G3 X46.709 Y7.344 I-0.75 J0
G1 Y2.844
G3 X47.064 Y2.207 I0.75 J0
G1 X47.21 Y2.176
G3 X48.172 Y2.844 Z-3.5 I0.249 J0.668
X47.217 Y2.844 I-0.477 J0
X47.702 Y2.844 I0.243 J0
G1 Y7.344
G3 X47.217 Y7.344 I-0.243 J0
G1 Y2.844
G2 X47.058 Y2.545 I-0.36 J0
G3 X47.064 Y2.207 I0.112 J-0.167
X48.209 Y2.844 I0.396 J0.637
G1 Y7.344
G3 X46.709 Y7.344 I-0.75 J0
G1 Y2.844
G3 X47.064 Y2.207 I0.75 J0
G1 X47.21 Y2.176
G3 X48.172 Y2.844 Z-4 I0.249 J0.668
X47.217 Y2.844 I-0.477 J0
X47.702 Y2.844 I0.243 J0
G1 Y7.344
G3 X47.217 Y7.344 I-0.243 J0
G1 Y2.844
G2 X47.058 Y2.545 I-0.36 J0
G3 X47.064 Y2.207 I0.112 J-0.167
X48.209 Y2.844 I0.396 J0.637
G1 Y7.344
G3 X46.709 Y7.344 I-0.75 J0
G1 Y2.844
G3 X47.064 Y2.207 I0.75 J0
G1 X47.21 Y2.176
G3 X48.172 Y2.844 Z-4.5 I0.249 J0.668
X47.217 Y2.844 I-0.477 J0
X47.702 Y2.844 I0.243 J0
G1 Y7.344
G3 X47.217 Y7.344 I-0.243 J0
G1 Y2.844
G2 X47.058 Y2.545 I-0.36 J0
G3 X47.064 Y2.207 I0.112 J-0.167
X48.209 Y2.844 I0.396 J0.637
G1 Y7.344
G3 X46.709 Y7.344 I-0.75 J0
G1 Y2.844
G3 X47.064 Y2.207 I0.75 J0
G1 X47.21 Y2.176
G3 X48.172 Y2.844 Z-5 I0.249 J0.668
X47.217 Y2.844 I-0.477 J0
X47.702 Y2.844 I0.243 J0
G1 Y7.344
G3 X47.217 Y7.344 I-0.243 J0
G1 Y2.844
G2 X47.058 Y2.545 I-0.36 J0
G3 X47.064 Y2.207 I0.112 J-0.167
X48.209 Y2.844 I0.396 J0.637
G1 Y7.344
G3 X46.709 Y7.344 I-0.75 J0
G1 Y2.844
G3 X47.064 Y2.207 I0.75 J0
G1 X47.21 Y2.176
G3 X48.172 Y2.844 Z-5.5 I0.249 J0.668
X47.217 Y2.844 I-0.477 J0
X47.702 Y2.844 I0.243 J0
G1 Y7.344
G3 X47.217 Y7.344 I-0.243 J0
G1 Y2.844
G2 X47.058 Y2.545 I-0.36 J0
G3 X47.064 Y2.207 I0.112 J-0.167
X48.209 Y2.844 I0.396 J0.637
G1 Y7.344
G3 X46.709 Y7.344 I-0.75 J0
G1 Y2.844
G3 X47.064 Y2.207 I0.75 J0
G1 X47.21 Y2.176
G3 X48.172 Y2.844 Z-6 I0.249 J0.668
X47.217 Y2.844 I-0.477 J0
X47.702 Y2.844 I0.243 J0
G1 Y7.344
G3 X47.217 Y7.344 I-0.243 J0
G1 Y2.844
G2 X47.058 Y2.545 I-0.36 J0
G3 X47.064 Y2.207 I0.112 J-0.167
X48.209 Y2.844 I0.396 J0.637
G1 Y7.344
G3 X46.709 Y7.344 I-0.75 J0
G1 Y2.844
G3 X47.064 Y2.207 I0.75 J0
G1 X47.21 Y2.176
G3 X48.172 Y2.844 Z-6.5 I0.249 J0.668
X47.217 Y2.844 I-0.477 J0
X47.702 Y2.844 I0.243 J0
G1 Y7.344
G3 X47.217 Y7.344 I-0.243 J0
G1 Y2.844
G2 X47.058 Y2.545 I-0.36 J0
G3 X47.064 Y2.207 I0.112 J-0.167
X48.209 Y2.844 I0.396 J0.637
G1 Y7.344
G3 X46.709 Y7.344 I-0.75 J0
G1 Y2.844
G3 X47.064 Y2.207 I0.75 J0
G1 X47.21 Y2.176
G3 X48.172 Y2.844 Z-7 I0.249 J0.668
X47.217 Y2.844 I-0.477 J0
X47.702 Y2.844 I0.243 J0
G1 Y7.344
G3 X47.217 Y7.344 I-0.243 J0
G1 Y2.844
G2 X47.058 Y2.545 I-0.36 J0
G3 X47.064 Y2.207 I0.112 J-0.167
X48.209 Y2.844 I0.396 J0.637
G1 Y7.344
G3 X46.709 Y7.344 I-0.75 J0
G1 Y2.844
G3 X47.064 Y2.207 I0.75 J0
G1 X47.21 Y2.176
G3 X48.172 Y2.844 Z-7.5 I0.249 J0.668
X47.217 Y2.844 I-0.477 J0
X47.702 Y2.844 I0.243 J0
G1 Y7.344
G3 X47.217 Y7.344 I-0.243 J0
G1 Y2.844
G2 X47.058 Y2.545 I-0.36 J0
G3 X47.064 Y2.207 I0.112 J-0.167
X48.209 Y2.844 I0.396 J0.637
G1 Y7.344
G3 X46.709 Y7.344 I-0.75 J0
G1 Y2.844
G3 X47.064 Y2.207 I0.75 J0
G1 X47.21 Y2.176
G3 X48.172 Y2.844 Z-8 I0.249 J0.668
X47.217 Y2.844 I-0.477 J0
X47.702 Y2.844 I0.243 J0
G1 Y7.344
G3 X47.217 Y7.344 I-0.243 J0
G1 Y2.844
G2 X47.058 Y2.545 I-0.36 J0
G3 X47.064 Y2.207 I0.112 J-0.167
X48.209 Y2.844 I0.396 J0.637
G1 Y7.344
G3 X46.709 Y7.344 I-0.75 J0
G1 Y2.844
G3 X47.064 Y2.207 I0.75 J0
G1 X47.21 Y2.176
G3 X48.172 Y2.844 Z-8.5 I0.249 J0.668
X47.217 Y2.844 I-0.477 J0
X47.702 Y2.844 I0.243 J0
G1 Y7.344
G3 X47.217 Y7.344 I-0.243 J0
G1 Y2.844
G2 X47.058 Y2.545 I-0.36 J0
G3 X47.064 Y2.207 I0.112 J-0.167
X48.209 Y2.844 I0.396 J0.637
G1 Y7.344
G3 X46.709 Y7.344 I-0.75 J0
G1 Y2.844
G3 X47.064 Y2.207 I0.75 J0
G1 X47.21 Y2.176
G3 X48.172 Y2.844 Z-9 I0.249 J0.668
X47.217 Y2.844 I-0.477 J0
X47.702 Y2.844 I0.243 J0
G1 Y7.344
G3 X47.217 Y7.344 I-0.243 J0
G1 Y2.844
G2 X47.058 Y2.545 I-0.36 J0
G3 X47.064 Y2.207 I0.112 J-0.167
X48.209 Y2.844 I0.396 J0.637
G1 Y7.344
G3 X46.709 Y7.344 I-0.75 J0
G1 Y2.844
G3 X47.064 Y2.207 I0.75 J0
G1 X47.21 Y2.176
G3 X48.172 Y2.844 Z-9.5 I0.249 J0.668
X47.217 Y2.844 I-0.477 J0
X47.702 Y2.844 I0.243 J0
G1 Y7.344
G3 X47.217 Y7.344 I-0.243 J0
G1 Y2.844
G2 X47.058 Y2.545 I-0.36 J0
G3 X47.064 Y2.207 I0.112 J-0.167
X48.209 Y2.844 I0.396 J0.637
G1 Y7.344
G3 X46.709 Y7.344 I-0.75 J0
G1 Y2.844
G3 X47.064 Y2.207 I0.75 J0
G1 X47.21 Y2.176
G3 X48.172 Y2.844 Z-10 I0.249 J0.668
X47.217 Y2.844 I-0.477 J0
X47.702 Y2.844 I0.243 J0
G1 Y7.344
G3 X47.217 Y7.344 I-0.243 J0
G1 Y2.844
G2 X47.058 Y2.545 I-0.36 J0
G3 X47.064 Y2.207 I0.112 J-0.167
X48.209 Y2.844 I0.396 J0.637
G1 Y7.344
G3 X46.709 Y7.344 I-0.75 J0
G1 Y2.844
G3 X47.064 Y2.207 I0.75 J0
G0 Z6
X23.411 Y2.497
Z4
G1 Z2.8 F500
G3 X23.612 Y2.844 Z2.647 I-0.199 J0.347
G1 Y7.344 Z1.009
G3 X22.812 Y7.344 Z0.552 I-0.4 J0
G1 Y7.201 Z0.5
Y2.844
G3 X23.612 Y2.844 I0.4 J0
G1 Y7.344
G3 X22.812 Y7.344 I-0.4 J0
G1 Y7.201
Y5.828 Z0
Y2.844
G3 X23.612 Y2.844 I0.4 J0
G1 Y7.344
G3 X22.812 Y7.344 I-0.4 J0
G1 Y5.828
Y4.454 Z-0.5
Y2.844
G3 X23.612 Y2.844 I0.4 J0
G1 Y7.344
G3 X22.812 Y7.344 I-0.4 J0
G1 Y5.828
Y4.454
Y3.08 Z-1
Y2.844
G3 X23.612 Y2.844 I0.4 J0
G1 Y7.344
G3 X22.812 Y7.344 I-0.4 J0
G1 Y4.454
Y3.08
Y2.844 Z-1.086
G3 X23.594 Y2.726 Z-1.5 I0.4 J0
G1 X23.607 Y2.785
X23.612 Y2.844
Y7.344
G3 X22.812 Y7.344 I-0.4 J0
G1 Y3.08
Y2.844
G3 X23.594 Y2.726 I0.4 J0
G1 X23.607 Y2.785 Z-1.522
X23.612 Y2.844 Z-1.543
Y4.098 Z-2
Y7.344
G3 X22.812 Y7.344 I-0.4 J0
G1 Y2.844
G3 X23.612 Y2.844 I0.4 J0
G1 Y4.098
Y5.472 Z-2.5
Y7.344
G3 X22.812 Y7.344 I-0.4 J0
G1 Y2.844
G3 X23.612 Y2.844 I0.4 J0
G1 Y5.472
Y6.846 Z-3
Y7.344
G3 X22.812 Y7.344 I-0.4 J0
G1 Y2.844
G3 X23.612 Y2.844 I0.4 J0
G1 Y5.472
Y6.846
Y7.344 Z-3.181
G3 X22.98 Y7.67 Z-3.5 I-0.4 J0
X22.812 Y7.344 I0.232 J-0.326
G1 Y2.844
G3 X23.612 Y2.844 I0.4 J0
G1 Y6.846
Y7.344
G3 X22.98 Y7.67 I-0.4 J0
X22.812 Y7.344 Z-3.639 I0.232 J-0.326
G1 Y6.351 Z-4
Y2.844
G3 X23.612 Y2.844 I0.4 J0
G1 Y7.344
G3 X22.812 Y7.344 I-0.4 J0
G1 Y6.351
Y4.977 Z-4.5
Y2.844
G3 X23.612 Y2.844 I0.4 J0
G1 Y7.344
G3 X22.812 Y7.344 I-0.4 J0
G1 Y4.977
Y3.604 Z-5
Y2.844
G3 X23.612 Y2.844 I0.4 J0
G1 Y7.344
G3 X22.812 Y7.344 I-0.4 J0
G1 Y4.977
Y3.604
Y2.844 Z-5.276
G3 X23.198 Y2.444 Z-5.5 I0.4 J0
X23.612 Y2.844 I0.014 J0.4
G1 Y7.344
G3 X22.812 Y7.344 I-0.4 J0
G1 Y3.604
Y2.844
G3 X23.198 Y2.444 I0.4 J0
X23.612 Y2.844 Z-5.734 I0.014 J0.4
G1 Y3.575 Z-6
Y7.344
G3 X22.812 Y7.344 I-0.4 J0
G1 Y2.844
G3 X23.612 Y2.844 I0.4 J0
G1 Y3.575
Y4.949 Z-6.5
Y7.344
G3 X22.812 Y7.344 I-0.4 J0
G1 Y2.844
G3 X23.612 Y2.844 I0.4 J0
G1 Y4.949
Y6.323 Z-7
Y7.344
G3 X22.812 Y7.344 I-0.4 J0
G1 Y2.844
G3 X23.612 Y2.844 I0.4 J0
G1 Y4.949
Y6.323
Y7.344 Z-7.372
G3 X23.466 Y7.652 Z-7.5 I-0.4 J0
X22.812 Y7.344 I-0.255 J-0.309
G1 Y2.844
G3 X23.612 Y2.844 I0.4 J0
G1 Y6.323
Y7.344
G3 X23.466 Y7.652 I-0.4 J0
X22.812 Y7.344 Z-7.829 I-0.255 J-0.309
G1 Y6.874 Z-8
Y2.844
G3 X23.612 Y2.844 I0.4 J0
G1 Y7.344
G3 X22.812 Y7.344 I-0.4 J0
G1 Y6.874
Y5.501 Z-8.5
Y2.844
G3 X23.612 Y2.844 I0.4 J0
G1 Y7.344
G3 X22.812 Y7.344 I-0.4 J0
G1 Y5.501
Y4.127 Z-9
Y2.844
G3 X23.612 Y2.844 I0.4 J0
G1 Y7.344
G3 X22.812 Y7.344 I-0.4 J0
G1 Y5.501
Y4.127
Y2.844 Z-9.467
X22.814 Y2.799 Z-9.483
X22.822 Y2.754 Z-9.5
G3 X23.612 Y2.844 I0.39 J0.09
G1 Y7.344
G3 X22.812 Y7.344 I-0.4 J0
G1 Y4.127
Y2.844
X22.814 Y2.799
X22.822 Y2.754
G3 X23.612 Y2.844 Z-9.924 I0.39 J0.09
G1 Y3.052 Z-10
Y7.344
G3 X22.812 Y7.344 I-0.4 J0
G1 Y2.844
G3 X23.612 Y2.844 I0.4 J0
G1 Y3.052
G0 Z6
X20.296 Y6.767
Z4
G1 Z2.8 F500
Y7.344 Z2.59
G3 X19.596 Y7.344 Z2.19 I-0.35 J0
G1 Y2.844 Z0.552
X19.603 Y2.773 Z0.526
X19.624 Y2.705 Z0.5
G3 X20.296 Y2.844 I0.321 J0.139
G1 Y7.344
G3 X19.596 Y7.344 I-0.35 J0
G1 Y2.844
X19.603 Y2.773
X19.624 Y2.705
G3 X20.296 Y2.844 Z0.152 I0.321 J0.139
G1 Y3.261 Z0
Y7.344
G3 X19.596 Y7.344 I-0.35 J0
G1 Y2.844
G3 X20.296 Y2.844 I0.35 J0
G1 Y3.261
Y4.634 Z-0.5
Y7.344
G3 X19.596 Y7.344 I-0.35 J0
G1 Y2.844
G3 X20.296 Y2.844 I0.35 J0
G1 Y4.634
Y6.008 Z-1
Y7.344
G3 X19.596 Y7.344 I-0.35 J0
G1 Y2.844
G3 X20.296 Y2.844 I0.35 J0
G1 Y4.634
Y6.008
Y7.344 Z-1.486
X20.294 Y7.382 Z-1.5
G3 X19.596 Y7.344 I-0.348 J-0.038
G1 Y2.844
G3 X20.296 Y2.844 I0.35 J0
G1 Y6.008
Y7.344
X20.294 Y7.382
G3 X19.596 Y7.344 Z-1.886 I-0.348 J-0.038
G1 Y7.032 Z-2
Y2.844
G3 X20.296 Y2.844 I0.35 J0
G1 Y7.344
G3 X19.596 Y7.344 I-0.35 J0
G1 Y7.032
Y5.658 Z-2.5
Y2.844
G3 X20.296 Y2.844 I0.35 J0
G1 Y7.344
G3 X19.596 Y7.344 I-0.35 J0
G1 Y5.658
Y4.284 Z-3
Y2.844
G3 X20.296 Y2.844 I0.35 J0
G1 Y7.344
G3 X19.596 Y7.344 I-0.35 J0
G1 Y5.658
Y4.284
Y2.911 Z-3.5
Y2.844
G3 X20.296 Y2.844 I0.35 J0
G1 Y7.344
G3 X19.596 Y7.344 I-0.35 J0
G1 Y4.284
Y2.911
Y2.844 Z-3.524
G3 X20.296 Y2.844 Z-3.924 I0.35 J0
G1 Y3.051 Z-4
Y7.344
G3 X19.596 Y7.344 I-0.35 J0
G1 Y2.911
Y2.844
G3 X20.296 Y2.844 I0.35 J0
G1 Y3.051
Y4.425 Z-4.5
Y7.344
G3 X19.596 Y7.344 I-0.35 J0
G1 Y2.844
G3 X20.296 Y2.844 I0.35 J0
G1 Y4.425
Y5.799 Z-5
Y7.344
G3 X19.596 Y7.344 I-0.35 J0
G1 Y2.844
G3 X20.296 Y2.844 I0.35 J0
G1 Y4.425
Y5.799
Y7.173 Z-5.5
Y7.344
G3 X19.596 Y7.344 I-0.35 J0
G1 Y2.844
G3 X20.296 Y2.844 I0.35 J0
G1 Y5.799
Y7.173
Y7.344 Z-5.562
G3 X19.596 Y7.344 Z-5.963 I-0.35 J0
G1 Y7.241 Z-6
Y2.844
G3 X20.296 Y2.844 I0.35 J0
G1 Y7.173
Y7.344
G3 X19.596 Y7.344 I-0.35 J0
G1 Y7.241
Y5.867 Z-6.5
Y2.844
G3 X20.296 Y2.844 I0.35 J0
G1 Y7.344
G3 X19.596 Y7.344 I-0.35 J0
G1 Y5.867
Y4.494 Z-7
Y2.844
G3 X20.296 Y2.844 I0.35 J0
G1 Y7.344
G3 X19.596 Y7.344 I-0.35 J0
G1 Y5.867
Y4.494
Y3.12 Z-7.5
Y2.844
G3 X20.296 Y2.844 I0.35 J0
G1 Y7.344
G3 X19.596 Y7.344 I-0.35 J0
G1 Y4.494
Y3.12
Y2.844 Z-7.6
G3 X20.296 Y2.842 Z-8 I0.35 J0
G1 Y2.844
Y7.344
G3 X19.596 Y7.344 I-0.35 J0
G1 Y3.12
Y2.844
G3 X20.296 Y2.842 I0.35 J0
G1 Y2.844 Z-8.001
Y4.216 Z-8.5
Y7.344
G3 X19.596 Y7.344 I-0.35 J0
G1 Y2.844
G3 X20.296 Y2.844 I0.35 J0
G1 Y4.216
Y5.59 Z-9
Y7.344
G3 X19.596 Y7.344 I-0.35 J0
G1 Y2.844
G3 X20.296 Y2.844 I0.35 J0
G1 Y5.59
Y6.963 Z-9.5
Y7.344
G3 X19.596 Y7.344 I-0.35 J0
G1 Y2.844
G3 X20.296 Y2.844 I0.35 J0
G1 Y5.59
Y6.963
Y7.344 Z-9.638
G3 X19.612 Y7.449 Z-10 I-0.35 J0
G1 X19.6 Y7.397
X19.596 Y7.344
Y2.844
G3 X20.296 Y2.844 I0.35 J0
G1 Y6.963
Y7.344
G3 X19.612 Y7.449 I-0.35 J0
G0 Z6
X16.823 Y2.652
Z4
G1 Z2.8 F500
G3 X17.353 Y2.844 Z2.533 I0.231 J0.192
G1 Y7.344 Z0.895
G3 X16.753 Y7.344 Z0.552 I-0.3 J0
G1 Y7.201 Z0.5
Y2.844
G3 X17.353 Y2.844 I0.3 J0
G1 Y7.344
G3 X16.753 Y7.344 I-0.3 J0
G1 Y7.201
Y5.828 Z0
Y2.844
G3 X17.353 Y2.844 I0.3 J0
G1 Y7.344
G3 X16.753 Y7.344 I-0.3 J0
G1 Y5.828
Y4.454 Z-0.5
Y2.844
G3 X17.353 Y2.844 I0.3 J0
G1 Y7.344
G3 X16.753 Y7.344 I-0.3 J0
G1 Y5.828
Y4.454
Y3.08 Z-1
Y2.844
G3 X17.353 Y2.844 I0.3 J0
G1 Y7.344
G3 X16.753 Y7.344 I-0.3 J0
G1 Y4.454
Y3.08
Y2.844 Z-1.086
G3 X17.353 Y2.844 Z-1.429 I0.3 J0
G1 Y3.039 Z-1.5
Y7.344
G3 X16.753 Y7.344 I-0.3 J0
G1 Y3.08
Y2.844
G3 X17.353 Y2.844 I0.3 J0
G1 Y3.039
Y4.413 Z-2
Y7.344
G3 X16.753 Y7.344 I-0.3 J0
G1 Y2.844
G3 X17.353 Y2.844 I0.3 J0
G1 Y4.413
Y5.786 Z-2.5
Y7.344
G3 X16.753 Y7.344 I-0.3 J0
G1 Y2.844
G3 X17.353 Y2.844 I0.3 J0
G1 Y4.413
Y5.786
Y7.16 Z-3
Y7.344
G3 X16.753 Y7.344 I-0.3 J0
G1 Y2.844
G3 X17.353 Y2.844 I0.3 J0
G1 Y5.786
Y7.16
Y7.344 Z-3.067
G3 X16.753 Y7.344 Z-3.41 I-0.3 J0
G1 Y7.096 Z-3.5
Y2.844
G3 X17.353 Y2.844 I0.3 J0
G1 Y7.16
Y7.344
G3 X16.753 Y7.344 I-0.3 J0
G1 Y7.096
Y5.723 Z-4
Y2.844
G3 X17.353 Y2.844 I0.3 J0
G1 Y7.344
G3 X16.753 Y7.344 I-0.3 J0
G1 Y5.723
Y4.349 Z-4.5
Y2.844
G3 X17.353 Y2.844 I0.3 J0
G1 Y7.344
G3 X16.753 Y7.344 I-0.3 J0
G1 Y5.723
Y4.349
Y2.975 Z-5
Y2.844
G3 X17.353 Y2.844 I0.3 J0
G1 Y7.344
G3 X16.753 Y7.344 I-0.3 J0
G1 Y4.349
Y2.975
Y2.844 Z-5.048
G3 X17.353 Y2.844 Z-5.391 I0.3 J0
G1 Y3.144 Z-5.5
Y7.344
G3 X16.753 Y7.344 I-0.3 J0
G1 Y2.975
Y2.844
G3 X17.353 Y2.844 I0.3 J0
G1 Y3.144
Y4.518 Z-6
Y7.344
G3 X16.753 Y7.344 I-0.3 J0
G1 Y2.844
G3 X17.353 Y2.844 I0.3 J0
G1 Y4.518
Y5.891 Z-6.5
Y7.344
G3 X16.753 Y7.344 I-0.3 J0
G1 Y2.844
G3 X17.353 Y2.844 I0.3 J0
G1 Y4.518
Y5.891
Y7.265 Z-7
Y7.344
G3 X16.753 Y7.344 I-0.3 J0
G1 Y2.844
G3 X17.353 Y2.844 I0.3 J0
G1 Y5.891
Y7.265
Y7.344 Z-7.029
G3 X16.753 Y7.344 Z-7.372 I-0.3 J0
G1 Y6.991 Z-7.5
Y2.844
G3 X17.353 Y2.844 I0.3 J0
G1 Y7.265
Y7.344
G3 X16.753 Y7.344 I-0.3 J0
G1 Y6.991
Y5.618 Z-8
Y2.844
G3 X17.353 Y2.844 I0.3 J0
G1 Y7.344
G3 X16.753 Y7.344 I-0.3 J0
G1 Y5.618
Y4.244 Z-8.5
Y2.844
G3 X17.353 Y2.844 I0.3 J0
G1 Y7.344
G3 X16.753 Y7.344 I-0.3 J0
G1 Y5.618
Y4.244
Y2.87 Z-9
Y2.844
G3 X17.353 Y2.844 I0.3 J0
G1 Y7.344
G3 X16.753 Y7.344 I-0.3 J0
G1 Y4.244
Y2.87
Y2.844 Z-9.01
G3 X17.353 Y2.844 Z-9.353 I0.3 J0
G1 Y3.249 Z-9.5
Y7.344
G3 X16.753 Y7.344 I-0.3 J0
G1 Y2.87
Y2.844
G3 X17.353 Y2.844 I0.3 J0
G1 Y3.249
Y4.623 Z-10
Y7.344
G3 X16.753 Y7.344 I-0.3 J0
G1 Y2.844
G3 X17.353 Y2.844 I0.3 J0
G1 Y4.623
G0 Z6
X13.986 Y2.95
Z4
G1 Z2.8 F500
Y2.844 Z2.761
G3 X14.486 Y2.844 Z2.476 I0.25 J0
G1 Y7.344 Z0.838
G3 X13.986 Y7.344 Z0.552 I-0.25 J0
G1 Y7.201 Z0.5
Y2.844
G3 X14.486 Y2.844 I0.25 J0
G1 Y7.344
G3 X13.986 Y7.344 I-0.25 J0
G1 Y7.201
Y5.828 Z0
Y2.844
G3 X14.486 Y2.844 I0.25 J0
G1 Y7.344
G3 X13.986 Y7.344 I-0.25 J0
G1 Y5.828
Y4.454 Z-0.5
Y2.844
G3 X14.486 Y2.844 I0.25 J0
G1 Y7.344
G3 X13.986 Y7.344 I-0.25 J0
G1 Y5.828
Y4.454
Y3.08 Z-1
Y2.844
G3 X14.486 Y2.844 I0.25 J0
G1 Y7.344
G3 X13.986 Y7.344 I-0.25 J0
G1 Y4.454
Y3.08
Y2.844 Z-1.086
G3 X14.486 Y2.844 Z-1.372 I0.25 J0
G1 Y3.196 Z-1.5
Y7.344
G3 X13.986 Y7.344 I-0.25 J0
G1 Y3.08
Y2.844
G3 X14.486 Y2.844 I0.25 J0
G1 Y3.196
Y4.57 Z-2
Y7.344
G3 X13.986 Y7.344 I-0.25 J0
G1 Y2.844
G3 X14.486 Y2.844 I0.25 J0
G1 Y4.57
Y5.943 Z-2.5
Y7.344
G3 X13.986 Y7.344 I-0.25 J0
G1 Y2.844
G3 X14.486 Y2.844 I0.25 J0
G1 Y4.57
Y5.943
Y7.317 Z-3
Y7.344
G3 X13.986 Y7.344 I-0.25 J0
G1 Y2.844
G3 X14.486 Y2.844 I0.25 J0
G1 Y5.943
Y7.317
Y7.344 Z-3.01
G3 X13.986 Y7.344 Z-3.296 I-0.25 J0
G1 Y6.782 Z-3.5
Y2.844
G3 X14.486 Y2.844 I0.25 J0
G1 Y7.317
Y7.344
G3 X13.986 Y7.344 I-0.25 J0
G1 Y6.782
Y5.409 Z-4
Y2.844
G3 X14.486 Y2.844 I0.25 J0
G1 Y7.344
G3 X13.986 Y7.344 I-0.25 J0
G1 Y5.409
Y4.035 Z-4.5
Y2.844
G3 X14.486 Y2.844 I0.25 J0
G1 Y7.344
G3 X13.986 Y7.344 I-0.25 J0
G1 Y5.409
Y4.035
Y2.844 Z-4.933
X13.993 Y2.784 Z-4.956
X14.015 Y2.727 Z-4.978
X14.05 Y2.677 Z-5
G3 X14.486 Y2.844 I0.186 J0.167
G1 Y7.344
G3 X13.986 Y7.344 I-0.25 J0
G1 Y4.035
Y2.844
X13.993 Y2.784
X14.015 Y2.727
X14.05 Y2.677
G3 X14.486 Y2.844 Z-5.219 I0.186 J0.167
G1 Y3.615 Z-5.5
Y7.344
G3 X13.986 Y7.344 I-0.25 J0
G1 Y2.844
G3 X14.486 Y2.844 I0.25 J0
G1 Y3.615
Y4.989 Z-6
Y7.344
G3 X13.986 Y7.344 I-0.25 J0
G1 Y2.844
G3 X14.486 Y2.844 I0.25 J0
G1 Y4.989
Y6.363 Z-6.5
Y7.344
G3 X13.986 Y7.344 I-0.25 J0
G1 Y2.844
G3 X14.486 Y2.844 I0.25 J0
G1 Y4.989
Y6.363
Y7.344 Z-6.857
G3 X14.236 Y7.594 Z-7 I-0.25 J0
X13.986 Y7.344 I0 J-0.25
G1 Y2.844
G3 X14.486 Y2.844 I0.25 J0
G1 Y6.363
Y7.344
G3 X14.236 Y7.594 I-0.25 J0
X13.986 Y7.344 Z-7.143 I0 J-0.25
G1 Y6.363 Z-7.5
Y2.844
G3 X14.486 Y2.844 I0.25 J0
G1 Y7.344
G3 X13.986 Y7.344 I-0.25 J0
G1 Y6.363
Y4.989 Z-8
Y2.844
G3 X14.486 Y2.844 I0.25 J0
G1 Y7.344
G3 X13.986 Y7.344 I-0.25 J0
G1 Y4.989
Y3.615 Z-8.5
Y2.844
G3 X14.486 Y2.844 I0.25 J0
G1 Y7.344
G3 X13.986 Y7.344 I-0.25 J0
G1 Y4.989
Y3.615
Y2.844 Z-8.781
G3 X14.422 Y2.677 Z-9 I0.25 J0
G1 X14.457 Y2.727
X14.479 Y2.783
X14.486 Y2.844
Y7.344
G3 X13.986 Y7.344 I-0.25 J0
G1 Y3.615
Y2.844
G3 X14.422 Y2.677 I0.25 J0
G1 X14.457 Y2.727 Z-9.022
X14.479 Y2.783 Z-9.044
X14.486 Y2.844 Z-9.067
Y4.034 Z-9.5
Y7.344
G3 X13.986 Y7.344 I-0.25 J0
G1 Y2.844
G3 X14.486 Y2.844 I0.25 J0
G1 Y4.034
Y5.408 Z-10
Y7.344
G3 X13.986 Y7.344 I-0.25 J0
G1 Y2.844
G3 X14.486 Y2.844 I0.25 J0
G1 Y5.408
G0 Z6
X11.031 Y3.892
Z4
G1 Z2.8 F500
Y2.844 Z2.418
G3 X11.432 Y2.844 Z2.19 I0.2 J0
G1 Y7.344 Z0.552
X11.426 Y7.391 Z0.535
X11.409 Y7.435 Z0.517
X11.383 Y7.475 Z0.5
G3 X11.031 Y7.344 I-0.151 J-0.131
G1 Y2.844
G3 X11.432 Y2.844 I0.2 J0
G1 Y7.344
X11.426 Y7.391
X11.409 Y7.435
X11.383 Y7.475
G3 X11.031 Y7.344 Z0.323 I-0.151 J-0.131
G1 Y6.456 Z0
Y2.844
G3 X11.432 Y2.844 I0.2 J0
G1 Y7.344
G3 X11.031 Y7.344 I-0.2 J0
G1 Y6.456
Y5.082 Z-0.5
Y2.844
G3 X11.432 Y2.844 I0.2 J0
G1 Y7.344
G3 X11.031 Y7.344 I-0.2 J0
G1 Y5.082
Y3.709 Z-1
Y2.844
G3 X11.432 Y2.844 I0.2 J0
G1 Y7.344
G3 X11.031 Y7.344 I-0.2 J0
G1 Y5.082
Y3.709
Y2.844 Z-1.315
G3 X11.397 Y2.732 Z-1.5 I0.2 J0
G1 X11.416 Y2.767
X11.428 Y2.804
X11.432 Y2.844
Y7.344
G3 X11.031 Y7.344 I-0.2 J0
G1 Y3.709
Y2.844
G3 X11.397 Y2.732 I0.2 J0
G1 X11.416 Y2.767 Z-1.514
X11.428 Y2.804 Z-1.529
X11.432 Y2.844 Z-1.543
Y4.098 Z-2
Y7.344
G3 X11.031 Y7.344 I-0.2 J0
G1 Y2.844
G3 X11.432 Y2.844 I0.2 J0
G1 Y4.098
Y5.472 Z-2.5
Y7.344
G3 X11.031 Y7.344 I-0.2 J0
G1 Y2.844
G3 X11.432 Y2.844 I0.2 J0
G1 Y5.472
Y6.846 Z-3
Y7.344
G3 X11.031 Y7.344 I-0.2 J0
G1 Y2.844
G3 X11.432 Y2.844 I0.2 J0
G1 Y5.472
Y6.846
Y7.344 Z-3.181
G3 X11.031 Y7.344 Z-3.41 I-0.2 J0
G1 Y7.096 Z-3.5
Y2.844
G3 X11.432 Y2.844 I0.2 J0
G1 Y6.846
Y7.344
G3 X11.031 Y7.344 I-0.2 J0
G1 Y7.096
Y5.723 Z-4
Y2.844
G3 X11.432 Y2.844 I0.2 J0
G1 Y7.344
G3 X11.031 Y7.344 I-0.2 J0
G1 Y5.723
Y4.349 Z-4.5
Y2.844
G3 X11.432 Y2.844 I0.2 J0
G1 Y7.344
G3 X11.031 Y7.344 I-0.2 J0
G1 Y5.723
Y4.349
Y2.975 Z-5
Y2.844
G3 X11.432 Y2.844 I0.2 J0
G1 Y7.344
G3 X11.031 Y7.344 I-0.2 J0
G1 Y4.349
Y2.975
Y2.844 Z-5.048
G3 X11.432 Y2.844 Z-5.276 I0.2 J0
G1 Y3.458 Z-5.5
Y7.344
G3 X11.031 Y7.344 I-0.2 J0
G1 Y2.975
Y2.844
G3 X11.432 Y2.844 I0.2 J0
G1 Y3.458
Y4.832 Z-6
Y7.344
G3 X11.031 Y7.344 I-0.2 J0
G1 Y2.844
G3 X11.432 Y2.844 I0.2 J0
G1 Y4.832
Y6.205 Z-6.5
Y7.344
G3 X11.031 Y7.344 I-0.2 J0
G1 Y2.844
G3 X11.432 Y2.844 I0.2 J0
G1 Y4.832
Y6.205
Y7.344 Z-6.914
X11.426 Y7.391 Z-6.931
X11.41 Y7.435 Z-6.949
X11.384 Y7.474 Z-6.966
X11.349 Y7.506 Z-6.983
X11.308 Y7.529 Z-7
G3 X11.031 Y7.344 I-0.077 J-0.185
G1 Y2.844
G3 X11.432 Y2.844 I0.2 J0
G1 Y6.205
Y7.344
X11.426 Y7.391
X11.41 Y7.435
X11.384 Y7.474
X11.349 Y7.506
X11.308 Y7.529
G3 X11.031 Y7.344 Z-7.143 I-0.077 J-0.185
G1 Y6.363 Z-7.5
Y2.844
G3 X11.432 Y2.844 I0.2 J0
G1 Y7.344
G3 X11.031 Y7.344 I-0.2 J0
G1 Y6.363
Y4.989 Z-8
Y2.844
G3 X11.432 Y2.844 I0.2 J0
G1 Y7.344
G3 X11.031 Y7.344 I-0.2 J0
G1 Y4.989
Y3.616 Z-8.5
Y2.844
G3 X11.432 Y2.844 I0.2 J0
G1 Y7.344
G3 X11.031 Y7.344 I-0.2 J0
G1 Y4.989
Y3.616
Y2.844 Z-8.781
G3 X11.43 Y2.818 Z-9 I0.2 J0
G1 X11.432 Y2.844
Y7.344
G3 X11.031 Y7.344 I-0.2 J0
G1 Y3.616
Y2.844
G3 X11.43 Y2.818 I0.2 J0
G1 X11.432 Y2.844 Z-9.01
Y4.191 Z-9.5
Y7.344
G3 X11.031 Y7.344 I-0.2 J0
G1 Y2.844
G3 X11.432 Y2.844 I0.2 J0
G1 Y4.191
Y5.565 Z-10
Y7.344
G3 X11.031 Y7.344 I-0.2 J0
G1 Y2.844
G3 X11.432 Y2.844 I0.2 J0
G1 Y5.565
G0 Z6
X8.488 Y4.049
Z4
G1 Z2.8 F500
Y2.844 Z2.361
G3 X8.788 Y2.844 Z2.19 I0.15 J0
G1 Y7.344 Z0.552
X8.781 Y7.391 Z0.535
X8.759 Y7.433 Z0.517
X8.726 Y7.466 Z0.5
G3 X8.488 Y7.344 I-0.087 J-0.122
G1 Y2.844
G3 X8.788 Y2.844 I0.15 J0
G1 Y7.344
X8.781 Y7.391
X8.759 Y7.433
X8.726 Y7.466
G3 X8.488 Y7.344 Z0.38 I-0.087 J-0.122
G1 Y6.299 Z0
Y2.844
G3 X8.788 Y2.844 I0.15 J0
G1 Y7.344
G3 X8.488 Y7.344 I-0.15 J0
G1 Y6.299
Y4.925 Z-0.5
Y2.844
G3 X8.788 Y2.844 I0.15 J0
G1 Y7.344
G3 X8.488 Y7.344 I-0.15 J0
G1 Y4.925
Y3.551 Z-1
Y2.844
G3 X8.788 Y2.844 I0.15 J0
G1 Y7.344
G3 X8.488 Y7.344 I-0.15 J0
G1 Y4.925
Y3.551
Y2.844 Z-1.258
G3 X8.788 Y2.844 Z-1.429 I0.15 J0
G1 Y3.039 Z-1.5
Y7.344
G3 X8.488 Y7.344 I-0.15 J0
G1 Y3.551
Y2.844
G3 X8.788 Y2.844 I0.15 J0
G1 Y3.039
Y4.413 Z-2
Y7.344
G3 X8.488 Y7.344 I-0.15 J0
G1 Y2.844
G3 X8.788 Y2.844 I0.15 J0
G1 Y4.413
Y5.786 Z-2.5
Y7.344
G3 X8.488 Y7.344 I-0.15 J0
G1 Y2.844
G3 X8.788 Y2.844 I0.15 J0
G1 Y4.413
Y5.786
Y7.16 Z-3
Y7.344
G3 X8.488 Y7.344 I-0.15 J0
G1 Y2.844
G3 X8.788 Y2.844 I0.15 J0
G1 Y5.786
Y7.16
Y7.344 Z-3.067
G3 X8.488 Y7.344 Z-3.238 I-0.15 J0
G1 Y6.625 Z-3.5
Y2.844
G3 X8.788 Y2.844 I0.15 J0
G1 Y7.16
Y7.344
G3 X8.488 Y7.344 I-0.15 J0
G1 Y6.625
Y5.251 Z-4
Y2.844
G3 X8.788 Y2.844 I0.15 J0
G1 Y7.344
G3 X8.488 Y7.344 I-0.15 J0
G1 Y5.251
Y3.878 Z-4.5
Y2.844
G3 X8.788 Y2.844 I0.15 J0
G1 Y7.344
G3 X8.488 Y7.344 I-0.15 J0
G1 Y5.251
Y3.878
Y2.844 Z-4.876
G3 X8.735 Y2.729 Z-5 I0.15 J0
G1 X8.764 Y2.761
X8.782 Y2.801
X8.788 Y2.844
Y7.344
G3 X8.488 Y7.344 I-0.15 J0
G1 Y3.878
Y2.844
G3 X8.735 Y2.729 I0.15 J0
G1 X8.764 Y2.761 Z-5.016
X8.782 Y2.801 Z-5.032
X8.788 Y2.844 Z-5.048
Y4.086 Z-5.5
Y7.344
G3 X8.488 Y7.344 I-0.15 J0
G1 Y2.844
G3 X8.788 Y2.844 I0.15 J0
G1 Y4.086
Y5.46 Z-6
Y7.344
G3 X8.488 Y7.344 I-0.15 J0
G1 Y2.844
G3 X8.788 Y2.844 I0.15 J0
G1 Y5.46
Y6.834 Z-6.5
Y7.344
G3 X8.488 Y7.344 I-0.15 J0
G1 Y2.844
G3 X8.788 Y2.844 I0.15 J0
G1 Y5.46
Y6.834
Y7.344 Z-6.686
G3 X8.488 Y7.344 Z-6.857 I-0.15 J0
G1 Y6.952 Z-7
Y2.844
G3 X8.788 Y2.844 I0.15 J0
G1 Y6.834
Y7.344
G3 X8.488 Y7.344 I-0.15 J0
G1 Y6.952
Y5.578 Z-7.5
Y2.844
G3 X8.788 Y2.844 I0.15 J0
G1 Y7.344
G3 X8.488 Y7.344 I-0.15 J0
G1 Y5.578
Y4.204 Z-8
Y2.844
G3 X8.788 Y2.844 I0.15 J0
G1 Y7.344
G3 X8.488 Y7.344 I-0.15 J0
G1 Y5.578
Y4.204
Y2.844 Z-8.495
X8.489 Y2.83 Z-8.5
G3 X8.788 Y2.844 I0.149 J0.014
G1 Y7.344
G3 X8.488 Y7.344 I-0.15 J0
G1 Y4.204
Y2.844
X8.489 Y2.83
G3 X8.788 Y2.844 Z-8.667 I0.149 J0.014
G1 Y3.76 Z-9
Y7.344
G3 X8.488 Y7.344 I-0.15 J0
G1 Y2.844
G3 X8.788 Y2.844 I0.15 J0
G1 Y3.76
Y5.134 Z-9.5
Y7.344
G3 X8.488 Y7.344 I-0.15 J0
G1 Y2.844
G3 X8.788 Y2.844 I0.15 J0
G1 Y5.134
Y6.507 Z-10
Y7.344
G3 X8.488 Y7.344 I-0.15 J0
G1 Y2.844
G3 X8.788 Y2.844 I0.15 J0
G1 Y5.134
Y6.507
G0 Z6
X6.058 Y4.206
Z4
G1 Z2.8 F500
Y2.844 Z2.304
X6.065 Y2.806 Z2.29
X6.087 Y2.773 Z2.275
X6.119 Y2.752 Z2.261
X6.158 Y2.744 Z2.247
X6.196 Y2.752 Z2.233
X6.228 Y2.773 Z2.218
X6.25 Y2.806 Z2.204
X6.258 Y2.844 Z2.19
Y7.344 Z0.552
X6.251 Y7.379 Z0.539
X6.233 Y7.409 Z0.526
X6.206 Y7.432 Z0.513
X6.172 Y7.443 Z0.5
X6.138 Y7.442
X6.106 Y7.43
X6.08 Y7.407
X6.063 Y7.378
X6.058 Y7.344
Y2.844
X6.065 Y2.806
X6.087 Y2.773
X6.119 Y2.752
X6.158 Y2.744
X6.196 Y2.752
X6.228 Y2.773
X6.25 Y2.806
X6.258 Y2.844
Y7.344
X6.251 Y7.379
X6.233 Y7.409
X6.206 Y7.432
X6.172 Y7.443
X6.138 Y7.442 Z0.488
X6.106 Y7.43 Z0.475
X6.08 Y7.407 Z0.463
X6.063 Y7.378 Z0.45
X6.058 Y7.344 Z0.438
Y6.142 Z0
Y2.844
X6.065 Y2.806
X6.087 Y2.773
X6.119 Y2.752
X6.158 Y2.744
X6.196 Y2.752
X6.228 Y2.773
X6.25 Y2.806
X6.258 Y2.844
Y7.344
X6.25 Y7.382
X6.228 Y7.415
X6.196 Y7.436
X6.158 Y7.444
X6.119 Y7.436
X6.087 Y7.415
X6.065 Y7.382
X6.058 Y7.344
Y6.142
Y4.768 Z-0.5
Y2.844
X6.065 Y2.806
X6.087 Y2.773
X6.119 Y2.752
X6.158 Y2.744
X6.196 Y2.752
X6.228 Y2.773
X6.25 Y2.806
X6.258 Y2.844
Y7.344
X6.25 Y7.382
X6.228 Y7.415
X6.196 Y7.436
X6.158 Y7.444
X6.119 Y7.436
X6.087 Y7.415
X6.065 Y7.382
X6.058 Y7.344
Y4.768
Y3.394 Z-1
Y2.844
X6.065 Y2.806
X6.087 Y2.773
X6.119 Y2.752
X6.158 Y2.744
X6.196 Y2.752
X6.228 Y2.773
X6.25 Y2.806
X6.258 Y2.844
Y7.344
X6.25 Y7.382
X6.228 Y7.415
X6.196 Y7.436
X6.158 Y7.444
X6.119 Y7.436
X6.087 Y7.415
X6.065 Y7.382
X6.058 Y7.344
Y4.768
Y3.394
Y2.844 Z-1.2
X6.065 Y2.806 Z-1.215
X6.087 Y2.773 Z-1.229
X6.119 Y2.752 Z-1.243
X6.158 Y2.744 Z-1.258
X6.196 Y2.752 Z-1.272
X6.228 Y2.773 Z-1.286
X6.25 Y2.806 Z-1.3
X6.258 Y2.844 Z-1.315
Y3.353 Z-1.5
Y7.344
X6.25 Y7.382
X6.228 Y7.415
X6.196 Y7.436
X6.158 Y7.444
X6.119 Y7.436
X6.087 Y7.415
X6.065 Y7.382
X6.058 Y7.344
Y3.394
Y2.844
X6.065 Y2.806
X6.087 Y2.773
X6.119 Y2.752
X6.158 Y2.744
X6.196 Y2.752
X6.228 Y2.773
X6.25 Y2.806
X6.258 Y2.844
Y3.353
Y4.727 Z-2
Y7.344
X6.25 Y7.382
X6.228 Y7.415
X6.196 Y7.436
X6.158 Y7.444
X6.119 Y7.436
X6.087 Y7.415
X6.065 Y7.382
X6.058 Y7.344
Y2.844
X6.065 Y2.806
X6.087 Y2.773
X6.119 Y2.752
X6.158 Y2.744
X6.196 Y2.752
X6.228 Y2.773
X6.25 Y2.806
X6.258 Y2.844
Y4.727
Y6.101 Z-2.5
Y7.344
X6.25 Y7.382
X6.228 Y7.415
X6.196 Y7.436
X6.158 Y7.444
X6.119 Y7.436
X6.087 Y7.415
X6.065 Y7.382
X6.058 Y7.344
Y2.844
X6.065 Y2.806
X6.087 Y2.773
X6.119 Y2.752
X6.158 Y2.744
X6.196 Y2.752
X6.228 Y2.773
X6.25 Y2.806
X6.258 Y2.844
Y4.727
Y6.101
Y7.344 Z-2.953
X6.252 Y7.376 Z-2.964
X6.237 Y7.405 Z-2.976
X6.213 Y7.427 Z-2.988
X6.184 Y7.44 Z-3
X6.148 Y7.443
X6.112 Y7.433
X6.083 Y7.411
X6.064 Y7.38
X6.058 Y7.344
Y2.844
X6.065 Y2.806
X6.087 Y2.773
X6.119 Y2.752
X6.158 Y2.744
X6.196 Y2.752
X6.228 Y2.773
X6.25 Y2.806
X6.258 Y2.844
Y6.101
Y7.344
X6.252 Y7.376
X6.237 Y7.405
X6.213 Y7.427
X6.184 Y7.44
X6.148 Y7.443 Z-3.013
X6.112 Y7.433 Z-3.027
X6.083 Y7.411 Z-3.04
X6.064 Y7.38 Z-3.054
X6.058 Y7.344 Z-3.067
Y6.154 Z-3.5
Y2.844
X6.065 Y2.806
X6.087 Y2.773
X6.119 Y2.752
X6.158 Y2.744
X6.196 Y2.752
X6.228 Y2.773
X6.25 Y2.806
X6.258 Y2.844
Y7.344
X6.25 Y7.382
X6.228 Y7.415
X6.196 Y7.436
X6.158 Y7.444
X6.119 Y7.436
X6.087 Y7.415
X6.065 Y7.382
X6.058 Y7.344
Y6.154
Y4.78 Z-4
Y2.844
X6.065 Y2.806
X6.087 Y2.773
X6.119 Y2.752
X6.158 Y2.744
X6.196 Y2.752
X6.228 Y2.773
X6.25 Y2.806
X6.258 Y2.844
Y7.344
X6.25 Y7.382
X6.228 Y7.415
X6.196 Y7.436
X6.158 Y7.444
X6.119 Y7.436
X6.087 Y7.415
X6.065 Y7.382
X6.058 Y7.344
Y4.78
Y3.406 Z-4.5
Y2.844
X6.065 Y2.806
X6.087 Y2.773
X6.119 Y2.752
X6.158 Y2.744
X6.196 Y2.752
X6.228 Y2.773
X6.25 Y2.806
X6.258 Y2.844
Y7.344
X6.25 Y7.382
X6.228 Y7.415
X6.196 Y7.436
X6.158 Y7.444
X6.119 Y7.436
X6.087 Y7.415
X6.065 Y7.382
X6.058 Y7.344
Y4.78
Y3.406
Y2.844 Z-4.705
X6.065 Y2.806 Z-4.719
X6.087 Y2.773 Z-4.733
X6.119 Y2.752 Z-4.748
X6.158 Y2.744 Z-4.762
X6.196 Y2.752 Z-4.776
X6.228 Y2.773 Z-4.791
X6.25 Y2.806 Z-4.805
X6.258 Y2.844 Z-4.819
Y3.341 Z-5
Y7.344
X6.25 Y7.382
X6.228 Y7.415
X6.196 Y7.436
X6.158 Y7.444
X6.119 Y7.436
X6.087 Y7.415
X6.065 Y7.382
X6.058 Y7.344
Y3.406
Y2.844
X6.065 Y2.806
X6.087 Y2.773
X6.119 Y2.752
X6.158 Y2.744
X6.196 Y2.752
X6.228 Y2.773
X6.25 Y2.806
X6.258 Y2.844
Y3.341
Y4.715 Z-5.5
Y7.344
X6.25 Y7.382
X6.228 Y7.415
X6.196 Y7.436
X6.158 Y7.444
X6.119 Y7.436
X6.087 Y7.415
X6.065 Y7.382
X6.058 Y7.344
Y2.844
X6.065 Y2.806
X6.087 Y2.773
X6.119 Y2.752
X6.158 Y2.744
X6.196 Y2.752
X6.228 Y2.773
X6.25 Y2.806
X6.258 Y2.844
Y4.715
Y6.088 Z-6
Y7.344
X6.25 Y7.382
X6.228 Y7.415
X6.196 Y7.436
X6.158 Y7.444
X6.119 Y7.436
X6.087 Y7.415
X6.065 Y7.382
X6.058 Y7.344
Y2.844
X6.065 Y2.806
X6.087 Y2.773
X6.119 Y2.752
X6.158 Y2.744
X6.196 Y2.752
X6.228 Y2.773
X6.25 Y2.806
X6.258 Y2.844
Y4.715
Y6.088
Y7.344 Z-6.457
X6.25 Y7.382 Z-6.471
X6.228 Y7.415 Z-6.486
X6.195 Y7.436 Z-6.5
X6.157 Y7.444
X6.119 Y7.436
X6.087 Y7.414
X6.065 Y7.382
X6.058 Y7.344
Y2.844
X6.065 Y2.806
X6.087 Y2.773
X6.119 Y2.752
X6.158 Y2.744
X6.196 Y2.752
X6.228 Y2.773
X6.25 Y2.806
X6.258 Y2.844
Y6.088
Y7.344
X6.25 Y7.382
X6.228 Y7.415
X6.195 Y7.436
X6.157 Y7.444 Z-6.514
X6.119 Y7.436 Z-6.529
X6.087 Y7.414 Z-6.543
X6.065 Y7.382 Z-6.557
X6.058 Y7.344 Z-6.571
Y6.166 Z-7
Y2.844
X6.065 Y2.806
X6.087 Y2.773
X6.119 Y2.752
X6.158 Y2.744
X6.196 Y2.752
X6.228 Y2.773
X6.25 Y2.806
X6.258 Y2.844
Y7.344
X6.25 Y7.382
X6.228 Y7.415
X6.196 Y7.436
X6.158 Y7.444
X6.119 Y7.436
X6.087 Y7.415
X6.065 Y7.382
X6.058 Y7.344
Y6.166
Y4.792 Z-7.5
Y2.844
X6.065 Y2.806
X6.087 Y2.773
X6.119 Y2.752
X6.158 Y2.744
X6.196 Y2.752
X6.228 Y2.773
X6.25 Y2.806
X6.258 Y2.844
Y7.344
X6.25 Y7.382
X6.228 Y7.415
X6.196 Y7.436
X6.158 Y7.444
X6.119 Y7.436
X6.087 Y7.415
X6.065 Y7.382
X6.058 Y7.344
Y4.792
Y3.419 Z-8
Y2.844
X6.065 Y2.806
X6.087 Y2.773
X6.119 Y2.752
X6.158 Y2.744
X6.196 Y2.752
X6.228 Y2.773
X6.25 Y2.806
X6.258 Y2.844
Y7.344
X6.25 Y7.382
X6.228 Y7.415
X6.196 Y7.436
X6.158 Y7.444
X6.119 Y7.436
X6.087 Y7.415
X6.065 Y7.382
X6.058 Y7.344
Y4.792
Y3.419
Y2.844 Z-8.209
X6.065 Y2.806 Z-8.223
X6.087 Y2.773 Z-8.238
X6.119 Y2.752 Z-8.252
X6.158 Y2.744 Z-8.266
X6.196 Y2.752 Z-8.281
X6.228 Y2.773 Z-8.295
X6.25 Y2.806 Z-8.309
X6.258 Y2.844 Z-8.324
Y3.329 Z-8.5
Y7.344
X6.25 Y7.382
X6.228 Y7.415
X6.196 Y7.436
X6.158 Y7.444
X6.119 Y7.436
X6.087 Y7.415
X6.065 Y7.382
X6.058 Y7.344
Y3.419
Y2.844
X6.065 Y2.806
X6.087 Y2.773
X6.119 Y2.752
X6.158 Y2.744
X6.196 Y2.752
X6.228 Y2.773
X6.25 Y2.806
X6.258 Y2.844
Y3.329
Y4.702 Z-9
Y7.344
X6.25 Y7.382
X6.228 Y7.415
X6.196 Y7.436
X6.158 Y7.444
X6.119 Y7.436
X6.087 Y7.415
X6.065 Y7.382
X6.058 Y7.344
Y2.844
X6.065 Y2.806
X6.087 Y2.773
X6.119 Y2.752
X6.158 Y2.744
X6.196 Y2.752
X6.228 Y2.773
X6.25 Y2.806
X6.258 Y2.844
Y4.702
Y6.076 Z-9.5
Y7.344
X6.25 Y7.382
X6.228 Y7.415
X6.196 Y7.436
X6.158 Y7.444
X6.119 Y7.436
X6.087 Y7.415
X6.065 Y7.382
X6.058 Y7.344
Y2.844
X6.065 Y2.806
X6.087 Y2.773
X6.119 Y2.752
X6.158 Y2.744
X6.196 Y2.752
X6.228 Y2.773
X6.25 Y2.806
X6.258 Y2.844
Y4.702
Y6.076
Y7.344 Z-9.961
X6.251 Y7.379 Z-9.974
X6.234 Y7.409 Z-9.987
X6.206 Y7.431 Z-10
X6.174 Y7.443
X6.139 Y7.442
X6.107 Y7.43
X6.081 Y7.408
X6.064 Y7.378
X6.058 Y7.344
Y2.844
X6.065 Y2.806
X6.087 Y2.773
X6.119 Y2.752
X6.158 Y2.744
X6.196 Y2.752
X6.228 Y2.773
X6.25 Y2.806
X6.258 Y2.844
Y6.076
Y7.344
X6.251 Y7.379
X6.234 Y7.409
X6.206 Y7.431
G0 Z6
X3.589 Y4.364
Z4
G1 Z2.8 F500
Y2.844 Z2.247
X3.596 Y2.819 Z2.237
X3.614 Y2.801 Z2.228
X3.639 Y2.794 Z2.218
X3.664 Y2.801 Z2.209
X3.683 Y2.819 Z2.199
X3.689 Y2.844 Z2.19
Y7.344 Z0.552
X3.684 Y7.367 Z0.543
X3.668 Y7.385 Z0.535
X3.647 Y7.393 Z0.526
X3.623 Y7.391 Z0.517
X3.603 Y7.379 Z0.509
X3.591 Y7.358 Z0.5
X3.589 Y7.344
Y2.844
X3.596 Y2.819
X3.614 Y2.801
X3.639 Y2.794
X3.664 Y2.801
X3.683 Y2.819
X3.689 Y2.844
Y7.344
X3.684 Y7.367
X3.668 Y7.385
X3.647 Y7.393
X3.623 Y7.391
X3.603 Y7.379
X3.591 Y7.358
X3.589 Y7.344 Z0.495
Y5.985 Z0
Y2.844
X3.596 Y2.819
X3.614 Y2.801
X3.639 Y2.794
X3.664 Y2.801
X3.683 Y2.819
X3.689 Y2.844
Y7.344
X3.683 Y7.369
X3.664 Y7.387
X3.639 Y7.394
X3.614 Y7.387
X3.596 Y7.369
X3.589 Y7.344
Y5.985
Y4.611 Z-0.5
Y2.844
X3.596 Y2.819
X3.614 Y2.801
X3.639 Y2.794
X3.664 Y2.801
X3.683 Y2.819
X3.689 Y2.844
Y7.344
X3.683 Y7.369
X3.664 Y7.387
X3.639 Y7.394
X3.614 Y7.387
X3.596 Y7.369
X3.589 Y7.344
Y4.611
Y3.237 Z-1
Y2.844
X3.596 Y2.819
X3.614 Y2.801
X3.639 Y2.794
X3.664 Y2.801
X3.683 Y2.819
X3.689 Y2.844
Y7.344
X3.683 Y7.369
X3.664 Y7.387
X3.639 Y7.394
X3.614 Y7.387
X3.596 Y7.369
X3.589 Y7.344
Y4.611
Y3.237
Y2.844 Z-1.143
X3.596 Y2.819 Z-1.153
X3.614 Y2.801 Z-1.162
X3.639 Y2.794 Z-1.172
X3.664 Y2.801 Z-1.181
X3.683 Y2.819 Z-1.191
X3.689 Y2.844 Z-1.2
Y3.667 Z-1.5
Y7.344
X3.683 Y7.369
X3.664 Y7.387
X3.639 Y7.394
X3.614 Y7.387
X3.596 Y7.369
X3.589 Y7.344
Y3.237
Y2.844
X3.596 Y2.819
X3.614 Y2.801
X3.639 Y2.794
X3.664 Y2.801
X3.683 Y2.819
X3.689 Y2.844
Y3.667
Y5.041 Z-2
Y7.344
X3.683 Y7.369
X3.664 Y7.387
X3.639 Y7.394
X3.614 Y7.387
X3.596 Y7.369
X3.589 Y7.344
Y2.844
X3.596 Y2.819
X3.614 Y2.801
X3.639 Y2.794
X3.664 Y2.801
X3.683 Y2.819
X3.689 Y2.844
Y5.041
Y6.415 Z-2.5
Y7.344
X3.683 Y7.369
X3.664 Y7.387
X3.639 Y7.394
X3.614 Y7.387
X3.596 Y7.369
X3.589 Y7.344
Y2.844
X3.596 Y2.819
X3.614 Y2.801
X3.639 Y2.794
X3.664 Y2.801
X3.683 Y2.819
X3.689 Y2.844
Y5.041
Y6.415
Y7.344 Z-2.838
X3.683 Y7.369 Z-2.848
X3.664 Y7.387 Z-2.857
X3.639 Y7.394 Z-2.867
X3.614 Y7.387 Z-2.876
X3.596 Y7.369 Z-2.886
X3.589 Y7.344 Z-2.895
Y7.056 Z-3
Y2.844
X3.596 Y2.819
X3.614 Y2.801
X3.639 Y2.794
X3.664 Y2.801
X3.683 Y2.819
X3.689 Y2.844
Y6.415
Y7.344
X3.683 Y7.369
X3.664 Y7.387
X3.639 Y7.394
X3.614 Y7.387
X3.596 Y7.369
X3.589 Y7.344
Y7.056
Y5.683 Z-3.5
Y2.844
X3.596 Y2.819
X3.614 Y2.801
X3.639 Y2.794
X3.664 Y2.801
X3.683 Y2.819
X3.689 Y2.844
Y7.344
X3.683 Y7.369
X3.664 Y7.387
X3.639 Y7.394
X3.614 Y7.387
X3.596 Y7.369
X3.589 Y7.344
Y5.683
Y4.309 Z-4
Y2.844
X3.596 Y2.819
X3.614 Y2.801
X3.639 Y2.794
X3.664 Y2.801
X3.683 Y2.819
X3.689 Y2.844
Y7.344
X3.683 Y7.369
X3.664 Y7.387
X3.639 Y7.394
X3.614 Y7.387
X3.596 Y7.369
X3.589 Y7.344
Y5.683
Y4.309
Y2.935 Z-4.5
Y2.844
X3.596 Y2.819
X3.614 Y2.801
X3.639 Y2.794
X3.664 Y2.801
X3.683 Y2.819
X3.689 Y2.844
Y7.344
X3.683 Y7.369
X3.664 Y7.387
X3.639 Y7.394
X3.614 Y7.387
X3.596 Y7.369
X3.589 Y7.344
Y4.309
Y2.935
Y2.844 Z-4.533
X3.596 Y2.819 Z-4.543
X3.614 Y2.801 Z-4.552
X3.639 Y2.794 Z-4.562
X3.664 Y2.801 Z-4.571
X3.683 Y2.819 Z-4.581
X3.689 Y2.844 Z-4.59
Y3.969 Z-5
Y7.344
X3.683 Y7.369
X3.664 Y7.387
X3.639 Y7.394
X3.614 Y7.387
X3.596 Y7.369
X3.589 Y7.344
Y2.935
Y2.844
X3.596 Y2.819
X3.614 Y2.801
X3.639 Y2.794
X3.664 Y2.801
X3.683 Y2.819
X3.689 Y2.844
Y3.969
Y5.343 Z-5.5
Y7.344
X3.683 Y7.369
X3.664 Y7.387
X3.639 Y7.394
X3.614 Y7.387
X3.596 Y7.369
X3.589 Y7.344
Y2.844
X3.596 Y2.819
X3.614 Y2.801
X3.639 Y2.794
X3.664 Y2.801
X3.683 Y2.819
X3.689 Y2.844
Y5.343
Y6.717 Z-6
Y7.344
X3.683 Y7.369
X3.664 Y7.387
X3.639 Y7.394
X3.614 Y7.387
X3.596 Y7.369
X3.589 Y7.344
Y2.844
X3.596 Y2.819
X3.614 Y2.801
X3.639 Y2.794
X3.664 Y2.801
X3.683 Y2.819
X3.689 Y2.844
Y5.343
Y6.717
Y7.344 Z-6.228
X3.683 Y7.369 Z-6.238
X3.664 Y7.387 Z-6.247
X3.639 Y7.394 Z-6.257
X3.614 Y7.387 Z-6.266
X3.596 Y7.369 Z-6.276
X3.589 Y7.344 Z-6.285
Y6.754 Z-6.5
Y2.844
X3.596 Y2.819
X3.614 Y2.801
X3.639 Y2.794
X3.664 Y2.801
X3.683 Y2.819
X3.689 Y2.844
Y6.717
Y7.344
X3.683 Y7.369
X3.664 Y7.387
X3.639 Y7.394
X3.614 Y7.387
X3.596 Y7.369
X3.589 Y7.344
Y6.754
Y5.381 Z-7
Y2.844
X3.596 Y2.819
X3.614 Y2.801
X3.639 Y2.794
X3.664 Y2.801
X3.683 Y2.819
X3.689 Y2.844
Y7.344
X3.683 Y7.369
X3.664 Y7.387
X3.639 Y7.394
X3.614 Y7.387
X3.596 Y7.369
X3.589 Y7.344
Y5.381
Y4.007 Z-7.5
Y2.844
X3.596 Y2.819
X3.614 Y2.801
X3.639 Y2.794
X3.664 Y2.801
X3.683 Y2.819
X3.689 Y2.844
Y7.344
X3.683 Y7.369
X3.664 Y7.387
X3.639 Y7.394
X3.614 Y7.387
X3.596 Y7.369
X3.589 Y7.344
Y5.381
Y4.007
Y2.844 Z-7.923
X3.596 Y2.819 Z-7.933
X3.614 Y2.801 Z-7.942
X3.639 Y2.794 Z-7.952
X3.664 Y2.801 Z-7.961
X3.683 Y2.819 Z-7.971
X3.689 Y2.844 Z-7.98
Y2.897 Z-8
Y7.344
X3.683 Y7.369
X3.664 Y7.387
X3.639 Y7.394
X3.614 Y7.387
X3.596 Y7.369
X3.589 Y7.344
Y4.007
Y2.844
X3.596 Y2.819
X3.614 Y2.801
X3.639 Y2.794
X3.664 Y2.801
X3.683 Y2.819
X3.689 Y2.844
Y2.897
Y4.271 Z-8.5
Y7.344
X3.683 Y7.369
X3.664 Y7.387
X3.639 Y7.394
X3.614 Y7.387
X3.596 Y7.369
X3.589 Y7.344
Y2.844
X3.596 Y2.819
X3.614 Y2.801
X3.639 Y2.794
X3.664 Y2.801
X3.683 Y2.819
X3.689 Y2.844
Y4.271
Y5.645 Z-9
Y7.344
X3.683 Y7.369
X3.664 Y7.387
X3.639 Y7.394
X3.614 Y7.387
X3.596 Y7.369
X3.589 Y7.344
Y2.844
X3.596 Y2.819
X3.614 Y2.801
X3.639 Y2.794
X3.664 Y2.801
X3.683 Y2.819
X3.689 Y2.844
Y4.271
Y5.645
Y7.019 Z-9.5
Y7.344
X3.683 Y7.369
X3.664 Y7.387
X3.639 Y7.394
X3.614 Y7.387
X3.596 Y7.369
X3.589 Y7.344
Y2.844
X3.596 Y2.819
X3.614 Y2.801
X3.639 Y2.794
X3.664 Y2.801
X3.683 Y2.819
X3.689 Y2.844
Y5.645
Y7.019
Y7.344 Z-9.618
X3.683 Y7.369 Z-9.628
X3.664 Y7.387 Z-9.637
X3.639 Y7.394 Z-9.647
X3.614 Y7.387 Z-9.656
X3.596 Y7.369 Z-9.666
X3.589 Y7.344 Z-9.676
Y6.452 Z-10
Y2.844
X3.596 Y2.819
X3.614 Y2.801
X3.639 Y2.794
X3.664 Y2.801
X3.683 Y2.819
X3.689 Y2.844
Y7.019
Y7.344
X3.683 Y7.369
X3.664 Y7.387
X3.639 Y7.394
X3.614 Y7.387
X3.596 Y7.369
X3.589 Y7.344
Y6.452
G0 Z6
X1.457 Y5.667
Z4
G1 Z2.8 F500
X1.461 Y7.344 Z2.19
X1.451 Y2.844 Z0.552
Y2.986 Z0.5
X1.461 Y7.344
X1.451 Y2.844
Y2.986
X1.454 Y4.36 Z0
X1.451 Y2.844
X1.461 Y7.344
X1.454 Y4.36
X1.457 Y5.734 Z-0.5
X1.451 Y2.844
X1.461 Y7.344
X1.457 Y5.734
X1.461 Y7.344 Z-0.914
X1.46 Y7.108 Z-1
X1.451 Y2.844
X1.457 Y5.734
X1.461 Y7.344
X1.46 Y7.108
X1.458 Y6.206 Z-1.5
X1.46 Y7.108
X1.461 Y7.344
X1.451 Y2.844
X1.458 Y6.206
X1.461 Y7.344 Z-1.914
X1.46 Y7.108 Z-2
X1.451 Y2.844
X1.458 Y6.206
X1.461 Y7.344
X1.46 Y7.108
X1.458 Y6.206 Z-2.5
X1.46 Y7.108
X1.461 Y7.344
X1.451 Y2.844
X1.458 Y6.206
X1.461 Y7.344 Z-2.914
X1.46 Y7.108 Z-3
X1.451 Y2.844
X1.458 Y6.206
X1.461 Y7.344
X1.46 Y7.108
X1.458 Y6.206 Z-3.5
X1.46 Y7.108
X1.461 Y7.344
X1.451 Y2.844
X1.458 Y6.206
X1.461 Y7.344 Z-3.914
X1.46 Y7.108 Z-4
X1.451 Y2.844
X1.458 Y6.206
X1.461 Y7.344
X1.46 Y7.108
X1.458 Y6.206 Z-4.5
X1.46 Y7.108
X1.461 Y7.344
X1.451 Y2.844
X1.458 Y6.206
X1.461 Y7.344 Z-4.914
X1.46 Y7.108 Z-5
X1.451 Y2.844
X1.458 Y6.206
X1.461 Y7.344
X1.46 Y7.108
X1.458 Y6.206 Z-5.5
X1.46 Y7.108
X1.461 Y7.344
X1.451 Y2.844
X1.458 Y6.206
X1.461 Y7.344 Z-5.914
X1.46 Y7.108 Z-6
X1.451 Y2.844
X1.458 Y6.206
X1.461 Y7.344
X1.46 Y7.108
X1.458 Y6.206 Z-6.5
X1.46 Y7.108
X1.461 Y7.344
X1.451 Y2.844
X1.458 Y6.206
X1.461 Y7.344 Z-6.914
X1.46 Y7.108 Z-7
X1.451 Y2.844
X1.458 Y6.206
X1.461 Y7.344
X1.46 Y7.108
X1.458 Y6.206 Z-7.5
X1.46 Y7.108
X1.461 Y7.344
X1.451 Y2.844
X1.458 Y6.206
X1.461 Y7.344 Z-7.914
X1.46 Y7.108 Z-8
X1.451 Y2.844
X1.458 Y6.206
X1.461 Y7.344
X1.46 Y7.108
X1.458 Y6.206 Z-8.5
X1.46 Y7.108
X1.461 Y7.344
X1.451 Y2.844
X1.458 Y6.206
X1.461 Y7.344 Z-8.914
X1.46 Y7.108 Z-9
X1.451 Y2.844
X1.458 Y6.206
X1.461 Y7.344
X1.46 Y7.108
X1.458 Y6.206 Z-9.5
X1.46 Y7.108
X1.461 Y7.344
X1.451 Y2.844
X1.458 Y6.206
X1.461 Y7.344 Z-9.914
X1.46 Y7.108 Z-10
X1.451 Y2.844
X1.458 Y6.206
X1.461 Y7.344
X1.46 Y7.108
G0 Z9
M9
M5
M30
