(1001)
(T1  D=1.5 CR=0 - ZMIN=-10 - flat end mill)
G90 G94
G17
G21

(2D Pocket2)
T1
S5000 M3
G54
M8
G0 X25.841 Y2.844
Z9
Z4
G1 Z2.8 F500
Z0.5
G3 X26.741 Y2.844 I0.45 J0
X25.841 Y2.844 I-0.45 J0
X26.739 Y2.804 Z0 I0.45 J0
X25.843 Y2.884 I-0.448 J0.04
X26.739 Y2.804 I0.448 J-0.04
X25.848 Y2.923 Z-0.5 I-0.448 J0.04
X26.734 Y2.764 I0.443 J-0.08
X25.848 Y2.923 I-0.443 J0.08
X26.725 Y2.725 Z-1 I0.443 J-0.08
X25.857 Y2.962 I-0.434 J0.119
X26.725 Y2.725 I0.434 J-0.119
X25.869 Y3 Z-1.5 I-0.434 J0.119
X26.713 Y2.687 I0.422 J-0.157
X25.869 Y3 I-0.422 J0.157
X26.698 Y2.651 Z-2 I0.422 J-0.157
X25.885 Y3.037 I-0.406 J0.193
X26.698 Y2.651 I0.406 J-0.193
X25.904 Y3.073 Z-2.5 I-0.406 J0.193
X26.679 Y2.615 I0.388 J-0.229
X25.904 Y3.073 I-0.388 J0.229
X26.657 Y2.582 Z-3 I0.388 J-0.229
X25.925 Y3.106 I-0.366 J0.262
X26.657 Y2.582 I0.366 J-0.262
X25.95 Y3.137 Z-3.5 I-0.366 J0.262
X26.632 Y2.55 I0.341 J-0.294
X25.95 Y3.137 I-0.341 J0.294
X26.605 Y2.521 Z-4 I0.341 J-0.294
X25.978 Y3.167 I-0.314 J0.323
X26.605 Y2.521 I0.314 J-0.323
X26.007 Y3.193 Z-4.5 I-0.314 J0.323
X26.575 Y2.495 I0.284 J-0.349
X26.007 Y3.193 I-0.284 J0.349
X26.543 Y2.471 Z-5 I0.284 J-0.349
X26.04 Y3.217 I-0.252 J0.373
X26.543 Y2.471 I0.252 J-0.373
X26.074 Y3.238 Z-5.5 I-0.252 J0.373
X26.509 Y2.45 I0.218 J-0.394
X26.074 Y3.238 I-0.218 J0.394
X26.473 Y2.432 Z-6 I0.218 J-0.394
X26.109 Y3.256 I-0.182 J0.412
X26.473 Y2.432 I0.182 J-0.412
X26.147 Y3.27 Z-6.5 I-0.182 J0.412
X26.436 Y2.418 I0.145 J-0.426
X26.147 Y3.27 I-0.145 J0.426
X26.397 Y2.407 Z-7 I0.145 J-0.426
X26.185 Y3.281 I-0.106 J0.437
X26.397 Y2.407 I0.106 J-0.437
X26.224 Y3.289 Z-7.5 I-0.106 J0.437
X26.358 Y2.399 I0.067 J-0.445
X26.224 Y3.289 I-0.067 J0.445
X26.318 Y2.395 Z-8 I0.067 J-0.445
X26.264 Y3.293 I-0.027 J0.449
X26.318 Y2.395 I0.027 J-0.449
X26.304 Y3.294 Z-8.5 I-0.027 J0.449
X26.278 Y2.394 I-0.013 J-0.45
X26.304 Y3.294 I0.013 J0.45
X26.239 Y2.397 Z-9 I-0.013 J-0.45
X26.344 Y3.291 I0.053 J0.447
X26.239 Y2.397 I-0.053 J-0.447
X26.383 Y3.284 Z-9.5 I0.053 J0.447
X26.199 Y2.403 I-0.092 J-0.44
X26.383 Y3.284 I0.092 J0.44
X26.16 Y2.413 Z-10 I-0.092 J-0.44
X26.422 Y3.274 I0.131 J0.431
X26.16 Y2.413 I-0.131 J-0.431
G0 Z6
X23.212 Y2.444
Z4
G1 Z2.8 F500
Z0.5
G3 X23.212 Y3.244 I0 J0.4
X23.212 Y2.444 I0 J-0.4
X23.608 Y2.902 Z0.25 I0 J0.4
X23.096 Y3.227 Z0 I-0.396 J-0.058
X23.327 Y2.461 I0.115 J-0.383
X23.096 Y3.227 I-0.115 J0.383
X22.85 Y2.674 Z-0.25 I0.115 J-0.383
X23.433 Y2.511 Z-0.5 I0.362 J0.17
X22.991 Y3.177 I-0.221 J0.333
X23.433 Y2.511 I0.221 J-0.333
X23.509 Y3.111 Z-0.75 I-0.221 J0.333
X22.904 Y3.099 Z-1 I-0.298 J-0.267
X23.52 Y2.589 I0.308 J-0.255
X22.904 Y3.099 I-0.308 J0.255
X23.004 Y2.502 Z-1.25 I0.308 J-0.255
X23.58 Y2.688 Z-1.5 I0.208 J0.342
X22.843 Y3 I-0.368 J0.156
X23.58 Y2.688 I0.368 J-0.156
X23.312 Y3.231 Z-1.75 I-0.368 J0.156
X22.814 Y2.887 Z-2 I-0.1 J-0.387
X23.61 Y2.801 I0.398 J-0.043
X22.814 Y2.887 I-0.398 J0.043
X23.228 Y2.444 Z-2.25 I0.398 J-0.043
X23.605 Y2.918 Z-2.5 I-0.016 J0.4
X22.819 Y2.77 I-0.393 J-0.074
X23.605 Y2.918 I0.393 J0.074
X23.081 Y3.222 Z-2.75 I-0.393 J-0.074
X22.857 Y2.66 Z-3 I0.13 J-0.378
X23.567 Y3.028 I0.355 J0.184
X22.857 Y2.66 I-0.355 J-0.184
X23.446 Y2.519 Z-3.25 I0.355 J0.184
X23.499 Y3.123 Z-3.5 I-0.234 J0.324
X22.925 Y2.565 I-0.287 J-0.279
X23.499 Y3.123 I0.287 J0.279
X22.894 Y3.087 Z-3.75 I-0.287 J-0.279
X23.018 Y2.494 Z-4 I0.318 J-0.243
X23.406 Y3.194 I0.194 J0.35
X23.018 Y2.494 I-0.194 J-0.35
X23.586 Y2.703 Z-4.25 I0.194 J0.35
X23.297 Y3.235 Z-4.5 I-0.374 J0.141
X23.127 Y2.453 I-0.085 J-0.391
X23.297 Y3.235 I0.085 J0.391
X22.813 Y2.871 Z-4.75 I-0.085 J-0.391
X23.243 Y2.445 Z-5 I0.399 J-0.027
X23.18 Y3.243 I-0.031 J0.399
X23.243 Y2.445 I0.031 J-0.399
X23.602 Y2.933 Z-5.25 I-0.031 J0.399
X23.067 Y3.217 Z-5.5 I-0.39 J-0.089
X23.357 Y2.471 I0.145 J-0.373
X23.067 Y3.217 I-0.145 J0.373
X22.864 Y2.646 Z-5.75 I0.145 J-0.373
X23.458 Y2.529 Z-6 I0.348 J0.198
X22.965 Y3.159 I-0.247 J0.315
X23.458 Y2.529 I0.247 J-0.315
X23.488 Y3.134 Z-6.25 I-0.247 J0.315
X22.885 Y3.074 Z-6.5 I-0.276 J-0.29
X23.539 Y2.613 I0.327 J-0.23
X22.885 Y3.074 I-0.327 J0.23
X23.032 Y2.487 Z-6.75 I0.327 J-0.23
X23.591 Y2.718 Z-7 I0.18 J0.357
X22.832 Y2.97 I-0.38 J0.126
X23.591 Y2.718 I0.38 J-0.126
X23.281 Y3.238 Z-7.25 I-0.38 J0.126
X22.812 Y2.855 Z-7.5 I-0.07 J-0.394
X23.612 Y2.833 I0.4 J-0.011
X22.812 Y2.855 I-0.4 J0.011
X23.259 Y2.447 Z-7.75 I0.4 J-0.011
X23.598 Y2.948 Z-8 I-0.047 J0.397
X22.826 Y2.739 I-0.386 J-0.105
X23.598 Y2.948 I0.386 J0.105
X23.052 Y3.211 Z-8.25 I-0.386 J-0.105
X22.872 Y2.632 Z-8.5 I0.16 J-0.367
X23.551 Y3.055 I0.34 J0.212
X22.872 Y2.632 I-0.34 J-0.212
X23.471 Y2.539 Z-8.75 I0.34 J0.212
X23.476 Y3.144 Z-9 I-0.259 J0.305
X22.948 Y2.543 I-0.264 J-0.3
X23.476 Y3.144 I0.264 J0.3
X22.876 Y3.061 Z-9.25 I-0.264 J-0.3
X23.046 Y2.48 Z-9.5 I0.336 J-0.217
X23.378 Y3.208 I0.166 J0.364
X23.046 Y2.48 I-0.166 J-0.364
X23.596 Y2.733 Z-9.75 I0.166 J0.364
X23.266 Y3.24 Z-10 I-0.384 J0.111
X23.158 Y2.448 I-0.054 J-0.396
X23.266 Y3.24 I0.054 J0.396
G0 Z6
X20.296 Y2.844
Z4
G1 Z2.8 F500
Z0.5
G3 X19.596 Y2.844 I-0.35 J0
X20.296 Y2.844 I0.35 J0
X19.596 Y2.844 Z0.1 I-0.35 J0
X19.698 Y2.597 Z0 I0.35 J0
X20.194 Y3.091 I0.248 J0.247
X19.698 Y2.597 I-0.248 J-0.247
X20.194 Y3.091 Z-0.4 I0.248 J0.247
X19.947 Y3.194 Z-0.5 I-0.248 J-0.247
X19.944 Y2.494 I-0.001 J-0.35
X19.947 Y3.194 I0.001 J0.35
G1 X19.946 Z-0.501
G3 X19.946 Y2.494 Z-0.901 I0 J-0.35
X20.192 Y2.595 Z-1 I0 J0.35
X19.7 Y3.093 I-0.246 J0.249
X20.192 Y2.595 I0.246 J-0.249
X19.7 Y3.093 Z-1.4 I-0.246 J0.249
X19.596 Y2.847 Z-1.5 I0.246 J-0.249
X20.296 Y2.841 I0.35 J-0.003
X19.596 Y2.847 I-0.35 J0.003
X20.296 Y2.841 Z-1.9 I0.35 J-0.003
X20.196 Y3.089 Z-2 I-0.35 J0.003
X19.696 Y2.599 I-0.25 J-0.245
X20.196 Y3.089 I0.25 J0.245
X19.696 Y2.599 Z-2.4 I-0.25 J-0.245
X19.941 Y2.494 Z-2.5 I0.25 J0.245
X19.95 Y3.194 I0.004 J0.35
X19.941 Y2.494 I-0.004 J-0.35
G1 X19.946 Z-2.502
G3 X19.946 Y3.194 Z-2.902 I0 J0.35
X19.702 Y3.095 Z-3 I0 J-0.35
X20.19 Y2.593 I0.244 J-0.251
X19.702 Y3.095 I-0.244 J0.251
X20.19 Y2.593 Z-3.4 I0.244 J-0.251
X20.296 Y2.838 Z-3.5 I-0.244 J0.251
X19.596 Y2.85 I-0.35 J0.006
X20.296 Y2.838 I0.35 J-0.006
X19.596 Y2.85 Z-3.9 I-0.35 J0.006
X19.694 Y2.601 Z-4 I0.35 J-0.006
X20.198 Y3.087 I0.252 J0.243
X19.694 Y2.601 I-0.252 J-0.243
X20.198 Y3.087 Z-4.4 I0.252 J0.243
X19.953 Y3.194 Z-4.5 I-0.252 J-0.243
X19.939 Y2.494 I-0.007 J-0.35
X19.953 Y3.194 I0.007 J0.35
G1 X19.946 Z-4.503
G3 X19.946 Y2.494 Z-4.903 I0 J-0.35
X20.188 Y2.591 Z-5 I0 J0.35
X19.704 Y3.097 I-0.242 J0.253
X20.188 Y2.591 I0.242 J-0.253
X19.704 Y3.097 Z-5.4 I-0.242 J0.253
X19.596 Y2.852 Z-5.5 I0.242 J-0.253
X20.296 Y2.835 I0.35 J-0.008
X19.596 Y2.852 I-0.35 J0.008
G1 Y2.844 Z-5.503
G3 X20.296 Y2.844 Z-5.903 I0.35 J0
X20.2 Y3.085 Z-6 I-0.35 J0
X19.692 Y2.603 I-0.254 J-0.241
X20.2 Y3.085 I0.254 J0.241
X19.692 Y2.603 Z-6.4 I-0.254 J-0.241
X19.936 Y2.494 Z-6.5 I0.254 J0.241
X19.956 Y3.194 I0.01 J0.35
X19.936 Y2.494 I-0.01 J-0.35
G1 X19.946 Z-6.504
G3 X19.946 Y3.194 Z-6.904 I0 J0.35
X19.706 Y3.099 Z-7 I0 J-0.35
X20.186 Y2.589 I0.24 J-0.255
X19.706 Y3.099 I-0.24 J0.255
X20.186 Y2.589 Z-7.4 I0.24 J-0.255
X20.296 Y2.833 Z-7.5 I-0.24 J0.255
X19.596 Y2.855 I-0.35 J0.011
X20.296 Y2.833 I0.35 J-0.011
X19.596 Y2.855 Z-7.9 I-0.35 J0.011
X19.69 Y2.605 Z-8 I0.35 J-0.011
X20.202 Y3.083 I0.256 J0.239
X19.69 Y2.605 I-0.256 J-0.239
X20.202 Y3.083 Z-8.4 I0.256 J0.239
X19.958 Y3.194 Z-8.5 I-0.256 J-0.239
X19.933 Y2.494 I-0.013 J-0.35
X19.958 Y3.194 I0.013 J0.35
G1 X19.946 Z-8.505
G3 X19.946 Y2.494 Z-8.905 I0 J-0.35
X20.183 Y2.587 Z-9 I0 J0.35
X19.708 Y3.101 I-0.238 J0.257
X20.183 Y2.587 I0.238 J-0.257
X19.708 Y3.101 Z-9.4 I-0.238 J0.257
X19.596 Y2.858 Z-9.5 I0.238 J-0.257
X20.295 Y2.83 I0.35 J-0.014
X19.596 Y2.858 I-0.35 J0.014
X20.295 Y2.83 Z-9.9 I0.35 J-0.014
X20.203 Y3.081 Z-10 I-0.35 J0.014
X19.688 Y2.607 I-0.258 J-0.237
X20.203 Y3.081 I0.258 J0.237
G0 Z6
X16.753 Y2.844
Z4
G1 Z2.8 F500
Z0.5
G3 X17.353 Y2.844 I0.3 J0
X16.753 Y2.844 I-0.3 J0
X17.353 Y2.844 Z0.157 I0.3 J0
X17.093 Y3.141 Z0 I-0.3 J0
X17.014 Y2.547 I-0.04 J-0.297
X17.093 Y3.141 I0.04 J0.297
X17.014 Y2.547 Z-0.343 I-0.04 J-0.297
X17.343 Y2.765 Z-0.5 I0.04 J0.297
X16.764 Y2.923 I-0.289 J0.079
X17.343 Y2.765 I0.289 J-0.079
X16.764 Y2.923 Z-0.843 I-0.289 J0.079
X16.937 Y2.568 Z-1 I0.289 J-0.079
X17.17 Y3.12 I0.117 J0.276
X16.937 Y2.568 I-0.117 J-0.276
X17.17 Y3.12 Z-1.343 I0.117 J0.276
X16.795 Y2.996 Z-1.5 I-0.117 J-0.276
X17.312 Y2.691 I0.258 J-0.152
X16.795 Y2.996 I-0.258 J0.152
X17.312 Y2.691 Z-1.843 I0.258 J-0.152
X17.239 Y3.08 Z-2 I-0.258 J0.152
X16.868 Y2.608 I-0.185 J-0.236
X17.239 Y3.08 I0.185 J0.236
X16.868 Y2.608 Z-2.343 I-0.185 J-0.236
X17.263 Y2.629 Z-2.5 I0.185 J0.236
X16.844 Y3.059 I-0.209 J0.215
X17.263 Y2.629 I0.209 J-0.215
X16.844 Y3.059 Z-2.843 I-0.209 J0.215
X16.812 Y2.665 Z-3 I0.209 J-0.215
X17.294 Y3.023 I0.241 J0.179
X16.812 Y2.665 I-0.241 J-0.179
X17.294 Y3.023 Z-3.343 I0.241 J0.179
X16.908 Y3.106 Z-3.5 I-0.241 J-0.179
X17.198 Y2.581 I0.145 J-0.263
X16.908 Y3.106 I-0.145 J0.263
X17.198 Y2.581 Z-3.843 I0.145 J-0.263
X17.333 Y2.953 Z-4 I-0.145 J0.263
X16.774 Y2.735 I-0.28 J-0.109
X17.333 Y2.953 I0.28 J0.109
X16.774 Y2.735 Z-4.343 I-0.28 J-0.109
X17.124 Y2.552 Z-4.5 I0.28 J0.109
X16.983 Y3.135 I-0.071 J0.292
X17.124 Y2.552 I0.071 J-0.292
X16.983 Y3.135 Z-4.843 I-0.071 J0.292
X16.755 Y2.812 Z-5 I0.071 J-0.292
X17.352 Y2.875 I0.298 J0.031
X16.755 Y2.812 I-0.298 J-0.031
X17.352 Y2.875 Z-5.343 I0.298 J0.031
X17.062 Y3.144 Z-5.5 I-0.298 J-0.031
X17.045 Y2.544 I-0.008 J-0.3
X17.062 Y3.144 I0.008 J0.3
G1 X17.053 Z-5.503
G3 X17.053 Y2.544 Z-5.846 I0 J-0.3
X17.349 Y2.796 Z-6 I0 J0.3
X16.757 Y2.892 I-0.296 J0.048
X17.349 Y2.796 I0.296 J-0.048
X16.757 Y2.892 Z-6.343 I-0.296 J0.048
X16.966 Y2.557 Z-6.5 I0.296 J-0.048
X17.141 Y3.131 I0.087 J0.287
X16.966 Y2.557 I-0.087 J-0.287
X17.141 Y3.131 Z-6.843 I0.087 J0.287
X16.78 Y2.968 Z-7 I-0.087 J-0.287
X17.326 Y2.719 I0.273 J-0.125
X16.78 Y2.968 I-0.273 J0.125
X17.326 Y2.719 Z-7.343 I0.273 J-0.125
X17.213 Y3.098 Z-7.5 I-0.273 J0.125
X16.894 Y2.59 I-0.16 J-0.254
X17.213 Y3.098 I0.16 J0.254
X16.894 Y2.59 Z-7.843 I-0.16 J-0.254
X17.284 Y2.652 Z-8 I0.16 J0.254
X16.823 Y3.036 I-0.23 J0.192
X17.284 Y2.652 I0.23 J-0.192
X16.823 Y3.036 Z-8.343 I-0.23 J0.192
X16.832 Y2.641 Z-8.5 I0.23 J-0.192
X17.274 Y3.047 I0.221 J0.203
X16.832 Y2.641 I-0.221 J-0.203
X17.274 Y3.047 Z-8.843 I0.221 J0.203
X16.882 Y3.09 Z-9 I-0.221 J-0.203
X17.225 Y2.598 I0.172 J-0.246
X16.882 Y3.09 I-0.172 J0.246
X17.225 Y2.598 Z-9.343 I0.172 J-0.246
X17.32 Y2.981 Z-9.5 I-0.172 J0.246
X16.787 Y2.706 I-0.267 J-0.138
X17.32 Y2.981 I0.267 J0.138
X16.787 Y2.706 Z-9.843 I-0.267 J-0.138
X17.154 Y2.561 Z-10 I0.267 J0.138
X16.952 Y3.126 I-0.101 J0.283
X17.154 Y2.561 I0.101 J-0.283
G0 Z6
X13.986 Y2.844
Z4
G1 Z2.8 F500
Z0.5
G3 X14.486 Y2.844 I0.25 J0
X13.986 Y2.844 I-0.25 J0
X14.486 Y2.844 Z0.214 I0.25 J0
X14.06 Y3.021 Z0 I-0.25 J0
X14.412 Y2.667 I0.176 J-0.177
X14.06 Y3.021 I-0.176 J0.177
X14.412 Y2.667 Z-0.286 I0.176 J-0.177
X14.237 Y3.094 Z-0.5 I-0.176 J0.177
X14.235 Y2.594 I-0.001 J-0.25
X14.237 Y3.094 I0.001 J0.25
X14.235 Y2.594 Z-0.786 I-0.001 J-0.25
X14.414 Y3.019 Z-1 I0.001 J0.25
X14.058 Y2.669 I-0.178 J-0.175
X14.414 Y3.019 I0.178 J0.175
X14.058 Y2.669 Z-1.286 I-0.178 J-0.175
X14.486 Y2.841 Z-1.5 I0.178 J0.175
X13.986 Y2.847 I-0.25 J0.003
X14.486 Y2.841 I0.25 J-0.003
G1 Y2.844 Z-1.501
G3 X13.986 Y2.844 Z-1.787 I-0.25 J0
X14.41 Y2.665 Z-2 I0.25 J0
X14.062 Y3.023 I-0.174 J0.179
X14.41 Y2.665 I0.174 J-0.179
X14.062 Y3.023 Z-2.286 I-0.174 J0.179
X14.232 Y2.594 Z-2.5 I0.174 J-0.179
X14.24 Y3.094 I0.004 J0.25
X14.232 Y2.594 I-0.004 J-0.25
X14.24 Y3.094 Z-2.786 I0.004 J0.25
X14.056 Y2.671 Z-3 I-0.004 J-0.25
X14.416 Y3.017 I0.18 J0.173
X14.056 Y2.671 I-0.18 J-0.173
X14.416 Y3.017 Z-3.286 I0.18 J0.173
X13.986 Y2.85 Z-3.5 I-0.18 J-0.173
X14.486 Y2.838 I0.25 J-0.006
X13.986 Y2.85 I-0.25 J0.006
X14.486 Y2.838 Z-3.786 I0.25 J-0.006
X14.064 Y3.025 Z-4 I-0.25 J0.006
X14.408 Y2.663 I0.172 J-0.181
X14.064 Y3.025 I-0.172 J0.181
X14.408 Y2.663 Z-4.286 I0.172 J-0.181
X14.243 Y3.094 Z-4.5 I-0.172 J0.181
X14.229 Y2.594 I-0.007 J-0.25
X14.243 Y3.094 I0.007 J0.25
X14.229 Y2.594 Z-4.786 I-0.007 J-0.25
X14.418 Y3.015 Z-5 I0.007 J0.25
X14.054 Y2.673 I-0.182 J-0.171
X14.418 Y3.015 I0.182 J0.171
X14.054 Y2.673 Z-5.286 I-0.182 J-0.171
X14.486 Y2.835 Z-5.5 I0.182 J0.171
X13.986 Y2.852 I-0.25 J0.008
X14.486 Y2.835 I0.25 J-0.008
X13.986 Y2.852 Z-5.786 I-0.25 J0.008
X14.406 Y2.661 Z-6 I0.25 J-0.008
X14.066 Y3.027 I-0.17 J0.183
X14.406 Y2.661 I0.17 J-0.183
X14.066 Y3.027 Z-6.286 I-0.17 J0.183
X14.226 Y2.594 Z-6.5 I0.17 J-0.183
X14.246 Y3.094 I0.01 J0.25
X14.226 Y2.594 I-0.01 J-0.25
X14.246 Y3.094 Z-6.786 I0.01 J0.25
X14.052 Y2.675 Z-7 I-0.01 J-0.25
X14.42 Y3.013 I0.184 J0.169
X14.052 Y2.675 I-0.184 J-0.169
X14.42 Y3.013 Z-7.286 I0.184 J0.169
X13.986 Y2.855 Z-7.5 I-0.184 J-0.169
X14.486 Y2.833 I0.25 J-0.011
X13.986 Y2.855 I-0.25 J0.011
X14.486 Y2.833 Z-7.786 I0.25 J-0.011
X14.068 Y3.029 Z-8 I-0.25 J0.011
X14.404 Y2.659 I0.168 J-0.185
X14.068 Y3.029 I-0.168 J0.185
X14.404 Y2.659 Z-8.286 I0.168 J-0.185
X14.249 Y3.094 Z-8.5 I-0.168 J0.185
X14.223 Y2.594 I-0.013 J-0.25
X14.249 Y3.094 I0.013 J0.25
G1 X14.236 Z-8.505
G3 X14.236 Y2.594 Z-8.791 I0 J-0.25
X14.422 Y3.011 Z-9 I0 J0.25
X14.05 Y2.677 I-0.186 J-0.167
X14.422 Y3.011 I0.186 J0.167
X14.05 Y2.677 Z-9.286 I-0.186 J-0.167
X14.486 Y2.83 Z-9.5 I0.186 J0.167
X13.986 Y2.858 I-0.25 J0.014
X14.486 Y2.83 I0.25 J-0.014
X13.986 Y2.858 Z-9.786 I-0.25 J0.014
X14.402 Y2.657 Z-10 I0.25 J-0.014
X14.07 Y3.031 I-0.166 J0.187
X14.402 Y2.657 I0.166 J-0.187
G0 Z6
X11.432 Y2.844
Z4
G1 Z2.8 F500
Z0.5
G3 X11.031 Y2.844 I-0.2 J0
X11.432 Y2.844 I0.2 J0
X11.031 Y2.844 Z0.271 I-0.2 J0
X11.432 Y2.844 Z0.043 I0.2 J0
X11.398 Y2.954 Z0 I-0.2 J0
X11.065 Y2.733 I-0.167 J-0.111
X11.398 Y2.954 I0.167 J0.111
X11.065 Y2.733 Z-0.229 I-0.167 J-0.111
X11.398 Y2.954 Z-0.457 I0.167 J0.111
X11.309 Y3.028 Z-0.5 I-0.167 J-0.111
X11.154 Y2.66 I-0.078 J-0.184
X11.309 Y3.028 I0.078 J0.184
X11.154 Y2.66 Z-0.729 I-0.078 J-0.184
X11.309 Y3.028 Z-0.957 I0.078 J0.184
X11.195 Y3.04 Z-1 I-0.078 J-0.184
X11.268 Y2.647 I0.037 J-0.197
X11.195 Y3.04 I-0.037 J0.197
X11.268 Y2.647 Z-1.229 I0.037 J-0.197
X11.195 Y3.04 Z-1.457 I-0.037 J0.197
X11.092 Y2.987 Z-1.5 I0.037 J-0.197
X11.371 Y2.7 I0.139 J-0.143
X11.092 Y2.987 I-0.139 J0.143
X11.371 Y2.7 Z-1.729 I0.139 J-0.143
X11.092 Y2.987 Z-1.957 I-0.139 J0.143
X11.036 Y2.886 Z-2 I0.139 J-0.143
X11.427 Y2.801 I0.195 J-0.042
X11.036 Y2.886 I-0.195 J0.042
X11.427 Y2.801 Z-2.229 I0.195 J-0.042
X11.036 Y2.886 Z-2.457 I-0.195 J0.042
X11.045 Y2.771 Z-2.5 I0.195 J-0.042
X11.418 Y2.916 I0.186 J0.073
X11.045 Y2.771 I-0.186 J-0.073
X11.418 Y2.916 Z-2.729 I0.186 J0.073
X11.045 Y2.771 Z-2.957 I-0.186 J-0.073
X11.116 Y2.68 Z-3 I0.186 J0.073
X11.347 Y3.007 I0.115 J0.163
X11.116 Y2.68 I-0.115 J-0.163
X11.347 Y3.007 Z-3.229 I0.115 J0.163
X11.116 Y2.68 Z-3.457 I-0.115 J-0.163
X11.226 Y2.644 Z-3.5 I0.115 J0.163
X11.237 Y3.044 I0.006 J0.2
X11.226 Y2.644 I-0.006 J-0.2
X11.237 Y3.044 Z-3.729 I0.006 J0.2
X11.226 Y2.644 Z-3.957 I-0.006 J-0.2
X11.337 Y2.674 Z-4 I0.006 J0.2
X11.126 Y3.014 I-0.106 J0.17
X11.337 Y2.674 I0.106 J-0.17
X11.126 Y3.014 Z-4.229 I-0.106 J0.17
X11.337 Y2.674 Z-4.457 I0.106 J-0.17
X11.413 Y2.761 Z-4.5 I-0.106 J0.17
X11.05 Y2.927 I-0.182 J0.083
X11.413 Y2.761 I0.182 J-0.083
X11.05 Y2.927 Z-4.729 I-0.182 J0.083
X11.413 Y2.761 Z-4.957 I0.182 J-0.083
X11.429 Y2.875 Z-5 I-0.182 J0.083
X11.034 Y2.813 I-0.198 J-0.031
X11.429 Y2.875 I0.198 J0.031
X11.034 Y2.813 Z-5.229 I-0.198 J-0.031
X11.429 Y2.875 Z-5.457 I0.198 J0.031
X11.379 Y2.979 Z-5.5 I-0.198 J-0.031
X11.084 Y2.709 I-0.147 J-0.135
X11.379 Y2.979 I0.147 J0.135
X11.084 Y2.709 Z-5.729 I-0.147 J-0.135
X11.379 Y2.979 Z-5.957 I0.147 J0.135
X11.28 Y3.038 Z-6 I-0.147 J-0.135
X11.183 Y2.65 I-0.048 J-0.194
X11.28 Y3.038 I0.048 J0.194
X11.183 Y2.65 Z-6.229 I-0.048 J-0.194
X11.28 Y3.038 Z-6.457 I0.048 J0.194
X11.164 Y3.032 Z-6.5 I-0.048 J-0.194
X11.299 Y2.656 I0.067 J-0.188
X11.164 Y3.032 I-0.067 J0.188
X11.299 Y2.656 Z-6.729 I0.067 J-0.188
X11.164 Y3.032 Z-6.957 I-0.067 J0.188
X11.071 Y2.964 Z-7 I0.067 J-0.188
X11.392 Y2.724 I0.16 J-0.12
X11.071 Y2.964 I-0.16 J0.12
X11.392 Y2.724 Z-7.229 I0.16 J-0.12
X11.071 Y2.964 Z-7.457 I-0.16 J0.12
X11.032 Y2.855 Z-7.5 I0.16 J-0.12
X11.431 Y2.833 I0.2 J-0.011
X11.032 Y2.855 I-0.2 J0.011
X11.431 Y2.833 Z-7.729 I0.2 J-0.011
X11.032 Y2.855 Z-7.957 I-0.2 J0.011
X11.059 Y2.743 Z-8 I0.2 J-0.011
X11.404 Y2.945 I0.173 J0.101
X11.059 Y2.743 I-0.173 J-0.101
X11.404 Y2.945 Z-8.229 I0.173 J0.101
X11.059 Y2.743 Z-8.457 I-0.173 J-0.101
X11.143 Y2.664 Z-8.5 I0.173 J0.101
X11.32 Y3.023 I0.088 J0.18
X11.143 Y2.664 I-0.088 J-0.18
X11.32 Y3.023 Z-8.729 I0.088 J0.18
X11.143 Y2.664 Z-8.957 I-0.088 J-0.18
X11.257 Y2.646 Z-9 I0.088 J0.18
X11.206 Y3.042 I-0.026 J0.198
X11.257 Y2.646 I0.026 J-0.198
X11.206 Y3.042 Z-9.229 I-0.026 J0.198
X11.257 Y2.646 Z-9.457 I0.026 J-0.198
X11.363 Y2.693 Z-9.5 I-0.026 J0.198
X11.1 Y2.995 I-0.131 J0.151
X11.363 Y2.693 I0.131 J-0.151
X11.1 Y2.995 Z-9.729 I-0.131 J0.151
X11.363 Y2.693 Z-9.957 I0.131 J-0.151
X11.424 Y2.79 Z-10 I-0.131 J0.151
X11.039 Y2.897 I-0.193 J0.053
X11.424 Y2.79 I0.193 J-0.053
G0 Z6
X8.638 Y2.694
Z4
G1 Z2.8 F500
Z0.5
G3 X8.638 Y2.994 I0 J0.15
X8.638 Y2.694 I0 J-0.15
X8.638 Y2.994 Z0.328 I0 J0.15
X8.638 Y2.694 Z0.157 I0 J-0.15
X8.678 Y2.989 Z0 I0 J0.15
X8.599 Y2.699 I-0.04 J-0.145
X8.678 Y2.989 I0.04 J0.145
X8.599 Y2.699 Z-0.172 I-0.04 J-0.145
X8.678 Y2.989 Z-0.343 I0.04 J0.145
X8.562 Y2.715 Z-0.5 I-0.04 J-0.145
X8.715 Y2.973 I0.076 J0.129
X8.562 Y2.715 I-0.076 J-0.129
X8.715 Y2.973 Z-0.672 I0.076 J0.129
X8.562 Y2.715 Z-0.843 I-0.076 J-0.129
X8.746 Y2.948 Z-1 I0.076 J0.129
X8.531 Y2.739 I-0.108 J-0.105
X8.746 Y2.948 I0.108 J0.105
X8.531 Y2.739 Z-1.172 I-0.108 J-0.105
X8.746 Y2.948 Z-1.343 I0.108 J0.105
X8.507 Y2.771 Z-1.5 I-0.108 J-0.105
X8.77 Y2.916 I0.131 J0.073
X8.507 Y2.771 I-0.131 J-0.073
X8.77 Y2.916 Z-1.672 I0.131 J0.073
X8.507 Y2.771 Z-1.843 I-0.131 J-0.073
X8.784 Y2.879 Z-2 I0.131 J0.073
X8.493 Y2.809 I-0.146 J-0.035
X8.784 Y2.879 I0.146 J0.035
X8.493 Y2.809 Z-2.172 I-0.146 J-0.035
X8.784 Y2.879 Z-2.343 I0.146 J0.035
X8.489 Y2.848 Z-2.5 I-0.146 J-0.035
X8.788 Y2.84 I0.15 J-0.004
X8.489 Y2.848 I-0.15 J0.004
X8.788 Y2.84 Z-2.672 I0.15 J-0.004
X8.489 Y2.848 Z-2.843 I-0.15 J0.004
X8.782 Y2.8 Z-3 I0.15 J-0.004
X8.495 Y2.887 I-0.144 J0.044
X8.782 Y2.8 I0.144 J-0.044
X8.495 Y2.887 Z-3.172 I-0.144 J0.044
X8.782 Y2.8 Z-3.343 I0.144 J-0.044
X8.511 Y2.924 Z-3.5 I-0.144 J0.044
X8.765 Y2.764 I0.127 J-0.08
X8.511 Y2.924 I-0.127 J0.08
X8.765 Y2.764 Z-3.672 I0.127 J-0.08
X8.511 Y2.924 Z-3.843 I-0.127 J0.08
X8.74 Y2.733 Z-4 I0.127 J-0.08
X8.537 Y2.954 I-0.101 J0.11
X8.74 Y2.733 I0.101 J-0.11
X8.537 Y2.954 Z-4.172 I-0.101 J0.11
X8.74 Y2.733 Z-4.343 I0.101 J-0.11
X8.57 Y2.977 Z-4.5 I-0.101 J0.11
X8.707 Y2.711 I0.069 J-0.133
X8.57 Y2.977 I-0.069 J0.133
X8.707 Y2.711 Z-4.672 I0.069 J-0.133
X8.57 Y2.977 Z-4.843 I-0.069 J0.133
X8.67 Y2.697 Z-5 I0.069 J-0.133
X8.607 Y2.991 I-0.031 J0.147
X8.67 Y2.697 I0.031 J-0.147
X8.607 Y2.991 Z-5.172 I-0.031 J0.147
X8.67 Y2.697 Z-5.343 I0.031 J-0.147
X8.647 Y2.994 Z-5.5 I-0.031 J0.147
X8.63 Y2.694 I-0.008 J-0.15
X8.647 Y2.994 I0.008 J0.15
X8.63 Y2.694 Z-5.672 I-0.008 J-0.15
X8.647 Y2.994 Z-5.843 I0.008 J0.15
X8.591 Y2.702 Z-6 I-0.008 J-0.15
X8.686 Y2.986 I0.048 J0.142
X8.591 Y2.702 I-0.048 J-0.142
X8.686 Y2.986 Z-6.172 I0.048 J0.142
X8.591 Y2.702 Z-6.343 I-0.048 J-0.142
X8.722 Y2.969 Z-6.5 I0.048 J0.142
X8.555 Y2.719 I-0.083 J-0.125
X8.722 Y2.969 I0.083 J0.125
X8.555 Y2.719 Z-6.672 I-0.083 J-0.125
X8.722 Y2.969 Z-6.843 I0.083 J0.125
X8.525 Y2.746 Z-7 I-0.083 J-0.125
X8.752 Y2.942 I0.113 J0.098
X8.525 Y2.746 I-0.113 J-0.098
X8.752 Y2.942 Z-7.172 I0.113 J0.098
X8.525 Y2.746 Z-7.343 I-0.113 J-0.098
X8.774 Y2.909 Z-7.5 I0.113 J0.098
X8.503 Y2.779 I-0.135 J-0.065
X8.774 Y2.909 I0.135 J0.065
X8.503 Y2.779 Z-7.672 I-0.135 J-0.065
X8.774 Y2.909 Z-7.843 I0.135 J0.065
X8.491 Y2.817 Z-8 I-0.135 J-0.065
X8.786 Y2.871 I0.148 J0.027
X8.491 Y2.817 I-0.148 J-0.027
X8.786 Y2.871 Z-8.172 I0.148 J0.027
X8.491 Y2.817 Z-8.343 I-0.148 J-0.027
X8.788 Y2.831 Z-8.5 I0.148 J0.027
X8.489 Y2.857 I-0.149 J0.013
X8.788 Y2.831 I0.149 J-0.013
X8.489 Y2.857 Z-8.672 I-0.149 J0.013
X8.788 Y2.831 Z-8.843 I0.149 J-0.013
X8.498 Y2.896 Z-9 I-0.149 J0.013
X8.779 Y2.792 I0.141 J-0.052
X8.498 Y2.896 I-0.141 J0.052
X8.779 Y2.792 Z-9.172 I0.141 J-0.052
X8.498 Y2.896 Z-9.343 I-0.141 J0.052
X8.761 Y2.757 Z-9.5 I0.141 J-0.052
X8.516 Y2.931 I-0.122 J0.087
X8.761 Y2.757 I0.122 J-0.087
X8.516 Y2.931 Z-9.672 I-0.122 J0.087
X8.761 Y2.757 Z-9.843 I0.122 J-0.087
X8.543 Y2.96 Z-10 I-0.122 J0.087
X8.733 Y2.728 I0.095 J-0.116
X8.543 Y2.96 I-0.095 J0.116
G0 Z6
X6.158 Y2.744
Z4
G1 Z2.8 F500
Z0.5
G3 X6.158 Y2.944 I0 J0.1
X6.158 Y2.744 I0 J-0.1
G1 X6.196 Y2.752 Z0.486
X6.228 Y2.773 Z0.471
X6.25 Y2.806 Z0.457
X6.258 Y2.844 Z0.443
X6.25 Y2.882 Z0.429
X6.228 Y2.915 Z0.414
X6.196 Y2.936 Z0.4
X6.158 Y2.944 Z0.386
X6.119 Y2.936 Z0.371
X6.087 Y2.915 Z0.357
X6.065 Y2.882 Z0.343
X6.058 Y2.844 Z0.329
X6.065 Y2.806 Z0.314
X6.087 Y2.773 Z0.3
X6.119 Y2.752 Z0.286
X6.157 Y2.744 Z0.271
X6.196 Y2.751 Z0.257
X6.228 Y2.773 Z0.243
X6.25 Y2.805 Z0.229
X6.258 Y2.843 Z0.214
X6.25 Y2.882 Z0.2
X6.229 Y2.914 Z0.186
X6.196 Y2.936 Z0.171
X6.158 Y2.944 Z0.157
X6.12 Y2.936 Z0.143
X6.087 Y2.915 Z0.129
X6.065 Y2.883 Z0.114
X6.058 Y2.844 Z0.1
X6.065 Y2.806 Z0.086
X6.086 Y2.774 Z0.071
X6.119 Y2.752 Z0.057
X6.157 Y2.744 Z0.043
X6.195 Y2.751 Z0.029
X6.228 Y2.773 Z0.014
X6.25 Y2.805 Z0
G3 X6.065 Y2.883 I-0.092 J0.039
X6.25 Y2.805 I0.092 J-0.039
G1 X6.258 Y2.843 Z-0.014
X6.25 Y2.881 Z-0.029
X6.229 Y2.914 Z-0.043
X6.197 Y2.936 Z-0.057
X6.158 Y2.944 Z-0.071
X6.12 Y2.937 Z-0.086
X6.087 Y2.915 Z-0.1
X6.066 Y2.883 Z-0.114
X6.058 Y2.845 Z-0.129
X6.065 Y2.806 Z-0.143
X6.086 Y2.774 Z-0.157
X6.118 Y2.752 Z-0.171
X6.157 Y2.744 Z-0.186
X6.195 Y2.751 Z-0.2
X6.228 Y2.772 Z-0.214
X6.25 Y2.805 Z-0.229
X6.258 Y2.843 Z-0.243
X6.25 Y2.881 Z-0.257
X6.229 Y2.914 Z-0.271
X6.197 Y2.936 Z-0.286
X6.159 Y2.944 Z-0.3
X6.12 Y2.937 Z-0.314
X6.088 Y2.915 Z-0.329
X6.066 Y2.883 Z-0.343
X6.058 Y2.845 Z-0.357
X6.065 Y2.807 Z-0.371
X6.086 Y2.774 Z-0.386
X6.118 Y2.752 Z-0.4
X6.156 Y2.744 Z-0.414
X6.195 Y2.751 Z-0.429
X6.227 Y2.772 Z-0.443
X6.249 Y2.804 Z-0.457
X6.258 Y2.843 Z-0.471
X6.25 Y2.881 Z-0.486
X6.229 Y2.914 Z-0.5
G3 X6.086 Y2.774 I-0.072 J-0.07
X6.229 Y2.914 I0.072 J0.07
G1 X6.197 Y2.936 Z-0.514
X6.159 Y2.944 Z-0.529
X6.121 Y2.937 Z-0.543
X6.088 Y2.916 Z-0.557
X6.066 Y2.884 Z-0.571
X6.058 Y2.845 Z-0.586
X6.065 Y2.807 Z-0.6
X6.086 Y2.774 Z-0.614
X6.118 Y2.752 Z-0.629
X6.156 Y2.744 Z-0.643
X6.194 Y2.751 Z-0.657
X6.227 Y2.772 Z-0.671
X6.249 Y2.804 Z-0.686
X6.258 Y2.842 Z-0.7
X6.251 Y2.881 Z-0.714
X6.23 Y2.913 Z-0.729
X6.197 Y2.936 Z-0.743
X6.159 Y2.944 Z-0.757
X6.121 Y2.937 Z-0.771
X6.088 Y2.916 Z-0.786
X6.066 Y2.884 Z-0.8
X6.058 Y2.846 Z-0.814
X6.064 Y2.807 Z-0.829
X6.086 Y2.775 Z-0.843
X6.118 Y2.752 Z-0.857
X6.156 Y2.744 Z-0.871
X6.194 Y2.751 Z-0.886
X6.227 Y2.772 Z-0.9
X6.249 Y2.804 Z-0.914
X6.258 Y2.842 Z-0.929
X6.251 Y2.88 Z-0.943
X6.23 Y2.913 Z-0.957
X6.198 Y2.935 Z-0.971
X6.16 Y2.944 Z-0.986
X6.121 Y2.937 Z-1
G3 X6.194 Y2.751 I0.036 J-0.093
X6.121 Y2.937 I-0.036 J0.093
G1 X6.088 Y2.916 Z-1.014
X6.066 Y2.884 Z-1.029
X6.058 Y2.846 Z-1.043
X6.064 Y2.808 Z-1.057
X6.085 Y2.775 Z-1.071
X6.117 Y2.752 Z-1.086
X6.155 Y2.744 Z-1.1
X6.194 Y2.751 Z-1.114
X6.227 Y2.772 Z-1.129
X6.249 Y2.803 Z-1.143
X6.258 Y2.842 Z-1.157
X6.251 Y2.88 Z-1.171
X6.23 Y2.913 Z-1.186
X6.198 Y2.935 Z-1.2
X6.16 Y2.944 Z-1.214
X6.122 Y2.937 Z-1.229
X6.089 Y2.916 Z-1.243
X6.066 Y2.884 Z-1.257
X6.058 Y2.846 Z-1.271
X6.064 Y2.808 Z-1.286
X6.085 Y2.775 Z-1.3
X6.117 Y2.753 Z-1.314
X6.155 Y2.744 Z-1.329
X6.193 Y2.751 Z-1.343
X6.226 Y2.771 Z-1.357
X6.249 Y2.803 Z-1.371
X6.258 Y2.841 Z-1.386
X6.251 Y2.88 Z-1.4
X6.23 Y2.913 Z-1.414
X6.198 Y2.935 Z-1.429
X6.16 Y2.944 Z-1.443
X6.122 Y2.937 Z-1.457
X6.089 Y2.917 Z-1.471
X6.066 Y2.885 Z-1.486
X6.058 Y2.847 Z-1.5
G3 X6.258 Y2.841 I0.1 J-0.003
X6.058 Y2.847 I-0.1 J0.003
G1 X6.064 Y2.808 Z-1.514
X6.085 Y2.775 Z-1.529
X6.117 Y2.753 Z-1.543
X6.155 Y2.744 Z-1.557
X6.193 Y2.75 Z-1.571
X6.226 Y2.771 Z-1.586
X6.249 Y2.803 Z-1.6
X6.258 Y2.841 Z-1.614
X6.251 Y2.879 Z-1.629
X6.23 Y2.912 Z-1.643
X6.199 Y2.935 Z-1.657
X6.161 Y2.944 Z-1.671
X6.122 Y2.937 Z-1.686
X6.089 Y2.917 Z-1.7
X6.066 Y2.885 Z-1.714
X6.058 Y2.847 Z-1.729
X6.064 Y2.809 Z-1.743
X6.085 Y2.775 Z-1.757
X6.116 Y2.753 Z-1.771
X6.154 Y2.744 Z-1.786
X6.193 Y2.75 Z-1.8
X6.226 Y2.771 Z-1.814
X6.249 Y2.803 Z-1.829
X6.258 Y2.841 Z-1.843
X6.251 Y2.879 Z-1.857
X6.231 Y2.912 Z-1.871
X6.199 Y2.935 Z-1.886
X6.161 Y2.944 Z-1.9
X6.122 Y2.938 Z-1.914
X6.089 Y2.917 Z-1.929
X6.067 Y2.885 Z-1.943
X6.058 Y2.847 Z-1.957
X6.064 Y2.809 Z-1.971
X6.084 Y2.776 Z-1.986
X6.116 Y2.753 Z-2
G3 X6.199 Y2.935 I0.042 J0.091
X6.116 Y2.753 I-0.042 J-0.091
G1 X6.154 Y2.744 Z-2.014
X6.193 Y2.75 Z-2.029
X6.226 Y2.771 Z-2.043
X6.249 Y2.802 Z-2.057
X6.258 Y2.84 Z-2.071
X6.251 Y2.879 Z-2.086
X6.231 Y2.912 Z-2.1
X6.199 Y2.935 Z-2.114
X6.161 Y2.944 Z-2.129
X6.123 Y2.938 Z-2.143
X6.09 Y2.917 Z-2.157
X6.067 Y2.886 Z-2.171
X6.058 Y2.848 Z-2.186
X6.064 Y2.809 Z-2.2
X6.084 Y2.776 Z-2.214
X6.116 Y2.753 Z-2.229
X6.154 Y2.744 Z-2.243
X6.192 Y2.75 Z-2.257
X6.225 Y2.77 Z-2.271
X6.248 Y2.802 Z-2.286
X6.258 Y2.84 Z-2.3
X6.251 Y2.878 Z-2.314
X6.231 Y2.912 Z-2.329
X6.2 Y2.935 Z-2.343
X6.162 Y2.944 Z-2.357
X6.123 Y2.938 Z-2.371
X6.09 Y2.917 Z-2.386
X6.067 Y2.886 Z-2.4
X6.058 Y2.848 Z-2.414
X6.064 Y2.809 Z-2.429
X6.084 Y2.776 Z-2.443
X6.115 Y2.753 Z-2.457
X6.153 Y2.744 Z-2.471
X6.192 Y2.75 Z-2.486
X6.225 Y2.77 Z-2.5
G3 X6.09 Y2.918 I-0.068 J0.074
X6.225 Y2.77 I0.068 J-0.074
G1 X6.248 Y2.802 Z-2.514
X6.257 Y2.84 Z-2.529
X6.252 Y2.878 Z-2.543
X6.231 Y2.911 Z-2.557
X6.2 Y2.935 Z-2.571
X6.162 Y2.944 Z-2.586
X6.123 Y2.938 Z-2.6
X6.09 Y2.918 Z-2.614
X6.067 Y2.886 Z-2.629
X6.058 Y2.848 Z-2.643
X6.064 Y2.81 Z-2.657
X6.084 Y2.776 Z-2.671
X6.115 Y2.753 Z-2.686
X6.153 Y2.744 Z-2.7
X6.192 Y2.75 Z-2.714
X6.225 Y2.77 Z-2.729
X6.248 Y2.801 Z-2.743
X6.257 Y2.839 Z-2.757
X6.252 Y2.878 Z-2.771
X6.232 Y2.911 Z-2.786
X6.2 Y2.934 Z-2.8
X6.162 Y2.944 Z-2.814
X6.124 Y2.938 Z-2.829
X6.09 Y2.918 Z-2.843
X6.067 Y2.887 Z-2.857
X6.058 Y2.849 Z-2.871
X6.063 Y2.81 Z-2.886
X6.084 Y2.777 Z-2.9
X6.115 Y2.753 Z-2.914
X6.153 Y2.744 Z-2.929
X6.191 Y2.75 Z-2.943
X6.225 Y2.77 Z-2.957
X6.248 Y2.801 Z-2.971
X6.257 Y2.839 Z-2.986
X6.252 Y2.878 Z-3
G3 X6.063 Y2.81 I-0.094 J-0.034
X6.252 Y2.878 I0.094 J0.034
G1 X6.232 Y2.911 Z-3.014
X6.2 Y2.934 Z-3.029
X6.163 Y2.944 Z-3.043
X6.124 Y2.938 Z-3.057
X6.091 Y2.918 Z-3.071
X6.067 Y2.887 Z-3.086
X6.058 Y2.849 Z-3.1
X6.063 Y2.81 Z-3.114
X6.083 Y2.777 Z-3.129
X6.115 Y2.754 Z-3.143
X6.152 Y2.744 Z-3.157
X6.191 Y2.75 Z-3.171
X6.225 Y2.77 Z-3.186
X6.248 Y2.801 Z-3.2
X6.257 Y2.839 Z-3.214
X6.252 Y2.877 Z-3.229
X6.232 Y2.911 Z-3.243
X6.201 Y2.934 Z-3.257
X6.163 Y2.944 Z-3.271
X6.124 Y2.938 Z-3.286
X6.091 Y2.918 Z-3.3
X6.067 Y2.887 Z-3.314
X6.058 Y2.849 Z-3.329
X6.063 Y2.811 Z-3.343
X6.083 Y2.777 Z-3.357
X6.114 Y2.754 Z-3.371
X6.152 Y2.744 Z-3.386
X6.191 Y2.75 Z-3.4
X6.224 Y2.769 Z-3.414
X6.248 Y2.801 Z-3.429
X6.257 Y2.838 Z-3.443
X6.252 Y2.877 Z-3.457
X6.232 Y2.911 Z-3.471
X6.201 Y2.934 Z-3.486
X6.163 Y2.944 Z-3.5
G3 X6.152 Y2.744 I-0.006 J-0.1
X6.163 Y2.944 I0.006 J0.1
G1 X6.125 Y2.938 Z-3.514
X6.091 Y2.919 Z-3.529
X6.068 Y2.887 Z-3.543
X6.058 Y2.85 Z-3.557
X6.063 Y2.811 Z-3.571
X6.083 Y2.777 Z-3.586
X6.114 Y2.754 Z-3.6
X6.152 Y2.744 Z-3.614
X6.19 Y2.749 Z-3.629
X6.224 Y2.769 Z-3.643
X6.248 Y2.8 Z-3.657
X6.257 Y2.838 Z-3.671
X6.252 Y2.877 Z-3.686
X6.232 Y2.91 Z-3.7
X6.201 Y2.934 Z-3.714
X6.164 Y2.944 Z-3.729
X6.125 Y2.938 Z-3.743
X6.091 Y2.919 Z-3.757
X6.068 Y2.888 Z-3.771
X6.058 Y2.85 Z-3.786
X6.063 Y2.811 Z-3.8
X6.083 Y2.778 Z-3.814
X6.114 Y2.754 Z-3.829
X6.151 Y2.744 Z-3.843
X6.19 Y2.749 Z-3.857
X6.224 Y2.769 Z-3.871
X6.247 Y2.8 Z-3.886
X6.257 Y2.838 Z-3.9
X6.252 Y2.876 Z-3.914
X6.233 Y2.91 Z-3.929
X6.202 Y2.934 Z-3.943
X6.164 Y2.944 Z-3.957
X6.125 Y2.939 Z-3.971
X6.092 Y2.919 Z-3.986
X6.068 Y2.888 Z-4
G3 X6.247 Y2.8 I0.09 J-0.044
X6.068 Y2.888 I-0.09 J0.044
G1 X6.058 Y2.85 Z-4.014
X6.063 Y2.812 Z-4.029
X6.082 Y2.778 Z-4.043
X6.113 Y2.754 Z-4.057
X6.151 Y2.744 Z-4.071
X6.19 Y2.749 Z-4.086
X6.224 Y2.769 Z-4.1
X6.247 Y2.8 Z-4.114
X6.257 Y2.837 Z-4.129
X6.252 Y2.876 Z-4.143
X6.233 Y2.91 Z-4.157
X6.202 Y2.934 Z-4.171
X6.164 Y2.944 Z-4.186
X6.126 Y2.939 Z-4.2
X6.092 Y2.919 Z-4.214
X6.068 Y2.888 Z-4.229
X6.058 Y2.851 Z-4.243
X6.063 Y2.812 Z-4.257
X6.082 Y2.778 Z-4.271
X6.113 Y2.754 Z-4.286
X6.151 Y2.744 Z-4.3
X6.189 Y2.749 Z-4.314
X6.223 Y2.769 Z-4.329
X6.247 Y2.799 Z-4.343
X6.257 Y2.837 Z-4.357
X6.252 Y2.876 Z-4.371
X6.233 Y2.91 Z-4.386
X6.202 Y2.933 Z-4.4
X6.165 Y2.944 Z-4.414
X6.126 Y2.939 Z-4.429
X6.092 Y2.919 Z-4.443
X6.068 Y2.889 Z-4.457
X6.058 Y2.851 Z-4.471
X6.063 Y2.812 Z-4.486
X6.082 Y2.778 Z-4.5
G3 X6.233 Y2.909 I0.076 J0.066
X6.082 Y2.778 I-0.076 J-0.066
G1 X6.113 Y2.754 Z-4.514
X6.15 Y2.744 Z-4.529
X6.189 Y2.749 Z-4.543
X6.223 Y2.768 Z-4.557
X6.247 Y2.799 Z-4.571
X6.257 Y2.837 Z-4.586
X6.252 Y2.875 Z-4.6
X6.233 Y2.909 Z-4.614
X6.202 Y2.933 Z-4.629
X6.165 Y2.944 Z-4.643
X6.126 Y2.939 Z-4.657
X6.092 Y2.92 Z-4.671
X6.068 Y2.889 Z-4.686
X6.058 Y2.851 Z-4.7
X6.063 Y2.813 Z-4.714
X6.082 Y2.779 Z-4.729
X6.113 Y2.755 Z-4.743
X6.15 Y2.744 Z-4.757
X6.189 Y2.749 Z-4.771
X6.223 Y2.768 Z-4.786
X6.247 Y2.799 Z-4.8
X6.257 Y2.836 Z-4.814
X6.253 Y2.875 Z-4.829
X6.233 Y2.909 Z-4.843
X6.203 Y2.933 Z-4.857
X6.165 Y2.944 Z-4.871
X6.126 Y2.939 Z-4.886
X6.092 Y2.92 Z-4.9
X6.068 Y2.889 Z-4.914
X6.058 Y2.852 Z-4.929
X6.063 Y2.813 Z-4.943
X6.082 Y2.779 Z-4.957
X6.112 Y2.755 Z-4.971
X6.15 Y2.744 Z-4.986
X6.189 Y2.749 Z-5
G3 X6.127 Y2.939 I-0.031 J0.095
X6.189 Y2.749 I0.031 J-0.095
G1 X6.223 Y2.768 Z-5.014
X6.247 Y2.799 Z-5.029
X6.257 Y2.836 Z-5.043
X6.253 Y2.875 Z-5.057
X6.234 Y2.909 Z-5.071
X6.203 Y2.933 Z-5.086
X6.166 Y2.944 Z-5.1
X6.127 Y2.939 Z-5.114
X6.093 Y2.92 Z-5.129
X6.069 Y2.889 Z-5.143
X6.058 Y2.852 Z-5.157
X6.062 Y2.813 Z-5.171
X6.081 Y2.779 Z-5.186
X6.112 Y2.755 Z-5.2
X6.149 Y2.744 Z-5.214
X6.188 Y2.749 Z-5.229
X6.222 Y2.768 Z-5.243
X6.247 Y2.798 Z-5.257
X6.257 Y2.836 Z-5.271
X6.253 Y2.874 Z-5.286
X6.234 Y2.909 Z-5.3
X6.203 Y2.933 Z-5.314
X6.166 Y2.944 Z-5.329
X6.127 Y2.939 Z-5.343
X6.093 Y2.92 Z-5.357
X6.069 Y2.89 Z-5.371
X6.058 Y2.852 Z-5.386
X6.062 Y2.813 Z-5.4
X6.081 Y2.779 Z-5.414
X6.112 Y2.755 Z-5.429
X6.149 Y2.744 Z-5.443
X6.188 Y2.749 Z-5.457
X6.222 Y2.767 Z-5.471
X6.246 Y2.798 Z-5.486
X6.257 Y2.835 Z-5.5
G3 X6.058 Y2.852 I-0.1 J0.008
X6.257 Y2.835 I0.1 J-0.008
G1 X6.253 Y2.874 Z-5.514
X6.234 Y2.908 Z-5.529
X6.204 Y2.933 Z-5.543
X6.166 Y2.944 Z-5.557
X6.127 Y2.939 Z-5.571
X6.093 Y2.92 Z-5.586
X6.069 Y2.89 Z-5.6
X6.058 Y2.853 Z-5.614
X6.062 Y2.814 Z-5.629
X6.081 Y2.78 Z-5.643
X6.111 Y2.755 Z-5.657
X6.149 Y2.744 Z-5.671
X6.188 Y2.749 Z-5.686
X6.222 Y2.767 Z-5.7
X6.246 Y2.798 Z-5.714
X6.257 Y2.835 Z-5.729
X6.253 Y2.874 Z-5.743
X6.234 Y2.908 Z-5.757
X6.204 Y2.933 Z-5.771
X6.166 Y2.944 Z-5.786
X6.128 Y2.939 Z-5.8
X6.093 Y2.921 Z-5.814
X6.069 Y2.89 Z-5.829
X6.058 Y2.853 Z-5.843
X6.062 Y2.814 Z-5.857
X6.081 Y2.78 Z-5.871
X6.111 Y2.755 Z-5.886
X6.149 Y2.744 Z-5.9
X6.187 Y2.748 Z-5.914
X6.222 Y2.767 Z-5.929
X6.246 Y2.797 Z-5.943
X6.257 Y2.835 Z-5.957
X6.253 Y2.874 Z-5.971
X6.234 Y2.908 Z-5.986
X6.204 Y2.932 Z-6
G3 X6.111 Y2.755 I-0.047 J-0.088
X6.204 Y2.932 I0.047 J0.088
G1 X6.167 Y2.943 Z-6.014
X6.128 Y2.939 Z-6.029
X6.094 Y2.921 Z-6.043
X6.069 Y2.891 Z-6.057
X6.058 Y2.853 Z-6.071
X6.062 Y2.814 Z-6.086
X6.081 Y2.78 Z-6.1
X6.111 Y2.755 Z-6.114
X6.148 Y2.744 Z-6.129
X6.187 Y2.748 Z-6.143
X6.221 Y2.767 Z-6.157
X6.246 Y2.797 Z-6.171
X6.257 Y2.834 Z-6.186
X6.253 Y2.873 Z-6.2
X6.235 Y2.908 Z-6.214
X6.204 Y2.932 Z-6.229
X6.167 Y2.943 Z-6.243
X6.128 Y2.94 Z-6.257
X6.094 Y2.921 Z-6.271
X6.069 Y2.891 Z-6.286
X6.058 Y2.854 Z-6.3
X6.062 Y2.815 Z-6.314
X6.08 Y2.78 Z-6.329
X6.111 Y2.756 Z-6.343
X6.148 Y2.744 Z-6.357
X6.187 Y2.748 Z-6.371
X6.221 Y2.767 Z-6.386
X6.246 Y2.797 Z-6.4
X6.257 Y2.834 Z-6.414
X6.253 Y2.873 Z-6.429
X6.235 Y2.907 Z-6.443
X6.205 Y2.932 Z-6.457
X6.167 Y2.943 Z-6.471
X6.129 Y2.94 Z-6.486
X6.094 Y2.921 Z-6.5
G3 X6.221 Y2.767 I0.063 J-0.077
X6.094 Y2.921 I-0.063 J0.077
G1 X6.069 Y2.891 Z-6.514
X6.058 Y2.854 Z-6.529
X6.062 Y2.815 Z-6.543
X6.08 Y2.781 Z-6.557
X6.11 Y2.756 Z-6.571
X6.148 Y2.744 Z-6.586
X6.186 Y2.748 Z-6.6
X6.221 Y2.766 Z-6.614
X6.246 Y2.797 Z-6.629
X6.257 Y2.834 Z-6.643
X6.253 Y2.873 Z-6.657
X6.235 Y2.907 Z-6.671
X6.205 Y2.932 Z-6.686
X6.168 Y2.943 Z-6.7
X6.129 Y2.94 Z-6.714
X6.094 Y2.921 Z-6.729
X6.07 Y2.891 Z-6.743
X6.058 Y2.854 Z-6.757
X6.062 Y2.815 Z-6.771
X6.08 Y2.781 Z-6.786
X6.11 Y2.756 Z-6.8
X6.147 Y2.744 Z-6.814
X6.186 Y2.748 Z-6.829
X6.221 Y2.766 Z-6.843
X6.245 Y2.796 Z-6.857
X6.257 Y2.833 Z-6.871
X6.253 Y2.872 Z-6.886
X6.235 Y2.907 Z-6.9
X6.205 Y2.932 Z-6.914
X6.168 Y2.943 Z-6.929
X6.129 Y2.94 Z-6.943
X6.095 Y2.922 Z-6.957
X6.07 Y2.892 Z-6.971
X6.058 Y2.854 Z-6.986
X6.062 Y2.816 Z-7
G3 X6.254 Y2.872 I0.096 J0.028
X6.062 Y2.816 I-0.096 J-0.028
G1 X6.08 Y2.781 Z-7.014
X6.11 Y2.756 Z-7.029
X6.147 Y2.744 Z-7.043
X6.186 Y2.748 Z-7.057
X6.22 Y2.766 Z-7.071
X6.245 Y2.796 Z-7.086
X6.257 Y2.833 Z-7.1
X6.254 Y2.872 Z-7.114
X6.236 Y2.907 Z-7.129
X6.206 Y2.932 Z-7.143
X6.168 Y2.943 Z-7.157
X6.13 Y2.94 Z-7.171
X6.095 Y2.922 Z-7.186
X6.07 Y2.892 Z-7.2
X6.058 Y2.855 Z-7.214
X6.062 Y2.816 Z-7.229
X6.08 Y2.781 Z-7.243
X6.109 Y2.756 Z-7.257
X6.147 Y2.745 Z-7.271
X6.185 Y2.748 Z-7.286
X6.22 Y2.766 Z-7.3
X6.245 Y2.796 Z-7.314
X6.257 Y2.833 Z-7.329
X6.254 Y2.872 Z-7.343
X6.236 Y2.906 Z-7.357
X6.206 Y2.931 Z-7.371
X6.169 Y2.943 Z-7.386
X6.13 Y2.94 Z-7.4
X6.095 Y2.922 Z-7.414
X6.07 Y2.892 Z-7.429
X6.058 Y2.855 Z-7.443
X6.061 Y2.816 Z-7.457
X6.079 Y2.782 Z-7.471
X6.109 Y2.756 Z-7.486
X6.146 Y2.745 Z-7.5
G3 X6.169 Y2.943 I0.011 J0.099
X6.146 Y2.745 I-0.011 J-0.099
G1 X6.185 Y2.748 Z-7.514
X6.22 Y2.766 Z-7.529
X6.245 Y2.795 Z-7.543
X6.257 Y2.833 Z-7.557
X6.254 Y2.871 Z-7.571
X6.236 Y2.906 Z-7.586
X6.206 Y2.931 Z-7.6
X6.169 Y2.943 Z-7.614
X6.13 Y2.94 Z-7.629
X6.095 Y2.922 Z-7.643
X6.07 Y2.893 Z-7.657
X6.058 Y2.855 Z-7.671
X6.061 Y2.817 Z-7.686
X6.079 Y2.782 Z-7.7
X6.109 Y2.757 Z-7.714
X6.146 Y2.745 Z-7.729
X6.185 Y2.748 Z-7.743
X6.22 Y2.765 Z-7.757
X6.245 Y2.795 Z-7.771
X6.257 Y2.832 Z-7.786
X6.254 Y2.871 Z-7.8
X6.236 Y2.906 Z-7.814
X6.206 Y2.931 Z-7.829
X6.169 Y2.943 Z-7.843
X6.13 Y2.94 Z-7.857
X6.096 Y2.922 Z-7.871
X6.07 Y2.893 Z-7.886
X6.058 Y2.856 Z-7.9
X6.061 Y2.817 Z-7.914
X6.079 Y2.782 Z-7.929
X6.109 Y2.757 Z-7.943
X6.146 Y2.745 Z-7.957
X6.185 Y2.748 Z-7.971
X6.219 Y2.765 Z-7.986
X6.245 Y2.795 Z-8
G3 X6.07 Y2.893 I-0.087 J0.049
X6.245 Y2.795 I0.087 J-0.049
G1 X6.257 Y2.832 Z-8.014
X6.254 Y2.871 Z-8.029
X6.236 Y2.906 Z-8.043
X6.207 Y2.931 Z-8.057
X6.17 Y2.943 Z-8.071
X6.131 Y2.94 Z-8.086
X6.096 Y2.923 Z-8.1
X6.071 Y2.893 Z-8.114
X6.058 Y2.856 Z-8.129
X6.061 Y2.817 Z-8.143
X6.079 Y2.782 Z-8.157
X6.108 Y2.757 Z-8.171
X6.145 Y2.745 Z-8.186
X6.184 Y2.748 Z-8.2
X6.219 Y2.765 Z-8.214
X6.245 Y2.795 Z-8.229
X6.257 Y2.832 Z-8.243
X6.254 Y2.87 Z-8.257
X6.237 Y2.905 Z-8.271
X6.207 Y2.931 Z-8.286
X6.17 Y2.943 Z-8.3
X6.131 Y2.94 Z-8.314
X6.096 Y2.923 Z-8.329
X6.071 Y2.893 Z-8.343
X6.058 Y2.856 Z-8.357
X6.061 Y2.818 Z-8.371
X6.079 Y2.783 Z-8.386
X6.108 Y2.757 Z-8.4
X6.145 Y2.745 Z-8.414
X6.184 Y2.747 Z-8.429
X6.219 Y2.765 Z-8.443
X6.244 Y2.794 Z-8.457
X6.257 Y2.831 Z-8.471
X6.254 Y2.87 Z-8.486
X6.237 Y2.905 Z-8.5
G3 X6.078 Y2.783 I-0.079 J-0.061
X6.237 Y2.905 I0.079 J0.061
G1 X6.207 Y2.931 Z-8.514
X6.17 Y2.943 Z-8.529
X6.131 Y2.94 Z-8.543
X6.096 Y2.923 Z-8.557
X6.071 Y2.894 Z-8.571
X6.058 Y2.857 Z-8.586
X6.061 Y2.818 Z-8.6
X6.078 Y2.783 Z-8.614
X6.108 Y2.757 Z-8.629
X6.145 Y2.745 Z-8.643
X6.184 Y2.747 Z-8.657
X6.219 Y2.765 Z-8.671
X6.244 Y2.794 Z-8.686
X6.257 Y2.831 Z-8.7
X6.254 Y2.87 Z-8.714
X6.237 Y2.905 Z-8.729
X6.208 Y2.931 Z-8.743
X6.171 Y2.943 Z-8.757
X6.132 Y2.941 Z-8.771
X6.097 Y2.923 Z-8.786
X6.071 Y2.894 Z-8.8
X6.058 Y2.857 Z-8.814
X6.061 Y2.818 Z-8.829
X6.078 Y2.783 Z-8.843
X6.107 Y2.757 Z-8.857
X6.144 Y2.745 Z-8.871
X6.183 Y2.747 Z-8.886
X6.218 Y2.764 Z-8.9
X6.244 Y2.794 Z-8.914
X6.257 Y2.831 Z-8.929
X6.254 Y2.87 Z-8.943
X6.237 Y2.905 Z-8.957
X6.208 Y2.93 Z-8.971
X6.171 Y2.943 Z-8.986
X6.132 Y2.941 Z-9
G3 X6.183 Y2.747 I0.026 J-0.097
X6.132 Y2.941 I-0.026 J0.097
G1 X6.097 Y2.923 Z-9.014
X6.071 Y2.894 Z-9.029
X6.058 Y2.857 Z-9.043
X6.061 Y2.818 Z-9.057
X6.078 Y2.783 Z-9.071
X6.107 Y2.758 Z-9.086
X6.144 Y2.745 Z-9.1
X6.183 Y2.747 Z-9.114
X6.218 Y2.764 Z-9.129
X6.244 Y2.793 Z-9.143
X6.257 Y2.83 Z-9.157
X6.254 Y2.869 Z-9.171
X6.237 Y2.904 Z-9.186
X6.208 Y2.93 Z-9.2
X6.171 Y2.943 Z-9.214
X6.132 Y2.941 Z-9.229
X6.097 Y2.924 Z-9.243
X6.071 Y2.895 Z-9.257
X6.059 Y2.858 Z-9.271
X6.061 Y2.819 Z-9.286
X6.078 Y2.784 Z-9.3
X6.107 Y2.758 Z-9.314
X6.144 Y2.745 Z-9.329
X6.183 Y2.747 Z-9.343
X6.218 Y2.764 Z-9.357
X6.244 Y2.793 Z-9.371
X6.257 Y2.83 Z-9.386
X6.254 Y2.869 Z-9.4
X6.237 Y2.904 Z-9.414
X6.208 Y2.93 Z-9.429
X6.172 Y2.943 Z-9.443
X6.133 Y2.941 Z-9.457
X6.098 Y2.924 Z-9.471
X6.072 Y2.895 Z-9.486
X6.059 Y2.858 Z-9.5
G3 X6.257 Y2.83 I0.099 J-0.014
X6.059 Y2.858 I-0.099 J0.014
G1 X6.061 Y2.819 Z-9.514
X6.078 Y2.784 Z-9.529
X6.107 Y2.758 Z-9.543
X6.143 Y2.745 Z-9.557
X6.182 Y2.747 Z-9.571
X6.218 Y2.764 Z-9.586
X6.244 Y2.793 Z-9.6
X6.257 Y2.83 Z-9.614
X6.254 Y2.869 Z-9.629
X6.238 Y2.904 Z-9.643
X6.209 Y2.93 Z-9.657
X6.172 Y2.943 Z-9.671
X6.133 Y2.941 Z-9.686
X6.098 Y2.924 Z-9.7
X6.072 Y2.895 Z-9.714
X6.059 Y2.858 Z-9.729
X6.061 Y2.819 Z-9.743
X6.077 Y2.784 Z-9.757
X6.106 Y2.758 Z-9.771
X6.143 Y2.745 Z-9.786
X6.182 Y2.747 Z-9.8
X6.217 Y2.764 Z-9.814
X6.243 Y2.793 Z-9.829
X6.257 Y2.829 Z-9.843
X6.255 Y2.868 Z-9.857
X6.238 Y2.904 Z-9.871
X6.209 Y2.93 Z-9.886
X6.172 Y2.943 Z-9.9
X6.133 Y2.941 Z-9.914
X6.098 Y2.924 Z-9.929
X6.072 Y2.895 Z-9.943
X6.059 Y2.859 Z-9.957
X6.061 Y2.82 Z-9.971
X6.077 Y2.784 Z-9.986
X6.106 Y2.758 Z-10
G3 X6.209 Y2.93 I0.052 J0.086
X6.106 Y2.758 I-0.052 J-0.086
G0 Z6
X3.689 Y2.844
Z4
G1 Z2.8 F500
Z0.5
X3.683 Y2.869
X3.664 Y2.887
X3.639 Y2.894
X3.614 Y2.887
X3.596 Y2.869
X3.589 Y2.844
X3.596 Y2.819
X3.614 Y2.801
X3.639 Y2.794
X3.664 Y2.801
X3.683 Y2.819
X3.689 Y2.844
X3.682 Y2.87 Z0.49
X3.661 Y2.889 Z0.48
X3.634 Y2.894 Z0.469
X3.608 Y2.883 Z0.459
X3.592 Y2.86 Z0.449
X3.591 Y2.833 Z0.439
X3.604 Y2.809 Z0.429
X3.628 Y2.795 Z0.418
X3.656 Y2.797 Z0.408
X3.678 Y2.813 Z0.398
X3.689 Y2.838 Z0.388
X3.684 Y2.865 Z0.378
X3.666 Y2.886 Z0.367
X3.64 Y2.894 Z0.357
X3.613 Y2.886 Z0.347
X3.594 Y2.866 Z0.337
X3.59 Y2.839 Z0.327
X3.6 Y2.813 Z0.316
X3.623 Y2.797 Z0.306
X3.65 Y2.795 Z0.296
X3.674 Y2.808 Z0.286
X3.688 Y2.832 Z0.276
X3.687 Y2.86 Z0.265
X3.671 Y2.883 Z0.255
X3.645 Y2.894 Z0.245
X3.618 Y2.889 Z0.235
X3.597 Y2.871 Z0.224
X3.589 Y2.844 Z0.214
X3.597 Y2.818 Z0.204
X3.617 Y2.799 Z0.194
X3.644 Y2.794 Z0.184
X3.67 Y2.805 Z0.173
X3.686 Y2.827 Z0.163
X3.688 Y2.855 Z0.153
X3.675 Y2.879 Z0.143
X3.651 Y2.893 Z0.133
X3.623 Y2.891 Z0.122
X3.601 Y2.876 Z0.112
X3.59 Y2.85 Z0.102
X3.594 Y2.823 Z0.092
X3.612 Y2.802 Z0.082
X3.639 Y2.794 Z0.071
X3.665 Y2.801 Z0.061
X3.684 Y2.822 Z0.051
X3.689 Y2.849 Z0.041
X3.679 Y2.875 Z0.031
X3.656 Y2.891 Z0.02
X3.629 Y2.893 Z0.01
X3.604 Y2.88 Z0
G3 X3.674 Y2.808 I0.035 J-0.036
X3.604 Y2.88 I-0.035 J0.036
G1 X3.591 Y2.856 Z-0.01
X3.592 Y2.828 Z-0.02
X3.608 Y2.805 Z-0.031
X3.633 Y2.794 Z-0.041
X3.66 Y2.799 Z-0.051
X3.681 Y2.817 Z-0.061
X3.689 Y2.843 Z-0.071
X3.682 Y2.87 Z-0.082
X3.662 Y2.889 Z-0.092
X3.635 Y2.894 Z-0.102
X3.609 Y2.884 Z-0.112
X3.592 Y2.861 Z-0.122
X3.59 Y2.834 Z-0.133
X3.603 Y2.809 Z-0.143
X3.627 Y2.795 Z-0.153
X3.655 Y2.796 Z-0.163
X3.678 Y2.812 Z-0.173
X3.689 Y2.837 Z-0.184
X3.685 Y2.865 Z-0.194
X3.667 Y2.886 Z-0.204
X3.64 Y2.894 Z-0.214
X3.614 Y2.887 Z-0.224
X3.595 Y2.867 Z-0.235
X3.59 Y2.839 Z-0.245
X3.6 Y2.814 Z-0.255
X3.622 Y2.797 Z-0.265
X3.649 Y2.795 Z-0.276
X3.674 Y2.808 Z-0.286
X3.688 Y2.832 Z-0.296
X3.687 Y2.859 Z-0.306
X3.671 Y2.882 Z-0.316
X3.646 Y2.893 Z-0.327
X3.619 Y2.889 Z-0.337
X3.598 Y2.872 Z-0.347
X3.589 Y2.845 Z-0.357
X3.596 Y2.818 Z-0.367
X3.617 Y2.799 Z-0.378
X3.644 Y2.794 Z-0.388
X3.669 Y2.804 Z-0.398
X3.686 Y2.826 Z-0.408
X3.688 Y2.854 Z-0.418
X3.676 Y2.878 Z-0.429
X3.652 Y2.892 Z-0.439
X3.624 Z-0.449
X3.601 Y2.876 Z-0.459
X3.59 Y2.851 Z-0.469
X3.594 Y2.823 Z-0.48
X3.612 Y2.802 Z-0.49
X3.638 Y2.794 Z-0.5
G3 X3.641 Y2.894 I0.001 J0.05
X3.638 Y2.794 I-0.001 J-0.05
G1 X3.665 Y2.801 Z-0.51
X3.684 Y2.821 Z-0.52
X3.689 Y2.848 Z-0.531
X3.679 Y2.874 Z-0.541
X3.657 Y2.891 Z-0.551
X3.63 Y2.893 Z-0.561
X3.605 Y2.88 Z-0.571
X3.591 Y2.857 Z-0.582
X3.592 Y2.829 Z-0.592
X3.607 Y2.806 Z-0.602
X3.632 Y2.794 Z-0.612
X3.66 Y2.798 Z-0.622
X3.681 Y2.816 Z-0.633
X3.689 Y2.842 Z-0.643
X3.682 Y2.869 Z-0.653
X3.662 Y2.888 Z-0.663
X3.635 Y2.894 Z-0.673
X3.609 Y2.884 Z-0.684
X3.593 Y2.862 Z-0.694
X3.59 Y2.834 Z-0.704
X3.603 Y2.81 Z-0.714
X3.627 Y2.796 Z-0.724
X3.654 Z-0.735
X3.677 Y2.811 Z-0.745
X3.689 Y2.837 Z-0.755
X3.685 Y2.864 Z-0.765
X3.667 Y2.885 Z-0.776
X3.641 Y2.894 Z-0.786
X3.614 Y2.887 Z-0.796
X3.595 Y2.867 Z-0.806
X3.589 Y2.84 Z-0.816
X3.599 Y2.814 Z-0.827
X3.621 Y2.797 Z-0.837
X3.649 Y2.795 Z-0.847
X3.673 Y2.807 Z-0.857
X3.688 Y2.831 Z-0.867
X3.687 Y2.859 Z-0.878
X3.672 Y2.882 Z-0.888
X3.647 Y2.893 Z-0.898
X3.619 Y2.89 Z-0.908
X3.598 Y2.872 Z-0.918
X3.589 Y2.846 Z-0.929
X3.596 Y2.819 Z-0.939
X3.616 Y2.8 Z-0.949
X3.643 Y2.794 Z-0.959
X3.669 Y2.804 Z-0.969
X3.686 Y2.825 Z-0.98
X3.688 Y2.853 Z-0.99
X3.676 Y2.878 Z-1
G3 X3.602 Y2.81 I-0.037 J-0.034
X3.676 Y2.878 I0.037 J0.034
G1 X3.653 Y2.892 Z-1.01
X3.625 Z-1.02
X3.602 Y2.877 Z-1.031
X3.59 Y2.852 Z-1.041
X3.593 Y2.824 Z-1.051
X3.611 Y2.803 Z-1.061
X3.637 Y2.794 Z-1.071
X3.664 Y2.8 Z-1.082
X3.683 Y2.82 Z-1.092
X3.689 Y2.847 Z-1.102
X3.68 Y2.873 Z-1.112
X3.658 Y2.89 Z-1.122
X3.63 Y2.893 Z-1.133
X3.606 Y2.881 Z-1.143
X3.591 Y2.857 Z-1.153
Y2.83 Z-1.163
X3.606 Y2.806 Z-1.173
X3.631 Y2.795 Z-1.184
X3.659 Y2.798 Z-1.194
X3.68 Y2.815 Z-1.204
X3.689 Y2.841 Z-1.214
X3.683 Y2.868 Z-1.224
X3.663 Y2.888 Z-1.235
X3.636 Y2.894 Z-1.245
X3.61 Y2.884 Z-1.255
X3.593 Y2.863 Z-1.265
X3.59 Y2.835 Z-1.276
X3.602 Y2.81 Z-1.286
X3.626 Y2.796 Z-1.296
X3.653 Z-1.306
X3.677 Y2.811 Z-1.316
X3.689 Y2.836 Z-1.327
X3.685 Y2.863 Z-1.337
X3.668 Y2.885 Z-1.347
X3.642 Y2.894 Z-1.357
X3.615 Y2.888 Z-1.367
X3.595 Y2.868 Z-1.378
X3.589 Y2.841 Z-1.388
X3.599 Y2.815 Z-1.398
X3.62 Y2.798 Z-1.408
X3.648 Y2.795 Z-1.418
X3.673 Y2.807 Z-1.429
X3.687 Y2.83 Z-1.439
Y2.858 Z-1.449
X3.673 Y2.881 Z-1.459
X3.648 Y2.893 Z-1.469
X3.62 Y2.89 Z-1.48
X3.599 Y2.873 Z-1.49
X3.589 Y2.847 Z-1.5
G3 X3.689 Y2.841 I0.05 J-0.003
X3.589 Y2.847 I-0.05 J0.003
G1 X3.596 Y2.82 Z-1.51
X3.615 Y2.8 Z-1.52
X3.642 Y2.794 Z-1.531
X3.668 Y2.803 Z-1.541
X3.685 Y2.825 Z-1.551
X3.689 Y2.852 Z-1.561
X3.677 Y2.877 Z-1.571
X3.653 Y2.892 Z-1.582
X3.626 Z-1.592
X3.602 Y2.877 Z-1.602
X3.59 Y2.852 Z-1.612
X3.593 Y2.825 Z-1.622
X3.61 Y2.803 Z-1.633
X3.636 Y2.794 Z-1.643
X3.663 Y2.8 Z-1.653
X3.683 Y2.819 Z-1.663
X3.689 Y2.846 Z-1.673
X3.68 Y2.873 Z-1.684
X3.659 Y2.89 Z-1.694
X3.631 Y2.893 Z-1.704
X3.606 Y2.881 Z-1.714
X3.591 Y2.858 Z-1.724
Y2.83 Z-1.735
X3.606 Y2.807 Z-1.745
X3.631 Y2.795 Z-1.755
X3.658 Y2.798 Z-1.765
X3.68 Y2.815 Z-1.776
X3.689 Y2.841 Z-1.786
X3.683 Y2.868 Z-1.796
X3.664 Y2.887 Z-1.806
X3.637 Y2.894 Z-1.816
X3.611 Y2.885 Z-1.827
X3.593 Y2.863 Z-1.837
X3.59 Y2.836 Z-1.847
X3.602 Y2.811 Z-1.857
X3.625 Y2.796 Z-1.867
X3.653 Z-1.878
X3.676 Y2.81 Z-1.888
X3.689 Y2.835 Z-1.898
X3.686 Y2.862 Z-1.908
X3.669 Y2.884 Z-1.918
X3.643 Y2.894 Z-1.929
X3.616 Y2.888 Z-1.939
X3.596 Y2.869 Z-1.949
X3.589 Y2.842 Z-1.959
X3.598 Y2.816 Z-1.969
X3.62 Y2.798 Z-1.98
X3.647 Y2.794 Z-1.99
X3.672 Y2.806 Z-2
G3 X3.607 Y2.882 I-0.033 J0.038
X3.672 Y2.806 I0.033 J-0.038
G1 X3.687 Y2.829 Z-2.01
X3.688 Y2.857 Z-2.02
X3.673 Y2.881 Z-2.031
X3.648 Y2.893 Z-2.041
X3.621 Y2.89 Z-2.051
X3.599 Y2.874 Z-2.061
X3.589 Y2.848 Z-2.071
X3.595 Y2.82 Z-2.082
X3.614 Y2.801 Z-2.092
X3.641 Y2.794 Z-2.102
X3.668 Y2.803 Z-2.112
X3.685 Y2.824 Z-2.122
X3.689 Y2.851 Z-2.133
X3.677 Y2.877 Z-2.143
X3.654 Y2.892 Z-2.153
X3.626 Z-2.163
X3.603 Y2.878 Z-2.173
X3.59 Y2.853 Z-2.184
X3.593 Y2.826 Z-2.194
X3.61 Y2.804 Z-2.204
X3.635 Y2.794 Z-2.214
X3.663 Y2.8 Z-2.224
X3.683 Y2.819 Z-2.235
X3.689 Y2.846 Z-2.245
X3.681 Y2.872 Z-2.255
X3.659 Y2.89 Z-2.265
X3.632 Y2.893 Z-2.276
X3.607 Y2.882 Z-2.286
X3.592 Y2.859 Z-2.296
X3.591 Y2.831 Z-2.306
X3.605 Y2.807 Z-2.316
X3.63 Y2.795 Z-2.327
X3.657 Y2.797 Z-2.337
X3.679 Y2.814 Z-2.347
X3.689 Y2.84 Z-2.357
X3.684 Y2.867 Z-2.367
X3.665 Y2.887 Z-2.378
X3.638 Y2.894 Z-2.388
X3.611 Y2.885 Z-2.398
X3.594 Y2.864 Z-2.408
X3.59 Y2.837 Z-2.418
X3.601 Y2.812 Z-2.429
X3.624 Y2.796 Z-2.439
X3.652 Y2.795 Z-2.449
X3.676 Y2.81 Z-2.459
X3.688 Y2.834 Z-2.469
X3.686 Y2.862 Z-2.48
X3.669 Y2.884 Z-2.49
X3.644 Y2.894 Z-2.5
G3 X3.635 Y2.794 I-0.004 J-0.05
X3.644 Y2.894 I0.004 J0.05
G1 X3.616 Y2.888 Z-2.51
X3.596 Y2.869 Z-2.52
X3.589 Y2.843 Z-2.531
X3.598 Y2.816 Z-2.541
X3.619 Y2.798 Z-2.551
X3.646 Y2.794 Z-2.561
X3.671 Y2.806 Z-2.571
X3.687 Y2.829 Z-2.582
X3.688 Y2.856 Z-2.592
X3.674 Y2.88 Z-2.602
X3.649 Y2.893 Z-2.612
X3.622 Y2.891 Z-2.622
X3.599 Y2.874 Z-2.633
X3.59 Y2.848 Z-2.643
X3.595 Y2.821 Z-2.653
X3.614 Y2.801 Z-2.663
X3.64 Y2.794 Z-2.673
X3.667 Y2.802 Z-2.684
X3.685 Y2.823 Z-2.694
X3.689 Y2.851 Z-2.704
X3.678 Y2.876 Z-2.714
X3.655 Y2.891 Z-2.724
X3.627 Y2.892 Z-2.735
X3.603 Y2.879 Z-2.745
X3.59 Y2.854 Z-2.755
X3.592 Y2.826 Z-2.765
X3.609 Y2.804 Z-2.776
X3.635 Y2.794 Z-2.786
X3.662 Y2.799 Z-2.796
X3.682 Y2.818 Z-2.806
X3.689 Y2.845 Z-2.816
X3.681 Y2.871 Z-2.827
X3.66 Y2.889 Z-2.837
X3.633 Y2.893 Z-2.847
X3.607 Y2.882 Z-2.857
X3.592 Y2.86 Z-2.867
X3.591 Y2.832 Z-2.878
X3.605 Y2.808 Z-2.888
X3.629 Y2.795 Z-2.898
X3.657 Y2.797 Z-2.908
X3.679 Y2.813 Z-2.918
X3.689 Y2.839 Z-2.929
X3.684 Y2.866 Z-2.939
X3.665 Y2.887 Z-2.949
X3.639 Y2.894 Z-2.959
X3.612 Y2.886 Z-2.969
X3.594 Y2.865 Z-2.98
X3.59 Y2.838 Z-2.99
X3.601 Y2.812 Z-3
G3 X3.678 Y2.876 I0.039 J0.032
X3.601 Y2.812 I-0.039 J-0.032
G1 X3.623 Y2.796 Z-3.01
X3.651 Y2.795 Z-3.02
X3.675 Y2.809 Z-3.031
X3.688 Y2.833 Z-3.041
X3.686 Y2.861 Z-3.051
X3.67 Y2.883 Z-3.061
X3.644 Y2.894 Z-3.071
X3.617 Y2.889 Z-3.082
X3.597 Y2.87 Z-3.092
X3.589 Y2.843 Z-3.102
X3.597 Y2.817 Z-3.112
X3.618 Y2.799 Z-3.122
X3.645 Y2.794 Z-3.133
X3.671 Y2.805 Z-3.143
X3.687 Y2.828 Z-3.153
X3.688 Y2.855 Z-3.163
X3.674 Y2.88 Z-3.173
X3.65 Y2.893 Z-3.184
X3.622 Y2.891 Z-3.194
X3.6 Y2.875 Z-3.204
X3.59 Y2.849 Z-3.214
X3.594 Y2.822 Z-3.224
X3.613 Y2.801 Z-3.235
X3.64 Y2.794 Z-3.245
X3.666 Y2.802 Z-3.255
X3.684 Y2.822 Z-3.265
X3.689 Y2.85 Z-3.276
X3.678 Y2.875 Z-3.286
X3.656 Y2.891 Z-3.296
X3.628 Y2.893 Z-3.306
X3.604 Y2.879 Z-3.316
X3.591 Y2.855 Z-3.327
X3.592 Y2.827 Z-3.337
X3.608 Y2.805 Z-3.347
X3.634 Y2.794 Z-3.357
X3.661 Y2.799 Z-3.367
X3.682 Y2.817 Z-3.378
X3.689 Y2.844 Z-3.388
X3.682 Y2.871 Z-3.398
X3.661 Y2.889 Z-3.408
X3.634 Y2.894 Z-3.418
X3.608 Y2.883 Z-3.429
X3.592 Y2.86 Z-3.439
X3.591 Y2.833 Z-3.449
X3.604 Y2.809 Z-3.459
X3.628 Y2.795 Z-3.469
X3.656 Y2.797 Z-3.48
X3.678 Y2.813 Z-3.49
X3.689 Y2.838 Z-3.5
G3 X3.59 Y2.85 I-0.05 J0.006
X3.689 Y2.838 I0.05 J-0.006
G1 X3.684 Y2.866 Z-3.51
X3.666 Y2.886 Z-3.52
X3.639 Y2.894 Z-3.531
X3.613 Y2.886 Z-3.541
X3.594 Y2.866 Z-3.551
X3.59 Y2.838 Z-3.561
X3.6 Y2.813 Z-3.571
X3.623 Y2.797 Z-3.582
X3.65 Y2.795 Z-3.592
X3.675 Y2.808 Z-3.602
X3.688 Y2.833 Z-3.612
X3.687 Y2.86 Z-3.622
X3.671 Y2.883 Z-3.633
X3.645 Y2.894 Z-3.643
X3.618 Y2.889 Z-3.653
X3.597 Y2.871 Z-3.663
X3.589 Y2.844 Z-3.673
X3.597 Y2.818 Z-3.684
X3.617 Y2.799 Z-3.694
X3.645 Y2.794 Z-3.704
X3.67 Y2.805 Z-3.714
X3.686 Y2.827 Z-3.724
X3.688 Y2.855 Z-3.735
X3.675 Y2.879 Z-3.745
X3.651 Y2.893 Z-3.755
X3.623 Y2.891 Z-3.765
X3.6 Y2.875 Z-3.776
X3.59 Y2.85 Z-3.786
X3.594 Y2.823 Z-3.796
X3.612 Y2.802 Z-3.806
X3.639 Y2.794 Z-3.816
X3.665 Y2.801 Z-3.827
X3.684 Y2.822 Z-3.837
X3.689 Y2.849 Z-3.847
X3.679 Y2.875 Z-3.857
X3.656 Y2.891 Z-3.867
X3.629 Y2.893 Z-3.878
X3.604 Y2.88 Z-3.888
X3.591 Y2.856 Z-3.898
X3.592 Y2.828 Z-3.908
X3.608 Y2.805 Z-3.918
X3.633 Y2.794 Z-3.929
X3.66 Y2.799 Z-3.939
X3.681 Y2.817 Z-3.949
X3.689 Y2.843 Z-3.959
X3.682 Y2.87 Z-3.969
X3.662 Y2.889 Z-3.98
X3.634 Y2.894 Z-3.99
X3.609 Y2.883 Z-4
G3 X3.67 Y2.804 I0.031 J-0.04
X3.609 Y2.883 I-0.031 J0.04
G1 X3.592 Y2.861 Z-4.01
X3.59 Y2.834 Z-4.02
X3.603 Y2.809 Z-4.031
X3.627 Y2.795 Z-4.041
X3.655 Y2.796 Z-4.051
X3.678 Y2.812 Z-4.061
X3.689 Y2.837 Z-4.071
X3.685 Y2.865 Z-4.082
X3.667 Y2.886 Z-4.092
X3.64 Y2.894 Z-4.102
X3.613 Y2.887 Z-4.112
X3.595 Y2.866 Z-4.122
X3.59 Y2.839 Z-4.133
X3.6 Y2.813 Z-4.143
X3.622 Y2.797 Z-4.153
X3.649 Y2.795 Z-4.163
X3.674 Y2.808 Z-4.173
X3.688 Y2.832 Z-4.184
X3.687 Y2.859 Z-4.194
X3.671 Y2.882 Z-4.204
X3.646 Y2.893 Z-4.214
X3.619 Y2.889 Z-4.224
X3.598 Y2.871 Z-4.235
X3.589 Y2.845 Z-4.245
X3.596 Y2.818 Z-4.255
X3.617 Y2.799 Z-4.265
X3.644 Y2.794 Z-4.276
X3.67 Y2.804 Z-4.286
X3.686 Y2.826 Z-4.296
X3.688 Y2.854 Z-4.306
X3.676 Y2.878 Z-4.316
X3.652 Y2.892 Z-4.327
X3.624 Y2.891 Z-4.337
X3.601 Y2.876 Z-4.347
X3.59 Y2.851 Z-4.357
X3.594 Y2.823 Z-4.367
X3.612 Y2.802 Z-4.378
X3.638 Y2.794 Z-4.388
X3.665 Y2.801 Z-4.398
X3.684 Y2.821 Z-4.408
X3.689 Y2.848 Z-4.418
X3.679 Y2.874 Z-4.429
X3.657 Y2.891 Z-4.439
X3.63 Y2.893 Z-4.449
X3.605 Y2.88 Z-4.459
X3.591 Y2.856 Z-4.469
X3.592 Y2.829 Z-4.48
X3.607 Y2.806 Z-4.49
X3.632 Y2.794 Z-4.5
G3 X3.646 Y2.893 I0.007 J0.049
X3.632 Y2.794 I-0.007 J-0.049
G1 X3.66 Y2.798 Z-4.51
X3.681 Y2.816 Z-4.52
X3.689 Y2.842 Z-4.531
X3.682 Y2.869 Z-4.541
X3.662 Y2.888 Z-4.551
X3.635 Y2.894 Z-4.561
X3.609 Y2.884 Z-4.571
X3.593 Y2.862 Z-4.582
X3.59 Y2.834 Z-4.592
X3.603 Y2.81 Z-4.602
X3.627 Y2.796 Z-4.612
X3.654 Z-4.622
X3.677 Y2.811 Z-4.633
X3.689 Y2.837 Z-4.643
X3.685 Y2.864 Z-4.653
X3.667 Y2.885 Z-4.663
X3.641 Y2.894 Z-4.673
X3.614 Y2.887 Z-4.684
X3.595 Y2.867 Z-4.694
X3.589 Y2.84 Z-4.704
X3.599 Y2.814 Z-4.714
X3.621 Y2.797 Z-4.724
X3.649 Y2.795 Z-4.735
X3.673 Y2.807 Z-4.745
X3.688 Y2.831 Z-4.755
X3.687 Y2.859 Z-4.765
X3.672 Y2.882 Z-4.776
X3.647 Y2.893 Z-4.786
X3.619 Y2.89 Z-4.796
X3.598 Y2.872 Z-4.806
X3.589 Y2.846 Z-4.816
X3.596 Y2.819 Z-4.827
X3.616 Y2.8 Z-4.837
X3.643 Y2.794 Z-4.847
X3.669 Y2.804 Z-4.857
X3.686 Y2.826 Z-4.867
X3.688 Y2.853 Z-4.878
X3.676 Y2.878 Z-4.888
X3.652 Y2.892 Z-4.898
X3.625 Z-4.908
X3.602 Y2.877 Z-4.918
X3.59 Y2.852 Z-4.929
X3.593 Y2.824 Z-4.939
X3.611 Y2.803 Z-4.949
X3.637 Y2.794 Z-4.959
X3.664 Y2.8 Z-4.969
X3.683 Y2.82 Z-4.98
X3.689 Y2.847 Z-4.99
X3.68 Y2.873 Z-5
G3 X3.599 Y2.814 I-0.04 J-0.029
X3.68 Y2.873 I0.04 J0.029
G1 X3.658 Y2.89 Z-5.01
X3.63 Y2.893 Z-5.02
X3.606 Y2.881 Z-5.031
X3.591 Y2.857 Z-5.041
Y2.83 Z-5.051
X3.606 Y2.806 Z-5.061
X3.631 Y2.795 Z-5.071
X3.659 Y2.798 Z-5.082
X3.68 Y2.815 Z-5.092
X3.689 Y2.842 Z-5.102
X3.683 Y2.868 Z-5.112
X3.663 Y2.888 Z-5.122
X3.636 Y2.894 Z-5.133
X3.61 Y2.884 Z-5.143
X3.593 Y2.863 Z-5.153
X3.59 Y2.835 Z-5.163
X3.602 Y2.81 Z-5.173
X3.626 Y2.796 Z-5.184
X3.653 Z-5.194
X3.677 Y2.811 Z-5.204
X3.689 Y2.836 Z-5.214
X3.685 Y2.863 Z-5.224
X3.668 Y2.885 Z-5.235
X3.642 Y2.894 Z-5.245
X3.615 Y2.888 Z-5.255
X3.595 Y2.868 Z-5.265
X3.589 Y2.841 Z-5.276
X3.599 Y2.815 Z-5.286
X3.62 Y2.798 Z-5.296
X3.648 Y2.795 Z-5.306
X3.673 Y2.807 Z-5.316
X3.687 Y2.83 Z-5.327
Y2.858 Z-5.337
X3.673 Y2.881 Z-5.347
X3.648 Y2.893 Z-5.357
X3.62 Y2.89 Z-5.367
X3.598 Y2.873 Z-5.378
X3.589 Y2.847 Z-5.388
X3.596 Y2.82 Z-5.398
X3.615 Y2.8 Z-5.408
X3.642 Y2.794 Z-5.418
X3.668 Y2.803 Z-5.429
X3.686 Y2.825 Z-5.439
X3.689 Y2.852 Z-5.449
X3.677 Y2.877 Z-5.459
X3.653 Y2.892 Z-5.469
X3.626 Z-5.48
X3.602 Y2.877 Z-5.49
X3.59 Y2.852 Z-5.5
G3 X3.689 Y2.835 I0.049 J-0.008
X3.59 Y2.852 I-0.049 J0.008
G1 X3.593 Y2.825 Z-5.51
X3.61 Y2.803 Z-5.52
X3.636 Y2.794 Z-5.531
X3.663 Y2.8 Z-5.541
X3.683 Y2.82 Z-5.551
X3.689 Y2.847 Z-5.561
X3.68 Y2.873 Z-5.571
X3.659 Y2.89 Z-5.582
X3.631 Y2.893 Z-5.592
X3.606 Y2.881 Z-5.602
X3.591 Y2.858 Z-5.612
Y2.83 Z-5.622
X3.606 Y2.807 Z-5.633
X3.631 Y2.795 Z-5.643
X3.658 Y2.798 Z-5.653
X3.68 Y2.815 Z-5.663
X3.689 Y2.841 Z-5.673
X3.683 Y2.868 Z-5.684
X3.664 Y2.887 Z-5.694
X3.637 Y2.894 Z-5.704
X3.611 Y2.885 Z-5.714
X3.593 Y2.863 Z-5.724
X3.59 Y2.836 Z-5.735
X3.602 Y2.811 Z-5.745
X3.625 Y2.796 Z-5.755
X3.653 Z-5.765
X3.676 Y2.81 Z-5.776
X3.689 Y2.835 Z-5.786
X3.686 Y2.863 Z-5.796
X3.669 Y2.884 Z-5.806
X3.643 Y2.894 Z-5.816
X3.616 Y2.888 Z-5.827
X3.596 Y2.869 Z-5.837
X3.589 Y2.842 Z-5.847
X3.598 Y2.815 Z-5.857
X3.62 Y2.798 Z-5.867
X3.647 Y2.795 Z-5.878
X3.672 Y2.806 Z-5.888
X3.687 Y2.829 Z-5.898
X3.688 Y2.857 Z-5.908
X3.673 Y2.881 Z-5.918
X3.648 Y2.893 Z-5.929
X3.621 Y2.89 Z-5.939
X3.599 Y2.873 Z-5.949
X3.589 Y2.847 Z-5.959
X3.595 Y2.82 Z-5.969
X3.614 Y2.801 Z-5.98
X3.641 Y2.794 Z-5.99
X3.668 Y2.803 Z-6
G3 X3.611 Y2.885 I-0.028 J0.041
X3.668 Y2.803 I0.028 J-0.041
G1 X3.685 Y2.824 Z-6.01
X3.689 Y2.851 Z-6.02
X3.677 Y2.877 Z-6.031
X3.654 Y2.892 Z-6.041
X3.626 Z-6.051
X3.603 Y2.878 Z-6.061
X3.59 Y2.853 Z-6.071
X3.593 Y2.826 Z-6.082
X3.61 Y2.804 Z-6.092
X3.636 Y2.794 Z-6.102
X3.663 Y2.8 Z-6.112
X3.683 Y2.819 Z-6.122
X3.689 Y2.846 Z-6.133
X3.681 Y2.872 Z-6.143
X3.659 Y2.89 Z-6.153
X3.632 Y2.893 Z-6.163
X3.607 Y2.882 Z-6.173
X3.592 Y2.859 Z-6.184
X3.591 Y2.831 Z-6.194
X3.605 Y2.807 Z-6.204
X3.63 Y2.795 Z-6.214
X3.657 Y2.797 Z-6.224
X3.679 Y2.814 Z-6.235
X3.689 Y2.84 Z-6.245
X3.684 Y2.867 Z-6.255
X3.665 Y2.887 Z-6.265
X3.638 Y2.894 Z-6.276
X3.611 Y2.885 Z-6.286
X3.594 Y2.864 Z-6.296
X3.59 Y2.837 Z-6.306
X3.601 Y2.812 Z-6.316
X3.624 Y2.796 Z-6.327
X3.652 Z-6.337
X3.676 Y2.81 Z-6.347
X3.688 Y2.834 Z-6.357
X3.686 Y2.862 Z-6.367
X3.669 Y2.884 Z-6.378
X3.643 Y2.894 Z-6.388
X3.616 Y2.888 Z-6.398
X3.596 Y2.869 Z-6.408
X3.589 Y2.842 Z-6.418
X3.598 Y2.816 Z-6.429
X3.619 Y2.798 Z-6.439
X3.646 Y2.794 Z-6.449
X3.672 Y2.806 Z-6.459
X3.687 Y2.829 Z-6.469
X3.688 Y2.856 Z-6.48
X3.674 Y2.88 Z-6.49
X3.649 Y2.893 Z-6.5
G3 X3.629 Y2.795 I-0.01 J-0.049
X3.649 Y2.893 I0.01 J0.049
G1 X3.622 Y2.891 Z-6.51
X3.599 Y2.874 Z-6.52
X3.589 Y2.848 Z-6.531
X3.595 Y2.821 Z-6.541
X3.614 Y2.801 Z-6.551
X3.641 Y2.794 Z-6.561
X3.667 Y2.802 Z-6.571
X3.685 Y2.823 Z-6.582
X3.689 Y2.851 Z-6.592
X3.678 Y2.876 Z-6.602
X3.655 Y2.891 Z-6.612
X3.627 Y2.892 Z-6.622
X3.603 Y2.878 Z-6.633
X3.59 Y2.854 Z-6.643
X3.592 Y2.826 Z-6.653
X3.609 Y2.804 Z-6.663
X3.635 Y2.794 Z-6.673
X3.662 Y2.799 Z-6.684
X3.682 Y2.818 Z-6.694
X3.689 Y2.845 Z-6.704
X3.681 Y2.871 Z-6.714
X3.66 Y2.889 Z-6.724
X3.633 Y2.893 Z-6.735
X3.607 Y2.882 Z-6.745
X3.592 Y2.86 Z-6.755
X3.591 Y2.832 Z-6.765
X3.605 Y2.808 Z-6.776
X3.629 Y2.795 Z-6.786
X3.657 Y2.797 Z-6.796
X3.679 Y2.813 Z-6.806
X3.689 Y2.839 Z-6.816
X3.684 Y2.866 Z-6.827
X3.665 Y2.887 Z-6.837
X3.638 Y2.894 Z-6.847
X3.612 Y2.886 Z-6.857
X3.594 Y2.865 Z-6.867
X3.59 Y2.838 Z-6.878
X3.601 Y2.812 Z-6.888
X3.623 Y2.796 Z-6.898
X3.651 Y2.795 Z-6.908
X3.675 Y2.809 Z-6.918
X3.688 Y2.833 Z-6.929
X3.686 Y2.861 Z-6.939
X3.67 Y2.883 Z-6.949
X3.644 Y2.894 Z-6.959
X3.617 Y2.889 Z-6.969
X3.597 Y2.87 Z-6.98
X3.589 Y2.843 Z-6.99
X3.597 Y2.817 Z-7
G3 X3.681 Y2.871 I0.042 J0.027
X3.597 Y2.817 I-0.042 J-0.027
G1 X3.618 Y2.799 Z-7.01
X3.645 Y2.794 Z-7.02
X3.671 Y2.805 Z-7.031
X3.687 Y2.828 Z-7.041
X3.688 Y2.856 Z-7.051
X3.674 Y2.88 Z-7.061
X3.65 Y2.893 Z-7.071
X3.622 Y2.891 Z-7.082
X3.6 Y2.875 Z-7.092
X3.59 Y2.849 Z-7.102
X3.594 Y2.822 Z-7.112
X3.613 Y2.801 Z-7.122
X3.64 Y2.794 Z-7.133
X3.666 Y2.802 Z-7.143
X3.685 Y2.823 Z-7.153
X3.689 Y2.85 Z-7.163
X3.678 Y2.875 Z-7.173
X3.656 Y2.891 Z-7.184
X3.628 Y2.893 Z-7.194
X3.604 Y2.879 Z-7.204
X3.59 Y2.855 Z-7.214
X3.592 Y2.827 Z-7.224
X3.608 Y2.805 Z-7.235
X3.634 Y2.794 Z-7.245
X3.661 Y2.799 Z-7.255
X3.682 Y2.817 Z-7.265
X3.689 Y2.844 Z-7.276
X3.682 Y2.871 Z-7.286
X3.661 Y2.889 Z-7.296
X3.634 Y2.894 Z-7.306
X3.608 Y2.883 Z-7.316
X3.592 Y2.86 Z-7.327
X3.591 Y2.833 Z-7.337
X3.604 Y2.808 Z-7.347
X3.628 Y2.795 Z-7.357
X3.656 Y2.797 Z-7.367
X3.678 Y2.813 Z-7.378
X3.689 Y2.838 Z-7.388
X3.684 Y2.866 Z-7.398
X3.666 Y2.886 Z-7.408
X3.639 Y2.894 Z-7.418
X3.613 Y2.886 Z-7.429
X3.594 Y2.866 Z-7.439
X3.59 Y2.838 Z-7.449
X3.6 Y2.813 Z-7.459
X3.623 Y2.797 Z-7.469
X3.65 Y2.795 Z-7.48
X3.675 Y2.808 Z-7.49
X3.688 Y2.833 Z-7.5
G3 X3.591 Y2.855 I-0.049 J0.011
X3.688 Y2.833 I0.049 J-0.011
G1 X3.687 Y2.86 Z-7.51
X3.671 Y2.883 Z-7.52
X3.645 Y2.894 Z-7.531
X3.618 Y2.889 Z-7.541
X3.597 Y2.871 Z-7.551
X3.589 Y2.844 Z-7.561
X3.597 Y2.817 Z-7.571
X3.617 Y2.799 Z-7.582
X3.645 Y2.794 Z-7.592
X3.67 Y2.805 Z-7.602
X3.686 Y2.827 Z-7.612
X3.688 Y2.855 Z-7.622
X3.675 Y2.879 Z-7.633
X3.651 Y2.893 Z-7.643
X3.623 Y2.891 Z-7.653
X3.6 Y2.875 Z-7.663
X3.59 Y2.85 Z-7.673
X3.594 Y2.823 Z-7.684
X3.612 Y2.802 Z-7.694
X3.639 Y2.794 Z-7.704
X3.666 Y2.801 Z-7.714
X3.684 Y2.822 Z-7.724
X3.689 Y2.849 Z-7.735
X3.679 Y2.875 Z-7.745
X3.656 Y2.891 Z-7.755
X3.629 Y2.893 Z-7.765
X3.604 Y2.88 Z-7.776
X3.591 Y2.856 Z-7.786
X3.592 Y2.828 Z-7.796
X3.608 Y2.805 Z-7.806
X3.633 Y2.794 Z-7.816
X3.66 Y2.799 Z-7.827
X3.681 Y2.817 Z-7.837
X3.689 Y2.843 Z-7.847
X3.682 Y2.87 Z-7.857
X3.662 Y2.889 Z-7.867
X3.634 Y2.894 Z-7.878
X3.609 Y2.883 Z-7.888
X3.592 Y2.861 Z-7.898
X3.59 Y2.833 Z-7.908
X3.603 Y2.809 Z-7.918
X3.627 Y2.795 Z-7.929
X3.655 Y2.796 Z-7.939
X3.678 Y2.812 Z-7.949
X3.689 Y2.838 Z-7.959
X3.685 Y2.865 Z-7.969
X3.667 Y2.886 Z-7.98
X3.64 Y2.894 Z-7.99
X3.613 Y2.887 Z-8
G3 X3.665 Y2.801 I0.026 J-0.043
X3.613 Y2.887 I-0.026 J0.043
G1 X3.595 Y2.866 Z-8.01
X3.59 Y2.839 Z-8.02
X3.6 Y2.813 Z-8.031
X3.622 Y2.797 Z-8.041
X3.65 Y2.795 Z-8.051
X3.674 Y2.808 Z-8.061
X3.688 Y2.832 Z-8.071
X3.687 Y2.86 Z-8.082
X3.671 Y2.882 Z-8.092
X3.646 Y2.893 Z-8.102
X3.618 Y2.889 Z-8.112
X3.598 Y2.871 Z-8.122
X3.589 Y2.845 Z-8.133
X3.596 Y2.818 Z-8.143
X3.617 Y2.799 Z-8.153
X3.644 Y2.794 Z-8.163
X3.67 Y2.804 Z-8.173
X3.686 Y2.826 Z-8.184
X3.688 Y2.854 Z-8.194
X3.675 Y2.878 Z-8.204
X3.652 Y2.892 Z-8.214
X3.624 Y2.891 Z-8.224
X3.601 Y2.876 Z-8.235
X3.59 Y2.851 Z-8.245
X3.594 Y2.823 Z-8.255
X3.612 Y2.802 Z-8.265
X3.638 Y2.794 Z-8.276
X3.665 Y2.801 Z-8.286
X3.684 Y2.821 Z-8.296
X3.689 Y2.848 Z-8.306
X3.679 Y2.874 Z-8.316
X3.657 Y2.891 Z-8.327
X3.629 Y2.893 Z-8.337
X3.605 Y2.88 Z-8.347
X3.591 Y2.856 Z-8.357
X3.592 Y2.829 Z-8.367
X3.607 Y2.806 Z-8.378
X3.632 Y2.794 Z-8.388
X3.66 Y2.798 Z-8.398
X3.681 Y2.816 Z-8.408
X3.689 Y2.842 Z-8.418
X3.682 Y2.869 Z-8.429
X3.662 Y2.888 Z-8.439
X3.635 Y2.894 Z-8.449
X3.609 Y2.884 Z-8.459
X3.593 Y2.862 Z-8.469
X3.59 Y2.834 Z-8.48
X3.603 Y2.81 Z-8.49
X3.627 Y2.796 Z-8.5
G3 X3.652 Y2.892 I0.013 J0.048
X3.627 Y2.796 I-0.013 J-0.048
G1 X3.654 Z-8.51
X3.677 Y2.812 Z-8.52
X3.689 Y2.837 Z-8.531
X3.685 Y2.864 Z-8.541
X3.667 Y2.885 Z-8.551
X3.641 Y2.894 Z-8.561
X3.614 Y2.887 Z-8.571
X3.595 Y2.867 Z-8.582
X3.589 Y2.84 Z-8.592
X3.599 Y2.814 Z-8.602
X3.621 Y2.797 Z-8.612
X3.649 Y2.795 Z-8.622
X3.673 Y2.807 Z-8.633
X3.688 Y2.831 Z-8.643
X3.687 Y2.859 Z-8.653
X3.672 Y2.882 Z-8.663
X3.647 Y2.893 Z-8.673
X3.619 Y2.89 Z-8.684
X3.598 Y2.872 Z-8.694
X3.589 Y2.846 Z-8.704
X3.596 Y2.819 Z-8.714
X3.616 Y2.8 Z-8.724
X3.643 Y2.794 Z-8.735
X3.669 Y2.804 Z-8.745
X3.686 Y2.826 Z-8.755
X3.688 Y2.853 Z-8.765
X3.676 Y2.878 Z-8.776
X3.652 Y2.892 Z-8.786
X3.625 Z-8.796
X3.601 Y2.877 Z-8.806
X3.59 Y2.851 Z-8.816
X3.593 Y2.824 Z-8.827
X3.611 Y2.803 Z-8.837
X3.637 Y2.794 Z-8.847
X3.664 Y2.801 Z-8.857
X3.683 Y2.82 Z-8.867
X3.689 Y2.847 Z-8.878
X3.68 Y2.873 Z-8.888
X3.658 Y2.89 Z-8.898
X3.63 Y2.893 Z-8.908
X3.605 Y2.881 Z-8.918
X3.591 Y2.857 Z-8.929
Y2.829 Z-8.939
X3.606 Y2.806 Z-8.949
X3.632 Y2.795 Z-8.959
X3.659 Y2.798 Z-8.969
X3.68 Y2.815 Z-8.98
X3.689 Y2.842 Z-8.99
X3.683 Y2.869 Z-9
G3 X3.596 Y2.819 I-0.043 J-0.025
X3.683 Y2.869 I0.043 J0.025
G1 X3.663 Y2.888 Z-9.01
X3.636 Y2.894 Z-9.02
X3.61 Y2.884 Z-9.031
X3.593 Y2.863 Z-9.041
X3.59 Y2.835 Z-9.051
X3.602 Y2.81 Z-9.061
X3.626 Y2.796 Z-9.071
X3.654 Z-9.082
X3.677 Y2.811 Z-9.092
X3.689 Y2.836 Z-9.102
X3.685 Y2.863 Z-9.112
X3.668 Y2.885 Z-9.122
X3.642 Y2.894 Z-9.133
X3.615 Y2.887 Z-9.143
X3.595 Y2.868 Z-9.153
X3.589 Y2.841 Z-9.163
X3.599 Y2.815 Z-9.173
X3.62 Y2.798 Z-9.184
X3.648 Y2.795 Z-9.194
X3.673 Y2.807 Z-9.204
X3.687 Y2.83 Z-9.214
Y2.858 Z-9.224
X3.672 Y2.881 Z-9.235
X3.647 Y2.893 Z-9.245
X3.62 Y2.89 Z-9.255
X3.598 Y2.873 Z-9.265
X3.589 Y2.847 Z-9.276
X3.596 Y2.82 Z-9.286
X3.615 Y2.8 Z-9.296
X3.642 Y2.794 Z-9.306
X3.668 Y2.803 Z-9.316
X3.686 Y2.825 Z-9.327
X3.689 Y2.852 Z-9.337
X3.677 Y2.877 Z-9.347
X3.653 Y2.892 Z-9.357
X3.625 Z-9.367
X3.602 Y2.877 Z-9.378
X3.59 Y2.852 Z-9.388
X3.593 Y2.825 Z-9.398
X3.61 Y2.803 Z-9.408
X3.636 Y2.794 Z-9.418
X3.663 Y2.8 Z-9.429
X3.683 Y2.82 Z-9.439
X3.689 Y2.847 Z-9.449
X3.68 Y2.873 Z-9.459
X3.659 Y2.89 Z-9.469
X3.631 Y2.893 Z-9.48
X3.606 Y2.881 Z-9.49
X3.591 Y2.858 Z-9.5
G3 X3.687 Y2.83 I0.048 J-0.014
X3.591 Y2.858 I-0.048 J0.014
G1 Y2.83 Z-9.51
X3.606 Y2.807 Z-9.52
X3.631 Y2.795 Z-9.531
X3.658 Y2.798 Z-9.541
X3.68 Y2.815 Z-9.551
X3.689 Y2.841 Z-9.561
X3.683 Y2.868 Z-9.571
X3.664 Y2.888 Z-9.582
X3.637 Y2.894 Z-9.592
X3.611 Y2.885 Z-9.602
X3.593 Y2.863 Z-9.612
X3.59 Y2.836 Z-9.622
X3.602 Y2.811 Z-9.633
X3.625 Y2.796 Z-9.643
X3.653 Z-9.653
X3.676 Y2.81 Z-9.663
X3.689 Y2.835 Z-9.673
X3.686 Y2.863 Z-9.684
X3.669 Y2.884 Z-9.694
X3.643 Y2.894 Z-9.704
X3.616 Y2.888 Z-9.714
X3.596 Y2.868 Z-9.724
X3.589 Y2.842 Z-9.735
X3.598 Y2.815 Z-9.745
X3.62 Y2.798 Z-9.755
X3.647 Y2.795 Z-9.765
X3.672 Y2.806 Z-9.776
X3.687 Y2.83 Z-9.786
X3.688 Y2.857 Z-9.796
X3.673 Y2.881 Z-9.806
X3.648 Y2.893 Z-9.816
X3.621 Y2.89 Z-9.827
X3.599 Y2.873 Z-9.837
X3.589 Y2.847 Z-9.847
X3.595 Y2.82 Z-9.857
X3.615 Y2.8 Z-9.867
X3.641 Y2.794 Z-9.878
X3.668 Y2.803 Z-9.888
X3.685 Y2.824 Z-9.898
X3.689 Y2.852 Z-9.908
X3.677 Y2.877 Z-9.918
X3.654 Y2.892 Z-9.929
X3.626 Z-9.939
X3.603 Y2.878 Z-9.949
X3.59 Y2.853 Z-9.959
X3.593 Y2.826 Z-9.969
X3.61 Y2.804 Z-9.98
X3.636 Y2.794 Z-9.99
X3.663 Y2.8 Z-10
G3 X3.616 Y2.888 I-0.023 J0.044
X3.663 Y2.8 I0.023 J-0.044
G0 Z6
X1.456 Y2.839
Z4
G1 Z2.8 F500
Z0.5
Y2.849
Y2.839
X1.461 Y2.844 Z0.497
X1.456 Y2.849 Z0.494
X1.451 Y2.845 Z0.492
Y2.844 Z0.491
X1.456 Y2.839 Z0.489
X1.461 Y2.844 Z0.486
X1.456 Y2.849 Z0.483
X1.451 Y2.845 Z0.48
Y2.844
X1.456 Y2.839 Z0.477
X1.461 Y2.844 Z0.474
X1.456 Y2.849 Z0.471
X1.451 Y2.845 Z0.469
Y2.844
X1.456 Y2.839 Z0.466
X1.461 Y2.844 Z0.463
X1.456 Y2.849 Z0.46
X1.451 Y2.845 Z0.458
Y2.844 Z0.457
X1.456 Y2.839 Z0.454
X1.461 Y2.844 Z0.451
X1.456 Y2.849 Z0.449
X1.451 Y2.845 Z0.446
Y2.844
X1.456 Y2.839 Z0.443
X1.461 Y2.844 Z0.44
X1.456 Y2.849 Z0.437
X1.451 Y2.845 Z0.435
Y2.844 Z0.434
X1.456 Y2.839 Z0.431
X1.461 Y2.844 Z0.429
X1.456 Y2.849 Z0.426
X1.451 Y2.845 Z0.423
Y2.844
X1.456 Y2.839 Z0.42
X1.461 Y2.844 Z0.417
X1.456 Y2.849 Z0.414
X1.451 Y2.845 Z0.412
Y2.844 Z0.411
X1.456 Y2.839 Z0.408
X1.461 Y2.844 Z0.406
X1.456 Y2.849 Z0.403
X1.451 Y2.845 Z0.4
Y2.844
X1.456 Y2.839 Z0.397
X1.461 Y2.844 Z0.394
X1.456 Y2.849 Z0.391
X1.451 Y2.845 Z0.389
Y2.844 Z0.388
X1.456 Y2.839 Z0.386
X1.461 Y2.844 Z0.383
X1.456 Y2.849 Z0.38
X1.451 Y2.845 Z0.377
Y2.844
X1.456 Y2.839 Z0.374
X1.461 Y2.844 Z0.371
X1.456 Y2.849 Z0.368
X1.451 Y2.845 Z0.366
Y2.844
X1.456 Y2.839 Z0.363
X1.461 Y2.844 Z0.36
X1.456 Y2.849 Z0.357
X1.451 Y2.845 Z0.355
Y2.844 Z0.354
X1.456 Y2.839 Z0.351
X1.461 Y2.844 Z0.348
X1.456 Y2.849 Z0.346
X1.451 Y2.845 Z0.343
Y2.844
X1.456 Y2.839 Z0.34
X1.461 Y2.844 Z0.337
X1.456 Y2.849 Z0.334
X1.451 Y2.845 Z0.332
Y2.844 Z0.331
X1.456 Y2.839 Z0.328
X1.461 Y2.844 Z0.326
X1.456 Y2.849 Z0.323
X1.451 Y2.845 Z0.32
Y2.844
X1.456 Y2.839 Z0.317
X1.461 Y2.844 Z0.314
X1.456 Y2.849 Z0.311
X1.451 Y2.845 Z0.309
Y2.844 Z0.308
X1.456 Y2.839 Z0.306
X1.461 Y2.844 Z0.303
X1.456 Y2.849 Z0.3
X1.451 Y2.845 Z0.297
Y2.844
X1.456 Y2.839 Z0.294
X1.461 Y2.844 Z0.291
X1.456 Y2.849 Z0.288
X1.451 Y2.845 Z0.286
Y2.844
X1.456 Y2.839 Z0.283
X1.461 Y2.844 Z0.28
X1.456 Y2.849 Z0.277
X1.451 Y2.845 Z0.275
Y2.844 Z0.274
X1.456 Y2.839 Z0.271
X1.461 Y2.844 Z0.268
X1.456 Y2.849 Z0.266
X1.451 Y2.845 Z0.263
Y2.844
X1.456 Y2.839 Z0.26
X1.461 Y2.844 Z0.257
X1.456 Y2.849 Z0.254
X1.451 Y2.845 Z0.252
Y2.844 Z0.251
X1.456 Y2.839 Z0.248
X1.461 Y2.844 Z0.246
X1.456 Y2.849 Z0.243
X1.451 Y2.845 Z0.24
Y2.844
X1.456 Y2.839 Z0.237
X1.461 Y2.844 Z0.234
X1.456 Y2.849 Z0.231
X1.451 Y2.845 Z0.229
Y2.844 Z0.228
X1.456 Y2.839 Z0.225
X1.461 Y2.844 Z0.223
X1.456 Y2.849 Z0.22
X1.451 Y2.845 Z0.217
Y2.844
X1.456 Y2.839 Z0.214
X1.461 Y2.844 Z0.211
X1.456 Y2.849 Z0.208
X1.451 Y2.845 Z0.206
Y2.844 Z0.205
X1.456 Y2.839 Z0.203
X1.461 Y2.844 Z0.2
X1.456 Y2.849 Z0.197
X1.451 Y2.845 Z0.194
Y2.844
X1.456 Y2.839 Z0.191
X1.461 Y2.844 Z0.188
X1.456 Y2.849 Z0.185
X1.451 Y2.845 Z0.183
Y2.844
X1.456 Y2.839 Z0.18
X1.461 Y2.844 Z0.177
X1.456 Y2.849 Z0.174
X1.451 Y2.845 Z0.172
Y2.844 Z0.171
X1.456 Y2.839 Z0.168
X1.461 Y2.844 Z0.165
X1.456 Y2.849 Z0.163
X1.451 Y2.845 Z0.16
Y2.844
X1.456 Y2.839 Z0.157
X1.461 Y2.844 Z0.154
X1.456 Y2.849 Z0.151
X1.451 Y2.845 Z0.149
Y2.844 Z0.148
X1.456 Y2.839 Z0.145
X1.461 Y2.844 Z0.143
X1.456 Y2.849 Z0.14
X1.451 Y2.845 Z0.137
Y2.844
X1.456 Y2.839 Z0.134
X1.461 Y2.844 Z0.131
X1.456 Y2.849 Z0.128
X1.451 Y2.845 Z0.126
Y2.844 Z0.125
X1.456 Y2.839 Z0.123
X1.461 Y2.844 Z0.12
X1.456 Y2.849 Z0.117
X1.451 Y2.845 Z0.114
Y2.844
X1.456 Y2.839 Z0.111
X1.461 Y2.844 Z0.108
X1.456 Y2.849 Z0.105
X1.451 Y2.845 Z0.103
Y2.844
X1.456 Y2.839 Z0.1
X1.461 Y2.844 Z0.097
X1.456 Y2.849 Z0.094
X1.451 Y2.845 Z0.092
Y2.844 Z0.091
X1.456 Y2.839 Z0.088
X1.461 Y2.844 Z0.085
X1.456 Y2.849 Z0.083
X1.451 Y2.845 Z0.08
Y2.844
X1.456 Y2.839 Z0.077
X1.461 Y2.844 Z0.074
X1.456 Y2.849 Z0.071
X1.451 Y2.845 Z0.069
Y2.844 Z0.068
X1.456 Y2.839 Z0.065
X1.461 Y2.844 Z0.063
X1.456 Y2.849 Z0.06
X1.451 Y2.845 Z0.057
Y2.844
X1.456 Y2.839 Z0.054
X1.461 Y2.844 Z0.051
X1.456 Y2.849 Z0.048
X1.451 Y2.845 Z0.046
Y2.844 Z0.045
X1.456 Y2.839 Z0.042
X1.461 Y2.844 Z0.04
X1.456 Y2.849 Z0.037
X1.451 Y2.845 Z0.034
Y2.844
X1.456 Y2.839 Z0.031
X1.461 Y2.844 Z0.028
X1.456 Y2.849 Z0.025
X1.451 Y2.845 Z0.023
Y2.844 Z0.022
X1.456 Y2.839 Z0.02
X1.461 Y2.844 Z0.017
X1.456 Y2.849 Z0.014
X1.451 Y2.845 Z0.011
Y2.844
X1.456 Y2.839 Z0.008
X1.461 Y2.844 Z0.005
X1.456 Y2.849 Z0.002
X1.451 Y2.845 Z0
X1.456 Y2.839
Y2.849
X1.451 Y2.845
Y2.844
X1.456 Y2.839 Z-0.003
X1.461 Y2.844 Z-0.006
X1.458 Y2.848 Z-0.008
X1.456 Y2.849 Z-0.009
X1.451 Y2.845 Z-0.011
Y2.844 Z-0.012
X1.456 Y2.839 Z-0.015
X1.461 Y2.844 Z-0.018
X1.458 Y2.848 Z-0.02
X1.456 Y2.849
X1.451 Y2.845 Z-0.023
Y2.844
X1.456 Y2.839 Z-0.026
X1.461 Y2.844 Z-0.029
X1.458 Y2.848 Z-0.031
X1.456 Y2.849 Z-0.032
X1.451 Y2.845 Z-0.034
Y2.844 Z-0.035
X1.456 Y2.839 Z-0.038
X1.461 Y2.844 Z-0.04
X1.458 Y2.848 Z-0.042
X1.456 Y2.849 Z-0.043
X1.451 Y2.845 Z-0.046
Y2.844
X1.456 Y2.839 Z-0.049
X1.461 Y2.844 Z-0.052
X1.458 Y2.848 Z-0.054
X1.456 Y2.849 Z-0.055
X1.451 Y2.845 Z-0.057
Y2.844 Z-0.058
X1.456 Y2.839 Z-0.06
X1.461 Y2.844 Z-0.063
X1.458 Y2.848 Z-0.065
X1.456 Y2.849 Z-0.066
X1.451 Y2.845 Z-0.069
Y2.844
X1.456 Y2.839 Z-0.072
X1.461 Y2.844 Z-0.075
X1.458 Y2.848 Z-0.077
X1.456 Y2.849 Z-0.078
X1.451 Y2.845 Z-0.08
Y2.844
X1.456 Y2.839 Z-0.083
X1.461 Y2.844 Z-0.086
X1.458 Y2.848 Z-0.088
X1.456 Y2.849 Z-0.089
X1.451 Y2.845 Z-0.092
Y2.844
X1.456 Y2.839 Z-0.095
X1.461 Y2.844 Z-0.098
X1.458 Y2.848 Z-0.1
X1.456 Y2.849
X1.451 Y2.845 Z-0.103
Y2.844
X1.456 Y2.839 Z-0.106
X1.461 Y2.844 Z-0.109
X1.458 Y2.848 Z-0.111
X1.456 Y2.849 Z-0.112
X1.451 Y2.845 Z-0.114
Y2.844 Z-0.115
X1.456 Y2.839 Z-0.118
X1.461 Y2.844 Z-0.121
X1.458 Y2.848 Z-0.123
X1.456 Y2.849
X1.451 Y2.845 Z-0.126
Y2.844
X1.456 Y2.839 Z-0.129
X1.461 Y2.844 Z-0.132
X1.458 Y2.848 Z-0.134
X1.456 Y2.849 Z-0.135
X1.451 Y2.845 Z-0.137
Y2.844 Z-0.138
X1.456 Y2.839 Z-0.141
X1.461 Y2.844 Z-0.143
X1.458 Y2.848 Z-0.145
X1.456 Y2.849 Z-0.146
X1.451 Y2.845 Z-0.149
Y2.844
X1.456 Y2.839 Z-0.152
X1.461 Y2.844 Z-0.155
X1.458 Y2.848 Z-0.157
X1.456 Y2.849 Z-0.158
X1.451 Y2.845 Z-0.16
Y2.844 Z-0.161
X1.456 Y2.839 Z-0.163
X1.461 Y2.844 Z-0.166
X1.458 Y2.848 Z-0.168
X1.456 Y2.849 Z-0.169
X1.451 Y2.845 Z-0.172
Y2.844
X1.456 Y2.839 Z-0.175
X1.461 Y2.844 Z-0.178
X1.458 Y2.848 Z-0.18
X1.456 Y2.849 Z-0.181
X1.451 Y2.845 Z-0.183
Y2.844
X1.456 Y2.839 Z-0.186
X1.461 Y2.844 Z-0.189
X1.458 Y2.848 Z-0.191
X1.456 Y2.849 Z-0.192
X1.451 Y2.845 Z-0.194
Y2.844 Z-0.195
X1.456 Y2.839 Z-0.198
X1.461 Y2.844 Z-0.201
X1.458 Y2.848 Z-0.203
X1.456 Y2.849
X1.451 Y2.845 Z-0.206
Y2.844
X1.456 Y2.839 Z-0.209
X1.461 Y2.844 Z-0.212
X1.458 Y2.848 Z-0.214
X1.456 Y2.849 Z-0.215
X1.451 Y2.845 Z-0.217
Y2.844 Z-0.218
X1.456 Y2.839 Z-0.221
X1.461 Y2.844 Z-0.223
X1.458 Y2.848 Z-0.225
X1.456 Y2.849 Z-0.226
X1.451 Y2.845 Z-0.229
Y2.844
X1.456 Y2.839 Z-0.232
X1.461 Y2.844 Z-0.235
X1.458 Y2.848 Z-0.237
X1.456 Y2.849 Z-0.238
X1.451 Y2.845 Z-0.24
Y2.844 Z-0.241
X1.456 Y2.839 Z-0.243
X1.461 Y2.844 Z-0.246
X1.458 Y2.848 Z-0.248
X1.456 Y2.849 Z-0.249
X1.451 Y2.845 Z-0.252
Y2.844
X1.456 Y2.839 Z-0.255
X1.461 Y2.844 Z-0.258
X1.458 Y2.848 Z-0.26
X1.456 Y2.849 Z-0.261
X1.451 Y2.845 Z-0.263
Y2.844
X1.456 Y2.839 Z-0.266
X1.461 Y2.844 Z-0.269
X1.458 Y2.848 Z-0.271
X1.456 Y2.849 Z-0.272
X1.451 Y2.845 Z-0.275
Y2.844
X1.456 Y2.839 Z-0.278
X1.461 Y2.844 Z-0.281
X1.458 Y2.848 Z-0.283
X1.456 Y2.849
X1.451 Y2.845 Z-0.286
Y2.844
X1.456 Y2.839 Z-0.289
X1.461 Y2.844 Z-0.292
X1.458 Y2.848 Z-0.294
X1.456 Y2.849 Z-0.295
X1.451 Y2.845 Z-0.297
Y2.844 Z-0.298
X1.456 Y2.839 Z-0.301
X1.461 Y2.844 Z-0.304
X1.458 Y2.848 Z-0.306
X1.456 Y2.849
X1.451 Y2.845 Z-0.309
Y2.844
X1.456 Y2.839 Z-0.312
X1.461 Y2.844 Z-0.315
X1.458 Y2.848 Z-0.317
X1.456 Y2.849 Z-0.318
X1.451 Y2.845 Z-0.32
Y2.844 Z-0.321
X1.456 Y2.839 Z-0.324
X1.461 Y2.844 Z-0.326
X1.458 Y2.848 Z-0.328
X1.456 Y2.849 Z-0.329
X1.451 Y2.845 Z-0.332
Y2.844
X1.456 Y2.839 Z-0.335
X1.461 Y2.844 Z-0.338
X1.458 Y2.848 Z-0.34
X1.456 Y2.849 Z-0.341
X1.451 Y2.845 Z-0.343
Y2.844 Z-0.344
X1.456 Y2.839 Z-0.346
X1.461 Y2.844 Z-0.349
X1.458 Y2.848 Z-0.351
X1.456 Y2.849 Z-0.352
X1.451 Y2.845 Z-0.355
Y2.844
X1.456 Y2.839 Z-0.358
X1.461 Y2.844 Z-0.361
X1.458 Y2.848 Z-0.363
X1.456 Y2.849 Z-0.364
X1.451 Y2.845 Z-0.366
Y2.844
X1.456 Y2.839 Z-0.369
X1.461 Y2.844 Z-0.372
X1.458 Y2.848 Z-0.374
X1.456 Y2.849 Z-0.375
X1.451 Y2.845 Z-0.377
Y2.844 Z-0.378
X1.456 Y2.839 Z-0.381
X1.461 Y2.844 Z-0.384
X1.458 Y2.848 Z-0.386
X1.456 Y2.849
X1.451 Y2.845 Z-0.389
Y2.844
X1.456 Y2.839 Z-0.392
X1.461 Y2.844 Z-0.395
X1.458 Y2.848 Z-0.397
X1.456 Y2.849 Z-0.398
X1.451 Y2.845 Z-0.4
Y2.844 Z-0.401
X1.456 Y2.839 Z-0.404
X1.461 Y2.844 Z-0.406
X1.458 Y2.848 Z-0.408
X1.456 Y2.849 Z-0.409
X1.451 Y2.845 Z-0.412
Y2.844
X1.456 Y2.839 Z-0.415
X1.461 Y2.844 Z-0.418
X1.458 Y2.848 Z-0.42
X1.456 Y2.849 Z-0.421
X1.451 Y2.845 Z-0.423
Y2.844 Z-0.424
X1.456 Y2.839 Z-0.426
X1.461 Y2.844 Z-0.429
X1.458 Y2.848 Z-0.431
X1.456 Y2.849 Z-0.432
X1.451 Y2.845 Z-0.435
Y2.844
X1.456 Y2.839 Z-0.438
X1.461 Y2.844 Z-0.441
X1.458 Y2.848 Z-0.443
X1.456 Y2.849 Z-0.444
X1.451 Y2.845 Z-0.446
Y2.844
X1.456 Y2.839 Z-0.449
X1.461 Y2.844 Z-0.452
X1.458 Y2.848 Z-0.454
X1.456 Y2.849 Z-0.455
X1.451 Y2.845 Z-0.458
Y2.844
X1.456 Y2.839 Z-0.461
X1.461 Y2.844 Z-0.464
X1.458 Y2.848 Z-0.466
X1.456 Y2.849 Z-0.467
X1.451 Y2.845 Z-0.469
Y2.844
X1.456 Y2.839 Z-0.472
X1.461 Y2.844 Z-0.475
X1.458 Y2.848 Z-0.477
X1.456 Y2.849 Z-0.478
X1.451 Y2.845 Z-0.48
Y2.844 Z-0.481
X1.456 Y2.839 Z-0.484
X1.461 Y2.844 Z-0.487
X1.458 Y2.848 Z-0.489
X1.456 Y2.849
X1.451 Y2.845 Z-0.492
Y2.844
X1.456 Y2.839 Z-0.495
X1.461 Y2.844 Z-0.498
X1.458 Y2.848 Z-0.5
X1.451 Y2.844
X1.461
X1.458 Y2.848
X1.456 Y2.849 Z-0.501
X1.451 Y2.844 Z-0.504
X1.456 Y2.839 Z-0.507
X1.459 Y2.841 Z-0.508
X1.461 Y2.844 Z-0.509
X1.458 Y2.848 Z-0.511
X1.456 Y2.849 Z-0.512
X1.451 Y2.844 Z-0.515
X1.456 Y2.839 Z-0.518
X1.459 Y2.841 Z-0.52
X1.461 Y2.844 Z-0.521
X1.458 Y2.848 Z-0.523
X1.456 Y2.849 Z-0.524
X1.451 Y2.844 Z-0.527
X1.456 Y2.839 Z-0.529
X1.459 Y2.841 Z-0.531
X1.461 Y2.844 Z-0.532
X1.458 Y2.848 Z-0.534
X1.456 Y2.849 Z-0.535
X1.451 Y2.844 Z-0.538
X1.456 Y2.839 Z-0.541
X1.459 Y2.841 Z-0.542
X1.461 Y2.844 Z-0.544
X1.458 Y2.848 Z-0.546
X1.456 Y2.849 Z-0.547
X1.451 Y2.844 Z-0.549
X1.456 Y2.839 Z-0.552
X1.459 Y2.841 Z-0.554
X1.461 Y2.844 Z-0.555
X1.458 Y2.848 Z-0.557
X1.456 Y2.849 Z-0.558
X1.451 Y2.844 Z-0.561
X1.456 Y2.839 Z-0.564
X1.459 Y2.841 Z-0.565
X1.461 Y2.844 Z-0.567
X1.458 Y2.848 Z-0.569
X1.456 Y2.849
X1.451 Y2.844 Z-0.572
X1.456 Y2.839 Z-0.575
X1.459 Y2.841 Z-0.577
X1.461 Y2.844 Z-0.578
X1.458 Y2.848 Z-0.58
X1.456 Y2.849 Z-0.581
X1.451 Y2.844 Z-0.584
X1.456 Y2.839 Z-0.587
X1.459 Y2.841 Z-0.588
X1.461 Y2.844 Z-0.589
X1.458 Y2.848 Z-0.592
X1.456 Y2.849
X1.451 Y2.844 Z-0.595
X1.456 Y2.839 Z-0.598
X1.459 Y2.841 Z-0.6
X1.461 Y2.844 Z-0.601
X1.458 Y2.848 Z-0.603
X1.456 Y2.849 Z-0.604
X1.451 Y2.844 Z-0.607
X1.456 Y2.839 Z-0.609
X1.459 Y2.841 Z-0.611
X1.461 Y2.844 Z-0.612
X1.458 Y2.848 Z-0.614
X1.456 Y2.849 Z-0.615
X1.451 Y2.844 Z-0.618
X1.456 Y2.839 Z-0.621
X1.459 Y2.841 Z-0.623
X1.461 Y2.844 Z-0.624
X1.458 Y2.848 Z-0.626
X1.456 Y2.849 Z-0.627
X1.451 Y2.844 Z-0.629
X1.456 Y2.839 Z-0.632
X1.459 Y2.841 Z-0.634
X1.461 Y2.844 Z-0.635
X1.458 Y2.848 Z-0.637
X1.456 Y2.849 Z-0.638
X1.451 Y2.844 Z-0.641
X1.456 Y2.839 Z-0.644
X1.459 Y2.841 Z-0.645
X1.461 Y2.844 Z-0.647
X1.458 Y2.848 Z-0.649
X1.456 Y2.849 Z-0.65
X1.451 Y2.844 Z-0.652
X1.456 Y2.839 Z-0.655
X1.459 Y2.841 Z-0.657
X1.461 Y2.844 Z-0.658
X1.458 Y2.848 Z-0.66
X1.456 Y2.849 Z-0.661
X1.451 Y2.844 Z-0.664
X1.456 Y2.839 Z-0.667
X1.459 Y2.841 Z-0.668
X1.461 Y2.844 Z-0.67
X1.458 Y2.848 Z-0.672
X1.456 Y2.849
X1.451 Y2.844 Z-0.675
X1.456 Y2.839 Z-0.678
X1.459 Y2.841 Z-0.68
X1.461 Y2.844 Z-0.681
X1.458 Y2.848 Z-0.683
X1.456 Y2.849 Z-0.684
X1.451 Y2.844 Z-0.687
X1.456 Y2.839 Z-0.69
X1.459 Y2.841 Z-0.691
X1.461 Y2.844 Z-0.692
X1.458 Y2.848 Z-0.694
X1.456 Y2.849 Z-0.695
X1.451 Y2.844 Z-0.698
X1.456 Y2.839 Z-0.701
X1.459 Y2.841 Z-0.703
X1.461 Y2.844 Z-0.704
X1.458 Y2.848 Z-0.706
X1.456 Y2.849 Z-0.707
X1.451 Y2.844 Z-0.71
X1.456 Y2.839 Z-0.712
X1.459 Y2.841 Z-0.714
X1.461 Y2.844 Z-0.715
X1.458 Y2.848 Z-0.717
X1.456 Y2.849 Z-0.718
X1.451 Y2.844 Z-0.721
X1.456 Y2.839 Z-0.724
X1.459 Y2.841 Z-0.725
X1.461 Y2.844 Z-0.727
X1.458 Y2.848 Z-0.729
X1.456 Y2.849 Z-0.73
X1.451 Y2.844 Z-0.732
X1.456 Y2.839 Z-0.735
X1.459 Y2.841 Z-0.737
X1.461 Y2.844 Z-0.738
X1.458 Y2.848 Z-0.74
X1.456 Y2.849 Z-0.741
X1.451 Y2.844 Z-0.744
X1.456 Y2.839 Z-0.747
X1.459 Y2.841 Z-0.748
X1.461 Y2.844 Z-0.75
X1.458 Y2.848 Z-0.752
X1.456 Y2.849
X1.451 Y2.844 Z-0.755
X1.456 Y2.839 Z-0.758
X1.459 Y2.841 Z-0.76
X1.461 Y2.844 Z-0.761
X1.458 Y2.848 Z-0.763
X1.456 Y2.849 Z-0.764
X1.451 Y2.844 Z-0.767
X1.456 Y2.839 Z-0.77
X1.459 Y2.841 Z-0.771
X1.461 Y2.844 Z-0.772
X1.458 Y2.848 Z-0.775
X1.456 Y2.849
X1.451 Y2.844 Z-0.778
X1.456 Y2.839 Z-0.781
X1.459 Y2.841 Z-0.783
X1.461 Y2.844 Z-0.784
X1.458 Y2.848 Z-0.786
X1.456 Y2.849 Z-0.787
X1.451 Y2.844 Z-0.79
X1.456 Y2.839 Z-0.792
X1.459 Y2.841 Z-0.794
X1.461 Y2.844 Z-0.795
X1.458 Y2.848 Z-0.797
X1.456 Y2.849 Z-0.798
X1.451 Y2.844 Z-0.801
X1.456 Y2.839 Z-0.804
X1.459 Y2.841 Z-0.806
X1.461 Y2.844 Z-0.807
X1.458 Y2.848 Z-0.809
X1.456 Y2.849 Z-0.81
X1.451 Y2.844 Z-0.812
X1.456 Y2.839 Z-0.815
X1.459 Y2.841 Z-0.817
X1.461 Y2.844 Z-0.818
X1.458 Y2.848 Z-0.82
X1.456 Y2.849 Z-0.821
X1.451 Y2.844 Z-0.824
X1.456 Y2.839 Z-0.827
X1.459 Y2.841 Z-0.828
X1.461 Y2.844 Z-0.83
X1.458 Y2.848 Z-0.832
X1.456 Y2.849 Z-0.833
X1.451 Y2.844 Z-0.835
X1.456 Y2.839 Z-0.838
X1.459 Y2.841 Z-0.84
X1.461 Y2.844 Z-0.841
X1.458 Y2.848 Z-0.843
X1.456 Y2.849 Z-0.844
X1.451 Y2.844 Z-0.847
X1.456 Y2.839 Z-0.85
X1.459 Y2.841 Z-0.851
X1.461 Y2.844 Z-0.853
X1.458 Y2.848 Z-0.855
X1.456 Y2.849
X1.451 Y2.844 Z-0.858
X1.456 Y2.839 Z-0.861
X1.459 Y2.841 Z-0.863
X1.461 Y2.844 Z-0.864
X1.458 Y2.848 Z-0.866
X1.456 Y2.849 Z-0.867
X1.451 Y2.844 Z-0.87
X1.456 Y2.839 Z-0.873
X1.459 Y2.841 Z-0.874
X1.461 Y2.844 Z-0.875
X1.458 Y2.848 Z-0.877
X1.456 Y2.849 Z-0.878
X1.451 Y2.844 Z-0.881
X1.456 Y2.839 Z-0.884
X1.459 Y2.841 Z-0.886
X1.461 Y2.844 Z-0.887
X1.458 Y2.848 Z-0.889
X1.456 Y2.849 Z-0.89
X1.451 Y2.844 Z-0.893
X1.456 Y2.839 Z-0.895
X1.459 Y2.841 Z-0.897
X1.461 Y2.844 Z-0.898
X1.458 Y2.848 Z-0.9
X1.456 Y2.849 Z-0.901
X1.451 Y2.844 Z-0.904
X1.456 Y2.839 Z-0.907
X1.459 Y2.841 Z-0.908
X1.461 Y2.844 Z-0.91
X1.458 Y2.848 Z-0.912
X1.456 Y2.849 Z-0.913
X1.451 Y2.844 Z-0.915
X1.456 Y2.839 Z-0.918
X1.459 Y2.841 Z-0.92
X1.461 Y2.844 Z-0.921
X1.458 Y2.848 Z-0.923
X1.456 Y2.849 Z-0.924
X1.451 Y2.844 Z-0.927
X1.456 Y2.839 Z-0.93
X1.459 Y2.841 Z-0.931
X1.461 Y2.844 Z-0.933
X1.458 Y2.848 Z-0.935
X1.456 Y2.849
X1.451 Y2.844 Z-0.938
X1.456 Y2.839 Z-0.941
X1.459 Y2.841 Z-0.943
X1.461 Y2.844 Z-0.944
X1.458 Y2.848 Z-0.946
X1.456 Y2.849 Z-0.947
X1.451 Y2.844 Z-0.95
X1.456 Y2.839 Z-0.953
X1.459 Y2.841 Z-0.954
X1.461 Y2.844 Z-0.955
X1.458 Y2.848 Z-0.958
X1.456 Y2.849
X1.451 Y2.844 Z-0.961
X1.456 Y2.839 Z-0.964
X1.459 Y2.841 Z-0.966
X1.461 Y2.844 Z-0.967
X1.458 Y2.848 Z-0.969
X1.456 Y2.849 Z-0.97
X1.451 Y2.844 Z-0.973
X1.456 Y2.839 Z-0.975
X1.459 Y2.841 Z-0.977
X1.461 Y2.844 Z-0.978
X1.458 Y2.848 Z-0.98
X1.456 Y2.849 Z-0.981
X1.451 Y2.844 Z-0.984
X1.456 Y2.839 Z-0.987
X1.459 Y2.841 Z-0.989
X1.461 Y2.844 Z-0.99
X1.458 Y2.848 Z-0.992
X1.456 Y2.849 Z-0.993
X1.451 Y2.844 Z-0.996
X1.456 Y2.839 Z-0.998
X1.459 Y2.841 Z-1
X1.456 Y2.849
Y2.839
X1.459 Y2.841
X1.461 Y2.844 Z-1.001
X1.456 Y2.849 Z-1.004
X1.451 Y2.844 Z-1.007
X1.452 Y2.841 Z-1.008
X1.456 Y2.839 Z-1.01
X1.459 Y2.841 Z-1.011
X1.461 Y2.844 Z-1.013
X1.456 Y2.849 Z-1.016
X1.451 Y2.844 Z-1.018
X1.452 Y2.841 Z-1.02
X1.456 Y2.839 Z-1.021
X1.459 Y2.841 Z-1.023
X1.461 Y2.844 Z-1.024
X1.456 Y2.849 Z-1.027
X1.451 Y2.844 Z-1.03
X1.452 Y2.841 Z-1.031
X1.456 Y2.839 Z-1.033
X1.459 Y2.841 Z-1.034
X1.461 Y2.844 Z-1.036
X1.456 Y2.849 Z-1.038
X1.451 Y2.844 Z-1.041
X1.452 Y2.841 Z-1.042
X1.456 Y2.839 Z-1.044
X1.459 Y2.841 Z-1.046
X1.461 Y2.844 Z-1.047
X1.456 Y2.849 Z-1.05
X1.451 Y2.844 Z-1.053
X1.452 Y2.841 Z-1.054
X1.456 Y2.839 Z-1.056
X1.459 Y2.841 Z-1.057
X1.461 Y2.844 Z-1.058
X1.456 Y2.849 Z-1.061
X1.451 Y2.844 Z-1.064
X1.452 Y2.841 Z-1.065
X1.456 Y2.839 Z-1.067
X1.459 Y2.841 Z-1.069
X1.461 Y2.844 Z-1.07
X1.456 Y2.849 Z-1.073
X1.451 Y2.844 Z-1.076
X1.452 Y2.841 Z-1.077
X1.456 Y2.839 Z-1.078
X1.459 Y2.841 Z-1.08
X1.461 Y2.844 Z-1.081
X1.456 Y2.849 Z-1.084
X1.451 Y2.844 Z-1.087
X1.452 Y2.841 Z-1.088
X1.456 Y2.839 Z-1.09
X1.459 Y2.841 Z-1.092
X1.461 Y2.844 Z-1.093
X1.456 Y2.849 Z-1.096
X1.451 Y2.844 Z-1.098
X1.452 Y2.841 Z-1.1
X1.456 Y2.839 Z-1.101
X1.459 Y2.841 Z-1.103
X1.461 Y2.844 Z-1.104
X1.456 Y2.849 Z-1.107
X1.451 Y2.844 Z-1.11
X1.452 Y2.841 Z-1.111
X1.456 Y2.839 Z-1.113
X1.459 Y2.841 Z-1.114
X1.461 Y2.844 Z-1.116
X1.456 Y2.849 Z-1.118
X1.451 Y2.844 Z-1.121
X1.452 Y2.841 Z-1.123
X1.456 Y2.839 Z-1.124
X1.459 Y2.841 Z-1.126
X1.461 Y2.844 Z-1.127
X1.456 Y2.849 Z-1.13
X1.451 Y2.844 Z-1.133
X1.452 Y2.841 Z-1.134
X1.456 Y2.839 Z-1.136
X1.459 Y2.841 Z-1.137
X1.461 Y2.844 Z-1.138
X1.456 Y2.849 Z-1.141
X1.451 Y2.844 Z-1.144
X1.452 Y2.841 Z-1.145
X1.456 Y2.839 Z-1.147
X1.459 Y2.841 Z-1.149
X1.461 Y2.844 Z-1.15
X1.456 Y2.849 Z-1.153
X1.451 Y2.844 Z-1.156
X1.452 Y2.841 Z-1.157
X1.456 Y2.839 Z-1.158
X1.459 Y2.841 Z-1.16
X1.461 Y2.844 Z-1.161
X1.456 Y2.849 Z-1.164
X1.451 Y2.844 Z-1.167
X1.452 Y2.841 Z-1.168
X1.456 Y2.839 Z-1.17
X1.459 Y2.841 Z-1.172
X1.461 Y2.844 Z-1.173
X1.456 Y2.849 Z-1.176
X1.451 Y2.844 Z-1.179
X1.452 Y2.841 Z-1.18
X1.456 Y2.839 Z-1.181
X1.459 Y2.841 Z-1.183
X1.461 Y2.844 Z-1.184
X1.456 Y2.849 Z-1.187
X1.451 Y2.844 Z-1.19
X1.452 Y2.841 Z-1.191
X1.456 Y2.839 Z-1.193
X1.459 Y2.841 Z-1.194
X1.461 Y2.844 Z-1.196
X1.456 Y2.849 Z-1.199
X1.451 Y2.844 Z-1.201
X1.452 Y2.841 Z-1.203
X1.456 Y2.839 Z-1.204
X1.459 Y2.841 Z-1.206
X1.461 Y2.844 Z-1.207
X1.456 Y2.849 Z-1.21
X1.451 Y2.844 Z-1.213
X1.452 Y2.841 Z-1.214
X1.456 Y2.839 Z-1.216
X1.459 Y2.841 Z-1.217
X1.461 Y2.844 Z-1.219
X1.456 Y2.849 Z-1.221
X1.451 Y2.844 Z-1.224
X1.452 Y2.841 Z-1.225
X1.456 Y2.839 Z-1.227
X1.459 Y2.841 Z-1.229
X1.461 Y2.844 Z-1.23
X1.456 Y2.849 Z-1.233
X1.451 Y2.844 Z-1.236
X1.452 Y2.841 Z-1.237
X1.456 Y2.839 Z-1.239
X1.459 Y2.841 Z-1.24
X1.461 Y2.844 Z-1.241
X1.456 Y2.849 Z-1.244
X1.451 Y2.844 Z-1.247
X1.452 Y2.841 Z-1.248
X1.456 Y2.839 Z-1.25
X1.459 Y2.841 Z-1.252
X1.461 Y2.844 Z-1.253
X1.456 Y2.849 Z-1.256
X1.451 Y2.844 Z-1.259
X1.452 Y2.841 Z-1.26
X1.456 Y2.839 Z-1.261
X1.459 Y2.841 Z-1.263
X1.461 Y2.844 Z-1.264
X1.456 Y2.849 Z-1.267
X1.451 Y2.844 Z-1.27
X1.452 Y2.841 Z-1.271
X1.456 Y2.839 Z-1.273
X1.459 Y2.841 Z-1.275
X1.461 Y2.844 Z-1.276
X1.456 Y2.849 Z-1.279
X1.451 Y2.844 Z-1.281
X1.452 Y2.841 Z-1.283
X1.456 Y2.839 Z-1.284
X1.459 Y2.841 Z-1.286
X1.461 Y2.844 Z-1.287
X1.456 Y2.849 Z-1.29
X1.451 Y2.844 Z-1.293
X1.452 Y2.841 Z-1.294
X1.456 Y2.839 Z-1.296
X1.459 Y2.841 Z-1.297
X1.461 Y2.844 Z-1.299
X1.456 Y2.849 Z-1.301
X1.451 Y2.844 Z-1.304
X1.452 Y2.841 Z-1.306
X1.456 Y2.839 Z-1.307
X1.459 Y2.841 Z-1.309
X1.461 Y2.844 Z-1.31
X1.456 Y2.849 Z-1.313
X1.451 Y2.844 Z-1.316
X1.452 Y2.841 Z-1.317
X1.456 Y2.839 Z-1.319
X1.459 Y2.841 Z-1.32
X1.461 Y2.844 Z-1.321
X1.456 Y2.849 Z-1.324
X1.451 Y2.844 Z-1.327
X1.452 Y2.841 Z-1.328
X1.456 Y2.839 Z-1.33
X1.459 Y2.841 Z-1.332
X1.461 Y2.844 Z-1.333
X1.456 Y2.849 Z-1.336
X1.451 Y2.844 Z-1.339
X1.452 Y2.841 Z-1.34
X1.456 Y2.839 Z-1.342
X1.459 Y2.841 Z-1.343
X1.461 Y2.844 Z-1.344
X1.456 Y2.849 Z-1.347
X1.451 Y2.844 Z-1.35
X1.452 Y2.841 Z-1.351
X1.456 Y2.839 Z-1.353
X1.459 Y2.841 Z-1.355
X1.461 Y2.844 Z-1.356
X1.456 Y2.849 Z-1.359
X1.451 Y2.844 Z-1.362
X1.452 Y2.841 Z-1.363
X1.456 Y2.839 Z-1.364
X1.459 Y2.841 Z-1.366
X1.461 Y2.844 Z-1.367
X1.456 Y2.849 Z-1.37
X1.451 Y2.844 Z-1.373
X1.452 Y2.841 Z-1.374
X1.456 Y2.839 Z-1.376
X1.459 Y2.841 Z-1.377
X1.461 Y2.844 Z-1.379
X1.456 Y2.849 Z-1.382
X1.451 Y2.844 Z-1.384
X1.452 Y2.841 Z-1.386
X1.456 Y2.839 Z-1.387
X1.459 Y2.841 Z-1.389
X1.461 Y2.844 Z-1.39
X1.456 Y2.849 Z-1.393
X1.451 Y2.844 Z-1.396
X1.452 Y2.841 Z-1.397
X1.456 Y2.839 Z-1.399
X1.459 Y2.841 Z-1.4
X1.461 Y2.844 Z-1.402
X1.456 Y2.849 Z-1.404
X1.451 Y2.844 Z-1.407
X1.452 Y2.841 Z-1.408
X1.456 Y2.839 Z-1.41
X1.459 Y2.841 Z-1.412
X1.461 Y2.844 Z-1.413
X1.456 Y2.849 Z-1.416
X1.451 Y2.844 Z-1.419
X1.452 Y2.841 Z-1.42
X1.456 Y2.839 Z-1.422
X1.459 Y2.841 Z-1.423
X1.461 Y2.844 Z-1.424
X1.456 Y2.849 Z-1.427
X1.451 Y2.844 Z-1.43
X1.452 Y2.841 Z-1.431
X1.456 Y2.839 Z-1.433
X1.459 Y2.841 Z-1.435
X1.461 Y2.844 Z-1.436
X1.456 Y2.849 Z-1.439
X1.451 Y2.844 Z-1.442
X1.452 Y2.841 Z-1.443
X1.456 Y2.839 Z-1.444
X1.459 Y2.841 Z-1.446
X1.461 Y2.844 Z-1.447
X1.456 Y2.849 Z-1.45
X1.451 Y2.844 Z-1.453
X1.452 Y2.841 Z-1.454
X1.456 Y2.839 Z-1.456
X1.459 Y2.841 Z-1.458
X1.461 Y2.844 Z-1.459
X1.456 Y2.849 Z-1.462
X1.451 Y2.844 Z-1.464
X1.452 Y2.841 Z-1.466
X1.456 Y2.839 Z-1.467
X1.459 Y2.841 Z-1.469
X1.461 Y2.844 Z-1.47
X1.456 Y2.849 Z-1.473
X1.451 Y2.844 Z-1.476
X1.452 Y2.841 Z-1.477
X1.456 Y2.839 Z-1.479
X1.459 Y2.841 Z-1.48
X1.461 Y2.844 Z-1.482
X1.456 Y2.849 Z-1.484
X1.451 Y2.844 Z-1.487
X1.452 Y2.841 Z-1.489
X1.456 Y2.839 Z-1.49
X1.459 Y2.841 Z-1.492
X1.461 Y2.844 Z-1.493
X1.456 Y2.849 Z-1.496
X1.451 Y2.844 Z-1.499
X1.452 Y2.841 Z-1.5
X1.461 Y2.844
X1.451
X1.452 Y2.841
X1.456 Y2.839 Z-1.502
X1.461 Y2.844 Z-1.504
X1.456 Y2.849 Z-1.507
X1.453 Y2.848 Z-1.508
X1.451 Y2.844 Z-1.51
X1.452 Y2.841 Z-1.511
X1.456 Y2.839 Z-1.513
X1.461 Y2.844 Z-1.516
X1.456 Y2.849 Z-1.519
X1.453 Y2.848 Z-1.52
X1.451 Y2.844 Z-1.522
X1.452 Y2.841 Z-1.523
X1.456 Y2.839 Z-1.525
X1.461 Y2.844 Z-1.527
X1.456 Y2.849 Z-1.53
X1.453 Y2.848 Z-1.531
X1.451 Y2.844 Z-1.533
X1.452 Y2.841 Z-1.534
X1.456 Y2.839 Z-1.536
X1.461 Y2.844 Z-1.539
X1.456 Y2.849 Z-1.542
X1.453 Y2.848
X1.451 Y2.844 Z-1.545
X1.452 Y2.841 Z-1.546
X1.456 Y2.839 Z-1.547
X1.461 Y2.844 Z-1.55
X1.456 Y2.849 Z-1.553
X1.453 Y2.848 Z-1.554
X1.451 Y2.844 Z-1.556
X1.452 Y2.841 Z-1.557
X1.456 Y2.839 Z-1.559
X1.461 Y2.844 Z-1.562
X1.456 Y2.849 Z-1.565
X1.453 Y2.848
X1.451 Y2.844 Z-1.567
X1.452 Y2.841 Z-1.569
X1.456 Y2.839 Z-1.57
X1.461 Y2.844 Z-1.573
X1.456 Y2.849 Z-1.576
X1.453 Y2.848 Z-1.577
X1.451 Y2.844 Z-1.579
X1.452 Y2.841 Z-1.58
X1.456 Y2.839 Z-1.582
X1.461 Y2.844 Z-1.585
X1.456 Y2.849 Z-1.587
X1.453 Y2.848 Z-1.588
X1.451 Y2.844 Z-1.59
X1.452 Y2.841 Z-1.592
X1.456 Y2.839 Z-1.593
X1.461 Y2.844 Z-1.596
X1.456 Y2.849 Z-1.599
X1.453 Y2.848 Z-1.6
X1.451 Y2.844 Z-1.602
X1.452 Y2.841 Z-1.603
X1.456 Y2.839 Z-1.605
X1.461 Y2.844 Z-1.607
X1.456 Y2.849 Z-1.61
X1.453 Y2.848 Z-1.611
X1.451 Y2.844 Z-1.613
X1.452 Y2.841 Z-1.614
X1.456 Y2.839 Z-1.616
X1.461 Y2.844 Z-1.619
X1.456 Y2.849 Z-1.622
X1.453 Y2.848 Z-1.623
X1.451 Y2.844 Z-1.625
X1.452 Y2.841 Z-1.626
X1.456 Y2.839 Z-1.627
X1.461 Y2.844 Z-1.63
X1.456 Y2.849 Z-1.633
X1.453 Y2.848 Z-1.634
X1.451 Y2.844 Z-1.636
X1.452 Y2.841 Z-1.637
X1.456 Y2.839 Z-1.639
X1.461 Y2.844 Z-1.642
X1.456 Y2.849 Z-1.645
X1.453 Y2.848
X1.451 Y2.844 Z-1.647
X1.452 Y2.841 Z-1.649
X1.456 Y2.839 Z-1.65
X1.461 Y2.844 Z-1.653
X1.456 Y2.849 Z-1.656
X1.453 Y2.848 Z-1.657
X1.451 Y2.844 Z-1.659
X1.452 Y2.841 Z-1.66
X1.456 Y2.839 Z-1.662
X1.461 Y2.844 Z-1.665
X1.456 Y2.849 Z-1.667
X1.453 Y2.848 Z-1.668
X1.451 Y2.844 Z-1.67
X1.452 Y2.841 Z-1.672
X1.456 Y2.839 Z-1.673
X1.461 Y2.844 Z-1.676
X1.456 Y2.849 Z-1.679
X1.453 Y2.848 Z-1.68
X1.451 Y2.844 Z-1.682
X1.452 Y2.841 Z-1.683
X1.456 Y2.839 Z-1.685
X1.461 Y2.844 Z-1.687
X1.456 Y2.849 Z-1.69
X1.453 Y2.848 Z-1.691
X1.451 Y2.844 Z-1.693
X1.452 Y2.841 Z-1.694
X1.456 Y2.839 Z-1.696
X1.461 Y2.844 Z-1.699
X1.456 Y2.849 Z-1.702
X1.453 Y2.848 Z-1.703
X1.451 Y2.844 Z-1.705
X1.452 Y2.841 Z-1.706
X1.456 Y2.839 Z-1.708
X1.461 Y2.844 Z-1.71
X1.456 Y2.849 Z-1.713
X1.453 Y2.848 Z-1.714
X1.451 Y2.844 Z-1.716
X1.452 Y2.841 Z-1.717
X1.456 Y2.839 Z-1.719
X1.461 Y2.844 Z-1.722
X1.456 Y2.849 Z-1.725
X1.453 Y2.848
X1.451 Y2.844 Z-1.728
X1.452 Y2.841 Z-1.729
X1.456 Y2.839 Z-1.73
X1.461 Y2.844 Z-1.733
X1.456 Y2.849 Z-1.736
X1.453 Y2.848 Z-1.737
X1.451 Y2.844 Z-1.739
X1.452 Y2.841 Z-1.74
X1.456 Y2.839 Z-1.742
X1.461 Y2.844 Z-1.745
X1.456 Y2.849 Z-1.748
X1.453 Y2.848
X1.451 Y2.844 Z-1.75
X1.452 Y2.841 Z-1.752
X1.456 Y2.839 Z-1.753
X1.461 Y2.844 Z-1.756
X1.456 Y2.849 Z-1.759
X1.453 Y2.848 Z-1.76
X1.451 Y2.844 Z-1.762
X1.452 Y2.841 Z-1.763
X1.456 Y2.839 Z-1.765
X1.461 Y2.844 Z-1.768
X1.456 Y2.849 Z-1.77
X1.453 Y2.848 Z-1.771
X1.451 Y2.844 Z-1.773
X1.452 Y2.841 Z-1.775
X1.456 Y2.839 Z-1.776
X1.461 Y2.844 Z-1.779
X1.456 Y2.849 Z-1.782
X1.453 Y2.848 Z-1.783
X1.451 Y2.844 Z-1.785
X1.452 Y2.841 Z-1.786
X1.456 Y2.839 Z-1.788
X1.461 Y2.844 Z-1.79
X1.456 Y2.849 Z-1.793
X1.453 Y2.848 Z-1.794
X1.451 Y2.844 Z-1.796
X1.452 Y2.841 Z-1.797
X1.456 Y2.839 Z-1.799
X1.461 Y2.844 Z-1.802
X1.456 Y2.849 Z-1.805
X1.453 Y2.848 Z-1.806
X1.451 Y2.844 Z-1.808
X1.452 Y2.841 Z-1.809
X1.456 Y2.839 Z-1.81
X1.461 Y2.844 Z-1.813
X1.456 Y2.849 Z-1.816
X1.453 Y2.848 Z-1.817
X1.451 Y2.844 Z-1.819
X1.452 Y2.841 Z-1.82
X1.456 Y2.839 Z-1.822
X1.461 Y2.844 Z-1.825
X1.456 Y2.849 Z-1.828
X1.453 Y2.848
X1.451 Y2.844 Z-1.83
X1.452 Y2.841 Z-1.832
X1.456 Y2.839 Z-1.833
X1.461 Y2.844 Z-1.836
X1.456 Y2.849 Z-1.839
X1.453 Y2.848 Z-1.84
X1.451 Y2.844 Z-1.842
X1.452 Y2.841 Z-1.843
X1.456 Y2.839 Z-1.845
X1.461 Y2.844 Z-1.848
X1.456 Y2.849 Z-1.85
X1.453 Y2.848 Z-1.851
X1.451 Y2.844 Z-1.853
X1.452 Y2.841 Z-1.855
X1.456 Y2.839 Z-1.856
X1.461 Y2.844 Z-1.859
X1.456 Y2.849 Z-1.862
X1.453 Y2.848 Z-1.863
X1.451 Y2.844 Z-1.865
X1.452 Y2.841 Z-1.866
X1.456 Y2.839 Z-1.868
X1.461 Y2.844 Z-1.871
X1.456 Y2.849 Z-1.873
X1.453 Y2.848 Z-1.874
X1.451 Y2.844 Z-1.876
X1.452 Y2.841 Z-1.877
X1.456 Y2.839 Z-1.879
X1.461 Y2.844 Z-1.882
X1.456 Y2.849 Z-1.885
X1.453 Y2.848 Z-1.886
X1.451 Y2.844 Z-1.888
X1.452 Y2.841 Z-1.889
X1.456 Y2.839 Z-1.891
X1.461 Y2.844 Z-1.893
X1.456 Y2.849 Z-1.896
X1.453 Y2.848 Z-1.897
X1.451 Y2.844 Z-1.899
X1.452 Y2.841 Z-1.9
X1.456 Y2.839 Z-1.902
X1.461 Y2.844 Z-1.905
X1.456 Y2.849 Z-1.908
X1.453 Y2.848
X1.451 Y2.844 Z-1.911
X1.452 Y2.841 Z-1.912
X1.456 Y2.839 Z-1.913
X1.461 Y2.844 Z-1.916
X1.456 Y2.849 Z-1.919
X1.453 Y2.848 Z-1.92
X1.451 Y2.844 Z-1.922
X1.452 Y2.841 Z-1.923
X1.456 Y2.839 Z-1.925
X1.461 Y2.844 Z-1.928
X1.456 Y2.849 Z-1.931
X1.453 Y2.848
X1.451 Y2.844 Z-1.933
X1.452 Y2.841 Z-1.935
X1.456 Y2.839 Z-1.936
X1.461 Y2.844 Z-1.939
X1.456 Y2.849 Z-1.942
X1.453 Y2.848 Z-1.943
X1.451 Y2.844 Z-1.945
X1.452 Y2.841 Z-1.946
X1.456 Y2.839 Z-1.948
X1.461 Y2.844 Z-1.951
X1.456 Y2.849 Z-1.953
X1.453 Y2.848 Z-1.954
X1.451 Y2.844 Z-1.956
X1.452 Y2.841 Z-1.958
X1.456 Y2.839 Z-1.959
X1.461 Y2.844 Z-1.962
X1.456 Y2.849 Z-1.965
X1.453 Y2.848 Z-1.966
X1.451 Y2.844 Z-1.968
X1.452 Y2.841 Z-1.969
X1.456 Y2.839 Z-1.971
X1.461 Y2.844 Z-1.973
X1.456 Y2.849 Z-1.976
X1.453 Y2.848 Z-1.977
X1.451 Y2.844 Z-1.979
X1.452 Y2.841 Z-1.98
X1.456 Y2.839 Z-1.982
X1.461 Y2.844 Z-1.985
X1.456 Y2.849 Z-1.988
X1.453 Y2.848 Z-1.989
X1.451 Y2.844 Z-1.991
X1.452 Y2.841 Z-1.992
X1.456 Y2.839 Z-1.993
X1.461 Y2.844 Z-1.996
X1.456 Y2.849 Z-1.999
X1.453 Y2.848 Z-2
X1.456 Y2.839
Y2.849
X1.453 Y2.848
X1.451 Y2.844 Z-2.002
X1.456 Y2.839 Z-2.005
X1.461 Y2.844 Z-2.008
X1.46 Y2.845
X1.456 Y2.849 Z-2.011
X1.453 Y2.848
X1.451 Y2.844 Z-2.013
X1.456 Y2.839 Z-2.016
X1.461 Y2.844 Z-2.019
X1.46 Y2.845 Z-2.02
X1.456 Y2.849 Z-2.022
X1.453 Y2.848 Z-2.023
X1.451 Y2.844 Z-2.025
X1.456 Y2.839 Z-2.028
X1.461 Y2.844 Z-2.031
X1.46 Y2.845
X1.456 Y2.849 Z-2.033
X1.453 Y2.848 Z-2.034
X1.451 Y2.844 Z-2.036
X1.456 Y2.839 Z-2.039
X1.461 Y2.844 Z-2.042
X1.46 Y2.845
X1.456 Y2.849 Z-2.045
X1.453 Y2.848 Z-2.046
X1.451 Y2.844 Z-2.048
X1.456 Y2.839 Z-2.051
X1.461 Y2.844 Z-2.054
X1.46 Y2.845
X1.456 Y2.849 Z-2.056
X1.453 Y2.848 Z-2.057
X1.451 Y2.844 Z-2.059
X1.456 Y2.839 Z-2.062
X1.461 Y2.844 Z-2.065
X1.46 Y2.845
X1.456 Y2.849 Z-2.068
X1.453 Y2.848 Z-2.069
X1.451 Y2.844 Z-2.071
X1.456 Y2.839 Z-2.074
X1.461 Y2.844 Z-2.076
X1.46 Y2.845 Z-2.077
X1.456 Y2.849 Z-2.079
X1.453 Y2.848 Z-2.08
X1.451 Y2.844 Z-2.082
X1.456 Y2.839 Z-2.085
X1.461 Y2.844 Z-2.088
X1.46 Y2.845
X1.456 Y2.849 Z-2.091
X1.453 Y2.848 Z-2.092
X1.451 Y2.844 Z-2.094
X1.456 Y2.839 Z-2.096
X1.461 Y2.844 Z-2.099
X1.46 Y2.845 Z-2.1
X1.456 Y2.849 Z-2.102
X1.453 Y2.848 Z-2.103
X1.451 Y2.844 Z-2.105
X1.456 Y2.839 Z-2.108
X1.461 Y2.844 Z-2.111
X1.46 Y2.845
X1.456 Y2.849 Z-2.114
X1.453 Y2.848
X1.451 Y2.844 Z-2.116
X1.456 Y2.839 Z-2.119
X1.461 Y2.844 Z-2.122
X1.46 Y2.845 Z-2.123
X1.456 Y2.849 Z-2.125
X1.453 Y2.848 Z-2.126
X1.451 Y2.844 Z-2.128
X1.456 Y2.839 Z-2.131
X1.461 Y2.844 Z-2.134
X1.46 Y2.845
X1.456 Y2.849 Z-2.136
X1.453 Y2.848 Z-2.137
X1.451 Y2.844 Z-2.139
X1.456 Y2.839 Z-2.142
X1.461 Y2.844 Z-2.145
X1.46 Y2.845
X1.456 Y2.849 Z-2.148
X1.453 Y2.848 Z-2.149
X1.451 Y2.844 Z-2.151
X1.456 Y2.839 Z-2.154
X1.461 Y2.844 Z-2.156
X1.46 Y2.845 Z-2.157
X1.456 Y2.849 Z-2.159
X1.453 Y2.848 Z-2.16
X1.451 Y2.844 Z-2.162
X1.456 Y2.839 Z-2.165
X1.461 Y2.844 Z-2.168
X1.46 Y2.845
X1.456 Y2.849 Z-2.171
X1.453 Y2.848 Z-2.172
X1.451 Y2.844 Z-2.174
X1.456 Y2.839 Z-2.176
X1.461 Y2.844 Z-2.179
X1.46 Y2.845 Z-2.18
X1.456 Y2.849 Z-2.182
X1.453 Y2.848 Z-2.183
X1.451 Y2.844 Z-2.185
X1.456 Y2.839 Z-2.188
X1.461 Y2.844 Z-2.191
X1.46 Y2.845
X1.456 Y2.849 Z-2.194
X1.453 Y2.848
X1.451 Y2.844 Z-2.196
X1.456 Y2.839 Z-2.199
X1.461 Y2.844 Z-2.202
X1.46 Y2.845 Z-2.203
X1.456 Y2.849 Z-2.205
X1.453 Y2.848 Z-2.206
X1.451 Y2.844 Z-2.208
X1.456 Y2.839 Z-2.211
X1.461 Y2.844 Z-2.214
X1.46 Y2.845
X1.456 Y2.849 Z-2.216
X1.453 Y2.848 Z-2.217
X1.451 Y2.844 Z-2.219
X1.456 Y2.839 Z-2.222
X1.461 Y2.844 Z-2.225
X1.46 Y2.845
X1.456 Y2.849 Z-2.228
X1.453 Y2.848 Z-2.229
X1.451 Y2.844 Z-2.231
X1.456 Y2.839 Z-2.234
X1.461 Y2.844 Z-2.237
X1.46 Y2.845
X1.456 Y2.849 Z-2.239
X1.453 Y2.848 Z-2.24
X1.451 Y2.844 Z-2.242
X1.456 Y2.839 Z-2.245
X1.461 Y2.844 Z-2.248
X1.46 Y2.845
X1.456 Y2.849 Z-2.251
X1.453 Y2.848 Z-2.252
X1.451 Y2.844 Z-2.254
X1.456 Y2.839 Z-2.257
X1.461 Y2.844 Z-2.259
X1.46 Y2.845 Z-2.26
X1.456 Y2.849 Z-2.262
X1.453 Y2.848 Z-2.263
X1.451 Y2.844 Z-2.265
X1.456 Y2.839 Z-2.268
X1.461 Y2.844 Z-2.271
X1.46 Y2.845
X1.456 Y2.849 Z-2.274
X1.453 Y2.848 Z-2.275
X1.451 Y2.844 Z-2.277
X1.456 Y2.839 Z-2.279
X1.461 Y2.844 Z-2.282
X1.46 Y2.845 Z-2.283
X1.456 Y2.849 Z-2.285
X1.453 Y2.848 Z-2.286
X1.451 Y2.844 Z-2.288
X1.456 Y2.839 Z-2.291
X1.461 Y2.844 Z-2.294
X1.46 Y2.845
X1.456 Y2.849 Z-2.297
X1.453 Y2.848
X1.451 Y2.844 Z-2.299
X1.456 Y2.839 Z-2.302
X1.461 Y2.844 Z-2.305
X1.46 Y2.845 Z-2.306
X1.456 Y2.849 Z-2.308
X1.453 Y2.848 Z-2.309
X1.451 Y2.844 Z-2.311
X1.456 Y2.839 Z-2.314
X1.461 Y2.844 Z-2.317
X1.46 Y2.845
X1.456 Y2.849 Z-2.319
X1.453 Y2.848 Z-2.32
X1.451 Y2.844 Z-2.322
X1.456 Y2.839 Z-2.325
X1.461 Y2.844 Z-2.328
X1.46 Y2.845
X1.456 Y2.849 Z-2.331
X1.453 Y2.848 Z-2.332
X1.451 Y2.844 Z-2.334
X1.456 Y2.839 Z-2.337
X1.461 Y2.844 Z-2.339
X1.46 Y2.845 Z-2.34
X1.456 Y2.849 Z-2.342
X1.453 Y2.848 Z-2.343
X1.451 Y2.844 Z-2.345
X1.456 Y2.839 Z-2.348
X1.461 Y2.844 Z-2.351
X1.46 Y2.845
X1.456 Y2.849 Z-2.354
X1.453 Y2.848 Z-2.355
X1.451 Y2.844 Z-2.357
X1.456 Y2.839 Z-2.359
X1.461 Y2.844 Z-2.362
X1.46 Y2.845 Z-2.363
X1.456 Y2.849 Z-2.365
X1.453 Y2.848 Z-2.366
X1.451 Y2.844 Z-2.368
X1.456 Y2.839 Z-2.371
X1.461 Y2.844 Z-2.374
X1.46 Y2.845
X1.456 Y2.849 Z-2.377
X1.453 Y2.848
X1.451 Y2.844 Z-2.379
X1.456 Y2.839 Z-2.382
X1.461 Y2.844 Z-2.385
X1.46 Y2.845 Z-2.386
X1.456 Y2.849 Z-2.388
X1.453 Y2.848 Z-2.389
X1.451 Y2.844 Z-2.391
X1.456 Y2.839 Z-2.394
X1.461 Y2.844 Z-2.397
X1.46 Y2.845
X1.456 Y2.849 Z-2.4
X1.453 Y2.848
X1.451 Y2.844 Z-2.402
X1.456 Y2.839 Z-2.405
X1.461 Y2.844 Z-2.408
X1.46 Y2.845
X1.456 Y2.849 Z-2.411
X1.453 Y2.848 Z-2.412
X1.451 Y2.844 Z-2.414
X1.456 Y2.839 Z-2.417
X1.461 Y2.844 Z-2.42
X1.46 Y2.845
X1.456 Y2.849 Z-2.422
X1.453 Y2.848 Z-2.423
X1.451 Y2.844 Z-2.425
X1.456 Y2.839 Z-2.428
X1.461 Y2.844 Z-2.431
X1.46 Y2.845
X1.456 Y2.849 Z-2.434
X1.453 Y2.848 Z-2.435
X1.451 Y2.844 Z-2.437
X1.456 Y2.839 Z-2.44
X1.461 Y2.844 Z-2.442
X1.46 Y2.845 Z-2.443
X1.456 Y2.849 Z-2.445
X1.453 Y2.848 Z-2.446
X1.451 Y2.844 Z-2.448
X1.456 Y2.839 Z-2.451
X1.461 Y2.844 Z-2.454
X1.46 Y2.845
X1.456 Y2.849 Z-2.457
X1.453 Y2.848 Z-2.458
X1.451 Y2.844 Z-2.46
X1.456 Y2.839 Z-2.462
X1.461 Y2.844 Z-2.465
X1.46 Y2.845 Z-2.466
X1.456 Y2.849 Z-2.468
X1.453 Y2.848 Z-2.469
X1.451 Y2.844 Z-2.471
X1.456 Y2.839 Z-2.474
X1.461 Y2.844 Z-2.477
X1.46 Y2.845
X1.456 Y2.849 Z-2.48
X1.453 Y2.848
X1.451 Y2.844 Z-2.482
X1.456 Y2.839 Z-2.485
X1.461 Y2.844 Z-2.488
X1.46 Y2.845 Z-2.489
X1.456 Y2.849 Z-2.491
X1.453 Y2.848 Z-2.492
X1.451 Y2.844 Z-2.494
X1.456 Y2.839 Z-2.497
X1.461 Y2.844 Z-2.5
X1.46 Y2.845
X1.451 Y2.844
X1.461
X1.46 Y2.845
X1.456 Y2.849 Z-2.502
X1.451 Y2.844 Z-2.505
X1.456 Y2.839 Z-2.508
X1.461 Y2.844 Z-2.511
X1.46 Y2.845
X1.456 Y2.849 Z-2.514
X1.451 Y2.844 Z-2.517
X1.456 Y2.839 Z-2.52
X1.461 Y2.844 Z-2.522
X1.46 Y2.845 Z-2.523
X1.456 Y2.849 Z-2.525
X1.451 Y2.844 Z-2.528
X1.456 Y2.839 Z-2.531
X1.461 Y2.844 Z-2.534
X1.46 Y2.845
X1.456 Y2.849 Z-2.537
X1.451 Y2.844 Z-2.54
X1.456 Y2.839 Z-2.542
X1.461 Y2.844 Z-2.545
X1.46 Y2.845 Z-2.546
X1.456 Y2.849 Z-2.548
X1.451 Y2.844 Z-2.551
X1.456 Y2.839 Z-2.554
X1.461 Y2.844 Z-2.557
X1.46 Y2.845
X1.456 Y2.849 Z-2.56
X1.451 Y2.844 Z-2.562
X1.456 Y2.839 Z-2.565
X1.461 Y2.844 Z-2.568
X1.46 Y2.845 Z-2.569
X1.456 Y2.849 Z-2.571
X1.451 Y2.844 Z-2.574
X1.456 Y2.839 Z-2.577
X1.461 Y2.844 Z-2.58
X1.46 Y2.845
X1.456 Y2.849 Z-2.583
X1.451 Y2.844 Z-2.585
X1.456 Y2.839 Z-2.588
X1.461 Y2.844 Z-2.591
X1.46 Y2.845 Z-2.592
X1.456 Y2.849 Z-2.594
X1.451 Y2.844 Z-2.597
X1.456 Y2.839 Z-2.6
X1.461 Y2.844 Z-2.603
X1.46 Y2.845
X1.456 Y2.849 Z-2.605
X1.451 Y2.844 Z-2.608
X1.456 Y2.839 Z-2.611
X1.461 Y2.844 Z-2.614
X1.46 Y2.845
X1.456 Y2.849 Z-2.617
X1.451 Y2.844 Z-2.62
X1.456 Y2.839 Z-2.623
X1.461 Y2.844 Z-2.625
X1.46 Y2.845 Z-2.626
X1.456 Y2.849 Z-2.628
X1.451 Y2.844 Z-2.631
X1.456 Y2.839 Z-2.634
X1.461 Y2.844 Z-2.637
X1.46 Y2.845
X1.456 Y2.849 Z-2.64
X1.451 Y2.844 Z-2.643
X1.456 Y2.839 Z-2.645
X1.461 Y2.844 Z-2.648
X1.46 Y2.845 Z-2.649
X1.456 Y2.849 Z-2.651
X1.451 Y2.844 Z-2.654
X1.456 Y2.839 Z-2.657
X1.461 Y2.844 Z-2.66
X1.46 Y2.845
X1.456 Y2.849 Z-2.663
X1.451 Y2.844 Z-2.665
X1.456 Y2.839 Z-2.668
X1.461 Y2.844 Z-2.671
X1.46 Y2.845 Z-2.672
X1.456 Y2.849 Z-2.674
X1.451 Y2.844 Z-2.677
X1.456 Y2.839 Z-2.68
X1.461 Y2.844 Z-2.683
X1.46 Y2.845
X1.456 Y2.849 Z-2.685
X1.451 Y2.844 Z-2.688
X1.456 Y2.839 Z-2.691
X1.461 Y2.844 Z-2.694
X1.46 Y2.845
X1.456 Y2.849 Z-2.697
X1.451 Y2.844 Z-2.7
X1.456 Y2.839 Z-2.703
X1.461 Y2.844 Z-2.705
X1.46 Y2.845 Z-2.706
X1.456 Y2.849 Z-2.708
X1.451 Y2.844 Z-2.711
X1.456 Y2.839 Z-2.714
X1.461 Y2.844 Z-2.717
X1.46 Y2.845
X1.456 Y2.849 Z-2.72
X1.451 Y2.844 Z-2.723
X1.456 Y2.839 Z-2.725
X1.461 Y2.844 Z-2.728
X1.46 Y2.845 Z-2.729
X1.456 Y2.849 Z-2.731
X1.451 Y2.844 Z-2.734
X1.456 Y2.839 Z-2.737
X1.461 Y2.844 Z-2.74
X1.46 Y2.845
X1.456 Y2.849 Z-2.743
X1.451 Y2.844 Z-2.746
X1.456 Y2.839 Z-2.748
X1.461 Y2.844 Z-2.751
X1.46 Y2.845 Z-2.752
X1.456 Y2.849 Z-2.754
X1.451 Y2.844 Z-2.757
X1.456 Y2.839 Z-2.76
X1.461 Y2.844 Z-2.763
X1.46 Y2.845
X1.456 Y2.849 Z-2.766
X1.451 Y2.844 Z-2.768
X1.456 Y2.839 Z-2.771
X1.461 Y2.844 Z-2.774
X1.46 Y2.845 Z-2.775
X1.456 Y2.849 Z-2.777
X1.451 Y2.844 Z-2.78
X1.456 Y2.839 Z-2.783
X1.461 Y2.844 Z-2.786
X1.46 Y2.845
X1.456 Y2.849 Z-2.788
X1.451 Y2.844 Z-2.791
X1.456 Y2.839 Z-2.794
X1.461 Y2.844 Z-2.797
X1.46 Y2.845
X1.456 Y2.849 Z-2.8
X1.451 Y2.844 Z-2.803
X1.456 Y2.839 Z-2.806
X1.461 Y2.844 Z-2.808
X1.46 Y2.845 Z-2.809
X1.456 Y2.849 Z-2.811
X1.451 Y2.844 Z-2.814
X1.456 Y2.839 Z-2.817
X1.461 Y2.844 Z-2.82
X1.46 Y2.845
X1.456 Y2.849 Z-2.823
X1.451 Y2.844 Z-2.826
X1.456 Y2.839 Z-2.828
X1.461 Y2.844 Z-2.831
X1.46 Y2.845 Z-2.832
X1.456 Y2.849 Z-2.834
X1.451 Y2.844 Z-2.837
X1.456 Y2.839 Z-2.84
X1.461 Y2.844 Z-2.843
X1.46 Y2.845
X1.456 Y2.849 Z-2.846
X1.451 Y2.844 Z-2.848
X1.456 Y2.839 Z-2.851
X1.461 Y2.844 Z-2.854
X1.46 Y2.845 Z-2.855
X1.456 Y2.849 Z-2.857
X1.451 Y2.844 Z-2.86
X1.456 Y2.839 Z-2.863
X1.461 Y2.844 Z-2.866
X1.46 Y2.845
X1.456 Y2.849 Z-2.868
X1.451 Y2.844 Z-2.871
X1.456 Y2.839 Z-2.874
X1.461 Y2.844 Z-2.877
X1.46 Y2.845
X1.456 Y2.849 Z-2.88
X1.451 Y2.844 Z-2.883
X1.456 Y2.839 Z-2.886
X1.461 Y2.844 Z-2.888
X1.46 Y2.845 Z-2.889
X1.456 Y2.849 Z-2.891
X1.451 Y2.844 Z-2.894
X1.456 Y2.839 Z-2.897
X1.461 Y2.844 Z-2.9
X1.46 Y2.845
X1.456 Y2.849 Z-2.903
X1.451 Y2.844 Z-2.906
X1.456 Y2.839 Z-2.908
X1.461 Y2.844 Z-2.911
X1.46 Y2.845 Z-2.912
X1.456 Y2.849 Z-2.914
X1.451 Y2.844 Z-2.917
X1.456 Y2.839 Z-2.92
X1.461 Y2.844 Z-2.923
X1.46 Y2.845
X1.456 Y2.849 Z-2.926
X1.451 Y2.844 Z-2.929
X1.456 Y2.839 Z-2.931
X1.461 Y2.844 Z-2.934
X1.46 Y2.845 Z-2.935
X1.456 Y2.849 Z-2.937
X1.451 Y2.844 Z-2.94
X1.456 Y2.839 Z-2.943
X1.461 Y2.844 Z-2.946
X1.46 Y2.845
X1.456 Y2.849 Z-2.949
X1.451 Y2.844 Z-2.951
X1.456 Y2.839 Z-2.954
X1.461 Y2.844 Z-2.957
X1.46 Y2.845 Z-2.958
X1.456 Y2.849 Z-2.96
X1.451 Y2.844 Z-2.963
X1.456 Y2.839 Z-2.966
X1.461 Y2.844 Z-2.969
X1.46 Y2.845
X1.456 Y2.849 Z-2.971
X1.451 Y2.844 Z-2.974
X1.456 Y2.839 Z-2.977
X1.461 Y2.844 Z-2.98
X1.46 Y2.845
X1.456 Y2.849 Z-2.983
X1.451 Y2.844 Z-2.986
X1.456 Y2.839 Z-2.989
X1.461 Y2.844 Z-2.991
X1.46 Y2.845 Z-2.992
X1.456 Y2.849 Z-2.994
X1.451 Y2.844 Z-2.997
X1.456 Y2.839 Z-3
Y2.849
Y2.839
X1.461 Y2.844 Z-3.003
X1.456 Y2.849 Z-3.006
X1.451 Y2.845 Z-3.008
Y2.844 Z-3.009
X1.456 Y2.839 Z-3.011
X1.461 Y2.844 Z-3.014
X1.456 Y2.849 Z-3.017
X1.451 Y2.845 Z-3.02
Y2.844
X1.456 Y2.839 Z-3.023
X1.461 Y2.844 Z-3.026
X1.456 Y2.849 Z-3.029
X1.451 Y2.845 Z-3.031
Y2.844
X1.456 Y2.839 Z-3.034
X1.461 Y2.844 Z-3.037
X1.456 Y2.849 Z-3.04
X1.451 Y2.845 Z-3.042
Y2.844 Z-3.043
X1.456 Y2.839 Z-3.046
X1.461 Y2.844 Z-3.049
X1.456 Y2.849 Z-3.051
X1.451 Y2.845 Z-3.054
Y2.844
X1.456 Y2.839 Z-3.057
X1.461 Y2.844 Z-3.06
X1.456 Y2.849 Z-3.063
X1.451 Y2.845 Z-3.065
Y2.844 Z-3.066
X1.456 Y2.839 Z-3.069
X1.461 Y2.844 Z-3.071
X1.456 Y2.849 Z-3.074
X1.451 Y2.845 Z-3.077
Y2.844
X1.456 Y2.839 Z-3.08
X1.461 Y2.844 Z-3.083
X1.456 Y2.849 Z-3.086
X1.451 Y2.845 Z-3.088
Y2.844 Z-3.089
X1.456 Y2.839 Z-3.092
X1.461 Y2.844 Z-3.094
X1.456 Y2.849 Z-3.097
X1.451 Y2.845 Z-3.1
Y2.844
X1.456 Y2.839 Z-3.103
X1.461 Y2.844 Z-3.106
X1.456 Y2.849 Z-3.109
X1.451 Y2.845 Z-3.111
Y2.844 Z-3.112
X1.456 Y2.839 Z-3.114
X1.461 Y2.844 Z-3.117
X1.456 Y2.849 Z-3.12
X1.451 Y2.845 Z-3.123
Y2.844
X1.456 Y2.839 Z-3.126
X1.461 Y2.844 Z-3.129
X1.456 Y2.849 Z-3.132
X1.451 Y2.845 Z-3.134
Y2.844
X1.456 Y2.839 Z-3.137
X1.461 Y2.844 Z-3.14
X1.456 Y2.849 Z-3.143
X1.451 Y2.845 Z-3.145
Y2.844 Z-3.146
X1.456 Y2.839 Z-3.149
X1.461 Y2.844 Z-3.152
X1.456 Y2.849 Z-3.154
X1.451 Y2.845 Z-3.157
Y2.844
X1.456 Y2.839 Z-3.16
X1.461 Y2.844 Z-3.163
X1.456 Y2.849 Z-3.166
X1.451 Y2.845 Z-3.168
Y2.844 Z-3.169
X1.456 Y2.839 Z-3.172
X1.461 Y2.844 Z-3.174
X1.456 Y2.849 Z-3.177
X1.451 Y2.845 Z-3.18
Y2.844
X1.456 Y2.839 Z-3.183
X1.461 Y2.844 Z-3.186
X1.456 Y2.849 Z-3.189
X1.451 Y2.845 Z-3.191
Y2.844 Z-3.192
X1.456 Y2.839 Z-3.194
X1.461 Y2.844 Z-3.197
X1.456 Y2.849 Z-3.2
X1.451 Y2.845 Z-3.203
Y2.844
X1.456 Y2.839 Z-3.206
X1.461 Y2.844 Z-3.209
X1.456 Y2.849 Z-3.212
X1.451 Y2.845 Z-3.214
Y2.844
X1.456 Y2.839 Z-3.217
X1.461 Y2.844 Z-3.22
X1.456 Y2.849 Z-3.223
X1.451 Y2.845 Z-3.225
Y2.844 Z-3.226
X1.456 Y2.839 Z-3.229
X1.461 Y2.844 Z-3.232
X1.456 Y2.849 Z-3.234
X1.451 Y2.845 Z-3.237
Y2.844
X1.456 Y2.839 Z-3.24
X1.461 Y2.844 Z-3.243
X1.456 Y2.849 Z-3.246
X1.451 Y2.845 Z-3.248
Y2.844 Z-3.249
X1.456 Y2.839 Z-3.252
X1.461 Y2.844 Z-3.254
