(1001)
(T5  D=1.5 CR=0 - ZMIN=-7.6 - flat end mill)
G90 G94
G17
G21

(2D Contour1)
T5
S5000 M3
G54
M8
G0 X2.25 Y0
Z6
Z2
G1 Z1.5 F333.3
Z-0.5
G3 X-2.25 Y0 I-2.25 J0 F1000
X2.25 Y0 I2.25 J0
G1 Z-1 F333.3
G3 X-2.25 Y0 I-2.25 J0 F1000
X2.25 Y0 I2.25 J0
G1 Z-1.5 F333.3
G3 X-2.25 Y0 I-2.25 J0 F1000
X2.25 Y0 I2.25 J0
G1 Z-2 F333.3
G3 X-2.25 Y0 I-2.25 J0 F1000
X2.25 Y0 I2.25 J0
G1 Z-2.5 F333.3
G3 X-2.25 Y0 I-2.25 J0 F1000
X2.25 Y0 I2.25 J0
G1 Z-3 F333.3
G3 X-2.25 Y0 I-2.25 J0 F1000
X2.25 Y0 I2.25 J0
G1 Z-3.5 F333.3
G3 X-2.25 Y0 I-2.25 J0 F1000
X2.25 Y0 I2.25 J0
G1 Z-4 F333.3
G3 X-2.25 Y0 I-2.25 J0 F1000
X2.25 Y0 I2.25 J0
G1 Z-4.5 F333.3
G3 X-2.25 Y0 I-2.25 J0 F1000
X2.25 Y0 I2.25 J0
G1 Z-5 F333.3
G3 X-2.25 Y0 I-2.25 J0 F1000
X2.25 Y0 I2.25 J0
G1 Z-5.5 F333.3
G3 X-2.25 Y0 I-2.25 J0 F1000
X2.25 Y0 I2.25 J0
G1 Z-6 F333.3
G3 X-2.25 Y0 I-2.25 J0 F1000
X2.25 Y0 I2.25 J0
G1 Z-6.5 F333.3
G3 X-2.25 Y0 I-2.25 J0 F1000
X2.25 Y0 I2.25 J0
G1 Z-7 F333.3
G3 X-2.25 Y0 I-2.25 J0 F1000
X2.25 Y0 I2.25 J0
G1 Z-7.3 F333.3
G3 X-2.25 Y0 I-2.25 J0 F1000
X2.25 Y0 I2.25 J0
G1 Z-7.6 F333.3
G3 X-2.25 Y0 I-2.25 J0 F1000
X2.25 Y0 I2.25 J0
G0 Z6
M9
M5
M30
