(1001)
(T4  D=3 CR=0 - ZMIN=-7.6 - flat end mill)
G90 G94
G17
G21

(2D Contour1)
T4
S15000 M3
G54
M8
G0 X-1.416 Y11.943
Z6
Z2
G1 Z1.5 F333.3
Z-0.5
X-1.391 Y12.042 F1000
X-1.351 Y12.184
X-1.32 Y12.28
X-1.268 Y12.424
X-1.235 Y12.508
X-1.171 Y12.655
X-1.138 Y12.727
X-1.065 Y12.875
X-1.032 Y12.939
X-0.951 Y13.086
X-0.917 Y13.142
X-0.83 Y13.285
X-0.796 Y13.338
X-0.704 Y13.474
X-0.668 Y13.526
X-0.575 Y13.652
X-0.535 Y13.703
X-0.521 Y13.721
X-0.532 Y13.823
X-0.54 Y13.946
X-0.544 Y14.098
X-0.54 Y14.225
X-0.536 Y14.305
X-0.527 Y14.385
X-0.509 Y14.516
X-0.495 Y14.597
X-0.478 Y14.677
X-0.445 Y14.808
X-0.423 Y14.885
X-0.398 Y14.961
X-0.35 Y15.091
X-0.293 Y15.226
X-0.23 Y15.355
X-0.17 Y15.467
X-0.095 Y15.595
X-0.039 Y15.682
X0.048 Y15.808
X0.094 Y15.872
X0.19 Y15.997
X0.224 Y16.039
X0.327 Y16.163
X0.345 Y16.185
X0.452 Y16.31
X0.455 Y16.314
X0.559 Y16.433
X0.649 Y16.54
X0.725 Y16.633
X0.787 Y16.717
X0.84 Y16.795
X0.885 Y16.87
X0.927 Y16.946
X0.966 Y17.029
X1.004 Y17.122
X1.043 Y17.228
X1.083 Y17.349
X1.124 Y17.485
X1.168 Y17.638
X1.213 Y17.804
X1.214 Y17.806
X1.262 Y17.979
X1.265 Y17.992
X1.315 Y18.165
X1.321 Y18.187
X1.374 Y18.361
X1.384 Y18.392
X1.44 Y18.564
X1.453 Y18.602
X1.513 Y18.771
X1.529 Y18.814
X1.594 Y18.981
X1.614 Y19.029
X1.684 Y19.191
X1.708 Y19.242
X1.782 Y19.4
X1.81 Y19.454
X1.89 Y19.605
X1.921 Y19.661
X2.005 Y19.806
X2.039 Y19.862
X2.129 Y20.001
X2.165 Y20.054
X2.259 Y20.187
X2.296 Y20.238
X2.394 Y20.364
X2.43 Y20.409
X2.531 Y20.53
X2.563 Y20.568
X2.667 Y20.685
X2.694 Y20.713
X2.801 Y20.827
X2.818 Y20.845
X2.927 Y20.958
X2.933 Y20.964
X3.043 Y21.076
X3.147 Y21.182
X3.243 Y21.283
X3.333 Y21.382
X3.419 Y21.483
X3.503 Y21.588
X3.588 Y21.701
X3.675 Y21.826
X3.764 Y21.963
X3.856 Y22.115
X3.951 Y22.28
X4.048 Y22.457
X4.146 Y22.645
X4.246 Y22.839
X4.346 Y23.039
X4.446 Y23.237
X4.448 Y23.242
X4.545 Y23.433
X4.551 Y23.446
X4.645 Y23.626
X4.656 Y23.647
X4.746 Y23.814
X4.763 Y23.844
X4.849 Y23.995
X4.872 Y24.036
X4.955 Y24.17
X4.987 Y24.221
X5.065 Y24.338
X5.106 Y24.397
X5.181 Y24.498
X5.23 Y24.56
X5.301 Y24.646
X5.352 Y24.705
X5.419 Y24.779
X5.463 Y24.825
X5.527 Y24.889
X5.552 Y24.914
X5.611 Y24.97
X5.647 Y25.004
X5.66 Y25.028
X5.692 Y25.088
X5.736 Y25.177
X5.791 Y25.291
X5.794 Y25.296
X5.855 Y25.423
X5.865 Y25.443
X5.931 Y25.574
X5.949 Y25.607
X6.019 Y25.738
X6.045 Y25.784
X6.12 Y25.914
X6.154 Y25.968
X6.234 Y26.094
X6.277 Y26.156
X6.362 Y26.275
X6.412 Y26.342
X6.501 Y26.452
X6.556 Y26.517
X6.647 Y26.617
X6.705 Y26.678
X6.796 Y26.768
X6.85 Y26.819
X6.939 Y26.9
X6.983 Y26.938
X7 Y26.952
X7.013 Y27.006
X7.04 Y27.113
X7.069 Y27.213
X7.107 Y27.331
X7.144 Y27.431
X7.196 Y27.558
X7.237 Y27.651
X7.304 Y27.787
X7.346 Y27.867
X7.427 Y28.011
X7.468 Y28.078
X7.563 Y28.228
X7.6 Y28.283
X7.708 Y28.437
X7.74 Y28.481
X7.859 Y28.638
X7.887 Y28.674
X8.014 Y28.832
X8.037 Y28.86
X8.169 Y29.016
X8.188 Y29.037
X8.322 Y29.19
X8.335 Y29.205
X8.469 Y29.352
X8.478 Y29.362
X8.607 Y29.504
X8.61 Y29.507
X8.733 Y29.639
X8.842 Y29.758
X8.935 Y29.861
X9.011 Y29.948
X9.07 Y30.018
X9.115 Y30.075
X9.148 Y30.12
X9.176 Y30.162
X9.203 Y30.206
X9.234 Y30.259
X9.272 Y30.329
X9.318 Y30.416
X9.371 Y30.517
X9.372 Y30.52
X9.43 Y30.632
X9.436 Y30.643
X9.499 Y30.761
X9.506 Y30.774
X9.574 Y30.899
X9.583 Y30.915
X9.656 Y31.045
X9.667 Y31.063
X9.745 Y31.198
X9.756 Y31.217
X9.838 Y31.354
X9.85 Y31.374
X9.936 Y31.512
X9.95 Y31.534
X10.038 Y31.672
X10.053 Y31.694
X10.143 Y31.829
X10.16 Y31.854
X10.251 Y31.985
X10.271 Y32.013
X10.362 Y32.136
X10.386 Y32.168
X10.476 Y32.284
X10.505 Y32.321
X10.593 Y32.427
X10.629 Y32.469
X10.715 Y32.565
X10.762 Y32.615
X10.845 Y32.701
X10.903 Y32.757
X10.983 Y32.831
X11.062 Y32.898
X11.139 Y32.96
X11.242 Y33.035
X11.315 Y33.084
X11.384 Y33.127
X11.455 Y33.167
X11.524 Y33.203
X11.618 Y33.248
X11.714 Y33.286
X11.716 Y33.287
X11.793 Y33.339
X11.922 Y33.43
X12.058 Y33.531
X12.2 Y33.641
X12.349 Y33.759
X12.505 Y33.886
X12.667 Y34.022
X12.836 Y34.166
X13.012 Y34.318
X13.194 Y34.475
X13.198 Y34.478
X13.384 Y34.637
X13.393 Y34.645
X13.582 Y34.804
X13.596 Y34.816
X13.787 Y34.973
X13.808 Y34.99
X14.001 Y35.143
X14.029 Y35.164
X14.224 Y35.312
X14.258 Y35.336
X14.454 Y35.476
X14.493 Y35.503
X14.69 Y35.634
X14.736 Y35.664
X14.934 Y35.785
X14.983 Y35.814
X15.179 Y35.924
X15.231 Y35.952
X15.426 Y36.052
X15.475 Y36.076
X15.668 Y36.167
X15.708 Y36.185
X15.899 Y36.267
X15.927 Y36.279
X16.113 Y36.355
X16.121 Y36.359
X16.295 Y36.428
X16.441 Y36.489
X16.554 Y36.54
X16.636 Y36.582
X16.692 Y36.615
X16.733 Y36.644
X16.771 Y36.676
X16.817 Y36.723
X16.879 Y36.794
X16.958 Y36.896
X17.054 Y37.03
X17.168 Y37.192
X17.17 Y37.195
X17.293 Y37.37
X17.309 Y37.392
X17.438 Y37.567
X17.466 Y37.604
X17.601 Y37.777
X17.637 Y37.821
X17.779 Y37.99
X17.823 Y38.039
X17.971 Y38.2
X18.015 Y38.245
X18.167 Y38.398
X18.205 Y38.434
X18.358 Y38.576
X18.369 Y38.586
X18.359 Y38.611
X18.316 Y38.734
X18.266 Y38.898
X18.242 Y38.987
X18.223 Y39.078
X18.194 Y39.247
X18.179 Y39.357
X18.172 Y39.468
X18.168 Y39.642
X18.17 Y39.758
X18.18 Y39.873
X18.204 Y40.051
X18.222 Y40.158
X18.247 Y40.263
X18.298 Y40.442
X18.325 Y40.527
X18.356 Y40.61
X18.432 Y40.791
X18.49 Y40.915
X18.585 Y41.097
X18.631 Y41.177
X18.741 Y41.359
X18.77 Y41.404
X18.889 Y41.585
X18.898 Y41.598
X19.012 Y41.767
X19.052 Y41.829
X19.045 Y41.836
X18.914 Y41.968
X18.891 Y41.991
X18.758 Y42.131
X18.71 Y42.183
X18.583 Y42.33
X18.517 Y42.412
X18.4 Y42.568
X18.324 Y42.68
X18.221 Y42.846
X18.181 Y42.914
X18.145 Y42.984
X18.059 Y43.162
X18.025 Y43.238
X17.995 Y43.315
X17.929 Y43.505
X17.904 Y43.581
X17.884 Y43.659
X17.836 Y43.86
X17.81 Y43.998
X17.781 Y44.21
X17.77 Y44.324
X17.756 Y44.544
X17.754 Y44.628
X17.753 Y44.855
Y44.908
X17.761 Y45.138
X17.762 Y45.164
X17.773 Y45.393
X17.782 Y45.605
X17.787 Y45.785
X17.784 Y45.932
X17.776 Y46.048
X17.762 Y46.14
X17.744 Y46.219
X17.72 Y46.298
X17.684 Y46.388
X17.633 Y46.501
X17.564 Y46.639
X17.481 Y46.8
X17.473 Y46.815
X17.388 Y46.985
X17.367 Y47.028
X17.287 Y47.202
X17.257 Y47.272
X17.186 Y47.451
X17.153 Y47.54
X17.092 Y47.725
X17.063 Y47.825
X17.014 Y48.016
X16.992 Y48.119
X16.957 Y48.317
X16.942 Y48.413
X16.919 Y48.617
X16.912 Y48.704
X16.9 Y48.913
X16.898 Y48.987
X16.896 Y49.2
X16.897 Y49.261
X16.904 Y49.476
X16.907 Y49.525
X16.921 Y49.741
X16.924 Y49.781
X16.944 Y49.996
X16.948 Y50.028
X16.972 Y50.241
X16.976 Y50.269
X17.004 Y50.479
X17.008 Y50.507
X17.039 Y50.712
X17.045 Y50.745
X17.08 Y50.946
X17.088 Y50.986
X17.128 Y51.182
X17.139 Y51.232
X17.185 Y51.424
X17.201 Y51.483
X17.254 Y51.67
X17.276 Y51.741
X17.338 Y51.924
X17.366 Y51.999
X17.438 Y52.178
X17.471 Y52.256
X17.554 Y52.433
X17.591 Y52.508
X17.685 Y52.682
X17.723 Y52.749
X17.827 Y52.921
X17.864 Y52.979
X17.977 Y53.15
X18.009 Y53.195
X18.13 Y53.363
X18.155 Y53.396
X18.282 Y53.562
X18.299 Y53.584
X18.429 Y53.747
X18.436 Y53.756
X18.565 Y53.915
X18.685 Y54.064
X18.791 Y54.198
X18.881 Y54.317
X18.956 Y54.421
X19.017 Y54.513
X19.068 Y54.598
X19.116 Y54.685
X19.166 Y54.781
X19.221 Y54.895
X19.283 Y55.023
X19.292 Y55.042
X19.358 Y55.175
X19.379 Y55.216
X19.452 Y55.351
X19.486 Y55.411
X19.568 Y55.548
X19.613 Y55.62
X19.708 Y55.761
X19.764 Y55.838
X19.875 Y55.981
X19.938 Y56.057
X20.066 Y56.203
X20.135 Y56.275
X20.284 Y56.423
X20.355 Y56.489
X20.525 Y56.637
X20.596 Y56.695
X20.789 Y56.843
X20.86 Y56.894
X21.075 Y57.041
X21.144 Y57.085
X21.382 Y57.228
X21.449 Y57.266
X21.709 Y57.405
X21.773 Y57.437
X22.054 Y57.571
X22.114 Y57.598
X22.414 Y57.725
X22.47 Y57.747
X22.787 Y57.866
X22.841 Y57.885
X23.171 Y57.995
X23.221 Y58.011
X23.561 Y58.11
X23.609 Y58.123
X23.954 Y58.212
X24.001 Y58.224
X24.348 Y58.301
X24.394 Y58.311
X24.737 Y58.377
X24.783 Y58.385
X25.119 Y58.438
X25.166 Y58.445
X25.491 Y58.486
X25.541 Y58.492
X25.851 Y58.521
X25.904 Y58.525
X26.195 Y58.542
X26.254 Y58.544
X26.524 Y58.549
X26.59
X26.837 Y58.543
X26.911 Y58.539
X27.135 Y58.522
X27.22 Y58.514
X27.42 Y58.487
X27.513 Y58.472
X27.69 Y58.437
X27.79 Y58.414
X27.947 Y58.372
X28.043 Y58.343
X28.183 Y58.295
X28.265 Y58.265
X28.393 Y58.213
X28.449 Y58.189
X28.568 Y58.134
X28.59 Y58.124
X28.698 Y58.073
X28.78 Y58.035
X28.827 Y58.016
X28.887 Y58.061
X28.988 Y58.143
X29.119 Y58.255
X29.27 Y58.384
X29.29 Y58.401
X29.451 Y58.534
X29.487 Y58.563
X29.66 Y58.697
X29.71 Y58.734
X29.896 Y58.866
X29.955 Y58.906
X30.156 Y59.035
X30.218 Y59.073
X30.435 Y59.198
X30.495 Y59.23
X30.727 Y59.35
X30.783 Y59.378
X31.029 Y59.492
X31.079 Y59.514
X31.339 Y59.624
X31.381 Y59.641
X31.651 Y59.745
X31.684 Y59.757
X31.964 Y59.858
X31.988 Y59.866
X32.275 Y59.964
X32.29 Y59.969
X32.582 Y60.064
X32.589 Y60.067
X32.882 Y60.161
X33.171 Y60.255
X33.451 Y60.347
X33.722 Y60.439
X33.982 Y60.533
X34.235 Y60.628
X34.48 Y60.725
X34.719 Y60.825
X34.956 Y60.928
X35.192 Y61.035
X35.429 Y61.145
X35.669 Y61.258
X35.911 Y61.372
X35.919 Y61.376
X36.161 Y61.488
X36.176 Y61.496
X36.42 Y61.605
X36.442 Y61.615
X36.688 Y61.721
X36.716 Y61.733
X36.967 Y61.835
X37 Y61.848
X37.257 Y61.946
X37.292 Y61.959
X37.556 Y62.051
X37.593 Y62.064
X37.865 Y62.152
X37.9 Y62.163
X38.182 Y62.246
X38.216 Y62.256
X38.508 Y62.335
X38.538 Y62.343
X38.841 Y62.418
X38.868 Y62.424
X39.181 Y62.496
X39.204 Y62.501
X39.528 Y62.571
X39.547 Y62.574
X39.883 Y62.642
X39.897 Y62.644
X40.243 Y62.71
X40.255 Y62.712
X40.61 Y62.777
X40.618 Y62.779
X40.983 Y62.843
X40.989 Y62.844
X41.361 Y62.908
X41.366 Y62.909
X41.744 Y62.973
X41.747 Y62.974
X42.13 Y63.038
X42.133 Y63.039
X42.519 Y63.103
X42.521
X42.908 Y63.167
X42.912 Y63.168
X43.296 Y63.23
X43.303 Y63.231
X43.682 Y63.291
X43.691 Y63.292
X44.063 Y63.348
X44.077 Y63.35
X44.438 Y63.402
X44.455 Y63.404
X44.803 Y63.449
X44.827 Y63.452
X45.158 Y63.49
X45.189 Y63.493
X45.502 Y63.522
X45.541 Y63.525
X45.834 Y63.544
X45.883 Y63.547
X46.154 Y63.556
X46.215
X46.463 Y63.554
X46.535 Y63.552
X46.76 Y63.539
X46.844 Y63.532
X47.047 Y63.509
X47.138 Y63.496
X47.321 Y63.464
X47.409 Y63.446
X47.575 Y63.406
X47.648 Y63.387
X47.801 Y63.343
X47.842 Y63.33
X47.985 Y63.284
X48.099 Y63.247
X48.172 Y63.227
X48.22 Y63.216
X48.265 Y63.21
X48.33 Y63.207
X48.43 Y63.209
X48.572 Y63.221
X48.754 Y63.244
X48.973 Y63.277
X49.221 Y63.319
X49.483 Y63.364
X49.499 Y63.367
X49.761 Y63.409
X49.796 Y63.414
X50.05 Y63.448
X50.107 Y63.455
X50.346 Y63.478
X50.432 Y63.484
X50.652 Y63.493
X50.768
X50.965 Y63.486
X51.119 Y63.472
X51.291 Y63.448
X51.383 Y63.432
X51.474 Y63.41
X51.621 Y63.37
X51.717 Y63.341
X51.811 Y63.305
X51.935 Y63.252
X52.015 Y63.216
X52.091 Y63.176
X52.159 Y63.137
X52.325 Y63.177
X52.352 Y63.183
X52.528 Y63.222
X52.582 Y63.233
X52.761 Y63.265
X52.839 Y63.277
X53.019 Y63.3
X53.115 Y63.309
X53.292 Y63.32
X53.396 Y63.323
X53.57 Y63.322
X53.672 Y63.317
X53.842 Y63.304
X53.936 Y63.294
X54.102 Y63.271
X54.173 Y63.259
X54.336 Y63.229
X54.385 Y63.219
X54.545 Y63.183
X54.567 Y63.178
X54.724 Y63.14
X54.869 Y63.106
X54.999 Y63.079
X55.122 Y63.056
X55.249 Y63.037
X55.389 Y63.022
X55.549 Y63.01
X55.733 Y63.001
X55.946 Y62.996
X56.186 Y62.994
X56.455 Y62.995
X56.751 Y62.997
X57.073 Y63.001
X57.417 Y63.005
X57.781 Y63.01
X58.16 Y63.015
X58.549 Y63.021
X58.946 Y63.028
X59.344 Y63.036
X59.738 Y63.048
X60.123 Y63.062
X60.493 Y63.08
X60.843 Y63.102
X61.167 Y63.13
X61.462 Y63.161
X61.721 Y63.197
X61.941 Y63.235
X62.121 Y63.275
X62.258 Y63.313
X62.359 Y63.348
X62.432 Y63.378
X62.491 Y63.408
X62.554 Y63.444
X62.64 Y63.496
X62.642 Y63.498
X62.741 Y63.558
X62.793 Y63.589
X62.889 Y63.643
X62.996 Y63.697
X63.095 Y63.742
X63.234 Y63.798
X63.34 Y63.834
X63.488 Y63.876
X63.605 Y63.903
X63.733 Y63.927
X63.863 Y63.946
X63.963 Y63.956
X64.108 Y63.967
X64.173 Y63.97
X64.335 Y63.975
X64.376 Y63.976
X64.554
X64.574
X64.768 Y63.974
X64.772
X64.98 Y63.971
X65.196 Y63.969
X65.422
X65.658 Y63.972
X65.906 Y63.978
X66.166 Y63.987
X66.437 Y63.999
X66.719 Y64.013
X67.01 Y64.03
X67.309 Y64.049
X67.614 Y64.069
X67.923 Y64.088
X67.929 Y64.089
X68.238 Y64.107
X68.247
X68.556 Y64.124
X68.567 Y64.125
X68.876 Y64.139
X68.89
X69.197 Y64.151
X69.212
X69.518 Y64.16
X69.533
X69.838 Y64.165
X69.853
X70.156 Y64.167
X70.172
X70.474 Y64.166
X70.487
X70.789 Y64.162
X70.801
X71.102 Y64.156
X71.112
X71.413 Y64.148
X71.423 Y64.147
X71.725 Y64.137
X71.732
X72.035 Y64.126
X72.042 Y64.125
X72.345 Y64.112
X72.352
X72.656 Y64.097
X72.665
X72.969 Y64.081
X72.979 Y64.08
X73.283 Y64.062
X73.298 Y64.061
X73.599 Y64.04
X73.619 Y64.038
X73.918 Y64.013
X73.944 Y64.011
X74.238 Y63.981
X74.275 Y63.977
X74.561 Y63.941
X74.607 Y63.934
X74.884 Y63.891
X74.943 Y63.88
X75.209 Y63.827
X75.28 Y63.811
X75.533 Y63.748
X75.616 Y63.725
X75.853 Y63.651
X75.951 Y63.617
X76.171 Y63.531
X76.279 Y63.484
X76.481 Y63.387
X76.595 Y63.325
X76.778 Y63.217
X76.892 Y63.141
X77.057 Y63.022
X77.162 Y62.939
X77.308 Y62.811
X77.396 Y62.728
X77.526 Y62.595
X77.592 Y62.523
X77.708 Y62.387
X77.747 Y62.339
X77.854 Y62.205
X77.866 Y62.189
X77.901 Y62.143
X77.977 Y62.147
X78.162 Y62.158
X78.179 Y62.159
X78.381 Y62.169
X78.423 Y62.171
X78.635 Y62.176
X78.695
X78.916 Y62.172
X78.987 Y62.169
X79.217 Y62.154
X79.295 Y62.147
X79.534 Y62.119
X79.614 Y62.107
X79.86 Y62.065
X79.938 Y62.049
X80.192 Y61.991
X80.266 Y61.972
X80.527 Y61.898
X80.597 Y61.877
X80.864 Y61.787
X80.926 Y61.765
X81.199 Y61.659
X81.255 Y61.636
X81.534 Y61.516
X81.583 Y61.493
X81.867 Y61.359
X81.91 Y61.337
X82.197 Y61.189
X82.236 Y61.168
X82.525 Y61.008
X82.561 Y60.988
X82.85 Y60.817
X82.883 Y60.797
X83.17 Y60.617
X83.203 Y60.596
X83.486 Y60.408
X83.519 Y60.386
X83.795 Y60.192
X83.828 Y60.168
X84.096 Y59.969
X84.131 Y59.942
X84.387 Y59.74
X84.423 Y59.71
X84.665 Y59.506
X84.704 Y59.472
X84.93 Y59.268
X84.971 Y59.23
X85.179 Y59.027
X85.221 Y58.984
X85.41 Y58.785
X85.454 Y58.737
X85.623 Y58.542
X85.666 Y58.49
X85.815 Y58.302
X85.856 Y58.247
X85.986 Y58.067
X86.021 Y58.016
X86.134 Y57.845
X86.161 Y57.802
X86.258 Y57.643
X86.271 Y57.621
X86.345 Y57.496
X86.443 Y57.473
X86.493 Y57.461
X86.63 Y57.425
X86.733 Y57.393
X86.864 Y57.348
X86.939 Y57.32
X87.012 Y57.288
X87.135 Y57.231
X87.226 Y57.184
X87.313 Y57.132
X87.425 Y57.059
X87.516 Y56.996
X87.601 Y56.926
X87.702 Y56.837
X87.777 Y56.766
X87.847 Y56.69
X87.938 Y56.585
X87.991 Y56.52
X88.04 Y56.453
X88.123 Y56.332
X88.185 Y56.233
X88.262 Y56.099
X88.294 Y56.041
X88.37 Y55.894
X88.38 Y55.874
X88.454 Y55.725
X88.524 Y55.588
X88.591 Y55.466
X88.658 Y55.353
X88.73 Y55.244
X88.807 Y55.137
X88.892 Y55.029
X88.986 Y54.92
X89.088 Y54.808
X89.2 Y54.694
X89.32 Y54.575
X89.448 Y54.45
X89.579 Y54.323
X89.591 Y54.311
X89.719 Y54.185
X89.74 Y54.163
X89.864 Y54.035
X89.895 Y54.002
X90.017 Y53.869
X90.051 Y53.83
X90.171 Y53.689
X90.206 Y53.646
X90.325 Y53.495
X90.358 Y53.453
X90.478 Y53.289
X90.506 Y53.249
X90.628 Y53.071
X90.651 Y53.036
X90.777 Y52.842
X90.794 Y52.815
X90.924 Y52.604
X90.936 Y52.584
X91.07 Y52.358
X91.078 Y52.345
X91.218 Y52.105
X91.222 Y52.098
X91.366 Y51.847
X91.367 Y51.846
X91.513 Y51.59
X91.66 Y51.337
X91.805 Y51.09
X91.947 Y50.856
X92.083 Y50.638
X92.211 Y50.443
X92.329 Y50.273
X92.434 Y50.131
X92.525 Y50.018
X92.601 Y49.931
X92.667 Y49.864
X92.73 Y49.804
X92.804 Y49.739
X92.89 Y49.664
X92.914 Y49.643
X93 Y49.566
X93.058 Y49.511
X93.14 Y49.429
X93.213 Y49.35
X93.291 Y49.259
X93.36 Y49.174
X93.438 Y49.069
X93.491 Y48.993
X93.57 Y48.872
X93.605 Y48.816
X93.687 Y48.677
X93.707 Y48.642
X93.794 Y48.485
X93.802 Y48.471
X93.896 Y48.297
X93.995 Y48.113
X94.098 Y47.927
X94.208 Y47.736
X94.326 Y47.539
X94.455 Y47.335
X94.594 Y47.122
X94.747 Y46.897
X94.91 Y46.66
X94.912 Y46.656
X95.079 Y46.411
X95.092 Y46.393
X95.256 Y46.144
X95.279 Y46.108
X95.438 Y45.854
X95.47 Y45.799
X95.617 Y45.538
X95.657 Y45.463
X95.789 Y45.194
X95.832 Y45.097
X95.945 Y44.819
X95.987 Y44.703
X96.077 Y44.415
X96.112 Y44.283
X96.176 Y43.984
X96.2 Y43.842
X96.236 Y43.533
X96.245 Y43.389
X96.252 Y43.069
X96.249 Y42.933
X96.225 Y42.602
X96.212 Y42.48
X96.16 Y42.141
X96.14 Y42.036
X96.062 Y41.691
X96.039 Y41.605
X95.939 Y41.257
X95.917 Y41.188
X95.798 Y40.843
X95.779 Y40.79
X95.648 Y40.451
X95.634 Y40.414
X95.497 Y40.085
X95.487 Y40.063
X95.351 Y39.75
X95.348 Y39.743
X95.221 Y39.456
X95.163 Y39.321
X95.169 Y39.315
X95.229 Y39.247
X95.284 Y39.177
X95.375 Y39.053
X95.422 Y38.986
X95.465 Y38.916
X95.548 Y38.773
X95.606 Y38.661
X95.682 Y38.5
X95.715 Y38.425
X95.786 Y38.25
X95.801 Y38.212
X95.87 Y38.028
X95.935 Y37.856
X95.99 Y37.72
X96.037 Y37.617
X96.077 Y37.543
X96.114 Y37.485
X96.159 Y37.426
X96.223 Y37.351
X96.317 Y37.249
X96.321 Y37.244
X96.428 Y37.127
X96.478 Y37.07
X96.575 Y36.952
X96.665 Y36.83
X96.748 Y36.707
X96.805 Y36.614
X96.855 Y36.516
X96.919 Y36.382
G2 X97.009 Y36.141 I-1.356 J-0.642
G1 X97.05 Y35.992
X97.079 Y35.87
X97.097 Y35.747
X97.114 Y35.579
X97.121 Y35.474
Y35.369
X97.115 Y35.182
X97.11 Y35.103
X97.101 Y35.025
X97.071 Y34.817
X97.051 Y34.705
X97 Y34.477
X96.983 Y34.404
X96.915 Y34.157
X96.902 Y34.113
X96.821 Y33.848
X96.814 Y33.827
X96.724 Y33.547
X96.723 Y33.543
X96.63 Y33.257
X96.54 Y32.973
X96.456 Y32.695
X96.382 Y32.424
X96.318 Y32.16
X96.265 Y31.905
X96.222 Y31.656
X96.187 Y31.411
X96.159 Y31.168
X96.137 Y30.924
X96.116 Y30.678
X96.096 Y30.438
X96.095 Y30.419
X96.073 Y30.192
X96.068 Y30.151
X96.042 Y29.939
X96.033 Y29.879
X96.001 Y29.68
X95.986 Y29.603
X95.945 Y29.418
X95.923 Y29.33
X95.874 Y29.158
X95.847 Y29.072
X95.79 Y28.911
X95.763 Y28.84
X95.702 Y28.69
X95.682 Y28.642
X95.618 Y28.501
X95.612 Y28.487
X95.557 Y28.368
X95.538 Y28.325
X95.552 Y28.237
X95.553 Y28.231
X95.575 Y28.092
X95.583 Y28.041
X95.601 Y27.893
X95.609 Y27.802
X95.619 Y27.645
X95.622 Y27.53
X95.62 Y27.363
X95.613 Y27.238
X95.595 Y27.062
X95.578 Y26.941
X95.545 Y26.756
X95.52 Y26.644
X95.469 Y26.45
X95.441 Y26.355
X95.374 Y26.154
X95.344 Y26.073
X95.261 Y25.865
X95.233 Y25.798
X95.136 Y25.585
X95.11 Y25.531
X95 Y25.314
X94.977 Y25.27
X94.857 Y25.05
X94.837 Y25.015
X94.708 Y24.794
X94.69 Y24.764
X94.555 Y24.544
X94.54 Y24.519
X94.399 Y24.3
X94.385 Y24.278
X94.24 Y24.06
X94.225 Y24.039
X94.077 Y23.825
X94.063 Y23.804
X93.911 Y23.593
X93.896 Y23.572
X93.742 Y23.364
X93.726 Y23.343
X93.569 Y23.14
X93.552 Y23.118
X93.393 Y22.919
X93.375 Y22.897
X93.213 Y22.703
X93.196 Y22.682
X93.032 Y22.493
X93.015 Y22.473
X92.85 Y22.288
X92.835 Y22.272
X92.669 Y22.092
X92.657 Y22.078
X92.492 Y21.904
X92.485 Y21.896
X92.324 Y21.727
X92.323 Y21.726
X92.171 Y21.567
X92.037 Y21.425
X91.927 Y21.304
X91.883 Y21.252
X91.884 Y21.228
X91.893 Y21.111
X91.896 Y21.005
Y20.882
X91.891 Y20.759
X91.88 Y20.63
X91.865 Y20.509
X91.843 Y20.376
X91.82 Y20.266
X91.787 Y20.132
X91.761 Y20.036
X91.719 Y19.904
X91.689 Y19.818
X91.64 Y19.692
X91.605 Y19.609
X91.552 Y19.491
X91.508 Y19.401
X91.45 Y19.294
X91.389 Y19.19
X91.327 Y19.095
X91.239 Y18.972
X91.171 Y18.887
X91.114 Y18.821
X91.054 Y18.757
X90.977 Y18.681
X90.913 Y18.622
X90.847 Y18.567
X90.756 Y18.496
X90.642 Y18.415
X90.534 Y18.345
X90.45 Y18.295
X90.319 Y18.223
X90.268 Y18.195
X90.112 Y18.117
X90.085 Y18.103
X89.903 Y18.016
X89.89 Y18.011
X89.683 Y17.914
X89.68 Y17.912
X89.45 Y17.805
X89.205 Y17.692
X88.95 Y17.573
X88.693 Y17.452
X88.439 Y17.331
X88.196 Y17.216
X87.972 Y17.108
X87.771 Y17.01
X87.598 Y16.925
X87.457 Y16.854
X87.347 Y16.797
X87.266 Y16.754
X87.204 Y16.719
X87.148 Y16.686
X87.08 Y16.644
X86.992 Y16.588
X86.882 Y16.517
X86.751 Y16.432
X86.606 Y16.337
X86.453 Y16.236
X86.304 Y16.134
X86.199 Y16.061
X86.195 Y16.048
G2 X86.079 Y15.805 I-1.407 J0.519
G1 X86.021 Y15.706
X85.971 Y15.628
X85.917 Y15.553
X85.823 Y15.43
X85.746 Y15.339
X85.615 Y15.194
X85.561 Y15.137
X85.395 Y14.972
X85.357 Y14.936
X85.161 Y14.753
X85.134 Y14.729
X84.914 Y14.535
X84.894 Y14.518
X84.66 Y14.317
X84.646 Y14.305
X84.405 Y14.105
X84.394 Y14.096
X84.157 Y13.901
X84.149 Y13.895
X83.922 Y13.712
X83.913 Y13.705
X83.705 Y13.54
X83.695 Y13.532
X83.51 Y13.388
X83.492 Y13.374
X83.331 Y13.252
X83.297 Y13.227
X83.158 Y13.128
X83.099 Y13.088
X82.978 Y13.01
X82.885 Y12.955
X82.775 Y12.895
X82.65 Y12.834
X82.544 Y12.788
X82.418 Y12.74
X82.308 Y12.704
X82.211 Y12.676
X82.091 Y12.645
X82.039 Y12.633
X81.902 Y12.603
X81.887 Y12.6
X81.738 Y12.569
X81.583 Y12.536
X81.424 Y12.499
X81.262 Y12.457
X81.101 Y12.41
X80.948 Y12.359
X80.809 Y12.305
X80.69 Y12.253
X80.598 Y12.205
X80.53 Y12.164
X80.481 Y12.129
X80.44 Y12.094
X80.393 Y12.048
X80.327 Y11.977
X80.239 Y11.877
X80.231 Y11.867
X80.129 Y11.754
X80.088 Y11.71
X79.978 Y11.597
X79.91 Y11.532
X79.786 Y11.419
X79.703 Y11.349
X79.56 Y11.237
X79.473 Y11.174
X79.308 Y11.062
X79.224 Y11.01
X79.034 Y10.9
X78.962 Y10.86
X78.746 Y10.75
X78.685 Y10.72
X78.443 Y10.61
X78.393 Y10.589
X78.126 Y10.479
X78.087 Y10.463
X77.796 Y10.353
X77.767 Y10.342
X77.454 Y10.231
X77.433 Y10.224
X77.101 Y10.111
X77.086 Y10.106
X76.738 Y9.991
X76.729 Y9.989
X76.368 Y9.872
X76.364 Y9.871
X75.993 Y9.753
X75.618 Y9.633
X75.244 Y9.512
X74.872 Y9.391
X74.505 Y9.269
X74.144 Y9.146
X73.792 Y9.025
X73.449 Y8.905
X73.117 Y8.788
X72.796 Y8.674
X72.489 Y8.564
X72.487 Y8.563
X72.196 Y8.46
X72.191 Y8.458
X71.915 Y8.362
X71.908 Y8.359
X71.649 Y8.27
X71.64 Y8.267
X71.397 Y8.185
X71.387 Y8.181
X71.16 Y8.107
X71.152 Y8.104
X70.94 Y8.035
X70.937 Y8.034
X70.743 Y7.972
X70.573 Y7.917
X70.433 Y7.868
X70.326 Y7.828
X70.248 Y7.795
X70.195 Y7.768
X70.154 Y7.743
X70.113 Y7.714
X70.063 Y7.673
X69.996 Y7.61
X69.911 Y7.522
X69.807 Y7.408
X69.686 Y7.272
X69.68 Y7.266
X69.553 Y7.124
X69.527 Y7.096
X69.399 Y6.961
X69.352 Y6.914
X69.223 Y6.789
X69.15 Y6.723
X69.021 Y6.614
X68.918 Y6.534
X68.79 Y6.443
X68.723 Y6.399
X68.654 Y6.358
X68.528 Y6.287
X68.448 Y6.246
X68.366 Y6.209
X68.243 Y6.159
X68.159 Y6.127
X68.074 Y6.101
X67.956 Y6.068
X67.806 Y6.035
X67.732 Y6.022
X67.631 Y5.916
X67.607 Y5.891
X67.457 Y5.74
X67.425 Y5.709
X67.251 Y5.544
X67.216 Y5.512
X67.02 Y5.337
X66.982 Y5.304
X66.767 Y5.125
X66.727 Y5.094
X66.498 Y4.916
X66.456 Y4.884
X66.219 Y4.713
X66.172 Y4.681
X65.933 Y4.521
X65.879 Y4.487
X65.644 Y4.345
X65.58 Y4.308
X65.355 Y4.187
X65.276 Y4.147
X65.068 Y4.05
X64.965 Y4.007
X64.777 Y3.936
X64.643 Y3.893
X64.477 Y3.847
X64.393 Y3.827
X64.308 Y3.811
X64.165 Y3.79
X64.067 Y3.778
X63.969 Y3.773
X63.847 Y3.77
X63.756 Y3.771
X63.664 Y3.778
X63.559 Y3.789
X63.517 Y3.794
X63.413 Y3.746
X63.24 Y3.663
X63.232 Y3.659
X63.036 Y3.566
X63.007 Y3.553
X62.798 Y3.459
X62.75 Y3.439
X62.531 Y3.35
X62.467 Y3.326
X62.242 Y3.246
X62.164 Y3.221
X61.934 Y3.153
X61.848 Y3.131
X61.616 Y3.077
X61.529 Y3.06
X61.296 Y3.021
X61.215 Y3.009
X60.982 Y2.983
X60.914 Y2.977
X60.682 Y2.961
X60.631 Y2.958
X60.4 Y2.951
X60.371 Y2.95
X60.142 Y2.947
X60.136
X59.916 Y2.945
X59.715 Y2.94
X59.533 Y2.932
X59.363 Y2.919
X59.2 Y2.9
X59.034 Y2.874
X58.86 Y2.841
X58.672 Y2.8
X58.473 Y2.756
X58.463 Y2.753
X58.264 Y2.71
X58.225 Y2.702
X58.033 Y2.666
X57.961 Y2.654
X57.778 Y2.629
X57.668 Y2.617
X57.494 Y2.606
X57.347 Y2.604
X57.182 Y2.61
X57.094 Y2.615
X57.007 Y2.626
X56.85 Y2.65
X56.759 Y2.666
X56.669 Y2.689
X56.519 Y2.731
X56.437 Y2.757
X56.357 Y2.787
X56.212 Y2.847
X56.086 Y2.906
X55.945 Y2.98
X55.862 Y3.026
X55.722 Y3.112
X55.679 Y3.139
X55.537 Y3.232
X55.53 Y3.236
X55.394 Y3.326
X55.275 Y3.402
X55.165 Y3.466
X55.056 Y3.523
X54.936 Y3.578
X54.798 Y3.633
X54.637 Y3.69
X54.449 Y3.75
X54.236 Y3.813
X54 Y3.88
X53.999 Y3.881
X53.749 Y3.952
X53.734 Y3.957
X53.48 Y4.032
X53.453 Y4.041
X53.197 Y4.122
X53.162 Y4.134
X52.906 Y4.222
X52.866 Y4.237
X52.612 Y4.333
X52.571 Y4.349
X52.322 Y4.452
X52.283 Y4.468
X52.041 Y4.576
X52.009 Y4.59
X51.776 Y4.701
X51.753 Y4.712
X51.53 Y4.822
X51.518 Y4.828
X51.309 Y4.934
X51.122 Y5.028
X50.968 Y5.103
X50.85 Y5.156
X50.773 Y5.186
X50.736 Y5.198
X50.731 Y5.199
X50.712 Y5.2
X50.643
X50.535
X50.481 Y5.201
X50.365 Y5.205
X50.26 Y5.212
X50.137 Y5.225
X50.007 Y5.244
X49.876 Y5.27
X49.75 Y5.3
X49.607 Y5.341
X49.503 Y5.375
X49.346 Y5.432
X49.269 Y5.463
X49.097 Y5.537
X49.047 Y5.56
X48.859 Y5.649
X48.83 Y5.663
X48.625 Y5.766
X48.614 Y5.771
X48.395 Y5.883
X48.168 Y5.999
X47.937 Y6.113
X47.701 Y6.223
X47.459 Y6.329
X47.211 Y6.428
X46.956 Y6.519
X46.692 Y6.603
X46.42 Y6.678
X46.139 Y6.746
X45.849 Y6.806
X45.55 Y6.858
X45.243 Y6.903
X44.929 Y6.943
X44.608 Y6.978
X44.282 Y7.011
X43.952 Y7.041
X43.622 Y7.072
X43.615
X43.291 Y7.104
X43.277 Y7.105
X42.959 Y7.138
X42.94 Y7.141
X42.629 Y7.178
X42.604 Y7.181
X42.302 Y7.222
X42.274 Y7.226
X41.98 Y7.271
X41.951 Y7.276
X41.664 Y7.326
X41.638 Y7.331
X41.358 Y7.385
X41.335 Y7.39
X41.063 Y7.447
X41.045 Y7.45
X40.78 Y7.509
X40.769 Y7.512
X40.51 Y7.571
X40.508 Y7.572
X40.257 Y7.63
X40.02 Y7.683
X39.797 Y7.73
X39.586 Y7.77
X39.387 Y7.801
X39.198 Y7.825
X39.014 Y7.84
X38.834 Y7.847
X38.652 Y7.845
X38.466 Y7.833
X38.273 Y7.812
X38.07 Y7.781
X37.856 Y7.738
X37.63 Y7.682
X37.39 Y7.615
X37.138 Y7.534
X36.874 Y7.441
X36.598 Y7.335
X36.312 Y7.217
X36.017 Y7.088
X35.714 Y6.949
X35.406 Y6.8
X35.094 Y6.643
X34.78 Y6.479
X34.466 Y6.309
X34.155 Y6.133
X33.847 Y5.954
X33.546 Y5.772
X33.253 Y5.587
X32.968 Y5.403
X32.695 Y5.218
X32.433 Y5.034
X32.185 Y4.853
X31.949 Y4.674
X31.726 Y4.498
X31.514 Y4.326
X31.314 Y4.156
X31.123 Y3.99
X30.937 Y3.825
X30.755 Y3.661
X30.577 Y3.501
X30.569 Y3.494
X30.398 Y3.342
X30.38 Y3.327
X30.212 Y3.183
X30.186 Y3.161
X30.019 Y3.025
X29.983 Y2.996
X29.816 Y2.868
X29.771 Y2.835
X29.602 Y2.714
X29.551 Y2.68
X29.377 Y2.567
X29.321 Y2.532
X29.142 Y2.427
X29.087 Y2.396
X28.901 Y2.297
X28.848 Y2.27
X28.655 Y2.176
X28.608 Y2.155
X28.406 Y2.065
X28.367 Y2.049
X28.157 Y1.963
X28.127 Y1.951
X27.908 Y1.867
X27.887 Y1.859
X27.661 Y1.776
X27.648 Y1.772
X27.414 Y1.688
X27.41 Y1.687
X27.171 Y1.602
X26.93 Y1.517
X26.69 Y1.43
X26.451 Y1.34
X26.212 Y1.247
X25.973 Y1.15
X25.735 Y1.049
X25.496 Y0.943
X25.258 Y0.833
X25.021 Y0.718
X24.785 Y0.6
X24.549 Y0.478
X24.316 Y0.353
X24.083 Y0.227
X23.852 Y0.099
X23.623 Y-0.027
X23.62 Y-0.029
X23.396 Y-0.152
X23.387 Y-0.158
X23.17 Y-0.275
X23.152 Y-0.285
X22.941 Y-0.395
X22.913 Y-0.409
X22.71 Y-0.511
X22.67 Y-0.53
X22.473 Y-0.621
X22.421 Y-0.644
X22.23 Y-0.724
X22.162 Y-0.75
X21.977 Y-0.817
X21.894 Y-0.844
X21.714 Y-0.897
X21.615 Y-0.923
X21.441 Y-0.962
X21.329 Y-0.983
X21.159 Y-1.007
X21.04 Y-1.02
X20.874 Y-1.03
X20.754 Y-1.033
X20.592 Y-1.031
X20.481 Y-1.025
X20.321 Y-1.011
X20.227 Y-0.999
X20.07 Y-0.975
X19.998 Y-0.962
X19.842 Y-0.93
X19.794 Y-0.92
X19.639 Y-0.883
X19.617 Y-0.877
X19.463 Y-0.838
X19.322 Y-0.803
X19.203 Y-0.775
X19.102 Y-0.755
X19.016 Y-0.741
X18.941 Y-0.734
X18.87 Y-0.731
X18.798 Y-0.732
X18.721 Y-0.739
X18.635 Y-0.75
X18.535 Y-0.769
X18.419 Y-0.796
X18.285 Y-0.83
X18.131 Y-0.872
X17.967 Y-0.917
X17.944 Y-0.924
X17.781 Y-0.965
X17.734 Y-0.977
X17.573 Y-1.013
X17.503 Y-1.027
X17.344 Y-1.054
X17.253 Y-1.067
X17.096 Y-1.085
X16.988 Y-1.093
X16.833 Y-1.099
X16.72
X16.568 Y-1.093
X16.463 Y-1.085
X16.312 Y-1.069
X16.229 Y-1.058
X16.078 Y-1.033
X16.028 Y-1.024
X15.877 Y-0.994
X15.864 Y-0.991
X15.726 Y-0.962
X15.617 Y-0.942
X15.54 Y-0.93
X15.486 Y-0.926
X15.441 Y-0.925
X15.39 Y-0.929
X15.319 Y-0.94
X15.218 Y-0.962
X15.085 Y-0.998
X14.92 Y-1.048
X14.727 Y-1.109
X14.722 Y-1.11
X14.513 Y-1.175
X14.487 Y-1.183
X14.272 Y-1.246
X14.227 Y-1.258
X14.006 Y-1.315
X13.947 Y-1.329
X13.719 Y-1.379
X13.649 Y-1.392
X13.416 Y-1.431
X13.342 Y-1.441
X13.104 Y-1.469
X13.03 Y-1.476
X12.788 Y-1.492
X12.721 Y-1.495
X12.475 Y-1.5
X12.416
X12.167 Y-1.495
X12.121 Y-1.494
X11.869 Y-1.481
X11.836 Y-1.479
X11.582 Y-1.461
X11.562 Y-1.46
X11.307 Y-1.438
X11.3 Y-1.437
X11.047 Y-1.414
X10.801 Y-1.393
X10.565 Y-1.375
X10.336 Y-1.362
X10.111 Y-1.353
X9.887 Y-1.348
X9.66
X9.427 Y-1.351
X9.186 Y-1.356
X8.941 Y-1.361
X8.929
X8.685 Y-1.365
X8.661
X8.419
X8.381 Y-1.364
X8.141 Y-1.357
X8.09 Y-1.355
X7.853 Y-1.34
X7.79 Y-1.335
X7.556 Y-1.311
X7.485 Y-1.302
X7.252 Y-1.266
X7.176 Y-1.253
X6.947 Y-1.206
X6.87 Y-1.188
X6.644 Y-1.129
X6.57 Y-1.107
X6.347 Y-1.037
X6.278 Y-1.013
X6.059 Y-0.932
X5.997 Y-0.907
X5.782 Y-0.817
X5.729 Y-0.793
X5.518 Y-0.694
X5.473 Y-0.672
X5.267 Y-0.567
X5.231 Y-0.548
X5.03 Y-0.439
X5.002 Y-0.423
X4.807 Y-0.311
X4.787 Y-0.3
X4.598 Y-0.187
X4.585 Y-0.179
X4.401 Y-0.068
X4.395 Y-0.064
X4.218 Y0.044
X4.049 Y0.148
X3.892 Y0.244
X3.747 Y0.332
X3.612 Y0.411
X3.487 Y0.482
X3.374 Y0.545
X3.272 Y0.599
X3.165 Y0.652
G2 X2.553 Y1.221 I0.674 J1.34
G1 X2.478 Y1.222
X2.386
X2.278 Y1.22
X2.166 Y1.218
X2.14 Y1.217
X2.036
X1.977 Y1.218
X1.882 Y1.222
X1.778 Y1.229
X1.695 Y1.238
X1.612 Y1.249
X1.529 Y1.265
X1.457 Y1.281
X1.338 Y1.313
X1.222 Y1.354
X1.162 Y1.378
G2 X0.877 Y1.53 I0.561 J1.391
G1 X0.828 Y1.564
G2 X0.563 Y1.795 I0.845 J1.239
G1 X0.523 Y1.839
G2 X0.341 Y2.086 I1.11 J1.009
G1 X0.308 Y2.141
X0.256 Y2.237
X0.211 Y2.337
X0.184 Y2.403
X0.14 Y2.526
X0.116 Y2.604
X0.099 Y2.665
X0.076 Y2.753
X0.072 Y2.769
X0.049 Y2.861
X0.026 Y2.946
X0.003 Y3.028
X-0.024 Y3.112
X-0.057 Y3.205
X-0.096 Y3.307
X-0.143 Y3.42
X-0.198 Y3.543
X-0.26 Y3.675
X-0.328 Y3.817
X-0.401 Y3.967
X-0.476 Y4.121
X-0.48 Y4.129
X-0.554 Y4.282
X-0.562 Y4.3
X-0.633 Y4.452
X-0.646 Y4.481
X-0.712 Y4.631
X-0.729 Y4.67
X-0.79 Y4.82
X-0.808 Y4.868
X-0.864 Y5.018
X-0.883 Y5.074
X-0.932 Y5.225
X-0.951 Y5.287
X-0.993 Y5.441
X-1.009 Y5.505
X-1.045 Y5.662
X-1.059 Y5.726
X-1.088 Y5.888
X-1.098 Y5.948
X-1.122 Y6.116
X-1.129 Y6.169
X-1.147 Y6.344
X-1.151 Y6.389
X-1.166 Y6.572
X-1.168 Y6.608
X-1.178 Y6.801
X-1.179 Y6.827
X-1.186 Y7.029
X-1.187 Y7.048
X-1.192 Y7.259
Y7.27
X-1.195 Y7.49
Y7.494
X-1.198 Y7.721
X-1.201 Y7.95
X-1.205 Y8.179
X-1.21 Y8.406
X-1.218 Y8.628
X-1.228 Y8.845
X-1.24 Y9.054
X-1.256 Y9.254
X-1.273 Y9.443
X-1.294 Y9.621
X-1.316 Y9.79
X-1.34 Y9.949
X-1.366 Y10.105
X-1.393 Y10.26
X-1.42 Y10.414
X-1.424 Y10.434
X-1.447 Y10.579
X-1.453 Y10.621
X-1.472 Y10.76
X-1.479 Y10.827
X-1.491 Y10.962
X-1.496 Y11.053
X-1.499 Y11.186
X-1.498 Y11.294
X-1.492 Y11.427
X-1.482 Y11.544
X-1.465 Y11.679
X-1.446 Y11.796
X-1.418 Y11.934
X-1.416 Y11.943
Z-1 F333.3
X-1.391 Y12.042 F1000
X-1.351 Y12.184
X-1.32 Y12.28
X-1.268 Y12.424
X-1.235 Y12.508
X-1.171 Y12.655
X-1.138 Y12.727
X-1.065 Y12.875
X-1.032 Y12.939
X-0.951 Y13.086
X-0.917 Y13.142
X-0.83 Y13.285
X-0.796 Y13.338
X-0.704 Y13.474
X-0.668 Y13.526
X-0.575 Y13.652
X-0.535 Y13.703
X-0.521 Y13.721
X-0.532 Y13.823
X-0.54 Y13.946
X-0.544 Y14.098
X-0.54 Y14.225
X-0.536 Y14.305
X-0.527 Y14.385
X-0.509 Y14.516
X-0.495 Y14.597
X-0.478 Y14.677
X-0.445 Y14.808
X-0.423 Y14.885
X-0.398 Y14.961
X-0.35 Y15.091
X-0.293 Y15.226
X-0.23 Y15.355
X-0.17 Y15.467
X-0.095 Y15.595
X-0.039 Y15.682
X0.048 Y15.808
X0.094 Y15.872
X0.19 Y15.997
X0.224 Y16.039
X0.327 Y16.163
X0.345 Y16.185
X0.452 Y16.31
X0.455 Y16.314
X0.559 Y16.433
X0.649 Y16.54
X0.725 Y16.633
X0.787 Y16.717
X0.84 Y16.795
X0.885 Y16.87
X0.927 Y16.946
X0.966 Y17.029
X1.004 Y17.122
X1.043 Y17.228
X1.083 Y17.349
X1.124 Y17.485
X1.168 Y17.638
X1.213 Y17.804
X1.214 Y17.806
X1.262 Y17.979
X1.265 Y17.992
X1.315 Y18.165
X1.321 Y18.187
X1.374 Y18.361
X1.384 Y18.392
X1.44 Y18.564
X1.453 Y18.602
X1.513 Y18.771
X1.529 Y18.814
X1.594 Y18.981
X1.614 Y19.029
X1.684 Y19.191
X1.708 Y19.242
X1.782 Y19.4
X1.81 Y19.454
X1.89 Y19.605
X1.921 Y19.661
X2.005 Y19.806
X2.039 Y19.862
X2.129 Y20.001
X2.165 Y20.054
X2.259 Y20.187
X2.296 Y20.238
X2.394 Y20.364
X2.43 Y20.409
X2.531 Y20.53
X2.563 Y20.568
X2.667 Y20.685
X2.694 Y20.713
X2.801 Y20.827
X2.818 Y20.845
X2.927 Y20.958
X2.933 Y20.964
X3.043 Y21.076
X3.147 Y21.182
X3.243 Y21.283
X3.333 Y21.382
X3.419 Y21.483
X3.503 Y21.588
X3.588 Y21.701
X3.675 Y21.826
X3.764 Y21.963
X3.856 Y22.115
X3.951 Y22.28
X4.048 Y22.457
X4.146 Y22.645
X4.246 Y22.839
X4.346 Y23.039
X4.446 Y23.237
X4.448 Y23.242
X4.545 Y23.433
X4.551 Y23.446
X4.645 Y23.626
X4.656 Y23.647
X4.746 Y23.814
X4.763 Y23.844
X4.849 Y23.995
X4.872 Y24.036
X4.955 Y24.17
X4.987 Y24.221
X5.065 Y24.338
X5.106 Y24.397
X5.181 Y24.498
X5.23 Y24.56
X5.301 Y24.646
X5.352 Y24.705
X5.419 Y24.779
X5.463 Y24.825
X5.527 Y24.889
X5.552 Y24.914
X5.611 Y24.97
X5.647 Y25.004
X5.66 Y25.028
X5.692 Y25.088
X5.736 Y25.177
X5.791 Y25.291
X5.794 Y25.296
X5.855 Y25.423
X5.865 Y25.443
X5.931 Y25.574
X5.949 Y25.607
X6.019 Y25.738
X6.045 Y25.784
X6.12 Y25.914
X6.154 Y25.968
X6.234 Y26.094
X6.277 Y26.156
X6.362 Y26.275
X6.412 Y26.342
X6.501 Y26.452
X6.556 Y26.517
X6.647 Y26.617
X6.705 Y26.678
X6.796 Y26.768
X6.85 Y26.819
X6.939 Y26.9
X6.983 Y26.938
X7 Y26.952
X7.013 Y27.006
X7.04 Y27.113
X7.069 Y27.213
X7.107 Y27.331
X7.144 Y27.431
X7.196 Y27.558
X7.237 Y27.651
X7.304 Y27.787
X7.346 Y27.867
X7.427 Y28.011
X7.468 Y28.078
X7.563 Y28.228
X7.6 Y28.283
X7.708 Y28.437
X7.74 Y28.481
X7.859 Y28.638
X7.887 Y28.674
X8.014 Y28.832
X8.037 Y28.86
X8.169 Y29.016
X8.188 Y29.037
X8.322 Y29.19
X8.335 Y29.205
X8.469 Y29.352
X8.478 Y29.362
X8.607 Y29.504
X8.61 Y29.507
X8.733 Y29.639
X8.842 Y29.758
X8.935 Y29.861
X9.011 Y29.948
X9.07 Y30.018
X9.115 Y30.075
X9.148 Y30.12
X9.176 Y30.162
X9.203 Y30.206
X9.234 Y30.259
X9.272 Y30.329
X9.318 Y30.416
X9.371 Y30.517
X9.372 Y30.52
X9.43 Y30.632
X9.436 Y30.643
X9.499 Y30.761
X9.506 Y30.774
X9.574 Y30.899
X9.583 Y30.915
X9.656 Y31.045
X9.667 Y31.063
X9.745 Y31.198
X9.756 Y31.217
X9.838 Y31.354
X9.85 Y31.374
X9.936 Y31.512
X9.95 Y31.534
X10.038 Y31.672
X10.053 Y31.694
X10.143 Y31.829
X10.16 Y31.854
X10.251 Y31.985
X10.271 Y32.013
X10.362 Y32.136
X10.386 Y32.168
X10.476 Y32.284
X10.505 Y32.321
X10.593 Y32.427
X10.629 Y32.469
X10.715 Y32.565
X10.762 Y32.615
X10.845 Y32.701
X10.903 Y32.757
X10.983 Y32.831
X11.062 Y32.898
X11.139 Y32.96
X11.242 Y33.035
X11.315 Y33.084
X11.384 Y33.127
X11.455 Y33.167
X11.524 Y33.203
X11.618 Y33.248
X11.714 Y33.286
X11.716 Y33.287
X11.793 Y33.339
X11.922 Y33.43
X12.058 Y33.531
X12.2 Y33.641
X12.349 Y33.759
X12.505 Y33.886
X12.667 Y34.022
X12.836 Y34.166
X13.012 Y34.318
X13.194 Y34.475
X13.198 Y34.478
X13.384 Y34.637
X13.393 Y34.645
X13.582 Y34.804
X13.596 Y34.816
X13.787 Y34.973
X13.808 Y34.99
X14.001 Y35.143
X14.029 Y35.164
X14.224 Y35.312
X14.258 Y35.336
X14.454 Y35.476
X14.493 Y35.503
X14.69 Y35.634
X14.736 Y35.664
X14.934 Y35.785
X14.983 Y35.814
X15.179 Y35.924
X15.231 Y35.952
X15.426 Y36.052
X15.475 Y36.076
X15.668 Y36.167
X15.708 Y36.185
X15.899 Y36.267
X15.927 Y36.279
X16.113 Y36.355
X16.121 Y36.359
X16.295 Y36.428
X16.441 Y36.489
X16.554 Y36.54
X16.636 Y36.582
X16.692 Y36.615
X16.733 Y36.644
X16.771 Y36.676
X16.817 Y36.723
X16.879 Y36.794
X16.958 Y36.896
X17.054 Y37.03
X17.168 Y37.192
X17.17 Y37.195
X17.293 Y37.37
X17.309 Y37.392
X17.438 Y37.567
X17.466 Y37.604
X17.601 Y37.777
X17.637 Y37.821
X17.779 Y37.99
X17.823 Y38.039
X17.971 Y38.2
X18.015 Y38.245
X18.167 Y38.398
X18.205 Y38.434
X18.358 Y38.576
X18.369 Y38.586
X18.359 Y38.611
X18.316 Y38.734
X18.266 Y38.898
X18.242 Y38.987
X18.223 Y39.078
X18.194 Y39.247
X18.179 Y39.357
X18.172 Y39.468
X18.168 Y39.642
X18.17 Y39.758
X18.18 Y39.873
X18.204 Y40.051
X18.222 Y40.158
X18.247 Y40.263
X18.298 Y40.442
X18.325 Y40.527
X18.356 Y40.61
X18.432 Y40.791
X18.49 Y40.915
X18.585 Y41.097
X18.631 Y41.177
X18.741 Y41.359
X18.77 Y41.404
X18.889 Y41.585
X18.898 Y41.598
X19.012 Y41.767
X19.052 Y41.829
X19.045 Y41.836
X18.914 Y41.968
X18.891 Y41.991
X18.758 Y42.131
X18.71 Y42.183
X18.583 Y42.33
X18.517 Y42.412
X18.4 Y42.568
X18.324 Y42.68
X18.221 Y42.846
X18.181 Y42.914
X18.145 Y42.984
X18.059 Y43.162
X18.025 Y43.238
X17.995 Y43.315
X17.929 Y43.505
X17.904 Y43.581
X17.884 Y43.659
X17.836 Y43.86
X17.81 Y43.998
X17.781 Y44.21
X17.77 Y44.324
X17.756 Y44.544
X17.754 Y44.628
X17.753 Y44.855
Y44.908
X17.761 Y45.138
X17.762 Y45.164
X17.773 Y45.393
X17.782 Y45.605
X17.787 Y45.785
X17.784 Y45.932
X17.776 Y46.048
X17.762 Y46.14
X17.744 Y46.219
X17.72 Y46.298
X17.684 Y46.388
X17.633 Y46.501
X17.564 Y46.639
X17.481 Y46.8
X17.473 Y46.815
X17.388 Y46.985
X17.367 Y47.028
X17.287 Y47.202
X17.257 Y47.272
X17.186 Y47.451
X17.153 Y47.54
X17.092 Y47.725
X17.063 Y47.825
X17.014 Y48.016
X16.992 Y48.119
X16.957 Y48.317
X16.942 Y48.413
X16.919 Y48.617
X16.912 Y48.704
X16.9 Y48.913
X16.898 Y48.987
X16.896 Y49.2
X16.897 Y49.261
X16.904 Y49.476
X16.907 Y49.525
X16.921 Y49.741
X16.924 Y49.781
X16.944 Y49.996
X16.948 Y50.028
X16.972 Y50.241
X16.976 Y50.269
X17.004 Y50.479
X17.008 Y50.507
X17.039 Y50.712
X17.045 Y50.745
X17.08 Y50.946
X17.088 Y50.986
X17.128 Y51.182
X17.139 Y51.232
X17.185 Y51.424
X17.201 Y51.483
X17.254 Y51.67
X17.276 Y51.741
X17.338 Y51.924
X17.366 Y51.999
X17.438 Y52.178
X17.471 Y52.256
X17.554 Y52.433
X17.591 Y52.508
X17.685 Y52.682
X17.723 Y52.749
X17.827 Y52.921
X17.864 Y52.979
X17.977 Y53.15
X18.009 Y53.195
X18.13 Y53.363
X18.155 Y53.396
X18.282 Y53.562
X18.299 Y53.584
X18.429 Y53.747
X18.436 Y53.756
X18.565 Y53.915
X18.685 Y54.064
X18.791 Y54.198
X18.881 Y54.317
X18.956 Y54.421
X19.017 Y54.513
X19.068 Y54.598
X19.116 Y54.685
X19.166 Y54.781
X19.221 Y54.895
X19.283 Y55.023
X19.292 Y55.042
X19.358 Y55.175
X19.379 Y55.216
X19.452 Y55.351
X19.486 Y55.411
X19.568 Y55.548
X19.613 Y55.62
X19.708 Y55.761
X19.764 Y55.838
X19.875 Y55.981
X19.938 Y56.057
X20.066 Y56.203
X20.135 Y56.275
X20.284 Y56.423
X20.355 Y56.489
X20.525 Y56.637
X20.596 Y56.695
X20.789 Y56.843
X20.86 Y56.894
X21.075 Y57.041
X21.144 Y57.085
X21.382 Y57.228
X21.449 Y57.266
X21.709 Y57.405
X21.773 Y57.437
X22.054 Y57.571
X22.114 Y57.598
X22.414 Y57.725
X22.47 Y57.747
X22.787 Y57.866
X22.841 Y57.885
X23.171 Y57.995
X23.221 Y58.011
X23.561 Y58.11
X23.609 Y58.123
X23.954 Y58.212
X24.001 Y58.224
X24.348 Y58.301
X24.394 Y58.311
X24.737 Y58.377
X24.783 Y58.385
X25.119 Y58.438
X25.166 Y58.445
X25.491 Y58.486
X25.541 Y58.492
X25.851 Y58.521
X25.904 Y58.525
X26.195 Y58.542
X26.254 Y58.544
X26.524 Y58.549
X26.59
X26.837 Y58.543
X26.911 Y58.539
X27.135 Y58.522
X27.22 Y58.514
X27.42 Y58.487
X27.513 Y58.472
X27.69 Y58.437
X27.79 Y58.414
X27.947 Y58.372
X28.043 Y58.343
X28.183 Y58.295
X28.265 Y58.265
X28.393 Y58.213
X28.449 Y58.189
X28.568 Y58.134
X28.59 Y58.124
X28.698 Y58.073
X28.78 Y58.035
X28.827 Y58.016
X28.887 Y58.061
X28.988 Y58.143
X29.119 Y58.255
X29.27 Y58.384
X29.29 Y58.401
X29.451 Y58.534
X29.487 Y58.563
X29.66 Y58.697
X29.71 Y58.734
X29.896 Y58.866
X29.955 Y58.906
X30.156 Y59.035
X30.218 Y59.073
X30.435 Y59.198
X30.495 Y59.23
X30.727 Y59.35
X30.783 Y59.378
X31.029 Y59.492
X31.079 Y59.514
X31.339 Y59.624
X31.381 Y59.641
X31.651 Y59.745
X31.684 Y59.757
X31.964 Y59.858
X31.988 Y59.866
X32.275 Y59.964
X32.29 Y59.969
X32.582 Y60.064
X32.589 Y60.067
X32.882 Y60.161
X33.171 Y60.255
X33.451 Y60.347
X33.722 Y60.439
X33.982 Y60.533
X34.235 Y60.628
X34.48 Y60.725
X34.719 Y60.825
X34.956 Y60.928
X35.192 Y61.035
X35.429 Y61.145
X35.669 Y61.258
X35.911 Y61.372
X35.919 Y61.376
X36.161 Y61.488
X36.176 Y61.496
X36.42 Y61.605
X36.442 Y61.615
X36.688 Y61.721
X36.716 Y61.733
X36.967 Y61.835
X37 Y61.848
X37.257 Y61.946
X37.292 Y61.959
X37.556 Y62.051
X37.593 Y62.064
X37.865 Y62.152
X37.9 Y62.163
X38.182 Y62.246
X38.216 Y62.256
X38.508 Y62.335
X38.538 Y62.343
X38.841 Y62.418
X38.868 Y62.424
X39.181 Y62.496
X39.204 Y62.501
X39.528 Y62.571
X39.547 Y62.574
X39.883 Y62.642
X39.897 Y62.644
X40.243 Y62.71
X40.255 Y62.712
X40.61 Y62.777
X40.618 Y62.779
X40.983 Y62.843
X40.989 Y62.844
X41.361 Y62.908
X41.366 Y62.909
X41.744 Y62.973
X41.747 Y62.974
X42.13 Y63.038
X42.133 Y63.039
X42.519 Y63.103
X42.521
X42.908 Y63.167
X42.912 Y63.168
X43.296 Y63.23
X43.303 Y63.231
X43.682 Y63.291
X43.691 Y63.292
X44.063 Y63.348
X44.077 Y63.35
X44.438 Y63.402
X44.455 Y63.404
X44.803 Y63.449
X44.827 Y63.452
X45.158 Y63.49
X45.189 Y63.493
X45.502 Y63.522
X45.541 Y63.525
X45.834 Y63.544
X45.883 Y63.547
X46.154 Y63.556
X46.215
X46.463 Y63.554
X46.535 Y63.552
X46.76 Y63.539
X46.844 Y63.532
X47.047 Y63.509
X47.138 Y63.496
X47.321 Y63.464
X47.409 Y63.446
X47.575 Y63.406
X47.648 Y63.387
X47.801 Y63.343
X47.842 Y63.33
X47.985 Y63.284
X48.099 Y63.247
X48.172 Y63.227
X48.22 Y63.216
X48.265 Y63.21
X48.33 Y63.207
X48.43 Y63.209
X48.572 Y63.221
X48.754 Y63.244
X48.973 Y63.277
X49.221 Y63.319
X49.483 Y63.364
X49.499 Y63.367
X49.761 Y63.409
X49.796 Y63.414
X50.05 Y63.448
X50.107 Y63.455
X50.346 Y63.478
X50.432 Y63.484
X50.652 Y63.493
X50.768
X50.965 Y63.486
X51.119 Y63.472
X51.291 Y63.448
X51.383 Y63.432
X51.474 Y63.41
X51.621 Y63.37
X51.717 Y63.341
X51.811 Y63.305
X51.935 Y63.252
X52.015 Y63.216
X52.091 Y63.176
X52.159 Y63.137
X52.325 Y63.177
X52.352 Y63.183
X52.528 Y63.222
X52.582 Y63.233
X52.761 Y63.265
X52.839 Y63.277
X53.019 Y63.3
X53.115 Y63.309
X53.292 Y63.32
X53.396 Y63.323
X53.57 Y63.322
X53.672 Y63.317
X53.842 Y63.304
X53.936 Y63.294
X54.102 Y63.271
X54.173 Y63.259
X54.336 Y63.229
X54.385 Y63.219
X54.545 Y63.183
X54.567 Y63.178
X54.724 Y63.14
X54.869 Y63.106
X54.999 Y63.079
X55.122 Y63.056
X55.249 Y63.037
X55.389 Y63.022
X55.549 Y63.01
X55.733 Y63.001
X55.946 Y62.996
X56.186 Y62.994
X56.455 Y62.995
X56.751 Y62.997
X57.073 Y63.001
X57.417 Y63.005
X57.781 Y63.01
X58.16 Y63.015
X58.549 Y63.021
X58.946 Y63.028
X59.344 Y63.036
X59.738 Y63.048
X60.123 Y63.062
X60.493 Y63.08
X60.843 Y63.102
X61.167 Y63.13
X61.462 Y63.161
X61.721 Y63.197
X61.941 Y63.235
X62.121 Y63.275
X62.258 Y63.313
X62.359 Y63.348
X62.432 Y63.378
X62.491 Y63.408
X62.554 Y63.444
X62.64 Y63.496
X62.642 Y63.498
X62.741 Y63.558
X62.793 Y63.589
X62.889 Y63.643
X62.996 Y63.697
X63.095 Y63.742
X63.234 Y63.798
X63.34 Y63.834
X63.488 Y63.876
X63.605 Y63.903
X63.733 Y63.927
X63.863 Y63.946
X63.963 Y63.956
X64.108 Y63.967
X64.173 Y63.97
X64.335 Y63.975
X64.376 Y63.976
X64.554
X64.574
X64.768 Y63.974
X64.772
X64.98 Y63.971
X65.196 Y63.969
X65.422
X65.658 Y63.972
X65.906 Y63.978
X66.166 Y63.987
X66.437 Y63.999
X66.719 Y64.013
X67.01 Y64.03
X67.309 Y64.049
X67.614 Y64.069
X67.923 Y64.088
X67.929 Y64.089
X68.238 Y64.107
X68.247
X68.556 Y64.124
X68.567 Y64.125
X68.876 Y64.139
X68.89
X69.197 Y64.151
X69.212
X69.518 Y64.16
X69.533
X69.838 Y64.165
X69.853
X70.156 Y64.167
X70.172
X70.474 Y64.166
X70.487
X70.789 Y64.162
X70.801
X71.102 Y64.156
X71.112
X71.413 Y64.148
X71.423 Y64.147
X71.725 Y64.137
X71.732
X72.035 Y64.126
X72.042 Y64.125
X72.345 Y64.112
X72.352
X72.656 Y64.097
X72.665
X72.969 Y64.081
X72.979 Y64.08
X73.283 Y64.062
X73.298 Y64.061
X73.599 Y64.04
X73.619 Y64.038
X73.918 Y64.013
X73.944 Y64.011
X74.238 Y63.981
X74.275 Y63.977
X74.561 Y63.941
X74.607 Y63.934
X74.884 Y63.891
X74.943 Y63.88
X75.209 Y63.827
X75.28 Y63.811
X75.533 Y63.748
X75.616 Y63.725
X75.853 Y63.651
X75.951 Y63.617
X76.171 Y63.531
X76.279 Y63.484
X76.481 Y63.387
X76.595 Y63.325
X76.778 Y63.217
X76.892 Y63.141
X77.057 Y63.022
X77.162 Y62.939
X77.308 Y62.811
X77.396 Y62.728
X77.526 Y62.595
X77.592 Y62.523
X77.708 Y62.387
X77.747 Y62.339
X77.854 Y62.205
X77.866 Y62.189
X77.901 Y62.143
X77.977 Y62.147
X78.162 Y62.158
X78.179 Y62.159
X78.381 Y62.169
X78.423 Y62.171
X78.635 Y62.176
X78.695
X78.916 Y62.172
X78.987 Y62.169
X79.217 Y62.154
X79.295 Y62.147
X79.534 Y62.119
X79.614 Y62.107
X79.86 Y62.065
X79.938 Y62.049
X80.192 Y61.991
X80.266 Y61.972
X80.527 Y61.898
X80.597 Y61.877
X80.864 Y61.787
X80.926 Y61.765
X81.199 Y61.659
X81.255 Y61.636
X81.534 Y61.516
X81.583 Y61.493
X81.867 Y61.359
X81.91 Y61.337
X82.197 Y61.189
X82.236 Y61.168
X82.525 Y61.008
X82.561 Y60.988
X82.85 Y60.817
X82.883 Y60.797
X83.17 Y60.617
X83.203 Y60.596
X83.486 Y60.408
X83.519 Y60.386
X83.795 Y60.192
X83.828 Y60.168
X84.096 Y59.969
X84.131 Y59.942
X84.387 Y59.74
X84.423 Y59.71
X84.665 Y59.506
X84.704 Y59.472
X84.93 Y59.268
X84.971 Y59.23
X85.179 Y59.027
X85.221 Y58.984
X85.41 Y58.785
X85.454 Y58.737
X85.623 Y58.542
X85.666 Y58.49
X85.815 Y58.302
X85.856 Y58.247
X85.986 Y58.067
X86.021 Y58.016
X86.134 Y57.845
X86.161 Y57.802
X86.258 Y57.643
X86.271 Y57.621
X86.345 Y57.496
X86.443 Y57.473
X86.493 Y57.461
X86.63 Y57.425
X86.733 Y57.393
X86.864 Y57.348
X86.939 Y57.32
X87.012 Y57.288
X87.135 Y57.231
X87.226 Y57.184
X87.313 Y57.132
X87.425 Y57.059
X87.516 Y56.996
X87.601 Y56.926
X87.702 Y56.837
X87.777 Y56.766
X87.847 Y56.69
X87.938 Y56.585
X87.991 Y56.52
X88.04 Y56.453
X88.123 Y56.332
X88.185 Y56.233
X88.262 Y56.099
X88.294 Y56.041
X88.37 Y55.894
X88.38 Y55.874
X88.454 Y55.725
X88.524 Y55.588
X88.591 Y55.466
X88.658 Y55.353
X88.73 Y55.244
X88.807 Y55.137
X88.892 Y55.029
X88.986 Y54.92
X89.088 Y54.808
X89.2 Y54.694
X89.32 Y54.575
X89.448 Y54.45
X89.579 Y54.323
X89.591 Y54.311
X89.719 Y54.185
X89.74 Y54.163
X89.864 Y54.035
X89.895 Y54.002
X90.017 Y53.869
X90.051 Y53.83
X90.171 Y53.689
X90.206 Y53.646
X90.325 Y53.495
X90.358 Y53.453
X90.478 Y53.289
X90.506 Y53.249
X90.628 Y53.071
X90.651 Y53.036
X90.777 Y52.842
X90.794 Y52.815
X90.924 Y52.604
X90.936 Y52.584
X91.07 Y52.358
X91.078 Y52.345
X91.218 Y52.105
X91.222 Y52.098
X91.366 Y51.847
X91.367 Y51.846
X91.513 Y51.59
X91.66 Y51.337
X91.805 Y51.09
X91.947 Y50.856
X92.083 Y50.638
X92.211 Y50.443
X92.329 Y50.273
X92.434 Y50.131
X92.525 Y50.018
X92.601 Y49.931
X92.667 Y49.864
X92.73 Y49.804
X92.804 Y49.739
X92.89 Y49.664
X92.914 Y49.643
X93 Y49.566
X93.058 Y49.511
X93.14 Y49.429
X93.213 Y49.35
X93.291 Y49.259
X93.36 Y49.174
X93.438 Y49.069
X93.491 Y48.993
X93.57 Y48.872
X93.605 Y48.816
X93.687 Y48.677
X93.707 Y48.642
X93.794 Y48.485
X93.802 Y48.471
X93.896 Y48.297
X93.995 Y48.113
X94.098 Y47.927
X94.208 Y47.736
X94.326 Y47.539
X94.455 Y47.335
X94.594 Y47.122
X94.747 Y46.897
X94.91 Y46.66
X94.912 Y46.656
X95.079 Y46.411
X95.092 Y46.393
X95.256 Y46.144
X95.279 Y46.108
X95.438 Y45.854
X95.47 Y45.799
X95.617 Y45.538
X95.657 Y45.463
X95.789 Y45.194
X95.832 Y45.097
X95.945 Y44.819
X95.987 Y44.703
X96.077 Y44.415
X96.112 Y44.283
X96.176 Y43.984
X96.2 Y43.842
X96.236 Y43.533
X96.245 Y43.389
X96.252 Y43.069
X96.249 Y42.933
X96.225 Y42.602
X96.212 Y42.48
X96.16 Y42.141
X96.14 Y42.036
X96.062 Y41.691
X96.039 Y41.605
X95.939 Y41.257
X95.917 Y41.188
X95.798 Y40.843
X95.779 Y40.79
X95.648 Y40.451
X95.634 Y40.414
X95.497 Y40.085
X95.487 Y40.063
X95.351 Y39.75
X95.348 Y39.743
X95.221 Y39.456
X95.163 Y39.321
X95.169 Y39.315
X95.229 Y39.247
X95.284 Y39.177
X95.375 Y39.053
X95.422 Y38.986
X95.465 Y38.916
X95.548 Y38.773
X95.606 Y38.661
X95.682 Y38.5
X95.715 Y38.425
X95.786 Y38.25
X95.801 Y38.212
X95.87 Y38.028
X95.935 Y37.856
X95.99 Y37.72
X96.037 Y37.617
X96.077 Y37.543
X96.114 Y37.485
X96.159 Y37.426
X96.223 Y37.351
X96.317 Y37.249
X96.321 Y37.244
X96.428 Y37.127
X96.478 Y37.07
X96.575 Y36.952
X96.665 Y36.83
X96.748 Y36.707
X96.805 Y36.614
X96.855 Y36.516
X96.919 Y36.382
G2 X97.009 Y36.141 I-1.356 J-0.642
G1 X97.05 Y35.992
X97.079 Y35.87
X97.097 Y35.747
X97.114 Y35.579
X97.121 Y35.474
Y35.369
X97.115 Y35.182
X97.11 Y35.103
X97.101 Y35.025
X97.071 Y34.817
X97.051 Y34.705
X97 Y34.477
X96.983 Y34.404
X96.915 Y34.157
X96.902 Y34.113
X96.821 Y33.848
X96.814 Y33.827
X96.724 Y33.547
X96.723 Y33.543
X96.63 Y33.257
X96.54 Y32.973
X96.456 Y32.695
X96.382 Y32.424
X96.318 Y32.16
X96.265 Y31.905
X96.222 Y31.656
X96.187 Y31.411
X96.159 Y31.168
X96.137 Y30.924
X96.116 Y30.678
X96.096 Y30.438
X96.095 Y30.419
X96.073 Y30.192
X96.068 Y30.151
X96.042 Y29.939
X96.033 Y29.879
X96.001 Y29.68
X95.986 Y29.603
X95.945 Y29.418
X95.923 Y29.33
X95.874 Y29.158
X95.847 Y29.072
X95.79 Y28.911
X95.763 Y28.84
X95.702 Y28.69
X95.682 Y28.642
X95.618 Y28.501
X95.612 Y28.487
X95.557 Y28.368
X95.538 Y28.325
X95.552 Y28.237
X95.553 Y28.231
X95.575 Y28.092
X95.583 Y28.041
X95.601 Y27.893
X95.609 Y27.802
X95.619 Y27.645
X95.622 Y27.53
X95.62 Y27.363
X95.613 Y27.238
X95.595 Y27.062
X95.578 Y26.941
X95.545 Y26.756
X95.52 Y26.644
X95.469 Y26.45
X95.441 Y26.355
X95.374 Y26.154
X95.344 Y26.073
X95.261 Y25.865
X95.233 Y25.798
X95.136 Y25.585
X95.11 Y25.531
X95 Y25.314
X94.977 Y25.27
X94.857 Y25.05
X94.837 Y25.015
X94.708 Y24.794
X94.69 Y24.764
X94.555 Y24.544
X94.54 Y24.519
X94.399 Y24.3
X94.385 Y24.278
X94.24 Y24.06
X94.225 Y24.039
X94.077 Y23.825
X94.063 Y23.804
X93.911 Y23.593
X93.896 Y23.572
X93.742 Y23.364
X93.726 Y23.343
X93.569 Y23.14
X93.552 Y23.118
X93.393 Y22.919
X93.375 Y22.897
X93.213 Y22.703
X93.196 Y22.682
X93.032 Y22.493
X93.015 Y22.473
X92.85 Y22.288
X92.835 Y22.272
X92.669 Y22.092
X92.657 Y22.078
X92.492 Y21.904
X92.485 Y21.896
X92.324 Y21.727
X92.323 Y21.726
X92.171 Y21.567
X92.037 Y21.425
X91.927 Y21.304
X91.883 Y21.252
X91.884 Y21.228
X91.893 Y21.111
X91.896 Y21.005
Y20.882
X91.891 Y20.759
X91.88 Y20.63
X91.865 Y20.509
X91.843 Y20.376
X91.82 Y20.266
X91.787 Y20.132
X91.761 Y20.036
X91.719 Y19.904
X91.689 Y19.818
X91.64 Y19.692
X91.605 Y19.609
X91.552 Y19.491
X91.508 Y19.401
X91.45 Y19.294
X91.389 Y19.19
X91.327 Y19.095
X91.239 Y18.972
X91.171 Y18.887
X91.114 Y18.821
X91.054 Y18.757
X90.977 Y18.681
X90.913 Y18.622
X90.847 Y18.567
X90.756 Y18.496
X90.642 Y18.415
X90.534 Y18.345
X90.45 Y18.295
X90.319 Y18.223
X90.268 Y18.195
X90.112 Y18.117
X90.085 Y18.103
X89.903 Y18.016
X89.89 Y18.011
X89.683 Y17.914
X89.68 Y17.912
X89.45 Y17.805
X89.205 Y17.692
X88.95 Y17.573
X88.693 Y17.452
X88.439 Y17.331
X88.196 Y17.216
X87.972 Y17.108
X87.771 Y17.01
X87.598 Y16.925
X87.457 Y16.854
X87.347 Y16.797
X87.266 Y16.754
X87.204 Y16.719
X87.148 Y16.686
X87.08 Y16.644
X86.992 Y16.588
X86.882 Y16.517
X86.751 Y16.432
X86.606 Y16.337
X86.453 Y16.236
X86.304 Y16.134
X86.199 Y16.061
X86.195 Y16.048
G2 X86.079 Y15.805 I-1.407 J0.519
G1 X86.021 Y15.706
X85.971 Y15.628
X85.917 Y15.553
X85.823 Y15.43
X85.746 Y15.339
X85.615 Y15.194
X85.561 Y15.137
X85.395 Y14.972
X85.357 Y14.936
X85.161 Y14.753
X85.134 Y14.729
X84.914 Y14.535
X84.894 Y14.518
X84.66 Y14.317
X84.646 Y14.305
X84.405 Y14.105
X84.394 Y14.096
X84.157 Y13.901
X84.149 Y13.895
X83.922 Y13.712
X83.913 Y13.705
X83.705 Y13.54
X83.695 Y13.532
X83.51 Y13.388
X83.492 Y13.374
X83.331 Y13.252
X83.297 Y13.227
X83.158 Y13.128
X83.099 Y13.088
X82.978 Y13.01
X82.885 Y12.955
X82.775 Y12.895
X82.65 Y12.834
X82.544 Y12.788
X82.418 Y12.74
X82.308 Y12.704
X82.211 Y12.676
X82.091 Y12.645
X82.039 Y12.633
X81.902 Y12.603
X81.887 Y12.6
X81.738 Y12.569
X81.583 Y12.536
X81.424 Y12.499
X81.262 Y12.457
X81.101 Y12.41
X80.948 Y12.359
X80.809 Y12.305
X80.69 Y12.253
X80.598 Y12.205
X80.53 Y12.164
X80.481 Y12.129
X80.44 Y12.094
X80.393 Y12.048
X80.327 Y11.977
X80.239 Y11.877
X80.231 Y11.867
X80.129 Y11.754
X80.088 Y11.71
X79.978 Y11.597
X79.91 Y11.532
X79.786 Y11.419
X79.703 Y11.349
X79.56 Y11.237
X79.473 Y11.174
X79.308 Y11.062
X79.224 Y11.01
X79.034 Y10.9
X78.962 Y10.86
X78.746 Y10.75
X78.685 Y10.72
X78.443 Y10.61
X78.393 Y10.589
X78.126 Y10.479
X78.087 Y10.463
X77.796 Y10.353
X77.767 Y10.342
X77.454 Y10.231
X77.433 Y10.224
X77.101 Y10.111
X77.086 Y10.106
X76.738 Y9.991
X76.729 Y9.989
X76.368 Y9.872
X76.364 Y9.871
X75.993 Y9.753
X75.618 Y9.633
X75.244 Y9.512
X74.872 Y9.391
X74.505 Y9.269
X74.144 Y9.146
X73.792 Y9.025
X73.449 Y8.905
X73.117 Y8.788
X72.796 Y8.674
X72.489 Y8.564
X72.487 Y8.563
X72.196 Y8.46
X72.191 Y8.458
X71.915 Y8.362
X71.908 Y8.359
X71.649 Y8.27
X71.64 Y8.267
X71.397 Y8.185
X71.387 Y8.181
X71.16 Y8.107
X71.152 Y8.104
X70.94 Y8.035
X70.937 Y8.034
X70.743 Y7.972
X70.573 Y7.917
X70.433 Y7.868
X70.326 Y7.828
X70.248 Y7.795
X70.195 Y7.768
X70.154 Y7.743
X70.113 Y7.714
X70.063 Y7.673
X69.996 Y7.61
X69.911 Y7.522
X69.807 Y7.408
X69.686 Y7.272
X69.68 Y7.266
X69.553 Y7.124
X69.527 Y7.096
X69.399 Y6.961
X69.352 Y6.914
X69.223 Y6.789
X69.15 Y6.723
X69.021 Y6.614
X68.918 Y6.534
X68.79 Y6.443
X68.723 Y6.399
X68.654 Y6.358
X68.528 Y6.287
X68.448 Y6.246
X68.366 Y6.209
X68.243 Y6.159
X68.159 Y6.127
X68.074 Y6.101
X67.956 Y6.068
X67.806 Y6.035
X67.732 Y6.022
X67.631 Y5.916
X67.607 Y5.891
X67.457 Y5.74
X67.425 Y5.709
X67.251 Y5.544
X67.216 Y5.512
X67.02 Y5.337
X66.982 Y5.304
X66.767 Y5.125
X66.727 Y5.094
X66.498 Y4.916
X66.456 Y4.884
X66.219 Y4.713
X66.172 Y4.681
X65.933 Y4.521
X65.879 Y4.487
X65.644 Y4.345
X65.58 Y4.308
X65.355 Y4.187
X65.276 Y4.147
X65.068 Y4.05
X64.965 Y4.007
X64.777 Y3.936
X64.643 Y3.893
X64.477 Y3.847
X64.393 Y3.827
X64.308 Y3.811
X64.165 Y3.79
X64.067 Y3.778
X63.969 Y3.773
X63.847 Y3.77
X63.756 Y3.771
X63.664 Y3.778
X63.559 Y3.789
X63.517 Y3.794
X63.413 Y3.746
X63.24 Y3.663
X63.232 Y3.659
X63.036 Y3.566
X63.007 Y3.553
X62.798 Y3.459
X62.75 Y3.439
X62.531 Y3.35
X62.467 Y3.326
X62.242 Y3.246
X62.164 Y3.221
X61.934 Y3.153
X61.848 Y3.131
X61.616 Y3.077
X61.529 Y3.06
X61.296 Y3.021
X61.215 Y3.009
X60.982 Y2.983
X60.914 Y2.977
X60.682 Y2.961
X60.631 Y2.958
X60.4 Y2.951
X60.371 Y2.95
X60.142 Y2.947
X60.136
X59.916 Y2.945
X59.715 Y2.94
X59.533 Y2.932
X59.363 Y2.919
X59.2 Y2.9
X59.034 Y2.874
X58.86 Y2.841
X58.672 Y2.8
X58.473 Y2.756
X58.463 Y2.753
X58.264 Y2.71
X58.225 Y2.702
X58.033 Y2.666
X57.961 Y2.654
X57.778 Y2.629
X57.668 Y2.617
X57.494 Y2.606
X57.347 Y2.604
X57.182 Y2.61
X57.094 Y2.615
X57.007 Y2.626
X56.85 Y2.65
X56.759 Y2.666
X56.669 Y2.689
X56.519 Y2.731
X56.437 Y2.757
X56.357 Y2.787
X56.212 Y2.847
X56.086 Y2.906
X55.945 Y2.98
X55.862 Y3.026
X55.722 Y3.112
X55.679 Y3.139
X55.537 Y3.232
X55.53 Y3.236
X55.394 Y3.326
X55.275 Y3.402
X55.165 Y3.466
X55.056 Y3.523
X54.936 Y3.578
X54.798 Y3.633
X54.637 Y3.69
X54.449 Y3.75
X54.236 Y3.813
X54 Y3.88
X53.999 Y3.881
X53.749 Y3.952
X53.734 Y3.957
X53.48 Y4.032
X53.453 Y4.041
X53.197 Y4.122
X53.162 Y4.134
X52.906 Y4.222
X52.866 Y4.237
X52.612 Y4.333
X52.571 Y4.349
X52.322 Y4.452
X52.283 Y4.468
X52.041 Y4.576
X52.009 Y4.59
X51.776 Y4.701
X51.753 Y4.712
X51.53 Y4.822
X51.518 Y4.828
X51.309 Y4.934
X51.122 Y5.028
X50.968 Y5.103
X50.85 Y5.156
X50.773 Y5.186
X50.736 Y5.198
X50.731 Y5.199
X50.712 Y5.2
X50.643
X50.535
X50.481 Y5.201
X50.365 Y5.205
X50.26 Y5.212
X50.137 Y5.225
X50.007 Y5.244
X49.876 Y5.27
X49.75 Y5.3
X49.607 Y5.341
X49.503 Y5.375
X49.346 Y5.432
X49.269 Y5.463
X49.097 Y5.537
X49.047 Y5.56
X48.859 Y5.649
X48.83 Y5.663
X48.625 Y5.766
X48.614 Y5.771
X48.395 Y5.883
X48.168 Y5.999
X47.937 Y6.113
X47.701 Y6.223
X47.459 Y6.329
X47.211 Y6.428
X46.956 Y6.519
X46.692 Y6.603
X46.42 Y6.678
X46.139 Y6.746
X45.849 Y6.806
X45.55 Y6.858
X45.243 Y6.903
X44.929 Y6.943
X44.608 Y6.978
X44.282 Y7.011
X43.952 Y7.041
X43.622 Y7.072
X43.615
X43.291 Y7.104
X43.277 Y7.105
X42.959 Y7.138
X42.94 Y7.141
X42.629 Y7.178
X42.604 Y7.181
X42.302 Y7.222
X42.274 Y7.226
X41.98 Y7.271
X41.951 Y7.276
X41.664 Y7.326
X41.638 Y7.331
X41.358 Y7.385
X41.335 Y7.39
X41.063 Y7.447
X41.045 Y7.45
X40.78 Y7.509
X40.769 Y7.512
X40.51 Y7.571
X40.508 Y7.572
X40.257 Y7.63
X40.02 Y7.683
X39.797 Y7.73
X39.586 Y7.77
X39.387 Y7.801
X39.198 Y7.825
X39.014 Y7.84
X38.834 Y7.847
X38.652 Y7.845
X38.466 Y7.833
X38.273 Y7.812
X38.07 Y7.781
X37.856 Y7.738
X37.63 Y7.682
X37.39 Y7.615
X37.138 Y7.534
X36.874 Y7.441
X36.598 Y7.335
X36.312 Y7.217
X36.017 Y7.088
X35.714 Y6.949
X35.406 Y6.8
X35.094 Y6.643
X34.78 Y6.479
X34.466 Y6.309
X34.155 Y6.133
X33.847 Y5.954
X33.546 Y5.772
X33.253 Y5.587
X32.968 Y5.403
X32.695 Y5.218
X32.433 Y5.034
X32.185 Y4.853
X31.949 Y4.674
X31.726 Y4.498
X31.514 Y4.326
X31.314 Y4.156
X31.123 Y3.99
X30.937 Y3.825
X30.755 Y3.661
X30.577 Y3.501
X30.569 Y3.494
X30.398 Y3.342
X30.38 Y3.327
X30.212 Y3.183
X30.186 Y3.161
X30.019 Y3.025
X29.983 Y2.996
X29.816 Y2.868
X29.771 Y2.835
X29.602 Y2.714
X29.551 Y2.68
X29.377 Y2.567
X29.321 Y2.532
X29.142 Y2.427
X29.087 Y2.396
X28.901 Y2.297
X28.848 Y2.27
X28.655 Y2.176
X28.608 Y2.155
X28.406 Y2.065
X28.367 Y2.049
X28.157 Y1.963
X28.127 Y1.951
X27.908 Y1.867
X27.887 Y1.859
X27.661 Y1.776
X27.648 Y1.772
X27.414 Y1.688
X27.41 Y1.687
X27.171 Y1.602
X26.93 Y1.517
X26.69 Y1.43
X26.451 Y1.34
X26.212 Y1.247
X25.973 Y1.15
X25.735 Y1.049
X25.496 Y0.943
X25.258 Y0.833
X25.021 Y0.718
X24.785 Y0.6
X24.549 Y0.478
X24.316 Y0.353
X24.083 Y0.227
X23.852 Y0.099
X23.623 Y-0.027
X23.62 Y-0.029
X23.396 Y-0.152
X23.387 Y-0.158
X23.17 Y-0.275
X23.152 Y-0.285
X22.941 Y-0.395
X22.913 Y-0.409
X22.71 Y-0.511
X22.67 Y-0.53
X22.473 Y-0.621
X22.421 Y-0.644
X22.23 Y-0.724
X22.162 Y-0.75
X21.977 Y-0.817
X21.894 Y-0.844
X21.714 Y-0.897
X21.615 Y-0.923
X21.441 Y-0.962
X21.329 Y-0.983
X21.159 Y-1.007
X21.04 Y-1.02
X20.874 Y-1.03
X20.754 Y-1.033
X20.592 Y-1.031
X20.481 Y-1.025
X20.321 Y-1.011
X20.227 Y-0.999
X20.07 Y-0.975
X19.998 Y-0.962
X19.842 Y-0.93
X19.794 Y-0.92
X19.639 Y-0.883
X19.617 Y-0.877
X19.463 Y-0.838
X19.322 Y-0.803
X19.203 Y-0.775
X19.102 Y-0.755
X19.016 Y-0.741
X18.941 Y-0.734
X18.87 Y-0.731
X18.798 Y-0.732
X18.721 Y-0.739
X18.635 Y-0.75
X18.535 Y-0.769
X18.419 Y-0.796
X18.285 Y-0.83
X18.131 Y-0.872
X17.967 Y-0.917
X17.944 Y-0.924
X17.781 Y-0.965
X17.734 Y-0.977
X17.573 Y-1.013
X17.503 Y-1.027
X17.344 Y-1.054
X17.253 Y-1.067
X17.096 Y-1.085
X16.988 Y-1.093
X16.833 Y-1.099
X16.72
X16.568 Y-1.093
X16.463 Y-1.085
X16.312 Y-1.069
X16.229 Y-1.058
X16.078 Y-1.033
X16.028 Y-1.024
X15.877 Y-0.994
X15.864 Y-0.991
X15.726 Y-0.962
X15.617 Y-0.942
X15.54 Y-0.93
X15.486 Y-0.926
X15.441 Y-0.925
X15.39 Y-0.929
X15.319 Y-0.94
X15.218 Y-0.962
X15.085 Y-0.998
X14.92 Y-1.048
X14.727 Y-1.109
X14.722 Y-1.11
X14.513 Y-1.175
X14.487 Y-1.183
X14.272 Y-1.246
X14.227 Y-1.258
X14.006 Y-1.315
X13.947 Y-1.329
X13.719 Y-1.379
X13.649 Y-1.392
X13.416 Y-1.431
X13.342 Y-1.441
X13.104 Y-1.469
X13.03 Y-1.476
X12.788 Y-1.492
X12.721 Y-1.495
X12.475 Y-1.5
X12.416
X12.167 Y-1.495
X12.121 Y-1.494
X11.869 Y-1.481
X11.836 Y-1.479
X11.582 Y-1.461
X11.562 Y-1.46
X11.307 Y-1.438
X11.3 Y-1.437
X11.047 Y-1.414
X10.801 Y-1.393
X10.565 Y-1.375
X10.336 Y-1.362
X10.111 Y-1.353
X9.887 Y-1.348
X9.66
X9.427 Y-1.351
X9.186 Y-1.356
X8.941 Y-1.361
X8.929
X8.685 Y-1.365
X8.661
X8.419
X8.381 Y-1.364
X8.141 Y-1.357
X8.09 Y-1.355
X7.853 Y-1.34
X7.79 Y-1.335
X7.556 Y-1.311
X7.485 Y-1.302
X7.252 Y-1.266
X7.176 Y-1.253
X6.947 Y-1.206
X6.87 Y-1.188
X6.644 Y-1.129
X6.57 Y-1.107
X6.347 Y-1.037
X6.278 Y-1.013
X6.059 Y-0.932
X5.997 Y-0.907
X5.782 Y-0.817
X5.729 Y-0.793
X5.518 Y-0.694
X5.473 Y-0.672
X5.267 Y-0.567
X5.231 Y-0.548
X5.03 Y-0.439
X5.002 Y-0.423
X4.807 Y-0.311
X4.787 Y-0.3
X4.598 Y-0.187
X4.585 Y-0.179
X4.401 Y-0.068
X4.395 Y-0.064
X4.218 Y0.044
X4.049 Y0.148
X3.892 Y0.244
X3.747 Y0.332
X3.612 Y0.411
X3.487 Y0.482
X3.374 Y0.545
X3.272 Y0.599
X3.165 Y0.652
G2 X2.553 Y1.221 I0.674 J1.34
G1 X2.478 Y1.222
X2.386
X2.278 Y1.22
X2.166 Y1.218
X2.14 Y1.217
X2.036
X1.977 Y1.218
X1.882 Y1.222
X1.778 Y1.229
X1.695 Y1.238
X1.612 Y1.249
X1.529 Y1.265
X1.457 Y1.281
X1.338 Y1.313
X1.222 Y1.354
X1.162 Y1.378
G2 X0.877 Y1.53 I0.561 J1.391
G1 X0.828 Y1.564
G2 X0.563 Y1.795 I0.845 J1.239
G1 X0.523 Y1.839
G2 X0.341 Y2.086 I1.11 J1.009
G1 X0.308 Y2.141
X0.256 Y2.237
X0.211 Y2.337
X0.184 Y2.403
X0.14 Y2.526
X0.116 Y2.604
X0.099 Y2.665
X0.076 Y2.753
X0.072 Y2.769
X0.049 Y2.861
X0.026 Y2.946
X0.003 Y3.028
X-0.024 Y3.112
X-0.057 Y3.205
X-0.096 Y3.307
X-0.143 Y3.42
X-0.198 Y3.543
X-0.26 Y3.675
X-0.328 Y3.817
X-0.401 Y3.967
X-0.476 Y4.121
X-0.48 Y4.129
X-0.554 Y4.282
X-0.562 Y4.3
X-0.633 Y4.452
X-0.646 Y4.481
X-0.712 Y4.631
X-0.729 Y4.67
X-0.79 Y4.82
X-0.808 Y4.868
X-0.864 Y5.018
X-0.883 Y5.074
X-0.932 Y5.225
X-0.951 Y5.287
X-0.993 Y5.441
X-1.009 Y5.505
X-1.045 Y5.662
X-1.059 Y5.726
X-1.088 Y5.888
X-1.098 Y5.948
X-1.122 Y6.116
X-1.129 Y6.169
X-1.147 Y6.344
X-1.151 Y6.389
X-1.166 Y6.572
X-1.168 Y6.608
X-1.178 Y6.801
X-1.179 Y6.827
X-1.186 Y7.029
X-1.187 Y7.048
X-1.192 Y7.259
Y7.27
X-1.195 Y7.49
Y7.494
X-1.198 Y7.721
X-1.201 Y7.95
X-1.205 Y8.179
X-1.21 Y8.406
X-1.218 Y8.628
X-1.228 Y8.845
X-1.24 Y9.054
X-1.256 Y9.254
X-1.273 Y9.443
X-1.294 Y9.621
X-1.316 Y9.79
X-1.34 Y9.949
X-1.366 Y10.105
X-1.393 Y10.26
X-1.42 Y10.414
X-1.424 Y10.434
X-1.447 Y10.579
X-1.453 Y10.621
X-1.472 Y10.76
X-1.479 Y10.827
X-1.491 Y10.962
X-1.496 Y11.053
X-1.499 Y11.186
X-1.498 Y11.294
X-1.492 Y11.427
X-1.482 Y11.544
X-1.465 Y11.679
X-1.446 Y11.796
X-1.418 Y11.934
X-1.416 Y11.943
Z-1.5 F333.3
X-1.391 Y12.042 F1000
X-1.351 Y12.184
X-1.32 Y12.28
X-1.268 Y12.424
X-1.235 Y12.508
X-1.171 Y12.655
X-1.138 Y12.727
X-1.065 Y12.875
X-1.032 Y12.939
X-0.951 Y13.086
X-0.917 Y13.142
X-0.83 Y13.285
X-0.796 Y13.338
X-0.704 Y13.474
X-0.668 Y13.526
X-0.575 Y13.652
X-0.535 Y13.703
X-0.521 Y13.721
X-0.532 Y13.823
X-0.54 Y13.946
X-0.544 Y14.098
X-0.54 Y14.225
X-0.536 Y14.305
X-0.527 Y14.385
X-0.509 Y14.516
X-0.495 Y14.597
X-0.478 Y14.677
X-0.445 Y14.808
X-0.423 Y14.885
X-0.398 Y14.961
X-0.35 Y15.091
X-0.293 Y15.226
X-0.23 Y15.355
X-0.17 Y15.467
X-0.095 Y15.595
X-0.039 Y15.682
X0.048 Y15.808
X0.094 Y15.872
X0.19 Y15.997
X0.224 Y16.039
X0.327 Y16.163
X0.345 Y16.185
X0.452 Y16.31
X0.455 Y16.314
X0.559 Y16.433
X0.649 Y16.54
X0.725 Y16.633
X0.787 Y16.717
X0.84 Y16.795
X0.885 Y16.87
X0.927 Y16.946
X0.966 Y17.029
X1.004 Y17.122
X1.043 Y17.228
X1.083 Y17.349
X1.124 Y17.485
X1.168 Y17.638
X1.213 Y17.804
X1.214 Y17.806
X1.262 Y17.979
X1.265 Y17.992
X1.315 Y18.165
X1.321 Y18.187
X1.374 Y18.361
X1.384 Y18.392
X1.44 Y18.564
X1.453 Y18.602
X1.513 Y18.771
X1.529 Y18.814
X1.594 Y18.981
X1.614 Y19.029
X1.684 Y19.191
X1.708 Y19.242
X1.782 Y19.4
X1.81 Y19.454
X1.89 Y19.605
X1.921 Y19.661
X2.005 Y19.806
X2.039 Y19.862
X2.129 Y20.001
X2.165 Y20.054
X2.259 Y20.187
X2.296 Y20.238
X2.394 Y20.364
X2.43 Y20.409
X2.531 Y20.53
X2.563 Y20.568
X2.667 Y20.685
X2.694 Y20.713
X2.801 Y20.827
X2.818 Y20.845
X2.927 Y20.958
X2.933 Y20.964
X3.043 Y21.076
X3.147 Y21.182
X3.243 Y21.283
X3.333 Y21.382
X3.419 Y21.483
X3.503 Y21.588
X3.588 Y21.701
X3.675 Y21.826
X3.764 Y21.963
X3.856 Y22.115
X3.951 Y22.28
X4.048 Y22.457
X4.146 Y22.645
X4.246 Y22.839
X4.346 Y23.039
X4.446 Y23.237
X4.448 Y23.242
X4.545 Y23.433
X4.551 Y23.446
X4.645 Y23.626
X4.656 Y23.647
X4.746 Y23.814
X4.763 Y23.844
X4.849 Y23.995
X4.872 Y24.036
X4.955 Y24.17
X4.987 Y24.221
X5.065 Y24.338
X5.106 Y24.397
X5.181 Y24.498
X5.23 Y24.56
X5.301 Y24.646
X5.352 Y24.705
X5.419 Y24.779
X5.463 Y24.825
X5.527 Y24.889
X5.552 Y24.914
X5.611 Y24.97
X5.647 Y25.004
X5.66 Y25.028
X5.692 Y25.088
X5.736 Y25.177
X5.791 Y25.291
X5.794 Y25.296
X5.855 Y25.423
X5.865 Y25.443
X5.931 Y25.574
X5.949 Y25.607
X6.019 Y25.738
X6.045 Y25.784
X6.12 Y25.914
X6.154 Y25.968
X6.234 Y26.094
X6.277 Y26.156
X6.362 Y26.275
X6.412 Y26.342
X6.501 Y26.452
X6.556 Y26.517
X6.647 Y26.617
X6.705 Y26.678
X6.796 Y26.768
X6.85 Y26.819
X6.939 Y26.9
X6.983 Y26.938
X7 Y26.952
X7.013 Y27.006
X7.04 Y27.113
X7.069 Y27.213
X7.107 Y27.331
X7.144 Y27.431
X7.196 Y27.558
X7.237 Y27.651
X7.304 Y27.787
X7.346 Y27.867
X7.427 Y28.011
X7.468 Y28.078
X7.563 Y28.228
X7.6 Y28.283
X7.708 Y28.437
X7.74 Y28.481
X7.859 Y28.638
X7.887 Y28.674
X8.014 Y28.832
X8.037 Y28.86
X8.169 Y29.016
X8.188 Y29.037
X8.322 Y29.19
X8.335 Y29.205
X8.469 Y29.352
X8.478 Y29.362
X8.607 Y29.504
X8.61 Y29.507
X8.733 Y29.639
X8.842 Y29.758
X8.935 Y29.861
X9.011 Y29.948
X9.07 Y30.018
X9.115 Y30.075
X9.148 Y30.12
X9.176 Y30.162
X9.203 Y30.206
X9.234 Y30.259
X9.272 Y30.329
X9.318 Y30.416
X9.371 Y30.517
X9.372 Y30.52
X9.43 Y30.632
X9.436 Y30.643
X9.499 Y30.761
X9.506 Y30.774
X9.574 Y30.899
X9.583 Y30.915
X9.656 Y31.045
X9.667 Y31.063
X9.745 Y31.198
X9.756 Y31.217
X9.838 Y31.354
X9.85 Y31.374
X9.936 Y31.512
X9.95 Y31.534
X10.038 Y31.672
X10.053 Y31.694
X10.143 Y31.829
X10.16 Y31.854
X10.251 Y31.985
X10.271 Y32.013
X10.362 Y32.136
X10.386 Y32.168
X10.476 Y32.284
X10.505 Y32.321
X10.593 Y32.427
X10.629 Y32.469
X10.715 Y32.565
X10.762 Y32.615
X10.845 Y32.701
X10.903 Y32.757
X10.983 Y32.831
X11.062 Y32.898
X11.139 Y32.96
X11.242 Y33.035
X11.315 Y33.084
X11.384 Y33.127
X11.455 Y33.167
X11.524 Y33.203
X11.618 Y33.248
X11.714 Y33.286
X11.716 Y33.287
X11.793 Y33.339
X11.922 Y33.43
X12.058 Y33.531
X12.2 Y33.641
X12.349 Y33.759
X12.505 Y33.886
X12.667 Y34.022
X12.836 Y34.166
X13.012 Y34.318
X13.194 Y34.475
X13.198 Y34.478
X13.384 Y34.637
X13.393 Y34.645
X13.582 Y34.804
X13.596 Y34.816
X13.787 Y34.973
X13.808 Y34.99
X14.001 Y35.143
X14.029 Y35.164
X14.224 Y35.312
X14.258 Y35.336
X14.454 Y35.476
X14.493 Y35.503
X14.69 Y35.634
X14.736 Y35.664
X14.934 Y35.785
X14.983 Y35.814
X15.179 Y35.924
X15.231 Y35.952
X15.426 Y36.052
X15.475 Y36.076
X15.668 Y36.167
X15.708 Y36.185
X15.899 Y36.267
X15.927 Y36.279
X16.113 Y36.355
X16.121 Y36.359
X16.295 Y36.428
X16.441 Y36.489
X16.554 Y36.54
X16.636 Y36.582
X16.692 Y36.615
X16.733 Y36.644
X16.771 Y36.676
X16.817 Y36.723
X16.879 Y36.794
X16.958 Y36.896
X17.054 Y37.03
X17.168 Y37.192
X17.17 Y37.195
X17.293 Y37.37
X17.309 Y37.392
X17.438 Y37.567
X17.466 Y37.604
X17.601 Y37.777
X17.637 Y37.821
X17.779 Y37.99
X17.823 Y38.039
X17.971 Y38.2
X18.015 Y38.245
X18.167 Y38.398
X18.205 Y38.434
X18.358 Y38.576
X18.369 Y38.586
X18.359 Y38.611
X18.316 Y38.734
X18.266 Y38.898
X18.242 Y38.987
X18.223 Y39.078
X18.194 Y39.247
X18.179 Y39.357
X18.172 Y39.468
X18.168 Y39.642
X18.17 Y39.758
X18.18 Y39.873
X18.204 Y40.051
X18.222 Y40.158
X18.247 Y40.263
X18.298 Y40.442
X18.325 Y40.527
X18.356 Y40.61
X18.432 Y40.791
X18.49 Y40.915
X18.585 Y41.097
X18.631 Y41.177
X18.741 Y41.359
X18.77 Y41.404
X18.889 Y41.585
X18.898 Y41.598
X19.012 Y41.767
X19.052 Y41.829
X19.045 Y41.836
X18.914 Y41.968
X18.891 Y41.991
X18.758 Y42.131
X18.71 Y42.183
X18.583 Y42.33
X18.517 Y42.412
X18.4 Y42.568
X18.324 Y42.68
X18.221 Y42.846
X18.181 Y42.914
X18.145 Y42.984
X18.059 Y43.162
X18.025 Y43.238
X17.995 Y43.315
X17.929 Y43.505
X17.904 Y43.581
X17.884 Y43.659
X17.836 Y43.86
X17.81 Y43.998
X17.781 Y44.21
X17.77 Y44.324
X17.756 Y44.544
X17.754 Y44.628
X17.753 Y44.855
Y44.908
X17.761 Y45.138
X17.762 Y45.164
X17.773 Y45.393
X17.782 Y45.605
X17.787 Y45.785
X17.784 Y45.932
X17.776 Y46.048
X17.762 Y46.14
X17.744 Y46.219
X17.72 Y46.298
X17.684 Y46.388
X17.633 Y46.501
X17.564 Y46.639
X17.481 Y46.8
X17.473 Y46.815
X17.388 Y46.985
X17.367 Y47.028
X17.287 Y47.202
X17.257 Y47.272
X17.186 Y47.451
X17.153 Y47.54
X17.092 Y47.725
X17.063 Y47.825
X17.014 Y48.016
X16.992 Y48.119
X16.957 Y48.317
X16.942 Y48.413
X16.919 Y48.617
X16.912 Y48.704
X16.9 Y48.913
X16.898 Y48.987
X16.896 Y49.2
X16.897 Y49.261
X16.904 Y49.476
X16.907 Y49.525
X16.921 Y49.741
X16.924 Y49.781
X16.944 Y49.996
X16.948 Y50.028
X16.972 Y50.241
X16.976 Y50.269
X17.004 Y50.479
X17.008 Y50.507
X17.039 Y50.712
X17.045 Y50.745
X17.08 Y50.946
X17.088 Y50.986
X17.128 Y51.182
X17.139 Y51.232
X17.185 Y51.424
X17.201 Y51.483
X17.254 Y51.67
X17.276 Y51.741
X17.338 Y51.924
X17.366 Y51.999
X17.438 Y52.178
X17.471 Y52.256
X17.554 Y52.433
X17.591 Y52.508
X17.685 Y52.682
X17.723 Y52.749
X17.827 Y52.921
X17.864 Y52.979
X17.977 Y53.15
X18.009 Y53.195
X18.13 Y53.363
X18.155 Y53.396
X18.282 Y53.562
X18.299 Y53.584
X18.429 Y53.747
X18.436 Y53.756
X18.565 Y53.915
X18.685 Y54.064
X18.791 Y54.198
X18.881 Y54.317
X18.956 Y54.421
X19.017 Y54.513
X19.068 Y54.598
X19.116 Y54.685
X19.166 Y54.781
X19.221 Y54.895
X19.283 Y55.023
X19.292 Y55.042
X19.358 Y55.175
X19.379 Y55.216
X19.452 Y55.351
X19.486 Y55.411
X19.568 Y55.548
X19.613 Y55.62
X19.708 Y55.761
X19.764 Y55.838
X19.875 Y55.981
X19.938 Y56.057
X20.066 Y56.203
X20.135 Y56.275
X20.284 Y56.423
X20.355 Y56.489
X20.525 Y56.637
X20.596 Y56.695
X20.789 Y56.843
X20.86 Y56.894
X21.075 Y57.041
X21.144 Y57.085
X21.382 Y57.228
X21.449 Y57.266
X21.709 Y57.405
X21.773 Y57.437
X22.054 Y57.571
X22.114 Y57.598
X22.414 Y57.725
X22.47 Y57.747
X22.787 Y57.866
X22.841 Y57.885
X23.171 Y57.995
X23.221 Y58.011
X23.561 Y58.11
X23.609 Y58.123
X23.954 Y58.212
X24.001 Y58.224
X24.348 Y58.301
X24.394 Y58.311
X24.737 Y58.377
X24.783 Y58.385
X25.119 Y58.438
X25.166 Y58.445
X25.491 Y58.486
X25.541 Y58.492
X25.851 Y58.521
X25.904 Y58.525
X26.195 Y58.542
X26.254 Y58.544
X26.524 Y58.549
X26.59
X26.837 Y58.543
X26.911 Y58.539
X27.135 Y58.522
X27.22 Y58.514
X27.42 Y58.487
X27.513 Y58.472
X27.69 Y58.437
X27.79 Y58.414
X27.947 Y58.372
X28.043 Y58.343
X28.183 Y58.295
X28.265 Y58.265
X28.393 Y58.213
X28.449 Y58.189
X28.568 Y58.134
X28.59 Y58.124
X28.698 Y58.073
X28.78 Y58.035
X28.827 Y58.016
X28.887 Y58.061
X28.988 Y58.143
X29.119 Y58.255
X29.27 Y58.384
X29.29 Y58.401
X29.451 Y58.534
X29.487 Y58.563
X29.66 Y58.697
X29.71 Y58.734
X29.896 Y58.866
X29.955 Y58.906
X30.156 Y59.035
X30.218 Y59.073
X30.435 Y59.198
X30.495 Y59.23
X30.727 Y59.35
X30.783 Y59.378
X31.029 Y59.492
X31.079 Y59.514
X31.339 Y59.624
X31.381 Y59.641
X31.651 Y59.745
X31.684 Y59.757
X31.964 Y59.858
X31.988 Y59.866
X32.275 Y59.964
X32.29 Y59.969
X32.582 Y60.064
X32.589 Y60.067
X32.882 Y60.161
X33.171 Y60.255
X33.451 Y60.347
X33.722 Y60.439
X33.982 Y60.533
X34.235 Y60.628
X34.48 Y60.725
X34.719 Y60.825
X34.956 Y60.928
X35.192 Y61.035
X35.429 Y61.145
X35.669 Y61.258
X35.911 Y61.372
X35.919 Y61.376
X36.161 Y61.488
X36.176 Y61.496
X36.42 Y61.605
X36.442 Y61.615
X36.688 Y61.721
X36.716 Y61.733
X36.967 Y61.835
X37 Y61.848
X37.257 Y61.946
X37.292 Y61.959
X37.556 Y62.051
X37.593 Y62.064
X37.865 Y62.152
X37.9 Y62.163
X38.182 Y62.246
X38.216 Y62.256
X38.508 Y62.335
X38.538 Y62.343
X38.841 Y62.418
X38.868 Y62.424
X39.181 Y62.496
X39.204 Y62.501
X39.528 Y62.571
X39.547 Y62.574
X39.883 Y62.642
X39.897 Y62.644
X40.243 Y62.71
X40.255 Y62.712
X40.61 Y62.777
X40.618 Y62.779
X40.983 Y62.843
X40.989 Y62.844
X41.361 Y62.908
X41.366 Y62.909
X41.744 Y62.973
X41.747 Y62.974
X42.13 Y63.038
X42.133 Y63.039
X42.519 Y63.103
X42.521
X42.908 Y63.167
X42.912 Y63.168
X43.296 Y63.23
X43.303 Y63.231
X43.682 Y63.291
X43.691 Y63.292
X44.063 Y63.348
X44.077 Y63.35
X44.438 Y63.402
X44.455 Y63.404
X44.803 Y63.449
X44.827 Y63.452
X45.158 Y63.49
X45.189 Y63.493
X45.502 Y63.522
X45.541 Y63.525
X45.834 Y63.544
X45.883 Y63.547
X46.154 Y63.556
X46.215
X46.463 Y63.554
X46.535 Y63.552
X46.76 Y63.539
X46.844 Y63.532
X47.047 Y63.509
X47.138 Y63.496
X47.321 Y63.464
X47.409 Y63.446
X47.575 Y63.406
X47.648 Y63.387
X47.801 Y63.343
X47.842 Y63.33
X47.985 Y63.284
X48.099 Y63.247
X48.172 Y63.227
X48.22 Y63.216
X48.265 Y63.21
X48.33 Y63.207
X48.43 Y63.209
X48.572 Y63.221
X48.754 Y63.244
X48.973 Y63.277
X49.221 Y63.319
X49.483 Y63.364
X49.499 Y63.367
X49.761 Y63.409
X49.796 Y63.414
X50.05 Y63.448
X50.107 Y63.455
X50.346 Y63.478
X50.432 Y63.484
X50.652 Y63.493
X50.768
X50.965 Y63.486
X51.119 Y63.472
X51.291 Y63.448
X51.383 Y63.432
X51.474 Y63.41
X51.621 Y63.37
X51.717 Y63.341
X51.811 Y63.305
X51.935 Y63.252
X52.015 Y63.216
X52.091 Y63.176
X52.159 Y63.137
X52.325 Y63.177
X52.352 Y63.183
X52.528 Y63.222
X52.582 Y63.233
X52.761 Y63.265
X52.839 Y63.277
X53.019 Y63.3
X53.115 Y63.309
X53.292 Y63.32
X53.396 Y63.323
X53.57 Y63.322
X53.672 Y63.317
X53.842 Y63.304
X53.936 Y63.294
X54.102 Y63.271
X54.173 Y63.259
X54.336 Y63.229
X54.385 Y63.219
X54.545 Y63.183
X54.567 Y63.178
X54.724 Y63.14
X54.869 Y63.106
X54.999 Y63.079
X55.122 Y63.056
X55.249 Y63.037
X55.389 Y63.022
X55.549 Y63.01
X55.733 Y63.001
X55.946 Y62.996
X56.186 Y62.994
X56.455 Y62.995
X56.751 Y62.997
X57.073 Y63.001
X57.417 Y63.005
X57.781 Y63.01
X58.16 Y63.015
X58.549 Y63.021
X58.946 Y63.028
X59.344 Y63.036
X59.738 Y63.048
X60.123 Y63.062
X60.493 Y63.08
X60.843 Y63.102
X61.167 Y63.13
X61.462 Y63.161
X61.721 Y63.197
X61.941 Y63.235
X62.121 Y63.275
X62.258 Y63.313
X62.359 Y63.348
X62.432 Y63.378
X62.491 Y63.408
X62.554 Y63.444
X62.64 Y63.496
X62.642 Y63.498
X62.741 Y63.558
X62.793 Y63.589
X62.889 Y63.643
X62.996 Y63.697
X63.095 Y63.742
X63.234 Y63.798
X63.34 Y63.834
X63.488 Y63.876
X63.605 Y63.903
X63.733 Y63.927
X63.863 Y63.946
X63.963 Y63.956
X64.108 Y63.967
X64.173 Y63.97
X64.335 Y63.975
X64.376 Y63.976
X64.554
X64.574
X64.768 Y63.974
X64.772
X64.98 Y63.971
X65.196 Y63.969
X65.422
X65.658 Y63.972
X65.906 Y63.978
X66.166 Y63.987
X66.437 Y63.999
X66.719 Y64.013
X67.01 Y64.03
X67.309 Y64.049
X67.614 Y64.069
X67.923 Y64.088
X67.929 Y64.089
X68.238 Y64.107
X68.247
X68.556 Y64.124
X68.567 Y64.125
X68.876 Y64.139
X68.89
X69.197 Y64.151
X69.212
X69.518 Y64.16
X69.533
X69.838 Y64.165
X69.853
X70.156 Y64.167
X70.172
X70.474 Y64.166
X70.487
X70.789 Y64.162
X70.801
X71.102 Y64.156
X71.112
X71.413 Y64.148
X71.423 Y64.147
X71.725 Y64.137
X71.732
X72.035 Y64.126
X72.042 Y64.125
X72.345 Y64.112
X72.352
X72.656 Y64.097
X72.665
X72.969 Y64.081
X72.979 Y64.08
X73.283 Y64.062
X73.298 Y64.061
X73.599 Y64.04
X73.619 Y64.038
X73.918 Y64.013
X73.944 Y64.011
X74.238 Y63.981
X74.275 Y63.977
X74.561 Y63.941
X74.607 Y63.934
X74.884 Y63.891
X74.943 Y63.88
X75.209 Y63.827
X75.28 Y63.811
X75.533 Y63.748
X75.616 Y63.725
X75.853 Y63.651
X75.951 Y63.617
X76.171 Y63.531
X76.279 Y63.484
X76.481 Y63.387
X76.595 Y63.325
X76.778 Y63.217
X76.892 Y63.141
X77.057 Y63.022
X77.162 Y62.939
X77.308 Y62.811
X77.396 Y62.728
X77.526 Y62.595
X77.592 Y62.523
X77.708 Y62.387
X77.747 Y62.339
X77.854 Y62.205
X77.866 Y62.189
X77.901 Y62.143
X77.977 Y62.147
X78.162 Y62.158
X78.179 Y62.159
X78.381 Y62.169
X78.423 Y62.171
X78.635 Y62.176
X78.695
X78.916 Y62.172
X78.987 Y62.169
X79.217 Y62.154
X79.295 Y62.147
X79.534 Y62.119
X79.614 Y62.107
X79.86 Y62.065
X79.938 Y62.049
X80.192 Y61.991
X80.266 Y61.972
X80.527 Y61.898
X80.597 Y61.877
X80.864 Y61.787
X80.926 Y61.765
X81.199 Y61.659
X81.255 Y61.636
X81.534 Y61.516
X81.583 Y61.493
X81.867 Y61.359
X81.91 Y61.337
X82.197 Y61.189
X82.236 Y61.168
X82.525 Y61.008
X82.561 Y60.988
X82.85 Y60.817
X82.883 Y60.797
X83.17 Y60.617
X83.203 Y60.596
X83.486 Y60.408
X83.519 Y60.386
X83.795 Y60.192
X83.828 Y60.168
X84.096 Y59.969
X84.131 Y59.942
X84.387 Y59.74
X84.423 Y59.71
X84.665 Y59.506
X84.704 Y59.472
X84.93 Y59.268
X84.971 Y59.23
X85.179 Y59.027
X85.221 Y58.984
X85.41 Y58.785
X85.454 Y58.737
X85.623 Y58.542
X85.666 Y58.49
X85.815 Y58.302
X85.856 Y58.247
X85.986 Y58.067
X86.021 Y58.016
X86.134 Y57.845
X86.161 Y57.802
X86.258 Y57.643
X86.271 Y57.621
X86.345 Y57.496
X86.443 Y57.473
X86.493 Y57.461
X86.63 Y57.425
X86.733 Y57.393
X86.864 Y57.348
X86.939 Y57.32
X87.012 Y57.288
X87.135 Y57.231
X87.226 Y57.184
X87.313 Y57.132
X87.425 Y57.059
X87.516 Y56.996
X87.601 Y56.926
X87.702 Y56.837
X87.777 Y56.766
X87.847 Y56.69
X87.938 Y56.585
X87.991 Y56.52
X88.04 Y56.453
X88.123 Y56.332
X88.185 Y56.233
X88.262 Y56.099
X88.294 Y56.041
X88.37 Y55.894
X88.38 Y55.874
X88.454 Y55.725
X88.524 Y55.588
X88.591 Y55.466
X88.658 Y55.353
X88.73 Y55.244
X88.807 Y55.137
X88.892 Y55.029
X88.986 Y54.92
X89.088 Y54.808
X89.2 Y54.694
X89.32 Y54.575
X89.448 Y54.45
X89.579 Y54.323
X89.591 Y54.311
X89.719 Y54.185
X89.74 Y54.163
X89.864 Y54.035
X89.895 Y54.002
X90.017 Y53.869
X90.051 Y53.83
X90.171 Y53.689
X90.206 Y53.646
X90.325 Y53.495
X90.358 Y53.453
X90.478 Y53.289
X90.506 Y53.249
X90.628 Y53.071
X90.651 Y53.036
X90.777 Y52.842
X90.794 Y52.815
X90.924 Y52.604
X90.936 Y52.584
X91.07 Y52.358
X91.078 Y52.345
X91.218 Y52.105
X91.222 Y52.098
X91.366 Y51.847
X91.367 Y51.846
X91.513 Y51.59
X91.66 Y51.337
X91.805 Y51.09
X91.947 Y50.856
X92.083 Y50.638
X92.211 Y50.443
X92.329 Y50.273
X92.434 Y50.131
X92.525 Y50.018
X92.601 Y49.931
X92.667 Y49.864
X92.73 Y49.804
X92.804 Y49.739
X92.89 Y49.664
X92.914 Y49.643
X93 Y49.566
X93.058 Y49.511
X93.14 Y49.429
X93.213 Y49.35
X93.291 Y49.259
X93.36 Y49.174
X93.438 Y49.069
X93.491 Y48.993
X93.57 Y48.872
X93.605 Y48.816
X93.687 Y48.677
X93.707 Y48.642
X93.794 Y48.485
X93.802 Y48.471
X93.896 Y48.297
X93.995 Y48.113
X94.098 Y47.927
X94.208 Y47.736
X94.326 Y47.539
X94.455 Y47.335
X94.594 Y47.122
X94.747 Y46.897
X94.91 Y46.66
X94.912 Y46.656
X95.079 Y46.411
X95.092 Y46.393
X95.256 Y46.144
X95.279 Y46.108
X95.438 Y45.854
X95.47 Y45.799
X95.617 Y45.538
X95.657 Y45.463
X95.789 Y45.194
X95.832 Y45.097
X95.945 Y44.819
X95.987 Y44.703
X96.077 Y44.415
X96.112 Y44.283
X96.176 Y43.984
X96.2 Y43.842
X96.236 Y43.533
X96.245 Y43.389
X96.252 Y43.069
X96.249 Y42.933
X96.225 Y42.602
X96.212 Y42.48
X96.16 Y42.141
X96.14 Y42.036
X96.062 Y41.691
X96.039 Y41.605
X95.939 Y41.257
X95.917 Y41.188
X95.798 Y40.843
X95.779 Y40.79
X95.648 Y40.451
X95.634 Y40.414
X95.497 Y40.085
X95.487 Y40.063
X95.351 Y39.75
X95.348 Y39.743
X95.221 Y39.456
X95.163 Y39.321
X95.169 Y39.315
X95.229 Y39.247
X95.284 Y39.177
X95.375 Y39.053
X95.422 Y38.986
X95.465 Y38.916
X95.548 Y38.773
X95.606 Y38.661
X95.682 Y38.5
X95.715 Y38.425
X95.786 Y38.25
X95.801 Y38.212
X95.87 Y38.028
X95.935 Y37.856
X95.99 Y37.72
X96.037 Y37.617
X96.077 Y37.543
X96.114 Y37.485
X96.159 Y37.426
X96.223 Y37.351
X96.317 Y37.249
X96.321 Y37.244
X96.428 Y37.127
X96.478 Y37.07
X96.575 Y36.952
X96.665 Y36.83
X96.748 Y36.707
X96.805 Y36.614
X96.855 Y36.516
X96.919 Y36.382
G2 X97.009 Y36.141 I-1.356 J-0.642
G1 X97.05 Y35.992
X97.079 Y35.87
X97.097 Y35.747
X97.114 Y35.579
X97.121 Y35.474
Y35.369
X97.115 Y35.182
X97.11 Y35.103
X97.101 Y35.025
X97.071 Y34.817
X97.051 Y34.705
X97 Y34.477
X96.983 Y34.404
X96.915 Y34.157
X96.902 Y34.113
X96.821 Y33.848
X96.814 Y33.827
X96.724 Y33.547
X96.723 Y33.543
X96.63 Y33.257
X96.54 Y32.973
X96.456 Y32.695
X96.382 Y32.424
X96.318 Y32.16
X96.265 Y31.905
X96.222 Y31.656
X96.187 Y31.411
X96.159 Y31.168
X96.137 Y30.924
X96.116 Y30.678
X96.096 Y30.438
X96.095 Y30.419
X96.073 Y30.192
X96.068 Y30.151
X96.042 Y29.939
X96.033 Y29.879
X96.001 Y29.68
X95.986 Y29.603
X95.945 Y29.418
X95.923 Y29.33
X95.874 Y29.158
X95.847 Y29.072
X95.79 Y28.911
X95.763 Y28.84
X95.702 Y28.69
X95.682 Y28.642
X95.618 Y28.501
X95.612 Y28.487
X95.557 Y28.368
X95.538 Y28.325
X95.552 Y28.237
X95.553 Y28.231
X95.575 Y28.092
X95.583 Y28.041
X95.601 Y27.893
X95.609 Y27.802
X95.619 Y27.645
X95.622 Y27.53
X95.62 Y27.363
X95.613 Y27.238
X95.595 Y27.062
X95.578 Y26.941
X95.545 Y26.756
X95.52 Y26.644
X95.469 Y26.45
X95.441 Y26.355
X95.374 Y26.154
X95.344 Y26.073
X95.261 Y25.865
X95.233 Y25.798
X95.136 Y25.585
X95.11 Y25.531
X95 Y25.314
X94.977 Y25.27
X94.857 Y25.05
X94.837 Y25.015
X94.708 Y24.794
X94.69 Y24.764
X94.555 Y24.544
X94.54 Y24.519
X94.399 Y24.3
X94.385 Y24.278
X94.24 Y24.06
X94.225 Y24.039
X94.077 Y23.825
X94.063 Y23.804
X93.911 Y23.593
X93.896 Y23.572
X93.742 Y23.364
X93.726 Y23.343
X93.569 Y23.14
X93.552 Y23.118
X93.393 Y22.919
X93.375 Y22.897
X93.213 Y22.703
X93.196 Y22.682
X93.032 Y22.493
X93.015 Y22.473
X92.85 Y22.288
X92.835 Y22.272
X92.669 Y22.092
X92.657 Y22.078
X92.492 Y21.904
X92.485 Y21.896
X92.324 Y21.727
X92.323 Y21.726
X92.171 Y21.567
X92.037 Y21.425
X91.927 Y21.304
X91.883 Y21.252
X91.884 Y21.228
X91.893 Y21.111
X91.896 Y21.005
Y20.882
X91.891 Y20.759
X91.88 Y20.63
X91.865 Y20.509
X91.843 Y20.376
X91.82 Y20.266
X91.787 Y20.132
X91.761 Y20.036
X91.719 Y19.904
X91.689 Y19.818
X91.64 Y19.692
X91.605 Y19.609
X91.552 Y19.491
X91.508 Y19.401
X91.45 Y19.294
X91.389 Y19.19
X91.327 Y19.095
X91.239 Y18.972
X91.171 Y18.887
X91.114 Y18.821
X91.054 Y18.757
X90.977 Y18.681
X90.913 Y18.622
X90.847 Y18.567
X90.756 Y18.496
X90.642 Y18.415
X90.534 Y18.345
X90.45 Y18.295
X90.319 Y18.223
X90.268 Y18.195
X90.112 Y18.117
X90.085 Y18.103
X89.903 Y18.016
X89.89 Y18.011
X89.683 Y17.914
X89.68 Y17.912
X89.45 Y17.805
X89.205 Y17.692
X88.95 Y17.573
X88.693 Y17.452
X88.439 Y17.331
X88.196 Y17.216
X87.972 Y17.108
X87.771 Y17.01
X87.598 Y16.925
X87.457 Y16.854
X87.347 Y16.797
X87.266 Y16.754
X87.204 Y16.719
X87.148 Y16.686
X87.08 Y16.644
X86.992 Y16.588
X86.882 Y16.517
X86.751 Y16.432
X86.606 Y16.337
X86.453 Y16.236
X86.304 Y16.134
X86.199 Y16.061
X86.195 Y16.048
G2 X86.079 Y15.805 I-1.407 J0.519
G1 X86.021 Y15.706
X85.971 Y15.628
X85.917 Y15.553
X85.823 Y15.43
X85.746 Y15.339
X85.615 Y15.194
X85.561 Y15.137
X85.395 Y14.972
X85.357 Y14.936
X85.161 Y14.753
X85.134 Y14.729
X84.914 Y14.535
X84.894 Y14.518
X84.66 Y14.317
X84.646 Y14.305
X84.405 Y14.105
X84.394 Y14.096
X84.157 Y13.901
X84.149 Y13.895
X83.922 Y13.712
X83.913 Y13.705
X83.705 Y13.54
X83.695 Y13.532
X83.51 Y13.388
X83.492 Y13.374
X83.331 Y13.252
X83.297 Y13.227
X83.158 Y13.128
X83.099 Y13.088
X82.978 Y13.01
X82.885 Y12.955
X82.775 Y12.895
X82.65 Y12.834
X82.544 Y12.788
X82.418 Y12.74
X82.308 Y12.704
X82.211 Y12.676
X82.091 Y12.645
X82.039 Y12.633
X81.902 Y12.603
X81.887 Y12.6
X81.738 Y12.569
X81.583 Y12.536
X81.424 Y12.499
X81.262 Y12.457
X81.101 Y12.41
X80.948 Y12.359
X80.809 Y12.305
X80.69 Y12.253
X80.598 Y12.205
X80.53 Y12.164
X80.481 Y12.129
X80.44 Y12.094
X80.393 Y12.048
X80.327 Y11.977
X80.239 Y11.877
X80.231 Y11.867
X80.129 Y11.754
X80.088 Y11.71
X79.978 Y11.597
X79.91 Y11.532
X79.786 Y11.419
X79.703 Y11.349
X79.56 Y11.237
X79.473 Y11.174
X79.308 Y11.062
X79.224 Y11.01
X79.034 Y10.9
X78.962 Y10.86
X78.746 Y10.75
X78.685 Y10.72
X78.443 Y10.61
X78.393 Y10.589
X78.126 Y10.479
X78.087 Y10.463
X77.796 Y10.353
X77.767 Y10.342
X77.454 Y10.231
X77.433 Y10.224
X77.101 Y10.111
X77.086 Y10.106
X76.738 Y9.991
X76.729 Y9.989
X76.368 Y9.872
X76.364 Y9.871
X75.993 Y9.753
X75.618 Y9.633
X75.244 Y9.512
X74.872 Y9.391
X74.505 Y9.269
X74.144 Y9.146
X73.792 Y9.025
X73.449 Y8.905
X73.117 Y8.788
X72.796 Y8.674
X72.489 Y8.564
X72.487 Y8.563
X72.196 Y8.46
X72.191 Y8.458
X71.915 Y8.362
X71.908 Y8.359
X71.649 Y8.27
X71.64 Y8.267
X71.397 Y8.185
X71.387 Y8.181
X71.16 Y8.107
X71.152 Y8.104
X70.94 Y8.035
X70.937 Y8.034
X70.743 Y7.972
X70.573 Y7.917
X70.433 Y7.868
X70.326 Y7.828
X70.248 Y7.795
X70.195 Y7.768
X70.154 Y7.743
X70.113 Y7.714
X70.063 Y7.673
X69.996 Y7.61
X69.911 Y7.522
X69.807 Y7.408
X69.686 Y7.272
X69.68 Y7.266
X69.553 Y7.124
X69.527 Y7.096
X69.399 Y6.961
X69.352 Y6.914
X69.223 Y6.789
X69.15 Y6.723
X69.021 Y6.614
X68.918 Y6.534
X68.79 Y6.443
X68.723 Y6.399
X68.654 Y6.358
X68.528 Y6.287
X68.448 Y6.246
X68.366 Y6.209
X68.243 Y6.159
X68.159 Y6.127
X68.074 Y6.101
X67.956 Y6.068
X67.806 Y6.035
X67.732 Y6.022
X67.631 Y5.916
X67.607 Y5.891
X67.457 Y5.74
X67.425 Y5.709
X67.251 Y5.544
X67.216 Y5.512
X67.02 Y5.337
X66.982 Y5.304
X66.767 Y5.125
X66.727 Y5.094
X66.498 Y4.916
X66.456 Y4.884
X66.219 Y4.713
X66.172 Y4.681
X65.933 Y4.521
X65.879 Y4.487
X65.644 Y4.345
X65.58 Y4.308
X65.355 Y4.187
X65.276 Y4.147
X65.068 Y4.05
X64.965 Y4.007
X64.777 Y3.936
X64.643 Y3.893
X64.477 Y3.847
X64.393 Y3.827
X64.308 Y3.811
X64.165 Y3.79
X64.067 Y3.778
X63.969 Y3.773
X63.847 Y3.77
X63.756 Y3.771
X63.664 Y3.778
X63.559 Y3.789
X63.517 Y3.794
X63.413 Y3.746
X63.24 Y3.663
X63.232 Y3.659
X63.036 Y3.566
X63.007 Y3.553
X62.798 Y3.459
X62.75 Y3.439
X62.531 Y3.35
X62.467 Y3.326
X62.242 Y3.246
X62.164 Y3.221
X61.934 Y3.153
X61.848 Y3.131
X61.616 Y3.077
X61.529 Y3.06
X61.296 Y3.021
X61.215 Y3.009
X60.982 Y2.983
X60.914 Y2.977
X60.682 Y2.961
X60.631 Y2.958
X60.4 Y2.951
X60.371 Y2.95
X60.142 Y2.947
X60.136
X59.916 Y2.945
X59.715 Y2.94
X59.533 Y2.932
X59.363 Y2.919
X59.2 Y2.9
X59.034 Y2.874
X58.86 Y2.841
X58.672 Y2.8
X58.473 Y2.756
X58.463 Y2.753
X58.264 Y2.71
X58.225 Y2.702
X58.033 Y2.666
X57.961 Y2.654
X57.778 Y2.629
X57.668 Y2.617
X57.494 Y2.606
X57.347 Y2.604
X57.182 Y2.61
X57.094 Y2.615
X57.007 Y2.626
X56.85 Y2.65
X56.759 Y2.666
X56.669 Y2.689
X56.519 Y2.731
X56.437 Y2.757
X56.357 Y2.787
X56.212 Y2.847
X56.086 Y2.906
X55.945 Y2.98
X55.862 Y3.026
X55.722 Y3.112
X55.679 Y3.139
X55.537 Y3.232
X55.53 Y3.236
X55.394 Y3.326
X55.275 Y3.402
X55.165 Y3.466
X55.056 Y3.523
X54.936 Y3.578
X54.798 Y3.633
X54.637 Y3.69
X54.449 Y3.75
X54.236 Y3.813
X54 Y3.88
X53.999 Y3.881
X53.749 Y3.952
X53.734 Y3.957
X53.48 Y4.032
X53.453 Y4.041
X53.197 Y4.122
X53.162 Y4.134
X52.906 Y4.222
X52.866 Y4.237
X52.612 Y4.333
X52.571 Y4.349
X52.322 Y4.452
X52.283 Y4.468
X52.041 Y4.576
X52.009 Y4.59
X51.776 Y4.701
X51.753 Y4.712
X51.53 Y4.822
X51.518 Y4.828
X51.309 Y4.934
X51.122 Y5.028
X50.968 Y5.103
X50.85 Y5.156
X50.773 Y5.186
X50.736 Y5.198
X50.731 Y5.199
X50.712 Y5.2
X50.643
X50.535
X50.481 Y5.201
X50.365 Y5.205
X50.26 Y5.212
X50.137 Y5.225
X50.007 Y5.244
X49.876 Y5.27
X49.75 Y5.3
X49.607 Y5.341
X49.503 Y5.375
X49.346 Y5.432
X49.269 Y5.463
X49.097 Y5.537
X49.047 Y5.56
X48.859 Y5.649
X48.83 Y5.663
X48.625 Y5.766
X48.614 Y5.771
X48.395 Y5.883
X48.168 Y5.999
X47.937 Y6.113
X47.701 Y6.223
X47.459 Y6.329
X47.211 Y6.428
X46.956 Y6.519
X46.692 Y6.603
X46.42 Y6.678
X46.139 Y6.746
X45.849 Y6.806
X45.55 Y6.858
X45.243 Y6.903
X44.929 Y6.943
X44.608 Y6.978
X44.282 Y7.011
X43.952 Y7.041
X43.622 Y7.072
X43.615
X43.291 Y7.104
X43.277 Y7.105
X42.959 Y7.138
X42.94 Y7.141
X42.629 Y7.178
X42.604 Y7.181
X42.302 Y7.222
X42.274 Y7.226
X41.98 Y7.271
X41.951 Y7.276
X41.664 Y7.326
X41.638 Y7.331
X41.358 Y7.385
X41.335 Y7.39
X41.063 Y7.447
X41.045 Y7.45
X40.78 Y7.509
X40.769 Y7.512
X40.51 Y7.571
X40.508 Y7.572
X40.257 Y7.63
X40.02 Y7.683
X39.797 Y7.73
X39.586 Y7.77
X39.387 Y7.801
X39.198 Y7.825
X39.014 Y7.84
X38.834 Y7.847
X38.652 Y7.845
X38.466 Y7.833
X38.273 Y7.812
X38.07 Y7.781
X37.856 Y7.738
X37.63 Y7.682
X37.39 Y7.615
X37.138 Y7.534
X36.874 Y7.441
X36.598 Y7.335
X36.312 Y7.217
X36.017 Y7.088
X35.714 Y6.949
X35.406 Y6.8
X35.094 Y6.643
X34.78 Y6.479
X34.466 Y6.309
X34.155 Y6.133
X33.847 Y5.954
X33.546 Y5.772
X33.253 Y5.587
X32.968 Y5.403
X32.695 Y5.218
X32.433 Y5.034
X32.185 Y4.853
X31.949 Y4.674
X31.726 Y4.498
X31.514 Y4.326
X31.314 Y4.156
X31.123 Y3.99
X30.937 Y3.825
X30.755 Y3.661
X30.577 Y3.501
X30.569 Y3.494
X30.398 Y3.342
X30.38 Y3.327
X30.212 Y3.183
X30.186 Y3.161
X30.019 Y3.025
X29.983 Y2.996
X29.816 Y2.868
X29.771 Y2.835
X29.602 Y2.714
X29.551 Y2.68
X29.377 Y2.567
X29.321 Y2.532
X29.142 Y2.427
X29.087 Y2.396
X28.901 Y2.297
X28.848 Y2.27
X28.655 Y2.176
X28.608 Y2.155
X28.406 Y2.065
X28.367 Y2.049
X28.157 Y1.963
X28.127 Y1.951
X27.908 Y1.867
X27.887 Y1.859
X27.661 Y1.776
X27.648 Y1.772
X27.414 Y1.688
X27.41 Y1.687
X27.171 Y1.602
X26.93 Y1.517
X26.69 Y1.43
X26.451 Y1.34
X26.212 Y1.247
X25.973 Y1.15
X25.735 Y1.049
X25.496 Y0.943
X25.258 Y0.833
X25.021 Y0.718
X24.785 Y0.6
X24.549 Y0.478
X24.316 Y0.353
X24.083 Y0.227
X23.852 Y0.099
X23.623 Y-0.027
X23.62 Y-0.029
X23.396 Y-0.152
X23.387 Y-0.158
X23.17 Y-0.275
X23.152 Y-0.285
X22.941 Y-0.395
X22.913 Y-0.409
X22.71 Y-0.511
X22.67 Y-0.53
X22.473 Y-0.621
X22.421 Y-0.644
X22.23 Y-0.724
X22.162 Y-0.75
X21.977 Y-0.817
X21.894 Y-0.844
X21.714 Y-0.897
X21.615 Y-0.923
X21.441 Y-0.962
X21.329 Y-0.983
X21.159 Y-1.007
X21.04 Y-1.02
X20.874 Y-1.03
X20.754 Y-1.033
X20.592 Y-1.031
X20.481 Y-1.025
X20.321 Y-1.011
X20.227 Y-0.999
X20.07 Y-0.975
X19.998 Y-0.962
X19.842 Y-0.93
X19.794 Y-0.92
X19.639 Y-0.883
X19.617 Y-0.877
X19.463 Y-0.838
X19.322 Y-0.803
X19.203 Y-0.775
X19.102 Y-0.755
X19.016 Y-0.741
X18.941 Y-0.734
X18.87 Y-0.731
X18.798 Y-0.732
X18.721 Y-0.739
X18.635 Y-0.75
X18.535 Y-0.769
X18.419 Y-0.796
X18.285 Y-0.83
X18.131 Y-0.872
X17.967 Y-0.917
X17.944 Y-0.924
X17.781 Y-0.965
X17.734 Y-0.977
X17.573 Y-1.013
X17.503 Y-1.027
X17.344 Y-1.054
X17.253 Y-1.067
X17.096 Y-1.085
X16.988 Y-1.093
X16.833 Y-1.099
X16.72
X16.568 Y-1.093
X16.463 Y-1.085
X16.312 Y-1.069
X16.229 Y-1.058
X16.078 Y-1.033
X16.028 Y-1.024
X15.877 Y-0.994
X15.864 Y-0.991
X15.726 Y-0.962
X15.617 Y-0.942
X15.54 Y-0.93
X15.486 Y-0.926
X15.441 Y-0.925
X15.39 Y-0.929
X15.319 Y-0.94
X15.218 Y-0.962
X15.085 Y-0.998
X14.92 Y-1.048
X14.727 Y-1.109
X14.722 Y-1.11
X14.513 Y-1.175
X14.487 Y-1.183
X14.272 Y-1.246
X14.227 Y-1.258
X14.006 Y-1.315
X13.947 Y-1.329
X13.719 Y-1.379
X13.649 Y-1.392
X13.416 Y-1.431
X13.342 Y-1.441
X13.104 Y-1.469
X13.03 Y-1.476
X12.788 Y-1.492
X12.721 Y-1.495
X12.475 Y-1.5
X12.416
X12.167 Y-1.495
X12.121 Y-1.494
X11.869 Y-1.481
X11.836 Y-1.479
X11.582 Y-1.461
X11.562 Y-1.46
X11.307 Y-1.438
X11.3 Y-1.437
X11.047 Y-1.414
X10.801 Y-1.393
X10.565 Y-1.375
X10.336 Y-1.362
X10.111 Y-1.353
X9.887 Y-1.348
X9.66
X9.427 Y-1.351
X9.186 Y-1.356
X8.941 Y-1.361
X8.929
X8.685 Y-1.365
X8.661
X8.419
X8.381 Y-1.364
X8.141 Y-1.357
X8.09 Y-1.355
X7.853 Y-1.34
X7.79 Y-1.335
X7.556 Y-1.311
X7.485 Y-1.302
X7.252 Y-1.266
X7.176 Y-1.253
X6.947 Y-1.206
X6.87 Y-1.188
X6.644 Y-1.129
X6.57 Y-1.107
X6.347 Y-1.037
X6.278 Y-1.013
X6.059 Y-0.932
X5.997 Y-0.907
X5.782 Y-0.817
X5.729 Y-0.793
X5.518 Y-0.694
X5.473 Y-0.672
X5.267 Y-0.567
X5.231 Y-0.548
X5.03 Y-0.439
X5.002 Y-0.423
X4.807 Y-0.311
X4.787 Y-0.3
X4.598 Y-0.187
X4.585 Y-0.179
X4.401 Y-0.068
X4.395 Y-0.064
X4.218 Y0.044
X4.049 Y0.148
X3.892 Y0.244
X3.747 Y0.332
X3.612 Y0.411
X3.487 Y0.482
X3.374 Y0.545
X3.272 Y0.599
X3.165 Y0.652
G2 X2.553 Y1.221 I0.674 J1.34
G1 X2.478 Y1.222
X2.386
X2.278 Y1.22
X2.166 Y1.218
X2.14 Y1.217
X2.036
X1.977 Y1.218
X1.882 Y1.222
X1.778 Y1.229
X1.695 Y1.238
X1.612 Y1.249
X1.529 Y1.265
X1.457 Y1.281
X1.338 Y1.313
X1.222 Y1.354
X1.162 Y1.378
G2 X0.877 Y1.53 I0.561 J1.391
G1 X0.828 Y1.564
G2 X0.563 Y1.795 I0.845 J1.239
G1 X0.523 Y1.839
G2 X0.341 Y2.086 I1.11 J1.009
G1 X0.308 Y2.141
X0.256 Y2.237
X0.211 Y2.337
X0.184 Y2.403
X0.14 Y2.526
X0.116 Y2.604
X0.099 Y2.665
X0.076 Y2.753
X0.072 Y2.769
X0.049 Y2.861
X0.026 Y2.946
X0.003 Y3.028
X-0.024 Y3.112
X-0.057 Y3.205
X-0.096 Y3.307
X-0.143 Y3.42
X-0.198 Y3.543
X-0.26 Y3.675
X-0.328 Y3.817
X-0.401 Y3.967
X-0.476 Y4.121
X-0.48 Y4.129
X-0.554 Y4.282
X-0.562 Y4.3
X-0.633 Y4.452
X-0.646 Y4.481
X-0.712 Y4.631
X-0.729 Y4.67
X-0.79 Y4.82
X-0.808 Y4.868
X-0.864 Y5.018
X-0.883 Y5.074
X-0.932 Y5.225
X-0.951 Y5.287
X-0.993 Y5.441
X-1.009 Y5.505
X-1.045 Y5.662
X-1.059 Y5.726
X-1.088 Y5.888
X-1.098 Y5.948
X-1.122 Y6.116
X-1.129 Y6.169
X-1.147 Y6.344
X-1.151 Y6.389
X-1.166 Y6.572
X-1.168 Y6.608
X-1.178 Y6.801
X-1.179 Y6.827
X-1.186 Y7.029
X-1.187 Y7.048
X-1.192 Y7.259
Y7.27
X-1.195 Y7.49
Y7.494
X-1.198 Y7.721
X-1.201 Y7.95
X-1.205 Y8.179
X-1.21 Y8.406
X-1.218 Y8.628
X-1.228 Y8.845
X-1.24 Y9.054
X-1.256 Y9.254
X-1.273 Y9.443
X-1.294 Y9.621
X-1.316 Y9.79
X-1.34 Y9.949
X-1.366 Y10.105
X-1.393 Y10.26
X-1.42 Y10.414
X-1.424 Y10.434
X-1.447 Y10.579
X-1.453 Y10.621
X-1.472 Y10.76
X-1.479 Y10.827
X-1.491 Y10.962
X-1.496 Y11.053
X-1.499 Y11.186
X-1.498 Y11.294
X-1.492 Y11.427
X-1.482 Y11.544
X-1.465 Y11.679
X-1.446 Y11.796
X-1.418 Y11.934
X-1.416 Y11.943
Z-2 F333.3
X-1.391 Y12.042 F1000
X-1.351 Y12.184
X-1.32 Y12.28
X-1.268 Y12.424
X-1.235 Y12.508
X-1.171 Y12.655
X-1.138 Y12.727
X-1.065 Y12.875
X-1.032 Y12.939
X-0.951 Y13.086
X-0.917 Y13.142
X-0.83 Y13.285
X-0.796 Y13.338
X-0.704 Y13.474
X-0.668 Y13.526
X-0.575 Y13.652
X-0.535 Y13.703
X-0.521 Y13.721
X-0.532 Y13.823
X-0.54 Y13.946
X-0.544 Y14.098
X-0.54 Y14.225
X-0.536 Y14.305
X-0.527 Y14.385
X-0.509 Y14.516
X-0.495 Y14.597
X-0.478 Y14.677
X-0.445 Y14.808
X-0.423 Y14.885
X-0.398 Y14.961
X-0.35 Y15.091
X-0.293 Y15.226
X-0.23 Y15.355
X-0.17 Y15.467
X-0.095 Y15.595
X-0.039 Y15.682
X0.048 Y15.808
X0.094 Y15.872
X0.19 Y15.997
X0.224 Y16.039
X0.327 Y16.163
X0.345 Y16.185
X0.452 Y16.31
X0.455 Y16.314
X0.559 Y16.433
X0.649 Y16.54
X0.725 Y16.633
X0.787 Y16.717
X0.84 Y16.795
X0.885 Y16.87
X0.927 Y16.946
X0.966 Y17.029
X1.004 Y17.122
X1.043 Y17.228
X1.083 Y17.349
X1.124 Y17.485
X1.168 Y17.638
X1.213 Y17.804
X1.214 Y17.806
X1.262 Y17.979
X1.265 Y17.992
X1.315 Y18.165
X1.321 Y18.187
X1.374 Y18.361
X1.384 Y18.392
X1.44 Y18.564
X1.453 Y18.602
X1.513 Y18.771
X1.529 Y18.814
X1.594 Y18.981
X1.614 Y19.029
X1.684 Y19.191
X1.708 Y19.242
X1.782 Y19.4
X1.81 Y19.454
X1.89 Y19.605
X1.921 Y19.661
X2.005 Y19.806
X2.039 Y19.862
X2.129 Y20.001
X2.165 Y20.054
X2.259 Y20.187
X2.296 Y20.238
X2.394 Y20.364
X2.43 Y20.409
X2.531 Y20.53
X2.563 Y20.568
X2.667 Y20.685
X2.694 Y20.713
X2.801 Y20.827
X2.818 Y20.845
X2.927 Y20.958
X2.933 Y20.964
X3.043 Y21.076
X3.147 Y21.182
X3.243 Y21.283
X3.333 Y21.382
X3.419 Y21.483
X3.503 Y21.588
X3.588 Y21.701
X3.675 Y21.826
X3.764 Y21.963
X3.856 Y22.115
X3.951 Y22.28
X4.048 Y22.457
X4.146 Y22.645
X4.246 Y22.839
X4.346 Y23.039
X4.446 Y23.237
X4.448 Y23.242
X4.545 Y23.433
X4.551 Y23.446
X4.645 Y23.626
X4.656 Y23.647
X4.746 Y23.814
X4.763 Y23.844
X4.849 Y23.995
X4.872 Y24.036
X4.955 Y24.17
X4.987 Y24.221
X5.065 Y24.338
X5.106 Y24.397
X5.181 Y24.498
X5.23 Y24.56
X5.301 Y24.646
X5.352 Y24.705
X5.419 Y24.779
X5.463 Y24.825
X5.527 Y24.889
X5.552 Y24.914
X5.611 Y24.97
X5.647 Y25.004
X5.66 Y25.028
X5.692 Y25.088
X5.736 Y25.177
X5.791 Y25.291
X5.794 Y25.296
X5.855 Y25.423
X5.865 Y25.443
X5.931 Y25.574
X5.949 Y25.607
X6.019 Y25.738
X6.045 Y25.784
X6.12 Y25.914
X6.154 Y25.968
X6.234 Y26.094
X6.277 Y26.156
X6.362 Y26.275
X6.412 Y26.342
X6.501 Y26.452
X6.556 Y26.517
X6.647 Y26.617
X6.705 Y26.678
X6.796 Y26.768
X6.85 Y26.819
X6.939 Y26.9
X6.983 Y26.938
X7 Y26.952
X7.013 Y27.006
X7.04 Y27.113
X7.069 Y27.213
X7.107 Y27.331
X7.144 Y27.431
X7.196 Y27.558
X7.237 Y27.651
X7.304 Y27.787
X7.346 Y27.867
X7.427 Y28.011
X7.468 Y28.078
X7.563 Y28.228
X7.6 Y28.283
X7.708 Y28.437
X7.74 Y28.481
X7.859 Y28.638
X7.887 Y28.674
X8.014 Y28.832
X8.037 Y28.86
X8.169 Y29.016
X8.188 Y29.037
X8.322 Y29.19
X8.335 Y29.205
X8.469 Y29.352
X8.478 Y29.362
X8.607 Y29.504
X8.61 Y29.507
X8.733 Y29.639
X8.842 Y29.758
X8.935 Y29.861
X9.011 Y29.948
X9.07 Y30.018
X9.115 Y30.075
X9.148 Y30.12
X9.176 Y30.162
X9.203 Y30.206
X9.234 Y30.259
X9.272 Y30.329
X9.318 Y30.416
X9.371 Y30.517
X9.372 Y30.52
X9.43 Y30.632
X9.436 Y30.643
X9.499 Y30.761
X9.506 Y30.774
X9.574 Y30.899
X9.583 Y30.915
X9.656 Y31.045
X9.667 Y31.063
X9.745 Y31.198
X9.756 Y31.217
X9.838 Y31.354
X9.85 Y31.374
X9.936 Y31.512
X9.95 Y31.534
X10.038 Y31.672
X10.053 Y31.694
X10.143 Y31.829
X10.16 Y31.854
X10.251 Y31.985
X10.271 Y32.013
X10.362 Y32.136
X10.386 Y32.168
X10.476 Y32.284
X10.505 Y32.321
X10.593 Y32.427
X10.629 Y32.469
X10.715 Y32.565
X10.762 Y32.615
X10.845 Y32.701
X10.903 Y32.757
X10.983 Y32.831
X11.062 Y32.898
X11.139 Y32.96
X11.242 Y33.035
X11.315 Y33.084
X11.384 Y33.127
X11.455 Y33.167
X11.524 Y33.203
X11.618 Y33.248
X11.714 Y33.286
X11.716 Y33.287
X11.793 Y33.339
X11.922 Y33.43
X12.058 Y33.531
X12.2 Y33.641
X12.349 Y33.759
X12.505 Y33.886
X12.667 Y34.022
X12.836 Y34.166
X13.012 Y34.318
X13.194 Y34.475
X13.198 Y34.478
X13.384 Y34.637
X13.393 Y34.645
X13.582 Y34.804
X13.596 Y34.816
X13.787 Y34.973
X13.808 Y34.99
X14.001 Y35.143
X14.029 Y35.164
X14.224 Y35.312
X14.258 Y35.336
X14.454 Y35.476
X14.493 Y35.503
X14.69 Y35.634
X14.736 Y35.664
X14.934 Y35.785
X14.983 Y35.814
X15.179 Y35.924
X15.231 Y35.952
X15.426 Y36.052
X15.475 Y36.076
X15.668 Y36.167
X15.708 Y36.185
X15.899 Y36.267
X15.927 Y36.279
X16.113 Y36.355
X16.121 Y36.359
X16.295 Y36.428
X16.441 Y36.489
X16.554 Y36.54
X16.636 Y36.582
X16.692 Y36.615
X16.733 Y36.644
X16.771 Y36.676
X16.817 Y36.723
X16.879 Y36.794
X16.958 Y36.896
X17.054 Y37.03
X17.168 Y37.192
X17.17 Y37.195
X17.293 Y37.37
X17.309 Y37.392
X17.438 Y37.567
X17.466 Y37.604
X17.601 Y37.777
X17.637 Y37.821
X17.779 Y37.99
X17.823 Y38.039
X17.971 Y38.2
X18.015 Y38.245
X18.167 Y38.398
X18.205 Y38.434
X18.358 Y38.576
X18.369 Y38.586
X18.359 Y38.611
X18.316 Y38.734
X18.266 Y38.898
X18.242 Y38.987
X18.223 Y39.078
X18.194 Y39.247
X18.179 Y39.357
X18.172 Y39.468
X18.168 Y39.642
X18.17 Y39.758
X18.18 Y39.873
X18.204 Y40.051
X18.222 Y40.158
X18.247 Y40.263
X18.298 Y40.442
X18.325 Y40.527
X18.356 Y40.61
X18.432 Y40.791
X18.49 Y40.915
X18.585 Y41.097
X18.631 Y41.177
X18.741 Y41.359
X18.77 Y41.404
X18.889 Y41.585
X18.898 Y41.598
X19.012 Y41.767
X19.052 Y41.829
X19.045 Y41.836
X18.914 Y41.968
X18.891 Y41.991
X18.758 Y42.131
X18.71 Y42.183
X18.583 Y42.33
X18.517 Y42.412
X18.4 Y42.568
X18.324 Y42.68
X18.221 Y42.846
X18.181 Y42.914
X18.145 Y42.984
X18.059 Y43.162
X18.025 Y43.238
X17.995 Y43.315
X17.929 Y43.505
X17.904 Y43.581
X17.884 Y43.659
X17.836 Y43.86
X17.81 Y43.998
X17.781 Y44.21
X17.77 Y44.324
X17.756 Y44.544
X17.754 Y44.628
X17.753 Y44.855
Y44.908
X17.761 Y45.138
X17.762 Y45.164
X17.773 Y45.393
X17.782 Y45.605
X17.787 Y45.785
X17.784 Y45.932
X17.776 Y46.048
X17.762 Y46.14
X17.744 Y46.219
X17.72 Y46.298
X17.684 Y46.388
X17.633 Y46.501
X17.564 Y46.639
X17.481 Y46.8
X17.473 Y46.815
X17.388 Y46.985
X17.367 Y47.028
X17.287 Y47.202
X17.257 Y47.272
X17.186 Y47.451
X17.153 Y47.54
X17.092 Y47.725
X17.063 Y47.825
X17.014 Y48.016
X16.992 Y48.119
X16.957 Y48.317
X16.942 Y48.413
X16.919 Y48.617
X16.912 Y48.704
X16.9 Y48.913
X16.898 Y48.987
X16.896 Y49.2
X16.897 Y49.261
X16.904 Y49.476
X16.907 Y49.525
X16.921 Y49.741
X16.924 Y49.781
X16.944 Y49.996
X16.948 Y50.028
X16.972 Y50.241
X16.976 Y50.269
X17.004 Y50.479
X17.008 Y50.507
X17.039 Y50.712
X17.045 Y50.745
X17.08 Y50.946
X17.088 Y50.986
X17.128 Y51.182
X17.139 Y51.232
X17.185 Y51.424
X17.201 Y51.483
X17.254 Y51.67
X17.276 Y51.741
X17.338 Y51.924
X17.366 Y51.999
X17.438 Y52.178
X17.471 Y52.256
X17.554 Y52.433
X17.591 Y52.508
X17.685 Y52.682
X17.723 Y52.749
X17.827 Y52.921
X17.864 Y52.979
X17.977 Y53.15
X18.009 Y53.195
X18.13 Y53.363
X18.155 Y53.396
X18.282 Y53.562
X18.299 Y53.584
X18.429 Y53.747
X18.436 Y53.756
X18.565 Y53.915
X18.685 Y54.064
X18.791 Y54.198
X18.881 Y54.317
X18.956 Y54.421
X19.017 Y54.513
X19.068 Y54.598
X19.116 Y54.685
X19.166 Y54.781
X19.221 Y54.895
X19.283 Y55.023
X19.292 Y55.042
X19.358 Y55.175
X19.379 Y55.216
X19.452 Y55.351
X19.486 Y55.411
X19.568 Y55.548
X19.613 Y55.62
X19.708 Y55.761
X19.764 Y55.838
X19.875 Y55.981
X19.938 Y56.057
X20.066 Y56.203
X20.135 Y56.275
X20.284 Y56.423
X20.355 Y56.489
X20.525 Y56.637
X20.596 Y56.695
X20.789 Y56.843
X20.86 Y56.894
X21.075 Y57.041
X21.144 Y57.085
X21.382 Y57.228
X21.449 Y57.266
X21.709 Y57.405
X21.773 Y57.437
X22.054 Y57.571
X22.114 Y57.598
X22.414 Y57.725
X22.47 Y57.747
X22.787 Y57.866
X22.841 Y57.885
X23.171 Y57.995
X23.221 Y58.011
X23.561 Y58.11
X23.609 Y58.123
X23.954 Y58.212
X24.001 Y58.224
X24.348 Y58.301
X24.394 Y58.311
X24.737 Y58.377
X24.783 Y58.385
X25.119 Y58.438
X25.166 Y58.445
X25.491 Y58.486
X25.541 Y58.492
X25.851 Y58.521
X25.904 Y58.525
X26.195 Y58.542
X26.254 Y58.544
X26.524 Y58.549
X26.59
X26.837 Y58.543
X26.911 Y58.539
X27.135 Y58.522
X27.22 Y58.514
X27.42 Y58.487
X27.513 Y58.472
X27.69 Y58.437
X27.79 Y58.414
X27.947 Y58.372
X28.043 Y58.343
X28.183 Y58.295
X28.265 Y58.265
X28.393 Y58.213
X28.449 Y58.189
X28.568 Y58.134
X28.59 Y58.124
X28.698 Y58.073
X28.78 Y58.035
X28.827 Y58.016
X28.887 Y58.061
X28.988 Y58.143
X29.119 Y58.255
X29.27 Y58.384
X29.29 Y58.401
X29.451 Y58.534
X29.487 Y58.563
X29.66 Y58.697
X29.71 Y58.734
X29.896 Y58.866
X29.955 Y58.906
X30.156 Y59.035
X30.218 Y59.073
X30.435 Y59.198
X30.495 Y59.23
X30.727 Y59.35
X30.783 Y59.378
X31.029 Y59.492
X31.079 Y59.514
X31.339 Y59.624
X31.381 Y59.641
X31.651 Y59.745
X31.684 Y59.757
X31.964 Y59.858
X31.988 Y59.866
X32.275 Y59.964
X32.29 Y59.969
X32.582 Y60.064
X32.589 Y60.067
X32.882 Y60.161
X33.171 Y60.255
X33.451 Y60.347
X33.722 Y60.439
X33.982 Y60.533
X34.235 Y60.628
X34.48 Y60.725
X34.719 Y60.825
X34.956 Y60.928
X35.192 Y61.035
X35.429 Y61.145
X35.669 Y61.258
X35.911 Y61.372
X35.919 Y61.376
X36.161 Y61.488
X36.176 Y61.496
X36.42 Y61.605
X36.442 Y61.615
X36.688 Y61.721
X36.716 Y61.733
X36.967 Y61.835
X37 Y61.848
X37.257 Y61.946
X37.292 Y61.959
X37.556 Y62.051
X37.593 Y62.064
X37.865 Y62.152
X37.9 Y62.163
X38.182 Y62.246
X38.216 Y62.256
X38.508 Y62.335
X38.538 Y62.343
X38.841 Y62.418
X38.868 Y62.424
X39.181 Y62.496
X39.204 Y62.501
X39.528 Y62.571
X39.547 Y62.574
X39.883 Y62.642
X39.897 Y62.644
X40.243 Y62.71
X40.255 Y62.712
X40.61 Y62.777
X40.618 Y62.779
X40.983 Y62.843
X40.989 Y62.844
X41.361 Y62.908
X41.366 Y62.909
X41.744 Y62.973
X41.747 Y62.974
X42.13 Y63.038
X42.133 Y63.039
X42.519 Y63.103
X42.521
X42.908 Y63.167
X42.912 Y63.168
X43.296 Y63.23
X43.303 Y63.231
X43.682 Y63.291
X43.691 Y63.292
X44.063 Y63.348
X44.077 Y63.35
X44.438 Y63.402
X44.455 Y63.404
X44.803 Y63.449
X44.827 Y63.452
X45.158 Y63.49
X45.189 Y63.493
X45.502 Y63.522
X45.541 Y63.525
X45.834 Y63.544
X45.883 Y63.547
X46.154 Y63.556
X46.215
X46.463 Y63.554
X46.535 Y63.552
X46.76 Y63.539
X46.844 Y63.532
X47.047 Y63.509
X47.138 Y63.496
X47.321 Y63.464
X47.409 Y63.446
X47.575 Y63.406
X47.648 Y63.387
X47.801 Y63.343
X47.842 Y63.33
X47.985 Y63.284
X48.099 Y63.247
X48.172 Y63.227
X48.22 Y63.216
X48.265 Y63.21
X48.33 Y63.207
X48.43 Y63.209
X48.572 Y63.221
X48.754 Y63.244
X48.973 Y63.277
X49.221 Y63.319
X49.483 Y63.364
X49.499 Y63.367
X49.761 Y63.409
X49.796 Y63.414
X50.05 Y63.448
X50.107 Y63.455
X50.346 Y63.478
X50.432 Y63.484
X50.652 Y63.493
X50.768
X50.965 Y63.486
X51.119 Y63.472
X51.291 Y63.448
X51.383 Y63.432
X51.474 Y63.41
X51.621 Y63.37
X51.717 Y63.341
X51.811 Y63.305
X51.935 Y63.252
X52.015 Y63.216
X52.091 Y63.176
X52.159 Y63.137
X52.325 Y63.177
X52.352 Y63.183
X52.528 Y63.222
X52.582 Y63.233
X52.761 Y63.265
X52.839 Y63.277
X53.019 Y63.3
X53.115 Y63.309
X53.292 Y63.32
X53.396 Y63.323
X53.57 Y63.322
X53.672 Y63.317
X53.842 Y63.304
X53.936 Y63.294
X54.102 Y63.271
X54.173 Y63.259
X54.336 Y63.229
X54.385 Y63.219
X54.545 Y63.183
X54.567 Y63.178
X54.724 Y63.14
X54.869 Y63.106
X54.999 Y63.079
X55.122 Y63.056
X55.249 Y63.037
X55.389 Y63.022
X55.549 Y63.01
X55.733 Y63.001
X55.946 Y62.996
X56.186 Y62.994
X56.455 Y62.995
X56.751 Y62.997
X57.073 Y63.001
X57.417 Y63.005
X57.781 Y63.01
X58.16 Y63.015
X58.549 Y63.021
X58.946 Y63.028
X59.344 Y63.036
X59.738 Y63.048
X60.123 Y63.062
X60.493 Y63.08
X60.843 Y63.102
X61.167 Y63.13
X61.462 Y63.161
X61.721 Y63.197
X61.941 Y63.235
X62.121 Y63.275
X62.258 Y63.313
X62.359 Y63.348
X62.432 Y63.378
X62.491 Y63.408
X62.554 Y63.444
X62.64 Y63.496
X62.642 Y63.498
X62.741 Y63.558
X62.793 Y63.589
X62.889 Y63.643
X62.996 Y63.697
X63.095 Y63.742
X63.234 Y63.798
X63.34 Y63.834
X63.488 Y63.876
X63.605 Y63.903
X63.733 Y63.927
X63.863 Y63.946
X63.963 Y63.956
X64.108 Y63.967
X64.173 Y63.97
X64.335 Y63.975
X64.376 Y63.976
X64.554
X64.574
X64.768 Y63.974
X64.772
X64.98 Y63.971
X65.196 Y63.969
X65.422
X65.658 Y63.972
X65.906 Y63.978
X66.166 Y63.987
X66.437 Y63.999
X66.719 Y64.013
X67.01 Y64.03
X67.309 Y64.049
X67.614 Y64.069
X67.923 Y64.088
X67.929 Y64.089
X68.238 Y64.107
X68.247
X68.556 Y64.124
X68.567 Y64.125
X68.876 Y64.139
X68.89
X69.197 Y64.151
X69.212
X69.518 Y64.16
X69.533
X69.838 Y64.165
X69.853
X70.156 Y64.167
X70.172
X70.474 Y64.166
X70.487
X70.789 Y64.162
X70.801
X71.102 Y64.156
X71.112
X71.413 Y64.148
X71.423 Y64.147
X71.725 Y64.137
X71.732
X72.035 Y64.126
X72.042 Y64.125
X72.345 Y64.112
X72.352
X72.656 Y64.097
X72.665
X72.969 Y64.081
X72.979 Y64.08
X73.283 Y64.062
X73.298 Y64.061
X73.599 Y64.04
X73.619 Y64.038
X73.918 Y64.013
X73.944 Y64.011
X74.238 Y63.981
X74.275 Y63.977
X74.561 Y63.941
X74.607 Y63.934
X74.884 Y63.891
X74.943 Y63.88
X75.209 Y63.827
X75.28 Y63.811
X75.533 Y63.748
X75.616 Y63.725
X75.853 Y63.651
X75.951 Y63.617
X76.171 Y63.531
X76.279 Y63.484
X76.481 Y63.387
X76.595 Y63.325
X76.778 Y63.217
X76.892 Y63.141
X77.057 Y63.022
X77.162 Y62.939
X77.308 Y62.811
X77.396 Y62.728
X77.526 Y62.595
X77.592 Y62.523
X77.708 Y62.387
X77.747 Y62.339
X77.854 Y62.205
X77.866 Y62.189
