(1001)
(Machine)
(  vendor: Autodesk)
(  description: Generic 3-axis)
(T4  D=3 CR=0 - ZMIN=-17.5 - flat end mill)
G90 G94
G17
G21

(Drill1)
T4
S15000 M3
G54
M8
G0 X-60 Y-0.021
Z6
Z4
Z2
G1 Z-17.5 F150
G0 Z4
X-59.917 Y-3.161
Z2
G1 Z-17.5 F150
G0 Z4
X-59.669 Y-6.292
Z2
G1 Z-17.5 F150
G0 Z4
X-59.258 Y-9.407
Z2
G1 Z-17.5 F150
G0 Z4
X-58.685 Y-12.495
Z2
G1 Z-17.5 F150
G0 Z4
X-57.95 Y-15.549
Z2
G1 Z-17.5 F150
G0 Z4
X-57.057 Y-18.561
Z2
G1 Z-17.5 F150
G0 Z4
X-56.007 Y-21.522
Z2
G1 Z-17.5 F150
G0 Z4
X-54.804 Y-24.423
Z2
G1 Z-17.5 F150
G0 Z4
X-53.451 Y-27.258
Z2
G1 Z-17.5 F150
G0 Z4
X-51.951 Y-30.018
Z2
G1 Z-17.5 F150
G0 Z4
X-50.309 Y-32.696
Z2
G1 Z-17.5 F150
G0 Z4
X-48.529 Y-35.284
Z2
G1 Z-17.5 F150
G0 Z4
X-46.616 Y-37.775
Z2
G1 Z-17.5 F150
G0 Z4
X-44.575 Y-40.163
Z2
G1 Z-17.5 F150
G0 Z4
X-42.412 Y-42.441
Z2
G1 Z-17.5 F150
G0 Z4
X-40.132 Y-44.603
Z2
G1 Z-17.5 F150
G0 Z4
X-37.743 Y-46.642
Z2
G1 Z-17.5 F150
G0 Z4
X-35.25 Y-48.553
Z2
G1 Z-17.5 F150
G0 Z4
X-32.661 Y-50.332
Z2
G1 Z-17.5 F150
G0 Z4
X-29.982 Y-51.972
Z2
G1 Z-17.5 F150
G0 Z4
X-27.221 Y-53.47
Z2
G1 Z-17.5 F150
G0 Z4
X-24.385 Y-54.821
Z2
G1 Z-17.5 F150
G0 Z4
X-21.483 Y-56.022
Z2
G1 Z-17.5 F150
G0 Z4
X-18.521 Y-57.07
Z2
G1 Z-17.5 F150
G0 Z4
X-15.509 Y-57.961
Z2
G1 Z-17.5 F150
G0 Z4
X-12.454 Y-58.693
Z2
G1 Z-17.5 F150
G0 Z4
X-9.365 Y-59.265
Z2
G1 Z-17.5 F150
G0 Z4
X-6.251 Y-59.673
Z2
G1 Z-17.5 F150
G0 Z4
X-3.119 Y-59.919
Z2
G1 Z-17.5 F150
G0 Z4
X0.021 Y-60
Z2
G1 Z-17.5 F150
G0 Z4
X3.161 Y-59.917
Z2
G1 Z-17.5 F150
G0 Z4
X6.292 Y-59.669
Z2
G1 Z-17.5 F150
G0 Z4
X9.407 Y-59.258
Z2
G1 Z-17.5 F150
G0 Z4
X12.495 Y-58.685
Z2
G1 Z-17.5 F150
G0 Z4
X15.549 Y-57.95
Z2
G1 Z-17.5 F150
G0 Z4
X18.561 Y-57.057
Z2
G1 Z-17.5 F150
G0 Z4
X21.522 Y-56.007
Z2
G1 Z-17.5 F150
G0 Z4
X24.423 Y-54.804
Z2
G1 Z-17.5 F150
G0 Z4
X27.258 Y-53.451
Z2
G1 Z-17.5 F150
G0 Z4
X30.018 Y-51.951
Z2
G1 Z-17.5 F150
G0 Z4
X32.696 Y-50.309
Z2
G1 Z-17.5 F150
G0 Z4
X35.284 Y-48.529
Z2
G1 Z-17.5 F150
G0 Z4
X37.775 Y-46.616
Z2
G1 Z-17.5 F150
G0 Z4
X40.163 Y-44.575
Z2
G1 Z-17.5 F150
G0 Z4
X42.441 Y-42.412
Z2
G1 Z-17.5 F150
G0 Z4
X44.603 Y-40.132
Z2
G1 Z-17.5 F150
G0 Z4
X46.642 Y-37.743
Z2
G1 Z-17.5 F150
G0 Z4
X48.553 Y-35.25
Z2
G1 Z-17.5 F150
G0 Z4
X50.332 Y-32.661
Z2
G1 Z-17.5 F150
G0 Z4
X51.972 Y-29.982
Z2
G1 Z-17.5 F150
G0 Z4
X53.47 Y-27.221
Z2
G1 Z-17.5 F150
G0 Z4
X54.821 Y-24.385
Z2
G1 Z-17.5 F150
G0 Z4
X56.022 Y-21.483
Z2
G1 Z-17.5 F150
G0 Z4
X57.07 Y-18.521
Z2
G1 Z-17.5 F150
G0 Z4
X57.961 Y-15.509
Z2
G1 Z-17.5 F150
G0 Z4
X58.693 Y-12.454
Z2
G1 Z-17.5 F150
G0 Z4
X59.265 Y-9.365
Z2
G1 Z-17.5 F150
G0 Z4
X59.673 Y-6.251
Z2
G1 Z-17.5 F150
G0 Z4
X59.919 Y-3.119
Z2
G1 Z-17.5 F150
G0 Z4
X60 Y0.021
Z2
G1 Z-17.5 F150
G0 Z4
X59.917 Y3.161
Z2
G1 Z-17.5 F150
G0 Z4
X59.669 Y6.292
Z2
G1 Z-17.5 F150
G0 Z4
X59.258 Y9.407
Z2
G1 Z-17.5 F150
G0 Z4
X58.685 Y12.495
Z2
G1 Z-17.5 F150
G0 Z4
X57.95 Y15.549
Z2
G1 Z-17.5 F150
G0 Z4
X57.057 Y18.561
Z2
G1 Z-17.5 F150
G0 Z4
X56.007 Y21.522
Z2
G1 Z-17.5 F150
G0 Z4
X54.804 Y24.423
Z2
G1 Z-17.5 F150
G0 Z4
X53.451 Y27.258
Z2
G1 Z-17.5 F150
G0 Z4
X51.951 Y30.018
Z2
G1 Z-17.5 F150
G0 Z4
X50.309 Y32.696
Z2
G1 Z-17.5 F150
G0 Z4
X48.529 Y35.284
Z2
G1 Z-17.5 F150
G0 Z4
X46.616 Y37.775
Z2
G1 Z-17.5 F150
G0 Z4
X44.575 Y40.163
Z2
G1 Z-17.5 F150
G0 Z4
X42.412 Y42.441
Z2
G1 Z-17.5 F150
G0 Z4
X40.132 Y44.603
Z2
G1 Z-17.5 F150
G0 Z4
X37.743 Y46.642
Z2
G1 Z-17.5 F150
G0 Z4
X35.25 Y48.553
Z2
G1 Z-17.5 F150
G0 Z4
X32.661 Y50.332
Z2
G1 Z-17.5 F150
G0 Z4
X29.982 Y51.972
Z2
G1 Z-17.5 F150
G0 Z4
X27.221 Y53.47
Z2
G1 Z-17.5 F150
G0 Z4
X24.385 Y54.821
Z2
G1 Z-17.5 F150
G0 Z4
X21.483 Y56.022
Z2
G1 Z-17.5 F150
G0 Z4
X18.521 Y57.07
Z2
G1 Z-17.5 F150
G0 Z4
X15.509 Y57.961
Z2
G1 Z-17.5 F150
G0 Z4
X12.454 Y58.693
Z2
G1 Z-17.5 F150
G0 Z4
X9.365 Y59.265
Z2
G1 Z-17.5 F150
G0 Z4
X6.251 Y59.673
Z2
G1 Z-17.5 F150
G0 Z4
X3.119 Y59.919
Z2
G1 Z-17.5 F150
G0 Z4
X-0.021 Y60
Z2
G1 Z-17.5 F150
G0 Z4
X-3.161 Y59.917
Z2
G1 Z-17.5 F150
G0 Z4
X-6.292 Y59.669
Z2
G1 Z-17.5 F150
G0 Z4
X-9.407 Y59.258
Z2
G1 Z-17.5 F150
G0 Z4
X-12.495 Y58.685
Z2
G1 Z-17.5 F150
G0 Z4
X-15.549 Y57.95
Z2
G1 Z-17.5 F150
G0 Z4
X-18.561 Y57.057
Z2
G1 Z-17.5 F150
G0 Z4
X-21.522 Y56.007
Z2
G1 Z-17.5 F150
G0 Z4
X-24.423 Y54.804
Z2
G1 Z-17.5 F150
G0 Z4
X-27.258 Y53.451
Z2
G1 Z-17.5 F150
G0 Z4
X-30.018 Y51.951
Z2
G1 Z-17.5 F150
G0 Z4
X-32.696 Y50.309
Z2
G1 Z-17.5 F150
G0 Z4
X-35.284 Y48.529
Z2
G1 Z-17.5 F150
G0 Z4
X-37.775 Y46.616
Z2
G1 Z-17.5 F150
G0 Z4
X-40.163 Y44.575
Z2
G1 Z-17.5 F150
G0 Z4
X-42.441 Y42.412
Z2
G1 Z-17.5 F150
G0 Z4
X-44.603 Y40.132
Z2
G1 Z-17.5 F150
G0 Z4
X-46.642 Y37.743
Z2
G1 Z-17.5 F150
G0 Z4
X-48.553 Y35.25
Z2
G1 Z-17.5 F150
G0 Z4
X-50.332 Y32.661
Z2
G1 Z-17.5 F150
G0 Z4
X-51.972 Y29.982
Z2
G1 Z-17.5 F150
G0 Z4
X-53.47 Y27.221
Z2
G1 Z-17.5 F150
G0 Z4
X-54.821 Y24.385
Z2
G1 Z-17.5 F150
G0 Z4
X-56.022 Y21.483
Z2
G1 Z-17.5 F150
G0 Z4
X-57.07 Y18.521
Z2
G1 Z-17.5 F150
G0 Z4
X-57.961 Y15.509
Z2
G1 Z-17.5 F150
G0 Z4
X-58.693 Y12.454
Z2
G1 Z-17.5 F150
G0 Z4
X-59.265 Y9.365
Z2
G1 Z-17.5 F150
G0 Z4
X-59.673 Y6.251
Z2
G1 Z-17.5 F150
G0 Z4
X-59.919 Y3.119
Z2
G1 Z-17.5 F150
G0 Z4
Z6
M9
M5
M30
