(1001)
(T1  D=3 CR=0 - ZMIN=-3 - flat end mill)
G90 G94
G17
G21

(Pocket1 2)
T1
S500 M3
G54
M8
G0 X81.448 Y39.753
Z6
Z1.3
G1 Z0.315 F300
S15000
X82.36 Z0.27
G3 X82.36 Y40.053 I0 J0.15
G1 X79.81 Z0.143
G3 X79.81 Y39.753 I0 J-0.15
G1 X82.36 Z0.017
G3 X82.36 Y40.053 I0 J0.15
G1 X79.81 Z-0.11
G3 X79.81 Y39.753 I0 J-0.15
G1 X82.36 Z-0.237
G3 X82.36 Y40.053 I0 J0.15
G1 X81.085 Z-0.3
G3 X80.79 Y39.685 I0 J-0.303
G1 X80.858 Y39.381
G2 X80.267 Y39.248 I-0.295 J-0.066
X80.763 Y39.541 I0.295 J0.066
S500
G1 X80.792 Y39.515 F1000
G3 X81.042 Y39.419 I0.249 J0.275
G1 X83.555 Y39.421
G3 X83.555 Y40.385 I0 J0.482
G1 X81.041 Y40.388
G3 X80.797 Y40.297 I0 J-0.371
G1 X80.736 Y40.246
X80.674 Y40.195
G3 X80.67 Y39.621 I0.233 J-0.289
G1 X80.763 Y39.541
G2 X81.031 Y38.905 I-0.529 J-0.597
G3 X81.507 Y38.406 I0.475 J-0.023
G1 X84.031 Y38.409
G3 X85.117 Y39.098 I-0.001 J1.203
G1 X85.182 Y39.236
G3 X85.285 Y39.575 I-1.088 J0.514
G1 X85.308 Y39.73
G3 X85.307 Y40.084 I-1.19 J0.175
G1 X85.285 Y40.235
G3 X85.18 Y40.577 I-1.19 J-0.179
G1 X85.113 Y40.715
G3 X84.03 Y41.398 I-1.085 J-0.521
G1 X80.973 Y41.401
G3 X80.169 Y41.093 I-0.001 J-1.203
G2 X78.817 Y40.321 I-2.465 J2.747
X77.281 Y40.077 I-1.582 J4.998
G1 X66.097 Y40.175
G3 X66.097 Y39.634 I0 J-0.271
X71.975 Y39.672 I0.076 J440.767
G2 X77.852 Y39.71 I5.801 J-440.728
X79.093 Y39.439 I-0.001 J-2.983
X80.148 Y38.731 I-1.638 J-3.578
G3 X80.972 Y38.406 I0.823 J0.877
G1 X81.507
G2 X82.992 Y37.418 I0.002 J-1.608
G3 X84.478 Y36.43 I1.484 J0.62
G1 X84.984
X85.004 Y36.434
X85.946 Y36.993
X85.975 Y37.02
X86.69 Y37.807
X86.724 Y37.866
X87.166 Y38.802
X87.18 Y38.856
X87.332 Y39.891
X87.33 Y39.943
X87.175 Y40.976
X87.156 Y41.033
X86.691 Y42.002
X85.954 Y42.806
X85.931 Y42.825
X84.992 Y43.374
X84.986 Y43.376
X79.288 Y43.382
X79.283 Y43.36
X79.246 Y43.215
X79.224 Y43.14
X79.193 Y43.068
X79.122 Y42.923
X79.082 Y42.852
X79.035 Y42.785
X78.932 Y42.657
X78.878 Y42.595
X78.816 Y42.54
X78.688 Y42.437
X78.621 Y42.389
X78.549 Y42.348
X78.4 Y42.275
X78.323 Y42.242
X78.243 Y42.218
X78.08 Y42.18
X77.997 Y42.165
X77.913 Y42.159
X77.263 Y42.153
X77.256
X65.726 Y42.155
X64.886 Y42.021
X64.272 Y41.708
X63.781 Y41.217
X63.464 Y40.591
X63.355 Y39.904
X63.464 Y39.216
X63.628 Y38.894
X63.779 Y38.597
X63.797 Y38.577
X64.272 Y38.101
X64.888 Y37.787
X65.726 Y37.655
X77.852 Y37.652
X77.912 Y37.65
X77.972 Y37.643
X78.134 Y37.617
X78.211 Y37.6
X78.286 Y37.575
X78.426 Y37.521
X78.494 Y37.49
X78.559 Y37.453
X78.686 Y37.372
X78.743 Y37.331
X78.796 Y37.286
X78.891 Y37.196
X78.944 Y37.14
X78.991 Y37.08
X79.092 Y36.935
X79.135 Y36.864
X79.171 Y36.789
X79.23 Y36.644
X79.255 Y36.572
X79.272 Y36.498
X79.286 Y36.425
X84.478 Y36.43
G3 X84.558 Y36.707 I0 J0.15
G1 X80.18 Y39.477
G2 X80.261 Y39.753 I0.08 J0.127
S15000
G1 X81.085 Z-0.6 F300
X81.128 Y39.748
X81.168 Y39.731
X81.203 Y39.704
X81.23 Y39.67
X81.246 Y39.63
X81.252 Y39.586
X81.253 Y39.252
G2 X80.918 Y39.251 I-0.167 J0
X81.085 Y39.419 I0.167 J0
S500
G1 X83.555 Y39.421 F1000
G3 X83.555 Y40.385 I0 J0.482
G1 X81.041 Y40.388
G3 X80.797 Y40.297 I0 J-0.371
G1 X80.736 Y40.246
X80.674 Y40.195
G3 X80.67 Y39.621 I0.233 J-0.289
G1 X80.792 Y39.515
G3 X81.042 Y39.419 I0.249 J0.275
G1 X81.085
G2 X81.845 Y38.913 I0.001 J-0.823
G3 X82.606 Y38.407 I0.759 J0.317
G1 X84.031 Y38.409
G3 X85.117 Y39.098 I-0.001 J1.203
G1 X85.182 Y39.236
G3 X85.285 Y39.575 I-1.088 J0.514
G1 X85.308 Y39.73
G3 X85.307 Y40.084 I-1.19 J0.175
G1 X85.285 Y40.235
G3 X85.18 Y40.577 I-1.19 J-0.179
G1 X85.113 Y40.715
G3 X84.03 Y41.398 I-1.085 J-0.521
G1 X80.973 Y41.401
G3 X80.169 Y41.093 I-0.001 J-1.203
G2 X78.817 Y40.321 I-2.465 J2.747
X77.281 Y40.077 I-1.582 J4.998
G1 X66.097 Y40.175
G3 X66.097 Y39.634 I0 J-0.271
X71.975 Y39.672 I0.076 J440.767
G2 X77.852 Y39.71 I5.801 J-440.728
X79.093 Y39.439 I-0.001 J-2.983
X80.148 Y38.731 I-1.638 J-3.578
G3 X80.972 Y38.406 I0.823 J0.877
G1 X82.606 Y38.407
G2 X83.938 Y37.373 I0.001 J-1.373
G3 X85.496 Y36.726 I1.021 J0.26
G1 X85.946 Y36.993
X85.975 Y37.02
X86.69 Y37.807
X86.724 Y37.866
X87.166 Y38.802
X87.18 Y38.856
X87.332 Y39.891
X87.33 Y39.943
X87.175 Y40.976
X87.156 Y41.033
X86.691 Y42.002
X85.954 Y42.806
X85.931 Y42.825
X84.992 Y43.374
X84.986 Y43.376
X79.288 Y43.382
X79.283 Y43.36
X79.246 Y43.215
X79.224 Y43.14
X79.193 Y43.068
X79.122 Y42.923
X79.082 Y42.852
X79.035 Y42.785
X78.932 Y42.657
X78.878 Y42.595
X78.816 Y42.54
X78.688 Y42.437
X78.621 Y42.389
X78.549 Y42.348
X78.4 Y42.275
X78.323 Y42.242
X78.243 Y42.218
X78.08 Y42.18
X77.997 Y42.165
X77.913 Y42.159
X77.263 Y42.153
X77.256
X65.726 Y42.155
X64.886 Y42.021
X64.272 Y41.708
X63.781 Y41.217
X63.464 Y40.591
X63.355 Y39.904
X63.464 Y39.216
X63.628 Y38.894
X63.779 Y38.597
X63.797 Y38.577
X64.272 Y38.101
X64.888 Y37.787
X65.726 Y37.655
X77.852 Y37.652
X77.912 Y37.65
X77.972 Y37.643
X78.134 Y37.617
X78.211 Y37.6
X78.286 Y37.575
X78.426 Y37.521
X78.494 Y37.49
X78.559 Y37.453
X78.686 Y37.372
X78.743 Y37.331
X78.796 Y37.286
X78.891 Y37.196
X78.944 Y37.14
X78.991 Y37.08
X79.092 Y36.935
X79.135 Y36.864
X79.171 Y36.789
X79.23 Y36.644
X79.255 Y36.572
X79.272 Y36.498
X79.286 Y36.425
X84.984 Y36.43
X85.004 Y36.434
X85.496 Y36.726
G3 X85.483 Y36.991 I-0.077 J0.129
G1 X80.197 Y39.467
G2 X80.261 Y39.753 I0.064 J0.136
S15000
G1 X81.085 Z-0.9 F300
X81.128 Y39.748
X81.168 Y39.731
X81.203 Y39.704
X81.23 Y39.67
X81.246 Y39.63
X81.252 Y39.586
X81.253 Y39.252
G2 X80.918 Y39.251 I-0.167 J0
X81.085 Y39.419 I0.167 J0
S500
G1 X83.555 Y39.421 F1000
G3 X83.555 Y40.385 I0 J0.482
G1 X81.041 Y40.388
G3 X80.797 Y40.297 I0 J-0.371
G1 X80.736 Y40.246
X80.674 Y40.195
G3 X80.67 Y39.621 I0.233 J-0.289
G1 X80.792 Y39.515
G3 X81.042 Y39.419 I0.249 J0.275
G1 X81.085
G2 X81.845 Y38.913 I0.001 J-0.823
G3 X82.606 Y38.407 I0.759 J0.317
G1 X84.031 Y38.409
G3 X85.117 Y39.098 I-0.001 J1.203
G1 X85.182 Y39.236
G3 X85.285 Y39.575 I-1.088 J0.514
G1 X85.308 Y39.73
G3 X85.307 Y40.084 I-1.19 J0.175
G1 X85.285 Y40.235
G3 X85.18 Y40.577 I-1.19 J-0.179
G1 X85.113 Y40.715
G3 X84.03 Y41.398 I-1.085 J-0.521
G1 X80.973 Y41.401
G3 X80.169 Y41.093 I-0.001 J-1.203
G2 X78.817 Y40.321 I-2.465 J2.747
X77.281 Y40.077 I-1.582 J4.998
G1 X66.097 Y40.175
G3 X66.097 Y39.634 I0 J-0.271
X71.975 Y39.672 I0.076 J440.767
G2 X77.852 Y39.71 I5.801 J-440.728
X79.093 Y39.439 I-0.001 J-2.983
X80.148 Y38.731 I-1.638 J-3.578
G3 X80.972 Y38.406 I0.823 J0.877
G1 X82.606 Y38.407
G2 X83.938 Y37.373 I0.001 J-1.373
G3 X85.496 Y36.726 I1.021 J0.26
G1 X85.946 Y36.993
X85.975 Y37.02
X86.69 Y37.807
X86.724 Y37.866
X87.166 Y38.802
X87.18 Y38.856
X87.332 Y39.891
X87.33 Y39.943
X87.175 Y40.976
X87.156 Y41.033
X86.691 Y42.002
X85.954 Y42.806
X85.931 Y42.825
X84.992 Y43.374
X84.986 Y43.376
X79.288 Y43.382
X79.283 Y43.36
X79.246 Y43.215
X79.224 Y43.14
X79.193 Y43.068
X79.122 Y42.923
X79.082 Y42.852
X79.035 Y42.785
X78.932 Y42.657
X78.878 Y42.595
X78.816 Y42.54
X78.688 Y42.437
X78.621 Y42.389
X78.549 Y42.348
X78.4 Y42.275
X78.323 Y42.242
X78.243 Y42.218
X78.08 Y42.18
X77.997 Y42.165
X77.913 Y42.159
X77.263 Y42.153
X77.256
X65.726 Y42.155
X64.886 Y42.021
X64.272 Y41.708
X63.781 Y41.217
X63.464 Y40.591
X63.355 Y39.904
X63.464 Y39.216
X63.628 Y38.894
X63.779 Y38.597
X63.797 Y38.577
X64.272 Y38.101
X64.888 Y37.787
X65.726 Y37.655
X77.852 Y37.652
X77.912 Y37.65
X77.972 Y37.643
X78.134 Y37.617
X78.211 Y37.6
X78.286 Y37.575
X78.426 Y37.521
X78.494 Y37.49
X78.559 Y37.453
X78.686 Y37.372
X78.743 Y37.331
X78.796 Y37.286
X78.891 Y37.196
X78.944 Y37.14
X78.991 Y37.08
X79.092 Y36.935
X79.135 Y36.864
X79.171 Y36.789
X79.23 Y36.644
X79.255 Y36.572
X79.272 Y36.498
X79.286 Y36.425
X84.984 Y36.43
X85.004 Y36.434
X85.496 Y36.726
G3 X85.483 Y36.991 I-0.077 J0.129
G1 X80.197 Y39.467
G2 X80.261 Y39.753 I0.064 J0.136
S15000
G1 X81.085 Z-1.2 F300
X81.128 Y39.748
X81.168 Y39.731
X81.203 Y39.704
X81.23 Y39.67
X81.246 Y39.63
X81.252 Y39.586
X81.253 Y39.252
G2 X80.918 Y39.251 I-0.167 J0
X81.085 Y39.419 I0.167 J0
S500
G1 X83.555 Y39.421 F1000
G3 X83.555 Y40.385 I0 J0.482
G1 X81.041 Y40.388
G3 X80.797 Y40.297 I0 J-0.371
G1 X80.736 Y40.246
X80.674 Y40.195
G3 X80.67 Y39.621 I0.233 J-0.289
G1 X80.792 Y39.515
G3 X81.042 Y39.419 I0.249 J0.275
G1 X81.085
G2 X81.845 Y38.913 I0.001 J-0.823
G3 X82.606 Y38.407 I0.759 J0.317
G1 X84.031 Y38.409
G3 X85.117 Y39.098 I-0.001 J1.203
G1 X85.182 Y39.236
G3 X85.285 Y39.575 I-1.088 J0.514
G1 X85.308 Y39.73
G3 X85.307 Y40.084 I-1.19 J0.175
G1 X85.285 Y40.235
G3 X85.18 Y40.577 I-1.19 J-0.179
G1 X85.113 Y40.715
G3 X84.03 Y41.398 I-1.085 J-0.521
G1 X80.973 Y41.401
G3 X80.169 Y41.093 I-0.001 J-1.203
G2 X78.817 Y40.321 I-2.465 J2.747
X77.281 Y40.077 I-1.582 J4.998
G1 X66.097 Y40.175
G3 X66.097 Y39.634 I0 J-0.271
X71.975 Y39.672 I0.076 J440.767
G2 X77.852 Y39.71 I5.801 J-440.728
X79.093 Y39.439 I-0.001 J-2.983
X80.148 Y38.731 I-1.638 J-3.578
G3 X80.972 Y38.406 I0.823 J0.877
G1 X82.606 Y38.407
G2 X83.938 Y37.373 I0.001 J-1.373
G3 X85.496 Y36.726 I1.021 J0.26
G1 X85.946 Y36.993
X85.975 Y37.02
X86.69 Y37.807
X86.724 Y37.866
X87.166 Y38.802
X87.18 Y38.856
X87.332 Y39.891
X87.33 Y39.943
X87.175 Y40.976
X87.156 Y41.033
X86.691 Y42.002
X85.954 Y42.806
X85.931 Y42.825
X84.992 Y43.374
X84.986 Y43.376
X79.288 Y43.382
X79.283 Y43.36
X79.246 Y43.215
X79.224 Y43.14
X79.193 Y43.068
X79.122 Y42.923
X79.082 Y42.852
X79.035 Y42.785
X78.932 Y42.657
X78.878 Y42.595
X78.816 Y42.54
X78.688 Y42.437
X78.621 Y42.389
X78.549 Y42.348
X78.4 Y42.275
X78.323 Y42.242
X78.243 Y42.218
X78.08 Y42.18
X77.997 Y42.165
X77.913 Y42.159
X77.263 Y42.153
X77.256
X65.726 Y42.155
X64.886 Y42.021
X64.272 Y41.708
X63.781 Y41.217
X63.464 Y40.591
X63.355 Y39.904
X63.464 Y39.216
X63.628 Y38.894
X63.779 Y38.597
X63.797 Y38.577
X64.272 Y38.101
X64.888 Y37.787
X65.726 Y37.655
X77.852 Y37.652
X77.912 Y37.65
X77.972 Y37.643
X78.134 Y37.617
X78.211 Y37.6
X78.286 Y37.575
X78.426 Y37.521
X78.494 Y37.49
X78.559 Y37.453
X78.686 Y37.372
X78.743 Y37.331
X78.796 Y37.286
X78.891 Y37.196
X78.944 Y37.14
X78.991 Y37.08
X79.092 Y36.935
X79.135 Y36.864
X79.171 Y36.789
X79.23 Y36.644
X79.255 Y36.572
X79.272 Y36.498
X79.286 Y36.425
X84.984 Y36.43
X85.004 Y36.434
X85.496 Y36.726
G3 X85.483 Y36.991 I-0.077 J0.129
G1 X80.197 Y39.467
G2 X80.261 Y39.753 I0.064 J0.136
S15000
G1 X81.085 Z-1.5 F300
X81.128 Y39.748
X81.168 Y39.731
X81.203 Y39.704
X81.23 Y39.67
X81.246 Y39.63
X81.252 Y39.586
X81.253 Y39.252
G2 X80.918 Y39.251 I-0.167 J0
X81.085 Y39.419 I0.167 J0
S500
G1 X83.555 Y39.421 F1000
G3 X83.555 Y40.385 I0 J0.482
G1 X81.041 Y40.388
G3 X80.797 Y40.297 I0 J-0.371
G1 X80.736 Y40.246
X80.674 Y40.195
G3 X80.67 Y39.621 I0.233 J-0.289
G1 X80.792 Y39.515
G3 X81.042 Y39.419 I0.249 J0.275
G1 X81.085
G2 X81.845 Y38.913 I0.001 J-0.823
G3 X82.606 Y38.407 I0.759 J0.317
G1 X84.031 Y38.409
G3 X85.117 Y39.098 I-0.001 J1.203
G1 X85.182 Y39.236
G3 X85.285 Y39.575 I-1.088 J0.514
G1 X85.308 Y39.73
G3 X85.307 Y40.084 I-1.19 J0.175
G1 X85.285 Y40.235
G3 X85.18 Y40.577 I-1.19 J-0.179
G1 X85.113 Y40.715
G3 X84.03 Y41.398 I-1.085 J-0.521
G1 X80.973 Y41.401
G3 X80.169 Y41.093 I-0.001 J-1.203
G2 X78.817 Y40.321 I-2.465 J2.747
X77.281 Y40.077 I-1.582 J4.998
G1 X66.097 Y40.175
G3 X66.097 Y39.634 I0 J-0.271
X71.975 Y39.672 I0.076 J440.767
G2 X77.852 Y39.71 I5.801 J-440.728
X79.093 Y39.439 I-0.001 J-2.983
X80.148 Y38.731 I-1.638 J-3.578
G3 X80.972 Y38.406 I0.823 J0.877
G1 X82.606 Y38.407
G2 X83.938 Y37.373 I0.001 J-1.373
G3 X85.496 Y36.726 I1.021 J0.26
G1 X85.946 Y36.993
X85.975 Y37.02
X86.69 Y37.807
X86.724 Y37.866
X87.166 Y38.802
X87.18 Y38.856
X87.332 Y39.891
X87.33 Y39.943
X87.175 Y40.976
X87.156 Y41.033
X86.691 Y42.002
X85.954 Y42.806
X85.931 Y42.825
X84.992 Y43.374
X84.986 Y43.376
X79.288 Y43.382
X79.283 Y43.36
X79.246 Y43.215
X79.224 Y43.14
X79.193 Y43.068
X79.122 Y42.923
X79.082 Y42.852
X79.035 Y42.785
X78.932 Y42.657
X78.878 Y42.595
X78.816 Y42.54
X78.688 Y42.437
X78.621 Y42.389
X78.549 Y42.348
X78.4 Y42.275
X78.323 Y42.242
X78.243 Y42.218
X78.08 Y42.18
X77.997 Y42.165
X77.913 Y42.159
X77.263 Y42.153
X77.256
X65.726 Y42.155
X64.886 Y42.021
X64.272 Y41.708
X63.781 Y41.217
X63.464 Y40.591
X63.355 Y39.904
X63.464 Y39.216
X63.628 Y38.894
X63.779 Y38.597
X63.797 Y38.577
X64.272 Y38.101
X64.888 Y37.787
X65.726 Y37.655
X77.852 Y37.652
X77.912 Y37.65
X77.972 Y37.643
X78.134 Y37.617
X78.211 Y37.6
X78.286 Y37.575
X78.426 Y37.521
X78.494 Y37.49
X78.559 Y37.453
X78.686 Y37.372
X78.743 Y37.331
X78.796 Y37.286
X78.891 Y37.196
X78.944 Y37.14
X78.991 Y37.08
X79.092 Y36.935
X79.135 Y36.864
X79.171 Y36.789
X79.23 Y36.644
X79.255 Y36.572
X79.272 Y36.498
X79.286 Y36.425
X84.984 Y36.43
X85.004 Y36.434
X85.496 Y36.726
X85.532 Y36.756
X85.557 Y36.796
X85.569 Y36.842
X85.566 Y36.889
X85.548 Y36.932
X85.518 Y36.968
X82.581 Y39.535
X82.554 Y39.554
X82.041 Y39.832
X82.027 Y39.843
X82.018 Y39.858
X81.956 Y40.021
X81.945 Y40.038
X81.929 Y40.049
X81.909 Y40.053
S15000
X81.085 Z-1.8 F300
G3 X80.79 Y39.685 I0 J-0.303
G1 X80.858 Y39.381
G2 X80.267 Y39.248 I-0.295 J-0.066
X80.763 Y39.541 I0.295 J0.066
S500
G1 X80.792 Y39.515 F1000
G3 X81.042 Y39.419 I0.249 J0.275
G1 X83.555 Y39.421
G3 X83.555 Y40.385 I0 J0.482
G1 X81.041 Y40.388
G3 X80.797 Y40.297 I0 J-0.371
G1 X80.736 Y40.246
X80.674 Y40.195
G3 X80.67 Y39.621 I0.233 J-0.289
G1 X80.763 Y39.541
G2 X81.031 Y38.905 I-0.529 J-0.597
G3 X81.507 Y38.406 I0.475 J-0.023
G1 X84.031 Y38.409
G3 X85.117 Y39.098 I-0.001 J1.203
G1 X85.182 Y39.236
G3 X85.285 Y39.575 I-1.088 J0.514
G1 X85.308 Y39.73
G3 X85.307 Y40.084 I-1.19 J0.175
G1 X85.285 Y40.235
G3 X85.18 Y40.577 I-1.19 J-0.179
G1 X85.113 Y40.715
G3 X84.03 Y41.398 I-1.085 J-0.521
G1 X80.973 Y41.401
G3 X80.169 Y41.093 I-0.001 J-1.203
G2 X78.817 Y40.321 I-2.465 J2.747
X77.281 Y40.077 I-1.582 J4.998
G1 X66.097 Y40.175
G3 X66.097 Y39.634 I0 J-0.271
X71.975 Y39.672 I0.076 J440.767
G2 X77.852 Y39.71 I5.801 J-440.728
X79.093 Y39.439 I-0.001 J-2.983
X80.148 Y38.731 I-1.638 J-3.578
G3 X80.972 Y38.406 I0.823 J0.877
G1 X81.507
G2 X82.992 Y37.418 I0.002 J-1.608
G3 X84.478 Y36.43 I1.484 J0.62
G1 X84.984
X85.004 Y36.434
X85.946 Y36.993
X85.975 Y37.02
X86.69 Y37.807
X86.724 Y37.866
X87.166 Y38.802
X87.18 Y38.856
X87.332 Y39.891
X87.33 Y39.943
X87.175 Y40.976
X87.156 Y41.033
X86.691 Y42.002
X85.954 Y42.806
X85.931 Y42.825
X84.992 Y43.374
X84.986 Y43.376
X79.288 Y43.382
X79.283 Y43.36
X79.246 Y43.215
X79.224 Y43.14
X79.193 Y43.068
X79.122 Y42.923
X79.082 Y42.852
X79.035 Y42.785
X78.932 Y42.657
X78.878 Y42.595
X78.816 Y42.54
X78.688 Y42.437
X78.621 Y42.389
X78.549 Y42.348
X78.4 Y42.275
X78.323 Y42.242
X78.243 Y42.218
X78.08 Y42.18
X77.997 Y42.165
X77.913 Y42.159
X77.263 Y42.153
X77.256
X65.726 Y42.155
X64.886 Y42.021
X64.272 Y41.708
X63.781 Y41.217
X63.464 Y40.591
X63.355 Y39.904
X63.464 Y39.216
X63.628 Y38.894
X63.779 Y38.597
X63.797 Y38.577
X64.272 Y38.101
X64.888 Y37.787
X65.726 Y37.655
X77.852 Y37.652
X77.912 Y37.65
X77.972 Y37.643
X78.134 Y37.617
X78.211 Y37.6
X78.286 Y37.575
X78.426 Y37.521
X78.494 Y37.49
X78.559 Y37.453
X78.686 Y37.372
X78.743 Y37.331
X78.796 Y37.286
X78.891 Y37.196
X78.944 Y37.14
X78.991 Y37.08
X79.092 Y36.935
X79.135 Y36.864
X79.171 Y36.789
X79.23 Y36.644
X79.255 Y36.572
X79.272 Y36.498
X79.286 Y36.425
X84.478 Y36.43
G3 X84.558 Y36.707 I0 J0.15
G1 X80.18 Y39.477
G2 X80.261 Y39.753 I0.08 J0.127
S15000
G1 X81.085 Z-2.1 F300
X81.128 Y39.748
X81.168 Y39.731
X81.203 Y39.704
X81.23 Y39.67
X81.246 Y39.63
X81.252 Y39.586
X81.253 Y39.252
G2 X80.918 Y39.251 I-0.167 J0
X81.085 Y39.419 I0.167 J0
S500
G1 X83.555 Y39.421 F1000
G3 X83.555 Y40.385 I0 J0.482
G1 X81.041 Y40.388
G3 X80.797 Y40.297 I0 J-0.371
G1 X80.736 Y40.246
X80.674 Y40.195
G3 X80.67 Y39.621 I0.233 J-0.289
G1 X80.792 Y39.515
G3 X81.042 Y39.419 I0.249 J0.275
G1 X81.085
G2 X81.845 Y38.913 I0.001 J-0.823
G3 X82.606 Y38.407 I0.759 J0.317
G1 X84.031 Y38.409
G3 X85.117 Y39.098 I-0.001 J1.203
G1 X85.182 Y39.236
G3 X85.285 Y39.575 I-1.088 J0.514
G1 X85.308 Y39.73
G3 X85.307 Y40.084 I-1.19 J0.175
G1 X85.285 Y40.235
G3 X85.18 Y40.577 I-1.19 J-0.179
G1 X85.113 Y40.715
G3 X84.03 Y41.398 I-1.085 J-0.521
G1 X80.973 Y41.401
G3 X80.169 Y41.093 I-0.001 J-1.203
G2 X78.817 Y40.321 I-2.465 J2.747
X77.281 Y40.077 I-1.582 J4.998
G1 X66.097 Y40.175
G3 X66.097 Y39.634 I0 J-0.271
X71.975 Y39.672 I0.076 J440.767
G2 X77.852 Y39.71 I5.801 J-440.728
X79.093 Y39.439 I-0.001 J-2.983
X80.148 Y38.731 I-1.638 J-3.578
G3 X80.972 Y38.406 I0.823 J0.877
G1 X82.606 Y38.407
G2 X83.938 Y37.373 I0.001 J-1.373
G3 X85.496 Y36.726 I1.021 J0.26
G1 X85.946 Y36.993
X85.975 Y37.02
X86.69 Y37.807
X86.724 Y37.866
X87.166 Y38.802
X87.18 Y38.856
X87.332 Y39.891
X87.33 Y39.943
X87.175 Y40.976
X87.156 Y41.033
X86.691 Y42.002
X85.954 Y42.806
X85.931 Y42.825
X84.992 Y43.374
X84.986 Y43.376
X79.288 Y43.382
X79.283 Y43.36
X79.246 Y43.215
X79.224 Y43.14
X79.193 Y43.068
X79.122 Y42.923
X79.082 Y42.852
X79.035 Y42.785
X78.932 Y42.657
X78.878 Y42.595
X78.816 Y42.54
X78.688 Y42.437
X78.621 Y42.389
X78.549 Y42.348
X78.4 Y42.275
X78.323 Y42.242
X78.243 Y42.218
X78.08 Y42.18
X77.997 Y42.165
X77.913 Y42.159
X77.263 Y42.153
X77.256
X65.726 Y42.155
X64.886 Y42.021
X64.272 Y41.708
X63.781 Y41.217
X63.464 Y40.591
X63.355 Y39.904
X63.464 Y39.216
X63.628 Y38.894
X63.779 Y38.597
X63.797 Y38.577
X64.272 Y38.101
X64.888 Y37.787
X65.726 Y37.655
X77.852 Y37.652
X77.912 Y37.65
X77.972 Y37.643
X78.134 Y37.617
X78.211 Y37.6
X78.286 Y37.575
X78.426 Y37.521
X78.494 Y37.49
X78.559 Y37.453
X78.686 Y37.372
X78.743 Y37.331
X78.796 Y37.286
X78.891 Y37.196
X78.944 Y37.14
X78.991 Y37.08
X79.092 Y36.935
X79.135 Y36.864
X79.171 Y36.789
X79.23 Y36.644
X79.255 Y36.572
X79.272 Y36.498
X79.286 Y36.425
X84.984 Y36.43
X85.004 Y36.434
X85.496 Y36.726
X85.532 Y36.756
X85.557 Y36.796
X85.569 Y36.842
X85.566 Y36.889
X85.548 Y36.932
X85.518 Y36.968
X82.581 Y39.535
X82.554 Y39.554
X82.041 Y39.832
X82.027 Y39.843
X82.018 Y39.858
X81.956 Y40.021
X81.945 Y40.038
X81.929 Y40.049
X81.909 Y40.053
S15000
X81.085 Z-2.4 F300
G3 X80.79 Y39.685 I0 J-0.303
G1 X80.858 Y39.381
G2 X80.267 Y39.248 I-0.295 J-0.066
X80.763 Y39.541 I0.295 J0.066
S500
G1 X80.792 Y39.515 F1000
G3 X81.042 Y39.419 I0.249 J0.275
G1 X83.555 Y39.421
G3 X83.555 Y40.385 I0 J0.482
G1 X81.041 Y40.388
G3 X80.797 Y40.297 I0 J-0.371
G1 X80.736 Y40.246
X80.674 Y40.195
G3 X80.67 Y39.621 I0.233 J-0.289
G1 X80.763 Y39.541
G2 X81.031 Y38.905 I-0.529 J-0.597
G3 X81.507 Y38.406 I0.475 J-0.023
G1 X84.031 Y38.409
G3 X85.117 Y39.098 I-0.001 J1.203
G1 X85.182 Y39.236
G3 X85.285 Y39.575 I-1.088 J0.514
G1 X85.308 Y39.73
G3 X85.307 Y40.084 I-1.19 J0.175
G1 X85.285 Y40.235
G3 X85.18 Y40.577 I-1.19 J-0.179
G1 X85.113 Y40.715
G3 X84.03 Y41.398 I-1.085 J-0.521
G1 X80.973 Y41.401
G3 X80.169 Y41.093 I-0.001 J-1.203
G2 X78.817 Y40.321 I-2.465 J2.747
X77.281 Y40.077 I-1.582 J4.998
G1 X66.097 Y40.175
G3 X66.097 Y39.634 I0 J-0.271
X71.975 Y39.672 I0.076 J440.767
G2 X77.852 Y39.71 I5.801 J-440.728
X79.093 Y39.439 I-0.001 J-2.983
X80.148 Y38.731 I-1.638 J-3.578
G3 X80.972 Y38.406 I0.823 J0.877
G1 X81.507
G2 X82.992 Y37.418 I0.002 J-1.608
G3 X84.478 Y36.43 I1.484 J0.62
G1 X84.984
X85.004 Y36.434
X85.946 Y36.993
X85.975 Y37.02
X86.69 Y37.807
X86.724 Y37.866
X87.166 Y38.802
X87.18 Y38.856
X87.332 Y39.891
X87.33 Y39.943
X87.175 Y40.976
X87.156 Y41.033
X86.691 Y42.002
X85.954 Y42.806
X85.931 Y42.825
X84.992 Y43.374
X84.986 Y43.376
X79.288 Y43.382
X79.283 Y43.36
X79.246 Y43.215
X79.224 Y43.14
X79.193 Y43.068
X79.122 Y42.923
X79.082 Y42.852
X79.035 Y42.785
X78.932 Y42.657
X78.878 Y42.595
X78.816 Y42.54
X78.688 Y42.437
X78.621 Y42.389
X78.549 Y42.348
X78.4 Y42.275
X78.323 Y42.242
X78.243 Y42.218
X78.08 Y42.18
X77.997 Y42.165
X77.913 Y42.159
X77.263 Y42.153
X77.256
X65.726 Y42.155
X64.886 Y42.021
X64.272 Y41.708
X63.781 Y41.217
X63.464 Y40.591
X63.355 Y39.904
X63.464 Y39.216
X63.628 Y38.894
X63.779 Y38.597
X63.797 Y38.577
X64.272 Y38.101
X64.888 Y37.787
X65.726 Y37.655
X77.852 Y37.652
X77.912 Y37.65
X77.972 Y37.643
X78.134 Y37.617
X78.211 Y37.6
X78.286 Y37.575
X78.426 Y37.521
X78.494 Y37.49
X78.559 Y37.453
X78.686 Y37.372
X78.743 Y37.331
X78.796 Y37.286
X78.891 Y37.196
X78.944 Y37.14
X78.991 Y37.08
X79.092 Y36.935
X79.135 Y36.864
X79.171 Y36.789
X79.23 Y36.644
X79.255 Y36.572
X79.272 Y36.498
X79.286 Y36.425
X84.478 Y36.43
G3 X84.558 Y36.707 I0 J0.15
G1 X80.18 Y39.477
G2 X80.261 Y39.753 I0.08 J0.127
S15000
G1 X81.085 Z-2.7 F300
X81.128 Y39.748
X81.168 Y39.731
X81.203 Y39.704
X81.23 Y39.67
X81.246 Y39.63
X81.252 Y39.586
X81.253 Y39.252
G2 X80.918 Y39.251 I-0.167 J0
X81.085 Y39.419 I0.167 J0
S500
G1 X83.555 Y39.421 F1000
G3 X83.555 Y40.385 I0 J0.482
G1 X81.041 Y40.388
G3 X80.797 Y40.297 I0 J-0.371
G1 X80.736 Y40.246
X80.674 Y40.195
G3 X80.67 Y39.621 I0.233 J-0.289
G1 X80.792 Y39.515
G3 X81.042 Y39.419 I0.249 J0.275
G1 X81.085
G2 X81.845 Y38.913 I0.001 J-0.823
G3 X82.606 Y38.407 I0.759 J0.317
G1 X84.031 Y38.409
G3 X85.117 Y39.098 I-0.001 J1.203
G1 X85.182 Y39.236
G3 X85.285 Y39.575 I-1.088 J0.514
G1 X85.308 Y39.73
G3 X85.307 Y40.084 I-1.19 J0.175
G1 X85.285 Y40.235
G3 X85.18 Y40.577 I-1.19 J-0.179
G1 X85.113 Y40.715
G3 X84.03 Y41.398 I-1.085 J-0.521
G1 X80.973 Y41.401
G3 X80.169 Y41.093 I-0.001 J-1.203
G2 X78.817 Y40.321 I-2.465 J2.747
X77.281 Y40.077 I-1.582 J4.998
G1 X66.097 Y40.175
G3 X66.097 Y39.634 I0 J-0.271
X71.975 Y39.672 I0.076 J440.767
G2 X77.852 Y39.71 I5.801 J-440.728
X79.093 Y39.439 I-0.001 J-2.983
X80.148 Y38.731 I-1.638 J-3.578
G3 X80.972 Y38.406 I0.823 J0.877
G1 X82.606 Y38.407
G2 X83.938 Y37.373 I0.001 J-1.373
G3 X85.496 Y36.726 I1.021 J0.26
G1 X85.946 Y36.993
X85.975 Y37.02
X86.69 Y37.807
X86.724 Y37.866
X87.166 Y38.802
X87.18 Y38.856
X87.332 Y39.891
X87.33 Y39.943
X87.175 Y40.976
X87.156 Y41.033
X86.691 Y42.002
X85.954 Y42.806
X85.931 Y42.825
X84.992 Y43.374
X84.986 Y43.376
X79.288 Y43.382
X79.283 Y43.36
X79.246 Y43.215
X79.224 Y43.14
X79.193 Y43.068
X79.122 Y42.923
X79.082 Y42.852
X79.035 Y42.785
X78.932 Y42.657
X78.878 Y42.595
X78.816 Y42.54
X78.688 Y42.437
X78.621 Y42.389
X78.549 Y42.348
X78.4 Y42.275
X78.323 Y42.242
X78.243 Y42.218
X78.08 Y42.18
X77.997 Y42.165
X77.913 Y42.159
X77.263 Y42.153
X77.256
X65.726 Y42.155
X64.886 Y42.021
X64.272 Y41.708
X63.781 Y41.217
X63.464 Y40.591
X63.355 Y39.904
X63.464 Y39.216
X63.628 Y38.894
X63.779 Y38.597
X63.797 Y38.577
X64.272 Y38.101
X64.888 Y37.787
X65.726 Y37.655
X77.852 Y37.652
X77.912 Y37.65
X77.972 Y37.643
X78.134 Y37.617
X78.211 Y37.6
X78.286 Y37.575
X78.426 Y37.521
X78.494 Y37.49
X78.559 Y37.453
X78.686 Y37.372
X78.743 Y37.331
X78.796 Y37.286
X78.891 Y37.196
X78.944 Y37.14
X78.991 Y37.08
X79.092 Y36.935
X79.135 Y36.864
X79.171 Y36.789
X79.23 Y36.644
X79.255 Y36.572
X79.272 Y36.498
X79.286 Y36.425
X84.984 Y36.43
X85.004 Y36.434
X85.496 Y36.726
G3 X85.483 Y36.991 I-0.077 J0.129
G1 X80.197 Y39.467
G2 X80.261 Y39.753 I0.064 J0.136
S15000
G1 X81.085 Z-3 F300
X81.128 Y39.748
X81.168 Y39.731
X81.203 Y39.704
X81.23 Y39.67
X81.246 Y39.63
X81.252 Y39.586
X81.253 Y39.252
G2 X80.918 Y39.251 I-0.167 J0
X81.085 Y39.419 I0.167 J0
S500
G1 X83.555 Y39.421 F1000
G3 X83.555 Y40.385 I0 J0.482
G1 X81.041 Y40.388
G3 X80.797 Y40.297 I0 J-0.371
G1 X80.736 Y40.246
X80.674 Y40.195
G3 X80.67 Y39.621 I0.233 J-0.289
G1 X80.792 Y39.515
G3 X81.042 Y39.419 I0.249 J0.275
G1 X81.085
G2 X81.845 Y38.913 I0.001 J-0.823
G3 X82.606 Y38.407 I0.759 J0.317
G1 X84.031 Y38.409
G3 X85.117 Y39.098 I-0.001 J1.203
G1 X85.182 Y39.236
G3 X85.285 Y39.575 I-1.088 J0.514
G1 X85.308 Y39.73
G3 X85.307 Y40.084 I-1.19 J0.175
G1 X85.285 Y40.235
G3 X85.18 Y40.577 I-1.19 J-0.179
G1 X85.113 Y40.715
G3 X84.03 Y41.398 I-1.085 J-0.521
G1 X80.973 Y41.401
G3 X80.169 Y41.093 I-0.001 J-1.203
G2 X78.817 Y40.321 I-2.465 J2.747
X77.281 Y40.077 I-1.582 J4.998
G1 X66.097 Y40.175
G3 X66.097 Y39.634 I0 J-0.271
X71.975 Y39.672 I0.076 J440.767
G2 X77.852 Y39.71 I5.801 J-440.728
X79.093 Y39.439 I-0.001 J-2.983
X80.148 Y38.731 I-1.638 J-3.578
G3 X80.972 Y38.406 I0.823 J0.877
G1 X82.606 Y38.407
G2 X83.938 Y37.373 I0.001 J-1.373
G3 X85.496 Y36.726 I1.021 J0.26
G1 X85.946 Y36.993
X85.975 Y37.02
X86.69 Y37.807
X86.724 Y37.866
X87.166 Y38.802
X87.18 Y38.856
X87.332 Y39.891
X87.33 Y39.943
X87.175 Y40.976
X87.156 Y41.033
X86.691 Y42.002
X85.954 Y42.806
X85.931 Y42.825
X84.992 Y43.374
X84.986 Y43.376
X79.288 Y43.382
X79.283 Y43.36
X79.246 Y43.215
X79.224 Y43.14
X79.193 Y43.068
X79.122 Y42.923
X79.082 Y42.852
X79.035 Y42.785
X78.932 Y42.657
X78.878 Y42.595
X78.816 Y42.54
X78.688 Y42.437
X78.621 Y42.389
X78.549 Y42.348
X78.4 Y42.275
X78.323 Y42.242
X78.243 Y42.218
X78.08 Y42.18
X77.997 Y42.165
X77.913 Y42.159
X77.263 Y42.153
X77.256
X65.726 Y42.155
X64.886 Y42.021
X64.272 Y41.708
X63.781 Y41.217
X63.464 Y40.591
X63.355 Y39.904
X63.464 Y39.216
X63.628 Y38.894
X63.779 Y38.597
X63.797 Y38.577
X64.272 Y38.101
X64.888 Y37.787
X65.726 Y37.655
X77.852 Y37.652
X77.912 Y37.65
X77.972 Y37.643
X78.134 Y37.617
X78.211 Y37.6
X78.286 Y37.575
X78.426 Y37.521
X78.494 Y37.49
X78.559 Y37.453
X78.686 Y37.372
X78.743 Y37.331
X78.796 Y37.286
X78.891 Y37.196
X78.944 Y37.14
X78.991 Y37.08
X79.092 Y36.935
X79.135 Y36.864
X79.171 Y36.789
X79.23 Y36.644
X79.255 Y36.572
X79.272 Y36.498
X79.286 Y36.425
X84.984 Y36.43
X85.004 Y36.434
X85.496 Y36.726
X85.534 Y36.753 Z-2.993 F300
X85.567 Y36.785 Z-2.985
X85.593 Y36.818 Z-2.964
X85.613 Y36.855 Z-2.943
X85.635 Y36.917 Z-2.876
X85.642 Y36.959 Z-2.793
X85.643 Y36.974 Z-2.7
G0 Z4
X80.722 Y30.055
Z0.315
S15000
G1 X79.81 Z0.27 F300
G3 X79.81 Y29.755 I0 J-0.15
G1 X82.36 Z0.143
G3 X82.36 Y30.055 I0 J0.15
G1 X79.81 Z0.017
G3 X79.81 Y29.755 I0 J-0.15
G1 X82.36 Z-0.11
G3 X82.36 Y30.055 I0 J0.15
G1 X79.81 Z-0.237
G3 X79.81 Y29.755 I0 J-0.15
G1 X81.085 Z-0.3
X81.128 Y29.749
X81.169 Y29.732
X81.203 Y29.706
X81.23 Y29.671
X81.247 Y29.631
X81.252 Y29.587
X81.253 Y29.252
G2 X80.918 Y29.252 I-0.167 J0
X81.085 Y29.42 I0.167 J0
S500
G1 X83.554 Y29.421 F1000
G3 X83.554 Y30.387 I0 J0.483
G1 X81.042 Y30.389
G3 X80.794 Y30.294 I0 J-0.371
G1 X80.672 Y30.19
G3 X80.672 Y29.617 I0.236 J-0.286
G1 X80.792 Y29.515
G3 X81.039 Y29.42 I0.248 J0.276
G1 X81.085
G2 X81.845 Y28.913 I0 J-0.823
G3 X82.605 Y28.407 I0.76 J0.317
G1 X84.031 Y28.408
G3 X84.923 Y28.803 I0 J1.203
X85.119 Y29.096 I-0.89 J0.809
G1 X85.181 Y29.227
G3 X85.285 Y29.57 I-1.087 J0.516
G1 X85.309 Y29.735
G3 X85.308 Y30.089 I-1.191 J0.173
G1 X85.284 Y30.243
G3 X85.18 Y30.581 I-1.189 J-0.181
G1 X85.115 Y30.716
G3 X84.032 Y31.4 I-1.085 J-0.52
G1 X80.973 Y31.403
G3 X80.152 Y31.08 I-0.001 J-1.203
G2 X79.294 Y30.477 I-2.635 J2.832
X78.298 Y30.148 I-1.527 J2.954
G1 X78.076 Y30.114
X77.965 Y30.102
X77.853 Y30.098
X66.038 Y30.173
G3 X66.038 Y29.632 I0 J-0.271
X71.945 Y29.67 I0.077 J444.816
G2 X77.852 Y29.708 I5.83 J-444.778
X79.094 Y29.436 I-0.001 J-2.967
X80.15 Y28.728 I-1.688 J-3.662
G3 X80.97 Y28.406 I0.819 J0.881
G1 X82.605 Y28.407
G2 X83.935 Y27.371 I0 J-1.371
G3 X85.492 Y26.724 I1.02 J0.258
G1 X85.945 Y26.993
X85.983 Y27.029
X86.702 Y27.822
X86.707 Y27.83
X87.162 Y28.787
X87.177 Y28.842
X87.332 Y29.904
X87.328 Y29.956
X87.171 Y30.988
X87.149 Y31.047
X86.697 Y31.991
X86.684 Y32.011
X85.948 Y32.812
X85.933 Y32.823
X84.988 Y33.376
X79.286 Y33.382
X79.274 Y33.315
X79.258 Y33.249
X79.237 Y33.184
X79.185 Y33.048
X79.153 Y32.978
X79.115 Y32.911
X79.028 Y32.776
X78.983 Y32.713
X78.932 Y32.656
X78.829 Y32.551
X78.771 Y32.498
X78.709 Y32.452
X78.571 Y32.361
X78.503 Y32.321
X78.43 Y32.288
X78.287 Y32.232
X78.212 Y32.207
X78.134 Y32.19
X77.972 Y32.164
X77.912 Y32.157
X77.852 Y32.154
X65.667 Y32.151
X64.962 Y32.049
X64.36 Y31.77
X63.89 Y31.36
X63.387 Y30.574
X63.345 Y30.514
X63.297 Y30.459
X63.195 Y30.353
X63.14 Y30.302
X63.08 Y30.256
X62.953 Y30.167
X62.882 Y30.124
X62.807 Y30.089
X62.645 Y30.023
X62.564 Y29.996
X62.481 Y29.978
X62.319 Y29.952
X62.26 Y29.945
X62.201 Y29.943
X58.735
X58.672 Y29.946
X58.609 Y29.954
X58.447 Y29.982
X58.363 Y30.001
X58.283 Y30.03
X58.12 Y30.098
X58.051 Y30.131
X57.985 Y30.171
X57.877 Y30.246
X57.82 Y30.289
X57.768 Y30.338
X57.659 Y30.448
X57.605 Y30.509
X57.557 Y30.577
X57.465 Y30.725
X57.423 Y30.801
X57.391 Y30.882
X57.336 Y31.044
X57.313 Y31.125
X57.3 Y31.208
X57.283 Y31.371
X57.279 Y31.447
Y32.245
X57.249 Y32.405
X57.09 Y32.435
X35.911 Y32.426
X35.8 Y32.401
X35.911 Y32.376
X55.756 Y32.385
X55.811 Y32.383
X55.866 Y32.377
X56.028 Y32.353
X56.11 Y32.336
X56.189 Y32.311
X56.347 Y32.249
X56.427 Y32.213
X56.502 Y32.168
X56.651 Y32.065
X56.714 Y32.017
X56.772 Y31.962
X56.865 Y31.863
X56.915 Y31.804
X56.959 Y31.74
X57.05 Y31.592
X57.089 Y31.519
X57.12 Y31.443
X57.17 Y31.295
X57.191 Y31.221
X57.205 Y31.146
X57.223 Y30.999
X57.229 Y30.907
X57.231 Y30.058
X57.258 Y29.923
X57.273 Y29.918
X57.401 Y29.893
X62.201 Y29.89
X62.266 Y29.888
X62.33 Y29.879
X62.492 Y29.851
X62.575 Y29.832
X62.656 Y29.803
X62.818 Y29.734
X62.889 Y29.7
X62.956 Y29.658
X63.069 Y29.579
X63.128 Y29.533
X63.183 Y29.481
X63.296 Y29.362
X63.344 Y29.306
X63.386 Y29.245
X63.877 Y28.468
X64.365 Y28.034
X64.374 Y28.029
X64.959 Y27.762
X65.72 Y27.655
X77.852 Y27.652
X77.912 Y27.65
X77.972 Y27.643
X78.134 Y27.617
X78.218 Y27.598
X78.299 Y27.57
X78.465 Y27.502
X78.537 Y27.468
X78.604 Y27.427
X78.719 Y27.348
X78.775 Y27.305
X78.828 Y27.257
X78.931 Y27.152
X78.976 Y27.102
X79.017 Y27.048
X79.087 Y26.945
X79.125 Y26.882
X79.157 Y26.816
X79.223 Y26.662
X79.249 Y26.593
X79.267 Y26.521
X79.286 Y26.428
X84.99 Y26.431
X85.005 Y26.435
X85.492 Y26.724
G3 X85.479 Y26.989 I-0.077 J0.129
G1 X80.197 Y29.469
G2 X80.261 Y29.755 I0.064 J0.136
S15000
G1 X81.085 Z-0.6 F300
X81.128 Y29.749
X81.169 Y29.732
X81.203 Y29.706
X81.23 Y29.671
X81.247 Y29.631
X81.252 Y29.587
X81.253 Y29.252
G2 X80.918 Y29.252 I-0.167 J0
X81.085 Y29.42 I0.167 J0
S500
G1 X83.554 Y29.421 F1000
G3 X83.554 Y30.387 I0 J0.483
G1 X81.042 Y30.389
G3 X80.794 Y30.294 I0 J-0.371
G1 X80.672 Y30.19
G3 X80.672 Y29.617 I0.236 J-0.286
G1 X80.792 Y29.515
G3 X81.039 Y29.42 I0.248 J0.276
G1 X81.085
G2 X81.845 Y28.913 I0 J-0.823
G3 X82.605 Y28.407 I0.76 J0.317
G1 X84.031 Y28.408
G3 X84.923 Y28.803 I0 J1.203
X85.119 Y29.096 I-0.89 J0.809
G1 X85.181 Y29.227
G3 X85.285 Y29.57 I-1.087 J0.516
G1 X85.309 Y29.735
G3 X85.308 Y30.089 I-1.191 J0.173
G1 X85.284 Y30.243
G3 X85.18 Y30.581 I-1.189 J-0.181
G1 X85.115 Y30.716
G3 X84.032 Y31.4 I-1.085 J-0.52
G1 X80.973 Y31.403
G3 X80.152 Y31.08 I-0.001 J-1.203
G2 X79.294 Y30.477 I-2.635 J2.832
X78.298 Y30.148 I-1.527 J2.954
G1 X78.076 Y30.114
X77.965 Y30.102
X77.853 Y30.098
X66.038 Y30.173
G3 X66.038 Y29.632 I0 J-0.271
X71.945 Y29.67 I0.077 J444.816
G2 X77.852 Y29.708 I5.83 J-444.778
X79.094 Y29.436 I-0.001 J-2.967
X80.15 Y28.728 I-1.688 J-3.662
G3 X80.97 Y28.406 I0.819 J0.881
G1 X82.605 Y28.407
G2 X83.935 Y27.371 I0 J-1.371
G3 X85.492 Y26.724 I1.02 J0.258
G1 X85.945 Y26.993
X85.983 Y27.029
X86.702 Y27.822
X86.707 Y27.83
X87.162 Y28.787
X87.177 Y28.842
X87.332 Y29.904
X87.328 Y29.956
X87.171 Y30.988
X87.149 Y31.047
X86.697 Y31.991
X86.684 Y32.011
X85.948 Y32.812
X85.933 Y32.823
X84.988 Y33.376
X79.286 Y33.382
X79.274 Y33.315
X79.258 Y33.249
X79.237 Y33.184
X79.185 Y33.048
X79.153 Y32.978
X79.115 Y32.911
X79.028 Y32.776
X78.983 Y32.713
X78.932 Y32.656
X78.829 Y32.551
X78.771 Y32.498
X78.709 Y32.452
X78.571 Y32.361
X78.503 Y32.321
X78.43 Y32.288
X78.287 Y32.232
X78.212 Y32.207
X78.134 Y32.19
X77.972 Y32.164
X77.912 Y32.157
X77.852 Y32.154
X65.667 Y32.151
X64.962 Y32.049
X64.36 Y31.77
X63.89 Y31.36
X63.387 Y30.574
X63.345 Y30.514
X63.297 Y30.459
X63.195 Y30.353
X63.14 Y30.302
X63.08 Y30.256
X62.953 Y30.167
X62.882 Y30.124
X62.807 Y30.089
X62.645 Y30.023
X62.564 Y29.996
X62.481 Y29.978
X62.319 Y29.952
X62.26 Y29.945
X62.201 Y29.943
X58.735
X58.672 Y29.946
X58.609 Y29.954
X58.447 Y29.982
X58.363 Y30.001
X58.283 Y30.03
X58.12 Y30.098
X58.051 Y30.131
X57.985 Y30.171
X57.877 Y30.246
X57.82 Y30.289
X57.768 Y30.338
X57.659 Y30.448
X57.605 Y30.509
X57.557 Y30.577
X57.465 Y30.725
X57.423 Y30.801
X57.391 Y30.882
X57.336 Y31.044
X57.313 Y31.125
X57.3 Y31.208
X57.283 Y31.371
X57.279 Y31.447
Y32.245
X57.249 Y32.405
X57.09 Y32.435
X35.911 Y32.426
X35.8 Y32.401
X35.911 Y32.376
X55.756 Y32.385
X55.811 Y32.383
X55.866 Y32.377
X56.028 Y32.353
X56.11 Y32.336
X56.189 Y32.311
X56.347 Y32.249
X56.427 Y32.213
X56.502 Y32.168
X56.651 Y32.065
X56.714 Y32.017
X56.772 Y31.962
X56.865 Y31.863
X56.915 Y31.804
X56.959 Y31.74
X57.05 Y31.592
X57.089 Y31.519
X57.12 Y31.443
X57.17 Y31.295
X57.191 Y31.221
X57.205 Y31.146
X57.223 Y30.999
X57.229 Y30.907
X57.231 Y30.058
X57.258 Y29.923
X57.273 Y29.918
X57.401 Y29.893
X62.201 Y29.89
X62.266 Y29.888
X62.33 Y29.879
X62.492 Y29.851
X62.575 Y29.832
X62.656 Y29.803
X62.818 Y29.734
X62.889 Y29.7
X62.956 Y29.658
X63.069 Y29.579
X63.128 Y29.533
X63.183 Y29.481
X63.296 Y29.362
X63.344 Y29.306
X63.386 Y29.245
X63.877 Y28.468
X64.365 Y28.034
X64.374 Y28.029
X64.959 Y27.762
X65.72 Y27.655
X77.852 Y27.652
X77.912 Y27.65
X77.972 Y27.643
X78.134 Y27.617
X78.218 Y27.598
X78.299 Y27.57
X78.465 Y27.502
X78.537 Y27.468
X78.604 Y27.427
X78.719 Y27.348
X78.775 Y27.305
X78.828 Y27.257
X78.931 Y27.152
X78.976 Y27.102
X79.017 Y27.048
X79.087 Y26.945
X79.125 Y26.882
X79.157 Y26.816
X79.223 Y26.662
X79.249 Y26.593
X79.267 Y26.521
X79.286 Y26.428
X84.99 Y26.431
X85.005 Y26.435
X85.492 Y26.724
G3 X85.479 Y26.989 I-0.077 J0.129
G1 X80.197 Y29.469
G2 X80.261 Y29.755 I0.064 J0.136
S15000
G1 X81.085 Z-0.9 F300
X81.128 Y29.749
X81.169 Y29.732
X81.203 Y29.706
X81.23 Y29.671
X81.247 Y29.631
X81.252 Y29.587
X81.253 Y29.252
G2 X80.918 Y29.252 I-0.167 J0
X81.085 Y29.42 I0.167 J0
S500
G1 X83.554 Y29.421 F1000
G3 X83.554 Y30.387 I0 J0.483
G1 X81.042 Y30.389
G3 X80.794 Y30.294 I0 J-0.371
G1 X80.672 Y30.19
G3 X80.672 Y29.617 I0.236 J-0.286
G1 X80.792 Y29.515
G3 X81.039 Y29.42 I0.248 J0.276
G1 X81.085
G2 X81.845 Y28.913 I0 J-0.823
G3 X82.605 Y28.407 I0.76 J0.317
G1 X84.031 Y28.408
G3 X84.923 Y28.803 I0 J1.203
X85.119 Y29.096 I-0.89 J0.809
G1 X85.181 Y29.227
G3 X85.285 Y29.57 I-1.087 J0.516
G1 X85.309 Y29.735
G3 X85.308 Y30.089 I-1.191 J0.173
G1 X85.284 Y30.243
G3 X85.18 Y30.581 I-1.189 J-0.181
G1 X85.115 Y30.716
G3 X84.032 Y31.4 I-1.085 J-0.52
G1 X80.973 Y31.403
G3 X80.152 Y31.08 I-0.001 J-1.203
G2 X79.294 Y30.477 I-2.635 J2.832
X78.298 Y30.148 I-1.527 J2.954
G1 X78.076 Y30.114
X77.965 Y30.102
X77.853 Y30.098
X66.038 Y30.173
G3 X66.038 Y29.632 I0 J-0.271
X71.945 Y29.67 I0.077 J444.816
G2 X77.852 Y29.708 I5.83 J-444.778
X79.094 Y29.436 I-0.001 J-2.967
X80.15 Y28.728 I-1.688 J-3.662
G3 X80.97 Y28.406 I0.819 J0.881
G1 X82.605 Y28.407
G2 X83.935 Y27.371 I0 J-1.371
G3 X85.492 Y26.724 I1.02 J0.258
G1 X85.945 Y26.993
X85.983 Y27.029
X86.702 Y27.822
X86.707 Y27.83
X87.162 Y28.787
X87.177 Y28.842
X87.332 Y29.904
X87.328 Y29.956
X87.171 Y30.988
X87.149 Y31.047
X86.697 Y31.991
X86.684 Y32.011
X85.948 Y32.812
X85.933 Y32.823
X84.988 Y33.376
X79.286 Y33.382
X79.274 Y33.315
X79.258 Y33.249
X79.237 Y33.184
X79.185 Y33.048
X79.153 Y32.978
X79.115 Y32.911
X79.028 Y32.776
X78.983 Y32.713
X78.932 Y32.656
X78.829 Y32.551
X78.771 Y32.498
X78.709 Y32.452
X78.571 Y32.361
X78.503 Y32.321
X78.43 Y32.288
X78.287 Y32.232
X78.212 Y32.207
X78.134 Y32.19
X77.972 Y32.164
X77.912 Y32.157
X77.852 Y32.154
X65.667 Y32.151
X64.962 Y32.049
X64.36 Y31.77
X63.89 Y31.36
X63.387 Y30.574
X63.345 Y30.514
X63.297 Y30.459
X63.195 Y30.353
X63.14 Y30.302
X63.08 Y30.256
X62.953 Y30.167
X62.882 Y30.124
X62.807 Y30.089
X62.645 Y30.023
X62.564 Y29.996
X62.481 Y29.978
X62.319 Y29.952
X62.26 Y29.945
X62.201 Y29.943
X58.735
X58.672 Y29.946
X58.609 Y29.954
X58.447 Y29.982
X58.363 Y30.001
X58.283 Y30.03
X58.12 Y30.098
X58.051 Y30.131
X57.985 Y30.171
X57.877 Y30.246
X57.82 Y30.289
X57.768 Y30.338
X57.659 Y30.448
X57.605 Y30.509
X57.557 Y30.577
X57.465 Y30.725
X57.423 Y30.801
X57.391 Y30.882
X57.336 Y31.044
X57.313 Y31.125
X57.3 Y31.208
X57.283 Y31.371
X57.279 Y31.447
Y32.245
X57.249 Y32.405
X57.09 Y32.435
X35.911 Y32.426
X35.8 Y32.401
X35.911 Y32.376
X55.756 Y32.385
X55.811 Y32.383
X55.866 Y32.377
X56.028 Y32.353
X56.11 Y32.336
X56.189 Y32.311
X56.347 Y32.249
X56.427 Y32.213
X56.502 Y32.168
X56.651 Y32.065
X56.714 Y32.017
X56.772 Y31.962
X56.865 Y31.863
X56.915 Y31.804
X56.959 Y31.74
X57.05 Y31.592
X57.089 Y31.519
X57.12 Y31.443
X57.17 Y31.295
X57.191 Y31.221
X57.205 Y31.146
X57.223 Y30.999
X57.229 Y30.907
X57.231 Y30.058
X57.258 Y29.923
X57.273 Y29.918
X57.401 Y29.893
X62.201 Y29.89
X62.266 Y29.888
X62.33 Y29.879
X62.492 Y29.851
X62.575 Y29.832
X62.656 Y29.803
X62.818 Y29.734
X62.889 Y29.7
X62.956 Y29.658
X63.069 Y29.579
X63.128 Y29.533
X63.183 Y29.481
X63.296 Y29.362
X63.344 Y29.306
X63.386 Y29.245
X63.877 Y28.468
X64.365 Y28.034
X64.374 Y28.029
X64.959 Y27.762
X65.72 Y27.655
X77.852 Y27.652
X77.912 Y27.65
X77.972 Y27.643
X78.134 Y27.617
X78.218 Y27.598
X78.299 Y27.57
X78.465 Y27.502
X78.537 Y27.468
X78.604 Y27.427
X78.719 Y27.348
X78.775 Y27.305
X78.828 Y27.257
X78.931 Y27.152
X78.976 Y27.102
X79.017 Y27.048
X79.087 Y26.945
X79.125 Y26.882
X79.157 Y26.816
X79.223 Y26.662
X79.249 Y26.593
X79.267 Y26.521
X79.286 Y26.428
X84.99 Y26.431
X85.005 Y26.435
X85.492 Y26.724
G3 X85.479 Y26.989 I-0.077 J0.129
G1 X80.197 Y29.469
G2 X80.261 Y29.755 I0.064 J0.136
S15000
G1 X81.085 Z-1.2 F300
X81.128 Y29.749
X81.169 Y29.732
X81.203 Y29.706
X81.23 Y29.671
X81.247 Y29.631
X81.252 Y29.587
X81.253 Y29.252
G2 X80.918 Y29.252 I-0.167 J0
X81.085 Y29.42 I0.167 J0
S500
G1 X83.554 Y29.421 F1000
G3 X83.554 Y30.387 I0 J0.483
G1 X81.042 Y30.389
G3 X80.794 Y30.294 I0 J-0.371
G1 X80.672 Y30.19
G3 X80.672 Y29.617 I0.236 J-0.286
G1 X80.792 Y29.515
G3 X81.039 Y29.42 I0.248 J0.276
G1 X81.085
G2 X81.845 Y28.913 I0 J-0.823
G3 X82.605 Y28.407 I0.76 J0.317
G1 X84.031 Y28.408
G3 X84.923 Y28.803 I0 J1.203
X85.119 Y29.096 I-0.89 J0.809
G1 X85.181 Y29.227
G3 X85.285 Y29.57 I-1.087 J0.516
G1 X85.309 Y29.735
G3 X85.308 Y30.089 I-1.191 J0.173
G1 X85.284 Y30.243
G3 X85.18 Y30.581 I-1.189 J-0.181
G1 X85.115 Y30.716
G3 X84.032 Y31.4 I-1.085 J-0.52
G1 X80.973 Y31.403
G3 X80.152 Y31.08 I-0.001 J-1.203
G2 X79.294 Y30.477 I-2.635 J2.832
X78.298 Y30.148 I-1.527 J2.954
G1 X78.076 Y30.114
X77.965 Y30.102
X77.853 Y30.098
X66.038 Y30.173
G3 X66.038 Y29.632 I0 J-0.271
X71.945 Y29.67 I0.077 J444.816
G2 X77.852 Y29.708 I5.83 J-444.778
X79.094 Y29.436 I-0.001 J-2.967
X80.15 Y28.728 I-1.688 J-3.662
G3 X80.97 Y28.406 I0.819 J0.881
G1 X82.605 Y28.407
G2 X83.935 Y27.371 I0 J-1.371
G3 X85.492 Y26.724 I1.02 J0.258
G1 X85.945 Y26.993
X85.983 Y27.029
X86.702 Y27.822
X86.707 Y27.83
X87.162 Y28.787
X87.177 Y28.842
X87.332 Y29.904
X87.328 Y29.956
X87.171 Y30.988
X87.149 Y31.047
X86.697 Y31.991
X86.684 Y32.011
X85.948 Y32.812
X85.933 Y32.823
X84.988 Y33.376
X79.286 Y33.382
X79.274 Y33.315
X79.258 Y33.249
X79.237 Y33.184
X79.185 Y33.048
X79.153 Y32.978
X79.115 Y32.911
X79.028 Y32.776
X78.983 Y32.713
X78.932 Y32.656
X78.829 Y32.551
X78.771 Y32.498
X78.709 Y32.452
X78.571 Y32.361
X78.503 Y32.321
X78.43 Y32.288
X78.287 Y32.232
X78.212 Y32.207
X78.134 Y32.19
X77.972 Y32.164
X77.912 Y32.157
X77.852 Y32.154
X65.667 Y32.151
X64.962 Y32.049
X64.36 Y31.77
X63.89 Y31.36
X63.387 Y30.574
X63.345 Y30.514
X63.297 Y30.459
X63.195 Y30.353
X63.14 Y30.302
X63.08 Y30.256
X62.953 Y30.167
X62.882 Y30.124
X62.807 Y30.089
X62.645 Y30.023
X62.564 Y29.996
X62.481 Y29.978
X62.319 Y29.952
X62.26 Y29.945
X62.201 Y29.943
X58.735
X58.672 Y29.946
X58.609 Y29.954
X58.447 Y29.982
X58.363 Y30.001
X58.283 Y30.03
X58.12 Y30.098
X58.051 Y30.131
X57.985 Y30.171
X57.877 Y30.246
X57.82 Y30.289
X57.768 Y30.338
X57.659 Y30.448
X57.605 Y30.509
X57.557 Y30.577
X57.465 Y30.725
X57.423 Y30.801
X57.391 Y30.882
X57.336 Y31.044
X57.313 Y31.125
X57.3 Y31.208
X57.283 Y31.371
X57.279 Y31.447
Y32.245
X57.249 Y32.405
X57.09 Y32.435
X35.911 Y32.426
X35.8 Y32.401
X35.911 Y32.376
X55.756 Y32.385
X55.811 Y32.383
X55.866 Y32.377
X56.028 Y32.353
X56.11 Y32.336
X56.189 Y32.311
X56.347 Y32.249
X56.427 Y32.213
X56.502 Y32.168
X56.651 Y32.065
X56.714 Y32.017
X56.772 Y31.962
X56.865 Y31.863
X56.915 Y31.804
X56.959 Y31.74
X57.05 Y31.592
X57.089 Y31.519
X57.12 Y31.443
X57.17 Y31.295
X57.191 Y31.221
X57.205 Y31.146
X57.223 Y30.999
X57.229 Y30.907
X57.231 Y30.058
X57.258 Y29.923
X57.273 Y29.918
X57.401 Y29.893
X62.201 Y29.89
X62.266 Y29.888
X62.33 Y29.879
X62.492 Y29.851
X62.575 Y29.832
X62.656 Y29.803
X62.818 Y29.734
X62.889 Y29.7
X62.956 Y29.658
X63.069 Y29.579
X63.128 Y29.533
X63.183 Y29.481
X63.296 Y29.362
X63.344 Y29.306
X63.386 Y29.245
X63.877 Y28.468
X64.365 Y28.034
X64.374 Y28.029
X64.959 Y27.762
X65.72 Y27.655
X77.852 Y27.652
X77.912 Y27.65
X77.972 Y27.643
X78.134 Y27.617
X78.218 Y27.598
X78.299 Y27.57
X78.465 Y27.502
X78.537 Y27.468
X78.604 Y27.427
X78.719 Y27.348
X78.775 Y27.305
X78.828 Y27.257
X78.931 Y27.152
X78.976 Y27.102
X79.017 Y27.048
X79.087 Y26.945
X79.125 Y26.882
X79.157 Y26.816
X79.223 Y26.662
X79.249 Y26.593
X79.267 Y26.521
X79.286 Y26.428
X84.99 Y26.431
X85.005 Y26.435
X85.492 Y26.724
G3 X85.479 Y26.989 I-0.077 J0.129
G1 X80.197 Y29.469
G2 X80.261 Y29.755 I0.064 J0.136
S15000
G1 X81.085 Z-1.5 F300
X81.128 Y29.749
X81.169 Y29.732
X81.203 Y29.706
X81.23 Y29.671
X81.247 Y29.631
X81.252 Y29.587
X81.253 Y29.252
G2 X80.918 Y29.252 I-0.167 J0
X81.085 Y29.42 I0.167 J0
S500
G1 X83.554 Y29.421 F1000
G3 X83.554 Y30.387 I0 J0.483
G1 X81.042 Y30.389
G3 X80.794 Y30.294 I0 J-0.371
G1 X80.672 Y30.19
G3 X80.672 Y29.617 I0.236 J-0.286
G1 X80.792 Y29.515
G3 X81.039 Y29.42 I0.248 J0.276
G1 X81.085
G2 X81.845 Y28.913 I0 J-0.823
G3 X82.605 Y28.407 I0.76 J0.317
G1 X84.031 Y28.408
G3 X84.923 Y28.803 I0 J1.203
X85.119 Y29.096 I-0.89 J0.809
G1 X85.181 Y29.227
G3 X85.285 Y29.57 I-1.087 J0.516
G1 X85.309 Y29.735
G3 X85.308 Y30.089 I-1.191 J0.173
G1 X85.284 Y30.243
G3 X85.18 Y30.581 I-1.189 J-0.181
G1 X85.115 Y30.716
G3 X84.032 Y31.4 I-1.085 J-0.52
G1 X80.973 Y31.403
G3 X80.152 Y31.08 I-0.001 J-1.203
G2 X79.294 Y30.477 I-2.635 J2.832
X78.298 Y30.148 I-1.527 J2.954
G1 X78.076 Y30.114
X77.965 Y30.102
X77.853 Y30.098
X66.038 Y30.173
G3 X66.038 Y29.632 I0 J-0.271
X71.945 Y29.67 I0.077 J444.816
G2 X77.852 Y29.708 I5.83 J-444.778
X79.094 Y29.436 I-0.001 J-2.967
X80.15 Y28.728 I-1.688 J-3.662
G3 X80.97 Y28.406 I0.819 J0.881
G1 X82.605 Y28.407
G2 X83.935 Y27.371 I0 J-1.371
G3 X85.492 Y26.724 I1.02 J0.258
G1 X85.945 Y26.993
X85.983 Y27.029
X86.702 Y27.822
X86.707 Y27.83
X87.162 Y28.787
X87.177 Y28.842
X87.332 Y29.904
X87.328 Y29.956
X87.171 Y30.988
X87.149 Y31.047
X86.697 Y31.991
X86.684 Y32.011
X85.948 Y32.812
X85.933 Y32.823
X84.988 Y33.376
X79.286 Y33.382
X79.274 Y33.315
X79.258 Y33.249
X79.237 Y33.184
X79.185 Y33.048
X79.153 Y32.978
X79.115 Y32.911
X79.028 Y32.776
X78.983 Y32.713
X78.932 Y32.656
X78.829 Y32.551
X78.771 Y32.498
X78.709 Y32.452
X78.571 Y32.361
X78.503 Y32.321
X78.43 Y32.288
X78.287 Y32.232
X78.212 Y32.207
X78.134 Y32.19
X77.972 Y32.164
X77.912 Y32.157
X77.852 Y32.154
X65.667 Y32.151
X64.962 Y32.049
X64.36 Y31.77
X63.89 Y31.36
X63.387 Y30.574
X63.345 Y30.514
X63.297 Y30.459
X63.195 Y30.353
X63.14 Y30.302
X63.08 Y30.256
X62.953 Y30.167
X62.882 Y30.124
X62.807 Y30.089
X62.645 Y30.023
X62.564 Y29.996
X62.481 Y29.978
X62.319 Y29.952
X62.26 Y29.945
X62.201 Y29.943
X58.735
X58.672 Y29.946
X58.609 Y29.954
X58.447 Y29.982
X58.363 Y30.001
X58.283 Y30.03
X58.12 Y30.098
X58.051 Y30.131
X57.985 Y30.171
X57.877 Y30.246
X57.82 Y30.289
X57.768 Y30.338
X57.659 Y30.448
X57.605 Y30.509
X57.557 Y30.577
X57.465 Y30.725
X57.423 Y30.801
X57.391 Y30.882
X57.336 Y31.044
X57.313 Y31.125
X57.3 Y31.208
X57.283 Y31.371
X57.279 Y31.447
Y32.245
X57.249 Y32.405
X57.09 Y32.435
X35.911 Y32.426
X35.8 Y32.401
X35.911 Y32.376
X55.756 Y32.385
X55.811 Y32.383
X55.866 Y32.377
X56.028 Y32.353
X56.11 Y32.336
X56.189 Y32.311
X56.347 Y32.249
X56.427 Y32.213
X56.502 Y32.168
X56.651 Y32.065
X56.714 Y32.017
X56.772 Y31.962
X56.865 Y31.863
X56.915 Y31.804
X56.959 Y31.74
X57.05 Y31.592
X57.089 Y31.519
X57.12 Y31.443
X57.17 Y31.295
X57.191 Y31.221
X57.205 Y31.146
X57.223 Y30.999
X57.229 Y30.907
X57.231 Y30.058
X57.258 Y29.923
X57.273 Y29.918
X57.401 Y29.893
X62.201 Y29.89
X62.266 Y29.888
X62.33 Y29.879
X62.492 Y29.851
X62.575 Y29.832
X62.656 Y29.803
X62.818 Y29.734
X62.889 Y29.7
X62.956 Y29.658
X63.069 Y29.579
X63.128 Y29.533
X63.183 Y29.481
X63.296 Y29.362
X63.344 Y29.306
X63.386 Y29.245
X63.877 Y28.468
X64.365 Y28.034
X64.374 Y28.029
X64.959 Y27.762
X65.72 Y27.655
X77.852 Y27.652
X77.912 Y27.65
X77.972 Y27.643
X78.134 Y27.617
X78.218 Y27.598
X78.299 Y27.57
X78.465 Y27.502
X78.537 Y27.468
X78.604 Y27.427
X78.719 Y27.348
X78.775 Y27.305
X78.828 Y27.257
X78.931 Y27.152
X78.976 Y27.102
X79.017 Y27.048
X79.087 Y26.945
X79.125 Y26.882
X79.157 Y26.816
X79.223 Y26.662
X79.249 Y26.593
X79.267 Y26.521
X79.286 Y26.428
X84.99 Y26.431
X85.005 Y26.435
X85.492 Y26.724
G3 X85.479 Y26.989 I-0.077 J0.129
G1 X80.197 Y29.469
G2 X80.261 Y29.755 I0.064 J0.136
S15000
G1 X81.085 Z-1.8 F300
X81.128 Y29.749
X81.169 Y29.732
X81.203 Y29.706
X81.23 Y29.671
X81.247 Y29.631
X81.252 Y29.587
X81.253 Y29.252
G2 X80.918 Y29.252 I-0.167 J0
X81.085 Y29.42 I0.167 J0
S500
G1 X83.554 Y29.421 F1000
G3 X83.554 Y30.387 I0 J0.483
G1 X81.042 Y30.389
G3 X80.794 Y30.294 I0 J-0.371
G1 X80.672 Y30.19
G3 X80.672 Y29.617 I0.236 J-0.286
G1 X80.792 Y29.515
G3 X81.039 Y29.42 I0.248 J0.276
G1 X81.085
G2 X81.845 Y28.913 I0 J-0.823
G3 X82.605 Y28.407 I0.76 J0.317
G1 X84.031 Y28.408
G3 X84.923 Y28.803 I0 J1.203
X85.119 Y29.096 I-0.89 J0.809
G1 X85.181 Y29.227
G3 X85.285 Y29.57 I-1.087 J0.516
G1 X85.309 Y29.735
G3 X85.308 Y30.089 I-1.191 J0.173
G1 X85.284 Y30.243
G3 X85.18 Y30.581 I-1.189 J-0.181
G1 X85.115 Y30.716
G3 X84.032 Y31.4 I-1.085 J-0.52
G1 X80.973 Y31.403
G3 X80.152 Y31.08 I-0.001 J-1.203
G2 X79.294 Y30.477 I-2.635 J2.832
X78.298 Y30.148 I-1.527 J2.954
G1 X78.076 Y30.114
X77.965 Y30.102
X77.853 Y30.098
X66.038 Y30.173
G3 X66.038 Y29.632 I0 J-0.271
X71.945 Y29.67 I0.077 J444.816
G2 X77.852 Y29.708 I5.83 J-444.778
X79.094 Y29.436 I-0.001 J-2.967
X80.15 Y28.728 I-1.688 J-3.662
G3 X80.97 Y28.406 I0.819 J0.881
G1 X82.605 Y28.407
G2 X83.935 Y27.371 I0 J-1.371
G3 X85.492 Y26.724 I1.02 J0.258
G1 X85.945 Y26.993
X85.983 Y27.029
X86.702 Y27.822
X86.707 Y27.83
X87.162 Y28.787
X87.177 Y28.842
X87.332 Y29.904
X87.328 Y29.956
X87.171 Y30.988
X87.149 Y31.047
X86.697 Y31.991
X86.684 Y32.011
X85.948 Y32.812
X85.933 Y32.823
X84.988 Y33.376
X79.286 Y33.382
X79.274 Y33.315
X79.258 Y33.249
X79.237 Y33.184
X79.185 Y33.048
X79.153 Y32.978
X79.115 Y32.911
X79.028 Y32.776
X78.983 Y32.713
X78.932 Y32.656
X78.829 Y32.551
X78.771 Y32.498
X78.709 Y32.452
X78.571 Y32.361
X78.503 Y32.321
X78.43 Y32.288
X78.287 Y32.232
X78.212 Y32.207
X78.134 Y32.19
X77.972 Y32.164
X77.912 Y32.157
X77.852 Y32.154
X65.667 Y32.151
X64.962 Y32.049
X64.36 Y31.77
X63.89 Y31.36
X63.387 Y30.574
X63.345 Y30.514
X63.297 Y30.459
X63.195 Y30.353
X63.14 Y30.302
X63.08 Y30.256
X62.953 Y30.167
X62.882 Y30.124
X62.807 Y30.089
X62.645 Y30.023
X62.564 Y29.996
X62.481 Y29.978
X62.319 Y29.952
X62.26 Y29.945
X62.201 Y29.943
X58.735
X58.672 Y29.946
X58.609 Y29.954
X58.447 Y29.982
X58.363 Y30.001
X58.283 Y30.03
X58.12 Y30.098
X58.051 Y30.131
X57.985 Y30.171
X57.877 Y30.246
X57.82 Y30.289
X57.768 Y30.338
X57.659 Y30.448
X57.605 Y30.509
X57.557 Y30.577
X57.465 Y30.725
X57.423 Y30.801
X57.391 Y30.882
X57.336 Y31.044
X57.313 Y31.125
X57.3 Y31.208
X57.283 Y31.371
X57.279 Y31.447
Y32.245
X57.249 Y32.405
X57.09 Y32.435
X35.911 Y32.426
X35.8 Y32.401
X35.911 Y32.376
X55.756 Y32.385
X55.811 Y32.383
X55.866 Y32.377
X56.028 Y32.353
X56.11 Y32.336
X56.189 Y32.311
X56.347 Y32.249
X56.427 Y32.213
X56.502 Y32.168
X56.651 Y32.065
X56.714 Y32.017
X56.772 Y31.962
X56.865 Y31.863
X56.915 Y31.804
X56.959 Y31.74
X57.05 Y31.592
X57.089 Y31.519
X57.12 Y31.443
X57.17 Y31.295
X57.191 Y31.221
X57.205 Y31.146
X57.223 Y30.999
X57.229 Y30.907
X57.231 Y30.058
X57.258 Y29.923
X57.273 Y29.918
X57.401 Y29.893
X62.201 Y29.89
X62.266 Y29.888
X62.33 Y29.879
X62.492 Y29.851
X62.575 Y29.832
X62.656 Y29.803
X62.818 Y29.734
X62.889 Y29.7
X62.956 Y29.658
X63.069 Y29.579
X63.128 Y29.533
X63.183 Y29.481
X63.296 Y29.362
X63.344 Y29.306
X63.386 Y29.245
X63.877 Y28.468
X64.365 Y28.034
X64.374 Y28.029
X64.959 Y27.762
X65.72 Y27.655
X77.852 Y27.652
X77.912 Y27.65
X77.972 Y27.643
X78.134 Y27.617
X78.218 Y27.598
X78.299 Y27.57
X78.465 Y27.502
X78.537 Y27.468
X78.604 Y27.427
X78.719 Y27.348
X78.775 Y27.305
X78.828 Y27.257
X78.931 Y27.152
X78.976 Y27.102
X79.017 Y27.048
X79.087 Y26.945
X79.125 Y26.882
X79.157 Y26.816
X79.223 Y26.662
X79.249 Y26.593
X79.267 Y26.521
X79.286 Y26.428
X84.99 Y26.431
X85.005 Y26.435
X85.492 Y26.724
G3 X85.479 Y26.989 I-0.077 J0.129
G1 X80.197 Y29.469
G2 X80.261 Y29.755 I0.064 J0.136
S15000
G1 X81.085 Z-2.1 F300
X81.128 Y29.749
X81.169 Y29.732
X81.203 Y29.706
X81.23 Y29.671
X81.247 Y29.631
X81.252 Y29.587
X81.253 Y29.252
G2 X80.918 Y29.252 I-0.167 J0
X81.085 Y29.42 I0.167 J0
S500
G1 X83.554 Y29.421 F1000
G3 X83.554 Y30.387 I0 J0.483
G1 X81.042 Y30.389
G3 X80.794 Y30.294 I0 J-0.371
G1 X80.672 Y30.19
G3 X80.672 Y29.617 I0.236 J-0.286
G1 X80.792 Y29.515
G3 X81.039 Y29.42 I0.248 J0.276
G1 X81.085
G2 X81.845 Y28.913 I0 J-0.823
G3 X82.605 Y28.407 I0.76 J0.317
G1 X84.031 Y28.408
G3 X84.923 Y28.803 I0 J1.203
X85.119 Y29.096 I-0.89 J0.809
G1 X85.181 Y29.227
G3 X85.285 Y29.57 I-1.087 J0.516
G1 X85.309 Y29.735
G3 X85.308 Y30.089 I-1.191 J0.173
G1 X85.284 Y30.243
G3 X85.18 Y30.581 I-1.189 J-0.181
G1 X85.115 Y30.716
G3 X84.032 Y31.4 I-1.085 J-0.52
G1 X80.973 Y31.403
G3 X80.152 Y31.08 I-0.001 J-1.203
G2 X79.294 Y30.477 I-2.635 J2.832
X78.298 Y30.148 I-1.527 J2.954
G1 X78.076 Y30.114
X77.965 Y30.102
X77.853 Y30.098
X66.038 Y30.173
G3 X66.038 Y29.632 I0 J-0.271
X71.945 Y29.67 I0.077 J444.816
G2 X77.852 Y29.708 I5.83 J-444.778
X79.094 Y29.436 I-0.001 J-2.967
X80.15 Y28.728 I-1.688 J-3.662
G3 X80.97 Y28.406 I0.819 J0.881
G1 X82.605 Y28.407
G2 X83.935 Y27.371 I0 J-1.371
G3 X85.492 Y26.724 I1.02 J0.258
G1 X85.945 Y26.993
X85.983 Y27.029
X86.702 Y27.822
X86.707 Y27.83
X87.162 Y28.787
X87.177 Y28.842
X87.332 Y29.904
X87.328 Y29.956
X87.171 Y30.988
X87.149 Y31.047
X86.697 Y31.991
X86.684 Y32.011
X85.948 Y32.812
X85.933 Y32.823
X84.988 Y33.376
X79.286 Y33.382
X79.274 Y33.315
X79.258 Y33.249
X79.237 Y33.184
X79.185 Y33.048
X79.153 Y32.978
X79.115 Y32.911
X79.028 Y32.776
X78.983 Y32.713
X78.932 Y32.656
X78.829 Y32.551
X78.771 Y32.498
X78.709 Y32.452
X78.571 Y32.361
X78.503 Y32.321
X78.43 Y32.288
X78.287 Y32.232
X78.212 Y32.207
X78.134 Y32.19
X77.972 Y32.164
X77.912 Y32.157
X77.852 Y32.154
X65.667 Y32.151
X64.962 Y32.049
X64.36 Y31.77
X63.89 Y31.36
X63.387 Y30.574
X63.345 Y30.514
X63.297 Y30.459
X63.195 Y30.353
X63.14 Y30.302
X63.08 Y30.256
X62.953 Y30.167
X62.882 Y30.124
X62.807 Y30.089
X62.645 Y30.023
X62.564 Y29.996
X62.481 Y29.978
X62.319 Y29.952
X62.26 Y29.945
X62.201 Y29.943
X58.735
X58.672 Y29.946
X58.609 Y29.954
X58.447 Y29.982
X58.363 Y30.001
X58.283 Y30.03
X58.12 Y30.098
X58.051 Y30.131
X57.985 Y30.171
X57.877 Y30.246
X57.82 Y30.289
X57.768 Y30.338
X57.659 Y30.448
X57.605 Y30.509
X57.557 Y30.577
X57.465 Y30.725
X57.423 Y30.801
X57.391 Y30.882
X57.336 Y31.044
X57.313 Y31.125
X57.3 Y31.208
X57.283 Y31.371
X57.279 Y31.447
Y32.245
X57.249 Y32.405
X57.09 Y32.435
X35.911 Y32.426
X35.8 Y32.401
X35.911 Y32.376
X55.756 Y32.385
X55.811 Y32.383
X55.866 Y32.377
X56.028 Y32.353
X56.11 Y32.336
X56.189 Y32.311
X56.347 Y32.249
X56.427 Y32.213
X56.502 Y32.168
X56.651 Y32.065
X56.714 Y32.017
X56.772 Y31.962
X56.865 Y31.863
X56.915 Y31.804
X56.959 Y31.74
X57.05 Y31.592
X57.089 Y31.519
X57.12 Y31.443
X57.17 Y31.295
X57.191 Y31.221
X57.205 Y31.146
X57.223 Y30.999
X57.229 Y30.907
X57.231 Y30.058
X57.258 Y29.923
X57.273 Y29.918
X57.401 Y29.893
X62.201 Y29.89
X62.266 Y29.888
X62.33 Y29.879
X62.492 Y29.851
X62.575 Y29.832
X62.656 Y29.803
X62.818 Y29.734
X62.889 Y29.7
X62.956 Y29.658
X63.069 Y29.579
X63.128 Y29.533
X63.183 Y29.481
X63.296 Y29.362
X63.344 Y29.306
X63.386 Y29.245
X63.877 Y28.468
X64.365 Y28.034
X64.374 Y28.029
X64.959 Y27.762
X65.72 Y27.655
X77.852 Y27.652
X77.912 Y27.65
X77.972 Y27.643
X78.134 Y27.617
X78.218 Y27.598
X78.299 Y27.57
X78.465 Y27.502
X78.537 Y27.468
X78.604 Y27.427
X78.719 Y27.348
X78.775 Y27.305
X78.828 Y27.257
X78.931 Y27.152
X78.976 Y27.102
X79.017 Y27.048
X79.087 Y26.945
X79.125 Y26.882
X79.157 Y26.816
X79.223 Y26.662
X79.249 Y26.593
X79.267 Y26.521
X79.286 Y26.428
X84.99 Y26.431
X85.005 Y26.435
X85.492 Y26.724
G3 X85.479 Y26.989 I-0.077 J0.129
G1 X80.197 Y29.469
G2 X80.261 Y29.755 I0.064 J0.136
S15000
G1 X81.085 Z-2.4 F300
X81.128 Y29.749
X81.169 Y29.732
X81.203 Y29.706
X81.23 Y29.671
X81.247 Y29.631
X81.252 Y29.587
X81.253 Y29.252
G2 X80.918 Y29.252 I-0.167 J0
X81.085 Y29.42 I0.167 J0
S500
G1 X83.554 Y29.421 F1000
G3 X83.554 Y30.387 I0 J0.483
G1 X81.042 Y30.389
G3 X80.794 Y30.294 I0 J-0.371
G1 X80.672 Y30.19
G3 X80.672 Y29.617 I0.236 J-0.286
G1 X80.792 Y29.515
G3 X81.039 Y29.42 I0.248 J0.276
G1 X81.085
G2 X81.845 Y28.913 I0 J-0.823
G3 X82.605 Y28.407 I0.76 J0.317
G1 X84.031 Y28.408
G3 X84.923 Y28.803 I0 J1.203
X85.119 Y29.096 I-0.89 J0.809
G1 X85.181 Y29.227
G3 X85.285 Y29.57 I-1.087 J0.516
G1 X85.309 Y29.735
G3 X85.308 Y30.089 I-1.191 J0.173
G1 X85.284 Y30.243
G3 X85.18 Y30.581 I-1.189 J-0.181
G1 X85.115 Y30.716
G3 X84.032 Y31.4 I-1.085 J-0.52
G1 X80.973 Y31.403
G3 X80.152 Y31.08 I-0.001 J-1.203
G2 X79.294 Y30.477 I-2.635 J2.832
X78.298 Y30.148 I-1.527 J2.954
G1 X78.076 Y30.114
X77.965 Y30.102
X77.853 Y30.098
X66.038 Y30.173
G3 X66.038 Y29.632 I0 J-0.271
X71.945 Y29.67 I0.077 J444.816
G2 X77.852 Y29.708 I5.83 J-444.778
X79.094 Y29.436 I-0.001 J-2.967
X80.15 Y28.728 I-1.688 J-3.662
G3 X80.97 Y28.406 I0.819 J0.881
G1 X82.605 Y28.407
G2 X83.935 Y27.371 I0 J-1.371
G3 X85.492 Y26.724 I1.02 J0.258
G1 X85.945 Y26.993
X85.983 Y27.029
X86.702 Y27.822
X86.707 Y27.83
X87.162 Y28.787
X87.177 Y28.842
X87.332 Y29.904
X87.328 Y29.956
X87.171 Y30.988
X87.149 Y31.047
X86.697 Y31.991
X86.684 Y32.011
X85.948 Y32.812
X85.933 Y32.823
X84.988 Y33.376
X79.286 Y33.382
X79.274 Y33.315
X79.258 Y33.249
X79.237 Y33.184
X79.185 Y33.048
X79.153 Y32.978
X79.115 Y32.911
X79.028 Y32.776
X78.983 Y32.713
X78.932 Y32.656
X78.829 Y32.551
X78.771 Y32.498
X78.709 Y32.452
X78.571 Y32.361
X78.503 Y32.321
X78.43 Y32.288
X78.287 Y32.232
X78.212 Y32.207
X78.134 Y32.19
X77.972 Y32.164
X77.912 Y32.157
X77.852 Y32.154
X65.667 Y32.151
X64.962 Y32.049
X64.36 Y31.77
X63.89 Y31.36
X63.387 Y30.574
X63.345 Y30.514
X63.297 Y30.459
X63.195 Y30.353
X63.14 Y30.302
X63.08 Y30.256
X62.953 Y30.167
X62.882 Y30.124
X62.807 Y30.089
X62.645 Y30.023
X62.564 Y29.996
X62.481 Y29.978
X62.319 Y29.952
X62.26 Y29.945
X62.201 Y29.943
X58.735
X58.672 Y29.946
X58.609 Y29.954
X58.447 Y29.982
X58.363 Y30.001
X58.283 Y30.03
X58.12 Y30.098
X58.051 Y30.131
X57.985 Y30.171
X57.877 Y30.246
X57.82 Y30.289
X57.768 Y30.338
X57.659 Y30.448
X57.605 Y30.509
X57.557 Y30.577
X57.465 Y30.725
X57.423 Y30.801
X57.391 Y30.882
X57.336 Y31.044
X57.313 Y31.125
X57.3 Y31.208
X57.283 Y31.371
X57.279 Y31.447
Y32.245
X57.249 Y32.405
X57.09 Y32.435
X35.911 Y32.426
X35.8 Y32.401
X35.911 Y32.376
X55.756 Y32.385
X55.811 Y32.383
X55.866 Y32.377
X56.028 Y32.353
X56.11 Y32.336
X56.189 Y32.311
X56.347 Y32.249
X56.427 Y32.213
X56.502 Y32.168
X56.651 Y32.065
X56.714 Y32.017
X56.772 Y31.962
X56.865 Y31.863
X56.915 Y31.804
X56.959 Y31.74
X57.05 Y31.592
X57.089 Y31.519
X57.12 Y31.443
X57.17 Y31.295
X57.191 Y31.221
X57.205 Y31.146
X57.223 Y30.999
X57.229 Y30.907
X57.231 Y30.058
X57.258 Y29.923
X57.273 Y29.918
X57.401 Y29.893
X62.201 Y29.89
X62.266 Y29.888
X62.33 Y29.879
X62.492 Y29.851
X62.575 Y29.832
X62.656 Y29.803
X62.818 Y29.734
X62.889 Y29.7
X62.956 Y29.658
X63.069 Y29.579
X63.128 Y29.533
X63.183 Y29.481
X63.296 Y29.362
X63.344 Y29.306
X63.386 Y29.245
X63.877 Y28.468
X64.365 Y28.034
X64.374 Y28.029
X64.959 Y27.762
X65.72 Y27.655
X77.852 Y27.652
X77.912 Y27.65
X77.972 Y27.643
X78.134 Y27.617
X78.218 Y27.598
X78.299 Y27.57
X78.465 Y27.502
X78.537 Y27.468
X78.604 Y27.427
X78.719 Y27.348
X78.775 Y27.305
X78.828 Y27.257
X78.931 Y27.152
X78.976 Y27.102
X79.017 Y27.048
X79.087 Y26.945
X79.125 Y26.882
X79.157 Y26.816
X79.223 Y26.662
X79.249 Y26.593
X79.267 Y26.521
X79.286 Y26.428
X84.99 Y26.431
X85.005 Y26.435
X85.492 Y26.724
G3 X85.479 Y26.989 I-0.077 J0.129
G1 X80.197 Y29.469
G2 X80.261 Y29.755 I0.064 J0.136
S15000
G1 X81.085 Z-2.7 F300
X81.128 Y29.749
X81.169 Y29.732
X81.203 Y29.706
X81.23 Y29.671
X81.247 Y29.631
X81.252 Y29.587
X81.253 Y29.252
G2 X80.918 Y29.252 I-0.167 J0
X81.085 Y29.42 I0.167 J0
S500
G1 X83.554 Y29.421 F1000
G3 X83.554 Y30.387 I0 J0.483
G1 X81.042 Y30.389
G3 X80.794 Y30.294 I0 J-0.371
G1 X80.672 Y30.19
G3 X80.672 Y29.617 I0.236 J-0.286
G1 X80.792 Y29.515
G3 X81.039 Y29.42 I0.248 J0.276
G1 X81.085
G2 X81.845 Y28.913 I0 J-0.823
G3 X82.605 Y28.407 I0.76 J0.317
G1 X84.031 Y28.408
G3 X84.923 Y28.803 I0 J1.203
X85.119 Y29.096 I-0.89 J0.809
G1 X85.181 Y29.227
G3 X85.285 Y29.57 I-1.087 J0.516
G1 X85.309 Y29.735
G3 X85.308 Y30.089 I-1.191 J0.173
G1 X85.284 Y30.243
G3 X85.18 Y30.581 I-1.189 J-0.181
G1 X85.115 Y30.716
G3 X84.032 Y31.4 I-1.085 J-0.52
G1 X80.973 Y31.403
G3 X80.152 Y31.08 I-0.001 J-1.203
G2 X79.294 Y30.477 I-2.635 J2.832
X78.298 Y30.148 I-1.527 J2.954
G1 X78.076 Y30.114
X77.965 Y30.102
X77.853 Y30.098
X66.038 Y30.173
G3 X66.038 Y29.632 I0 J-0.271
X71.945 Y29.67 I0.077 J444.816
G2 X77.852 Y29.708 I5.83 J-444.778
X79.094 Y29.436 I-0.001 J-2.967
X80.15 Y28.728 I-1.688 J-3.662
G3 X80.97 Y28.406 I0.819 J0.881
G1 X82.605 Y28.407
G2 X83.935 Y27.371 I0 J-1.371
G3 X85.492 Y26.724 I1.02 J0.258
G1 X85.945 Y26.993
X85.983 Y27.029
X86.702 Y27.822
X86.707 Y27.83
X87.162 Y28.787
X87.177 Y28.842
X87.332 Y29.904
X87.328 Y29.956
X87.171 Y30.988
X87.149 Y31.047
X86.697 Y31.991
X86.684 Y32.011
X85.948 Y32.812
X85.933 Y32.823
X84.988 Y33.376
X79.286 Y33.382
X79.274 Y33.315
X79.258 Y33.249
X79.237 Y33.184
X79.185 Y33.048
X79.153 Y32.978
X79.115 Y32.911
X79.028 Y32.776
X78.983 Y32.713
X78.932 Y32.656
X78.829 Y32.551
X78.771 Y32.498
X78.709 Y32.452
X78.571 Y32.361
X78.503 Y32.321
X78.43 Y32.288
X78.287 Y32.232
X78.212 Y32.207
X78.134 Y32.19
X77.972 Y32.164
X77.912 Y32.157
X77.852 Y32.154
X65.667 Y32.151
X64.962 Y32.049
X64.36 Y31.77
X63.89 Y31.36
X63.387 Y30.574
X63.345 Y30.514
X63.297 Y30.459
X63.195 Y30.353
X63.14 Y30.302
X63.08 Y30.256
X62.953 Y30.167
X62.882 Y30.124
X62.807 Y30.089
X62.645 Y30.023
X62.564 Y29.996
X62.481 Y29.978
X62.319 Y29.952
X62.26 Y29.945
X62.201 Y29.943
X58.735
X58.672 Y29.946
X58.609 Y29.954
X58.447 Y29.982
X58.363 Y30.001
X58.283 Y30.03
X58.12 Y30.098
X58.051 Y30.131
X57.985 Y30.171
X57.877 Y30.246
X57.82 Y30.289
X57.768 Y30.338
X57.659 Y30.448
X57.605 Y30.509
X57.557 Y30.577
X57.465 Y30.725
X57.423 Y30.801
X57.391 Y30.882
X57.336 Y31.044
X57.313 Y31.125
X57.3 Y31.208
X57.283 Y31.371
X57.279 Y31.447
Y32.245
X57.249 Y32.405
X57.09 Y32.435
X35.911 Y32.426
X35.8 Y32.401
X35.911 Y32.376
X55.756 Y32.385
X55.811 Y32.383
X55.866 Y32.377
X56.028 Y32.353
X56.11 Y32.336
X56.189 Y32.311
X56.347 Y32.249
X56.427 Y32.213
X56.502 Y32.168
X56.651 Y32.065
X56.714 Y32.017
X56.772 Y31.962
X56.865 Y31.863
X56.915 Y31.804
X56.959 Y31.74
X57.05 Y31.592
X57.089 Y31.519
X57.12 Y31.443
X57.17 Y31.295
X57.191 Y31.221
X57.205 Y31.146
X57.223 Y30.999
X57.229 Y30.907
X57.231 Y30.058
X57.258 Y29.923
X57.273 Y29.918
X57.401 Y29.893
X62.201 Y29.89
X62.266 Y29.888
X62.33 Y29.879
X62.492 Y29.851
X62.575 Y29.832
X62.656 Y29.803
X62.818 Y29.734
X62.889 Y29.7
X62.956 Y29.658
X63.069 Y29.579
X63.128 Y29.533
X63.183 Y29.481
X63.296 Y29.362
X63.344 Y29.306
X63.386 Y29.245
X63.877 Y28.468
X64.365 Y28.034
X64.374 Y28.029
X64.959 Y27.762
X65.72 Y27.655
X77.852 Y27.652
X77.912 Y27.65
X77.972 Y27.643
X78.134 Y27.617
X78.218 Y27.598
X78.299 Y27.57
X78.465 Y27.502
X78.537 Y27.468
X78.604 Y27.427
X78.719 Y27.348
X78.775 Y27.305
X78.828 Y27.257
X78.931 Y27.152
X78.976 Y27.102
X79.017 Y27.048
X79.087 Y26.945
X79.125 Y26.882
X79.157 Y26.816
X79.223 Y26.662
X79.249 Y26.593
X79.267 Y26.521
X79.286 Y26.428
X84.99 Y26.431
X85.005 Y26.435
X85.492 Y26.724
G3 X85.479 Y26.989 I-0.077 J0.129
G1 X80.197 Y29.469
G2 X80.261 Y29.755 I0.064 J0.136
S15000
G1 X81.085 Z-3 F300
X81.128 Y29.749
X81.169 Y29.732
X81.203 Y29.706
X81.23 Y29.671
X81.247 Y29.631
X81.252 Y29.587
X81.253 Y29.252
G2 X80.918 Y29.252 I-0.167 J0
X81.085 Y29.42 I0.167 J0
S500
G1 X83.554 Y29.421 F1000
G3 X83.554 Y30.387 I0 J0.483
G1 X81.042 Y30.389
G3 X80.794 Y30.294 I0 J-0.371
G1 X80.672 Y30.19
G3 X80.672 Y29.617 I0.236 J-0.286
G1 X80.792 Y29.515
G3 X81.039 Y29.42 I0.248 J0.276
G1 X81.085
G2 X81.845 Y28.913 I0 J-0.823
G3 X82.605 Y28.407 I0.76 J0.317
G1 X84.031 Y28.408
G3 X84.923 Y28.803 I0 J1.203
X85.119 Y29.096 I-0.89 J0.809
G1 X85.181 Y29.227
G3 X85.285 Y29.57 I-1.087 J0.516
G1 X85.309 Y29.735
G3 X85.308 Y30.089 I-1.191 J0.173
G1 X85.284 Y30.243
G3 X85.18 Y30.581 I-1.189 J-0.181
G1 X85.115 Y30.716
G3 X84.032 Y31.4 I-1.085 J-0.52
G1 X80.973 Y31.403
G3 X80.152 Y31.08 I-0.001 J-1.203
G2 X79.294 Y30.477 I-2.635 J2.832
X78.298 Y30.148 I-1.527 J2.954
G1 X78.076 Y30.114
X77.965 Y30.102
X77.853 Y30.098
X66.038 Y30.173
G3 X66.038 Y29.632 I0 J-0.271
X71.945 Y29.67 I0.077 J444.816
G2 X77.852 Y29.708 I5.83 J-444.778
X79.094 Y29.436 I-0.001 J-2.967
X80.15 Y28.728 I-1.688 J-3.662
G3 X80.97 Y28.406 I0.819 J0.881
G1 X82.605 Y28.407
G2 X83.935 Y27.371 I0 J-1.371
G3 X85.492 Y26.724 I1.02 J0.258
G1 X85.945 Y26.993
X85.983 Y27.029
X86.702 Y27.822
X86.707 Y27.83
X87.162 Y28.787
X87.177 Y28.842
X87.332 Y29.904
X87.328 Y29.956
X87.171 Y30.988
X87.149 Y31.047
X86.697 Y31.991
X86.684 Y32.011
X85.948 Y32.812
X85.933 Y32.823
X84.988 Y33.376
X79.286 Y33.382
X79.274 Y33.315
X79.258 Y33.249
X79.237 Y33.184
X79.185 Y33.048
X79.153 Y32.978
X79.115 Y32.911
X79.028 Y32.776
X78.983 Y32.713
X78.932 Y32.656
X78.829 Y32.551
X78.771 Y32.498
X78.709 Y32.452
X78.571 Y32.361
X78.503 Y32.321
X78.43 Y32.288
X78.287 Y32.232
X78.212 Y32.207
X78.134 Y32.19
X77.972 Y32.164
X77.912 Y32.157
X77.852 Y32.154
X65.667 Y32.151
X64.962 Y32.049
X64.36 Y31.77
X63.89 Y31.36
X63.387 Y30.574
X63.345 Y30.514
X63.297 Y30.459
X63.195 Y30.353
X63.14 Y30.302
X63.08 Y30.256
X62.953 Y30.167
X62.882 Y30.124
X62.807 Y30.089
X62.645 Y30.023
X62.564 Y29.996
X62.481 Y29.978
X62.319 Y29.952
X62.26 Y29.945
X62.201 Y29.943
X58.735
X58.672 Y29.946
X58.609 Y29.954
X58.447 Y29.982
X58.363 Y30.001
X58.283 Y30.03
X58.12 Y30.098
X58.051 Y30.131
X57.985 Y30.171
X57.877 Y30.246
X57.82 Y30.289
X57.768 Y30.338
X57.659 Y30.448
X57.605 Y30.509
X57.557 Y30.577
X57.465 Y30.725
X57.423 Y30.801
X57.391 Y30.882
X57.336 Y31.044
X57.313 Y31.125
X57.3 Y31.208
X57.283 Y31.371
X57.279 Y31.447
Y32.245
X57.249 Y32.405
X57.09 Y32.435
X35.911 Y32.426
X35.8 Y32.401
X35.911 Y32.376
X55.756 Y32.385
X55.811 Y32.383
X55.866 Y32.377
X56.028 Y32.353
X56.11 Y32.336
X56.189 Y32.311
X56.347 Y32.249
X56.427 Y32.213
X56.502 Y32.168
X56.651 Y32.065
X56.714 Y32.017
X56.772 Y31.962
X56.865 Y31.863
X56.915 Y31.804
X56.959 Y31.74
X57.05 Y31.592
X57.089 Y31.519
X57.12 Y31.443
X57.17 Y31.295
X57.191 Y31.221
X57.205 Y31.146
X57.223 Y30.999
X57.229 Y30.907
X57.231 Y30.058
X57.258 Y29.923
X57.273 Y29.918
X57.401 Y29.893
X62.201 Y29.89
X62.266 Y29.888
X62.33 Y29.879
X62.492 Y29.851
X62.575 Y29.832
X62.656 Y29.803
X62.818 Y29.734
X62.889 Y29.7
X62.956 Y29.658
X63.069 Y29.579
X63.128 Y29.533
X63.183 Y29.481
X63.296 Y29.362
X63.344 Y29.306
X63.386 Y29.245
X63.877 Y28.468
X64.365 Y28.034
X64.374 Y28.029
X64.959 Y27.762
X65.72 Y27.655
X77.852 Y27.652
X77.912 Y27.65
X77.972 Y27.643
X78.134 Y27.617
X78.218 Y27.598
X78.299 Y27.57
X78.465 Y27.502
X78.537 Y27.468
X78.604 Y27.427
X78.719 Y27.348
X78.775 Y27.305
X78.828 Y27.257
X78.931 Y27.152
X78.976 Y27.102
X79.017 Y27.048
X79.087 Y26.945
X79.125 Y26.882
X79.157 Y26.816
X79.223 Y26.662
X79.249 Y26.593
X79.267 Y26.521
X79.286 Y26.428
X84.99 Y26.431
X85.005 Y26.435
X85.492 Y26.724
X85.53 Y26.751 Z-2.993 F300
X85.563 Y26.783 Z-2.985
X85.589 Y26.816 Z-2.964
X85.609 Y26.853 Z-2.943
X85.631 Y26.915 Z-2.876
X85.638 Y26.957 Z-2.793
X85.639 Y26.972 Z-2.7
G0 Z4
X81.94 Y19.917
Z0.315
S15000
G1 X81.028 Z0.27 F300
G3 X81.028 Y19.617 I0 J-0.15
G1 X83.578 Z0.143
G3 X83.578 Y19.917 I0 J0.15
G1 X81.028 Z0.017
G3 X81.028 Y19.617 I0 J-0.15
G1 X83.578 Z-0.11
G3 X83.578 Y19.917 I0 J0.15
G1 X81.028 Z-0.237
G3 X81.028 Y19.617 I0 J-0.15
G1 X82.303 Z-0.3
G3 X82.304 Y20.296 I0 J0.34
S500
G1 X81.949 F1000
G3 X81.695 Y19.611 I0 J-0.39
G2 X81.934 Y19.387 I-2.497 J-2.908
G3 X82.291 Y19.237 I0.356 J0.35
G1 X82.992 Y19.238
G3 X83.705 Y19.293 I-0.002 J4.67
G1 X83.779 Y19.31
X83.85 Y19.339
X83.868 Y19.348
G3 X83.647 Y20.295 I-0.222 J0.447
G1 X82.304 Y20.296
G2 X81.507 Y20.883 I0.001 J0.835
G3 X80.651 Y21.379 I-0.697 J-0.216
X80.226 Y21.152 I0.196 J-0.877
G2 X79.114 Y20.387 I-2.933 J3.072
X77.798 Y20.091 I-1.317 J2.775
G1 X66.096 Y20.175
G3 X66.096 Y19.634 I0 J-0.271
G1 X78.774 Y19.71
G2 X80.07 Y19.401 I-0.001 J-2.879
X81.145 Y18.615 I-1.844 J-3.653
G3 X82.294 Y18.134 I1.148 J1.127
X83.075 Y18.137 I-0.065 J130.537
X83.853 Y18.199 I-0.034 J5.309
X83.608 Y21.398 I-0.246 J1.59
G1 X80.848 Y21.401
X80.749 Y21.395
X80.651 Y21.379
G2 X79.172 Y21.686 I-0.4 J1.792
G3 X77.735 Y22.153 I-1.437 J-1.977
G1 X65.725 Y22.155
X64.896 Y22.026
X64.272 Y21.708
X63.781 Y21.217
X63.463 Y20.589
X63.355 Y19.902
X63.464 Y19.214
X63.628 Y18.894
X63.776 Y18.602
X63.848 Y18.526
X64.272 Y18.101
X64.883 Y17.79
X65.727 Y17.655
X78.773 Y17.649
X78.857 Y17.644
X78.94 Y17.63
X79.102 Y17.593
X79.185 Y17.569
X79.264 Y17.535
X79.423 Y17.458
X79.49 Y17.421
X79.554 Y17.376
X79.658 Y17.295
X79.709 Y17.252
X79.756 Y17.205
X79.845 Y17.105
X79.894 Y17.045
X79.936 Y16.981
X80.023 Y16.831
X80.061 Y16.758
X80.09 Y16.681
X80.137 Y16.531
X80.156 Y16.458
X80.168 Y16.384
X80.184 Y16.24
X80.188 Y16.161
Y16.154
X83.589 Y16.155
X84.704 Y16.328
X84.758 Y16.348
X85.73 Y16.83
X85.754 Y16.847
X86.561 Y17.626
X86.582 Y17.656
X87.113 Y18.638
X87.329 Y19.751
X87.328 Y19.798
X87.201 Y20.893
X86.743 Y21.918
X86.71 Y21.966
X85.975 Y22.788
X85.94 Y22.814
X85.005 Y23.369
X84.986 Y23.376
X79.288 Y23.382
X79.286 Y23.37
X79.256 Y23.244
X79.237 Y23.18
X79.213 Y23.117
X79.158 Y22.992
X79.127 Y22.928
X79.089 Y22.867
X79.006 Y22.746
X78.959 Y22.684
X78.906 Y22.628
X78.788 Y22.515
X78.724 Y22.461
X78.655 Y22.414
X78.508 Y22.326
X78.432 Y22.286
X78.352 Y22.256
X78.189 Y22.204
X78.109 Y22.183
X78.026 Y22.171
X77.864 Y22.156
X77.798 Y22.153
X77.735
G3 X77.658 Y21.875 I0 J-0.15
G1 X81.402 Y19.638
X81.439 Y19.622
X81.479 Y19.617
S15000
X82.303 Z-0.6 F300
G3 X82.304 Y20.296 I0 J0.34
S500
G1 X81.949 F1000
G3 X81.695 Y19.611 I0 J-0.39
G2 X81.934 Y19.387 I-2.497 J-2.908
G3 X82.291 Y19.237 I0.356 J0.35
G1 X82.992 Y19.238
G3 X83.705 Y19.293 I-0.002 J4.67
G1 X83.779 Y19.31
X83.85 Y19.339
X83.868 Y19.348
G3 X83.647 Y20.295 I-0.222 J0.447
G1 X82.304 Y20.296
G2 X81.507 Y20.883 I0.001 J0.835
G3 X80.651 Y21.379 I-0.697 J-0.216
X80.226 Y21.152 I0.196 J-0.877
G2 X79.114 Y20.387 I-2.933 J3.072
X77.798 Y20.091 I-1.317 J2.775
G1 X66.096 Y20.175
G3 X66.096 Y19.634 I0 J-0.271
G1 X78.774 Y19.71
G2 X80.07 Y19.401 I-0.001 J-2.879
X81.145 Y18.615 I-1.844 J-3.653
G3 X82.294 Y18.134 I1.148 J1.127
X83.075 Y18.137 I-0.065 J130.537
X83.853 Y18.199 I-0.034 J5.309
X83.608 Y21.398 I-0.246 J1.59
G1 X80.848 Y21.401
X80.749 Y21.395
X80.651 Y21.379
G2 X79.172 Y21.686 I-0.4 J1.792
G3 X77.735 Y22.153 I-1.437 J-1.977
G1 X65.725 Y22.155
X64.896 Y22.026
X64.272 Y21.708
X63.781 Y21.217
X63.463 Y20.589
X63.355 Y19.902
X63.464 Y19.214
X63.628 Y18.894
X63.776 Y18.602
X63.848 Y18.526
X64.272 Y18.101
X64.883 Y17.79
X65.727 Y17.655
X78.773 Y17.649
X78.857 Y17.644
X78.94 Y17.63
X79.102 Y17.593
X79.185 Y17.569
X79.264 Y17.535
X79.423 Y17.458
X79.49 Y17.421
X79.554 Y17.376
X79.658 Y17.295
X79.709 Y17.252
X79.756 Y17.205
X79.845 Y17.105
X79.894 Y17.045
X79.936 Y16.981
X80.023 Y16.831
X80.061 Y16.758
X80.09 Y16.681
X80.137 Y16.531
X80.156 Y16.458
X80.168 Y16.384
X80.184 Y16.24
X80.188 Y16.161
Y16.154
X83.589 Y16.155
X84.704 Y16.328
X84.758 Y16.348
X85.73 Y16.83
X85.754 Y16.847
X86.561 Y17.626
X86.582 Y17.656
X87.113 Y18.638
X87.329 Y19.751
X87.328 Y19.798
X87.201 Y20.893
X86.743 Y21.918
X86.71 Y21.966
X85.975 Y22.788
X85.94 Y22.814
X85.005 Y23.369
X84.986 Y23.376
X79.288 Y23.382
X79.286 Y23.37
X79.256 Y23.244
X79.237 Y23.18
X79.213 Y23.117
X79.158 Y22.992
X79.127 Y22.928
X79.089 Y22.867
X79.006 Y22.746
X78.959 Y22.684
X78.906 Y22.628
X78.788 Y22.515
X78.724 Y22.461
X78.655 Y22.414
X78.508 Y22.326
X78.432 Y22.286
X78.352 Y22.256
X78.189 Y22.204
X78.109 Y22.183
X78.026 Y22.171
X77.864 Y22.156
X77.798 Y22.153
X77.735
G3 X77.658 Y21.875 I0 J-0.15
G1 X81.402 Y19.638
X81.439 Y19.622
X81.479 Y19.617
S15000
X82.303 Z-0.9 F300
G3 X82.304 Y20.296 I0 J0.34
S500
G1 X81.949 F1000
G3 X81.695 Y19.611 I0 J-0.39
G2 X81.934 Y19.387 I-2.497 J-2.908
G3 X82.291 Y19.237 I0.356 J0.35
G1 X82.992 Y19.238
G3 X83.705 Y19.293 I-0.002 J4.67
G1 X83.779 Y19.31
X83.85 Y19.339
X83.868 Y19.348
G3 X83.647 Y20.295 I-0.222 J0.447
G1 X82.304 Y20.296
G2 X81.507 Y20.883 I0.001 J0.835
G3 X80.651 Y21.379 I-0.697 J-0.216
X80.226 Y21.152 I0.196 J-0.877
G2 X79.114 Y20.387 I-2.933 J3.072
X77.798 Y20.091 I-1.317 J2.775
G1 X66.096 Y20.175
G3 X66.096 Y19.634 I0 J-0.271
G1 X78.774 Y19.71
G2 X80.07 Y19.401 I-0.001 J-2.879
X81.145 Y18.615 I-1.844 J-3.653
G3 X82.294 Y18.134 I1.148 J1.127
X83.075 Y18.137 I-0.065 J130.537
X83.853 Y18.199 I-0.034 J5.309
X83.608 Y21.398 I-0.246 J1.59
G1 X80.848 Y21.401
X80.749 Y21.395
X80.651 Y21.379
G2 X79.172 Y21.686 I-0.4 J1.792
G3 X77.735 Y22.153 I-1.437 J-1.977
G1 X65.725 Y22.155
X64.896 Y22.026
X64.272 Y21.708
X63.781 Y21.217
X63.463 Y20.589
X63.355 Y19.902
X63.464 Y19.214
X63.628 Y18.894
X63.776 Y18.602
X63.848 Y18.526
X64.272 Y18.101
X64.883 Y17.79
X65.727 Y17.655
X78.773 Y17.649
X78.857 Y17.644
X78.94 Y17.63
X79.102 Y17.593
X79.185 Y17.569
X79.264 Y17.535
X79.423 Y17.458
X79.49 Y17.421
X79.554 Y17.376
X79.658 Y17.295
X79.709 Y17.252
X79.756 Y17.205
X79.845 Y17.105
X79.894 Y17.045
X79.936 Y16.981
X80.023 Y16.831
X80.061 Y16.758
X80.09 Y16.681
X80.137 Y16.531
X80.156 Y16.458
X80.168 Y16.384
X80.184 Y16.24
X80.188 Y16.161
Y16.154
X83.589 Y16.155
X84.704 Y16.328
X84.758 Y16.348
X85.73 Y16.83
X85.754 Y16.847
X86.561 Y17.626
X86.582 Y17.656
X87.113 Y18.638
X87.329 Y19.751
X87.328 Y19.798
X87.201 Y20.893
X86.743 Y21.918
X86.71 Y21.966
X85.975 Y22.788
X85.94 Y22.814
X85.005 Y23.369
X84.986 Y23.376
X79.288 Y23.382
X79.286 Y23.37
X79.256 Y23.244
X79.237 Y23.18
X79.213 Y23.117
X79.158 Y22.992
X79.127 Y22.928
X79.089 Y22.867
X79.006 Y22.746
X78.959 Y22.684
X78.906 Y22.628
X78.788 Y22.515
X78.724 Y22.461
X78.655 Y22.414
X78.508 Y22.326
X78.432 Y22.286
X78.352 Y22.256
X78.189 Y22.204
X78.109 Y22.183
X78.026 Y22.171
X77.864 Y22.156
X77.798 Y22.153
X77.735
G3 X77.658 Y21.875 I0 J-0.15
G1 X81.402 Y19.638
X81.439 Y19.622
X81.479 Y19.617
S15000
X82.303 Z-1.2 F300
G3 X82.304 Y20.296 I0 J0.34
S500
G1 X81.949 F1000
G3 X81.695 Y19.611 I0 J-0.39
G2 X81.934 Y19.387 I-2.497 J-2.908
G3 X82.291 Y19.237 I0.356 J0.35
G1 X82.992 Y19.238
G3 X83.705 Y19.293 I-0.002 J4.67
G1 X83.779 Y19.31
X83.85 Y19.339
X83.868 Y19.348
G3 X83.647 Y20.295 I-0.222 J0.447
G1 X82.304 Y20.296
G2 X81.507 Y20.883 I0.001 J0.835
G3 X80.651 Y21.379 I-0.697 J-0.216
X80.226 Y21.152 I0.196 J-0.877
G2 X79.114 Y20.387 I-2.933 J3.072
X77.798 Y20.091 I-1.317 J2.775
G1 X66.096 Y20.175
G3 X66.096 Y19.634 I0 J-0.271
G1 X78.774 Y19.71
G2 X80.07 Y19.401 I-0.001 J-2.879
X81.145 Y18.615 I-1.844 J-3.653
G3 X82.294 Y18.134 I1.148 J1.127
X83.075 Y18.137 I-0.065 J130.537
X83.853 Y18.199 I-0.034 J5.309
X83.608 Y21.398 I-0.246 J1.59
G1 X80.848 Y21.401
X80.749 Y21.395
X80.651 Y21.379
G2 X79.172 Y21.686 I-0.4 J1.792
G3 X77.735 Y22.153 I-1.437 J-1.977
G1 X65.725 Y22.155
X64.896 Y22.026
X64.272 Y21.708
X63.781 Y21.217
X63.463 Y20.589
X63.355 Y19.902
X63.464 Y19.214
X63.628 Y18.894
X63.776 Y18.602
X63.848 Y18.526
X64.272 Y18.101
X64.883 Y17.79
X65.727 Y17.655
X78.773 Y17.649
X78.857 Y17.644
X78.94 Y17.63
X79.102 Y17.593
X79.185 Y17.569
X79.264 Y17.535
X79.423 Y17.458
X79.49 Y17.421
X79.554 Y17.376
X79.658 Y17.295
X79.709 Y17.252
X79.756 Y17.205
X79.845 Y17.105
X79.894 Y17.045
X79.936 Y16.981
X80.023 Y16.831
X80.061 Y16.758
X80.09 Y16.681
X80.137 Y16.531
X80.156 Y16.458
X80.168 Y16.384
X80.184 Y16.24
X80.188 Y16.161
Y16.154
X83.589 Y16.155
X84.704 Y16.328
X84.758 Y16.348
X85.73 Y16.83
X85.754 Y16.847
X86.561 Y17.626
X86.582 Y17.656
X87.113 Y18.638
X87.329 Y19.751
X87.328 Y19.798
X87.201 Y20.893
X86.743 Y21.918
X86.71 Y21.966
X85.975 Y22.788
X85.94 Y22.814
X85.005 Y23.369
X84.986 Y23.376
X79.288 Y23.382
X79.286 Y23.37
X79.256 Y23.244
X79.237 Y23.18
X79.213 Y23.117
X79.158 Y22.992
X79.127 Y22.928
X79.089 Y22.867
X79.006 Y22.746
X78.959 Y22.684
X78.906 Y22.628
X78.788 Y22.515
X78.724 Y22.461
X78.655 Y22.414
X78.508 Y22.326
X78.432 Y22.286
X78.352 Y22.256
X78.189 Y22.204
X78.109 Y22.183
X78.026 Y22.171
X77.864 Y22.156
X77.798 Y22.153
X77.735
G3 X77.658 Y21.875 I0 J-0.15
G1 X81.402 Y19.638
X81.439 Y19.622
X81.479 Y19.617
S15000
X82.303 Z-1.5 F300
G3 X82.304 Y20.296 I0 J0.34
S500
G1 X81.949 F1000
G3 X81.695 Y19.611 I0 J-0.39
G2 X81.934 Y19.387 I-2.497 J-2.908
G3 X82.291 Y19.237 I0.356 J0.35
G1 X82.992 Y19.238
G3 X83.705 Y19.293 I-0.002 J4.67
G1 X83.779 Y19.31
X83.85 Y19.339
X83.868 Y19.348
G3 X83.647 Y20.295 I-0.222 J0.447
G1 X82.304 Y20.296
G2 X81.507 Y20.883 I0.001 J0.835
G3 X80.651 Y21.379 I-0.697 J-0.216
X80.226 Y21.152 I0.196 J-0.877
G2 X79.114 Y20.387 I-2.933 J3.072
X77.798 Y20.091 I-1.317 J2.775
G1 X66.096 Y20.175
G3 X66.096 Y19.634 I0 J-0.271
G1 X78.774 Y19.71
G2 X80.07 Y19.401 I-0.001 J-2.879
X81.145 Y18.615 I-1.844 J-3.653
G3 X82.294 Y18.134 I1.148 J1.127
X83.075 Y18.137 I-0.065 J130.537
X83.853 Y18.199 I-0.034 J5.309
X83.608 Y21.398 I-0.246 J1.59
G1 X80.848 Y21.401
X80.749 Y21.395
X80.651 Y21.379
G2 X79.172 Y21.686 I-0.4 J1.792
G3 X77.735 Y22.153 I-1.437 J-1.977
G1 X65.725 Y22.155
X64.896 Y22.026
X64.272 Y21.708
X63.781 Y21.217
X63.463 Y20.589
X63.355 Y19.902
X63.464 Y19.214
X63.628 Y18.894
X63.776 Y18.602
X63.848 Y18.526
X64.272 Y18.101
X64.883 Y17.79
X65.727 Y17.655
X78.773 Y17.649
X78.857 Y17.644
X78.94 Y17.63
X79.102 Y17.593
X79.185 Y17.569
X79.264 Y17.535
X79.423 Y17.458
X79.49 Y17.421
X79.554 Y17.376
X79.658 Y17.295
X79.709 Y17.252
X79.756 Y17.205
X79.845 Y17.105
X79.894 Y17.045
X79.936 Y16.981
X80.023 Y16.831
X80.061 Y16.758
X80.09 Y16.681
X80.137 Y16.531
X80.156 Y16.458
X80.168 Y16.384
X80.184 Y16.24
X80.188 Y16.161
Y16.154
X83.589 Y16.155
X84.704 Y16.328
X84.758 Y16.348
X85.73 Y16.83
X85.754 Y16.847
X86.561 Y17.626
X86.582 Y17.656
X87.113 Y18.638
X87.329 Y19.751
X87.328 Y19.798
X87.201 Y20.893
X86.743 Y21.918
X86.71 Y21.966
X85.975 Y22.788
X85.94 Y22.814
X85.005 Y23.369
X84.986 Y23.376
X79.288 Y23.382
X79.286 Y23.37
X79.256 Y23.244
X79.237 Y23.18
X79.213 Y23.117
X79.158 Y22.992
X79.127 Y22.928
X79.089 Y22.867
X79.006 Y22.746
X78.959 Y22.684
X78.906 Y22.628
X78.788 Y22.515
X78.724 Y22.461
X78.655 Y22.414
X78.508 Y22.326
X78.432 Y22.286
X78.352 Y22.256
X78.189 Y22.204
X78.109 Y22.183
X78.026 Y22.171
X77.864 Y22.156
X77.798 Y22.153
X77.735
G3 X77.658 Y21.875 I0 J-0.15
G1 X81.402 Y19.638
X81.439 Y19.622
X81.479 Y19.617
S15000
X82.303 Z-1.8 F300
G3 X82.304 Y20.296 I0 J0.34
S500
G1 X81.949 F1000
G3 X81.695 Y19.611 I0 J-0.39
G2 X81.934 Y19.387 I-2.497 J-2.908
G3 X82.291 Y19.237 I0.356 J0.35
G1 X82.992 Y19.238
G3 X83.705 Y19.293 I-0.002 J4.67
G1 X83.779 Y19.31
X83.85 Y19.339
X83.868 Y19.348
G3 X83.647 Y20.295 I-0.222 J0.447
G1 X82.304 Y20.296
G2 X81.507 Y20.883 I0.001 J0.835
G3 X80.651 Y21.379 I-0.697 J-0.216
X80.226 Y21.152 I0.196 J-0.877
G2 X79.114 Y20.387 I-2.933 J3.072
X77.798 Y20.091 I-1.317 J2.775
G1 X66.096 Y20.175
G3 X66.096 Y19.634 I0 J-0.271
G1 X78.774 Y19.71
G2 X80.07 Y19.401 I-0.001 J-2.879
X81.145 Y18.615 I-1.844 J-3.653
G3 X82.294 Y18.134 I1.148 J1.127
X83.075 Y18.137 I-0.065 J130.537
X83.853 Y18.199 I-0.034 J5.309
X83.608 Y21.398 I-0.246 J1.59
G1 X80.848 Y21.401
X80.749 Y21.395
X80.651 Y21.379
G2 X79.172 Y21.686 I-0.4 J1.792
G3 X77.735 Y22.153 I-1.437 J-1.977
G1 X65.725 Y22.155
X64.896 Y22.026
X64.272 Y21.708
X63.781 Y21.217
X63.463 Y20.589
X63.355 Y19.902
X63.464 Y19.214
X63.628 Y18.894
X63.776 Y18.602
X63.848 Y18.526
X64.272 Y18.101
X64.883 Y17.79
X65.727 Y17.655
X78.773 Y17.649
X78.857 Y17.644
X78.94 Y17.63
X79.102 Y17.593
X79.185 Y17.569
X79.264 Y17.535
X79.423 Y17.458
X79.49 Y17.421
X79.554 Y17.376
X79.658 Y17.295
X79.709 Y17.252
X79.756 Y17.205
X79.845 Y17.105
X79.894 Y17.045
X79.936 Y16.981
X80.023 Y16.831
X80.061 Y16.758
X80.09 Y16.681
X80.137 Y16.531
X80.156 Y16.458
X80.168 Y16.384
X80.184 Y16.24
X80.188 Y16.161
Y16.154
X83.589 Y16.155
X84.704 Y16.328
X84.758 Y16.348
X85.73 Y16.83
X85.754 Y16.847
X86.561 Y17.626
X86.582 Y17.656
X87.113 Y18.638
X87.329 Y19.751
X87.328 Y19.798
X87.201 Y20.893
X86.743 Y21.918
X86.71 Y21.966
X85.975 Y22.788
X85.94 Y22.814
X85.005 Y23.369
X84.986 Y23.376
X79.288 Y23.382
X79.286 Y23.37
X79.256 Y23.244
X79.237 Y23.18
X79.213 Y23.117
X79.158 Y22.992
X79.127 Y22.928
X79.089 Y22.867
X79.006 Y22.746
X78.959 Y22.684
X78.906 Y22.628
X78.788 Y22.515
X78.724 Y22.461
X78.655 Y22.414
X78.508 Y22.326
X78.432 Y22.286
X78.352 Y22.256
X78.189 Y22.204
X78.109 Y22.183
X78.026 Y22.171
X77.864 Y22.156
X77.798 Y22.153
X77.735
G3 X77.658 Y21.875 I0 J-0.15
G1 X81.402 Y19.638
X81.439 Y19.622
X81.479 Y19.617
S15000
X82.303 Z-2.1 F300
G3 X82.304 Y20.296 I0 J0.34
S500
G1 X81.949 F1000
G3 X81.695 Y19.611 I0 J-0.39
G2 X81.934 Y19.387 I-2.497 J-2.908
G3 X82.291 Y19.237 I0.356 J0.35
G1 X82.992 Y19.238
G3 X83.705 Y19.293 I-0.002 J4.67
G1 X83.779 Y19.31
X83.85 Y19.339
X83.868 Y19.348
G3 X83.647 Y20.295 I-0.222 J0.447
G1 X82.304 Y20.296
G2 X81.507 Y20.883 I0.001 J0.835
G3 X80.651 Y21.379 I-0.697 J-0.216
X80.226 Y21.152 I0.196 J-0.877
G2 X79.114 Y20.387 I-2.933 J3.072
X77.798 Y20.091 I-1.317 J2.775
G1 X66.096 Y20.175
G3 X66.096 Y19.634 I0 J-0.271
G1 X78.774 Y19.71
G2 X80.07 Y19.401 I-0.001 J-2.879
X81.145 Y18.615 I-1.844 J-3.653
G3 X82.294 Y18.134 I1.148 J1.127
X83.075 Y18.137 I-0.065 J130.537
X83.853 Y18.199 I-0.034 J5.309
X83.608 Y21.398 I-0.246 J1.59
G1 X80.848 Y21.401
X80.749 Y21.395
X80.651 Y21.379
G2 X79.172 Y21.686 I-0.4 J1.792
G3 X77.735 Y22.153 I-1.437 J-1.977
G1 X65.725 Y22.155
X64.896 Y22.026
X64.272 Y21.708
X63.781 Y21.217
X63.463 Y20.589
X63.355 Y19.902
X63.464 Y19.214
X63.628 Y18.894
X63.776 Y18.602
X63.848 Y18.526
X64.272 Y18.101
X64.883 Y17.79
X65.727 Y17.655
X78.773 Y17.649
X78.857 Y17.644
X78.94 Y17.63
X79.102 Y17.593
X79.185 Y17.569
X79.264 Y17.535
X79.423 Y17.458
X79.49 Y17.421
X79.554 Y17.376
X79.658 Y17.295
X79.709 Y17.252
X79.756 Y17.205
X79.845 Y17.105
X79.894 Y17.045
X79.936 Y16.981
X80.023 Y16.831
X80.061 Y16.758
X80.09 Y16.681
X80.137 Y16.531
X80.156 Y16.458
X80.168 Y16.384
X80.184 Y16.24
X80.188 Y16.161
Y16.154
X83.589 Y16.155
X84.704 Y16.328
X84.758 Y16.348
X85.73 Y16.83
X85.754 Y16.847
X86.561 Y17.626
X86.582 Y17.656
X87.113 Y18.638
X87.329 Y19.751
X87.328 Y19.798
X87.201 Y20.893
X86.743 Y21.918
X86.71 Y21.966
X85.975 Y22.788
X85.94 Y22.814
X85.005 Y23.369
X84.986 Y23.376
X79.288 Y23.382
X79.286 Y23.37
X79.256 Y23.244
X79.237 Y23.18
X79.213 Y23.117
X79.158 Y22.992
X79.127 Y22.928
X79.089 Y22.867
X79.006 Y22.746
X78.959 Y22.684
X78.906 Y22.628
X78.788 Y22.515
X78.724 Y22.461
X78.655 Y22.414
X78.508 Y22.326
X78.432 Y22.286
X78.352 Y22.256
X78.189 Y22.204
X78.109 Y22.183
X78.026 Y22.171
X77.864 Y22.156
X77.798 Y22.153
X77.735
G3 X77.658 Y21.875 I0 J-0.15
G1 X81.402 Y19.638
X81.439 Y19.622
X81.479 Y19.617
S15000
X82.303 Z-2.4 F300
G3 X82.304 Y20.296 I0 J0.34
S500
G1 X81.949 F1000
G3 X81.695 Y19.611 I0 J-0.39
G2 X81.934 Y19.387 I-2.497 J-2.908
G3 X82.291 Y19.237 I0.356 J0.35
G1 X82.992 Y19.238
G3 X83.705 Y19.293 I-0.002 J4.67
G1 X83.779 Y19.31
X83.85 Y19.339
X83.868 Y19.348
G3 X83.647 Y20.295 I-0.222 J0.447
G1 X82.304 Y20.296
G2 X81.507 Y20.883 I0.001 J0.835
G3 X80.651 Y21.379 I-0.697 J-0.216
X80.226 Y21.152 I0.196 J-0.877
G2 X79.114 Y20.387 I-2.933 J3.072
X77.798 Y20.091 I-1.317 J2.775
G1 X66.096 Y20.175
G3 X66.096 Y19.634 I0 J-0.271
G1 X78.774 Y19.71
G2 X80.07 Y19.401 I-0.001 J-2.879
X81.145 Y18.615 I-1.844 J-3.653
G3 X82.294 Y18.134 I1.148 J1.127
X83.075 Y18.137 I-0.065 J130.537
X83.853 Y18.199 I-0.034 J5.309
X83.608 Y21.398 I-0.246 J1.59
G1 X80.848 Y21.401
X80.749 Y21.395
X80.651 Y21.379
G2 X79.172 Y21.686 I-0.4 J1.792
G3 X77.735 Y22.153 I-1.437 J-1.977
G1 X65.725 Y22.155
X64.896 Y22.026
X64.272 Y21.708
X63.781 Y21.217
X63.463 Y20.589
X63.355 Y19.902
X63.464 Y19.214
X63.628 Y18.894
X63.776 Y18.602
X63.848 Y18.526
X64.272 Y18.101
X64.883 Y17.79
X65.727 Y17.655
X78.773 Y17.649
X78.857 Y17.644
X78.94 Y17.63
X79.102 Y17.593
X79.185 Y17.569
X79.264 Y17.535
X79.423 Y17.458
X79.49 Y17.421
X79.554 Y17.376
X79.658 Y17.295
X79.709 Y17.252
X79.756 Y17.205
X79.845 Y17.105
X79.894 Y17.045
X79.936 Y16.981
X80.023 Y16.831
X80.061 Y16.758
X80.09 Y16.681
X80.137 Y16.531
X80.156 Y16.458
X80.168 Y16.384
X80.184 Y16.24
X80.188 Y16.161
Y16.154
X83.589 Y16.155
X84.704 Y16.328
X84.758 Y16.348
X85.73 Y16.83
X85.754 Y16.847
X86.561 Y17.626
X86.582 Y17.656
X87.113 Y18.638
X87.329 Y19.751
X87.328 Y19.798
X87.201 Y20.893
X86.743 Y21.918
X86.71 Y21.966
X85.975 Y22.788
X85.94 Y22.814
X85.005 Y23.369
X84.986 Y23.376
X79.288 Y23.382
X79.286 Y23.37
X79.256 Y23.244
X79.237 Y23.18
X79.213 Y23.117
X79.158 Y22.992
X79.127 Y22.928
X79.089 Y22.867
X79.006 Y22.746
X78.959 Y22.684
X78.906 Y22.628
X78.788 Y22.515
X78.724 Y22.461
X78.655 Y22.414
X78.508 Y22.326
X78.432 Y22.286
X78.352 Y22.256
X78.189 Y22.204
X78.109 Y22.183
X78.026 Y22.171
X77.864 Y22.156
X77.798 Y22.153
X77.735
G3 X77.658 Y21.875 I0 J-0.15
G1 X81.402 Y19.638
X81.439 Y19.622
X81.479 Y19.617
S15000
X82.303 Z-2.7 F300
G3 X82.304 Y20.296 I0 J0.34
S500
G1 X81.949 F1000
G3 X81.695 Y19.611 I0 J-0.39
G2 X81.934 Y19.387 I-2.497 J-2.908
G3 X82.291 Y19.237 I0.356 J0.35
G1 X82.992 Y19.238
G3 X83.705 Y19.293 I-0.002 J4.67
G1 X83.779 Y19.31
X83.85 Y19.339
X83.868 Y19.348
G3 X83.647 Y20.295 I-0.222 J0.447
G1 X82.304 Y20.296
G2 X81.507 Y20.883 I0.001 J0.835
G3 X80.651 Y21.379 I-0.697 J-0.216
X80.226 Y21.152 I0.196 J-0.877
G2 X79.114 Y20.387 I-2.933 J3.072
X77.798 Y20.091 I-1.317 J2.775
G1 X66.096 Y20.175
G3 X66.096 Y19.634 I0 J-0.271
G1 X78.774 Y19.71
G2 X80.07 Y19.401 I-0.001 J-2.879
X81.145 Y18.615 I-1.844 J-3.653
G3 X82.294 Y18.134 I1.148 J1.127
X83.075 Y18.137 I-0.065 J130.537
X83.853 Y18.199 I-0.034 J5.309
X83.608 Y21.398 I-0.246 J1.59
G1 X80.848 Y21.401
X80.749 Y21.395
X80.651 Y21.379
G2 X79.172 Y21.686 I-0.4 J1.792
G3 X77.735 Y22.153 I-1.437 J-1.977
G1 X65.725 Y22.155
X64.896 Y22.026
X64.272 Y21.708
X63.781 Y21.217
X63.463 Y20.589
X63.355 Y19.902
X63.464 Y19.214
X63.628 Y18.894
X63.776 Y18.602
X63.848 Y18.526
X64.272 Y18.101
X64.883 Y17.79
X65.727 Y17.655
X78.773 Y17.649
X78.857 Y17.644
X78.94 Y17.63
X79.102 Y17.593
X79.185 Y17.569
X79.264 Y17.535
X79.423 Y17.458
X79.49 Y17.421
X79.554 Y17.376
X79.658 Y17.295
X79.709 Y17.252
X79.756 Y17.205
X79.845 Y17.105
X79.894 Y17.045
X79.936 Y16.981
X80.023 Y16.831
X80.061 Y16.758
X80.09 Y16.681
X80.137 Y16.531
X80.156 Y16.458
X80.168 Y16.384
X80.184 Y16.24
X80.188 Y16.161
Y16.154
X83.589 Y16.155
X84.704 Y16.328
X84.758 Y16.348
X85.73 Y16.83
X85.754 Y16.847
X86.561 Y17.626
X86.582 Y17.656
X87.113 Y18.638
X87.329 Y19.751
X87.328 Y19.798
X87.201 Y20.893
X86.743 Y21.918
X86.71 Y21.966
X85.975 Y22.788
X85.94 Y22.814
X85.005 Y23.369
X84.986 Y23.376
X79.288 Y23.382
X79.286 Y23.37
X79.256 Y23.244
X79.237 Y23.18
X79.213 Y23.117
X79.158 Y22.992
X79.127 Y22.928
X79.089 Y22.867
X79.006 Y22.746
X78.959 Y22.684
X78.906 Y22.628
X78.788 Y22.515
X78.724 Y22.461
X78.655 Y22.414
X78.508 Y22.326
X78.432 Y22.286
X78.352 Y22.256
X78.189 Y22.204
X78.109 Y22.183
X78.026 Y22.171
X77.864 Y22.156
X77.798 Y22.153
X77.735
G3 X77.658 Y21.875 I0 J-0.15
G1 X81.402 Y19.638
X81.439 Y19.622
X81.479 Y19.617
S15000
X82.303 Z-3 F300
G3 X82.304 Y20.296 I0 J0.34
S500
G1 X81.949 F1000
G3 X81.695 Y19.611 I0 J-0.39
G2 X81.934 Y19.387 I-2.497 J-2.908
G3 X82.291 Y19.237 I0.356 J0.35
G1 X82.992 Y19.238
G3 X83.705 Y19.293 I-0.002 J4.67
G1 X83.779 Y19.31
X83.85 Y19.339
X83.868 Y19.348
G3 X83.647 Y20.295 I-0.222 J0.447
G1 X82.304 Y20.296
G2 X81.507 Y20.883 I0.001 J0.835
G3 X80.651 Y21.379 I-0.697 J-0.216
X80.226 Y21.152 I0.196 J-0.877
G2 X79.114 Y20.387 I-2.933 J3.072
X77.798 Y20.091 I-1.317 J2.775
G1 X66.096 Y20.175
G3 X66.096 Y19.634 I0 J-0.271
G1 X78.774 Y19.71
G2 X80.07 Y19.401 I-0.001 J-2.879
X81.145 Y18.615 I-1.844 J-3.653
G3 X82.294 Y18.134 I1.148 J1.127
X83.075 Y18.137 I-0.065 J130.537
X83.853 Y18.199 I-0.034 J5.309
X83.608 Y21.398 I-0.246 J1.59
G1 X80.848 Y21.401
X80.749 Y21.395
X80.651 Y21.379
G2 X79.172 Y21.686 I-0.4 J1.792
G3 X77.735 Y22.153 I-1.437 J-1.977
G1 X65.725 Y22.155
X64.896 Y22.026
X64.272 Y21.708
X63.781 Y21.217
X63.463 Y20.589
X63.355 Y19.902
X63.464 Y19.214
X63.628 Y18.894
X63.776 Y18.602
X63.848 Y18.526
X64.272 Y18.101
X64.883 Y17.79
X65.727 Y17.655
X78.773 Y17.649
X78.857 Y17.644
X78.94 Y17.63
X79.102 Y17.593
X79.185 Y17.569
X79.264 Y17.535
X79.423 Y17.458
X79.49 Y17.421
X79.554 Y17.376
X79.658 Y17.295
X79.709 Y17.252
X79.756 Y17.205
X79.845 Y17.105
X79.894 Y17.045
X79.936 Y16.981
X80.023 Y16.831
X80.061 Y16.758
X80.09 Y16.681
X80.137 Y16.531
X80.156 Y16.458
X80.168 Y16.384
X80.184 Y16.24
X80.188 Y16.161
Y16.154
X83.589 Y16.155
X84.704 Y16.328
X84.758 Y16.348
X85.73 Y16.83
X85.754 Y16.847
X86.561 Y17.626
X86.582 Y17.656
X87.113 Y18.638
X87.329 Y19.751
X87.328 Y19.798
X87.201 Y20.893
X86.743 Y21.918
X86.71 Y21.966
X85.975 Y22.788
X85.94 Y22.814
X85.005 Y23.369
X84.986 Y23.376
X79.288 Y23.382
X79.286 Y23.37
X79.256 Y23.244
X79.237 Y23.18
X79.213 Y23.117
X79.158 Y22.992
X79.127 Y22.928
X79.089 Y22.867
X79.006 Y22.746
X78.959 Y22.684
X78.906 Y22.628
X78.788 Y22.515
X78.724 Y22.461
X78.655 Y22.414
X78.508 Y22.326
X78.432 Y22.286
X78.352 Y22.256
X78.189 Y22.204
X78.109 Y22.183
X78.026 Y22.171
X77.864 Y22.156
X77.798 Y22.153
X77.735
X77.688 Y22.15 Z-2.993 F300
X77.643 Y22.139 Z-2.985
X77.605 Y22.124 Z-2.964
X77.568 Y22.103 Z-2.943
X77.518 Y22.06 Z-2.876
X77.49 Y22.028 Z-2.793
X77.482 Y22.016 Z-2.7
G0 Z4
X81.026 Y50.112
Z0.315
S15000
G1 X80.114 Z0.27 F300
G3 X80.114 Y49.812 I0 J-0.15
G1 X82.664 Z0.143
G3 X82.664 Y50.112 I0 J0.15
G1 X80.114 Z0.017
G3 X80.114 Y49.812 I0 J-0.15
G1 X82.664 Z-0.11
G3 X82.664 Y50.112 I0 J0.15
G1 X80.114 Z-0.237
G3 X80.114 Y49.812 I0 J-0.15
G1 X81.389 Z-0.3
G3 X81.389 Y50.465 I0 J0.327
S500
G1 X81.388 F1000
G3 X81.046 Y50.33 I0 J-0.499
G1 X81.023 Y50.309
G3 X81.356 Y49.459 I0.333 J-0.36
G1 X83.752 Y49.46
G3 X84.241 Y50.06 I0 J0.499
G1 X84.24 Y50.066
G3 X83.751 Y50.464 I-0.489 J-0.101
G1 X81.389 Y50.465
G2 X80.741 Y50.766 I0 J0.849
G3 X80.031 Y50.84 I-0.394 J-0.333
G2 X79.515 Y50.503 I-2.315 J2.983
X78.478 Y50.146 I-1.591 J2.935
G1 X78.247 Y50.11
X78.131 Y50.098
X78.014 Y50.093
X66.091 Y50.175
G3 X66.091 Y49.634 I0 J-0.271
G1 X77.852 Y49.71
G2 X79.095 Y49.438 I-0.001 J-2.968
X80.151 Y48.73 I-1.69 J-3.666
G3 X80.97 Y48.408 I0.819 J0.882
G1 X84.026 Y48.409
G3 X84.929 Y48.819 I0 J1.203
G1 X84.937 Y48.827
G3 X85.134 Y49.138 I-0.904 J0.794
G1 X85.197 Y49.281
G3 X85.291 Y49.634 I-1.102 J0.483
G1 X85.309 Y49.795
G3 X85.291 Y50.169 I-1.196 J0.13
G1 X85.256 Y50.338
G3 X85.128 Y50.681 I-1.178 J-0.244
G1 X85.055 Y50.812
G3 X84.826 Y51.104 I-1.05 J-0.587
G1 X84.734 Y51.19
G3 X83.913 Y51.514 I-0.822 J-0.879
G1 X81.247 Y51.515
G3 X80.394 Y51.161 I-0.001 J-1.203
G2 X80.031 Y50.84 I-2.678 J2.663
X77.841 Y51.151 I-0.944 J1.217
G3 X75.87 Y52.155 I-1.971 J-1.434
G1 X65.725
X64.893 Y52.025
X64.272 Y51.708
X63.785 Y51.22
X63.464 Y50.594
X63.355 Y49.905
X63.464 Y49.215
X63.627 Y48.895
X63.783 Y48.59
X64.272 Y48.102
X64.903 Y47.782
X65.725 Y47.655
X77.852 Y47.652
X77.912 Y47.65
X77.972 Y47.643
X78.134 Y47.617
X78.212 Y47.6
X78.287 Y47.575
X78.43 Y47.519
X78.502 Y47.486
X78.571 Y47.446
X78.708 Y47.355
X78.771 Y47.309
X78.828 Y47.256
X78.931 Y47.152
X78.982 Y47.095
X79.027 Y47.032
X79.115 Y46.897
X79.153 Y46.831
X79.184 Y46.761
X79.236 Y46.626
X79.26 Y46.552
X79.277 Y46.476
X79.285 Y46.428
X84.99 Y46.431
X85.004 Y46.435
X85.979 Y47.02
X86.001 Y47.039
X86.735 Y47.876
X86.768 Y47.935
X87.206 Y48.933
X87.329 Y50.059
X87.326 Y50.104
X87.097 Y51.209
X87.083 Y51.239
X86.55 Y52.194
X86.524 Y52.226
X85.699 Y52.998
X85.693 Y53.002
X84.684 Y53.484
X84.663 Y53.49
X84.601 Y53.493
X79.458 Y53.496
X79.438 Y53.36
X79.423 Y53.286
X79.401 Y53.214
X79.35 Y53.072
X79.319 Y52.999
X79.28 Y52.929
X79.191 Y52.788
X79.147 Y52.725
X79.097 Y52.667
X78.999 Y52.565
X78.942 Y52.512
X78.879 Y52.464
X78.735 Y52.367
X78.664 Y52.324
X78.59 Y52.29
X78.446 Y52.233
X78.371 Y52.208
X78.295 Y52.191
X78.139 Y52.165
X78.077 Y52.157
X78.014 Y52.155
X75.87
G3 X75.81 Y51.867 I0 J-0.15
G1 X80.505 Y49.824
X80.534 Y49.815
X80.565 Y49.812
S15000
X81.389 Z-0.6 F300
G3 X81.389 Y50.465 I0 J0.327
S500
G1 X81.388 F1000
G3 X81.046 Y50.33 I0 J-0.499
G1 X81.023 Y50.309
G3 X81.356 Y49.459 I0.333 J-0.36
G1 X83.752 Y49.46
G3 X84.241 Y50.06 I0 J0.499
G1 X84.24 Y50.066
G3 X83.751 Y50.464 I-0.489 J-0.101
G1 X81.389 Y50.465
G2 X80.741 Y50.766 I0 J0.849
G3 X80.031 Y50.84 I-0.394 J-0.333
G2 X79.515 Y50.503 I-2.315 J2.983
X78.478 Y50.146 I-1.591 J2.935
G1 X78.247 Y50.11
X78.131 Y50.098
X78.014 Y50.093
X66.091 Y50.175
G3 X66.091 Y49.634 I0 J-0.271
G1 X77.852 Y49.71
G2 X79.095 Y49.438 I-0.001 J-2.968
X80.151 Y48.73 I-1.69 J-3.666
G3 X80.97 Y48.408 I0.819 J0.882
G1 X84.026 Y48.409
G3 X84.929 Y48.819 I0 J1.203
G1 X84.937 Y48.827
G3 X85.134 Y49.138 I-0.904 J0.794
G1 X85.197 Y49.281
G3 X85.291 Y49.634 I-1.102 J0.483
G1 X85.309 Y49.795
G3 X85.291 Y50.169 I-1.196 J0.13
G1 X85.256 Y50.338
G3 X85.128 Y50.681 I-1.178 J-0.244
G1 X85.055 Y50.812
G3 X84.826 Y51.104 I-1.05 J-0.587
G1 X84.734 Y51.19
G3 X83.913 Y51.514 I-0.822 J-0.879
G1 X81.247 Y51.515
G3 X80.394 Y51.161 I-0.001 J-1.203
G2 X80.031 Y50.84 I-2.678 J2.663
X77.841 Y51.151 I-0.944 J1.217
G3 X75.87 Y52.155 I-1.971 J-1.434
G1 X65.725
X64.893 Y52.025
X64.272 Y51.708
X63.785 Y51.22
X63.464 Y50.594
X63.355 Y49.905
X63.464 Y49.215
X63.627 Y48.895
X63.783 Y48.59
X64.272 Y48.102
X64.903 Y47.782
X65.725 Y47.655
X77.852 Y47.652
X77.912 Y47.65
X77.972 Y47.643
X78.134 Y47.617
X78.212 Y47.6
X78.287 Y47.575
X78.43 Y47.519
X78.502 Y47.486
X78.571 Y47.446
X78.708 Y47.355
X78.771 Y47.309
X78.828 Y47.256
X78.931 Y47.152
X78.982 Y47.095
X79.027 Y47.032
X79.115 Y46.897
X79.153 Y46.831
X79.184 Y46.761
X79.236 Y46.626
X79.26 Y46.552
X79.277 Y46.476
X79.285 Y46.428
X84.99 Y46.431
X85.004 Y46.435
X85.979 Y47.02
X86.001 Y47.039
X86.735 Y47.876
X86.768 Y47.935
X87.206 Y48.933
X87.329 Y50.059
X87.326 Y50.104
X87.097 Y51.209
X87.083 Y51.239
X86.55 Y52.194
X86.524 Y52.226
X85.699 Y52.998
X85.693 Y53.002
X84.684 Y53.484
X84.663 Y53.49
X84.601 Y53.493
X79.458 Y53.496
X79.438 Y53.36
X79.423 Y53.286
X79.401 Y53.214
X79.35 Y53.072
X79.319 Y52.999
X79.28 Y52.929
X79.191 Y52.788
X79.147 Y52.725
X79.097 Y52.667
X78.999 Y52.565
X78.942 Y52.512
X78.879 Y52.464
X78.735 Y52.367
X78.664 Y52.324
X78.59 Y52.29
X78.446 Y52.233
X78.371 Y52.208
X78.295 Y52.191
X78.139 Y52.165
X78.077 Y52.157
X78.014 Y52.155
X75.87
G3 X75.81 Y51.867 I0 J-0.15
G1 X80.505 Y49.824
X80.534 Y49.815
X80.565 Y49.812
S15000
X81.389 Z-0.9 F300
G3 X81.389 Y50.465 I0 J0.327
S500
G1 X81.388 F1000
G3 X81.046 Y50.33 I0 J-0.499
G1 X81.023 Y50.309
G3 X81.356 Y49.459 I0.333 J-0.36
G1 X83.752 Y49.46
G3 X84.241 Y50.06 I0 J0.499
G1 X84.24 Y50.066
G3 X83.751 Y50.464 I-0.489 J-0.101
G1 X81.389 Y50.465
G2 X80.741 Y50.766 I0 J0.849
G3 X80.031 Y50.84 I-0.394 J-0.333
G2 X79.515 Y50.503 I-2.315 J2.983
X78.478 Y50.146 I-1.591 J2.935
G1 X78.247 Y50.11
X78.131 Y50.098
X78.014 Y50.093
X66.091 Y50.175
G3 X66.091 Y49.634 I0 J-0.271
G1 X77.852 Y49.71
G2 X79.095 Y49.438 I-0.001 J-2.968
X80.151 Y48.73 I-1.69 J-3.666
G3 X80.97 Y48.408 I0.819 J0.882
G1 X84.026 Y48.409
G3 X84.929 Y48.819 I0 J1.203
G1 X84.937 Y48.827
G3 X85.134 Y49.138 I-0.904 J0.794
G1 X85.197 Y49.281
G3 X85.291 Y49.634 I-1.102 J0.483
G1 X85.309 Y49.795
G3 X85.291 Y50.169 I-1.196 J0.13
G1 X85.256 Y50.338
G3 X85.128 Y50.681 I-1.178 J-0.244
G1 X85.055 Y50.812
G3 X84.826 Y51.104 I-1.05 J-0.587
G1 X84.734 Y51.19
G3 X83.913 Y51.514 I-0.822 J-0.879
G1 X81.247 Y51.515
G3 X80.394 Y51.161 I-0.001 J-1.203
G2 X80.031 Y50.84 I-2.678 J2.663
X77.841 Y51.151 I-0.944 J1.217
G3 X75.87 Y52.155 I-1.971 J-1.434
G1 X65.725
X64.893 Y52.025
X64.272 Y51.708
X63.785 Y51.22
X63.464 Y50.594
X63.355 Y49.905
X63.464 Y49.215
X63.627 Y48.895
X63.783 Y48.59
X64.272 Y48.102
X64.903 Y47.782
X65.725 Y47.655
X77.852 Y47.652
X77.912 Y47.65
X77.972 Y47.643
X78.134 Y47.617
X78.212 Y47.6
X78.287 Y47.575
X78.43 Y47.519
X78.502 Y47.486
X78.571 Y47.446
X78.708 Y47.355
X78.771 Y47.309
X78.828 Y47.256
X78.931 Y47.152
X78.982 Y47.095
X79.027 Y47.032
X79.115 Y46.897
X79.153 Y46.831
X79.184 Y46.761
X79.236 Y46.626
X79.26 Y46.552
X79.277 Y46.476
X79.285 Y46.428
X84.99 Y46.431
X85.004 Y46.435
X85.979 Y47.02
X86.001 Y47.039
X86.735 Y47.876
X86.768 Y47.935
X87.206 Y48.933
X87.329 Y50.059
X87.326 Y50.104
X87.097 Y51.209
X87.083 Y51.239
X86.55 Y52.194
X86.524 Y52.226
X85.699 Y52.998
X85.693 Y53.002
X84.684 Y53.484
X84.663 Y53.49
X84.601 Y53.493
X79.458 Y53.496
X79.438 Y53.36
X79.423 Y53.286
X79.401 Y53.214
X79.35 Y53.072
X79.319 Y52.999
X79.28 Y52.929
X79.191 Y52.788
X79.147 Y52.725
X79.097 Y52.667
X78.999 Y52.565
X78.942 Y52.512
X78.879 Y52.464
X78.735 Y52.367
X78.664 Y52.324
X78.59 Y52.29
X78.446 Y52.233
X78.371 Y52.208
X78.295 Y52.191
X78.139 Y52.165
X78.077 Y52.157
X78.014 Y52.155
X75.87
G3 X75.81 Y51.867 I0 J-0.15
G1 X80.505 Y49.824
X80.534 Y49.815
X80.565 Y49.812
S15000
X81.389 Z-1.2 F300
G3 X81.389 Y50.465 I0 J0.327
S500
G1 X81.388 F1000
G3 X81.046 Y50.33 I0 J-0.499
G1 X81.023 Y50.309
G3 X81.356 Y49.459 I0.333 J-0.36
G1 X83.752 Y49.46
G3 X84.241 Y50.06 I0 J0.499
G1 X84.24 Y50.066
G3 X83.751 Y50.464 I-0.489 J-0.101
G1 X81.389 Y50.465
G2 X80.741 Y50.766 I0 J0.849
G3 X80.031 Y50.84 I-0.394 J-0.333
G2 X79.515 Y50.503 I-2.315 J2.983
X78.478 Y50.146 I-1.591 J2.935
G1 X78.247 Y50.11
X78.131 Y50.098
X78.014 Y50.093
X66.091 Y50.175
G3 X66.091 Y49.634 I0 J-0.271
G1 X77.852 Y49.71
G2 X79.095 Y49.438 I-0.001 J-2.968
X80.151 Y48.73 I-1.69 J-3.666
G3 X80.97 Y48.408 I0.819 J0.882
G1 X84.026 Y48.409
G3 X84.929 Y48.819 I0 J1.203
G1 X84.937 Y48.827
G3 X85.134 Y49.138 I-0.904 J0.794
G1 X85.197 Y49.281
G3 X85.291 Y49.634 I-1.102 J0.483
G1 X85.309 Y49.795
G3 X85.291 Y50.169 I-1.196 J0.13
G1 X85.256 Y50.338
G3 X85.128 Y50.681 I-1.178 J-0.244
G1 X85.055 Y50.812
G3 X84.826 Y51.104 I-1.05 J-0.587
G1 X84.734 Y51.19
G3 X83.913 Y51.514 I-0.822 J-0.879
G1 X81.247 Y51.515
G3 X80.394 Y51.161 I-0.001 J-1.203
G2 X80.031 Y50.84 I-2.678 J2.663
X77.841 Y51.151 I-0.944 J1.217
G3 X75.87 Y52.155 I-1.971 J-1.434
G1 X65.725
X64.893 Y52.025
X64.272 Y51.708
X63.785 Y51.22
X63.464 Y50.594
X63.355 Y49.905
X63.464 Y49.215
X63.627 Y48.895
X63.783 Y48.59
X64.272 Y48.102
X64.903 Y47.782
X65.725 Y47.655
X77.852 Y47.652
X77.912 Y47.65
X77.972 Y47.643
X78.134 Y47.617
X78.212 Y47.6
X78.287 Y47.575
X78.43 Y47.519
X78.502 Y47.486
X78.571 Y47.446
X78.708 Y47.355
X78.771 Y47.309
X78.828 Y47.256
X78.931 Y47.152
X78.982 Y47.095
X79.027 Y47.032
X79.115 Y46.897
X79.153 Y46.831
X79.184 Y46.761
X79.236 Y46.626
X79.26 Y46.552
X79.277 Y46.476
X79.285 Y46.428
X84.99 Y46.431
X85.004 Y46.435
X85.979 Y47.02
X86.001 Y47.039
X86.735 Y47.876
X86.768 Y47.935
X87.206 Y48.933
X87.329 Y50.059
X87.326 Y50.104
X87.097 Y51.209
X87.083 Y51.239
X86.55 Y52.194
X86.524 Y52.226
X85.699 Y52.998
X85.693 Y53.002
X84.684 Y53.484
X84.663 Y53.49
X84.601 Y53.493
X79.458 Y53.496
X79.438 Y53.36
X79.423 Y53.286
X79.401 Y53.214
X79.35 Y53.072
X79.319 Y52.999
X79.28 Y52.929
X79.191 Y52.788
X79.147 Y52.725
X79.097 Y52.667
X78.999 Y52.565
X78.942 Y52.512
X78.879 Y52.464
X78.735 Y52.367
X78.664 Y52.324
X78.59 Y52.29
X78.446 Y52.233
X78.371 Y52.208
X78.295 Y52.191
X78.139 Y52.165
X78.077 Y52.157
X78.014 Y52.155
X75.87
G3 X75.81 Y51.867 I0 J-0.15
G1 X80.505 Y49.824
X80.534 Y49.815
X80.565 Y49.812
S15000
X81.389 Z-1.5 F300
G3 X81.389 Y50.465 I0 J0.327
S500
G1 X81.388 F1000
G3 X81.046 Y50.33 I0 J-0.499
G1 X81.023 Y50.309
G3 X81.356 Y49.459 I0.333 J-0.36
G1 X83.752 Y49.46
G3 X84.241 Y50.06 I0 J0.499
G1 X84.24 Y50.066
G3 X83.751 Y50.464 I-0.489 J-0.101
G1 X81.389 Y50.465
G2 X80.741 Y50.766 I0 J0.849
G3 X80.031 Y50.84 I-0.394 J-0.333
G2 X79.515 Y50.503 I-2.315 J2.983
X78.478 Y50.146 I-1.591 J2.935
G1 X78.247 Y50.11
X78.131 Y50.098
X78.014 Y50.093
X66.091 Y50.175
G3 X66.091 Y49.634 I0 J-0.271
G1 X77.852 Y49.71
G2 X79.095 Y49.438 I-0.001 J-2.968
X80.151 Y48.73 I-1.69 J-3.666
G3 X80.97 Y48.408 I0.819 J0.882
G1 X84.026 Y48.409
G3 X84.929 Y48.819 I0 J1.203
G1 X84.937 Y48.827
G3 X85.134 Y49.138 I-0.904 J0.794
G1 X85.197 Y49.281
G3 X85.291 Y49.634 I-1.102 J0.483
G1 X85.309 Y49.795
G3 X85.291 Y50.169 I-1.196 J0.13
G1 X85.256 Y50.338
G3 X85.128 Y50.681 I-1.178 J-0.244
G1 X85.055 Y50.812
G3 X84.826 Y51.104 I-1.05 J-0.587
G1 X84.734 Y51.19
G3 X83.913 Y51.514 I-0.822 J-0.879
G1 X81.247 Y51.515
G3 X80.394 Y51.161 I-0.001 J-1.203
G2 X80.031 Y50.84 I-2.678 J2.663
X77.841 Y51.151 I-0.944 J1.217
G3 X75.87 Y52.155 I-1.971 J-1.434
G1 X65.725
X64.893 Y52.025
X64.272 Y51.708
X63.785 Y51.22
X63.464 Y50.594
X63.355 Y49.905
X63.464 Y49.215
X63.627 Y48.895
X63.783 Y48.59
X64.272 Y48.102
X64.903 Y47.782
X65.725 Y47.655
X77.852 Y47.652
X77.912 Y47.65
X77.972 Y47.643
X78.134 Y47.617
X78.212 Y47.6
X78.287 Y47.575
X78.43 Y47.519
X78.502 Y47.486
X78.571 Y47.446
X78.708 Y47.355
X78.771 Y47.309
X78.828 Y47.256
X78.931 Y47.152
X78.982 Y47.095
X79.027 Y47.032
X79.115 Y46.897
X79.153 Y46.831
X79.184 Y46.761
X79.236 Y46.626
X79.26 Y46.552
X79.277 Y46.476
X79.285 Y46.428
X84.99 Y46.431
X85.004 Y46.435
X85.979 Y47.02
X86.001 Y47.039
X86.735 Y47.876
X86.768 Y47.935
X87.206 Y48.933
X87.329 Y50.059
X87.326 Y50.104
X87.097 Y51.209
X87.083 Y51.239
X86.55 Y52.194
X86.524 Y52.226
X85.699 Y52.998
X85.693 Y53.002
X84.684 Y53.484
X84.663 Y53.49
X84.601 Y53.493
X79.458 Y53.496
X79.438 Y53.36
X79.423 Y53.286
X79.401 Y53.214
X79.35 Y53.072
X79.319 Y52.999
X79.28 Y52.929
X79.191 Y52.788
X79.147 Y52.725
X79.097 Y52.667
X78.999 Y52.565
X78.942 Y52.512
X78.879 Y52.464
X78.735 Y52.367
X78.664 Y52.324
X78.59 Y52.29
X78.446 Y52.233
X78.371 Y52.208
X78.295 Y52.191
X78.139 Y52.165
X78.077 Y52.157
X78.014 Y52.155
X75.87
G3 X75.81 Y51.867 I0 J-0.15
G1 X80.505 Y49.824
X80.534 Y49.815
X80.565 Y49.812
S15000
X81.389 Z-1.8 F300
G3 X81.389 Y50.465 I0 J0.327
S500
G1 X81.388 F1000
G3 X81.046 Y50.33 I0 J-0.499
G1 X81.023 Y50.309
G3 X81.356 Y49.459 I0.333 J-0.36
G1 X83.752 Y49.46
G3 X84.241 Y50.06 I0 J0.499
G1 X84.24 Y50.066
G3 X83.751 Y50.464 I-0.489 J-0.101
G1 X81.389 Y50.465
G2 X80.741 Y50.766 I0 J0.849
G3 X80.031 Y50.84 I-0.394 J-0.333
G2 X79.515 Y50.503 I-2.315 J2.983
X78.478 Y50.146 I-1.591 J2.935
G1 X78.247 Y50.11
X78.131 Y50.098
X78.014 Y50.093
X66.091 Y50.175
G3 X66.091 Y49.634 I0 J-0.271
G1 X77.852 Y49.71
G2 X79.095 Y49.438 I-0.001 J-2.968
X80.151 Y48.73 I-1.69 J-3.666
G3 X80.97 Y48.408 I0.819 J0.882
G1 X84.026 Y48.409
G3 X84.929 Y48.819 I0 J1.203
G1 X84.937 Y48.827
G3 X85.134 Y49.138 I-0.904 J0.794
G1 X85.197 Y49.281
G3 X85.291 Y49.634 I-1.102 J0.483
G1 X85.309 Y49.795
G3 X85.291 Y50.169 I-1.196 J0.13
G1 X85.256 Y50.338
G3 X85.128 Y50.681 I-1.178 J-0.244
G1 X85.055 Y50.812
G3 X84.826 Y51.104 I-1.05 J-0.587
G1 X84.734 Y51.19
G3 X83.913 Y51.514 I-0.822 J-0.879
G1 X81.247 Y51.515
G3 X80.394 Y51.161 I-0.001 J-1.203
G2 X80.031 Y50.84 I-2.678 J2.663
X77.841 Y51.151 I-0.944 J1.217
G3 X75.87 Y52.155 I-1.971 J-1.434
G1 X65.725
X64.893 Y52.025
X64.272 Y51.708
X63.785 Y51.22
X63.464 Y50.594
X63.355 Y49.905
X63.464 Y49.215
X63.627 Y48.895
X63.783 Y48.59
X64.272 Y48.102
X64.903 Y47.782
X65.725 Y47.655
X77.852 Y47.652
X77.912 Y47.65
X77.972 Y47.643
X78.134 Y47.617
X78.212 Y47.6
X78.287 Y47.575
X78.43 Y47.519
X78.502 Y47.486
X78.571 Y47.446
X78.708 Y47.355
X78.771 Y47.309
X78.828 Y47.256
X78.931 Y47.152
X78.982 Y47.095
X79.027 Y47.032
X79.115 Y46.897
X79.153 Y46.831
X79.184 Y46.761
X79.236 Y46.626
X79.26 Y46.552
X79.277 Y46.476
X79.285 Y46.428
X84.99 Y46.431
X85.004 Y46.435
X85.979 Y47.02
X86.001 Y47.039
X86.735 Y47.876
X86.768 Y47.935
X87.206 Y48.933
X87.329 Y50.059
X87.326 Y50.104
X87.097 Y51.209
X87.083 Y51.239
X86.55 Y52.194
X86.524 Y52.226
X85.699 Y52.998
X85.693 Y53.002
X84.684 Y53.484
X84.663 Y53.49
X84.601 Y53.493
X79.458 Y53.496
X79.438 Y53.36
X79.423 Y53.286
X79.401 Y53.214
X79.35 Y53.072
X79.319 Y52.999
X79.28 Y52.929
X79.191 Y52.788
X79.147 Y52.725
X79.097 Y52.667
X78.999 Y52.565
X78.942 Y52.512
X78.879 Y52.464
X78.735 Y52.367
X78.664 Y52.324
X78.59 Y52.29
X78.446 Y52.233
X78.371 Y52.208
X78.295 Y52.191
X78.139 Y52.165
X78.077 Y52.157
X78.014 Y52.155
X75.87
G3 X75.81 Y51.867 I0 J-0.15
G1 X80.505 Y49.824
X80.534 Y49.815
X80.565 Y49.812
S15000
X81.389 Z-2.1 F300
G3 X81.389 Y50.465 I0 J0.327
S500
G1 X81.388 F1000
G3 X81.046 Y50.33 I0 J-0.499
G1 X81.023 Y50.309
G3 X81.356 Y49.459 I0.333 J-0.36
G1 X83.752 Y49.46
G3 X84.241 Y50.06 I0 J0.499
G1 X84.24 Y50.066
G3 X83.751 Y50.464 I-0.489 J-0.101
G1 X81.389 Y50.465
G2 X80.741 Y50.766 I0 J0.849
G3 X80.031 Y50.84 I-0.394 J-0.333
G2 X79.515 Y50.503 I-2.315 J2.983
X78.478 Y50.146 I-1.591 J2.935
G1 X78.247 Y50.11
X78.131 Y50.098
X78.014 Y50.093
X66.091 Y50.175
