(1001)
(T1  D=3 CR=0 - ZMIN=-8.7 - flat end mill)
G90 G94
G17
G21
(When using Fusion 360 for Personal Use, the feedrate of rapid moves is reduced to match the feedrate of cutting moves, which can increase machining time. Unrestricted rapid moves are available with a Fusion 360 Subscription.)

(Pocket1)
T1
S500 M3
G54
M8
G0 X34.286 Y49.318
Z6
G1 Z1.3 F1000
Z-0.3 F300
X34.292 Y49.316 F1000
X34.323 Y49.302
X34.37 Y49.339
X34.42 Y49.371
X34.558 Y49.454
X25.905 Y49.451
X25.799 Y49.427
X25.905 Y49.402
X33.83 Y49.403
X33.892 Y49.4
X33.952 Y49.393
X34.122 Y49.365
X34.205 Y49.346
X34.286 Y49.318
X34.292 Y49.316 F300
X34.323 Y49.302 Z-0.297
X34.372 Y49.34 Z-0.282
X34.42 Y49.371 Z-0.254
X34.461 Y49.395 Z-0.217
X34.495 Y49.416 Z-0.171
X34.52 Y49.431 Z-0.118
X34.535 Y49.44 Z-0.06
X34.54 Y49.443 Z0
Z4 F1000
X34.286 Y49.318
Z1
Z-0.6 F300
X34.292 Y49.316 F1000
X34.323 Y49.302
X34.37 Y49.339
X34.42 Y49.371
X34.558 Y49.454
X25.905 Y49.451
X25.799 Y49.427
X25.905 Y49.402
X33.83 Y49.403
X33.892 Y49.4
X33.952 Y49.393
X34.122 Y49.365
X34.205 Y49.346
X34.286 Y49.318
X34.292 Y49.316 F300
X34.323 Y49.302 Z-0.597
X34.372 Y49.34 Z-0.582
X34.42 Y49.371 Z-0.554
X34.461 Y49.395 Z-0.517
X34.495 Y49.416 Z-0.471
X34.52 Y49.431 Z-0.418
X34.535 Y49.44 Z-0.36
X34.54 Y49.443 Z-0.3
Z4 F1000
X34.286 Y49.318
Z0.7
Z-0.9 F300
X34.292 Y49.316 F1000
X34.323 Y49.302
X34.37 Y49.339
X34.42 Y49.371
X34.558 Y49.454
X25.905 Y49.451
X25.799 Y49.427
X25.905 Y49.402
X33.83 Y49.403
X33.892 Y49.4
X33.952 Y49.393
X34.122 Y49.365
X34.205 Y49.346
X34.286 Y49.318
X34.292 Y49.316 F300
X34.323 Y49.302 Z-0.897
X34.372 Y49.34 Z-0.882
X34.42 Y49.371 Z-0.854
X34.461 Y49.395 Z-0.817
X34.495 Y49.416 Z-0.771
X34.52 Y49.431 Z-0.718
X34.535 Y49.44 Z-0.66
X34.54 Y49.443 Z-0.6
Z4 F1000
X34.286 Y49.318
Z0.4
Z-1.2 F300
X34.292 Y49.316 F1000
X34.323 Y49.302
X34.37 Y49.339
X34.42 Y49.371
X34.558 Y49.454
X25.905 Y49.451
X25.799 Y49.427
X25.905 Y49.402
X33.83 Y49.403
X33.892 Y49.4
X33.952 Y49.393
X34.122 Y49.365
X34.205 Y49.346
X34.286 Y49.318
X34.292 Y49.316 F300
X34.323 Y49.302 Z-1.197
X34.372 Y49.34 Z-1.182
X34.42 Y49.371 Z-1.154
X34.461 Y49.395 Z-1.117
X34.495 Y49.416 Z-1.071
X34.52 Y49.431 Z-1.018
X34.535 Y49.44 Z-0.96
X34.54 Y49.443 Z-0.9
Z4 F1000
X34.286 Y49.318
Z0.1
Z-1.5 F300
X34.292 Y49.316 F1000
X34.323 Y49.302
X34.37 Y49.339
X34.42 Y49.371
X34.558 Y49.454
X25.905 Y49.451
X25.799 Y49.427
X25.905 Y49.402
X33.83 Y49.403
X33.892 Y49.4
X33.952 Y49.393
X34.122 Y49.365
X34.205 Y49.346
X34.286 Y49.318
X34.292 Y49.316 F300
X34.323 Y49.302 Z-1.497
X34.372 Y49.34 Z-1.482
X34.42 Y49.371 Z-1.454
X34.461 Y49.395 Z-1.417
X34.495 Y49.416 Z-1.371
X34.52 Y49.431 Z-1.318
X34.535 Y49.44 Z-1.26
X34.54 Y49.443 Z-1.2
Z4 F1000
X34.286 Y49.318
Z1.3
Z-0.2 F300
Z-1.8
X34.292 Y49.316 F1000
X34.323 Y49.302
X34.37 Y49.339
X34.42 Y49.371
X34.558 Y49.454
X25.905 Y49.451
X25.799 Y49.427
X25.905 Y49.402
X33.83 Y49.403
X33.892 Y49.4
X33.952 Y49.393
X34.122 Y49.365
X34.205 Y49.346
X34.286 Y49.318
X34.292 Y49.316 F300
X34.323 Y49.302 Z-1.797
X34.372 Y49.34 Z-1.782
X34.42 Y49.371 Z-1.754
X34.461 Y49.395 Z-1.717
X34.495 Y49.416 Z-1.671
X34.52 Y49.431 Z-1.618
X34.535 Y49.44 Z-1.56
X34.54 Y49.443 Z-1.5
Z4 F1000
X34.286 Y49.318
Z-0.5 F300
Z-2.1
X34.292 Y49.316 F1000
X34.323 Y49.302
X34.37 Y49.339
X34.42 Y49.371
X34.558 Y49.454
X25.905 Y49.451
X25.799 Y49.427
X25.905 Y49.402
X33.83 Y49.403
X33.892 Y49.4
X33.952 Y49.393
X34.122 Y49.365
X34.205 Y49.346
X34.286 Y49.318
X34.292 Y49.316 F300
X34.323 Y49.302 Z-2.097
X34.372 Y49.34 Z-2.082
X34.42 Y49.371 Z-2.054
X34.461 Y49.395 Z-2.017
X34.495 Y49.416 Z-1.971
X34.52 Y49.431 Z-1.918
X34.535 Y49.44 Z-1.86
X34.54 Y49.443 Z-1.8
Z4 F1000
X34.286 Y49.318
Z-0.8 F300
Z-2.4
X34.292 Y49.316 F1000
X34.323 Y49.302
X34.37 Y49.339
X34.42 Y49.371
X34.558 Y49.454
X25.905 Y49.451
X25.799 Y49.427
X25.905 Y49.402
X33.83 Y49.403
X33.892 Y49.4
X33.952 Y49.393
X34.122 Y49.365
X34.205 Y49.346
X34.286 Y49.318
X34.292 Y49.316 F300
X34.323 Y49.302 Z-2.397
X34.372 Y49.34 Z-2.382
X34.42 Y49.371 Z-2.354
X34.461 Y49.395 Z-2.317
X34.495 Y49.416 Z-2.271
X34.52 Y49.431 Z-2.218
X34.535 Y49.44 Z-2.16
X34.54 Y49.443 Z-2.1
Z4 F1000
X34.286 Y49.318
Z-1.1 F300
Z-2.7
X34.292 Y49.316 F1000
X34.323 Y49.302
X34.37 Y49.339
X34.42 Y49.371
X34.558 Y49.454
X25.905 Y49.451
X25.799 Y49.427
X25.905 Y49.402
X33.83 Y49.403
X33.892 Y49.4
X33.952 Y49.393
X34.122 Y49.365
X34.205 Y49.346
X34.286 Y49.318
X34.292 Y49.316 F300
X34.323 Y49.302 Z-2.697
X34.372 Y49.34 Z-2.682
X34.42 Y49.371 Z-2.654
X34.461 Y49.395 Z-2.617
X34.495 Y49.416 Z-2.571
X34.52 Y49.431 Z-2.518
X34.535 Y49.44 Z-2.46
X34.54 Y49.443 Z-2.4
Z4 F1000
X34.286 Y49.318
Z-1.4 F300
Z-3
X34.292 Y49.316 F1000
X34.323 Y49.302
X34.37 Y49.339
X34.42 Y49.371
X34.558 Y49.454
X25.905 Y49.451
X25.799 Y49.427
X25.905 Y49.402
X33.83 Y49.403
X33.892 Y49.4
X33.952 Y49.393
X34.122 Y49.365
X34.205 Y49.346
X34.286 Y49.318
X34.292 Y49.316 F300
X34.323 Y49.302 Z-2.997
X34.372 Y49.34 Z-2.982
X34.42 Y49.371 Z-2.954
X34.461 Y49.395 Z-2.917
X34.495 Y49.416 Z-2.871
X34.52 Y49.431 Z-2.818
X34.535 Y49.44 Z-2.76
X34.54 Y49.443 Z-2.7
Z4 F1000
X34.286 Y49.318
Z-1.7 F300
Z-3.3
X34.292 Y49.316 F1000
X34.323 Y49.302
X34.37 Y49.339
X34.42 Y49.371
X34.558 Y49.454
X25.905 Y49.451
X25.799 Y49.427
X25.905 Y49.402
X33.83 Y49.403
X33.892 Y49.4
X33.952 Y49.393
X34.122 Y49.365
X34.205 Y49.346
X34.286 Y49.318
X34.292 Y49.316 F300
X34.323 Y49.302 Z-3.297
X34.372 Y49.34 Z-3.282
X34.42 Y49.371 Z-3.254
X34.461 Y49.395 Z-3.217
X34.495 Y49.416 Z-3.171
X34.52 Y49.431 Z-3.118
X34.535 Y49.44 Z-3.06
X34.54 Y49.443 Z-3
Z4 F1000
X34.286 Y49.318
Z-2 F300
Z-3.6
X34.292 Y49.316 F1000
X34.323 Y49.302
X34.37 Y49.339
X34.42 Y49.371
X34.558 Y49.454
X25.905 Y49.451
X25.799 Y49.427
X25.905 Y49.402
X33.83 Y49.403
X33.892 Y49.4
X33.952 Y49.393
X34.122 Y49.365
X34.205 Y49.346
X34.286 Y49.318
X34.292 Y49.316 F300
X34.323 Y49.302 Z-3.597
X34.372 Y49.34 Z-3.582
X34.42 Y49.371 Z-3.554
X34.461 Y49.395 Z-3.517
X34.495 Y49.416 Z-3.471
X34.52 Y49.431 Z-3.418
X34.535 Y49.44 Z-3.36
X34.54 Y49.443 Z-3.3
Z4 F1000
X34.286 Y49.318
Z-2.3 F300
Z-3.9
X34.292 Y49.316 F1000
X34.323 Y49.302
X34.37 Y49.339
X34.42 Y49.371
X34.558 Y49.454
X25.905 Y49.451
X25.799 Y49.427
X25.905 Y49.402
X33.83 Y49.403
X33.892 Y49.4
X33.952 Y49.393
X34.122 Y49.365
X34.205 Y49.346
X34.286 Y49.318
X34.292 Y49.316 F300
X34.323 Y49.302 Z-3.897
X34.372 Y49.34 Z-3.882
X34.42 Y49.371 Z-3.854
X34.461 Y49.395 Z-3.817
X34.495 Y49.416 Z-3.771
X34.52 Y49.431 Z-3.718
X34.535 Y49.44 Z-3.66
X34.54 Y49.443 Z-3.6
Z4 F1000
X34.286 Y49.318
Z-2.6 F300
Z-4
X34.292 Y49.316 F1000
X34.323 Y49.302
X34.37 Y49.339
X34.42 Y49.371
X34.558 Y49.454
X25.905 Y49.451
X25.799 Y49.427
X25.905 Y49.402
X33.83 Y49.403
X33.892 Y49.4
X33.952 Y49.393
X34.122 Y49.365
X34.205 Y49.346
X34.286 Y49.318
X34.292 Y49.316 F300
X34.323 Y49.302 Z-3.997
X34.372 Y49.34 Z-3.982
X34.42 Y49.371 Z-3.954
X34.461 Y49.395 Z-3.917
X34.495 Y49.416 Z-3.871
X34.52 Y49.431 Z-3.818
X34.535 Y49.44 Z-3.76
X34.54 Y49.443 Z-3.7
Z4 F1000
X27.843 Y64.784
Z0.315
S15000
X28.755 Z0.27 F300
G3 X28.755 Y65.084 I0 J0.15
G1 X26.205 Z0.143
G3 X26.205 Y64.784 I0 J-0.15
G1 X28.755 Z0.017
G3 X28.755 Y65.084 I0 J0.15
G1 X26.205 Z-0.11
G3 X26.205 Y64.784 I0 J-0.15
G1 X28.755 Z-0.237
G3 X28.755 Y65.084 I0 J0.15
G1 X27.48 Z-0.3
X27.432 Y65.088
X27.385 Y65.101
X27.342 Y65.121
X26.777 Y65.448
G2 X27.053 Y65.927 I0.138 J0.239
X27.081 Y65.466 I-0.138 J-0.239
S500
G3 X27.879 Y64.402 I0.399 J-0.532 F1000
X27.081 Y65.466 I-0.399 J0.532
G2 X25.941 Y65.27 I-0.762 J1.016
G3 X25.066 Y64.514 I-0.203 J-0.65
G1 X25.1 Y64.298
X25.122 Y64.166
X25.471 Y63.481
X26.014 Y62.935
X26.709 Y62.578
X27.481 Y62.454
X28.238 Y62.574
X28.942 Y62.931
X29.481 Y63.47
X29.842 Y64.177
X29.959 Y64.921
X29.84 Y65.703
X29.488 Y66.393
X28.949 Y66.933
X28.237 Y67.296
X27.493 Y67.414
X27.251 Y67.38
X26.706 Y67.291
X26.022 Y66.942
X25.473 Y66.393
X25.127 Y65.714
X24.999 Y64.934
X25.066 Y64.514
X25.078 Y64.473
X25.101 Y64.438
X25.133 Y64.411
X25.171 Y64.393
X25.213 Y64.387
X25.255 Y64.393
X26.615 Y64.779
X26.656 Y64.784
S15000
X27.48 Z-0.6 F300
X27.541 Y64.79
X27.6 Y64.806
X27.656 Y64.833
X28.311 Y65.226
G2 X28.662 Y64.642 I0.176 J-0.292
X28.145 Y64.934 I-0.176 J0.292
S500
G3 X26.815 Y64.934 I-0.665 J0 F1000
X28.145 Y64.934 I0.665 J0
G2 X28.675 Y65.963 I1.263 J0
G3 X28.59 Y67.116 I-0.393 J0.551
G1 X28.237 Y67.296
X27.493 Y67.414
X27.251 Y67.38
X26.706 Y67.291
X26.022 Y66.942
X25.473 Y66.393
X25.127 Y65.714
X24.999 Y64.934
X25.1 Y64.298
X25.122 Y64.166
X25.471 Y63.481
X26.014 Y62.935
X26.709 Y62.578
X27.481 Y62.454
X28.238 Y62.574
X28.942 Y62.931
X29.481 Y63.47
X29.842 Y64.177
X29.959 Y64.921
X29.84 Y65.703
X29.488 Y66.393
X28.949 Y66.933
X28.59 Y67.116
X28.543 Y67.131
X28.495 Y67.13
X28.449 Y67.114
X28.411 Y67.084
X26.545 Y65.035
G3 X26.656 Y64.784 I0.111 J-0.101
S15000
G1 X27.48 Z-0.9 F300
X27.541 Y64.79
X27.6 Y64.806
X27.656 Y64.833
X28.311 Y65.226
G2 X28.662 Y64.642 I0.176 J-0.292
X28.145 Y64.934 I-0.176 J0.292
S500
G3 X26.815 Y64.934 I-0.665 J0 F1000
X28.145 Y64.934 I0.665 J0
G2 X28.675 Y65.963 I1.263 J0
G3 X28.59 Y67.116 I-0.393 J0.551
G1 X28.237 Y67.296
X27.493 Y67.414
X27.251 Y67.38
X26.706 Y67.291
X26.022 Y66.942
X25.473 Y66.393
X25.127 Y65.714
X24.999 Y64.934
X25.1 Y64.298
X25.122 Y64.166
X25.471 Y63.481
X26.014 Y62.935
X26.709 Y62.578
X27.481 Y62.454
X28.238 Y62.574
X28.942 Y62.931
X29.481 Y63.47
X29.842 Y64.177
X29.959 Y64.921
X29.84 Y65.703
X29.488 Y66.393
X28.949 Y66.933
X28.59 Y67.116
X28.543 Y67.131
X28.495 Y67.13
X28.449 Y67.114
X28.411 Y67.084
X26.545 Y65.035
G3 X26.656 Y64.784 I0.111 J-0.101
S15000
G1 X27.48 Z-1.2 F300
X27.541 Y64.79
X27.6 Y64.806
X27.656 Y64.833
X28.311 Y65.226
G2 X28.662 Y64.642 I0.176 J-0.292
X28.145 Y64.934 I-0.176 J0.292
S500
G3 X26.815 Y64.934 I-0.665 J0 F1000
X28.145 Y64.934 I0.665 J0
G2 X28.675 Y65.963 I1.263 J0
G3 X28.59 Y67.116 I-0.393 J0.551
G1 X28.237 Y67.296
X27.493 Y67.414
X27.251 Y67.38
X26.706 Y67.291
X26.022 Y66.942
X25.473 Y66.393
X25.127 Y65.714
X24.999 Y64.934
X25.1 Y64.298
X25.122 Y64.166
X25.471 Y63.481
X26.014 Y62.935
X26.709 Y62.578
X27.481 Y62.454
X28.238 Y62.574
X28.942 Y62.931
X29.481 Y63.47
X29.842 Y64.177
X29.959 Y64.921
X29.84 Y65.703
X29.488 Y66.393
X28.949 Y66.933
X28.59 Y67.116
G3 X28.372 Y66.975 I-0.068 J-0.134
G1 X28.454 Y65.241
X28.449 Y65.193
X28.428 Y65.15
X28.395 Y65.115
X28.352 Y65.092
X28.304 Y65.084
S15000
X27.48 Z-1.5 F300
X27.432 Y65.088
X27.385 Y65.101
X27.342 Y65.121
X26.777 Y65.448
G2 X27.053 Y65.927 I0.138 J0.239
X27.081 Y65.466 I-0.138 J-0.239
S500
G3 X27.879 Y64.402 I0.399 J-0.532 F1000
X27.081 Y65.466 I-0.399 J0.532
G2 X25.941 Y65.27 I-0.762 J1.016
G3 X25.066 Y64.514 I-0.203 J-0.65
G1 X25.1 Y64.298
X25.122 Y64.166
X25.471 Y63.481
X26.014 Y62.935
X26.709 Y62.578
X27.481 Y62.454
X28.238 Y62.574
X28.942 Y62.931
X29.481 Y63.47
X29.842 Y64.177
X29.959 Y64.921
X29.84 Y65.703
X29.488 Y66.393
X28.949 Y66.933
X28.237 Y67.296
X27.493 Y67.414
X27.251 Y67.38
X26.706 Y67.291
X26.022 Y66.942
X25.473 Y66.393
X25.127 Y65.714
X24.999 Y64.934
X25.066 Y64.514
X25.078 Y64.474
X25.1 Y64.439
X25.131 Y64.412
X25.169 Y64.394
X25.21 Y64.387
X27.196 Y64.333
X27.24 Y64.325
X27.278 Y64.317
X27.316 Y64.319
X27.352 Y64.33
X28.367 Y64.798
G3 X28.304 Y65.084 I-0.063 J0.136
S15000
G1 X27.48 Z-1.8 F300
X27.432 Y65.088
X27.385 Y65.101
X27.342 Y65.121
X26.777 Y65.448
G2 X27.053 Y65.927 I0.138 J0.239
X27.081 Y65.466 I-0.138 J-0.239
S500
G3 X27.879 Y64.402 I0.399 J-0.532 F1000
X27.081 Y65.466 I-0.399 J0.532
G2 X25.941 Y65.27 I-0.762 J1.016
G3 X25.066 Y64.514 I-0.203 J-0.65
G1 X25.1 Y64.298
X25.122 Y64.166
X25.471 Y63.481
X26.014 Y62.935
X26.709 Y62.578
X27.481 Y62.454
X28.238 Y62.574
X28.942 Y62.931
X29.481 Y63.47
X29.842 Y64.177
X29.959 Y64.921
X29.84 Y65.703
X29.488 Y66.393
X28.949 Y66.933
X28.237 Y67.296
X27.493 Y67.414
X27.251 Y67.38
X26.706 Y67.291
X26.022 Y66.942
X25.473 Y66.393
X25.127 Y65.714
X24.999 Y64.934
X25.066 Y64.514
X25.078 Y64.474
X25.1 Y64.439
X25.131 Y64.412
X25.169 Y64.394
X25.21 Y64.387
X27.196 Y64.333
X27.24 Y64.325
X27.278 Y64.317
X27.316 Y64.319
X27.352 Y64.33
X28.367 Y64.798
G3 X28.304 Y65.084 I-0.063 J0.136
S15000
G1 X27.48 Z-2.1 F300
X27.432 Y65.088
X27.385 Y65.101
X27.342 Y65.121
X26.777 Y65.448
G2 X27.053 Y65.927 I0.138 J0.239
X27.081 Y65.466 I-0.138 J-0.239
S500
G3 X27.879 Y64.402 I0.399 J-0.532 F1000
X27.081 Y65.466 I-0.399 J0.532
G2 X25.941 Y65.27 I-0.762 J1.016
G3 X25.066 Y64.514 I-0.203 J-0.65
G1 X25.1 Y64.298
X25.122 Y64.166
X25.471 Y63.481
X26.014 Y62.935
X26.709 Y62.578
X27.481 Y62.454
X28.238 Y62.574
X28.942 Y62.931
X29.481 Y63.47
X29.842 Y64.177
X29.959 Y64.921
X29.84 Y65.703
X29.488 Y66.393
X28.949 Y66.933
X28.237 Y67.296
X27.492 Y67.414
X27.251 Y67.38
X26.706 Y67.291
X26.022 Y66.942
X25.473 Y66.393
X25.127 Y65.714
X24.999 Y64.934
X25.066 Y64.514
X25.078 Y64.474
X25.1 Y64.439
X25.131 Y64.412
X25.169 Y64.394
X25.21 Y64.387
X27.196 Y64.333
X27.24 Y64.324
X27.278 Y64.317
X27.316 Y64.319
X27.352 Y64.33
X28.367 Y64.798
G3 X28.304 Y65.084 I-0.063 J0.136
S15000
G1 X27.48 Z-2.4 F300
X27.432 Y65.088
X27.385 Y65.101
X27.341 Y65.121
X26.777 Y65.448
G2 X27.053 Y65.927 I0.138 J0.239
X27.081 Y65.466 I-0.138 J-0.239
S500
G3 X27.879 Y64.402 I0.399 J-0.532 F1000
X27.081 Y65.466 I-0.399 J0.532
G2 X25.941 Y65.27 I-0.762 J1.016
G3 X25.066 Y64.514 I-0.203 J-0.65
G1 X25.1 Y64.299
X25.122 Y64.167
X25.472 Y63.481
X26.014 Y62.935
X26.709 Y62.578
X27.481 Y62.454
X28.238 Y62.574
X28.943 Y62.931
X29.481 Y63.47
X29.842 Y64.177
X29.959 Y64.921
X29.84 Y65.703
X29.488 Y66.393
X28.949 Y66.932
X28.237 Y67.296
X27.492 Y67.414
X27.251 Y67.38
X26.706 Y67.291
X26.022 Y66.942
X25.473 Y66.393
X25.127 Y65.714
X24.999 Y64.934
X25.066 Y64.514
X25.078 Y64.474
X25.1 Y64.439
X25.131 Y64.412
X25.169 Y64.394
X25.21 Y64.387
X27.196 Y64.332
X27.241 Y64.324
X27.278 Y64.317
X27.316 Y64.319
X27.352 Y64.33
X28.367 Y64.798
G3 X28.304 Y65.084 I-0.063 J0.136
S15000
G1 X27.48 Z-2.7 F300
X27.432 Y65.088
X27.386 Y65.101
X27.342 Y65.121
X26.777 Y65.448
G2 X27.054 Y65.926 I0.138 J0.239
X27.081 Y65.466 I-0.138 J-0.239
S500
G3 X27.879 Y64.402 I0.399 J-0.532 F1000
X27.081 Y65.466 I-0.399 J0.532
G2 X25.941 Y65.27 I-0.762 J1.016
G3 X25.066 Y64.513 I-0.202 J-0.65
G1 X25.1 Y64.301
X25.123 Y64.169
X25.473 Y63.481
X26.015 Y62.936
X26.709 Y62.578
X27.482 Y62.454
X28.238 Y62.575
X28.943 Y62.931
X29.48 Y63.47
X29.842 Y64.177
X29.959 Y64.921
X29.84 Y65.703
X29.488 Y66.393
X28.949 Y66.932
X28.237 Y67.295
X27.494 Y67.414
X27.073 Y67.352
X26.707 Y67.291
X26.022 Y66.943
X25.473 Y66.394
X25.127 Y65.714
X25 Y64.936
X25.066 Y64.513
X25.078 Y64.473
X25.101 Y64.438
X25.133 Y64.41
X25.172 Y64.393
X25.213 Y64.387
X25.255 Y64.392
X26.615 Y64.778
X26.656 Y64.784
S15000
X27.48 Z-3 F300
X27.542 Y64.79
X27.601 Y64.806
X27.656 Y64.833
X28.311 Y65.226
G2 X28.662 Y64.642 I0.176 J-0.292
X28.145 Y64.934 I-0.176 J0.292
S500
G3 X26.815 Y64.934 I-0.665 J0 F1000
X28.145 Y64.934 I0.665 J0
G2 X28.675 Y65.962 I1.262 J0
G3 X28.59 Y67.115 I-0.393 J0.551
G1 X28.237 Y67.295
X27.494 Y67.414
X27.074 Y67.352
X26.707 Y67.291
X26.025 Y66.944
X25.474 Y66.394
X25.125 Y65.708
X25.099 Y65.565
X24.999 Y64.935
X25.099 Y64.303
X25.123 Y64.17
X25.475 Y63.481
X26.027 Y62.925
X26.707 Y62.579
X27.484 Y62.454
X28.238 Y62.575
X28.943 Y62.931
X29.48 Y63.47
X29.842 Y64.177
X29.959 Y64.921
X29.84 Y65.703
X29.488 Y66.393
X28.949 Y66.932
X28.59 Y67.115
G3 X28.372 Y66.975 I-0.068 J-0.134
G1 X28.453 Y65.241
X28.448 Y65.193
X28.427 Y65.15
X28.394 Y65.115
X28.351 Y65.092
X28.304 Y65.084
S15000
X27.479 Z-3.3 F300
X27.431 Y65.088
X27.385 Y65.101
X27.341 Y65.121
X26.776 Y65.448
G2 X27.053 Y65.926 I0.138 J0.239
X27.08 Y65.466 I-0.138 J-0.239
S500
G3 X27.878 Y64.402 I0.399 J-0.532 F1000
X27.08 Y65.466 I-0.399 J0.532
G2 X25.941 Y65.271 I-0.76 J1.013
G3 X25.065 Y64.516 I-0.204 J-0.649
G1 X25.1 Y64.295
X25.12 Y64.169
X25.48 Y63.472
X25.516 Y63.433
X26.028 Y62.924
X26.707 Y62.58
X27.485 Y62.455
X28.238 Y62.575
X28.943 Y62.932
X29.48 Y63.47
X29.842 Y64.177
X29.959 Y64.921
X29.84 Y65.702
X29.492 Y66.386
X29.447 Y66.434
X28.949 Y66.932
X28.237 Y67.295
X27.494 Y67.414
X27.074 Y67.352
X26.707 Y67.29
X26.027 Y66.945
X25.473 Y66.394
X25.12 Y65.696
X25.117 Y65.682
X24.999 Y64.935
X25.065 Y64.516
X25.077 Y64.476
X25.1 Y64.442
X25.131 Y64.414
X25.168 Y64.396
X25.209 Y64.39
X27.195 Y64.334
X27.239 Y64.326
X27.276 Y64.318
X27.314 Y64.32
X27.351 Y64.332
X28.365 Y64.799
G3 X28.302 Y65.085 I-0.063 J0.136
S15000
G1 X27.478 Z-3.6 F300
X27.43 Y65.089
X27.384 Y65.102
X27.34 Y65.122
X26.775 Y65.449
G2 X27.052 Y65.927 I0.138 J0.239
X27.079 Y65.467 I-0.138 J-0.239
S500
G3 X27.877 Y64.403 I0.399 J-0.532 F1000
X27.079 Y65.467 I-0.399 J0.532
G2 X25.94 Y65.272 I-0.759 J1.012
G3 X25.065 Y64.517 I-0.204 J-0.648
G1 X25.1 Y64.298
X25.122 Y64.166
X25.477 Y63.473
X26.03 Y62.924
X26.707 Y62.58
X27.487 Y62.455
X28.238 Y62.576
X28.943 Y62.932
X29.48 Y63.47
X29.842 Y64.177
X29.959 Y64.921
X29.84 Y65.702
X29.491 Y66.386
X29.447 Y66.434
X28.949 Y66.932
X28.237 Y67.294
X27.495 Y67.414
X26.717 Y67.295
X26.029 Y66.946
X25.482 Y66.402
X25.451 Y66.349
X25.12 Y65.693
X25.117 Y65.678
X25 Y64.93
X25.065 Y64.517
X25.077 Y64.478
X25.1 Y64.443
X25.131 Y64.416
X25.168 Y64.398
X25.209 Y64.391
X27.196 Y64.335
X27.241 Y64.327
X27.278 Y64.319
X27.316 Y64.321
X27.352 Y64.332
X28.367 Y64.799
G3 X28.304 Y65.085 I-0.063 J0.136
S15000
G1 X27.48 Z-3.9 F300
X27.432 Y65.09
X27.386 Y65.102
X27.342 Y65.123
X26.777 Y65.449
G2 X27.054 Y65.928 I0.138 J0.239
X27.081 Y65.468 I-0.138 J-0.239
S500
G3 X27.879 Y64.403 I0.399 J-0.532 F1000
X27.081 Y65.468 I-0.399 J0.532
G2 X25.941 Y65.272 I-0.76 J1.014
G3 X25.065 Y64.517 I-0.204 J-0.649
G1 X25.1 Y64.3
X25.123 Y64.163
X25.48 Y63.47
X26.032 Y62.923
X26.707 Y62.581
X27.488 Y62.455
X28.24 Y62.576
X28.781 Y62.847
X28.94 Y62.93
X29.479 Y63.47
X29.842 Y64.177
X29.959 Y64.921
X29.84 Y65.702
X29.491 Y66.386
X29.447 Y66.434
X28.948 Y66.933
X28.253 Y67.291
X27.495 Y67.414
X26.719 Y67.295
X26.035 Y66.949
X25.979 Y66.899
X25.483 Y66.403
X25.45 Y66.348
X25.129 Y65.719
X25.117 Y65.682
X25 Y64.926
X25.065 Y64.517
X25.08 Y64.471
X25.109 Y64.433
X25.148 Y64.405
X25.195 Y64.391
X25.243 Y64.393
X25.288 Y64.41
X26.541 Y65.126
X26.583 Y65.147
X26.631 Y65.154
X26.678 Y65.145
X26.72 Y65.122
X27.113 Y64.817
X27.142 Y64.8
X27.173 Y64.789
X27.205 Y64.786
S15000
X27.48 Z-4 F300
X27.541 Y64.791
X27.601 Y64.807
X27.656 Y64.834
X28.311 Y65.228
G2 X28.662 Y64.643 I0.176 J-0.292
X28.145 Y64.936 I-0.176 J0.292
S500
G3 X26.815 Y64.936 I-0.665 J0 F1000
X28.145 Y64.936 I0.665 J0
G2 X28.674 Y65.964 I1.266 J0
G3 X28.589 Y67.118 I-0.395 J0.551
G1 X28.254 Y67.291
X27.495 Y67.414
X26.712 Y67.294
X26.035 Y66.949
X25.979 Y66.899
X25.483 Y66.403
X25.45 Y66.348
X25.129 Y65.719
X25.118 Y65.682
X25.001 Y64.925
X25.099 Y64.301
X25.124 Y64.162
X25.473 Y63.477
X26.025 Y62.926
X26.707 Y62.581
X27.489 Y62.455
X28.242 Y62.577
X28.515 Y62.712
X28.941 Y62.931
X29.479 Y63.47
X29.842 Y64.177
X29.959 Y64.921
X29.84 Y65.702
X29.491 Y66.386
X29.447 Y66.434
X28.948 Y66.933
X28.589 Y67.118
G3 X28.371 Y66.978 I-0.069 J-0.133
G1 X28.454 Y65.242
X28.448 Y65.194
X28.428 Y65.15
X28.394 Y65.115
X28.351 Y65.093
X28.304 Y65.085
S15000
X27.48 Z-4.3 F300
X27.431 Y65.089
X27.385 Y65.102
X27.341 Y65.122
X26.776 Y65.449
G2 X27.053 Y65.928 I0.138 J0.239
X27.08 Y65.467 I-0.138 J-0.239
S500
G3 X27.879 Y64.403 I0.399 J-0.532 F1000
X27.08 Y65.467 I-0.399 J0.532
G2 X25.941 Y65.272 I-0.761 J1.015
G3 X25.065 Y64.516 I-0.203 J-0.649
G1 X25.099 Y64.304
X25.125 Y64.159
X25.474 Y63.477
X26.025 Y62.927
X26.721 Y62.574
X27.495 Y62.456
X28.246 Y62.578
X28.356 Y62.63
X28.941 Y62.931
X29.479 Y63.47
X29.842 Y64.177
X29.959 Y64.921
X29.84 Y65.701
X29.491 Y66.386
X29.447 Y66.434
X28.948 Y66.933
X28.255 Y67.29
X27.495 Y67.414
X26.713 Y67.294
X26.035 Y66.949
X25.979 Y66.9
X25.482 Y66.402
X25.449 Y66.346
X25.134 Y65.728
X25.114 Y65.66
X25.001 Y64.921
X25.065 Y64.516
X25.078 Y64.475
X25.101 Y64.44
X25.133 Y64.413
X25.171 Y64.395
X25.213 Y64.389
X25.254 Y64.395
X26.615 Y64.779
X26.656 Y64.785
S15000
X27.48 Z-4.6 F300
X27.541 Y64.79
X27.601 Y64.807
X27.656 Y64.834
X28.311 Y65.227
G2 X28.662 Y64.643 I0.176 J-0.292
X28.146 Y64.935 I-0.176 J0.292
S500
G3 X26.815 Y64.935 I-0.665 J0 F1000
X28.146 Y64.935 I0.665 J0
G2 X28.674 Y65.964 I1.266 J0
G3 X28.59 Y67.118 I-0.395 J0.551
G1 X28.256 Y67.29
X27.495 Y67.413
X26.715 Y67.295
X26.035 Y66.949
X25.98 Y66.9
X25.482 Y66.401
X25.448 Y66.344
X25.134 Y65.728
X25.113 Y65.658
X25.003 Y64.963
Y64.918
X25.099 Y64.306
X25.127 Y64.157
X25.47 Y63.488
X25.49 Y63.46
X26.03 Y62.924
X26.723 Y62.574
X27.495 Y62.456
X28.247 Y62.578
X28.356 Y62.631
X28.941 Y62.932
X29.48 Y63.471
X29.841 Y64.171
X29.959 Y64.921
X29.84 Y65.701
X29.491 Y66.386
X29.447 Y66.434
X28.948 Y66.933
X28.59 Y67.118
G3 X28.372 Y66.977 I-0.069 J-0.133
G1 X28.455 Y65.242
X28.449 Y65.194
X28.429 Y65.15
X28.395 Y65.115
X28.353 Y65.093
X28.305 Y65.085
S15000
X27.481 Z-4.9 F300
X27.433 Y65.089
X27.386 Y65.102
X27.342 Y65.122
X26.777 Y65.449
G2 X27.054 Y65.927 I0.138 J0.239
X27.082 Y65.467 I-0.138 J-0.239
S500
G3 X27.88 Y64.403 I0.399 J-0.532 F1000
X27.082 Y65.467 I-0.399 J0.532
G2 X25.941 Y65.271 I-0.762 J1.016
G3 X25.066 Y64.514 I-0.203 J-0.65
G1 X25.098 Y64.309
X25.128 Y64.158
X25.473 Y63.485
X25.492 Y63.458
X26.032 Y62.923
X26.724 Y62.574
X27.495 Y62.457
X28.258 Y62.581
X28.941 Y62.932
X29.482 Y63.474
X29.596 Y63.689
X29.841 Y64.175
X29.959 Y64.921
X29.84 Y65.701
X29.491 Y66.386
X29.447 Y66.434
X28.948 Y66.933
X28.257 Y67.289
X27.495 Y67.413
X26.717 Y67.295
X26.035 Y66.949
X25.98 Y66.9
X25.482 Y66.399
X25.447 Y66.342
X25.134 Y65.728
X25.113 Y65.658
X25.006 Y64.977
X25.008 Y64.878
X25.066 Y64.514
X25.078 Y64.474
X25.101 Y64.439
X25.133 Y64.411
X25.171 Y64.394
X25.213 Y64.388
X25.255 Y64.393
X26.616 Y64.779
X26.657 Y64.785
S15000
X27.481 Z-5.2 F300
X27.542 Y64.79
X27.601 Y64.807
X27.657 Y64.834
X28.312 Y65.227
G2 X28.663 Y64.643 I0.176 J-0.292
X28.146 Y64.935 I-0.176 J0.292
S500
G3 X26.816 Y64.935 I-0.665 J0 F1000
X28.146 Y64.935 I0.665 J0
G2 X28.675 Y65.964 I1.266 J0
G3 X28.59 Y67.118 I-0.395 J0.551
G1 X28.258 Y67.289
X27.494 Y67.413
X26.718 Y67.295
X26.034 Y66.948
X25.98 Y66.9
X25.482 Y66.398
X25.446 Y66.34
X25.134 Y65.727
X25.113 Y65.657
X25.006 Y64.977
X25.008 Y64.877
X25.098 Y64.311
X25.125 Y64.176
X25.143 Y64.125
X25.475 Y63.484
X25.494 Y63.456
X26.035 Y62.922
X26.725 Y62.574
X27.494 Y62.457
X28.259 Y62.581
X28.941 Y62.932
X29.482 Y63.474
X29.596 Y63.689
X29.841 Y64.175
X29.959 Y64.921
X29.84 Y65.7
X29.496 Y66.377
X29.155 Y66.726
X28.948 Y66.933
X28.59 Y67.118
X28.554 Y67.131
X28.515 Y67.134
X28.476 Y67.127
X28.441 Y67.11
X28.411 Y67.085
X26.545 Y65.036
G3 X26.656 Y64.785 I0.111 J-0.101
S15000
G1 X27.481 Z-5.5 F300
X27.542 Y64.79
X27.601 Y64.807
X27.656 Y64.834
X28.311 Y65.227
G2 X28.662 Y64.643 I0.176 J-0.292
X28.146 Y64.935 I-0.176 J0.292
S500
G3 X26.816 Y64.935 I-0.665 J0 F1000
X28.146 Y64.935 I0.665 J0
G2 X28.674 Y65.964 I1.266 J0
G3 X28.59 Y67.118 I-0.395 J0.551
G1 X28.26 Y67.288
X27.494 Y67.412
X26.72 Y67.295
X26.033 Y66.946
X25.979 Y66.899
X25.482 Y66.397
X25.445 Y66.338
X25.138 Y65.732
X25.109 Y65.63
X25.007 Y64.975
X25.009 Y64.875
X25.099 Y64.304
X25.116 Y64.212
X25.146 Y64.118
X25.459 Y63.51
X25.497 Y63.453
X26.036 Y62.921
X26.727 Y62.574
X27.494 Y62.458
X28.261 Y62.582
X28.941 Y62.933
X29.482 Y63.474
X29.596 Y63.689
X29.841 Y64.175
X29.959 Y64.921
X29.84 Y65.7
X29.496 Y66.377
X29.155 Y66.726
X28.948 Y66.933
X28.59 Y67.118
G3 X28.371 Y66.977 I-0.069 J-0.133
G1 X28.454 Y65.242
X28.448 Y65.194
X28.428 Y65.15
X28.395 Y65.115
X28.352 Y65.093
X28.304 Y65.085
S15000
X27.48 Z-5.8 F300
X27.432 Y65.089
X27.385 Y65.102
X27.342 Y65.122
X26.777 Y65.449
G2 X27.054 Y65.927 I0.138 J0.239
X27.081 Y65.467 I-0.138 J-0.239
S500
G3 X27.879 Y64.403 I0.399 J-0.532 F1000
X27.081 Y65.467 I-0.399 J0.532
G2 X25.941 Y65.27 I-0.763 J1.017
G3 X25.066 Y64.513 I-0.202 J-0.651
G1 X25.098 Y64.307
X25.117 Y64.213
X25.148 Y64.115
X25.442 Y63.538
X25.5 Y63.449
X25.926 Y63.023
X26.051 Y62.913
X26.728 Y62.573
X27.494 Y62.458
X28.262 Y62.583
X28.941 Y62.933
X29.491 Y63.484
X29.841 Y64.175
X29.959 Y64.921
X29.84 Y65.7
X29.497 Y66.376
X29.022 Y66.859
X28.948 Y66.933
X28.261 Y67.287
X27.494 Y67.412
X26.733 Y67.297
X26.629 Y67.252
X26.032 Y66.945
X25.976 Y66.896
X25.505 Y66.425
X25.486 Y66.4
X25.428 Y66.304
X25.141 Y65.736
X25.105 Y65.602
X25.008 Y64.973
X25.009 Y64.872
X25.066 Y64.513
X25.078 Y64.473
X25.101 Y64.437
X25.133 Y64.41
X25.172 Y64.392
X25.213 Y64.386
X25.255 Y64.392
X26.613 Y64.779
X26.654 Y64.785
S15000
X27.479 Z-6.1 F300
X27.54 Y64.791
X27.599 Y64.807
X27.654 Y64.834
X28.309 Y65.227
G2 X28.66 Y64.643 I0.176 J-0.292
X28.144 Y64.935 I-0.176 J0.292
S500
G3 X26.814 Y64.935 I-0.665 J0 F1000
X28.144 Y64.935 I0.665 J0
G2 X28.672 Y65.965 I1.269 J0
G3 X28.586 Y67.119 I-0.396 J0.551
G1 X28.262 Y67.287
X27.491 Y67.411
X27.069 Y67.351
X26.736 Y67.298
X26.63 Y67.252
X26.032 Y66.944
X25.975 Y66.895
X25.514 Y66.435
X25.44 Y66.326
X25.141 Y65.734
X25.105 Y65.601
X25.009 Y64.971
Y64.87
X25.098 Y64.311
X25.117 Y64.214
X25.149 Y64.113
X25.443 Y63.538
X25.501 Y63.448
X25.926 Y63.023
X26.051 Y62.913
X26.723 Y62.574
X27.494 Y62.459
X28.263 Y62.583
X28.941 Y62.933
X29.491 Y63.484
X29.841 Y64.175
X29.959 Y64.921
X29.84 Y65.699
X29.497 Y66.376
X29.023 Y66.858
X28.948 Y66.933
X28.586 Y67.119
G3 X28.368 Y66.979 I-0.069 J-0.133
G1 X28.45 Y65.242
X28.445 Y65.194
X28.424 Y65.151
X28.391 Y65.116
X28.348 Y65.093
X28.301 Y65.085
S15000
X27.476 Z-6.4 F300
X27.428 Y65.089
X27.382 Y65.102
X27.338 Y65.122
X26.774 Y65.449
G2 X27.05 Y65.927 I0.138 J0.239
X27.078 Y65.467 I-0.138 J-0.239
S500
G3 X27.875 Y64.403 I0.399 J-0.532 F1000
X27.078 Y65.467 I-0.399 J0.532
G2 X25.94 Y65.27 I-0.762 J1.016
G3 X25.066 Y64.515 I-0.201 J-0.65
G1 X25.1 Y64.299
X25.108 Y64.25
X25.15 Y64.111
X25.443 Y63.54
X25.503 Y63.448
X25.926 Y63.023
X26.051 Y62.913
X26.724 Y62.574
X27.494 Y62.459
X28.264 Y62.584
X28.94 Y62.933
X29.492 Y63.485
X29.841 Y64.175
X29.959 Y64.921
X29.84 Y65.699
X29.497 Y66.375
X28.945 Y66.934
X28.263 Y67.286
X27.491 Y67.411
X27.069 Y67.351
X26.736 Y67.298
X26.63 Y67.252
X26.033 Y66.943
X25.975 Y66.893
X25.518 Y66.439
X25.419 Y66.288
X25.159 Y65.778
X25.103 Y65.589
X25.012 Y65.019
X25.011 Y64.865
X25.066 Y64.515
X25.078 Y64.474
X25.101 Y64.439
X25.133 Y64.412
X25.172 Y64.394
X25.213 Y64.388
X25.255 Y64.394
X26.611 Y64.779
X26.652 Y64.785
S15000
X27.477 Z-6.7 F300
X27.538 Y64.791
X27.597 Y64.807
X27.652 Y64.834
X28.306 Y65.227
G2 X28.657 Y64.643 I0.176 J-0.292
X28.141 Y64.935 I-0.176 J0.292
S500
G3 X26.812 Y64.935 I-0.665 J0 F1000
X28.141 Y64.935 I0.665 J0
G2 X28.669 Y65.966 I1.271 J0
G3 X28.583 Y67.121 I-0.398 J0.551
G1 X28.265 Y67.285
X27.491 Y67.41
X27.068 Y67.351
X26.736 Y67.298
X26.628 Y67.251
X26.058 Y66.961
X26.033 Y66.942
X25.975 Y66.892
X25.518 Y66.439
X25.418 Y66.286
X25.159 Y65.778
X25.103 Y65.589
X25.013 Y65.021
X25.012 Y64.866
X25.099 Y64.303
X25.108 Y64.253
X25.151 Y64.109
X25.443 Y63.543
X25.504 Y63.448
X25.926 Y63.023
X26.051 Y62.914
X26.726 Y62.574
X27.494 Y62.46
X28.266 Y62.585
X28.94 Y62.934
X29.492 Y63.486
X29.841 Y64.175
X29.959 Y64.921
X29.84 Y65.699
X29.497 Y66.375
X28.945 Y66.933
X28.583 Y67.121
G3 X28.364 Y66.98 I-0.069 J-0.133
G1 X28.452 Y65.243
X28.447 Y65.195
X28.426 Y65.151
X28.393 Y65.116
X28.35 Y65.094
X28.302 Y65.086
S15000
X27.478 Z-7 F300
X27.43 Y65.09
X27.384 Y65.103
X27.34 Y65.123
X26.775 Y65.45
G2 X27.052 Y65.928 I0.138 J0.239
X27.079 Y65.468 I-0.138 J-0.239
S500
G3 X27.877 Y64.404 I0.399 J-0.532 F1000
X27.079 Y65.468 I-0.399 J0.532
G2 X25.94 Y65.272 I-0.76 J1.014
G3 X25.065 Y64.517 I-0.203 J-0.649
G1 X25.095 Y64.326
X25.133 Y64.174
X25.152 Y64.109
X25.443 Y63.545
X25.505 Y63.448
X25.926 Y63.023
X26.05 Y62.915
X26.728 Y62.574
X27.496 Y62.46
X28.131 Y62.559
X28.26 Y62.582
X28.265 Y62.585
X28.94 Y62.934
X29.492 Y63.486
X29.841 Y64.175
X29.959 Y64.921
X29.84 Y65.698
X29.497 Y66.375
X28.945 Y66.933
X28.265 Y67.285
X27.504 Y67.412
X27.068 Y67.351
X26.736 Y67.298
X26.628 Y67.251
X26.06 Y66.962
X26.035 Y66.943
X25.974 Y66.89
X25.522 Y66.442
X25.399 Y66.249
X25.159 Y65.778
X25.103 Y65.589
X25.014 Y65.028
X25.017 Y64.82
X25.065 Y64.517
X25.078 Y64.477
X25.101 Y64.442
X25.132 Y64.414
X25.171 Y64.397
X25.212 Y64.391
X25.254 Y64.396
X26.613 Y64.78
X26.654 Y64.786
S15000
X27.478 Z-7.3 F300
X27.539 Y64.791
X27.599 Y64.808
X27.654 Y64.835
X28.308 Y65.228
G2 X28.659 Y64.644 I0.176 J-0.292
X28.143 Y64.936 I-0.176 J0.292
S500
G3 X26.814 Y64.936 I-0.665 J0 F1000
X28.143 Y64.936 I0.665 J0
G2 X28.67 Y65.966 I1.271 J0
G3 X28.584 Y67.12 I-0.398 J0.551
G1 X28.266 Y67.285
X27.505 Y67.412
X27.068 Y67.351
X26.737 Y67.299
X26.629 Y67.251
X26.071 Y66.967
X25.968 Y66.882
X25.522 Y66.442
X25.399 Y66.248
X25.162 Y65.783
X25.099 Y65.563
X25.015 Y65.027
X25.017 Y64.819
X25.095 Y64.329
X25.134 Y64.177
X25.154 Y64.106
X25.414 Y63.593
X25.528 Y63.421
X25.924 Y63.025
X26.049 Y62.917
X26.729 Y62.574
X27.496 Y62.461
X28.131 Y62.559
X28.262 Y62.583
X28.94 Y62.934
X29.493 Y63.487
X29.841 Y64.175
X29.959 Y64.921
X29.84 Y65.698
X29.497 Y66.375
X28.945 Y66.933
X28.584 Y67.12
X28.548 Y67.133
X28.508 Y67.136
X28.47 Y67.129
X28.434 Y67.113
X28.404 Y67.087
X26.544 Y65.037
G3 X26.655 Y64.786 I0.111 J-0.101
S15000
G1 X27.479 Z-7.6 F300
X27.54 Y64.792
X27.599 Y64.808
X27.655 Y64.835
X28.309 Y65.228
G2 X28.66 Y64.644 I0.176 J-0.292
X28.144 Y64.936 I-0.176 J0.292
S500
G3 X26.814 Y64.936 I-0.665 J0 F1000
X28.144 Y64.936 I0.665 J0
G2 X28.67 Y65.966 I1.27 J0
G3 X28.585 Y67.119 I-0.398 J0.55
G1 X28.274 Y67.28
X28.12 Y67.312
X27.508 Y67.412
X27.067 Y67.351
X26.738 Y67.299
X26.629 Y67.251
X26.072 Y66.968
X25.968 Y66.882
X25.522 Y66.442
X25.398 Y66.246
X25.162 Y65.782
X25.099 Y65.563
X25.016 Y65.027
X25.018 Y64.817
X25.095 Y64.331
X25.131 Y64.19
X25.171 Y64.069
X25.414 Y63.595
X25.529 Y63.42
X25.919 Y63.03
X26.072 Y62.903
X26.731 Y62.573
X27.5 Y62.46
X27.707 Y62.49
X28.266 Y62.585
X28.94 Y62.935
X29.493 Y63.488
X29.841 Y64.175
X29.959 Y64.921
X29.84 Y65.698
X29.497 Y66.375
X28.945 Y66.933
X28.585 Y67.119
G3 X28.366 Y66.978 I-0.069 J-0.133
G1 X28.454 Y65.243
X28.448 Y65.195
X28.428 Y65.151
X28.394 Y65.116
X28.352 Y65.093
X28.304 Y65.085
S15000
X27.479 Z-7.9 F300
X27.431 Y65.089
X27.385 Y65.102
X27.341 Y65.122
X26.777 Y65.449
G2 X27.053 Y65.927 I0.138 J0.239
X27.081 Y65.467 I-0.138 J-0.239
S500
G3 X27.878 Y64.403 I0.399 J-0.532 F1000
X27.081 Y65.467 I-0.399 J0.532
G2 X25.941 Y65.273 I-0.758 J1.011
G3 X25.065 Y64.519 I-0.205 J-0.648
G1 X25.094 Y64.338
X25.16 Y64.101
X25.416 Y63.594
X25.53 Y63.42
X25.921 Y63.03
X26.073 Y62.902
X26.733 Y62.573
X27.493 Y62.46
X27.708 Y62.49
X28.267 Y62.586
X28.94 Y62.935
X29.493 Y63.488
X29.841 Y64.175
X29.959 Y64.921
X29.84 Y65.697
X29.497 Y66.374
X28.944 Y66.933
X28.274 Y67.28
X28.121 Y67.312
X27.509 Y67.411
X27.067 Y67.351
X26.739 Y67.299
X26.63 Y67.25
X26.073 Y66.968
X25.969 Y66.882
X25.522 Y66.441
X25.397 Y66.245
X25.165 Y65.786
X25.094 Y65.534
X25.018 Y65.026
Y64.816
X25.065 Y64.519
X25.077 Y64.48
X25.099 Y64.445
X25.13 Y64.417
X25.168 Y64.4
X25.209 Y64.393
X27.195 Y64.336
X27.24 Y64.328
X27.277 Y64.32
X27.315 Y64.322
X27.352 Y64.333
X28.366 Y64.799
G3 X28.304 Y65.085 I-0.063 J0.136
S15000
G1 X27.479 Z-8.2 F300
X27.431 Y65.09
X27.385 Y65.102
X27.341 Y65.122
X26.777 Y65.449
G2 X27.053 Y65.927 I0.138 J0.239
X27.08 Y65.467 I-0.138 J-0.239
S500
G3 X27.878 Y64.404 I0.399 J-0.532 F1000
X27.08 Y65.467 I-0.399 J0.532
G2 X25.941 Y65.273 I-0.758 J1.011
G3 X25.065 Y64.52 I-0.205 J-0.648
G1 X25.093 Y64.343
X25.176 Y64.059
X25.415 Y63.597
X25.53 Y63.42
X25.922 Y63.03
X26.073 Y62.902
X26.734 Y62.573
X27.493 Y62.46
X27.509 Y62.458
X28.269 Y62.587
X28.94 Y62.935
X29.494 Y63.489
X29.841 Y64.175
X29.959 Y64.921
X29.841 Y65.697
X29.497 Y66.374
X28.944 Y66.932
X28.275 Y67.28
X28.121 Y67.311
X27.511 Y67.411
X27.066 Y67.351
X26.74 Y67.299
X26.63 Y67.25
X26.074 Y66.969
X25.969 Y66.881
X25.528 Y66.448
X25.396 Y66.243
X25.166 Y65.785
X25.093 Y65.53
X25.021 Y65.074
X25.019 Y64.812
X25.065 Y64.52
X25.077 Y64.48
X25.1 Y64.445
X25.132 Y64.417
X25.17 Y64.4
X25.212 Y64.393
X25.254 Y64.399
X26.615 Y64.78
X26.655 Y64.785
S15000
X27.48 Z-8.5 F300
X27.541 Y64.791
X27.6 Y64.807
X27.655 Y64.834
X28.309 Y65.227
G2 X28.66 Y64.643 I0.176 J-0.292
X28.144 Y64.935 I-0.176 J0.292
S500
G3 X26.815 Y64.935 I-0.665 J0 F1000
X28.144 Y64.935 I0.665 J0
G2 X28.67 Y65.965 I1.271 J0
G3 X28.586 Y67.118 I-0.398 J0.55
G1 X28.275 Y67.28
X28.121 Y67.311
X27.512 Y67.411
X27.066 Y67.351
X26.748 Y67.3
X26.422 Y67.146
X26.076 Y66.97
X25.97 Y66.88
X25.534 Y66.454
X25.378 Y66.206
X25.167 Y65.785
X25.093 Y65.529
X25.021 Y65.076
X25.02 Y64.812
X25.093 Y64.342
X25.176 Y64.06
X25.415 Y63.598
X25.531 Y63.419
X25.924 Y63.029
X26.074 Y62.902
X26.736 Y62.573
X27.492 Y62.461
X27.51 Y62.459
X28.27 Y62.587
X28.94 Y62.936
X29.494 Y63.49
X29.841 Y64.175
X29.959 Y64.921
X29.841 Y65.697
X29.497 Y66.374
X28.944 Y66.932
X28.586 Y67.118
X28.541 Y67.133
X28.494 Y67.134
X28.449 Y67.119
X28.411 Y67.092
X28.383 Y67.054
X28.368 Y67.009
X28.059 Y65.085
G3 X28.359 Y65.077 I0.15 J-0.004
X28.114 Y65.197 I-0.15 J0.004
G1 X27.935 Y65.052
G3 X28.123 Y64.819 I0.094 J-0.117
X28.029 Y65.085 I-0.094 J0.117
S15000
G1 X27.479 Z-8.7 F300
X27.431 Y65.09
X27.385 Y65.102
X27.341 Y65.122
X26.777 Y65.449
G2 X27.053 Y65.927 I0.138 J0.239
X27.081 Y65.467 I-0.138 J-0.239
S500
G3 X27.878 Y64.404 I0.399 J-0.532 F1000
X27.081 Y65.467 I-0.399 J0.532
G2 X25.941 Y65.274 I-0.758 J1.01
G3 X25.065 Y64.52 I-0.205 J-0.647
G1 X25.093 Y64.343
X25.177 Y64.058
X25.391 Y63.638
X25.532 Y63.42
X25.926 Y63.029
X26.076 Y62.9
X26.639 Y62.617
X26.737 Y62.572
X27.492 Y62.461
X27.511 Y62.459
X28.27 Y62.587
X28.94 Y62.936
X29.494 Y63.49
X29.841 Y64.175
X29.959 Y64.921
X29.841 Y65.697
X29.497 Y66.374
X28.944 Y66.932
X28.275 Y67.28
X28.121 Y67.311
X27.512 Y67.411
X27.066 Y67.351
X26.748 Y67.3
X26.422 Y67.146
X26.077 Y66.971
X25.97 Y66.879
X25.565 Y66.485
X25.534 Y66.452
X25.377 Y66.205
X25.167 Y65.784
X25.093 Y65.528
X25.022 Y65.081
X25.026 Y64.765
X25.065 Y64.52
X25.075 Y64.475 Z-8.693 F300
X25.093 Y64.432 Z-8.685
X25.114 Y64.396 Z-8.664
X25.14 Y64.364 Z-8.643
X25.19 Y64.32 Z-8.576
X25.227 Y64.298 Z-8.493
X25.24 Y64.292 Z-8.4
Z4 F1000
X38.801 Y66.435
Z0.315
S15000
X37.888 Z0.27 F300
G3 X37.888 Y66.135 I0 J-0.15
G1 X40.438 Z0.143
G3 X40.438 Y66.435 I0 J0.15
G1 X37.888 Z0.017
G3 X37.888 Y66.135 I0 J-0.15
G1 X40.438 Z-0.11
G3 X40.438 Y66.435 I0 J0.15
G1 X37.888 Z-0.237
G3 X37.888 Y66.135 I0 J-0.15
G1 X39.163 Z-0.3
X39.229 Y66.14
X39.293 Y66.157
X39.352 Y66.185
X40.096 Y66.613
G2 X40.474 Y65.956 I0.189 J-0.328
X39.906 Y66.285 I-0.189 J0.328
S500
G3 X38.421 Y66.285 I-0.743 J0 F1000
X39.906 Y66.285 I0.743 J0
G2 X40.696 Y67.796 I1.841 J0
G3 X40.469 Y69.486 I-0.547 J0.787
G1 X39.875 Y69.697
X39.87 Y69.698
X38.918 Y69.76
X37.982 Y69.561
X37.154 Y69.132
X36.461 Y68.485
X35.963 Y67.658
X35.714 Y66.769
X35.711 Y65.811
X35.713 Y65.804
X35.905 Y65.116
X35.968 Y64.895
X36.458 Y64.089
X37.166 Y63.431
X37.985 Y63.006
X38.917 Y62.809
X39.874 Y62.872
X40.774 Y63.194
X41.54 Y63.734
X42.143 Y64.474
X42.52 Y65.341
X42.649 Y66.277
X42.523 Y67.212
X42.133 Y68.108
X41.542 Y68.834
X40.771 Y69.378
X40.757 Y69.384
X40.469 Y69.486
X40.431 Y69.494
X40.392 Y69.492
X40.354 Y69.48
X40.321 Y69.458
X40.295 Y69.429
X38.215 Y66.369
G3 X38.339 Y66.135 I0.124 J-0.084
S15000
G1 X39.163 Z-0.6 F300
X39.229 Y66.14
X39.293 Y66.157
X39.352 Y66.185
X40.096 Y66.613
G2 X40.474 Y65.956 I0.189 J-0.328
X39.906 Y66.285 I-0.189 J0.328
S500
G3 X38.421 Y66.285 I-0.743 J0 F1000
X39.906 Y66.285 I0.743 J0
G2 X40.696 Y67.796 I1.841 J0
G3 X40.469 Y69.486 I-0.547 J0.787
G1 X39.875 Y69.697
X39.87 Y69.698
X38.918 Y69.76
X37.982 Y69.561
X37.154 Y69.132
X36.461 Y68.485
X35.963 Y67.658
X35.714 Y66.769
X35.711 Y65.811
X35.713 Y65.804
X35.905 Y65.116
X35.968 Y64.895
X36.458 Y64.089
X37.166 Y63.431
X37.985 Y63.006
X38.917 Y62.809
X39.874 Y62.872
X40.774 Y63.194
X41.54 Y63.734
X42.143 Y64.474
X42.52 Y65.341
X42.649 Y66.277
X42.523 Y67.212
X42.133 Y68.108
X41.542 Y68.834
X40.771 Y69.378
X40.757 Y69.384
X40.469 Y69.486
X40.431 Y69.494
X40.392 Y69.492
X40.354 Y69.48
X40.321 Y69.458
X40.295 Y69.429
X38.215 Y66.369
G3 X38.339 Y66.135 I0.124 J-0.084
S15000
G1 X39.163 Z-0.9 F300
X39.229 Y66.14
X39.293 Y66.157
X39.352 Y66.185
X40.096 Y66.613
G2 X40.474 Y65.956 I0.189 J-0.328
X39.906 Y66.285 I-0.189 J0.328
S500
G3 X38.421 Y66.285 I-0.743 J0 F1000
X39.906 Y66.285 I0.743 J0
G2 X40.696 Y67.796 I1.841 J0
G3 X40.469 Y69.486 I-0.547 J0.787
G1 X39.875 Y69.697
X39.87 Y69.698
X38.918 Y69.76
X37.982 Y69.561
X37.154 Y69.132
X36.461 Y68.485
X35.963 Y67.658
X35.714 Y66.769
X35.711 Y65.811
X35.713 Y65.804
X35.905 Y65.116
X35.968 Y64.895
X36.458 Y64.089
X37.166 Y63.431
X37.985 Y63.006
X38.917 Y62.809
X39.874 Y62.872
X40.774 Y63.194
X41.54 Y63.734
X42.143 Y64.474
X42.52 Y65.341
X42.649 Y66.277
X42.523 Y67.212
X42.133 Y68.108
X41.542 Y68.834
X40.771 Y69.378
X40.757 Y69.384
X40.469 Y69.486
X40.431 Y69.494
X40.392 Y69.492
X40.354 Y69.48
X40.321 Y69.458
X40.295 Y69.429
X38.215 Y66.369
G3 X38.339 Y66.135 I0.124 J-0.084
S15000
G1 X39.163 Z-1.2 F300
X39.229 Y66.14
X39.293 Y66.157
X39.352 Y66.185
X40.096 Y66.613
G2 X40.474 Y65.956 I0.189 J-0.328
X39.906 Y66.285 I-0.189 J0.328
S500
G3 X38.421 Y66.285 I-0.743 J0 F1000
X39.906 Y66.285 I0.743 J0
G2 X40.696 Y67.796 I1.841 J0
G3 X40.469 Y69.486 I-0.547 J0.787
G1 X39.875 Y69.697
X39.87 Y69.698
X38.918 Y69.76
X37.982 Y69.561
X37.154 Y69.132
X36.461 Y68.485
X35.963 Y67.658
X35.714 Y66.769
X35.711 Y65.811
X35.713 Y65.804
X35.905 Y65.116
X35.968 Y64.895
X36.458 Y64.089
X37.166 Y63.431
X37.985 Y63.006
X38.917 Y62.809
X39.874 Y62.872
X40.774 Y63.194
X41.54 Y63.734
X42.143 Y64.474
X42.52 Y65.341
X42.649 Y66.277
X42.523 Y67.212
X42.133 Y68.108
X41.542 Y68.834
X40.771 Y69.378
X40.757 Y69.384
X40.469 Y69.486
X40.431 Y69.494
X40.392 Y69.492
X40.354 Y69.48
X40.321 Y69.458
X40.295 Y69.429
X38.215 Y66.369
G3 X38.339 Y66.135 I0.124 J-0.084
S15000
G1 X39.163 Z-1.5 F300
X39.229 Y66.14
X39.293 Y66.157
X39.352 Y66.185
X40.096 Y66.613
G2 X40.474 Y65.956 I0.189 J-0.328
X39.906 Y66.285 I-0.189 J0.328
S500
G3 X38.421 Y66.285 I-0.743 J0 F1000
X39.906 Y66.285 I0.743 J0
G2 X40.696 Y67.796 I1.841 J0
G3 X40.469 Y69.486 I-0.548 J0.787
G1 X39.875 Y69.697
X39.87 Y69.698
X38.918 Y69.76
X37.982 Y69.561
X37.154 Y69.132
X36.461 Y68.485
X35.963 Y67.658
X35.714 Y66.769
X35.711 Y65.811
X35.713 Y65.804
X35.905 Y65.117
X35.968 Y64.896
X36.458 Y64.089
X37.166 Y63.431
X37.985 Y63.006
X38.917 Y62.809
X39.874 Y62.872
X40.774 Y63.194
X41.54 Y63.735
X42.143 Y64.474
X42.519 Y65.341
X42.649 Y66.277
X42.523 Y67.212
X42.133 Y68.107
X41.542 Y68.833
X40.77 Y69.378
X40.757 Y69.384
X40.469 Y69.486
X40.431 Y69.494
X40.391 Y69.492
X40.354 Y69.48
X40.321 Y69.458
X40.295 Y69.429
X38.216 Y66.37
G3 X38.34 Y66.135 I0.124 J-0.084
S15000
G1 X39.165 Z-1.8 F300
X39.23 Y66.141
X39.294 Y66.158
X39.354 Y66.186
X40.098 Y66.614
G2 X40.476 Y65.957 I0.189 J-0.329
X39.908 Y66.285 I-0.189 J0.329
S500
G3 X38.422 Y66.285 I-0.743 J0 F1000
X39.908 Y66.285 I0.743 J0
G2 X40.698 Y67.795 I1.838 J0
G3 X40.473 Y69.485 I-0.546 J0.787
G1 X39.875 Y69.697
X39.87 Y69.698
X38.916 Y69.759
X37.998 Y69.569
X37.154 Y69.132
X36.461 Y68.485
X35.963 Y67.659
X35.715 Y66.769
X35.711 Y65.811
X35.713 Y65.804
X35.905 Y65.119
X35.969 Y64.898
X36.46 Y64.089
X37.166 Y63.431
X37.985 Y63.007
X38.918 Y62.81
X39.874 Y62.872
X40.773 Y63.195
X41.54 Y63.737
X42.143 Y64.474
X42.517 Y65.34
X42.648 Y66.277
X42.521 Y67.214
X42.144 Y68.093
X41.541 Y68.831
X40.77 Y69.378
X40.757 Y69.384
X40.473 Y69.485
X40.434 Y69.493
X40.395 Y69.491
X40.357 Y69.479
X40.325 Y69.457
X40.298 Y69.428
X38.216 Y66.37
G3 X38.34 Y66.135 I0.124 J-0.084
S15000
G1 X39.165 Z-2.1 F300
X39.23 Y66.141
X39.294 Y66.158
X39.354 Y66.186
X40.097 Y66.614
G2 X40.475 Y65.957 I0.189 J-0.328
X39.907 Y66.285 I-0.189 J0.328
S500
G3 X38.422 Y66.285 I-0.743 J0 F1000
X39.907 Y66.285 I0.743 J0
G2 X40.695 Y67.797 I1.844 J0
G3 X40.467 Y69.486 I-0.549 J0.786
G1 X39.875 Y69.697
X39.868 Y69.698
X38.929 Y69.762
X38.923
X38.002 Y69.57
X37.988 Y69.565
X37.163 Y69.137
X37.135 Y69.115
X36.467 Y68.491
X36.449 Y68.465
X35.97 Y67.678
X35.965 Y67.666
X35.715 Y66.766
X35.711 Y66.38
X35.712 Y65.81
X35.713 Y65.802
X35.904 Y65.121
X35.969 Y64.899
X36.463 Y64.087
X37.155 Y63.436
X38.004 Y62.999
X38.924 Y62.81
X39.038 Y62.814
X39.875 Y62.873
X39.885 Y62.875
X40.757 Y63.186
X41.541 Y63.74
X42.14 Y64.47
X42.148 Y64.485
X42.516 Y65.341
X42.65 Y66.283
X42.52 Y67.219
X42.447 Y67.396
X42.147 Y68.087
X42.132 Y68.109
X41.542 Y68.828
X40.767 Y69.379
X40.755 Y69.384
X40.467 Y69.486
X40.429 Y69.495
X40.39 Y69.493
X40.352 Y69.48
X40.319 Y69.459
X40.293 Y69.429
X38.216 Y66.369
G3 X38.34 Y66.134 I0.124 J-0.084
S15000
G1 X39.164 Z-2.4 F300
X39.23 Y66.14
X39.294 Y66.157
X39.353 Y66.185
X40.098 Y66.613
G2 X40.476 Y65.956 I0.189 J-0.329
X39.908 Y66.284 I-0.189 J0.329
S500
G3 X38.42 Y66.284 I-0.744 J0 F1000
X39.908 Y66.284 I0.744 J0
G2 X40.7 Y67.794 I1.835 J0
G3 X40.475 Y69.483 I-0.544 J0.787
G1 X39.87 Y69.697
X39.863 Y69.698
X38.942 Y69.761
X38.882 Y69.753
X38.002 Y69.57
X37.988 Y69.565
X37.163 Y69.137
X37.135 Y69.115
X36.467 Y68.491
X36.449 Y68.465
X35.97 Y67.678
X35.965 Y67.666
X35.711 Y66.746
X35.713 Y65.805
X35.715 Y65.797
X35.906 Y65.116
X35.965 Y64.903
X35.972 Y64.888
X36.458 Y64.088
X36.464 Y64.082
X37.158 Y63.435
X38.009 Y62.998
X38.939 Y62.808
X38.945
X39.88 Y62.875
X39.89 Y62.877
X40.754 Y63.184
X40.786 Y63.202
X41.526 Y63.724
X41.559 Y63.756
X42.14 Y64.471
X42.15 Y64.49
X42.519 Y65.339
X42.521 Y65.347
X42.648 Y66.299
X42.647 Y66.306
X42.517 Y67.227
X42.491 Y67.295
X42.147 Y68.087
X42.131 Y68.11
X41.558 Y68.814
X41.528 Y68.843
X40.765 Y69.379
X40.75 Y69.386
X40.475 Y69.483
X40.436 Y69.492
X40.397 Y69.489
X40.36 Y69.477
X40.327 Y69.456
X40.301 Y69.427
X38.216 Y66.37
G3 X38.34 Y66.135 I0.124 J-0.085
S15000
G1 X39.164 Z-2.7 F300
X39.23 Y66.141
X39.293 Y66.158
X39.353 Y66.186
X40.098 Y66.614
G2 X40.476 Y65.956 I0.189 J-0.329
X39.908 Y66.285 I-0.189 J0.329
S500
G3 X38.42 Y66.285 I-0.744 J0 F1000
X39.908 Y66.285 I0.744 J0
G2 X40.699 Y67.795 I1.835 J0
G3 X40.473 Y69.484 I-0.544 J0.787
G1 X39.866 Y69.697
X39.858 Y69.699
X38.941 Y69.761
X38.881 Y69.753
X37.998 Y69.568
X37.985 Y69.563
X37.171 Y69.139
X37.087 Y69.07
X36.466 Y68.488
X36.447 Y68.462
X35.969 Y67.675
X35.964 Y67.661
X35.718 Y66.783
X35.711 Y66.724
X35.715 Y65.8
X35.716 Y65.791
X35.905 Y65.116
X35.965 Y64.903
X35.972 Y64.888
X36.459 Y64.087
X36.465 Y64.081
X37.162 Y63.433
X38.012 Y62.998
X38.02 Y62.995
X38.921 Y62.808
X39.871 Y62.876
X39.936 Y62.894
X40.756 Y63.186
X40.787 Y63.203
X41.526 Y63.724
X41.559 Y63.755
X42.132 Y64.464
X42.171 Y64.537
X42.511 Y65.322
X42.527 Y65.385
X42.647 Y66.261
X42.645 Y66.321
X42.525 Y67.198
X42.505 Y67.262
X42.144 Y68.089
X42.129 Y68.113
X41.558 Y68.814
X41.529 Y68.843
X40.761 Y69.38
X40.746 Y69.387
X40.473 Y69.484
X40.434 Y69.492
X40.395 Y69.49
X40.358 Y69.477
X40.325 Y69.456
X40.299 Y69.427
X38.217 Y66.369
G3 X38.34 Y66.134 I0.124 J-0.084
S15000
G1 X39.165 Z-3 F300
X39.23 Y66.14
X39.294 Y66.157
X39.354 Y66.185
X40.098 Y66.613
G2 X40.477 Y65.956 I0.189 J-0.329
X39.908 Y66.284 I-0.189 J0.329
S500
G3 X38.421 Y66.284 I-0.744 J0 F1000
X39.908 Y66.284 I0.744 J0
G2 X40.7 Y67.794 I1.834 J0
G3 X40.473 Y69.483 I-0.543 J0.787
G1 X39.861 Y69.697
X39.853 Y69.699
X38.938 Y69.76
X38.878 Y69.752
X37.993 Y69.565
X37.981 Y69.561
X37.169 Y69.137
X37.086 Y69.068
X36.465 Y68.486
X36.445 Y68.459
X35.969 Y67.671
X35.962 Y67.656
X35.718 Y66.783
X35.711 Y66.723
Y65.84
X35.72 Y65.779
X35.905 Y65.118
X35.967 Y64.9
X35.974 Y64.884
X36.463 Y64.084
X37.158 Y63.438
X37.185 Y63.421
X37.974 Y63.012
X38.031 Y62.993
X38.904 Y62.812
X38.964 Y62.809
X39.842 Y62.869
X39.903 Y62.882
X40.759 Y63.189
X40.791 Y63.205
X41.527 Y63.725
X41.559 Y63.756
X42.132 Y64.467
X42.172 Y64.54
X42.511 Y65.323
X42.527 Y65.387
X42.647 Y66.263
X42.645 Y66.323
X42.525 Y67.198
X42.505 Y67.262
X42.141 Y68.093
X42.126 Y68.116
X41.568 Y68.803
X41.499 Y68.864
X40.757 Y69.381
X40.742 Y69.389
X40.473 Y69.483
X40.435 Y69.491
X40.396 Y69.489
X40.359 Y69.476
X40.326 Y69.455
X40.3 Y69.426
X38.216 Y66.369
G3 X38.34 Y66.134 I0.124 J-0.084
S15000
G1 X39.164 Z-3.3 F300
X39.23 Y66.14
X39.294 Y66.157
X39.353 Y66.185
X40.098 Y66.613
G2 X40.477 Y65.956 I0.189 J-0.329
X39.908 Y66.284 I-0.189 J0.329
S500
G3 X38.421 Y66.284 I-0.744 J0 F1000
X39.908 Y66.284 I0.744 J0
G2 X40.699 Y67.794 I1.837 J0
G3 X40.474 Y69.484 I-0.545 J0.787
G1 X39.917 Y69.682
X39.803 Y69.702
X38.935 Y69.758
X38.875 Y69.752
X38.005 Y69.566
X37.938 Y69.538
X37.154 Y69.127
X37.128 Y69.107
X36.465 Y68.483
X36.443 Y68.455
X35.977 Y67.682
X35.951 Y67.614
X35.721 Y66.792
X35.711 Y66.677
Y65.84
X35.72 Y65.779
X35.904 Y65.12
X35.964 Y64.917
X35.999 Y64.844
X36.457 Y64.097
X36.5 Y64.047
X37.128 Y63.462
X37.191 Y63.418
X37.977 Y63.012
X38.034 Y62.992
X38.907 Y62.813
X38.967 Y62.81
X39.845 Y62.871
X39.906 Y62.883
X40.763 Y63.192
X40.794 Y63.208
X41.529 Y63.73
X41.563 Y63.76
X42.111 Y64.434
X42.158 Y64.509
X42.511 Y65.326
X42.527 Y65.39
X42.645 Y66.266
X42.644 Y66.327
X42.523 Y67.201
X42.504 Y67.264
X42.137 Y68.097
X42.123 Y68.12
X41.568 Y68.802
X41.496 Y68.866
X40.801 Y69.357
X40.729 Y69.393
X40.474 Y69.484
X40.436 Y69.492
X40.397 Y69.49
X40.359 Y69.478
X40.326 Y69.457
X40.3 Y69.427
X38.216 Y66.369
G3 X38.34 Y66.134 I0.124 J-0.084
S15000
G1 X39.164 Z-3.6 F300
X39.23 Y66.14
X39.294 Y66.157
X39.353 Y66.185
X40.098 Y66.613
G2 X40.476 Y65.956 I0.189 J-0.329
X39.908 Y66.284 I-0.189 J0.329
S500
G3 X38.421 Y66.284 I-0.744 J0 F1000
X39.908 Y66.284 I0.744 J0
G2 X40.699 Y67.794 I1.837 J0
G3 X40.474 Y69.484 I-0.545 J0.787
G1 X39.917 Y69.682
X39.803 Y69.702
X38.932 Y69.757
X38.871 Y69.751
X38.023 Y69.572
X37.932 Y69.535
X37.197 Y69.155
X37.119 Y69.099
X36.491 Y68.513
X36.438 Y68.448
X35.999 Y67.725
X35.948 Y67.604
X35.719 Y66.778
X35.711 Y66.717
X35.712 Y65.838
X35.721 Y65.777
X35.904 Y65.122
X35.966 Y64.916
X36.001 Y64.839
X36.432 Y64.131
X36.506 Y64.042
X37.13 Y63.462
X37.193 Y63.417
X37.979 Y63.013
X38.037 Y62.992
X38.91 Y62.814
X38.97 Y62.81
X39.848 Y62.873
X39.911 Y62.885
X40.711 Y63.169
X40.8 Y63.212
X41.53 Y63.732
X41.564 Y63.763
X42.111 Y64.434
X42.157 Y64.508
X42.51 Y65.329
X42.528 Y65.393
X42.644 Y66.269
Y66.33
X42.521 Y67.204
X42.502 Y67.269
X42.163 Y68.048
X42.118 Y68.124
X41.567 Y68.802
X41.493 Y68.868
X40.811 Y69.35
X40.687 Y69.409
X40.474 Y69.484
X40.429 Y69.493
X40.383 Y69.487
X40.341 Y69.467
X40.307 Y69.436
X40.284 Y69.395
X40.274 Y69.35
X40.138 Y66.577
X40.129 Y66.533
X40.107 Y66.493
X40.074 Y66.462
X40.033 Y66.441
X39.988 Y66.435
S15000
X39.164 Z-3.9 F300
X39.108 Y66.44
X39.053 Y66.455
X39.002 Y66.48
X38.367 Y66.861
G2 X38.691 Y67.401 I0.162 J0.27
X38.718 Y66.879 I-0.162 J-0.27
S500
G3 X39.61 Y65.69 I0.446 J-0.595 F1000
X38.718 Y66.879 I-0.446 J0.595
G2 X37.043 Y66.599 I-1.108 J1.477
G3 X35.82 Y65.422 I-0.296 J-0.917
G1 X35.905 Y65.119
X35.956 Y64.941
X36.004 Y64.836
X36.433 Y64.131
X36.506 Y64.042
X37.124 Y63.468
X37.224 Y63.401
X37.982 Y63.013
X38.042 Y62.991
X38.863 Y62.82
X38.976 Y62.81
X39.849 Y62.875
X39.913 Y62.887
X40.708 Y63.168
X40.799 Y63.213
X41.482 Y63.693
X41.568 Y63.769
X42.103 Y64.425
X42.177 Y64.553
X42.494 Y65.283
X42.529 Y65.401
X42.642 Y66.221
X42.643 Y66.334
X42.519 Y67.205
X42.5 Y67.271
X42.168 Y68.037
X42.081 Y68.172
X41.572 Y68.795
X41.456 Y68.894
X40.81 Y69.35
X40.686 Y69.409
X39.923 Y69.679
X39.754 Y69.706
X38.978 Y69.759
X38.865 Y69.749
X38.025 Y69.572
X37.929 Y69.534
X37.2 Y69.156
X37.12 Y69.099
X36.499 Y68.52
X36.412 Y68.405
X35.999 Y67.725
X35.948 Y67.604
X35.72 Y66.777
X35.712 Y66.715
X35.714 Y65.849
X35.733 Y65.732
X35.82 Y65.422
X35.839 Y65.38
X35.87 Y65.346
X35.911 Y65.322
X35.956 Y65.313
X36.003 Y65.318
X36.045 Y65.337
X37.951 Y66.565
X37.992 Y66.59
X38.038 Y66.601
X38.085 Y66.597
X38.128 Y66.579
X38.811 Y66.157
X38.849 Y66.141
X38.89 Y66.135
S15000
X39.165 Z-4 F300
X39.231 Y66.141
X39.294 Y66.158
X39.354 Y66.185
X40.099 Y66.614
G2 X40.478 Y65.956 I0.189 J-0.329
X39.909 Y66.285 I-0.189 J0.329
S500
G3 X38.421 Y66.285 I-0.744 J0 F1000
X39.909 Y66.285 I0.744 J0
G2 X40.701 Y67.794 I1.833 J0
G3 X40.477 Y69.483 I-0.543 J0.787
G1 X39.923 Y69.679
X39.753 Y69.706
X38.978 Y69.759
X38.865 Y69.749
X38.026 Y69.571
X37.928 Y69.534
X37.2 Y69.156
X37.121 Y69.099
X36.499 Y68.519
X36.412 Y68.404
X35.999 Y67.725
X35.948 Y67.605
X35.723 Y66.787
X35.711 Y66.672
X35.714 Y65.848
X35.733 Y65.731
X35.904 Y65.119
X35.957 Y64.941
X36.004 Y64.835
X36.434 Y64.13
X36.507 Y64.042
X37.125 Y63.469
X37.224 Y63.401
X37.983 Y63.013
X38.043 Y62.99
X38.863 Y62.82
X38.978 Y62.81
X39.799 Y62.866
X39.915 Y62.888
X40.708 Y63.168
X40.799 Y63.213
X41.481 Y63.693
X41.567 Y63.769
X42.103 Y64.425
X42.178 Y64.554
X42.494 Y65.282
X42.529 Y65.401
X42.642 Y66.221
Y66.336
X42.53 Y67.157
X42.498 Y67.275
X42.168 Y68.037
X42.081 Y68.172
X41.571 Y68.794
X41.455 Y68.895
X40.81 Y69.349
X40.686 Y69.409
X40.477 Y69.483
X40.431 Y69.491
X40.385 Y69.485
X40.343 Y69.466
X40.309 Y69.434
X40.287 Y69.394
X40.277 Y69.349
X40.139 Y66.577
X40.13 Y66.533
X40.108 Y66.493
X40.075 Y66.462
X40.034 Y66.441
X39.989 Y66.435
S15000
X39.165 Z-4.3 F300
X39.108 Y66.44
X39.053 Y66.455
X39.002 Y66.48
X38.367 Y66.862
G2 X38.692 Y67.402 I0.162 J0.27
X38.718 Y66.88 I-0.162 J-0.27
S500
G3 X39.611 Y65.69 I0.446 J-0.595 F1000
X38.718 Y66.88 I-0.446 J0.595
G2 X37.044 Y66.599 I-1.109 J1.478
G3 X35.82 Y65.421 I-0.295 J-0.918
G1 X35.904 Y65.122
X35.958 Y64.94
X36.005 Y64.833
X36.437 Y64.128
X36.508 Y64.04
X37.126 Y63.469
X37.228 Y63.398
X37.935 Y63.033
X38.044 Y62.992
X38.865 Y62.821
X38.979 Y62.811
X39.789 Y62.867
X39.959 Y62.902
X40.701 Y63.167
X40.826 Y63.23
X41.472 Y63.686
X41.602 Y63.809
X42.101 Y64.426
X42.179 Y64.556
X42.49 Y65.273
X42.535 Y65.445
X42.64 Y66.212
X42.637 Y66.381
X42.532 Y67.147
X42.48 Y67.32
X42.166 Y68.038
X42.08 Y68.173
X41.57 Y68.793
X41.451 Y68.897
X40.808 Y69.349
X40.684 Y69.409
X39.921 Y69.678
X39.751 Y69.706
X38.986 Y69.758
X38.82 Y69.74
X38.028 Y69.571
X37.926 Y69.532
X37.209 Y69.16
X37.075 Y69.058
X36.5 Y68.518
X36.41 Y68.402
X35.999 Y67.725
X35.947 Y67.602
X35.732 Y66.834
X35.711 Y66.666
X35.716 Y65.846
X35.734 Y65.729
X35.82 Y65.421
X35.836 Y65.384
X35.862 Y65.352
X35.895 Y65.329
X35.934 Y65.315
X35.974 Y65.312
X36.014 Y65.32
X38.29 Y66.126
X38.315 Y66.132
X38.34 Y66.135
S15000
X39.165 Z-4.6 F300
X39.23 Y66.14
X39.294 Y66.157
X39.354 Y66.185
X40.099 Y66.613
G2 X40.477 Y65.956 I0.189 J-0.329
X39.908 Y66.285 I-0.189 J0.329
S500
G3 X38.421 Y66.285 I-0.744 J0 F1000
X39.908 Y66.285 I0.744 J0
G2 X40.703 Y67.792 I1.826 J0
G3 X40.48 Y69.481 I-0.539 J0.788
G1 X39.92 Y69.677
X39.749 Y69.706
X38.985 Y69.756
X38.816 Y69.739
X38.074 Y69.585
X37.922 Y69.53
X37.208 Y69.157
X37.074 Y69.057
X36.501 Y68.517
X36.409 Y68.401
X36 Y67.724
X35.947 Y67.6
X35.732 Y66.833
X35.711 Y66.664
Y65.894
X35.735 Y65.724
X35.905 Y65.118
X35.948 Y64.967
X36.007 Y64.831
X36.44 Y64.127
X36.511 Y64.037
X37.094 Y63.494
X37.231 Y63.397
X37.927 Y63.038
X38.09 Y62.981
X38.864 Y62.823
X38.979 Y62.812
X39.791 Y62.868
X39.96 Y62.903
X40.692 Y63.165
X40.852 Y63.249
X41.473 Y63.688
X41.603 Y63.811
X42.101 Y64.427
X42.179 Y64.557
X42.489 Y65.275
X42.535 Y65.447
X42.639 Y66.214
X42.637 Y66.383
X42.531 Y67.148
X42.48 Y67.32
X42.164 Y68.04
X42.078 Y68.176
X41.605 Y68.757
X41.445 Y68.902
X40.806 Y69.348
X40.682 Y69.41
X40.48 Y69.481
X40.432 Y69.489
X40.384 Y69.482
X40.34 Y69.459
X40.307 Y69.424
X38.216 Y66.369
G3 X38.34 Y66.134 I0.124 J-0.085
S15000
G1 X39.164 Z-4.9 F300
X39.23 Y66.14
X39.294 Y66.157
X39.353 Y66.185
X40.098 Y66.613
G2 X40.476 Y65.956 I0.189 J-0.329
X39.908 Y66.284 I-0.189 J0.329
S500
G3 X38.421 Y66.284 I-0.744 J0 F1000
X39.908 Y66.284 I0.744 J0
G2 X40.701 Y67.792 I1.83 J0
G3 X40.48 Y69.481 I-0.542 J0.788
G1 X39.966 Y69.665
X39.744 Y69.706
X38.983 Y69.755
X38.813 Y69.739
X38.086 Y69.588
X37.875 Y69.506
X37.207 Y69.155
X37.073 Y69.056
X36.501 Y68.516
X36.409 Y68.399
X36.006 Y67.73
X35.934 Y67.553
X35.733 Y66.832
X35.711 Y66.662
X35.712 Y65.893
X35.735 Y65.723
X35.904 Y65.121
X35.949 Y64.969
X36.009 Y64.828
X36.41 Y64.167
X36.514 Y64.037
X37.098 Y63.492
X37.233 Y63.396
X37.929 Y63.039
X38.091 Y62.981
X38.856 Y62.826
X39.025 Y62.814
X39.792 Y62.87
X39.962 Y62.903
X40.69 Y63.165
X40.853 Y63.25
X41.474 Y63.691
X41.607 Y63.814
X42.066 Y64.379
X42.181 Y64.563
X42.488 Y65.276
X42.535 Y65.448
X42.637 Y66.215
X42.636 Y66.384
X42.529 Y67.149
X42.479 Y67.321
X42.161 Y68.041
X42.076 Y68.178
X41.607 Y68.755
X41.441 Y68.904
X40.855 Y69.319
X40.675 Y69.411
X40.48 Y69.481
X40.442 Y69.489
X40.402 Y69.487
X40.365 Y69.475
X40.332 Y69.454
X40.306 Y69.424
X38.217 Y66.369
G3 X38.34 Y66.135 I0.124 J-0.085
S15000
G1 X39.165 Z-5.2 F300
X39.23 Y66.14
X39.294 Y66.157
X39.354 Y66.185
X40.098 Y66.613
G2 X40.476 Y65.956 I0.189 J-0.329
X39.908 Y66.285 I-0.189 J0.329
S500
G3 X38.421 Y66.285 I-0.743 J0 F1000
X39.908 Y66.285 I0.743 J0
G2 X40.703 Y67.792 I1.826 J0
G3 X40.483 Y69.481 I-0.54 J0.789
G1 X39.966 Y69.665
X39.745 Y69.706
X38.982 Y69.754
X38.811 Y69.738
X38.089 Y69.588
X37.873 Y69.505
X37.253 Y69.184
X37.066 Y69.05
X36.528 Y68.548
X36.409 Y68.398
X36.006 Y67.729
X35.933 Y67.552
X35.734 Y66.831
X35.711 Y66.66
X35.713 Y65.893
X35.737 Y65.722
X35.903 Y65.123
X35.95 Y64.971
X36.011 Y64.828
X36.408 Y64.173
X36.552 Y63.999
X37.101 Y63.492
X37.235 Y63.395
X37.93 Y63.04
X38.095 Y62.98
X38.807 Y62.832
X39.03 Y62.814
X39.743 Y62.863
X39.964 Y62.904
X40.688 Y63.166
X40.854 Y63.251
X41.475 Y63.694
X41.609 Y63.817
X42.062 Y64.375
X42.195 Y64.593
X42.487 Y65.277
X42.536 Y65.452
X42.634 Y66.167
X42.635 Y66.388
X42.527 Y67.151
X42.477 Y67.325
X42.188 Y67.992
X42.073 Y68.181
X41.608 Y68.753
X41.439 Y68.906
X40.86 Y69.315
X40.627 Y69.43
X40.483 Y69.481
X40.444 Y69.489
X40.405 Y69.487
X40.368 Y69.475
X40.335 Y69.454
X40.309 Y69.424
X38.217 Y66.368
G3 X38.341 Y66.134 I0.124 J-0.085
S15000
G1 X39.165 Z-5.5 F300
X39.231 Y66.139
X39.295 Y66.156
X39.354 Y66.184
X40.1 Y66.613
G2 X40.478 Y65.955 I0.189 J-0.329
X39.909 Y66.284 I-0.189 J0.329
S500
G3 X38.421 Y66.284 I-0.744 J0 F1000
X39.909 Y66.284 I0.744 J0
G2 X40.707 Y67.789 I1.82 J0
G3 X40.489 Y69.479 I-0.536 J0.79
G1 X39.972 Y69.662
X39.694 Y69.71
X39.037 Y69.755
X38.76 Y69.728
X38.092 Y69.588
X37.872 Y69.504
X37.254 Y69.184
X37.067 Y69.05
X36.535 Y68.552
X36.377 Y68.347
X36.03 Y67.777
X35.932 Y67.548
X35.738 Y66.837
X35.711 Y66.613
X35.715 Y65.9
X35.749 Y65.674
X35.902 Y65.126
X35.948 Y64.98
X36.037 Y64.781
X36.41 Y64.172
X36.553 Y63.999
X37.065 Y63.521
X37.269 Y63.377
X37.884 Y63.059
X38.097 Y62.979
X38.808 Y62.832
X39.031 Y62.814
X39.742 Y62.864
X39.967 Y62.905
X40.645 Y63.146
X40.858 Y63.253
X41.425 Y63.653
X41.612 Y63.821
X42.062 Y64.375
X42.196 Y64.595
X42.47 Y65.227
X42.536 Y65.454
X42.633 Y66.16
X42.629 Y66.437
X42.538 Y67.1
X42.475 Y67.328
X42.188 Y67.991
X42.072 Y68.18
X41.607 Y68.752
X41.437 Y68.908
X40.86 Y69.315
X40.628 Y69.43
X40.489 Y69.479
X40.451 Y69.487
X40.412 Y69.485
X40.375 Y69.473
X40.342 Y69.451
X40.316 Y69.422
X38.217 Y66.369
G3 X38.34 Y66.134 I0.124 J-0.085
S15000
G1 X39.165 Z-5.8 F300
X39.23 Y66.14
X39.294 Y66.157
X39.354 Y66.185
X40.099 Y66.613
G2 X40.477 Y65.956 I0.189 J-0.329
X39.908 Y66.284 I-0.189 J0.329
S500
G3 X38.421 Y66.284 I-0.744 J0 F1000
X39.908 Y66.284 I0.744 J0
G2 X40.706 Y67.79 I1.82 J0
G3 X40.487 Y69.479 I-0.536 J0.789
G1 X39.971 Y69.661
X39.693 Y69.71
X39.037 Y69.755
X38.761 Y69.728
X38.095 Y69.588
X37.87 Y69.503
X37.256 Y69.185
X37.068 Y69.05
X36.536 Y68.551
X36.376 Y68.346
X36.03 Y67.777
X35.931 Y67.546
X35.747 Y66.886
X35.711 Y66.608
Y65.948
X35.75 Y65.67
X35.904 Y65.122
X35.938 Y65.007
X36.038 Y64.78
X36.413 Y64.171
X36.553 Y63.998
X37.068 Y63.52
X37.271 Y63.376
X37.884 Y63.06
X38.097 Y62.98
X38.81 Y62.834
X39.032 Y62.814
X39.742 Y62.865
X39.967 Y62.907
X40.644 Y63.147
X40.859 Y63.255
X41.424 Y63.653
X41.609 Y63.821
X42.062 Y64.376
X42.196 Y64.597
X42.467 Y65.221
X42.543 Y65.502
X42.632 Y66.16
X42.629 Y66.438
X42.539 Y67.094
X42.456 Y67.375
X42.19 Y67.984
X42.031 Y68.233
X41.611 Y68.746
X41.401 Y68.933
X40.86 Y69.314
X40.627 Y69.43
X40.487 Y69.479
X40.439 Y69.488
X40.39 Y69.48
X40.347 Y69.458
X40.313 Y69.423
X38.216 Y66.37
G3 X38.34 Y66.135 I0.124 J-0.085
S15000
G1 X39.164 Z-6.1 F300
X39.23 Y66.141
X39.293 Y66.158
X39.353 Y66.186
X40.097 Y66.614
G2 X40.475 Y65.957 I0.189 J-0.329
X39.907 Y66.285 I-0.189 J0.329
S500
G3 X38.421 Y66.285 I-0.743 J0 F1000
X39.907 Y66.285 I0.743 J0
G2 X40.704 Y67.79 I1.82 J0
G3 X40.484 Y69.479 I-0.536 J0.789
G1 X39.97 Y69.66
X39.692 Y69.71
X39.036 Y69.754
X38.76 Y69.728
X38.098 Y69.588
X37.87 Y69.502
X37.261 Y69.186
X37.02 Y69.006
X36.538 Y68.551
X36.376 Y68.345
X36.032 Y67.778
X35.933 Y67.546
X35.747 Y66.885
X35.711 Y66.607
Y65.948
X35.75 Y65.67
X35.905 Y65.116
X35.929 Y65.032
X36.04 Y64.776
X36.384 Y64.21
X36.555 Y63.997
X37.07 Y63.52
X37.272 Y63.376
X37.883 Y63.062
X38.097 Y62.982
X38.81 Y62.835
X39.032 Y62.816
X39.737 Y62.866
X40.015 Y62.922
X40.639 Y63.147
X40.859 Y63.256
X41.42 Y63.651
X41.641 Y63.857
X42.06 Y64.376
X42.197 Y64.598
X42.466 Y65.222
X42.543 Y65.503
X42.631 Y66.161
X42.629 Y66.439
X42.537 Y67.095
X42.455 Y67.376
X42.188 Y67.985
X42.031 Y68.233
X41.608 Y68.747
X41.399 Y68.934
X40.86 Y69.312
X40.627 Y69.428
X40.484 Y69.479
X40.438 Y69.487
X40.392 Y69.482
X40.351 Y69.462
X40.317 Y69.431
X40.294 Y69.391
X40.284 Y69.345
X40.137 Y66.577
X40.128 Y66.533
X40.106 Y66.493
X40.073 Y66.462
X40.032 Y66.442
X39.988 Y66.435
S15000
X39.163 Z-6.4 F300
X39.107 Y66.44
X39.052 Y66.455
X39.001 Y66.48
X38.366 Y66.862
G2 X38.691 Y67.402 I0.162 J0.27
X38.717 Y66.88 I-0.162 J-0.27
S500
G3 X39.61 Y65.69 I0.446 J-0.595 F1000
X38.717 Y66.88 I-0.446 J0.595
G2 X37.043 Y66.603 I-1.103 J1.471
G3 X35.818 Y65.429 I-0.299 J-0.914
G1 X35.904 Y65.12
X35.929 Y65.035
X36.041 Y64.775
X36.386 Y64.21
X36.558 Y63.995
X37.037 Y63.546
X37.273 Y63.375
X37.878 Y63.066
X38.148 Y62.969
X38.752 Y62.843
X39.083 Y62.817
X39.686 Y62.859
X40.016 Y62.923
X40.636 Y63.147
X40.859 Y63.258
X41.421 Y63.654
X41.642 Y63.858
X42.055 Y64.372
X42.211 Y64.63
X42.464 Y65.223
X42.543 Y65.503
X42.629 Y66.162
Y66.44
X42.536 Y67.096
X42.455 Y67.376
X42.186 Y67.986
X42.029 Y68.236
X41.645 Y68.708
X41.394 Y68.937
X40.864 Y69.308
X40.578 Y69.447
X39.97 Y69.658
X39.691 Y69.71
X39.035 Y69.752
X38.759 Y69.727
X38.107 Y69.589
X37.821 Y69.478
X37.26 Y69.184
X37.017 Y69.004
X36.565 Y68.582
X36.375 Y68.343
X36.036 Y67.782
X35.918 Y67.497
X35.748 Y66.885
X35.711 Y66.607
X35.713 Y65.948
X35.751 Y65.668
X35.818 Y65.429
X35.838 Y65.385
X35.872 Y65.35
X35.915 Y65.327
X35.964 Y65.32
X36.012 Y65.328
X38.29 Y66.126
X38.315 Y66.133
X38.34 Y66.135
S15000
X39.164 Z-6.7 F300
X39.23 Y66.14
X39.293 Y66.157
X39.353 Y66.185
X40.097 Y66.613
G2 X40.475 Y65.956 I0.189 J-0.329
X39.907 Y66.285 I-0.189 J0.329
S500
G3 X38.421 Y66.285 I-0.743 J0 F1000
X39.907 Y66.285 I0.743 J0
G2 X40.704 Y67.79 I1.82 J0
G3 X40.488 Y69.479 I-0.536 J0.79
G1 X40.019 Y69.646
X39.689 Y69.709
X39.04 Y69.75
X38.71 Y69.717
X38.11 Y69.588
X37.82 Y69.477
X37.26 Y69.182
X37.016 Y69.003
X36.566 Y68.582
X36.375 Y68.343
X36.037 Y67.781
X35.918 Y67.496
X35.75 Y66.885
X35.712 Y66.606
X35.714 Y65.948
X35.752 Y65.667
X35.903 Y65.124
X35.929 Y65.039
X36.042 Y64.775
X36.388 Y64.21
X36.56 Y63.995
X37.036 Y63.55
X37.306 Y63.358
X37.832 Y63.085
X38.15 Y62.968
X38.753 Y62.844
X39.083 Y62.818
X39.687 Y62.86
X40.019 Y62.923
X40.592 Y63.128
X40.907 Y63.288
X41.421 Y63.655
X41.644 Y63.861
X42.02 Y64.323
X42.213 Y64.635
X42.447 Y65.173
X42.544 Y65.509
X42.626 Y66.111
X42.627 Y66.441
X42.534 Y67.097
X42.453 Y67.38
X42.212 Y67.937
X42.026 Y68.239
X41.646 Y68.706
X41.393 Y68.938
X40.863 Y69.307
X40.574 Y69.449
X40.488 Y69.479
X40.449 Y69.488
X40.41 Y69.485
X40.373 Y69.473
X40.34 Y69.452
X40.314 Y69.423
X38.217 Y66.371
G3 X38.341 Y66.136 I0.124 J-0.085
S15000
G1 X39.165 Z-7 F300
X39.231 Y66.142
X39.294 Y66.159
X39.354 Y66.187
X40.099 Y66.615
G2 X40.477 Y65.958 I0.189 J-0.329
X39.909 Y66.286 I-0.189 J0.329
S500
G3 X38.422 Y66.286 I-0.744 J0 F1000
X39.909 Y66.286 I0.744 J0
G2 X40.707 Y67.79 I1.814 J0
G3 X40.492 Y69.478 I-0.534 J0.79
G1 X40.023 Y69.644
X39.637 Y69.714
X39.089 Y69.751
X38.704 Y69.716
X38.154 Y69.602
X37.816 Y69.475
X37.308 Y69.212
X37.014 Y69.001
X36.568 Y68.583
X36.376 Y68.341
X36.061 Y67.828
X35.917 Y67.493
X35.753 Y66.89
X35.711 Y66.558
X35.716 Y65.953
X35.765 Y65.618
X35.902 Y65.129
X35.929 Y65.043
X36.044 Y64.775
X36.387 Y64.214
X36.597 Y63.957
X37.036 Y63.551
X37.307 Y63.357
X37.832 Y63.086
X38.15 Y62.968
X38.753 Y62.845
X39.084 Y62.818
X39.687 Y62.862
X40.02 Y62.924
X40.591 Y63.129
X40.911 Y63.29
X41.371 Y63.615
X41.646 Y63.863
X42.021 Y64.323
X42.213 Y64.635
X42.446 Y65.172
X42.542 Y65.508
X42.625 Y66.107
X42.622 Y66.492
X42.546 Y67.045
X42.451 Y67.382
X42.212 Y67.937
X42.026 Y68.239
X41.65 Y68.702
X41.357 Y68.964
X40.896 Y69.289
X40.573 Y69.449
X40.492 Y69.478
X40.447 Y69.486
X40.401 Y69.481
X40.359 Y69.461
X40.325 Y69.43
X40.302 Y69.39
X40.292 Y69.345
X40.139 Y66.577
X40.129 Y66.532
X40.107 Y66.493
X40.074 Y66.462
X40.034 Y66.442
X39.989 Y66.435
S15000
X39.165 Z-7.3 F300
X39.108 Y66.44
X39.053 Y66.455
X39.002 Y66.48
X38.367 Y66.862
G2 X38.692 Y67.402 I0.162 J0.27
X38.718 Y66.88 I-0.162 J-0.27
S500
G3 X39.611 Y65.69 I0.446 J-0.595 F1000
X38.718 Y66.88 I-0.446 J0.595
G2 X37.044 Y66.604 I-1.102 J1.47
G3 X35.817 Y65.43 I-0.3 J-0.914
G1 X35.901 Y65.133
X35.928 Y65.051
X36.072 Y64.724
X36.365 Y64.244
X36.598 Y63.957
X37.038 Y63.552
X37.308 Y63.357
X37.833 Y63.088
X38.15 Y62.969
X38.754 Y62.847
X39.084 Y62.818
X39.686 Y62.863
X40.02 Y62.925
X40.591 Y63.13
X40.912 Y63.291
X41.37 Y63.614
X41.643 Y63.862
X42.017 Y64.321
X42.228 Y64.669
X42.443 Y65.168
X42.55 Y65.557
X42.624 Y66.107
X42.622 Y66.493
X42.546 Y67.041
X42.432 Y67.431
X42.212 Y67.935
X42.024 Y68.238
X41.649 Y68.701
X41.355 Y68.965
X40.896 Y69.287
X40.572 Y69.448
X40.023 Y69.643
X39.636 Y69.714
X39.089 Y69.751
X38.704 Y69.716
X38.157 Y69.602
X37.815 Y69.475
X37.309 Y69.213
X37.014 Y69.001
X36.573 Y68.585
X36.343 Y68.291
X36.062 Y67.829
X35.916 Y67.491
X35.762 Y66.939
X35.711 Y66.553
Y66.003
X35.765 Y65.616
X35.817 Y65.43
X35.838 Y65.386
X35.872 Y65.351
X35.915 Y65.328
X35.963 Y65.321
X36.011 Y65.329
X38.291 Y66.127
X38.316 Y66.133
X38.341 Y66.135
S15000
X39.165 Z-7.6 F300
X39.231 Y66.141
X39.294 Y66.158
X39.354 Y66.186
X40.097 Y66.614
G2 X40.475 Y65.957 I0.189 J-0.328
X39.908 Y66.285 I-0.189 J0.328
S500
G3 X38.423 Y66.285 I-0.742 J0 F1000
X39.908 Y66.285 I0.742 J0
G2 X40.488 Y67.992 I2.798 J0
G3 X39.844 Y69.675 I-0.837 J0.644
G1 X39.635 Y69.714
X39.088 Y69.751
X38.703 Y69.716
X38.161 Y69.603
X37.815 Y69.473
X37.309 Y69.213
X37.015 Y68.999
X36.574 Y68.584
X36.342 Y68.29
X36.063 Y67.83
X35.918 Y67.491
X35.762 Y66.938
X35.711 Y66.553
X35.712 Y66.002
X35.766 Y65.615
X35.899 Y65.138
X35.929 Y65.053
X36.072 Y64.724
X36.367 Y64.243
X36.6 Y63.954
X37.001 Y63.58
X37.308 Y63.357
X37.832 Y63.09
X38.153 Y62.969
X38.704 Y62.853
X39.088 Y62.819
X39.635 Y62.855
X40.02 Y62.927
X40.59 Y63.131
X40.912 Y63.292
X41.369 Y63.615
X41.64 Y63.862
X42.016 Y64.322
X42.228 Y64.669
X42.442 Y65.168
X42.55 Y65.557
X42.622 Y66.107
X42.621 Y66.494
X42.544 Y67.041
X42.431 Y67.431
X42.212 Y67.931
X41.983 Y68.292
X41.649 Y68.698
X41.354 Y68.966
X40.9 Y69.283
X40.522 Y69.467
X40.023 Y69.642
X39.844 Y69.675
X39.804 Y69.677
X39.765 Y69.669
X39.73 Y69.65
X39.701 Y69.623
X39.68 Y69.59
X38.203 Y66.348
G3 X38.339 Y66.136 I0.137 J-0.062
S15000
G1 X39.164 Z-7.9 F300
X39.229 Y66.142
X39.293 Y66.159
X39.353 Y66.186
X40.097 Y66.614
G2 X40.475 Y65.957 I0.189 J-0.329
X39.907 Y66.286 I-0.189 J0.329
S500
G3 X38.42 Y66.286 I-0.743 J0 F1000
X39.907 Y66.286 I0.743 J0
G2 X40.49 Y67.991 I2.784 J0
G3 X39.841 Y69.672 I-0.832 J0.645
G1 X39.585 Y69.717
X39.089 Y69.749
X38.703 Y69.715
X38.167 Y69.603
X37.765 Y69.449
X37.314 Y69.213
X36.963 Y68.954
X36.602 Y68.617
X36.342 Y68.289
X36.066 Y67.833
X35.902 Y67.441
X35.764 Y66.939
X35.711 Y66.552
X35.713 Y66.002
X35.766 Y65.614
X35.898 Y65.142
X35.929 Y65.056
X36.073 Y64.721
X36.346 Y64.272
X36.6 Y63.954
X37.001 Y63.582
X37.308 Y63.359
X37.829 Y63.093
X38.202 Y62.957
X38.702 Y62.854
X39.088 Y62.82
X39.632 Y62.857
X40.071 Y62.942
X40.552 Y63.114
X40.912 Y63.294
X41.366 Y63.615
X41.685 Y63.911
X42.013 Y64.32
X42.228 Y64.67
X42.44 Y65.169
X42.55 Y65.558
X42.621 Y66.107
Y66.494
X42.543 Y67.042
X42.431 Y67.431
X42.21 Y67.931
X41.982 Y68.292
X41.649 Y68.697
X41.353 Y68.967
X40.9 Y69.281
X40.522 Y69.467
X40.027 Y69.639
X39.841 Y69.672
X39.794 Y69.673
X39.748 Y69.658
X39.71 Y69.631
X39.682 Y69.593
X39.667 Y69.548
Y69.5
X40.136 Y66.61
X40.137 Y66.567
X40.126 Y66.525
X40.103 Y66.488
X40.07 Y66.46
X40.031 Y66.442
X39.988 Y66.436
S15000
X39.164 Z-8.2 F300
X39.108 Y66.441
X39.053 Y66.456
X39.002 Y66.481
X38.368 Y66.862
G2 X38.692 Y67.401 I0.162 J0.27
X38.718 Y66.88 I-0.162 J-0.27
S500
G3 X39.61 Y65.691 I0.446 J-0.594 F1000
X38.718 Y66.88 I-0.446 J0.594
G2 X37.045 Y66.606 I-1.099 J1.465
G3 X35.816 Y65.437 I-0.302 J-0.913
G1 X35.897 Y65.145
X35.929 Y65.059
X36.074 Y64.721
X36.348 Y64.273
X36.601 Y63.956
X37.002 Y63.583
X37.312 Y63.359
X37.783 Y63.111
X38.203 Y62.957
X38.698 Y62.856
X39.136 Y62.821
X39.631 Y62.858
X40.071 Y62.942
X40.551 Y63.115
X40.912 Y63.295
X41.367 Y63.618
X41.688 Y63.914
X41.978 Y64.27
X42.23 Y64.675
X42.423 Y65.119
X42.551 Y65.563
X42.618 Y66.053
X42.614 Y66.547
X42.553 Y66.991
X42.429 Y67.436
X42.236 Y67.882
X41.979 Y68.297
X41.682 Y68.662
X41.315 Y68.994
X40.933 Y69.263
X40.519 Y69.468
X40.075 Y69.626
X39.583 Y69.717
X39.093 Y69.747
X38.653 Y69.705
X38.171 Y69.603
X37.765 Y69.449
X37.314 Y69.212
X36.963 Y68.953
X36.602 Y68.614
X36.342 Y68.289
X36.068 Y67.833
X35.902 Y67.441
X35.765 Y66.94
X35.713 Y66.552
X35.715 Y66.002
X35.768 Y65.613
X35.816 Y65.437
X35.832 Y65.4
X35.857 Y65.369
X35.889 Y65.345
X35.926 Y65.331
X35.966 Y65.327
X38.553 Y65.411
X38.601 Y65.405
X38.64 Y65.399
X38.68 Y65.403
X38.717 Y65.417
X40.061 Y66.154
G3 X39.989 Y66.435 I-0.072 J0.132
S15000
G1 X39.165 Z-8.5 F300
X39.109 Y66.44
X39.054 Y66.456
X39.003 Y66.48
X38.369 Y66.861
G2 X38.693 Y67.401 I0.162 J0.27
X38.719 Y66.879 I-0.162 J-0.27
S500
G3 X39.61 Y65.691 I0.446 J-0.594 F1000
X38.719 Y66.879 I-0.446 J0.594
G2 X37.044 Y66.606 I-1.099 J1.465
G3 X35.816 Y65.435 I-0.303 J-0.912
G1 X35.893 Y65.16
X36.078 Y64.718
X36.35 Y64.273
X36.601 Y63.959
X37.001 Y63.587
X37.361 Y63.33
X37.781 Y63.114
X38.203 Y62.958
X38.698 Y62.858
X39.136 Y62.822
X39.631 Y62.859
X40.074 Y62.943
X40.515 Y63.1
X40.964 Y63.328
X41.315 Y63.576
X41.689 Y63.916
X41.975 Y64.267
X42.245 Y64.708
X42.423 Y65.118
X42.549 Y65.562
X42.617 Y66.054
X42.614 Y66.548
X42.554 Y66.988
X42.411 Y67.478
X42.236 Y67.882
X41.979 Y68.297
X41.684 Y68.66
X41.315 Y68.994
X40.933 Y69.262
X40.518 Y69.468
X40.075 Y69.626
X39.584 Y69.717
X39.093 Y69.746
X38.653 Y69.705
X38.174 Y69.602
X37.765 Y69.449
X37.314 Y69.21
X36.963 Y68.953
X36.603 Y68.613
X36.344 Y68.289
X36.07 Y67.834
X35.895 Y67.413
X35.768 Y66.944
X35.711 Y66.499
Y66.057
X35.781 Y65.561
X35.816 Y65.435
X35.836 Y65.392
X35.868 Y65.357
X35.909 Y65.335
X35.955 Y65.325
X36.002 Y65.331
X36.044 Y65.351
X37.767 Y66.511
X37.807 Y66.538
X37.854 Y66.549
X37.903 Y66.546
X37.947 Y66.527
X38.536 Y66.158
X38.574 Y66.14
X38.615 Y66.135
S15000
X39.165 Z-8.7 F300
X39.23 Y66.14
X39.294 Y66.157
X39.354 Y66.185
X40.096 Y66.613
G2 X40.474 Y65.957 I0.189 J-0.328
X39.907 Y66.285 I-0.189 J0.328
S500
G3 X38.423 Y66.285 I-0.742 J0 F1000
X39.907 Y66.285 I0.742 J0
G2 X40.658 Y67.794 I1.892 J0
G3 X40.497 Y69.473 I-0.597 J0.79
G1 X40.474 Y69.484
X40.075 Y69.626
X39.584 Y69.717
X39.093 Y69.746
X38.653 Y69.705
X38.174 Y69.602
X37.765 Y69.449
X37.314 Y69.21
X36.963 Y68.953
X36.603 Y68.613
X36.344 Y68.289
X36.07 Y67.834
X35.895 Y67.413
X35.768 Y66.944
X35.711 Y66.499
Y66.057
X35.781 Y65.561
X35.893 Y65.16
X36.078 Y64.718
X36.35 Y64.273
X36.601 Y63.959
X37.001 Y63.587
X37.361 Y63.33
X37.781 Y63.114
X38.203 Y62.958
X38.698 Y62.858
X39.136 Y62.822
X39.631 Y62.86
X40.074 Y62.943
X40.515 Y63.101
X40.964 Y63.328
X41.315 Y63.576
X41.689 Y63.916
X41.975 Y64.267
X42.245 Y64.708
X42.42 Y65.114
X42.558 Y65.612
X42.616 Y66.052
X42.614 Y66.548
X42.553 Y66.988
X42.411 Y67.479
X42.236 Y67.881
X41.979 Y68.297
X41.684 Y68.659
X41.314 Y68.994
X40.936 Y69.258
X40.497 Y69.473
X40.453 Y69.49 Z-8.693 F300
X40.408 Y69.5 Z-8.685
X40.367 Y69.504 Z-8.664
X40.325 Y69.501 Z-8.643
X40.261 Y69.485 Z-8.576
X40.222 Y69.467 Z-8.493
X40.209 Y69.46 Z-8.4
Z4 F1000
X64.228 Y62.16
Z0.315
S15000
X65.141 Z0.27 F300
G3 X65.141 Y62.46 I0 J0.15
G1 X62.591 Z0.143
G3 X62.591 Y62.16 I0 J-0.15
G1 X65.141 Z0.017
G3 X65.141 Y62.46 I0 J0.15
G1 X62.591 Z-0.11
G3 X62.591 Y62.16 I0 J-0.15
G1 X65.141 Z-0.237
G3 X65.141 Y62.46 I0 J0.15
G1 X63.866 Z-0.3
G3 X63.249 Y61.499 I0 J-0.678
G1 X63.494 Y60.965
G2 X62.261 Y60.4 I-0.617 J-0.282
X63.229 Y61.262 I0.617 J0.282
S500
X63.803 Y60.87 I-3.329 J-5.48 F1000
G3 X65.19 Y61.264 I0.547 J0.713
G1 X65.246 Y61.411
G3 X65.303 Y61.67 I-0.84 J0.319
G1 X65.319 Y61.913
G3 X65.297 Y62.179 I-0.897 J0.06
G1 X65.24 Y62.418
G3 X65.141 Y62.667 I-0.875 J-0.206
G1 X65.034 Y62.849
G3 X64.811 Y63.125 I-1.037 J-0.609
G1 X64.701 Y63.226
G3 X64.404 Y63.427 I-0.815 J-0.885
G1 X64.257 Y63.497
G3 X63.918 Y63.601 I-0.518 J-1.086
X63.406 Y63.656 I-0.899 J-6
X62.891 Y63.672 I-0.522 J-8.156
X62.221 Y63.373 I-0.001 J-0.899
G2 X59.263 Y62.117 I-2.819 J2.525
G3 X56.05 Y62.175 I-3.185 J-86.505
X56.05 Y61.634 I0 J-0.271
X59.24 Y61.773 I0.023 J36.096
G2 X62.427 Y61.587 I0.963 J-10.93
X63.156 Y61.306 I-0.484 J-2.339
G1 X63.229 Y61.262
G2 X63.778 Y59.803 I-0.656 J-1.079
G3 X64.701 Y58.546 I0.921 J-0.291
G1 X65.246 Y58.547
X65.273 Y58.56
X66.163 Y59.184
X66.183 Y59.205
X66.85 Y60.062
X66.855 Y60.072
X67.243 Y61.095
X67.252 Y61.147
X67.321 Y62.19
X67.316 Y62.241
X67.074 Y63.269
X67.048 Y63.328
X66.511 Y64.243
X66.459 Y64.299
X65.701 Y64.997
X65.673 Y65.015
X64.681 Y65.488
X63.594 Y65.651
X61.094 Y65.653
X61.093 Y65.575
X61.085 Y65.497
X61.057 Y65.328
X61.04 Y65.249
X61.014 Y65.172
X60.957 Y65.03
X60.927 Y64.964
X60.892 Y64.902
X60.819 Y64.789
X60.777 Y64.73
X60.73 Y64.676
X60.622 Y64.563
X60.569 Y64.513
X60.512 Y64.468
X60.402 Y64.391
X60.336 Y64.35
X60.266 Y64.316
X60.103 Y64.245
X60.022 Y64.216
X59.939 Y64.196
X59.777 Y64.167
X59.711 Y64.159
X59.645 Y64.156
X55.696 Y64.154
X54.937 Y64.04
X54.376 Y63.781
X53.881 Y63.346
X53.406 Y62.595
X53.35 Y62.518
X53.279 Y62.432
X53.239 Y62.387
X53.194 Y62.345
X53.094 Y62.258
X53.033 Y62.21
X52.968 Y62.169
X52.814 Y62.083
X52.736 Y62.045
X52.654 Y62.016
X52.492 Y61.969
X52.424 Y61.953
X52.356 Y61.944
X52.247 Y61.933
X52.177 Y61.93
X47.38 Y61.925
X47.266 Y61.903
X47.232 Y61.748
X47.227 Y40.873
X47.224 Y40.806
X47.215 Y40.74
X47.189 Y40.595
X47.173 Y40.526
X47.151 Y40.459
X47.103 Y40.333
X47.072 Y40.265
X47.036 Y40.2
X46.95 Y40.064
X46.908 Y40.005
X46.86 Y39.95
X46.77 Y39.855
X46.716 Y39.804
X46.658 Y39.758
X46.523 Y39.663
X46.456 Y39.621
X46.385 Y39.586
X46.247 Y39.528
X46.173 Y39.5
X46.096 Y39.481
X45.933 Y39.45
X45.862 Y39.44
X45.791 Y39.436
X25.906 Y39.429
X25.797 Y39.405
X25.905 Y39.38
X47.124 Y39.387
X47.249 Y39.411
X47.276 Y39.536
X47.282 Y60.414
X47.285 Y60.472
X47.291 Y60.529
X47.317 Y60.692
X47.335 Y60.775
X47.362 Y60.856
X47.427 Y61.019
X47.464 Y61.097
X47.509 Y61.17
X47.606 Y61.308
X47.656 Y61.372
X47.713 Y61.43
X47.827 Y61.534
X47.881 Y61.58
X47.939 Y61.62
X48.048 Y61.687
X48.113 Y61.723
X48.183 Y61.753
X48.345 Y61.813
X48.426 Y61.837
X48.509 Y61.853
X48.671 Y61.874
X48.768 Y61.88
X52.232 Y61.876
X52.308 Y61.872
X52.384 Y61.861
X52.546 Y61.827
X52.625 Y61.806
X52.702 Y61.776
X52.85 Y61.709
X52.919 Y61.673
X52.984 Y61.631
X53.104 Y61.543
X53.159 Y61.499
X53.21 Y61.449
X53.302 Y61.35
X53.347 Y61.297
X53.386 Y61.241
X53.887 Y60.454
X54.363 Y60.036
X54.957 Y59.762
X55.695 Y59.654
X61.702 Y59.651
X61.778 Y59.647
X61.854 Y59.635
X62.016 Y59.601
X62.099 Y59.579
X62.18 Y59.547
X62.342 Y59.472
X62.414 Y59.434
X62.481 Y59.388
X62.596 Y59.301
X62.65 Y59.255
X62.699 Y59.205
X62.791 Y59.103
X62.838 Y59.045
X62.88 Y58.981
X62.963 Y58.839
X63.002 Y58.764
X63.032 Y58.685
X63.076 Y58.544
X64.701 Y58.546
X64.748 Y58.554
X64.791 Y58.577
X64.824 Y58.612
X64.845 Y58.656
X64.85 Y58.704
X64.691 Y62.066
X64.69 Y62.225
X64.728 Y62.413
X64.726 Y62.435
X64.712 Y62.453
X64.69 Y62.46
S15000
X63.866 Z-0.6 F300
G3 X63.249 Y61.499 I0 J-0.678
G1 X63.494 Y60.965
G2 X62.261 Y60.4 I-0.617 J-0.282
X63.229 Y61.262 I0.617 J0.282
S500
X63.803 Y60.87 I-3.329 J-5.48 F1000
G3 X65.19 Y61.264 I0.547 J0.713
G1 X65.246 Y61.411
G3 X65.303 Y61.67 I-0.84 J0.319
G1 X65.319 Y61.913
G3 X65.297 Y62.179 I-0.897 J0.06
G1 X65.24 Y62.418
G3 X65.141 Y62.667 I-0.875 J-0.206
G1 X65.034 Y62.849
G3 X64.811 Y63.125 I-1.037 J-0.609
G1 X64.701 Y63.226
G3 X64.404 Y63.427 I-0.815 J-0.885
G1 X64.257 Y63.497
G3 X63.918 Y63.601 I-0.518 J-1.086
X63.406 Y63.656 I-0.899 J-6
X62.891 Y63.672 I-0.522 J-8.156
X62.221 Y63.373 I-0.001 J-0.899
G2 X59.263 Y62.117 I-2.819 J2.525
G3 X56.05 Y62.175 I-3.185 J-86.505
X56.05 Y61.634 I0 J-0.271
X59.24 Y61.773 I0.023 J36.096
G2 X62.427 Y61.587 I0.963 J-10.93
X63.156 Y61.306 I-0.484 J-2.339
G1 X63.229 Y61.262
G2 X63.778 Y59.803 I-0.656 J-1.079
G3 X64.701 Y58.546 I0.921 J-0.291
G1 X65.246 Y58.547
X65.273 Y58.56
X66.163 Y59.184
X66.183 Y59.205
X66.85 Y60.062
X66.855 Y60.072
X67.243 Y61.095
X67.252 Y61.147
X67.321 Y62.19
X67.316 Y62.241
X67.074 Y63.269
X67.048 Y63.328
X66.511 Y64.243
X66.459 Y64.299
X65.701 Y64.997
X65.673 Y65.015
X64.681 Y65.488
X63.594 Y65.651
X61.094 Y65.653
X61.093 Y65.575
X61.085 Y65.497
X61.057 Y65.328
X61.04 Y65.249
X61.014 Y65.172
X60.957 Y65.03
X60.927 Y64.964
X60.892 Y64.902
X60.819 Y64.789
X60.777 Y64.73
X60.73 Y64.676
X60.622 Y64.563
X60.569 Y64.513
X60.512 Y64.468
X60.402 Y64.391
X60.336 Y64.35
X60.266 Y64.316
X60.103 Y64.245
X60.022 Y64.216
X59.939 Y64.196
X59.777 Y64.167
X59.711 Y64.159
X59.645 Y64.156
X55.696 Y64.154
X54.937 Y64.04
X54.376 Y63.781
X53.881 Y63.346
X53.406 Y62.595
X53.35 Y62.518
X53.279 Y62.432
X53.239 Y62.387
X53.194 Y62.345
X53.094 Y62.258
X53.033 Y62.21
X52.968 Y62.169
X52.814 Y62.083
X52.736 Y62.045
X52.654 Y62.016
X52.492 Y61.969
X52.424 Y61.953
X52.356 Y61.944
X52.247 Y61.933
X52.177 Y61.93
X47.38 Y61.925
X47.266 Y61.903
X47.232 Y61.748
X47.227 Y40.873
X47.224 Y40.806
X47.215 Y40.74
X47.189 Y40.595
X47.173 Y40.526
X47.151 Y40.459
X47.103 Y40.333
X47.072 Y40.265
X47.036 Y40.2
X46.95 Y40.064
X46.908 Y40.005
X46.86 Y39.95
X46.77 Y39.855
X46.716 Y39.804
X46.658 Y39.758
X46.523 Y39.663
X46.456 Y39.621
X46.385 Y39.586
X46.247 Y39.528
X46.173 Y39.5
X46.096 Y39.481
X45.933 Y39.45
X45.862 Y39.44
X45.791 Y39.436
X25.906 Y39.429
X25.797 Y39.405
X25.905 Y39.38
X47.124 Y39.387
X47.249 Y39.411
X47.276 Y39.536
X47.282 Y60.414
X47.285 Y60.472
X47.291 Y60.529
X47.317 Y60.692
X47.335 Y60.775
X47.362 Y60.856
X47.427 Y61.019
X47.464 Y61.097
X47.509 Y61.17
X47.606 Y61.308
X47.656 Y61.372
X47.713 Y61.43
X47.827 Y61.534
X47.881 Y61.58
X47.939 Y61.62
X48.048 Y61.687
X48.113 Y61.723
X48.183 Y61.753
X48.345 Y61.813
X48.426 Y61.837
X48.509 Y61.853
X48.671 Y61.874
X48.768 Y61.88
X52.232 Y61.876
X52.308 Y61.872
X52.384 Y61.861
X52.546 Y61.827
X52.625 Y61.806
X52.702 Y61.776
X52.85 Y61.709
X52.919 Y61.673
X52.984 Y61.631
X53.104 Y61.543
X53.159 Y61.499
X53.21 Y61.449
X53.302 Y61.35
X53.347 Y61.297
X53.386 Y61.241
X53.887 Y60.454
X54.363 Y60.036
X54.957 Y59.762
X55.695 Y59.654
X61.702 Y59.651
X61.778 Y59.647
X61.854 Y59.635
X62.016 Y59.601
X62.099 Y59.579
X62.18 Y59.547
X62.342 Y59.472
X62.414 Y59.434
X62.481 Y59.388
X62.596 Y59.301
X62.65 Y59.255
X62.699 Y59.205
X62.791 Y59.103
X62.838 Y59.045
X62.88 Y58.981
X62.963 Y58.839
X63.002 Y58.764
X63.032 Y58.685
X63.076 Y58.544
X64.701 Y58.546
X64.748 Y58.554
X64.791 Y58.577
X64.824 Y58.612
X64.845 Y58.656
X64.85 Y58.704
X64.691 Y62.066
X64.69 Y62.225
X64.728 Y62.413
X64.726 Y62.435
X64.712 Y62.453
X64.69 Y62.46
S15000
X63.866 Z-0.9 F300
G3 X63.249 Y61.499 I0 J-0.678
G1 X63.494 Y60.965
G2 X62.261 Y60.4 I-0.617 J-0.282
X63.229 Y61.262 I0.617 J0.282
S500
X63.803 Y60.87 I-3.329 J-5.48 F1000
G3 X65.19 Y61.264 I0.547 J0.713
G1 X65.246 Y61.411
G3 X65.303 Y61.67 I-0.84 J0.319
G1 X65.319 Y61.913
G3 X65.297 Y62.179 I-0.897 J0.06
G1 X65.24 Y62.418
G3 X65.141 Y62.667 I-0.875 J-0.206
G1 X65.034 Y62.849
G3 X64.811 Y63.125 I-1.037 J-0.609
G1 X64.701 Y63.226
G3 X64.404 Y63.427 I-0.815 J-0.885
G1 X64.257 Y63.497
G3 X63.918 Y63.601 I-0.518 J-1.086
X63.406 Y63.656 I-0.899 J-6
X62.891 Y63.672 I-0.522 J-8.156
X62.221 Y63.373 I-0.001 J-0.899
G2 X59.263 Y62.117 I-2.819 J2.525
G3 X56.05 Y62.175 I-3.185 J-86.505
X56.05 Y61.634 I0 J-0.271
X59.24 Y61.773 I0.023 J36.096
G2 X62.427 Y61.587 I0.963 J-10.93
X63.156 Y61.306 I-0.484 J-2.339
G1 X63.229 Y61.262
G2 X63.778 Y59.803 I-0.656 J-1.079
G3 X64.701 Y58.546 I0.921 J-0.291
G1 X65.246 Y58.547
X65.273 Y58.56
X66.163 Y59.184
X66.183 Y59.205
X66.85 Y60.062
X66.855 Y60.072
X67.243 Y61.095
X67.252 Y61.147
X67.321 Y62.19
X67.316 Y62.241
X67.074 Y63.269
X67.048 Y63.328
X66.511 Y64.243
X66.459 Y64.299
X65.701 Y64.997
X65.673 Y65.015
X64.681 Y65.488
X63.594 Y65.651
X61.094 Y65.653
X61.093 Y65.575
X61.085 Y65.497
X61.057 Y65.328
X61.04 Y65.249
X61.014 Y65.172
X60.957 Y65.03
X60.927 Y64.964
X60.892 Y64.902
X60.819 Y64.789
X60.777 Y64.73
X60.73 Y64.676
X60.622 Y64.563
X60.569 Y64.513
X60.512 Y64.468
X60.402 Y64.391
X60.336 Y64.35
X60.266 Y64.316
X60.103 Y64.245
X60.022 Y64.216
X59.939 Y64.196
X59.777 Y64.167
X59.711 Y64.159
X59.645 Y64.156
X55.696 Y64.154
X54.937 Y64.04
X54.376 Y63.781
X53.881 Y63.346
X53.406 Y62.595
X53.35 Y62.518
X53.279 Y62.432
X53.239 Y62.387
X53.194 Y62.345
X53.094 Y62.258
X53.033 Y62.21
X52.968 Y62.169
X52.814 Y62.083
X52.736 Y62.045
X52.654 Y62.016
X52.492 Y61.969
X52.424 Y61.953
X52.356 Y61.944
X52.247 Y61.933
X52.177 Y61.93
X47.38 Y61.925
X47.266 Y61.903
X47.232 Y61.748
X47.227 Y40.873
X47.224 Y40.806
X47.215 Y40.74
X47.189 Y40.595
X47.173 Y40.526
X47.151 Y40.459
X47.103 Y40.333
X47.072 Y40.265
X47.036 Y40.2
X46.95 Y40.064
X46.908 Y40.005
X46.86 Y39.95
X46.77 Y39.855
X46.716 Y39.804
X46.658 Y39.758
X46.523 Y39.663
X46.456 Y39.621
X46.385 Y39.586
X46.247 Y39.528
X46.173 Y39.5
X46.096 Y39.481
X45.933 Y39.45
X45.862 Y39.44
X45.791 Y39.436
X25.906 Y39.429
X25.797 Y39.405
X25.905 Y39.38
X47.124 Y39.387
X47.249 Y39.411
X47.276 Y39.536
X47.282 Y60.414
X47.285 Y60.472
X47.291 Y60.529
X47.317 Y60.692
X47.335 Y60.775
X47.362 Y60.856
X47.427 Y61.019
X47.464 Y61.097
X47.509 Y61.17
X47.606 Y61.308
X47.656 Y61.372
X47.713 Y61.43
X47.827 Y61.534
X47.881 Y61.58
X47.939 Y61.62
X48.048 Y61.687
X48.113 Y61.723
X48.183 Y61.753
X48.345 Y61.813
X48.426 Y61.837
X48.509 Y61.853
X48.671 Y61.874
X48.768 Y61.88
X52.232 Y61.876
X52.308 Y61.872
X52.384 Y61.861
X52.546 Y61.827
X52.625 Y61.806
X52.702 Y61.776
X52.85 Y61.709
X52.919 Y61.673
X52.984 Y61.631
X53.104 Y61.543
X53.159 Y61.499
X53.21 Y61.449
X53.302 Y61.35
X53.347 Y61.297
X53.386 Y61.241
X53.887 Y60.454
X54.363 Y60.036
X54.957 Y59.762
X55.695 Y59.654
X61.702 Y59.651
X61.778 Y59.647
X61.854 Y59.635
X62.016 Y59.601
X62.099 Y59.579
X62.18 Y59.547
X62.342 Y59.472
X62.414 Y59.434
X62.481 Y59.388
X62.596 Y59.301
X62.65 Y59.255
X62.699 Y59.205
X62.791 Y59.103
X62.838 Y59.045
X62.88 Y58.981
X62.963 Y58.839
X63.002 Y58.764
X63.032 Y58.685
X63.076 Y58.544
X64.701 Y58.546
X64.748 Y58.554
X64.791 Y58.577
X64.824 Y58.612
X64.845 Y58.656
X64.85 Y58.704
X64.691 Y62.066
X64.69 Y62.225
X64.728 Y62.413
X64.726 Y62.435
X64.712 Y62.453
X64.69 Y62.46
S15000
X63.866 Z-1.2 F300
G3 X63.249 Y61.499 I0 J-0.678
G1 X63.494 Y60.965
G2 X62.261 Y60.4 I-0.617 J-0.282
X63.229 Y61.262 I0.617 J0.282
S500
X63.803 Y60.87 I-3.329 J-5.48 F1000
G3 X65.19 Y61.264 I0.547 J0.713
G1 X65.246 Y61.411
G3 X65.303 Y61.67 I-0.84 J0.319
G1 X65.319 Y61.913
G3 X65.297 Y62.179 I-0.897 J0.06
G1 X65.24 Y62.418
G3 X65.141 Y62.667 I-0.875 J-0.206
G1 X65.034 Y62.849
G3 X64.811 Y63.125 I-1.037 J-0.609
G1 X64.701 Y63.226
G3 X64.404 Y63.427 I-0.815 J-0.885
G1 X64.257 Y63.497
G3 X63.918 Y63.601 I-0.518 J-1.086
X63.406 Y63.656 I-0.899 J-6
X62.891 Y63.672 I-0.522 J-8.156
X62.221 Y63.373 I-0.001 J-0.899
G2 X59.263 Y62.117 I-2.819 J2.525
G3 X56.05 Y62.175 I-3.185 J-86.505
X56.05 Y61.634 I0 J-0.271
X59.24 Y61.773 I0.023 J36.096
G2 X62.427 Y61.587 I0.963 J-10.93
X63.156 Y61.306 I-0.484 J-2.339
G1 X63.229 Y61.262
G2 X63.778 Y59.803 I-0.656 J-1.079
G3 X64.701 Y58.546 I0.921 J-0.291
G1 X65.246 Y58.547
X65.273 Y58.56
X66.163 Y59.184
X66.183 Y59.205
X66.85 Y60.062
X66.855 Y60.072
X67.243 Y61.095
X67.252 Y61.147
X67.321 Y62.19
X67.316 Y62.241
X67.074 Y63.269
X67.048 Y63.328
X66.511 Y64.243
X66.459 Y64.299
X65.701 Y64.997
X65.673 Y65.015
X64.681 Y65.488
X63.594 Y65.651
X61.094 Y65.653
X61.093 Y65.575
X61.085 Y65.497
X61.057 Y65.328
X61.04 Y65.249
X61.014 Y65.172
X60.957 Y65.03
X60.927 Y64.964
X60.892 Y64.902
X60.819 Y64.789
X60.777 Y64.73
X60.73 Y64.676
X60.622 Y64.563
X60.569 Y64.513
X60.512 Y64.468
X60.402 Y64.391
X60.336 Y64.35
X60.266 Y64.316
X60.103 Y64.245
X60.022 Y64.216
X59.939 Y64.196
X59.777 Y64.167
X59.711 Y64.159
X59.645 Y64.156
X55.696 Y64.154
X54.937 Y64.04
X54.376 Y63.781
X53.881 Y63.346
X53.406 Y62.595
X53.35 Y62.518
X53.279 Y62.432
X53.239 Y62.387
X53.194 Y62.345
X53.094 Y62.258
X53.033 Y62.21
X52.968 Y62.169
X52.814 Y62.083
X52.736 Y62.045
X52.654 Y62.016
X52.492 Y61.969
X52.424 Y61.953
X52.356 Y61.944
X52.247 Y61.933
X52.177 Y61.93
X47.38 Y61.925
X47.266 Y61.903
X47.232 Y61.748
X47.227 Y40.873
X47.224 Y40.806
X47.215 Y40.74
X47.189 Y40.595
X47.173 Y40.526
X47.151 Y40.459
X47.103 Y40.333
X47.072 Y40.265
X47.036 Y40.2
X46.95 Y40.064
X46.908 Y40.005
X46.86 Y39.95
X46.77 Y39.855
X46.716 Y39.804
X46.658 Y39.758
X46.523 Y39.663
X46.456 Y39.621
X46.385 Y39.586
X46.247 Y39.528
X46.173 Y39.5
X46.096 Y39.481
X45.933 Y39.45
X45.862 Y39.44
X45.791 Y39.436
X25.906 Y39.429
X25.797 Y39.405
X25.905 Y39.38
X47.124 Y39.387
X47.249 Y39.411
X47.276 Y39.536
X47.282 Y60.414
X47.285 Y60.472
X47.291 Y60.529
X47.317 Y60.692
X47.335 Y60.775
X47.362 Y60.856
X47.427 Y61.019
X47.464 Y61.097
X47.509 Y61.17
X47.606 Y61.308
X47.656 Y61.372
X47.713 Y61.43
X47.827 Y61.534
X47.881 Y61.58
X47.939 Y61.62
X48.048 Y61.687
X48.113 Y61.723
X48.183 Y61.753
X48.345 Y61.813
X48.426 Y61.837
X48.509 Y61.853
X48.671 Y61.874
X48.768 Y61.88
X52.232 Y61.876
X52.308 Y61.872
X52.384 Y61.861
X52.546 Y61.827
X52.625 Y61.806
X52.702 Y61.776
X52.85 Y61.709
X52.919 Y61.673
X52.984 Y61.631
X53.104 Y61.543
X53.159 Y61.499
X53.21 Y61.449
X53.302 Y61.35
X53.347 Y61.297
X53.386 Y61.241
X53.887 Y60.454
X54.363 Y60.036
X54.957 Y59.762
X55.695 Y59.654
X61.702 Y59.651
X61.778 Y59.647
X61.854 Y59.635
X62.016 Y59.601
X62.099 Y59.579
X62.18 Y59.547
X62.342 Y59.472
X62.414 Y59.434
X62.481 Y59.388
X62.596 Y59.301
X62.65 Y59.255
X62.699 Y59.205
X62.791 Y59.103
X62.838 Y59.045
X62.88 Y58.981
X62.963 Y58.839
X63.002 Y58.764
X63.032 Y58.685
X63.076 Y58.544
X64.701 Y58.546
X64.748 Y58.554
X64.791 Y58.577
X64.824 Y58.612
X64.845 Y58.656
X64.85 Y58.704
X64.691 Y62.066
X64.69 Y62.225
X64.728 Y62.413
X64.726 Y62.435
X64.712 Y62.453
X64.69 Y62.46
S15000
X63.866 Z-1.5 F300
G3 X63.249 Y61.499 I0 J-0.678
G1 X63.494 Y60.965
G2 X62.261 Y60.4 I-0.617 J-0.282
X63.229 Y61.262 I0.617 J0.282
S500
X63.803 Y60.87 I-3.329 J-5.48 F1000
G3 X65.19 Y61.264 I0.547 J0.713
G1 X65.246 Y61.411
G3 X65.303 Y61.67 I-0.84 J0.319
G1 X65.319 Y61.913
G3 X65.297 Y62.179 I-0.897 J0.06
G1 X65.24 Y62.418
G3 X65.141 Y62.667 I-0.875 J-0.206
G1 X65.034 Y62.849
G3 X64.811 Y63.125 I-1.037 J-0.609
G1 X64.701 Y63.226
G3 X64.404 Y63.427 I-0.815 J-0.885
G1 X64.257 Y63.497
G3 X63.918 Y63.601 I-0.518 J-1.086
X63.406 Y63.656 I-0.899 J-6
X62.891 Y63.672 I-0.522 J-8.156
X62.221 Y63.373 I-0.001 J-0.899
G2 X59.263 Y62.117 I-2.819 J2.525
G3 X56.05 Y62.175 I-3.185 J-86.505
X56.05 Y61.634 I0 J-0.271
X59.24 Y61.773 I0.023 J36.096
G2 X62.427 Y61.587 I0.963 J-10.93
X63.156 Y61.306 I-0.484 J-2.339
G1 X63.229 Y61.262
G2 X63.778 Y59.803 I-0.656 J-1.079
G3 X64.701 Y58.546 I0.921 J-0.291
G1 X65.246 Y58.547
X65.273 Y58.56
X66.163 Y59.184
X66.183 Y59.205
X66.85 Y60.062
X66.855 Y60.072
X67.243 Y61.095
X67.252 Y61.147
X67.321 Y62.19
X67.316 Y62.241
X67.074 Y63.269
X67.048 Y63.328
X66.511 Y64.243
X66.459 Y64.299
X65.701 Y64.997
X65.673 Y65.015
X64.681 Y65.488
X63.594 Y65.651
X61.094 Y65.653
X61.093 Y65.575
X61.085 Y65.497
X61.057 Y65.328
X61.04 Y65.249
X61.014 Y65.172
X60.957 Y65.03
X60.927 Y64.964
X60.892 Y64.902
X60.819 Y64.789
X60.777 Y64.73
X60.73 Y64.676
X60.622 Y64.563
X60.569 Y64.513
X60.512 Y64.468
X60.402 Y64.391
X60.336 Y64.35
X60.266 Y64.316
X60.103 Y64.245
X60.022 Y64.216
X59.939 Y64.196
X59.777 Y64.167
X59.711 Y64.159
X59.645 Y64.156
X55.696 Y64.154
X54.937 Y64.04
X54.376 Y63.781
X53.881 Y63.346
X53.406 Y62.595
X53.35 Y62.518
X53.279 Y62.432
X53.239 Y62.387
X53.194 Y62.345
X53.094 Y62.258
X53.033 Y62.21
X52.968 Y62.169
X52.814 Y62.083
X52.736 Y62.045
X52.654 Y62.016
X52.492 Y61.969
X52.424 Y61.953
X52.356 Y61.944
X52.247 Y61.933
X52.177 Y61.93
X47.38 Y61.925
X47.266 Y61.903
X47.232 Y61.748
X47.227 Y40.873
X47.224 Y40.806
X47.215 Y40.74
X47.189 Y40.595
X47.173 Y40.526
X47.151 Y40.459
X47.103 Y40.333
X47.072 Y40.265
X47.036 Y40.2
X46.95 Y40.064
X46.908 Y40.005
X46.86 Y39.95
X46.77 Y39.855
X46.716 Y39.804
X46.658 Y39.758
X46.523 Y39.663
X46.456 Y39.621
X46.385 Y39.586
X46.247 Y39.528
X46.173 Y39.5
X46.096 Y39.481
X45.933 Y39.45
X45.862 Y39.44
X45.791 Y39.436
X25.906 Y39.429
X25.797 Y39.405
X25.905 Y39.38
X47.124 Y39.387
X47.249 Y39.411
X47.276 Y39.536
X47.282 Y60.414
X47.285 Y60.472
X47.291 Y60.529
X47.317 Y60.692
X47.335 Y60.775
X47.362 Y60.856
X47.427 Y61.019
X47.464 Y61.097
X47.509 Y61.17
X47.606 Y61.308
X47.656 Y61.372
X47.713 Y61.43
X47.827 Y61.534
X47.881 Y61.58
X47.939 Y61.62
X48.048 Y61.687
X48.113 Y61.723
X48.183 Y61.753
X48.345 Y61.813
X48.426 Y61.837
X48.509 Y61.853
X48.671 Y61.874
X48.768 Y61.88
X52.232 Y61.876
X52.308 Y61.872
X52.384 Y61.861
X52.546 Y61.827
X52.625 Y61.806
X52.702 Y61.776
X52.85 Y61.709
X52.919 Y61.673
X52.984 Y61.631
X53.104 Y61.543
X53.159 Y61.499
X53.21 Y61.449
X53.302 Y61.35
X53.347 Y61.297
X53.386 Y61.241
X53.887 Y60.454
X54.363 Y60.036
X54.957 Y59.762
X55.695 Y59.654
X61.702 Y59.651
X61.778 Y59.647
X61.854 Y59.635
X62.016 Y59.601
X62.099 Y59.579
X62.18 Y59.547
X62.342 Y59.472
X62.414 Y59.434
X62.481 Y59.388
X62.596 Y59.301
X62.65 Y59.255
X62.699 Y59.205
X62.791 Y59.103
X62.838 Y59.045
X62.88 Y58.981
X62.963 Y58.839
X63.002 Y58.764
X63.032 Y58.685
X63.076 Y58.544
X64.701 Y58.546
X64.748 Y58.554
X64.791 Y58.577
X64.824 Y58.612
X64.845 Y58.656
X64.85 Y58.704
X64.691 Y62.066
X64.69 Y62.225
X64.728 Y62.413
X64.726 Y62.435
X64.712 Y62.453
X64.69 Y62.46
S15000
X63.866 Z-1.8 F300
G3 X63.249 Y61.499 I0 J-0.678
G1 X63.494 Y60.965
G2 X62.261 Y60.4 I-0.617 J-0.282
X63.229 Y61.262 I0.617 J0.282
S500
X63.803 Y60.87 I-3.329 J-5.48 F1000
G3 X65.19 Y61.264 I0.547 J0.713
G1 X65.246 Y61.411
G3 X65.303 Y61.67 I-0.84 J0.319
G1 X65.319 Y61.913
G3 X65.297 Y62.179 I-0.897 J0.06
G1 X65.24 Y62.418
G3 X65.141 Y62.667 I-0.875 J-0.206
G1 X65.034 Y62.849
G3 X64.811 Y63.125 I-1.037 J-0.609
G1 X64.701 Y63.226
G3 X64.404 Y63.427 I-0.815 J-0.885
G1 X64.257 Y63.497
G3 X63.918 Y63.601 I-0.518 J-1.086
X63.406 Y63.656 I-0.899 J-6
X62.891 Y63.672 I-0.522 J-8.156
X62.221 Y63.373 I-0.001 J-0.899
G2 X59.263 Y62.117 I-2.819 J2.525
G3 X56.05 Y62.175 I-3.185 J-86.505
X56.05 Y61.634 I0 J-0.271
X59.24 Y61.773 I0.023 J36.096
G2 X62.427 Y61.587 I0.963 J-10.93
X63.156 Y61.306 I-0.484 J-2.339
G1 X63.229 Y61.262
G2 X63.778 Y59.803 I-0.656 J-1.079
G3 X64.701 Y58.546 I0.921 J-0.291
G1 X65.246 Y58.547
X65.273 Y58.56
X66.163 Y59.184
X66.183 Y59.205
X66.85 Y60.062
X66.855 Y60.072
X67.243 Y61.095
X67.252 Y61.147
X67.321 Y62.19
X67.316 Y62.241
X67.074 Y63.269
X67.048 Y63.328
X66.511 Y64.243
X66.459 Y64.299
X65.701 Y64.997
X65.673 Y65.015
X64.681 Y65.488
X63.594 Y65.651
X61.094 Y65.653
X61.093 Y65.575
X61.085 Y65.497
X61.057 Y65.328
X61.04 Y65.249
X61.014 Y65.172
X60.957 Y65.03
X60.927 Y64.964
X60.892 Y64.902
X60.819 Y64.789
X60.777 Y64.73
X60.73 Y64.676
X60.622 Y64.563
X60.569 Y64.513
X60.512 Y64.468
X60.402 Y64.391
X60.336 Y64.35
X60.266 Y64.316
X60.103 Y64.245
X60.022 Y64.216
X59.939 Y64.196
X59.777 Y64.167
X59.711 Y64.159
X59.645 Y64.156
X55.696 Y64.154
X54.937 Y64.04
X54.376 Y63.781
X53.881 Y63.346
X53.406 Y62.595
X53.35 Y62.518
X53.279 Y62.432
X53.239 Y62.387
X53.194 Y62.345
X53.094 Y62.258
X53.033 Y62.21
X52.968 Y62.169
X52.814 Y62.083
X52.736 Y62.045
X52.654 Y62.016
X52.492 Y61.969
X52.424 Y61.953
X52.356 Y61.944
X52.247 Y61.933
X52.177 Y61.93
X47.38 Y61.925
X47.266 Y61.903
X47.232 Y61.748
X47.227 Y40.873
X47.224 Y40.806
X47.215 Y40.74
X47.189 Y40.595
X47.173 Y40.526
X47.151 Y40.459
X47.103 Y40.333
X47.072 Y40.265
X47.036 Y40.2
X46.95 Y40.064
X46.908 Y40.005
X46.86 Y39.95
X46.77 Y39.855
X46.716 Y39.804
X46.658 Y39.758
X46.523 Y39.663
X46.456 Y39.621
X46.385 Y39.586
X46.247 Y39.528
X46.173 Y39.5
X46.096 Y39.481
X45.933 Y39.45
X45.862 Y39.44
X45.791 Y39.436
X25.906 Y39.429
X25.797 Y39.405
X25.905 Y39.38
X47.124 Y39.387
X47.249 Y39.411
X47.276 Y39.536
X47.282 Y60.414
X47.285 Y60.472
X47.291 Y60.529
X47.317 Y60.692
X47.335 Y60.775
X47.362 Y60.856
X47.427 Y61.019
X47.464 Y61.097
X47.509 Y61.17
X47.606 Y61.308
X47.656 Y61.372
X47.713 Y61.43
X47.827 Y61.534
X47.881 Y61.58
X47.939 Y61.62
X48.048 Y61.687
X48.113 Y61.723
X48.183 Y61.753
X48.345 Y61.813
X48.426 Y61.837
X48.509 Y61.853
X48.671 Y61.874
X48.768 Y61.88
X52.232 Y61.876
X52.308 Y61.872
X52.384 Y61.861
X52.546 Y61.827
X52.625 Y61.806
X52.702 Y61.776
X52.85 Y61.709
X52.919 Y61.673
X52.984 Y61.631
X53.104 Y61.543
X53.159 Y61.499
X53.21 Y61.449
X53.302 Y61.35
X53.347 Y61.297
X53.386 Y61.241
X53.887 Y60.454
X54.363 Y60.036
X54.957 Y59.762
X55.695 Y59.654
X61.702 Y59.651
X61.778 Y59.647
X61.854 Y59.635
X62.016 Y59.601
X62.099 Y59.579
X62.18 Y59.547
X62.342 Y59.472
X62.414 Y59.434
X62.481 Y59.388
X62.596 Y59.301
X62.65 Y59.255
X62.699 Y59.205
X62.791 Y59.103
X62.838 Y59.045
X62.88 Y58.981
X62.963 Y58.839
X63.002 Y58.764
X63.032 Y58.685
X63.076 Y58.544
X64.701 Y58.546
X64.748 Y58.554
X64.791 Y58.577
X64.824 Y58.612
X64.845 Y58.656
X64.85 Y58.704
X64.691 Y62.066
X64.69 Y62.225
X64.728 Y62.413
X64.726 Y62.435
X64.712 Y62.453
X64.69 Y62.46
S15000
X63.866 Z-2.1 F300
G3 X63.249 Y61.499 I0 J-0.678
G1 X63.494 Y60.965
G2 X62.261 Y60.4 I-0.617 J-0.282
X63.229 Y61.262 I0.617 J0.282
S500
X63.803 Y60.87 I-3.329 J-5.48 F1000
G3 X65.19 Y61.264 I0.547 J0.713
G1 X65.246 Y61.411
G3 X65.303 Y61.67 I-0.84 J0.319
G1 X65.319 Y61.913
G3 X65.297 Y62.179 I-0.897 J0.06
G1 X65.24 Y62.418
G3 X65.141 Y62.667 I-0.875 J-0.206
G1 X65.034 Y62.849
G3 X64.811 Y63.125 I-1.037 J-0.609
G1 X64.701 Y63.226
G3 X64.404 Y63.427 I-0.815 J-0.885
G1 X64.257 Y63.497
G3 X63.918 Y63.601 I-0.518 J-1.086
X63.406 Y63.656 I-0.899 J-6
X62.891 Y63.672 I-0.522 J-8.156
X62.221 Y63.373 I-0.001 J-0.899
G2 X59.263 Y62.117 I-2.819 J2.525
G3 X56.05 Y62.175 I-3.185 J-86.505
X56.05 Y61.634 I0 J-0.271
X59.24 Y61.773 I0.023 J36.096
G2 X62.427 Y61.587 I0.963 J-10.93
X63.156 Y61.306 I-0.484 J-2.339
G1 X63.229 Y61.262
G2 X63.778 Y59.803 I-0.656 J-1.079
G3 X64.701 Y58.546 I0.921 J-0.291
G1 X65.246 Y58.547
X65.273 Y58.56
X66.163 Y59.184
X66.183 Y59.205
X66.85 Y60.062
X66.855 Y60.072
X67.243 Y61.095
X67.252 Y61.147
X67.321 Y62.19
X67.316 Y62.241
X67.074 Y63.269
X67.048 Y63.328
X66.511 Y64.243
X66.459 Y64.299
X65.701 Y64.997
X65.673 Y65.015
X64.681 Y65.488
X63.594 Y65.651
X61.094 Y65.653
X61.093 Y65.575
X61.085 Y65.497
X61.057 Y65.328
X61.04 Y65.249
X61.014 Y65.172
X60.957 Y65.03
X60.927 Y64.964
X60.892 Y64.902
X60.819 Y64.789
X60.777 Y64.73
X60.73 Y64.676
X60.622 Y64.563
X60.569 Y64.513
X60.512 Y64.468
X60.402 Y64.391
X60.336 Y64.35
X60.266 Y64.316
X60.103 Y64.245
X60.022 Y64.216
X59.939 Y64.196
X59.777 Y64.167
X59.711 Y64.159
X59.645 Y64.156
X55.696 Y64.154
X54.937 Y64.04
X54.376 Y63.781
X53.881 Y63.346
X53.406 Y62.595
X53.35 Y62.518
X53.279 Y62.432
X53.239 Y62.387
X53.194 Y62.345
X53.094 Y62.258
X53.033 Y62.21
X52.968 Y62.169
X52.814 Y62.083
X52.736 Y62.045
X52.654 Y62.016
X52.492 Y61.969
X52.424 Y61.953
X52.356 Y61.944
X52.247 Y61.933
X52.177 Y61.93
X47.38 Y61.925
X47.266 Y61.903
X47.232 Y61.748
X47.227 Y40.873
X47.224 Y40.806
X47.215 Y40.74
X47.189 Y40.595
X47.173 Y40.526
X47.151 Y40.459
X47.103 Y40.333
X47.072 Y40.265
X47.036 Y40.2
X46.95 Y40.064
X46.908 Y40.005
X46.86 Y39.95
X46.77 Y39.855
X46.716 Y39.804
X46.658 Y39.758
X46.523 Y39.663
X46.456 Y39.621
X46.385 Y39.586
X46.247 Y39.528
X46.173 Y39.5
X46.096 Y39.481
X45.933 Y39.45
X45.862 Y39.44
X45.791 Y39.436
X25.906 Y39.429
X25.797 Y39.405
X25.905 Y39.38
X47.124 Y39.387
X47.249 Y39.411
X47.276 Y39.536
X47.282 Y60.414
X47.285 Y60.472
X47.291 Y60.529
X47.317 Y60.692
X47.335 Y60.775
X47.362 Y60.856
X47.427 Y61.019
X47.464 Y61.097
X47.509 Y61.17
X47.606 Y61.308
X47.656 Y61.372
X47.713 Y61.43
X47.827 Y61.534
X47.881 Y61.58
X47.939 Y61.62
X48.048 Y61.687
X48.113 Y61.723
X48.183 Y61.753
X48.345 Y61.813
X48.426 Y61.837
X48.509 Y61.853
X48.671 Y61.874
X48.768 Y61.88
X52.232 Y61.876
X52.308 Y61.872
X52.384 Y61.861
X52.546 Y61.827
X52.625 Y61.806
X52.702 Y61.776
X52.85 Y61.709
X52.919 Y61.673
X52.984 Y61.631
X53.104 Y61.543
X53.159 Y61.499
X53.21 Y61.449
X53.302 Y61.35
X53.347 Y61.297
X53.386 Y61.241
X53.887 Y60.454
X54.363 Y60.036
X54.957 Y59.762
X55.695 Y59.654
X61.702 Y59.651
X61.778 Y59.647
X61.854 Y59.635
X62.016 Y59.601
X62.099 Y59.579
X62.18 Y59.547
X62.342 Y59.472
X62.414 Y59.434
X62.481 Y59.388
X62.596 Y59.301
X62.65 Y59.255
X62.699 Y59.205
X62.791 Y59.103
X62.838 Y59.045
X62.88 Y58.981
X62.963 Y58.839
X63.002 Y58.764
X63.032 Y58.685
X63.076 Y58.544
X64.701 Y58.546
X64.748 Y58.554
X64.791 Y58.577
X64.824 Y58.612
X64.845 Y58.656
X64.85 Y58.704
X64.691 Y62.066
X64.69 Y62.225
X64.728 Y62.413
X64.726 Y62.435
X64.712 Y62.453
X64.69 Y62.46
S15000
X63.866 Z-2.4 F300
G3 X63.249 Y61.499 I0 J-0.678
G1 X63.494 Y60.965
G2 X62.261 Y60.4 I-0.617 J-0.282
X63.229 Y61.262 I0.617 J0.282
S500
X63.803 Y60.87 I-3.329 J-5.48 F1000
G3 X65.19 Y61.264 I0.547 J0.713
G1 X65.246 Y61.411
G3 X65.303 Y61.67 I-0.84 J0.319
G1 X65.319 Y61.913
G3 X65.297 Y62.179 I-0.897 J0.06
G1 X65.24 Y62.418
G3 X65.141 Y62.667 I-0.875 J-0.206
G1 X65.034 Y62.849
G3 X64.811 Y63.125 I-1.037 J-0.609
G1 X64.701 Y63.226
G3 X64.404 Y63.427 I-0.815 J-0.885
G1 X64.257 Y63.497
G3 X63.918 Y63.601 I-0.518 J-1.086
X63.406 Y63.656 I-0.899 J-6
X62.891 Y63.672 I-0.522 J-8.156
X62.221 Y63.373 I-0.001 J-0.899
G2 X59.263 Y62.117 I-2.819 J2.525
G3 X56.05 Y62.175 I-3.185 J-86.505
X56.05 Y61.634 I0 J-0.271
X59.24 Y61.773 I0.023 J36.096
G2 X62.427 Y61.587 I0.963 J-10.93
X63.156 Y61.306 I-0.484 J-2.339
G1 X63.229 Y61.262
G2 X63.778 Y59.803 I-0.656 J-1.079
G3 X64.701 Y58.546 I0.921 J-0.291
G1 X65.246 Y58.547
X65.273 Y58.56
X66.163 Y59.184
X66.183 Y59.205
X66.85 Y60.062
X66.855 Y60.072
X67.243 Y61.095
X67.252 Y61.147
X67.321 Y62.19
X67.316 Y62.241
X67.074 Y63.269
X67.048 Y63.328
X66.511 Y64.243
X66.459 Y64.299
X65.701 Y64.997
X65.673 Y65.015
X64.681 Y65.488
X63.594 Y65.651
X61.094 Y65.653
X61.093 Y65.575
X61.085 Y65.497
X61.057 Y65.328
X61.04 Y65.249
X61.014 Y65.172
X60.957 Y65.03
X60.927 Y64.964
X60.892 Y64.902
X60.819 Y64.789
X60.777 Y64.73
X60.73 Y64.676
X60.622 Y64.563
X60.569 Y64.513
X60.512 Y64.468
X60.402 Y64.391
X60.336 Y64.35
X60.266 Y64.316
X60.103 Y64.245
X60.022 Y64.216
X59.939 Y64.196
X59.777 Y64.167
X59.711 Y64.159
X59.645 Y64.156
X55.696 Y64.154
X54.937 Y64.04
X54.376 Y63.781
X53.881 Y63.346
X53.406 Y62.595
X53.35 Y62.518
X53.279 Y62.432
X53.239 Y62.387
X53.194 Y62.345
X53.094 Y62.258
X53.033 Y62.21
X52.968 Y62.169
X52.814 Y62.083
X52.736 Y62.045
X52.654 Y62.016
X52.492 Y61.969
X52.424 Y61.953
X52.356 Y61.944
X52.247 Y61.933
X52.177 Y61.93
X47.38 Y61.925
X47.266 Y61.903
X47.232 Y61.748
X47.227 Y40.873
X47.224 Y40.806
X47.215 Y40.74
X47.189 Y40.595
X47.173 Y40.526
X47.151 Y40.459
X47.103 Y40.333
X47.072 Y40.265
X47.036 Y40.2
X46.95 Y40.064
X46.908 Y40.005
X46.86 Y39.95
X46.77 Y39.855
X46.716 Y39.804
X46.658 Y39.758
X46.523 Y39.663
X46.456 Y39.621
X46.385 Y39.586
X46.247 Y39.528
X46.173 Y39.5
X46.096 Y39.481
X45.933 Y39.45
X45.862 Y39.44
X45.791 Y39.436
X25.906 Y39.429
X25.797 Y39.405
X25.905 Y39.38
X47.124 Y39.387
X47.249 Y39.411
X47.276 Y39.536
X47.282 Y60.414
X47.285 Y60.472
X47.291 Y60.529
X47.317 Y60.692
X47.335 Y60.775
X47.362 Y60.856
X47.427 Y61.019
X47.464 Y61.097
X47.509 Y61.17
X47.606 Y61.308
X47.656 Y61.372
X47.713 Y61.43
X47.827 Y61.534
X47.881 Y61.58
X47.939 Y61.62
X48.048 Y61.687
X48.113 Y61.723
X48.183 Y61.753
X48.345 Y61.813
X48.426 Y61.837
X48.509 Y61.853
X48.671 Y61.874
X48.768 Y61.88
X52.232 Y61.876
X52.308 Y61.872
X52.384 Y61.861
X52.546 Y61.827
X52.625 Y61.806
X52.702 Y61.776
X52.85 Y61.709
X52.919 Y61.673
X52.984 Y61.631
X53.104 Y61.543
X53.159 Y61.499
X53.21 Y61.449
X53.302 Y61.35
X53.347 Y61.297
X53.386 Y61.241
X53.887 Y60.454
X54.363 Y60.036
X54.957 Y59.762
X55.695 Y59.654
X61.702 Y59.651
X61.778 Y59.647
X61.854 Y59.635
X62.016 Y59.601
X62.099 Y59.579
X62.18 Y59.547
X62.342 Y59.472
X62.414 Y59.434
X62.481 Y59.388
X62.596 Y59.301
X62.65 Y59.255
X62.699 Y59.205
X62.791 Y59.103
X62.838 Y59.045
X62.88 Y58.981
X62.963 Y58.839
X63.002 Y58.764
X63.032 Y58.685
X63.076 Y58.544
X64.701 Y58.546
X64.748 Y58.554
X64.791 Y58.577
X64.824 Y58.612
X64.845 Y58.656
X64.85 Y58.704
X64.691 Y62.066
X64.69 Y62.225
X64.728 Y62.413
X64.726 Y62.435
X64.712 Y62.453
X64.69 Y62.46
S15000
X63.866 Z-2.7 F300
G3 X63.249 Y61.499 I0 J-0.678
G1 X63.494 Y60.965
G2 X62.261 Y60.4 I-0.617 J-0.282
X63.229 Y61.262 I0.617 J0.282
S500
X63.803 Y60.87 I-3.329 J-5.48 F1000
G3 X65.19 Y61.264 I0.547 J0.713
G1 X65.246 Y61.411
G3 X65.303 Y61.67 I-0.84 J0.319
G1 X65.319 Y61.913
G3 X65.297 Y62.179 I-0.897 J0.06
G1 X65.24 Y62.418
G3 X65.141 Y62.667 I-0.875 J-0.206
G1 X65.034 Y62.849
G3 X64.811 Y63.125 I-1.037 J-0.609
G1 X64.701 Y63.226
G3 X64.404 Y63.427 I-0.815 J-0.885
G1 X64.257 Y63.497
G3 X63.918 Y63.601 I-0.518 J-1.086
X63.406 Y63.656 I-0.899 J-6
X62.891 Y63.672 I-0.522 J-8.156
X62.221 Y63.373 I-0.001 J-0.899
G2 X59.263 Y62.117 I-2.819 J2.525
G3 X56.05 Y62.175 I-3.185 J-86.505
X56.05 Y61.634 I0 J-0.271
X59.24 Y61.773 I0.023 J36.096
G2 X62.427 Y61.587 I0.963 J-10.93
X63.156 Y61.306 I-0.484 J-2.339
G1 X63.229 Y61.262
G2 X63.778 Y59.803 I-0.656 J-1.079
G3 X64.701 Y58.546 I0.921 J-0.291
G1 X65.246 Y58.547
X65.273 Y58.56
X66.163 Y59.184
X66.183 Y59.205
X66.85 Y60.062
X66.855 Y60.072
X67.243 Y61.095
X67.252 Y61.147
X67.321 Y62.19
X67.316 Y62.241
X67.074 Y63.269
X67.048 Y63.328
X66.511 Y64.243
X66.459 Y64.299
X65.701 Y64.997
X65.673 Y65.015
X64.681 Y65.488
X63.594 Y65.651
X61.094 Y65.653
X61.093 Y65.575
X61.085 Y65.497
X61.057 Y65.328
X61.04 Y65.249
X61.014 Y65.172
X60.957 Y65.03
X60.927 Y64.964
X60.892 Y64.902
X60.819 Y64.789
X60.777 Y64.73
X60.73 Y64.676
X60.622 Y64.563
X60.569 Y64.513
X60.512 Y64.468
X60.402 Y64.391
X60.336 Y64.35
X60.266 Y64.316
X60.103 Y64.245
X60.022 Y64.216
X59.939 Y64.196
X59.777 Y64.167
X59.711 Y64.159
X59.645 Y64.156
X55.696 Y64.154
X54.937 Y64.04
X54.376 Y63.781
X53.881 Y63.346
X53.406 Y62.595
X53.35 Y62.518
X53.279 Y62.432
X53.239 Y62.387
X53.194 Y62.345
X53.094 Y62.258
X53.033 Y62.21
X52.968 Y62.169
X52.814 Y62.083
X52.736 Y62.045
X52.654 Y62.016
X52.492 Y61.969
X52.424 Y61.953
X52.356 Y61.944
X52.247 Y61.933
X52.177 Y61.93
X47.38 Y61.925
X47.266 Y61.903
X47.232 Y61.748
X47.227 Y40.873
X47.224 Y40.806
X47.215 Y40.74
X47.189 Y40.595
X47.173 Y40.526
X47.151 Y40.459
X47.103 Y40.333
X47.072 Y40.265
X47.036 Y40.2
X46.95 Y40.064
X46.908 Y40.005
X46.86 Y39.95
X46.77 Y39.855
X46.716 Y39.804
X46.658 Y39.758
X46.523 Y39.663
X46.456 Y39.621
X46.385 Y39.586
X46.247 Y39.528
X46.173 Y39.5
X46.096 Y39.481
X45.933 Y39.45
X45.862 Y39.44
X45.791 Y39.436
X25.906 Y39.429
X25.797 Y39.405
X25.905 Y39.38
X47.124 Y39.387
X47.249 Y39.411
X47.276 Y39.536
X47.282 Y60.414
X47.285 Y60.472
X47.291 Y60.529
X47.317 Y60.692
X47.335 Y60.775
X47.362 Y60.856
X47.427 Y61.019
X47.464 Y61.097
X47.509 Y61.17
X47.606 Y61.308
X47.656 Y61.372
X47.713 Y61.43
X47.827 Y61.534
X47.881 Y61.58
X47.939 Y61.62
X48.048 Y61.687
X48.113 Y61.723
X48.183 Y61.753
X48.345 Y61.813
X48.426 Y61.837
X48.509 Y61.853
X48.671 Y61.874
X48.768 Y61.88
X52.232 Y61.876
X52.308 Y61.872
X52.384 Y61.861
X52.546 Y61.827
X52.625 Y61.806
X52.702 Y61.776
X52.85 Y61.709
X52.919 Y61.673
X52.984 Y61.631
X53.104 Y61.543
X53.159 Y61.499
X53.21 Y61.449
X53.302 Y61.35
X53.347 Y61.297
X53.386 Y61.241
X53.887 Y60.454
X54.363 Y60.036
X54.957 Y59.762
X55.695 Y59.654
X61.702 Y59.651
X61.778 Y59.647
X61.854 Y59.635
X62.016 Y59.601
X62.099 Y59.579
X62.18 Y59.547
X62.342 Y59.472
X62.414 Y59.434
X62.481 Y59.388
X62.596 Y59.301
X62.65 Y59.255
X62.699 Y59.205
X62.791 Y59.103
X62.838 Y59.045
X62.88 Y58.981
X62.963 Y58.839
X63.002 Y58.764
X63.032 Y58.685
X63.076 Y58.544
X64.701 Y58.546
X64.748 Y58.554
X64.791 Y58.577
X64.824 Y58.612
X64.845 Y58.656
X64.85 Y58.704
X64.691 Y62.066
X64.69 Y62.225
X64.728 Y62.413
X64.726 Y62.435
X64.712 Y62.453
X64.69 Y62.46
S15000
X63.866 Z-3 F300
G3 X63.249 Y61.499 I0 J-0.678
G1 X63.494 Y60.965
