(1001)
(T1  D=3 CR=0 - ZMIN=-8.7 - flat end mill)
G90 G94
G17
G21
(When using Fusion 360 for Personal Use, the feedrate of rapid moves is reduced to match the feedrate of cutting moves, which can increase machining time. Unrestricted rapid moves are available with a Fusion 360 Subscription.)

(Drill4)
T1
S500 M3
G54
M8
G0 X11.748 Y56.79
Z6
G1 F0
G0 Z4
Z2
G1 Z-3 F150
G0 Z2
Z-1
G1 Z-6 F150
G0 Z2
Z-4
G1 Z-8.7 F150
G0 Z4
Y46.783
Z2
G1 Z-3 F150
G0 Z2
Z-1
G1 Z-6 F150
G0 Z2
Z-4
G1 Z-8.7 F150
G0 Z4
X11.75 Y36.944
Z2
G1 Z-3 F150
G0 Z2
Z-1
G1 Z-6 F150
G0 Z2
Z-4
G1 Z-8.7 F150
G0 Z4
X10.005 Y26.91
Z2
G1 Z-3 F150
G0 Z2
Z-1
G1 Z-6 F150
G0 Z2
Z-4
G1 Z-8.7 F150
G0 Z4
X10.013 Y8.796
Z2
G1 Z-3 F150
G0 Z2
Z-1
G1 Z-6 F150
G0 Z2
Z-4
G1 Z-8.7 F150
G0 Z4
X19.033 Y5.796
Z2
G1 Z-3 F150
G0 Z2
Z-1
G1 Z-6 F150
G0 Z2
Z-4
G1 Z-8.7 F150
G0 Z4
X29.033
Z2
G1 Z-3 F150
G0 Z2
Z-1
G1 Z-6 F150
G0 Z2
Z-4
G1 Z-8.7 F150
G0 Z4
X38.533
Z2
G1 Z-3 F150
G0 Z2
Z-1
G1 Z-6 F150
G0 Z2
Z-4
G1 Z-8.7 F150
G0 Z4
X55.586 Y21.905
Z2
G1 Z-3 F150
G0 Z2
Z-1
G1 Z-6 F150
G0 Z2
Z-4
G1 Z-8.7 F150
G0 Z4
Y31.905
Z2
G1 Z-3 F150
G0 Z2
Z-1
G1 Z-6 F150
G0 Z2
Z-4
G1 Z-8.7 F150
G0 Z4
Y41.905
Z2
G1 Z-3 F150
G0 Z2
Z-1
G1 Z-6 F150
G0 Z2
Z-4
G1 Z-8.7 F150
G0 Z4
Y51.905
Z2
G1 Z-3 F150
G0 Z2
Z-1
G1 Z-6 F150
G0 Z2
Z-4
G1 Z-8.7 F150
G0 Z4
Y61.904
Z2
G1 Z-3 F150
G0 Z2
Z-1
G1 Z-6 F150
G0 Z2
Z-4
G1 Z-8.7 F150
G0 Z4
X35.296 Y48.17
Z2
G1 Z-3 F150
G0 Z2
Z-1
G1 Z-6 F150
G0 Z2
Z-4
G1 Z-8.7 F150
G0 Z4
G1 Z6 F0
M9
M5
M30
