(1001)
(T1  D=3 CR=0 - ZMIN=-2.7 - flat end mill)
G90 G94
G17
G21
(When using Fusion 360 for Personal Use, the feedrate of rapid moves is reduced to match the feedrate of cutting moves, which can increase machining time. Unrestricted rapid moves are available with a Fusion 360 Subscription.)

(Pocket2)
T1
S500 M3
G54
M8
G0 X13.665 Y9.902
Z6
G1 Z1.3 F1000
Z0.615 F300
S15000
X13.667 Y9.888 Z0.524
X13.675 Y9.848 Z0.442
X13.69 Y9.786 Z0.376
X13.712 Y9.708 Z0.332
X13.742 Y9.623 Z0.315
G3 X16.397 Y10.661 Z0.165 I1.327 J0.519
X13.742 Y9.623 Z0.015 I-1.327 J-0.519
X16.397 Y10.661 Z-0.135 I1.327 J0.519
X14.838 Y11.548 Z-0.2 I-1.327 J-0.519
X15.144 Y9.689 I0.153 J-0.93
S500
G1 X15.347 Y9.725 F1000
X15.466 Y9.743
X15.587 Y9.749
X29.048 Y9.729
G3 X29.053 Y10.271 I0 J0.271
G1 X15.585 Y10.263
X15.466 Y10.269
X15.348 Y10.286
X15.113 Y10.328
G3 X14.836 Y10.202 I-0.044 J-0.271
G1 X14.807 Y10.158
G3 X14.801 Y9.864 I0.229 J-0.151
G1 X14.831 Y9.815
G3 X15.111 Y9.683 I0.236 J0.14
G1 X15.144 Y9.689
X15.218 Y9.701 Z-0.19 F300
X15.287 Y9.714 Z-0.162
X15.347 Y9.725 Z-0.118
X15.397 Y9.734 Z-0.055
X15.429 Y9.739 Z0.02
X15.44 Y9.74 Z0.1
Z4 F1000
X-7.752 Y1.35
Z0.615
S15000
X-7.758 Y1.362 Z0.524 F300
X-7.776 Y1.399 Z0.442
X-7.806 Y1.455 Z0.376
X-7.847 Y1.525 Z0.332
X-7.898 Y1.599 Z0.315
G3 X-10.195 Y-0.088 Z0.165 I-1.148 J-0.844
X-7.898 Y1.599 Z0.015 I1.148 J0.844
X-10.195 Y-0.088 Z-0.135 I-1.148 J-0.844
X-8.461 Y-0.543 Z-0.2 I1.148 J0.844
S500
G2 X-8.187 Y-0.43 I1.869 J-4.139 F1000
X-7.601 Y-0.273 I1.106 J-2.949
X-4.027 Y-0.124 I2.384 J-14.227
G3 X-0.453 Y-0.271 I3.563 J43.06
X-0.453 Y0.271 I0 J0.271
X-3.692 Y0.137 I-0.007 J-39.268
G2 X-6.929 Y0.29 I-1.033 J12.504
X-7.749 Y0.585 I0.457 J2.561
X-8.463 Y1.083 I2.21 J3.924
G3 X-9.401 Y1.017 I-0.435 J-0.51
G1 X-9.463 Y0.935
X-9.512 Y0.844
X-9.643 Y0.548
X-9.678 Y0.451
X-9.697 Y0.35
X-9.732 Y0.034
X-9.736 Y-0.068
X-9.724 Y-0.17
X-9.714 Y-0.219
G3 X-8.739 Y-0.681 I0.658 J0.129
G2 X-8.461 Y-0.543 I2.147 J-4.001
X-6.476 Y-1.196 I0.636 J-1.409
G3 X-4.673 Y-2.251 I1.802 J1.011
G1 X-0.109 Y-2.25
X0.633 Y-2.142
X1.189 Y-1.891
X1.679 Y-1.475
X2.173 Y-0.726
X2.209 Y-0.676
X2.249 Y-0.63
X2.34 Y-0.532
X2.392 Y-0.48
X2.45 Y-0.434
X2.58 Y-0.34
X2.641 Y-0.3
X2.706 Y-0.267
X2.825 Y-0.212
X2.894 Y-0.184
X2.966 Y-0.163
X3.128 Y-0.125
X3.212 Y-0.11
X3.297 Y-0.104
X4.38 Y-0.099
X7.238
X7.258 Y-0.095
X7.454 Y-0.048
X7.479 Y-0.026
X7.491 Y0.005
X7.45 Y0.452
X7.447 Y0.521
X7.449 Y8.448
X7.452 Y8.512
X7.46 Y8.575
X7.485 Y8.719
X7.501 Y8.793
X7.525 Y8.864
X7.581 Y9.008
X7.61 Y9.073
X7.645 Y9.135
X7.714 Y9.245
X7.756 Y9.305
X7.804 Y9.361
X7.917 Y9.481
X7.975 Y9.535
X8.038 Y9.584
X8.163 Y9.67
X8.225 Y9.708
X8.29 Y9.739
X8.415 Y9.794
X8.486 Y9.82
X8.559 Y9.84
X8.722 Y9.874
X8.798 Y9.886
X8.876 Y9.89
X12.556 Y9.889
X12.637 Y9.884
X12.717 Y9.871
X12.879 Y9.835
X12.963 Y9.812
X13.043 Y9.778
X13.205 Y9.7
X13.275 Y9.662
X13.34 Y9.617
X13.449 Y9.533
X13.503 Y9.486
X13.553 Y9.434
X13.651 Y9.322
X13.694 Y9.268
X13.732 Y9.21
X13.797 Y9.101
X13.831 Y9.035
X13.859 Y8.966
X13.916 Y8.803
X13.936 Y8.735
X13.95 Y8.666
X13.966 Y8.557
X13.974 Y8.45
Y8.393
X14.985 Y8.394
X15.468 Y8.471
X15.527 Y8.478
X15.586 Y8.48
X29.426 Y8.476
X29.556 Y8.5
X30.101 Y8.629
X30.633 Y9.05
X30.637 Y9.054
X30.652 Y9.081
X30.926 Y9.656
X30.931 Y9.765
X30.929 Y10.332
X30.928 Y10.341
X30.64 Y10.937
X30.634 Y10.946
X30.583 Y10.992
X30.11 Y11.367
X30.104 Y11.37
X30.06 Y11.383
X29.46 Y11.518
X29.056 Y11.524
X15.586 Y11.531
X15.525 Y11.533
X15.466 Y11.541
X15.001 Y11.616
X13.972 Y11.618
Y11.539
X13.968 Y11.466
X13.957 Y11.393
X13.928 Y11.249
X13.91 Y11.177
X13.884 Y11.108
X13.828 Y10.973
X13.794 Y10.903
X13.753 Y10.836
X13.659 Y10.701
X13.61 Y10.637
X13.553 Y10.578
X13.434 Y10.468
X13.373 Y10.417
X13.307 Y10.373
X13.172 Y10.293
X13.106 Y10.258
X13.036 Y10.23
X12.902 Y10.182
X12.83 Y10.161
X12.757 Y10.148
X12.604 Y10.127
X12.501 Y10.12
X7.611 Y10.119
X7.388 Y10.066
X7.365 Y10.047
X7.354 Y10.019
X7.392 Y9.601
X7.395 Y9.534
X7.393 Y1.552
X7.389 Y1.469
X7.375 Y1.388
X7.336 Y1.212
X7.314 Y1.137
X7.286 Y1.064
X7.23 Y0.943
X7.194 Y0.873
X7.15 Y0.808
X7.043 Y0.664
X6.99 Y0.6
X6.929 Y0.542
X6.81 Y0.44
X6.748 Y0.392
X6.681 Y0.351
X6.543 Y0.276
X6.478 Y0.245
X6.411 Y0.22
X6.288 Y0.181
X6.217 Y0.162
X6.145 Y0.15
X5.982 Y0.132
X5.898 Y0.128
X3.3 Y0.132
X3.22 Y0.136
X3.142 Y0.149
X2.979 Y0.184
X2.898 Y0.207
X2.82 Y0.238
X2.665 Y0.311
X2.588 Y0.352
X2.517 Y0.403
X2.376 Y0.515
X2.316 Y0.569
X2.261 Y0.629
X2.17 Y0.742
X2.131 Y0.795
X1.655 Y1.499
X1.19 Y1.892
X0.604 Y2.15
X-0.107 Y2.25
X-6.278 Y2.251
X-6.344 Y2.254
X-6.41 Y2.263
X-6.572 Y2.292
X-6.645 Y2.309
X-6.716 Y2.333
X-6.841 Y2.382
X-6.906 Y2.411
X-6.968 Y2.446
X-7.093 Y2.526
X-7.155 Y2.57
X-7.213 Y2.62
X-7.325 Y2.73
X-7.38 Y2.788
X-7.428 Y2.853
X-7.519 Y2.989
X-7.56 Y3.06
X-7.594 Y3.134
X-7.652 Y3.286
X-7.678 Y3.365
X-7.695 Y3.446
X-7.699 Y3.474
X-9.407 Y3.472
X-10.375 Y2.896
X-10.404 Y2.872
X-11.156 Y2.019
X-11.612 Y0.993
X-11.622 Y0.942
X-11.745 Y-0.152
X-11.524 Y-1.273
X-11.514 Y-1.297
X-11.411 Y-1.488
X-10.978 Y-2.275
X-10.968 Y-2.288
X-10.171 Y-3.054
X-10.148 Y-3.071
X-9.145 Y-3.567
X-9.094 Y-3.582
X-8.597 Y-3.657
X-8.593 Y-3.589
X-8.582 Y-3.521
X-8.555 Y-3.386
X-8.538 Y-3.317
X-8.514 Y-3.25
X-8.459 Y-3.116
X-8.428 Y-3.05
X-8.391 Y-2.988
X-8.312 Y-2.868
X-8.271 Y-2.811
X-8.225 Y-2.758
X-8.13 Y-2.66
X-8.073 Y-2.608
X-8.012 Y-2.561
X-7.869 Y-2.465
X-7.799 Y-2.423
X-7.726 Y-2.389
X-7.583 Y-2.332
X-7.508 Y-2.307
X-7.43 Y-2.289
X-7.268 Y-2.262
X-7.206 Y-2.254
X-7.144 Y-2.252
X-4.673 Y-2.251
S15000
G3 X-4.189 Y0.514 Z-0.284 I0 J1.425 F300
G1 X-8.562 Y2.096 Z-0.382
G3 X-9.532 Y-0.585 Z-0.477 I-0.485 J-1.34
X-8.461 Y-0.543 Z-0.5 I0.485 J1.34
S500
G2 X-8.187 Y-0.43 I1.869 J-4.139 F1000
X-7.601 Y-0.273 I1.106 J-2.949
X-4.027 Y-0.124 I2.384 J-14.227
G3 X-0.453 Y-0.271 I3.563 J43.06
X-0.453 Y0.271 I0 J0.271
X-3.692 Y0.137 I-0.007 J-39.268
G2 X-6.929 Y0.29 I-1.033 J12.504
X-7.749 Y0.585 I0.457 J2.561
X-8.463 Y1.083 I2.21 J3.924
G3 X-9.401 Y1.017 I-0.435 J-0.51
G1 X-9.463 Y0.935
X-9.512 Y0.844
X-9.643 Y0.548
X-9.678 Y0.451
X-9.697 Y0.35
X-9.732 Y0.034
X-9.736 Y-0.068
X-9.724 Y-0.17
X-9.714 Y-0.219
G3 X-8.739 Y-0.681 I0.658 J0.129
G2 X-8.461 Y-0.543 I2.147 J-4.001
G1 X-8.419 Y-0.523 Z-0.493 F300
X-8.381 Y-0.496 Z-0.485
X-8.351 Y-0.468 Z-0.464
X-8.325 Y-0.435 Z-0.443
X-8.293 Y-0.377 Z-0.376
X-8.28 Y-0.336 Z-0.293
X-8.277 Y-0.322 Z-0.2
Z4 F1000
X15.564 Y11.478
Z0.415
S15000
X15.551 Y11.483 Z0.324 F300
X15.512 Y11.496 Z0.242
X15.451 Y11.515 Z0.176
X15.372 Y11.534 Z0.132
X15.284 Y11.551 Z0.115
G3 X14.855 Y8.733 Z-0.035 I-0.214 J-1.409
X15.284 Y11.551 Z-0.185 I0.214 J1.409
X14.855 Y8.733 Z-0.335 I-0.214 J-1.409
X15.284 Y11.551 Z-0.485 I0.214 J1.409
X14.838 Y11.548 Z-0.5 I-0.214 J-1.409
X15.144 Y9.689 I0.153 J-0.93
S500
G1 X15.347 Y9.725 F1000
X15.466 Y9.743
X15.587 Y9.749
X29.048 Y9.729
G3 X29.053 Y10.271 I0 J0.271
G1 X15.585 Y10.263
X15.466 Y10.269
X15.348 Y10.286
X15.113 Y10.328
G3 X14.836 Y10.202 I-0.044 J-0.271
G1 X14.807 Y10.158
G3 X14.801 Y9.864 I0.229 J-0.151
G1 X14.831 Y9.815
G3 X15.111 Y9.683 I0.236 J0.14
G1 X15.144 Y9.689
G2 X16.21 Y9.127 I0.162 J-0.984
G3 X17.226 Y8.48 I1.017 J0.475
G1 X29.426 Y8.476
X29.556 Y8.5
X30.101 Y8.629
X30.633 Y9.05
X30.637 Y9.054
X30.652 Y9.081
X30.926 Y9.656
X30.931 Y9.765
X30.929 Y10.332
X30.928 Y10.341
X30.64 Y10.937
X30.634 Y10.946
X30.583 Y10.992
X30.11 Y11.367
X30.104 Y11.37
X30.06 Y11.383
X29.46 Y11.518
X29.056 Y11.524
X15.586 Y11.531
X15.525 Y11.533
X15.466 Y11.541
X15.001 Y11.616
X13.972 Y11.618
Y11.539
X13.968 Y11.466
X13.957 Y11.393
X13.928 Y11.249
X13.91 Y11.177
X13.884 Y11.108
X13.828 Y10.973
X13.794 Y10.903
X13.753 Y10.836
X13.659 Y10.701
X13.61 Y10.637
X13.553 Y10.578
X13.434 Y10.468
X13.373 Y10.417
X13.307 Y10.373
X13.172 Y10.293
X13.106 Y10.258
X13.036 Y10.23
X12.902 Y10.182
X12.83 Y10.161
X12.757 Y10.148
X12.604 Y10.127
X12.501 Y10.12
X7.611 Y10.119
X7.388 Y10.066
X7.365 Y10.047
X7.354 Y10.019
X7.392 Y9.601
X7.395 Y9.534
X7.393 Y1.552
X7.389 Y1.469
X7.375 Y1.388
X7.336 Y1.212
X7.314 Y1.137
X7.286 Y1.064
X7.23 Y0.943
X7.194 Y0.873
X7.15 Y0.808
X7.043 Y0.664
X6.99 Y0.6
X6.929 Y0.542
X6.81 Y0.44
X6.748 Y0.392
X6.681 Y0.351
X6.543 Y0.276
X6.478 Y0.245
X6.411 Y0.22
X6.288 Y0.181
X6.217 Y0.162
X6.145 Y0.15
X5.982 Y0.132
X5.898 Y0.128
X3.3 Y0.132
X3.22 Y0.136
X3.142 Y0.149
X2.979 Y0.184
X2.898 Y0.207
X2.82 Y0.238
X2.665 Y0.311
X2.588 Y0.352
X2.517 Y0.403
X2.376 Y0.515
X2.316 Y0.569
X2.261 Y0.629
X2.17 Y0.742
X2.131 Y0.795
X1.655 Y1.499
X1.19 Y1.892
X0.604 Y2.15
X-0.107 Y2.25
X-6.278 Y2.251
X-6.344 Y2.254
X-6.41 Y2.263
X-6.572 Y2.292
X-6.645 Y2.309
X-6.716 Y2.333
X-6.841 Y2.382
X-6.906 Y2.411
X-6.968 Y2.446
X-7.093 Y2.526
X-7.155 Y2.57
X-7.213 Y2.62
X-7.325 Y2.73
X-7.38 Y2.788
X-7.428 Y2.853
X-7.519 Y2.989
X-7.56 Y3.06
X-7.594 Y3.134
X-7.652 Y3.286
X-7.678 Y3.365
X-7.695 Y3.446
X-7.699 Y3.474
X-9.407 Y3.472
X-10.375 Y2.896
X-10.404 Y2.872
X-11.156 Y2.019
X-11.612 Y0.993
X-11.622 Y0.942
X-11.745 Y-0.152
X-11.524 Y-1.273
X-11.514 Y-1.297
X-11.411 Y-1.488
X-10.978 Y-2.275
X-10.968 Y-2.288
X-10.171 Y-3.054
X-10.148 Y-3.071
X-9.145 Y-3.567
X-9.094 Y-3.582
X-8.597 Y-3.657
X-8.593 Y-3.589
X-8.582 Y-3.521
X-8.555 Y-3.386
X-8.538 Y-3.317
X-8.514 Y-3.25
X-8.459 Y-3.116
X-8.428 Y-3.05
X-8.391 Y-2.988
X-8.312 Y-2.868
X-8.271 Y-2.811
X-8.225 Y-2.758
X-8.13 Y-2.66
X-8.073 Y-2.608
X-8.012 Y-2.561
X-7.869 Y-2.465
X-7.799 Y-2.423
X-7.726 Y-2.389
X-7.583 Y-2.332
X-7.508 Y-2.307
X-7.43 Y-2.289
X-7.268 Y-2.262
X-7.206 Y-2.254
X-7.144 Y-2.252
X-0.109 Y-2.25
X0.633 Y-2.142
X1.189 Y-1.891
X1.679 Y-1.475
X2.173 Y-0.726
X2.209 Y-0.676
X2.249 Y-0.63
X2.34 Y-0.532
X2.392 Y-0.48
X2.45 Y-0.434
X2.58 Y-0.34
X2.641 Y-0.3
X2.706 Y-0.267
X2.825 Y-0.212
X2.894 Y-0.184
X2.966 Y-0.163
X3.128 Y-0.125
X3.212 Y-0.11
X3.297 Y-0.104
X4.38 Y-0.099
X7.238
X7.258 Y-0.095
X7.454 Y-0.048
X7.479 Y-0.026
X7.491 Y0.005
X7.45 Y0.452
X7.447 Y0.521
X7.449 Y8.448
X7.452 Y8.512
X7.46 Y8.575
X7.485 Y8.719
X7.501 Y8.793
X7.525 Y8.864
X7.581 Y9.008
X7.61 Y9.073
X7.645 Y9.135
X7.714 Y9.245
X7.756 Y9.305
X7.804 Y9.361
X7.917 Y9.481
X7.975 Y9.535
X8.038 Y9.584
X8.163 Y9.67
X8.225 Y9.708
X8.29 Y9.739
X8.415 Y9.794
X8.486 Y9.82
X8.559 Y9.84
X8.722 Y9.874
X8.798 Y9.886
X8.876 Y9.89
X12.556 Y9.889
X12.637 Y9.884
X12.717 Y9.871
X12.879 Y9.835
X12.963 Y9.812
X13.043 Y9.778
X13.205 Y9.7
X13.275 Y9.662
X13.34 Y9.617
X13.449 Y9.533
X13.503 Y9.486
X13.553 Y9.434
X13.651 Y9.322
X13.694 Y9.268
X13.732 Y9.21
X13.797 Y9.101
X13.831 Y9.035
X13.859 Y8.966
X13.916 Y8.803
X13.936 Y8.735
X13.95 Y8.666
X13.966 Y8.557
X13.974 Y8.45
Y8.393
X14.985 Y8.394
X15.468 Y8.471
X15.527 Y8.478
X15.586 Y8.48
X17.226
S15000
G3 X17.674 Y10.264 Z-0.587 I0 J0.948 F300
G1 X15.437 Y11.46 Z-0.675
G3 X14.543 Y9.788 Z-0.778 I-0.447 J-0.836
X15.144 Y9.689 Z-0.8 I0.447 J0.836
S500
G1 X15.347 Y9.725 F1000
X15.466 Y9.743
X15.587 Y9.749
X29.048 Y9.729
G3 X29.053 Y10.271 I0 J0.271
G1 X15.585 Y10.263
X15.466 Y10.269
X15.348 Y10.286
X15.113 Y10.328
G3 X14.836 Y10.202 I-0.044 J-0.271
G1 X14.807 Y10.158
G3 X14.801 Y9.864 I0.229 J-0.151
G1 X14.831 Y9.815
G3 X15.111 Y9.683 I0.236 J0.14
G1 X15.144 Y9.689
X15.218 Y9.701 Z-0.79 F300
X15.287 Y9.714 Z-0.762
X15.347 Y9.725 Z-0.718
X15.397 Y9.734 Z-0.655
X15.429 Y9.739 Z-0.58
X15.44 Y9.74 Z-0.5
Z4 F1000
X-9.18 Y-0.663
Z0.115
S15000
X-9.166 Y-0.665 Z0.024 F300
X-9.125 Y-0.667 Z-0.058
X-9.061 Y-0.669 Z-0.124
X-8.981 Y-0.668 Z-0.168
X-8.891 Y-0.661 Z-0.185
G3 X-9.203 Y2.172 Z-0.335 I-0.156 J1.416
X-8.891 Y-0.661 Z-0.485 I0.156 J-1.416
X-9.203 Y2.172 Z-0.635 I-0.156 J1.416
X-10.421 Y0.379 Z-0.718 I0.156 J-1.416
X-8.461 Y-0.543 Z-0.8 I1.374 J0.376
S500
G2 X-8.187 Y-0.43 I1.869 J-4.139 F1000
X-7.601 Y-0.273 I1.106 J-2.949
X-4.027 Y-0.124 I2.384 J-14.227
G3 X-0.453 Y-0.271 I3.563 J43.06
X-0.453 Y0.271 I0 J0.271
X-3.692 Y0.137 I-0.007 J-39.268
G2 X-6.929 Y0.29 I-1.033 J12.504
X-7.749 Y0.585 I0.457 J2.561
X-8.463 Y1.083 I2.21 J3.924
G3 X-9.401 Y1.017 I-0.435 J-0.51
G1 X-9.463 Y0.935
X-9.512 Y0.844
X-9.643 Y0.548
X-9.678 Y0.451
X-9.697 Y0.35
X-9.732 Y0.034
X-9.736 Y-0.068
X-9.724 Y-0.17
X-9.714 Y-0.219
G3 X-8.739 Y-0.681 I0.658 J0.129
G2 X-8.461 Y-0.543 I2.147 J-4.001
X-6.476 Y-1.196 I0.636 J-1.409
G3 X-4.673 Y-2.251 I1.802 J1.011
G1 X-0.109 Y-2.25
X0.633 Y-2.142
X1.189 Y-1.891
X1.679 Y-1.475
X2.173 Y-0.726
X2.209 Y-0.676
X2.249 Y-0.63
X2.34 Y-0.532
X2.392 Y-0.48
X2.45 Y-0.434
X2.58 Y-0.34
X2.641 Y-0.3
X2.706 Y-0.267
X2.825 Y-0.212
X2.894 Y-0.184
X2.966 Y-0.163
X3.128 Y-0.125
X3.212 Y-0.11
X3.297 Y-0.104
X4.38 Y-0.099
X7.238
X7.258 Y-0.095
X7.454 Y-0.048
X7.479 Y-0.026
X7.491 Y0.005
X7.45 Y0.452
X7.447 Y0.521
X7.449 Y8.448
X7.452 Y8.512
X7.46 Y8.575
X7.485 Y8.719
X7.501 Y8.793
X7.525 Y8.864
X7.581 Y9.008
X7.61 Y9.073
X7.645 Y9.135
X7.714 Y9.245
X7.756 Y9.305
X7.804 Y9.361
X7.917 Y9.481
X7.975 Y9.535
X8.038 Y9.584
X8.163 Y9.67
X8.225 Y9.708
X8.29 Y9.739
X8.415 Y9.794
X8.486 Y9.82
X8.559 Y9.84
X8.722 Y9.874
X8.798 Y9.886
X8.876 Y9.89
X12.556 Y9.889
X12.637 Y9.884
X12.717 Y9.871
X12.879 Y9.835
X12.963 Y9.812
X13.043 Y9.778
X13.205 Y9.7
X13.275 Y9.662
X13.34 Y9.617
X13.449 Y9.533
X13.503 Y9.486
X13.553 Y9.434
X13.651 Y9.322
X13.694 Y9.268
X13.732 Y9.21
X13.797 Y9.101
X13.831 Y9.035
X13.859 Y8.966
X13.916 Y8.803
X13.936 Y8.735
X13.95 Y8.666
X13.966 Y8.557
X13.974 Y8.45
Y8.393
X14.985 Y8.394
X15.468 Y8.471
X15.527 Y8.478
X15.586 Y8.48
X29.426 Y8.476
X29.556 Y8.5
X30.101 Y8.629
X30.633 Y9.05
X30.637 Y9.054
X30.652 Y9.081
X30.926 Y9.656
X30.931 Y9.765
X30.929 Y10.332
X30.928 Y10.341
X30.64 Y10.937
X30.634 Y10.946
X30.583 Y10.992
X30.11 Y11.367
X30.104 Y11.37
X30.06 Y11.383
X29.46 Y11.518
X29.056 Y11.524
X15.586 Y11.531
X15.525 Y11.533
X15.466 Y11.541
X15.001 Y11.616
X13.972 Y11.618
Y11.539
X13.968 Y11.466
X13.957 Y11.393
X13.928 Y11.249
X13.91 Y11.177
X13.884 Y11.108
X13.828 Y10.973
X13.794 Y10.903
X13.753 Y10.836
X13.659 Y10.701
X13.61 Y10.637
X13.553 Y10.578
X13.434 Y10.468
X13.373 Y10.417
X13.307 Y10.373
X13.172 Y10.293
X13.106 Y10.258
X13.036 Y10.23
X12.902 Y10.182
X12.83 Y10.161
X12.757 Y10.148
X12.604 Y10.127
X12.501 Y10.12
X7.611 Y10.119
X7.388 Y10.066
X7.365 Y10.047
X7.354 Y10.019
X7.392 Y9.601
X7.395 Y9.534
X7.393 Y1.552
X7.389 Y1.469
X7.375 Y1.388
X7.336 Y1.212
X7.314 Y1.137
X7.286 Y1.064
X7.23 Y0.943
X7.194 Y0.873
X7.15 Y0.808
X7.043 Y0.664
X6.99 Y0.6
X6.929 Y0.542
X6.81 Y0.44
X6.748 Y0.392
X6.681 Y0.351
X6.543 Y0.276
X6.478 Y0.245
X6.411 Y0.22
X6.288 Y0.181
X6.217 Y0.162
X6.145 Y0.15
X5.982 Y0.132
X5.898 Y0.128
X3.3 Y0.132
X3.22 Y0.136
X3.142 Y0.149
X2.979 Y0.184
X2.898 Y0.207
X2.82 Y0.238
X2.665 Y0.311
X2.588 Y0.352
X2.517 Y0.403
X2.376 Y0.515
X2.316 Y0.569
X2.261 Y0.629
X2.17 Y0.742
X2.131 Y0.795
X1.655 Y1.499
X1.19 Y1.892
X0.604 Y2.15
X-0.107 Y2.25
X-6.278 Y2.251
X-6.344 Y2.254
X-6.41 Y2.263
X-6.572 Y2.292
X-6.645 Y2.309
X-6.716 Y2.333
X-6.841 Y2.382
X-6.906 Y2.411
X-6.968 Y2.446
X-7.093 Y2.526
X-7.155 Y2.57
X-7.213 Y2.62
X-7.325 Y2.73
X-7.38 Y2.788
X-7.428 Y2.853
X-7.519 Y2.989
X-7.56 Y3.06
X-7.594 Y3.134
X-7.652 Y3.286
X-7.678 Y3.365
X-7.695 Y3.446
X-7.699 Y3.474
X-9.407 Y3.472
X-10.375 Y2.896
X-10.404 Y2.872
X-11.156 Y2.019
X-11.612 Y0.993
X-11.622 Y0.942
X-11.745 Y-0.152
X-11.524 Y-1.273
X-11.514 Y-1.297
X-11.411 Y-1.488
X-10.978 Y-2.275
X-10.968 Y-2.288
X-10.171 Y-3.054
X-10.148 Y-3.071
X-9.145 Y-3.567
X-9.094 Y-3.582
X-8.597 Y-3.657
X-8.593 Y-3.589
X-8.582 Y-3.521
X-8.555 Y-3.386
X-8.538 Y-3.317
X-8.514 Y-3.25
X-8.459 Y-3.116
X-8.428 Y-3.05
X-8.391 Y-2.988
X-8.312 Y-2.868
X-8.271 Y-2.811
X-8.225 Y-2.758
X-8.13 Y-2.66
X-8.073 Y-2.608
X-8.012 Y-2.561
X-7.869 Y-2.465
X-7.799 Y-2.423
X-7.726 Y-2.389
X-7.583 Y-2.332
X-7.508 Y-2.307
X-7.43 Y-2.289
X-7.268 Y-2.262
X-7.206 Y-2.254
X-7.144 Y-2.252
X-4.673 Y-2.251
S15000
G3 X-4.189 Y0.514 Z-0.884 I0 J1.425 F300
G1 X-8.562 Y2.096 Z-0.982
G3 X-9.532 Y-0.585 Z-1.077 I-0.485 J-1.34
X-8.461 Y-0.543 Z-1.1 I0.485 J1.34
S500
G2 X-8.187 Y-0.43 I1.869 J-4.139 F1000
X-7.601 Y-0.273 I1.106 J-2.949
X-4.027 Y-0.124 I2.384 J-14.227
G3 X-0.453 Y-0.271 I3.563 J43.06
X-0.453 Y0.271 I0 J0.271
X-3.692 Y0.137 I-0.007 J-39.268
G2 X-6.929 Y0.29 I-1.033 J12.504
X-7.749 Y0.585 I0.457 J2.561
X-8.463 Y1.083 I2.21 J3.924
G3 X-9.401 Y1.017 I-0.435 J-0.51
G1 X-9.463 Y0.935
X-9.512 Y0.844
X-9.643 Y0.548
X-9.678 Y0.451
X-9.697 Y0.35
X-9.732 Y0.034
X-9.736 Y-0.068
X-9.724 Y-0.17
X-9.714 Y-0.219
G3 X-8.739 Y-0.681 I0.658 J0.129
G2 X-8.461 Y-0.543 I2.147 J-4.001
G1 X-8.419 Y-0.523 Z-1.093 F300
X-8.381 Y-0.496 Z-1.085
X-8.351 Y-0.468 Z-1.064
X-8.325 Y-0.435 Z-1.043
X-8.293 Y-0.377 Z-0.976
X-8.28 Y-0.336 Z-0.893
X-8.277 Y-0.322 Z-0.8
Z4 F1000
X15.564 Y11.478
Z1.3
Z-0.185 F300
S15000
X15.551 Y11.483 Z-0.276
X15.512 Y11.496 Z-0.358
X15.451 Y11.515 Z-0.424
X15.372 Y11.534 Z-0.468
X15.284 Y11.551 Z-0.485
G3 X14.855 Y8.733 Z-0.635 I-0.214 J-1.409
X15.284 Y11.551 Z-0.785 I0.214 J1.409
X14.855 Y8.733 Z-0.935 I-0.214 J-1.409
X15.284 Y11.551 Z-1.085 I0.214 J1.409
X14.838 Y11.548 Z-1.1 I-0.214 J-1.409
X15.144 Y9.689 I0.153 J-0.93
S500
G1 X15.347 Y9.725 F1000
X15.466 Y9.743
X15.587 Y9.749
X29.048 Y9.729
G3 X29.053 Y10.271 I0 J0.271
G1 X15.585 Y10.263
X15.466 Y10.269
X15.348 Y10.286
X15.113 Y10.328
G3 X14.836 Y10.202 I-0.044 J-0.271
G1 X14.807 Y10.158
G3 X14.801 Y9.864 I0.229 J-0.151
G1 X14.831 Y9.815
G3 X15.111 Y9.683 I0.236 J0.14
G1 X15.144 Y9.689
G2 X16.21 Y9.127 I0.162 J-0.984
G3 X17.226 Y8.48 I1.017 J0.475
G1 X29.426 Y8.476
X29.556 Y8.5
X30.101 Y8.629
X30.633 Y9.05
X30.637 Y9.054
X30.652 Y9.081
X30.926 Y9.656
X30.931 Y9.765
X30.929 Y10.332
X30.928 Y10.341
X30.64 Y10.937
X30.634 Y10.946
X30.583 Y10.992
X30.11 Y11.367
X30.104 Y11.37
X30.06 Y11.383
X29.46 Y11.518
X29.056 Y11.524
X15.586 Y11.531
X15.525 Y11.533
X15.466 Y11.541
X15.001 Y11.616
X13.972 Y11.618
Y11.539
X13.968 Y11.466
X13.957 Y11.393
X13.928 Y11.249
X13.91 Y11.177
X13.884 Y11.108
X13.828 Y10.973
X13.794 Y10.903
X13.753 Y10.836
X13.659 Y10.701
X13.61 Y10.637
X13.553 Y10.578
X13.434 Y10.468
X13.373 Y10.417
X13.307 Y10.373
X13.172 Y10.293
X13.106 Y10.258
X13.036 Y10.23
X12.902 Y10.182
X12.83 Y10.161
X12.757 Y10.148
X12.604 Y10.127
X12.501 Y10.12
X7.611 Y10.119
X7.388 Y10.066
X7.365 Y10.047
X7.354 Y10.019
X7.392 Y9.601
X7.395 Y9.534
X7.393 Y1.552
X7.389 Y1.469
X7.375 Y1.388
X7.336 Y1.212
X7.314 Y1.137
X7.286 Y1.064
X7.23 Y0.943
X7.194 Y0.873
X7.15 Y0.808
X7.043 Y0.664
X6.99 Y0.6
X6.929 Y0.542
X6.81 Y0.44
X6.748 Y0.392
X6.681 Y0.351
X6.543 Y0.276
X6.478 Y0.245
X6.411 Y0.22
X6.288 Y0.181
X6.217 Y0.162
X6.145 Y0.15
X5.982 Y0.132
X5.898 Y0.128
X3.3 Y0.132
X3.22 Y0.136
X3.142 Y0.149
X2.979 Y0.184
X2.898 Y0.207
X2.82 Y0.238
X2.665 Y0.311
X2.588 Y0.352
X2.517 Y0.403
X2.376 Y0.515
X2.316 Y0.569
X2.261 Y0.629
X2.17 Y0.742
X2.131 Y0.795
X1.655 Y1.499
X1.19 Y1.892
X0.604 Y2.15
X-0.107 Y2.25
X-6.278 Y2.251
X-6.344 Y2.254
X-6.41 Y2.263
X-6.572 Y2.292
X-6.645 Y2.309
X-6.716 Y2.333
X-6.841 Y2.382
X-6.906 Y2.411
X-6.968 Y2.446
X-7.093 Y2.526
X-7.155 Y2.57
X-7.213 Y2.62
X-7.325 Y2.73
X-7.38 Y2.788
X-7.428 Y2.853
X-7.519 Y2.989
X-7.56 Y3.06
X-7.594 Y3.134
X-7.652 Y3.286
X-7.678 Y3.365
X-7.695 Y3.446
X-7.699 Y3.474
X-9.407 Y3.472
X-10.375 Y2.896
X-10.404 Y2.872
X-11.156 Y2.019
X-11.612 Y0.993
X-11.622 Y0.942
X-11.745 Y-0.152
X-11.524 Y-1.273
X-11.514 Y-1.297
X-11.411 Y-1.488
X-10.978 Y-2.275
X-10.968 Y-2.288
X-10.171 Y-3.054
X-10.148 Y-3.071
X-9.145 Y-3.567
X-9.094 Y-3.582
X-8.597 Y-3.657
X-8.593 Y-3.589
X-8.582 Y-3.521
X-8.555 Y-3.386
X-8.538 Y-3.317
X-8.514 Y-3.25
X-8.459 Y-3.116
X-8.428 Y-3.05
X-8.391 Y-2.988
X-8.312 Y-2.868
X-8.271 Y-2.811
X-8.225 Y-2.758
X-8.13 Y-2.66
X-8.073 Y-2.608
X-8.012 Y-2.561
X-7.869 Y-2.465
X-7.799 Y-2.423
X-7.726 Y-2.389
X-7.583 Y-2.332
X-7.508 Y-2.307
X-7.43 Y-2.289
X-7.268 Y-2.262
X-7.206 Y-2.254
X-7.144 Y-2.252
X-0.109 Y-2.25
X0.633 Y-2.142
X1.189 Y-1.891
X1.679 Y-1.475
X2.173 Y-0.726
X2.209 Y-0.676
X2.249 Y-0.63
X2.34 Y-0.532
X2.392 Y-0.48
X2.45 Y-0.434
X2.58 Y-0.34
X2.641 Y-0.3
X2.706 Y-0.267
X2.825 Y-0.212
X2.894 Y-0.184
X2.966 Y-0.163
X3.128 Y-0.125
X3.212 Y-0.11
X3.297 Y-0.104
X4.38 Y-0.099
X7.238
X7.258 Y-0.095
X7.454 Y-0.048
X7.479 Y-0.026
X7.491 Y0.005
X7.45 Y0.452
X7.447 Y0.521
X7.449 Y8.448
X7.452 Y8.512
X7.46 Y8.575
X7.485 Y8.719
X7.501 Y8.793
X7.525 Y8.864
X7.581 Y9.008
X7.61 Y9.073
X7.645 Y9.135
X7.714 Y9.245
X7.756 Y9.305
X7.804 Y9.361
X7.917 Y9.481
X7.975 Y9.535
X8.038 Y9.584
X8.163 Y9.67
X8.225 Y9.708
X8.29 Y9.739
X8.415 Y9.794
X8.486 Y9.82
X8.559 Y9.84
X8.722 Y9.874
X8.798 Y9.886
X8.876 Y9.89
X12.556 Y9.889
X12.637 Y9.884
X12.717 Y9.871
X12.879 Y9.835
X12.963 Y9.812
X13.043 Y9.778
X13.205 Y9.7
X13.275 Y9.662
X13.34 Y9.617
X13.449 Y9.533
X13.503 Y9.486
X13.553 Y9.434
X13.651 Y9.322
X13.694 Y9.268
X13.732 Y9.21
X13.797 Y9.101
X13.831 Y9.035
X13.859 Y8.966
X13.916 Y8.803
X13.936 Y8.735
X13.95 Y8.666
X13.966 Y8.557
X13.974 Y8.45
Y8.393
X14.985 Y8.394
X15.468 Y8.471
X15.527 Y8.478
X15.586 Y8.48
X17.226
S15000
G3 X17.674 Y10.264 Z-1.129 I0 J0.948 F300
G1 X15.437 Y11.46 Z-1.158
G3 X14.543 Y9.788 Z-1.193 I-0.447 J-0.836
X15.144 Y9.689 Z-1.2 I0.447 J0.836
S500
G1 X15.347 Y9.725 F1000
X15.466 Y9.743
X15.587 Y9.749
X29.048 Y9.729
G3 X29.053 Y10.271 I0 J0.271
G1 X15.585 Y10.263
X15.466 Y10.269
X15.348 Y10.286
X15.113 Y10.328
G3 X14.836 Y10.202 I-0.044 J-0.271
G1 X14.807 Y10.158
G3 X14.801 Y9.864 I0.229 J-0.151
G1 X14.831 Y9.815
G3 X15.111 Y9.683 I0.236 J0.14
G1 X15.144 Y9.689
X15.218 Y9.701 Z-1.19 F300
X15.287 Y9.714 Z-1.162
X15.347 Y9.725 Z-1.118
X15.397 Y9.734 Z-1.055
X15.429 Y9.739 Z-0.98
X15.44 Y9.74 Z-0.9
Z4 F1000
X-10.209 Y1.58
Z-0.485 F300
S15000
X-10.217 Y1.569 Z-0.576
X-10.24 Y1.535 Z-0.658
X-10.274 Y1.48 Z-0.724
X-10.313 Y1.41 Z-0.768
X-10.352 Y1.328 Z-0.785
G3 X-7.742 Y0.183 Z-0.935 I1.305 J-0.573
X-10.352 Y1.328 Z-1.085 I-1.305 J0.573
X-8.461 Y-0.543 Z-1.2 I1.305 J-0.573
S500
G2 X-8.187 Y-0.43 I1.869 J-4.139 F1000
X-7.601 Y-0.273 I1.106 J-2.949
X-4.027 Y-0.124 I2.384 J-14.227
G3 X-0.453 Y-0.271 I3.563 J43.06
X-0.453 Y0.271 I0 J0.271
X-3.692 Y0.137 I-0.007 J-39.268
G2 X-6.929 Y0.29 I-1.033 J12.504
X-7.749 Y0.585 I0.457 J2.561
X-8.463 Y1.083 I2.21 J3.924
G3 X-9.401 Y1.017 I-0.435 J-0.51
G1 X-9.463 Y0.935
X-9.512 Y0.844
X-9.643 Y0.548
X-9.678 Y0.451
X-9.697 Y0.35
X-9.732 Y0.034
X-9.736 Y-0.068
X-9.724 Y-0.17
X-9.714 Y-0.219
G3 X-8.739 Y-0.681 I0.658 J0.129
G2 X-8.461 Y-0.543 I2.147 J-4.001
X-6.476 Y-1.196 I0.636 J-1.409
G3 X-4.673 Y-2.251 I1.802 J1.011
G1 X-0.109 Y-2.25
X0.633 Y-2.142
X1.189 Y-1.891
X1.679 Y-1.475
X2.173 Y-0.726
X2.209 Y-0.676
X2.249 Y-0.63
X2.34 Y-0.532
X2.392 Y-0.48
X2.45 Y-0.434
X2.58 Y-0.34
X2.641 Y-0.3
X2.706 Y-0.267
X2.825 Y-0.212
X2.894 Y-0.184
X2.966 Y-0.163
X3.128 Y-0.125
X3.212 Y-0.11
X3.297 Y-0.104
X4.38 Y-0.099
X7.238
X7.258 Y-0.095
X7.454 Y-0.048
X7.479 Y-0.026
X7.491 Y0.005
X7.45 Y0.452
X7.447 Y0.521
X7.449 Y8.448
X7.452 Y8.512
X7.46 Y8.575
X7.485 Y8.719
X7.501 Y8.793
X7.525 Y8.864
X7.581 Y9.008
X7.61 Y9.073
X7.645 Y9.135
X7.714 Y9.245
X7.756 Y9.305
X7.804 Y9.361
X7.917 Y9.481
X7.975 Y9.535
X8.038 Y9.584
X8.163 Y9.67
X8.225 Y9.708
X8.29 Y9.739
X8.415 Y9.794
X8.486 Y9.82
X8.559 Y9.84
X8.722 Y9.874
X8.798 Y9.886
X8.876 Y9.89
X12.556 Y9.889
X12.637 Y9.884
X12.717 Y9.871
X12.879 Y9.835
X12.963 Y9.812
X13.043 Y9.778
X13.205 Y9.7
X13.275 Y9.662
X13.34 Y9.617
X13.449 Y9.533
X13.503 Y9.486
X13.553 Y9.434
X13.651 Y9.322
X13.694 Y9.268
X13.732 Y9.21
X13.797 Y9.101
X13.831 Y9.035
X13.859 Y8.966
X13.916 Y8.803
X13.936 Y8.735
X13.95 Y8.666
X13.966 Y8.557
X13.974 Y8.45
Y8.393
X14.985 Y8.394
X15.468 Y8.471
X15.527 Y8.478
X15.586 Y8.48
X29.426 Y8.476
X29.556 Y8.5
X30.101 Y8.629
X30.633 Y9.05
X30.637 Y9.054
X30.652 Y9.081
X30.926 Y9.656
X30.931 Y9.765
X30.929 Y10.332
X30.928 Y10.341
X30.64 Y10.937
X30.634 Y10.946
X30.583 Y10.992
X30.11 Y11.367
X30.104 Y11.37
X30.06 Y11.383
X29.46 Y11.518
X29.056 Y11.524
X15.586 Y11.531
X15.525 Y11.533
X15.466 Y11.541
X15.001 Y11.616
X13.972 Y11.618
Y11.539
X13.968 Y11.466
X13.957 Y11.393
X13.928 Y11.249
X13.91 Y11.177
X13.884 Y11.108
X13.828 Y10.973
X13.794 Y10.903
X13.753 Y10.836
X13.659 Y10.701
X13.61 Y10.637
X13.553 Y10.578
X13.434 Y10.468
X13.373 Y10.417
X13.307 Y10.373
X13.172 Y10.293
X13.106 Y10.258
X13.036 Y10.23
X12.902 Y10.182
X12.83 Y10.161
X12.757 Y10.148
X12.604 Y10.127
X12.501 Y10.12
X7.611 Y10.119
X7.388 Y10.066
X7.365 Y10.047
X7.354 Y10.019
X7.392 Y9.601
X7.395 Y9.534
X7.393 Y1.552
X7.389 Y1.469
X7.375 Y1.388
X7.336 Y1.212
X7.314 Y1.137
X7.286 Y1.064
X7.23 Y0.943
X7.194 Y0.873
X7.15 Y0.808
X7.043 Y0.664
X6.99 Y0.6
X6.929 Y0.542
X6.81 Y0.44
X6.748 Y0.392
X6.681 Y0.351
X6.543 Y0.276
X6.478 Y0.245
X6.411 Y0.22
X6.288 Y0.181
X6.217 Y0.162
X6.145 Y0.15
X5.982 Y0.132
X5.898 Y0.128
X3.3 Y0.132
X3.22 Y0.136
X3.142 Y0.149
X2.979 Y0.184
X2.898 Y0.207
X2.82 Y0.238
X2.665 Y0.311
X2.588 Y0.352
X2.517 Y0.403
X2.376 Y0.515
X2.316 Y0.569
X2.261 Y0.629
X2.17 Y0.742
X2.131 Y0.795
X1.655 Y1.499
X1.19 Y1.892
X0.604 Y2.15
X-0.107 Y2.25
X-6.278 Y2.251
X-6.344 Y2.254
X-6.41 Y2.263
X-6.572 Y2.292
X-6.645 Y2.309
X-6.716 Y2.333
X-6.841 Y2.382
X-6.906 Y2.411
X-6.968 Y2.446
X-7.093 Y2.526
X-7.155 Y2.57
X-7.213 Y2.62
X-7.325 Y2.73
X-7.38 Y2.788
X-7.428 Y2.853
X-7.519 Y2.989
X-7.56 Y3.06
X-7.594 Y3.134
X-7.652 Y3.286
X-7.678 Y3.365
X-7.695 Y3.446
X-7.699 Y3.474
X-9.407 Y3.472
X-10.375 Y2.896
X-10.404 Y2.872
X-11.156 Y2.019
X-11.612 Y0.993
X-11.622 Y0.942
X-11.745 Y-0.152
X-11.524 Y-1.273
X-11.514 Y-1.297
X-11.411 Y-1.488
X-10.978 Y-2.275
X-10.968 Y-2.288
X-10.171 Y-3.054
X-10.148 Y-3.071
X-9.145 Y-3.567
X-9.094 Y-3.582
X-8.597 Y-3.657
X-8.593 Y-3.589
X-8.582 Y-3.521
X-8.555 Y-3.386
X-8.538 Y-3.317
X-8.514 Y-3.25
X-8.459 Y-3.116
X-8.428 Y-3.05
X-8.391 Y-2.988
X-8.312 Y-2.868
X-8.271 Y-2.811
X-8.225 Y-2.758
X-8.13 Y-2.66
X-8.073 Y-2.608
X-8.012 Y-2.561
X-7.869 Y-2.465
X-7.799 Y-2.423
X-7.726 Y-2.389
X-7.583 Y-2.332
X-7.508 Y-2.307
X-7.43 Y-2.289
X-7.268 Y-2.262
X-7.206 Y-2.254
X-7.144 Y-2.252
X-4.673 Y-2.251
S15000
G3 X-4.189 Y0.514 Z-1.284 I0 J1.425 F300
G1 X-8.562 Y2.096 Z-1.382
G3 X-9.532 Y-0.585 Z-1.477 I-0.485 J-1.34
X-8.461 Y-0.543 Z-1.5 I0.485 J1.34
S500
G2 X-8.187 Y-0.43 I1.869 J-4.139 F1000
X-7.601 Y-0.273 I1.106 J-2.949
X-4.027 Y-0.124 I2.384 J-14.227
G3 X-0.453 Y-0.271 I3.563 J43.06
X-0.453 Y0.271 I0 J0.271
X-3.692 Y0.137 I-0.007 J-39.268
G2 X-6.929 Y0.29 I-1.033 J12.504
X-7.749 Y0.585 I0.457 J2.561
X-8.463 Y1.083 I2.21 J3.924
G3 X-9.401 Y1.017 I-0.435 J-0.51
G1 X-9.463 Y0.935
X-9.512 Y0.844
X-9.643 Y0.548
X-9.678 Y0.451
X-9.697 Y0.35
X-9.732 Y0.034
X-9.736 Y-0.068
X-9.724 Y-0.17
X-9.714 Y-0.219
G3 X-8.739 Y-0.681 I0.658 J0.129
G2 X-8.461 Y-0.543 I2.147 J-4.001
X-6.476 Y-1.196 I0.636 J-1.409
G3 X-4.673 Y-2.251 I1.802 J1.011
G1 X-0.109 Y-2.25
X0.633 Y-2.142
X1.189 Y-1.891
X1.679 Y-1.475
X2.173 Y-0.726
X2.209 Y-0.676
X2.249 Y-0.63
X2.34 Y-0.532
X2.392 Y-0.48
X2.45 Y-0.434
X2.58 Y-0.34
X2.641 Y-0.3
X2.706 Y-0.267
X2.825 Y-0.212
X2.894 Y-0.184
X2.966 Y-0.163
X3.128 Y-0.125
X3.212 Y-0.11
X3.297 Y-0.104
X4.38 Y-0.099
X7.238
X7.258 Y-0.095
X7.454 Y-0.048
X7.479 Y-0.026
X7.491 Y0.005
X7.45 Y0.452
X7.447 Y0.521
X7.449 Y8.448
X7.452 Y8.512
X7.46 Y8.575
X7.485 Y8.719
X7.501 Y8.793
X7.525 Y8.864
X7.581 Y9.008
X7.61 Y9.073
X7.645 Y9.135
X7.714 Y9.245
X7.756 Y9.305
X7.804 Y9.361
X7.917 Y9.481
X7.975 Y9.535
X8.038 Y9.584
X8.163 Y9.67
X8.225 Y9.708
X8.29 Y9.739
X8.415 Y9.794
X8.486 Y9.82
X8.559 Y9.84
X8.722 Y9.874
X8.798 Y9.885
X8.875 Y9.89
X14.99 Y9.896
X15.063 Y9.907
X15.243 Y9.952
X15.321 Y9.967
X15.4 Y9.973
X15.616 Y9.98
X15.641
X29.262 Y9.974
X29.341 Y9.989
X29.385 Y9.999
X29.281 Y10.023
X29.257 Y10.024
X15.477 Y10.032
X15.412 Y10.035
X15.347 Y10.044
X15.185 Y10.072
X15.128 Y10.085
X15.023 Y10.112
X14.955 Y10.118
X7.611 Y10.119
X7.388 Y10.066
X7.365 Y10.047
X7.354 Y10.019
X7.392 Y9.601
X7.395 Y9.534
X7.393 Y1.552
X7.389 Y1.469
X7.375 Y1.388
X7.336 Y1.212
X7.314 Y1.137
X7.286 Y1.064
X7.23 Y0.943
X7.194 Y0.873
X7.15 Y0.808
X7.043 Y0.664
X6.99 Y0.6
X6.929 Y0.542
X6.81 Y0.44
X6.748 Y0.392
X6.681 Y0.351
X6.543 Y0.276
X6.478 Y0.245
X6.411 Y0.22
X6.288 Y0.181
X6.217 Y0.162
X6.145 Y0.15
X5.982 Y0.132
X5.898 Y0.128
X3.3 Y0.132
X3.22 Y0.136
X3.142 Y0.149
X2.979 Y0.184
X2.898 Y0.207
X2.82 Y0.238
X2.665 Y0.311
X2.588 Y0.352
X2.517 Y0.403
X2.376 Y0.515
X2.316 Y0.569
X2.261 Y0.629
X2.17 Y0.742
X2.131 Y0.795
X1.655 Y1.499
X1.19 Y1.892
X0.604 Y2.15
X-0.107 Y2.25
X-6.278 Y2.251
X-6.344 Y2.254
X-6.41 Y2.263
X-6.572 Y2.292
X-6.645 Y2.309
X-6.716 Y2.333
X-6.841 Y2.382
X-6.906 Y2.411
X-6.968 Y2.446
X-7.093 Y2.526
X-7.155 Y2.57
X-7.213 Y2.62
X-7.325 Y2.73
X-7.38 Y2.788
X-7.428 Y2.853
X-7.519 Y2.989
X-7.56 Y3.06
X-7.594 Y3.134
X-7.652 Y3.286
X-7.678 Y3.365
X-7.695 Y3.446
X-7.699 Y3.474
X-9.407 Y3.472
X-10.375 Y2.896
X-10.404 Y2.872
X-11.156 Y2.019
X-11.612 Y0.993
X-11.622 Y0.942
X-11.745 Y-0.152
X-11.524 Y-1.273
X-11.514 Y-1.297
X-11.411 Y-1.488
X-10.978 Y-2.275
X-10.968 Y-2.288
X-10.171 Y-3.054
X-10.148 Y-3.071
X-9.145 Y-3.567
X-9.094 Y-3.582
X-8.597 Y-3.657
X-8.593 Y-3.589
X-8.582 Y-3.521
X-8.555 Y-3.386
X-8.538 Y-3.317
X-8.514 Y-3.25
X-8.459 Y-3.116
X-8.428 Y-3.05
X-8.391 Y-2.988
X-8.312 Y-2.868
X-8.271 Y-2.811
X-8.225 Y-2.758
X-8.13 Y-2.66
X-8.073 Y-2.608
X-8.012 Y-2.561
X-7.869 Y-2.465
X-7.799 Y-2.423
X-7.726 Y-2.389
X-7.583 Y-2.332
X-7.508 Y-2.307
X-7.43 Y-2.289
X-7.268 Y-2.262
X-7.206 Y-2.254
X-7.144 Y-2.252
X-4.673 Y-2.251
S15000
G3 X-4.189 Y0.514 Z-1.584 I0 J1.425 F300
G1 X-8.562 Y2.096 Z-1.682
G3 X-9.532 Y-0.585 Z-1.777 I-0.485 J-1.34
X-8.461 Y-0.543 Z-1.8 I0.485 J1.34
S500
G2 X-8.187 Y-0.43 I1.869 J-4.139 F1000
X-7.601 Y-0.273 I1.106 J-2.949
X-4.027 Y-0.124 I2.384 J-14.227
G3 X-0.453 Y-0.271 I3.563 J43.06
X-0.453 Y0.271 I0 J0.271
X-3.692 Y0.137 I-0.007 J-39.268
G2 X-6.929 Y0.29 I-1.033 J12.504
X-7.749 Y0.585 I0.457 J2.561
X-8.463 Y1.083 I2.21 J3.924
G3 X-9.401 Y1.017 I-0.435 J-0.51
G1 X-9.463 Y0.935
X-9.512 Y0.844
X-9.643 Y0.548
X-9.678 Y0.451
X-9.697 Y0.35
X-9.732 Y0.034
X-9.736 Y-0.068
X-9.724 Y-0.17
X-9.714 Y-0.219
G3 X-8.739 Y-0.681 I0.658 J0.129
G2 X-8.461 Y-0.543 I2.147 J-4.001
X-6.476 Y-1.196 I0.636 J-1.409
G3 X-4.673 Y-2.251 I1.802 J1.011
G1 X-0.109 Y-2.25
X0.633 Y-2.142
X1.189 Y-1.891
X1.679 Y-1.475
X2.173 Y-0.726
X2.209 Y-0.676
X2.249 Y-0.63
X2.34 Y-0.532
X2.392 Y-0.48
X2.45 Y-0.434
X2.58 Y-0.34
X2.641 Y-0.3
X2.706 Y-0.267
X2.825 Y-0.212
X2.894 Y-0.184
X2.966 Y-0.163
X3.128 Y-0.125
X3.212 Y-0.11
X3.297 Y-0.104
X4.38 Y-0.099
X7.238
X7.258 Y-0.095
X7.454 Y-0.048
X7.479 Y-0.026
X7.491 Y0.005
X7.45 Y0.452
X7.447 Y0.521
X7.449 Y8.448
X7.452 Y8.512
X7.46 Y8.575
X7.485 Y8.719
X7.501 Y8.793
X7.525 Y8.864
X7.581 Y9.008
X7.61 Y9.073
X7.645 Y9.135
X7.714 Y9.245
X7.756 Y9.305
X7.804 Y9.361
X7.917 Y9.481
X7.975 Y9.535
X8.038 Y9.584
X8.163 Y9.67
X8.225 Y9.708
X8.29 Y9.739
X8.415 Y9.794
X8.486 Y9.82
X8.559 Y9.84
X8.722 Y9.874
X8.798 Y9.885
X8.875 Y9.89
X14.99 Y9.896
X15.063 Y9.907
X15.243 Y9.952
X15.321 Y9.967
X15.4 Y9.973
X15.616 Y9.98
X15.641
X29.262 Y9.974
X29.341 Y9.989
X29.385 Y9.999
X29.281 Y10.023
X29.257 Y10.024
X15.477 Y10.032
X15.412 Y10.035
X15.347 Y10.044
X15.185 Y10.072
X15.128 Y10.085
X15.023 Y10.112
X14.955 Y10.118
X7.611 Y10.119
X7.388 Y10.066
X7.365 Y10.047
X7.354 Y10.019
X7.392 Y9.601
X7.395 Y9.534
X7.393 Y1.552
X7.389 Y1.469
X7.375 Y1.388
X7.336 Y1.212
X7.314 Y1.137
X7.286 Y1.064
X7.23 Y0.943
X7.194 Y0.873
X7.15 Y0.808
X7.043 Y0.664
X6.99 Y0.6
X6.929 Y0.542
X6.81 Y0.44
X6.748 Y0.392
X6.681 Y0.351
X6.543 Y0.276
X6.478 Y0.245
X6.411 Y0.22
X6.288 Y0.181
X6.217 Y0.162
X6.145 Y0.15
X5.982 Y0.132
X5.898 Y0.128
X3.3 Y0.132
X3.22 Y0.136
X3.142 Y0.149
X2.979 Y0.184
X2.898 Y0.207
X2.82 Y0.238
X2.665 Y0.311
X2.588 Y0.352
X2.517 Y0.403
X2.376 Y0.515
X2.316 Y0.569
X2.261 Y0.629
X2.17 Y0.742
X2.131 Y0.795
X1.655 Y1.499
X1.19 Y1.892
X0.604 Y2.15
X-0.107 Y2.25
X-6.278 Y2.251
X-6.344 Y2.254
X-6.41 Y2.263
X-6.572 Y2.292
X-6.645 Y2.309
X-6.716 Y2.333
X-6.841 Y2.382
X-6.906 Y2.411
X-6.968 Y2.446
X-7.093 Y2.526
X-7.155 Y2.57
X-7.213 Y2.62
X-7.325 Y2.73
X-7.38 Y2.788
X-7.428 Y2.853
X-7.519 Y2.989
X-7.56 Y3.06
X-7.594 Y3.134
X-7.652 Y3.286
X-7.678 Y3.365
X-7.695 Y3.446
X-7.699 Y3.474
X-9.407 Y3.472
X-10.375 Y2.896
X-10.404 Y2.872
X-11.156 Y2.019
X-11.612 Y0.993
X-11.622 Y0.942
X-11.745 Y-0.152
X-11.524 Y-1.273
X-11.514 Y-1.297
X-11.411 Y-1.488
X-10.978 Y-2.275
X-10.968 Y-2.288
X-10.171 Y-3.054
X-10.148 Y-3.071
X-9.145 Y-3.567
X-9.094 Y-3.582
X-8.597 Y-3.657
X-8.593 Y-3.589
X-8.582 Y-3.521
X-8.555 Y-3.386
X-8.538 Y-3.317
X-8.514 Y-3.25
X-8.459 Y-3.116
X-8.428 Y-3.05
X-8.391 Y-2.988
X-8.312 Y-2.868
X-8.271 Y-2.811
X-8.225 Y-2.758
X-8.13 Y-2.66
X-8.073 Y-2.608
X-8.012 Y-2.561
X-7.869 Y-2.465
X-7.799 Y-2.423
X-7.726 Y-2.389
X-7.583 Y-2.332
X-7.508 Y-2.307
X-7.43 Y-2.289
X-7.268 Y-2.262
X-7.206 Y-2.254
X-7.144 Y-2.252
X-4.673 Y-2.251
S15000
G3 X-4.189 Y0.514 Z-1.884 I0 J1.425 F300
G1 X-8.562 Y2.096 Z-1.982
G3 X-9.532 Y-0.585 Z-2.077 I-0.485 J-1.34
X-8.461 Y-0.543 Z-2.1 I0.485 J1.34
S500
G2 X-8.187 Y-0.43 I1.869 J-4.139 F1000
X-7.601 Y-0.273 I1.106 J-2.949
X-4.027 Y-0.124 I2.384 J-14.227
G3 X-0.453 Y-0.271 I3.563 J43.06
X-0.453 Y0.271 I0 J0.271
X-3.692 Y0.137 I-0.007 J-39.268
G2 X-6.929 Y0.29 I-1.033 J12.504
X-7.749 Y0.585 I0.457 J2.561
X-8.463 Y1.083 I2.21 J3.924
G3 X-9.401 Y1.017 I-0.435 J-0.51
G1 X-9.463 Y0.935
X-9.512 Y0.844
X-9.643 Y0.548
X-9.678 Y0.451
X-9.697 Y0.35
X-9.732 Y0.034
X-9.736 Y-0.068
X-9.724 Y-0.17
X-9.714 Y-0.219
G3 X-8.739 Y-0.681 I0.658 J0.129
G2 X-8.461 Y-0.543 I2.147 J-4.001
X-6.476 Y-1.196 I0.636 J-1.409
G3 X-4.673 Y-2.251 I1.802 J1.011
G1 X-0.109 Y-2.25
X0.633 Y-2.142
X1.189 Y-1.891
X1.679 Y-1.475
X2.173 Y-0.726
X2.209 Y-0.676
X2.249 Y-0.63
X2.34 Y-0.532
X2.392 Y-0.48
X2.45 Y-0.434
X2.58 Y-0.34
X2.641 Y-0.3
X2.706 Y-0.267
X2.825 Y-0.212
X2.894 Y-0.184
X2.966 Y-0.163
X3.128 Y-0.125
X3.212 Y-0.11
X3.297 Y-0.104
X4.38 Y-0.099
X7.238
X7.258 Y-0.095
X7.454 Y-0.048
X7.479 Y-0.026
X7.491 Y0.005
X7.45 Y0.452
X7.447 Y0.521
X7.449 Y8.448
X7.452 Y8.512
X7.46 Y8.575
X7.485 Y8.719
X7.501 Y8.793
X7.525 Y8.864
X7.581 Y9.008
X7.61 Y9.073
X7.645 Y9.135
X7.714 Y9.245
X7.756 Y9.305
X7.804 Y9.361
X7.917 Y9.481
X7.975 Y9.535
X8.038 Y9.584
X8.163 Y9.67
X8.225 Y9.708
X8.29 Y9.739
X8.415 Y9.794
X8.486 Y9.82
X8.559 Y9.84
X8.722 Y9.874
X8.798 Y9.885
X8.875 Y9.89
X14.99 Y9.896
X15.063 Y9.907
X15.243 Y9.952
X15.321 Y9.967
X15.4 Y9.973
X15.616 Y9.98
X15.641
X29.262 Y9.974
X29.341 Y9.989
X29.385 Y9.999
X29.281 Y10.023
X29.257 Y10.024
X15.477 Y10.032
X15.412 Y10.035
X15.347 Y10.044
X15.185 Y10.072
X15.128 Y10.085
X15.023 Y10.112
X14.955 Y10.118
X7.611 Y10.119
X7.388 Y10.066
X7.365 Y10.047
X7.354 Y10.019
X7.392 Y9.601
X7.395 Y9.534
X7.393 Y1.552
X7.389 Y1.469
X7.375 Y1.388
X7.336 Y1.212
X7.314 Y1.137
X7.286 Y1.064
X7.23 Y0.943
X7.194 Y0.873
X7.15 Y0.808
X7.043 Y0.664
X6.99 Y0.6
X6.929 Y0.542
X6.81 Y0.44
X6.748 Y0.392
X6.681 Y0.351
X6.543 Y0.276
X6.478 Y0.245
X6.411 Y0.22
X6.288 Y0.181
X6.217 Y0.162
X6.145 Y0.15
X5.982 Y0.132
X5.898 Y0.128
X3.3 Y0.132
X3.22 Y0.136
X3.142 Y0.149
X2.979 Y0.184
X2.898 Y0.207
X2.82 Y0.238
X2.665 Y0.311
X2.588 Y0.352
X2.517 Y0.403
X2.376 Y0.515
X2.316 Y0.569
X2.261 Y0.629
X2.17 Y0.742
X2.131 Y0.795
X1.655 Y1.499
X1.19 Y1.892
X0.604 Y2.15
X-0.107 Y2.25
X-6.278 Y2.251
X-6.344 Y2.254
X-6.41 Y2.263
X-6.572 Y2.292
X-6.645 Y2.309
X-6.716 Y2.333
X-6.841 Y2.382
X-6.906 Y2.411
X-6.968 Y2.446
X-7.093 Y2.526
X-7.155 Y2.57
X-7.213 Y2.62
X-7.325 Y2.73
X-7.38 Y2.788
X-7.428 Y2.853
X-7.519 Y2.989
X-7.56 Y3.06
X-7.594 Y3.134
X-7.652 Y3.286
X-7.678 Y3.365
X-7.695 Y3.446
X-7.699 Y3.474
X-9.407 Y3.472
X-10.375 Y2.896
X-10.404 Y2.872
X-11.156 Y2.019
X-11.612 Y0.993
X-11.622 Y0.942
X-11.745 Y-0.152
X-11.524 Y-1.273
X-11.514 Y-1.297
X-11.411 Y-1.488
X-10.978 Y-2.275
X-10.968 Y-2.288
X-10.171 Y-3.054
X-10.148 Y-3.071
X-9.145 Y-3.567
X-9.094 Y-3.582
X-8.597 Y-3.657
X-8.593 Y-3.589
X-8.582 Y-3.521
X-8.555 Y-3.386
X-8.538 Y-3.317
X-8.514 Y-3.25
X-8.459 Y-3.116
X-8.428 Y-3.05
X-8.391 Y-2.988
X-8.312 Y-2.868
X-8.271 Y-2.811
X-8.225 Y-2.758
X-8.13 Y-2.66
X-8.073 Y-2.608
X-8.012 Y-2.561
X-7.869 Y-2.465
X-7.799 Y-2.423
X-7.726 Y-2.389
X-7.583 Y-2.332
X-7.508 Y-2.307
X-7.43 Y-2.289
X-7.268 Y-2.262
X-7.206 Y-2.254
X-7.144 Y-2.252
X-4.673 Y-2.251
S15000
G3 X-4.189 Y0.514 Z-2.184 I0 J1.425 F300
G1 X-8.562 Y2.096 Z-2.282
G3 X-9.532 Y-0.585 Z-2.377 I-0.485 J-1.34
X-8.461 Y-0.543 Z-2.4 I0.485 J1.34
S500
G2 X-8.187 Y-0.43 I1.869 J-4.139 F1000
X-7.601 Y-0.273 I1.106 J-2.949
X-4.027 Y-0.124 I2.384 J-14.227
G3 X-0.453 Y-0.271 I3.563 J43.06
X-0.453 Y0.271 I0 J0.271
X-3.692 Y0.137 I-0.007 J-39.268
G2 X-6.929 Y0.29 I-1.033 J12.504
X-7.749 Y0.585 I0.457 J2.561
X-8.463 Y1.083 I2.21 J3.924
G3 X-9.401 Y1.017 I-0.435 J-0.51
G1 X-9.463 Y0.935
X-9.512 Y0.844
X-9.643 Y0.548
X-9.678 Y0.451
X-9.697 Y0.35
X-9.732 Y0.034
X-9.736 Y-0.068
X-9.724 Y-0.17
X-9.714 Y-0.219
G3 X-8.739 Y-0.681 I0.658 J0.129
G2 X-8.461 Y-0.543 I2.147 J-4.001
X-6.476 Y-1.196 I0.636 J-1.409
G3 X-4.673 Y-2.251 I1.802 J1.011
G1 X-0.109 Y-2.25
X0.633 Y-2.142
X1.189 Y-1.891
X1.679 Y-1.475
X2.173 Y-0.726
X2.209 Y-0.676
X2.249 Y-0.63
X2.34 Y-0.532
X2.392 Y-0.48
X2.45 Y-0.434
X2.58 Y-0.34
X2.641 Y-0.3
X2.706 Y-0.267
X2.825 Y-0.212
X2.894 Y-0.184
X2.966 Y-0.163
X3.128 Y-0.125
X3.212 Y-0.11
X3.297 Y-0.104
X4.38 Y-0.099
X7.238
X7.258 Y-0.095
X7.454 Y-0.048
X7.479 Y-0.026
X7.491 Y0.005
X7.45 Y0.452
X7.447 Y0.521
X7.449 Y8.448
X7.452 Y8.512
X7.46 Y8.575
X7.485 Y8.719
X7.501 Y8.793
X7.525 Y8.864
X7.581 Y9.008
X7.61 Y9.073
X7.645 Y9.135
X7.714 Y9.245
X7.756 Y9.305
X7.804 Y9.361
X7.917 Y9.481
X7.975 Y9.535
X8.038 Y9.584
X8.163 Y9.67
X8.225 Y9.708
X8.29 Y9.739
X8.415 Y9.794
X8.486 Y9.82
X8.559 Y9.84
X8.722 Y9.874
X8.798 Y9.885
X8.875 Y9.89
X14.99 Y9.896
X15.063 Y9.907
X15.243 Y9.952
X15.321 Y9.967
X15.4 Y9.973
X15.616 Y9.98
X15.641
X29.262 Y9.974
X29.341 Y9.989
X29.385 Y9.999
X29.281 Y10.023
X29.257 Y10.024
X15.477 Y10.032
X15.412 Y10.035
X15.347 Y10.044
X15.185 Y10.072
X15.128 Y10.085
X15.023 Y10.112
X14.955 Y10.118
X7.611 Y10.119
X7.388 Y10.066
X7.365 Y10.047
X7.354 Y10.019
X7.392 Y9.601
X7.395 Y9.534
X7.393 Y1.552
X7.389 Y1.469
X7.375 Y1.388
X7.336 Y1.212
X7.314 Y1.137
X7.286 Y1.064
X7.23 Y0.943
X7.194 Y0.873
X7.15 Y0.808
X7.043 Y0.664
X6.99 Y0.6
X6.929 Y0.542
X6.81 Y0.44
X6.748 Y0.392
X6.681 Y0.351
X6.543 Y0.276
X6.478 Y0.245
X6.411 Y0.22
X6.288 Y0.181
X6.217 Y0.162
X6.145 Y0.15
X5.982 Y0.132
X5.898 Y0.128
X3.3 Y0.132
X3.22 Y0.136
X3.142 Y0.149
X2.979 Y0.184
X2.898 Y0.207
X2.82 Y0.238
X2.665 Y0.311
X2.588 Y0.352
X2.517 Y0.403
X2.376 Y0.515
X2.316 Y0.569
X2.261 Y0.629
X2.17 Y0.742
X2.131 Y0.795
X1.655 Y1.499
X1.19 Y1.892
X0.604 Y2.15
X-0.107 Y2.25
X-6.278 Y2.251
X-6.344 Y2.254
X-6.41 Y2.263
X-6.572 Y2.292
X-6.645 Y2.309
X-6.716 Y2.333
X-6.841 Y2.382
X-6.906 Y2.411
X-6.968 Y2.446
X-7.093 Y2.526
X-7.155 Y2.57
X-7.213 Y2.62
X-7.325 Y2.73
X-7.38 Y2.788
X-7.428 Y2.853
X-7.519 Y2.989
X-7.56 Y3.06
X-7.594 Y3.134
X-7.652 Y3.286
X-7.678 Y3.365
X-7.695 Y3.446
X-7.699 Y3.474
X-9.407 Y3.472
X-10.375 Y2.896
X-10.404 Y2.872
X-11.156 Y2.019
X-11.612 Y0.993
X-11.622 Y0.942
X-11.745 Y-0.152
X-11.524 Y-1.273
X-11.514 Y-1.297
X-11.411 Y-1.488
X-10.978 Y-2.275
X-10.968 Y-2.288
X-10.171 Y-3.054
X-10.148 Y-3.071
X-9.145 Y-3.567
X-9.094 Y-3.582
X-8.597 Y-3.657
X-8.593 Y-3.589
X-8.582 Y-3.521
X-8.555 Y-3.386
X-8.538 Y-3.317
X-8.514 Y-3.25
X-8.459 Y-3.116
X-8.428 Y-3.05
X-8.391 Y-2.988
X-8.312 Y-2.868
X-8.271 Y-2.811
X-8.225 Y-2.758
X-8.13 Y-2.66
X-8.073 Y-2.608
X-8.012 Y-2.561
X-7.869 Y-2.465
X-7.799 Y-2.423
X-7.726 Y-2.389
X-7.583 Y-2.332
X-7.508 Y-2.307
X-7.43 Y-2.289
X-7.268 Y-2.262
X-7.206 Y-2.254
X-7.144 Y-2.252
X-4.673 Y-2.251
S15000
G3 X-4.189 Y0.514 Z-2.484 I0 J1.425 F300
G1 X-8.562 Y2.096 Z-2.582
G3 X-9.532 Y-0.585 Z-2.677 I-0.485 J-1.34
X-8.461 Y-0.543 Z-2.7 I0.485 J1.34
S500
G2 X-8.187 Y-0.43 I1.869 J-4.139 F1000
X-7.601 Y-0.273 I1.106 J-2.949
X-4.027 Y-0.124 I2.384 J-14.227
G3 X-0.453 Y-0.271 I3.563 J43.06
X-0.453 Y0.271 I0 J0.271
X-3.692 Y0.137 I-0.007 J-39.268
G2 X-6.929 Y0.29 I-1.033 J12.504
X-7.749 Y0.585 I0.457 J2.561
X-8.463 Y1.083 I2.21 J3.924
G3 X-9.401 Y1.017 I-0.435 J-0.51
G1 X-9.463 Y0.935
X-9.512 Y0.844
X-9.643 Y0.548
X-9.678 Y0.451
X-9.697 Y0.35
X-9.732 Y0.034
X-9.736 Y-0.068
X-9.724 Y-0.17
X-9.714 Y-0.219
G3 X-8.739 Y-0.681 I0.658 J0.129
G2 X-8.461 Y-0.543 I2.147 J-4.001
X-6.476 Y-1.196 I0.636 J-1.409
G3 X-4.673 Y-2.251 I1.802 J1.011
G1 X-0.109 Y-2.25
X0.633 Y-2.142
X1.189 Y-1.891
X1.679 Y-1.475
X2.173 Y-0.726
X2.209 Y-0.676
X2.249 Y-0.63
X2.34 Y-0.532
X2.392 Y-0.48
X2.45 Y-0.434
X2.58 Y-0.34
X2.641 Y-0.3
X2.706 Y-0.267
X2.825 Y-0.212
X2.894 Y-0.184
X2.966 Y-0.163
X3.128 Y-0.125
X3.212 Y-0.11
X3.297 Y-0.104
X4.38 Y-0.099
X7.238
X7.258 Y-0.095
X7.454 Y-0.048
X7.479 Y-0.026
X7.491 Y0.005
X7.45 Y0.452
X7.447 Y0.521
X7.449 Y8.448
X7.452 Y8.512
X7.46 Y8.575
X7.485 Y8.719
X7.501 Y8.793
X7.525 Y8.864
X7.581 Y9.008
X7.61 Y9.073
X7.645 Y9.135
X7.714 Y9.245
X7.756 Y9.305
X7.804 Y9.361
X7.917 Y9.481
X7.975 Y9.535
X8.038 Y9.584
X8.163 Y9.67
X8.225 Y9.708
X8.29 Y9.739
X8.415 Y9.794
X8.486 Y9.82
X8.559 Y9.84
X8.722 Y9.874
X8.798 Y9.885
X8.875 Y9.89
X14.99 Y9.896
X15.063 Y9.907
X15.243 Y9.952
X15.321 Y9.967
X15.4 Y9.973
X15.616 Y9.98
X15.641
X29.262 Y9.974
X29.341 Y9.989
X29.385 Y9.999
X29.281 Y10.023
X29.257 Y10.024
X15.477 Y10.032
X15.412 Y10.035
X15.347 Y10.044
X15.185 Y10.072
X15.128 Y10.085
X15.023 Y10.112
X14.955 Y10.118
X7.611 Y10.119
X7.388 Y10.066
X7.365 Y10.047
X7.354 Y10.019
X7.392 Y9.601
X7.395 Y9.534
X7.393 Y1.552
X7.389 Y1.469
X7.375 Y1.388
X7.336 Y1.212
X7.314 Y1.137
X7.286 Y1.064
X7.23 Y0.943
X7.194 Y0.873
X7.15 Y0.808
X7.043 Y0.664
X6.99 Y0.6
X6.929 Y0.542
X6.81 Y0.44
X6.748 Y0.392
X6.681 Y0.351
X6.543 Y0.276
X6.478 Y0.245
X6.411 Y0.22
X6.288 Y0.181
X6.217 Y0.162
X6.145 Y0.15
X5.982 Y0.132
X5.898 Y0.128
X3.3 Y0.132
X3.22 Y0.136
X3.142 Y0.149
X2.979 Y0.184
X2.898 Y0.207
X2.82 Y0.238
X2.665 Y0.311
X2.588 Y0.352
X2.517 Y0.403
X2.376 Y0.515
X2.316 Y0.569
X2.261 Y0.629
X2.17 Y0.742
X2.131 Y0.795
X1.655 Y1.499
X1.19 Y1.892
X0.604 Y2.15
X-0.107 Y2.25
X-6.278 Y2.251
X-6.344 Y2.254
X-6.41 Y2.263
X-6.572 Y2.292
X-6.645 Y2.309
X-6.716 Y2.333
X-6.841 Y2.382
X-6.906 Y2.411
X-6.968 Y2.446
X-7.093 Y2.526
X-7.155 Y2.57
X-7.213 Y2.62
X-7.325 Y2.73
X-7.38 Y2.788
X-7.428 Y2.853
X-7.519 Y2.989
X-7.56 Y3.06
X-7.594 Y3.134
X-7.652 Y3.286
X-7.678 Y3.365
X-7.695 Y3.446
X-7.699 Y3.474
X-9.407 Y3.472
X-10.375 Y2.896
X-10.404 Y2.872
X-11.156 Y2.019
X-11.612 Y0.993
X-11.622 Y0.942
X-11.745 Y-0.152
X-11.524 Y-1.273
X-11.514 Y-1.297
X-11.411 Y-1.488
X-10.978 Y-2.275
X-10.968 Y-2.288
X-10.171 Y-3.054
X-10.148 Y-3.071
X-9.145 Y-3.567
X-9.094 Y-3.582
X-8.597 Y-3.657
X-8.593 Y-3.589
X-8.582 Y-3.521
X-8.555 Y-3.386
X-8.538 Y-3.317
X-8.514 Y-3.25
X-8.459 Y-3.116
X-8.428 Y-3.05
X-8.391 Y-2.988
X-8.312 Y-2.868
X-8.271 Y-2.811
X-8.225 Y-2.758
X-8.13 Y-2.66
X-8.073 Y-2.608
X-8.012 Y-2.561
X-7.869 Y-2.465
X-7.799 Y-2.423
X-7.726 Y-2.389
X-7.583 Y-2.332
X-7.508 Y-2.307
X-7.43 Y-2.289
X-7.268 Y-2.262
X-7.206 Y-2.254
X-7.144 Y-2.252
X-4.673 Y-2.251
X-4.627 Y-2.248 Z-2.693 F300
X-4.582 Y-2.237 Z-2.685
X-4.543 Y-2.222 Z-2.664
X-4.507 Y-2.201 Z-2.643
X-4.456 Y-2.158 Z-2.576
X-4.429 Y-2.125 Z-2.493
X-4.421 Y-2.113 Z-2.4
Z4 F1000
X31.831 Y14.921
Z0.615
S15000
Y14.935 Z0.524 F300
X31.83 Y14.976 Z0.442
X31.825 Y15.04 Z0.376
X31.816 Y15.12 Z0.332
X31.8 Y15.209 Z0.315
G3 X29.012 Y14.617 Z0.165 I-1.394 J-0.296
X31.8 Y15.209 Z0.015 I1.394 J0.296
X29.012 Y14.617 Z-0.135 I-1.394 J-0.296
X30.406 Y13.488 Z-0.2 I1.394 J0.296
X31.407 Y14.489 I0 J1.001
X30.406 Y15.49 I-1.001 J0
S500
G1 X15.714 Y15.492 F1000
G3 X15.714 Y14.516 I0 J-0.488
G1 X30.475 Y14.512
G3 X30.801 Y14.705 I0 J0.371
G1 X30.859 Y14.804
G3 X30.861 Y15.198 I-0.314 J0.198
G1 X30.828 Y15.25
X30.797 Y15.303
G3 X30.475 Y15.49 I-0.322 J-0.184
G1 X30.406
X30.36 Y15.486 Z-0.193 F300
X30.315 Y15.476 Z-0.185
X30.276 Y15.46 Z-0.164
X30.24 Y15.439 Z-0.143
X30.189 Y15.397 Z-0.076
X30.162 Y15.364 Z0.007
X30.154 Y15.352 Z0.1
Z4 F1000
X54.479 Y15.48
Z0.615
S15000
X54.484 Y15.493 Z0.524 F300
X54.497 Y15.532 Z0.442
X54.516 Y15.593 Z0.376
X54.536 Y15.671 Z0.332
X54.552 Y15.76 Z0.315
G3 X51.736 Y16.197 Z0.165 I-1.408 J0.218
X54.552 Y15.76 Z0.015 I1.408 J-0.218
X51.736 Y16.197 Z-0.135 I-1.408 J0.218
X52.638 Y14.646 Z-0.2 I1.408 J-0.218
S500
G2 X52.888 Y14.549 I-5.336 J-14.041 F1000
G3 X53.564 Y14.918 I0.186 J0.464
G1 X53.567 Y14.933
X53.575 Y15.008
X53.572 Y15.084
X53.541 Y15.355
G3 X52.531 Y15.854 I-0.666 J-0.077
G2 X51.665 Y15.447 I-2.489 J4.173
X50.722 Y15.283 I-0.956 J2.699
G1 X44.289 Y15.313
G3 X44.292 Y14.772 I0.001 J-0.271
X48.253 Y14.926 I-0.237 J56.999
G2 X52.215 Y14.766 I1.283 J-17.368
X52.557 Y14.677 I-0.269 J-1.727
G1 X52.638 Y14.646
G2 X53.241 Y13.293 I-0.371 J-0.976
G3 X54.476 Y12.475 I0.707 J-0.274
G1 X54.813 Y12.801
X54.835 Y12.832
X55.356 Y13.795
X55.373 Y13.847
X55.581 Y14.933
X55.452 Y16.052
X55.435 Y16.105
X54.99 Y17.099
X54.981 Y17.113
X54.238 Y17.952
X54.224 Y17.964
X53.26 Y18.54
X53.245 Y18.545
X52.197 Y18.548
X52.19 Y18.516
X52.146 Y18.353
X52.124 Y18.284
X52.095 Y18.217
X52.042 Y18.109
X52.01 Y18.05
X51.972 Y17.993
X51.884 Y17.874
X51.838 Y17.817
X51.788 Y17.766
X51.684 Y17.671
X51.625 Y17.622
X51.561 Y17.579
X51.418 Y17.494
X51.343 Y17.455
X51.265 Y17.424
X51.102 Y17.372
X51.022 Y17.351
X50.94 Y17.339
X50.777 Y17.324
X50.713 Y17.321
X43.947 Y17.29
X43.189 Y17.178
X42.613 Y16.907
X42.543 Y16.849
X42.114 Y16.461
X41.624 Y15.67
X41.578 Y15.604
X41.526 Y15.544
X41.408 Y15.423
X41.351 Y15.37
X41.289 Y15.323
X41.172 Y15.243
X41.104 Y15.203
X41.034 Y15.17
X40.875 Y15.105
X40.802 Y15.08
X40.726 Y15.062
X40.589 Y15.037
X40.522 Y15.028
X40.455 Y15.025
X32.958 Y15.027
X32.885 Y15.031
X32.812 Y15.042
X32.642 Y15.075
X32.558 Y15.097
X32.476 Y15.129
X32.316 Y15.202
X32.249 Y15.237
X32.186 Y15.279
X32.083 Y15.354
X32.027 Y15.399
X31.976 Y15.449
X31.869 Y15.564
X31.822 Y15.62
X31.78 Y15.68
X31.709 Y15.795
X31.676 Y15.855
X31.648 Y15.919
X31.597 Y16.05
X31.573 Y16.122
X31.557 Y16.197
X31.529 Y16.36
X31.522 Y16.421
X31.519 Y16.482
Y16.525
X15.004 Y16.528
X14.927 Y16.514
X14.345 Y16.377
X13.976 Y16.089
Y13.924
X14.333 Y13.638
X14.341 Y13.633
X14.986 Y13.486
X15.081 Y13.481
X31.522 Y13.476
Y13.555
X31.526 Y13.632
X31.538 Y13.707
X31.571 Y13.863
X31.592 Y13.94
X31.62 Y14.013
X31.684 Y14.156
X31.722 Y14.23
X31.768 Y14.3
X31.875 Y14.443
X31.929 Y14.507
X31.99 Y14.565
X32.11 Y14.666
X32.172 Y14.714
X32.239 Y14.754
X32.375 Y14.828
X32.442 Y14.86
X32.512 Y14.885
X32.648 Y14.927
X32.705 Y14.942
X32.762 Y14.952
X32.853 Y14.965
X32.958 Y14.973
X40.481 Y14.971
X40.548 Y14.968
X40.614 Y14.959
X40.777 Y14.929
X40.858 Y14.91
X40.937 Y14.881
X41.094 Y14.815
X41.162 Y14.781
X41.227 Y14.741
X41.336 Y14.666
X41.392 Y14.623
X41.444 Y14.574
X41.55 Y14.467
X41.599 Y14.411
X41.643 Y14.351
X42.143 Y13.585
X42.626 Y13.164
X42.89 Y13.04
X43.23 Y12.891
X43.941 Y12.792
X51.626 Y12.824
X51.686 Y12.822
X51.745 Y12.815
X51.907 Y12.79
X51.99 Y12.772
X52.07 Y12.745
X52.233 Y12.68
X52.298 Y12.65
X52.361 Y12.614
X52.455 Y12.553
X52.51 Y12.514
X52.562 Y12.469
X52.677 Y12.361
X52.728 Y12.308
X52.774 Y12.251
X52.852 Y12.142
X52.894 Y12.077
X52.929 Y12.007
X53 Y11.844
X53.03 Y11.763
X53.051 Y11.68
X53.075 Y11.552
X53.992 Y12.013
X54.039 Y12.051
X54.476 Y12.475
S15000
G3 X54.878 Y13.68 Z-0.241 I-0.96 J0.99 F300
G1 X54.486 Y16.152 Z-0.319
G3 X51.763 Y15.72 Z-0.455 I-1.362 J-0.216
X52.635 Y14.648 Z-0.5 I1.362 J0.216
S500
G2 X52.888 Y14.549 I-5.333 J-14.042 F1000
G3 X53.564 Y14.918 I0.186 J0.464
G1 X53.567 Y14.933
X53.575 Y15.008
X53.572 Y15.084
X53.541 Y15.355
G3 X52.531 Y15.854 I-0.666 J-0.077
G2 X51.665 Y15.447 I-2.489 J4.173
X50.722 Y15.283 I-0.956 J2.699
G1 X44.289 Y15.313
G3 X44.292 Y14.772 I0.001 J-0.271
X48.253 Y14.926 I-0.237 J56.999
G2 X52.215 Y14.766 I1.283 J-17.368
X52.557 Y14.677 I-0.269 J-1.727
G1 X52.635 Y14.648
X52.68 Y14.637 Z-0.493 F300
X52.726 Y14.633 Z-0.485
X52.768 Y14.636 Z-0.464
X52.808 Y14.644 Z-0.443
X52.87 Y14.669 Z-0.376
X52.906 Y14.692 Z-0.293
X52.917 Y14.701 Z-0.2
Z4 F1000
X29.701 Y13.675
Z0.415
S15000
X29.713 Y13.668 Z0.324 F300
X29.749 Y13.649 Z0.242
X29.806 Y13.62 Z0.176
X29.881 Y13.588 Z0.132
X29.966 Y13.558 Z0.115
G3 X30.847 Y16.268 Z-0.035 I0.441 J1.355
X29.966 Y13.558 Z-0.185 I-0.441 J-1.355
X30.847 Y16.268 Z-0.335 I0.441 J1.355
X28.999 Y15.136 Z-0.418 I-0.441 J-1.355
X30.406 Y13.488 Z-0.5 I1.407 J-0.223
X31.407 Y14.489 I0 J1.001
X30.406 Y15.49 I-1.001 J0
S500
G1 X15.714 Y15.492 F1000
G3 X15.714 Y14.516 I0 J-0.488
G1 X30.475 Y14.512
G3 X30.801 Y14.705 I0 J0.371
G1 X30.859 Y14.804
G3 X30.861 Y15.198 I-0.314 J0.198
G1 X30.828 Y15.25
X30.797 Y15.303
G3 X30.475 Y15.49 I-0.322 J-0.184
G1 X30.406
G2 X29.629 Y16.008 I0 J0.842
G3 X28.853 Y16.526 I-0.777 J-0.324
G1 X15.004 Y16.528
X14.927 Y16.514
X14.345 Y16.377
X13.976 Y16.089
Y13.924
X14.333 Y13.638
X14.341 Y13.633
X14.986 Y13.486
X15.081 Y13.481
X31.522 Y13.476
Y13.555
X31.526 Y13.632
X31.538 Y13.707
X31.571 Y13.863
X31.592 Y13.94
X31.62 Y14.013
X31.684 Y14.156
X31.722 Y14.23
X31.768 Y14.3
X31.875 Y14.443
X31.929 Y14.507
X31.99 Y14.565
X32.11 Y14.666
X32.172 Y14.714
X32.239 Y14.754
X32.375 Y14.828
X32.442 Y14.86
X32.512 Y14.885
X32.648 Y14.927
X32.705 Y14.942
X32.762 Y14.952
X32.853 Y14.965
X32.958 Y14.973
X40.481 Y14.971
X40.548 Y14.968
X40.614 Y14.959
X40.777 Y14.929
X40.858 Y14.91
X40.937 Y14.881
X41.094 Y14.815
X41.162 Y14.781
X41.227 Y14.741
X41.336 Y14.666
X41.392 Y14.623
X41.444 Y14.574
X41.55 Y14.467
X41.599 Y14.411
X41.643 Y14.351
X42.143 Y13.585
X42.626 Y13.164
X42.89 Y13.04
X43.23 Y12.891
X43.941 Y12.792
X51.626 Y12.824
X51.686 Y12.822
X51.745 Y12.815
X51.907 Y12.79
X51.99 Y12.772
X52.07 Y12.745
X52.233 Y12.68
X52.298 Y12.65
X52.361 Y12.614
X52.455 Y12.553
X52.51 Y12.514
X52.562 Y12.469
X52.677 Y12.361
X52.728 Y12.308
X52.774 Y12.251
X52.852 Y12.142
X52.894 Y12.077
X52.929 Y12.007
X53 Y11.844
X53.03 Y11.763
X53.051 Y11.68
X53.075 Y11.552
X53.992 Y12.013
X54.039 Y12.051
X54.813 Y12.801
X54.835 Y12.832
X55.356 Y13.795
X55.373 Y13.847
X55.581 Y14.933
X55.452 Y16.052
X55.435 Y16.105
X54.99 Y17.099
X54.981 Y17.113
X54.238 Y17.952
X54.224 Y17.964
X53.26 Y18.54
X53.245 Y18.545
X52.197 Y18.548
X52.19 Y18.516
X52.146 Y18.353
X52.124 Y18.284
X52.095 Y18.217
X52.042 Y18.109
X52.01 Y18.05
X51.972 Y17.993
X51.884 Y17.874
X51.838 Y17.817
X51.788 Y17.766
X51.684 Y17.671
X51.625 Y17.622
X51.561 Y17.579
X51.418 Y17.494
X51.343 Y17.455
X51.265 Y17.424
X51.102 Y17.372
X51.022 Y17.351
X50.94 Y17.339
X50.777 Y17.324
X50.713 Y17.321
X43.947 Y17.29
X43.189 Y17.178
X42.613 Y16.907
X42.543 Y16.849
X42.114 Y16.461
X41.624 Y15.67
X41.578 Y15.604
X41.526 Y15.544
X41.408 Y15.423
X41.351 Y15.37
X41.289 Y15.323
X41.172 Y15.243
X41.104 Y15.203
X41.034 Y15.17
X40.875 Y15.105
X40.802 Y15.08
X40.726 Y15.062
X40.589 Y15.037
X40.522 Y15.028
X40.455 Y15.025
X32.958 Y15.027
X32.885 Y15.031
X32.812 Y15.042
X32.642 Y15.075
X32.558 Y15.097
X32.476 Y15.129
X32.316 Y15.202
X32.249 Y15.237
X32.186 Y15.279
X32.083 Y15.354
X32.027 Y15.399
X31.976 Y15.449
X31.869 Y15.564
X31.822 Y15.62
X31.78 Y15.68
X31.709 Y15.795
X31.676 Y15.855
X31.648 Y15.919
X31.597 Y16.05
X31.573 Y16.122
X31.557 Y16.197
X31.529 Y16.36
X31.522 Y16.421
X31.519 Y16.482
Y16.525
X28.853 Y16.526
S15000
G3 X28.294 Y14.681 Z-0.594 I0 J-1.007 F300
G1 X29.847 Y13.645 Z-0.663
G3 X30.965 Y15.321 Z-0.778 I0.559 J0.838
X30.406 Y15.49 Z-0.8 I-0.559 J-0.838
S500
G1 X15.714 Y15.492 F1000
G3 X15.714 Y14.516 I0 J-0.488
G1 X30.475 Y14.512
G3 X30.801 Y14.705 I0 J0.371
G1 X30.859 Y14.804
G3 X30.861 Y15.198 I-0.314 J0.198
G1 X30.828 Y15.25
X30.797 Y15.303
G3 X30.475 Y15.49 I-0.322 J-0.184
G1 X30.406
X30.36 Y15.486 Z-0.793 F300
X30.315 Y15.476 Z-0.785
X30.276 Y15.46 Z-0.764
X30.24 Y15.439 Z-0.743
X30.189 Y15.397 Z-0.676
X30.162 Y15.364 Z-0.593
X30.154 Y15.352 Z-0.5
Z4 F1000
X52.045 Y15.071
Z0.115
S15000
X52.054 Y15.061 Z0.024 F300
X52.081 Y15.03 Z-0.058
X52.124 Y14.983 Z-0.124
X52.182 Y14.927 Z-0.168
X52.251 Y14.868 Z-0.185
G3 X54.037 Y17.089 Z-0.335 I0.893 J1.11
X52.251 Y14.868 Z-0.485 I-0.893 J-1.11
X54.037 Y17.089 Z-0.635 I0.893 J1.11
X51.908 Y16.687 Z-0.718 I-0.893 J-1.11
X52.638 Y14.646 Z-0.8 I1.236 J-0.708
S500
G2 X52.888 Y14.549 I-5.336 J-14.041 F1000
G3 X53.564 Y14.918 I0.186 J0.464
G1 X53.567 Y14.933
X53.575 Y15.008
X53.572 Y15.084
X53.541 Y15.355
G3 X52.531 Y15.854 I-0.666 J-0.077
G2 X51.665 Y15.447 I-2.489 J4.173
X50.722 Y15.283 I-0.956 J2.699
G1 X44.289 Y15.313
G3 X44.292 Y14.772 I0.001 J-0.271
X48.253 Y14.926 I-0.237 J56.999
G2 X52.215 Y14.766 I1.283 J-17.368
X52.557 Y14.677 I-0.269 J-1.727
G1 X52.638 Y14.646
G2 X53.241 Y13.293 I-0.371 J-0.976
G3 X54.476 Y12.475 I0.707 J-0.274
G1 X54.813 Y12.801
X54.835 Y12.832
X55.356 Y13.795
X55.373 Y13.847
X55.581 Y14.933
X55.452 Y16.052
X55.435 Y16.105
X54.99 Y17.099
X54.981 Y17.113
X54.238 Y17.952
X54.224 Y17.964
X53.26 Y18.54
X53.245 Y18.545
X52.197 Y18.548
X52.19 Y18.516
X52.146 Y18.353
X52.124 Y18.284
X52.095 Y18.217
X52.042 Y18.109
X52.01 Y18.05
X51.972 Y17.993
X51.884 Y17.874
X51.838 Y17.817
X51.788 Y17.766
X51.684 Y17.671
X51.625 Y17.622
X51.561 Y17.579
X51.418 Y17.494
X51.343 Y17.455
X51.265 Y17.424
X51.102 Y17.372
X51.022 Y17.351
X50.94 Y17.339
X50.777 Y17.324
X50.713 Y17.321
X43.947 Y17.29
X43.189 Y17.178
X42.613 Y16.907
X42.543 Y16.849
X42.114 Y16.461
X41.624 Y15.67
X41.578 Y15.604
X41.526 Y15.544
X41.408 Y15.423
X41.351 Y15.37
X41.289 Y15.323
X41.172 Y15.243
X41.104 Y15.203
X41.034 Y15.17
X40.875 Y15.105
X40.802 Y15.08
X40.726 Y15.062
X40.589 Y15.037
X40.522 Y15.028
X40.455 Y15.025
X32.958 Y15.027
X32.885 Y15.031
X32.812 Y15.042
X32.642 Y15.075
X32.558 Y15.097
X32.476 Y15.129
X32.316 Y15.202
X32.249 Y15.237
X32.186 Y15.279
X32.083 Y15.354
X32.027 Y15.399
X31.976 Y15.449
X31.869 Y15.564
X31.822 Y15.62
X31.78 Y15.68
X31.709 Y15.795
X31.676 Y15.855
X31.648 Y15.919
X31.597 Y16.05
X31.573 Y16.122
X31.557 Y16.197
X31.529 Y16.36
X31.522 Y16.421
X31.519 Y16.482
Y16.525
X15.004 Y16.528
X14.927 Y16.514
X14.345 Y16.377
X13.976 Y16.089
Y13.924
X14.333 Y13.638
X14.341 Y13.633
X14.986 Y13.486
X15.081 Y13.481
X31.522 Y13.476
Y13.555
X31.526 Y13.632
X31.538 Y13.707
X31.571 Y13.863
X31.592 Y13.94
X31.62 Y14.013
X31.684 Y14.156
X31.722 Y14.23
X31.768 Y14.3
X31.875 Y14.443
X31.929 Y14.507
X31.99 Y14.565
X32.11 Y14.666
X32.172 Y14.714
X32.239 Y14.754
X32.375 Y14.828
X32.442 Y14.86
X32.512 Y14.885
X32.648 Y14.927
X32.705 Y14.942
X32.762 Y14.952
X32.853 Y14.965
X32.958 Y14.973
X40.481 Y14.971
X40.548 Y14.968
X40.614 Y14.959
X40.777 Y14.929
X40.858 Y14.91
X40.937 Y14.881
X41.094 Y14.815
X41.162 Y14.781
X41.227 Y14.741
X41.336 Y14.666
X41.392 Y14.623
X41.444 Y14.574
X41.55 Y14.467
X41.599 Y14.411
X41.643 Y14.351
X42.143 Y13.585
X42.626 Y13.164
X42.89 Y13.04
X43.23 Y12.891
X43.941 Y12.792
X51.626 Y12.824
X51.686 Y12.822
X51.745 Y12.815
X51.907 Y12.79
X51.99 Y12.772
X52.07 Y12.745
X52.233 Y12.68
X52.298 Y12.65
X52.361 Y12.614
X52.455 Y12.553
X52.51 Y12.514
X52.562 Y12.469
X52.677 Y12.361
X52.728 Y12.308
X52.774 Y12.251
X52.852 Y12.142
X52.894 Y12.077
X52.929 Y12.007
X53 Y11.844
X53.03 Y11.763
X53.051 Y11.68
X53.075 Y11.552
X53.992 Y12.013
X54.039 Y12.051
X54.476 Y12.475
S15000
G3 X54.878 Y13.68 Z-0.841 I-0.96 J0.99 F300
G1 X54.486 Y16.152 Z-0.919
G3 X51.763 Y15.72 Z-1.055 I-1.362 J-0.216
X52.635 Y14.648 Z-1.1 I1.362 J0.216
S500
G2 X52.888 Y14.549 I-5.333 J-14.042 F1000
G3 X53.564 Y14.918 I0.186 J0.464
G1 X53.567 Y14.933
X53.575 Y15.008
X53.572 Y15.084
X53.541 Y15.355
G3 X52.531 Y15.854 I-0.666 J-0.077
G2 X51.665 Y15.447 I-2.489 J4.173
X50.722 Y15.283 I-0.956 J2.699
G1 X44.289 Y15.313
G3 X44.292 Y14.772 I0.001 J-0.271
X48.253 Y14.926 I-0.237 J56.999
G2 X52.215 Y14.766 I1.283 J-17.368
X52.557 Y14.677 I-0.269 J-1.727
G1 X52.635 Y14.648
X52.68 Y14.637 Z-1.093 F300
X52.726 Y14.633 Z-1.085
X52.768 Y14.636 Z-1.064
X52.808 Y14.644 Z-1.043
X52.87 Y14.669 Z-0.976
X52.906 Y14.692 Z-0.893
X52.917 Y14.701 Z-0.8
Z4 F1000
X29.701 Y13.675
Z1.3
Z-0.185 F300
S15000
X29.713 Y13.668 Z-0.276
X29.749 Y13.649 Z-0.358
X29.806 Y13.62 Z-0.424
X29.881 Y13.588 Z-0.468
X29.966 Y13.558 Z-0.485
G3 X30.847 Y16.268 Z-0.635 I0.441 J1.355
X29.966 Y13.558 Z-0.785 I-0.441 J-1.355
X30.847 Y16.268 Z-0.935 I0.441 J1.355
X28.999 Y15.136 Z-1.018 I-0.441 J-1.355
X30.406 Y13.488 Z-1.1 I1.407 J-0.223
X31.407 Y14.489 I0 J1.001
X30.406 Y15.49 I-1.001 J0
S500
G1 X15.714 Y15.492 F1000
G3 X15.714 Y14.516 I0 J-0.488
G1 X30.475 Y14.512
G3 X30.801 Y14.705 I0 J0.371
G1 X30.859 Y14.804
G3 X30.861 Y15.198 I-0.314 J0.198
G1 X30.828 Y15.25
X30.797 Y15.303
G3 X30.475 Y15.49 I-0.322 J-0.184
G1 X30.406
G2 X29.629 Y16.008 I0 J0.842
G3 X28.853 Y16.526 I-0.777 J-0.324
G1 X15.004 Y16.528
X14.927 Y16.514
X14.345 Y16.377
X13.976 Y16.089
Y13.924
X14.333 Y13.638
X14.341 Y13.633
X14.986 Y13.486
X15.081 Y13.481
X31.522 Y13.476
Y13.555
X31.526 Y13.632
X31.538 Y13.707
X31.571 Y13.863
X31.592 Y13.94
X31.62 Y14.013
X31.684 Y14.156
X31.722 Y14.23
X31.768 Y14.3
X31.875 Y14.443
X31.929 Y14.507
X31.99 Y14.565
X32.11 Y14.666
X32.172 Y14.714
X32.239 Y14.754
X32.375 Y14.828
X32.442 Y14.86
X32.512 Y14.885
X32.648 Y14.927
X32.705 Y14.942
X32.762 Y14.952
X32.853 Y14.965
X32.958 Y14.973
X40.481 Y14.971
X40.548 Y14.968
X40.614 Y14.959
X40.777 Y14.929
X40.858 Y14.91
X40.937 Y14.881
X41.094 Y14.815
X41.162 Y14.781
X41.227 Y14.741
X41.336 Y14.666
X41.392 Y14.623
X41.444 Y14.574
X41.55 Y14.467
X41.599 Y14.411
X41.643 Y14.351
X42.143 Y13.585
X42.626 Y13.164
X42.89 Y13.04
X43.23 Y12.891
X43.941 Y12.792
X51.626 Y12.824
X51.686 Y12.822
X51.745 Y12.815
X51.907 Y12.79
X51.99 Y12.772
X52.07 Y12.745
X52.233 Y12.68
X52.298 Y12.65
X52.361 Y12.614
X52.455 Y12.553
X52.51 Y12.514
X52.562 Y12.469
X52.677 Y12.361
X52.728 Y12.308
X52.774 Y12.251
X52.852 Y12.142
X52.894 Y12.077
X52.929 Y12.007
X53 Y11.844
X53.03 Y11.763
X53.051 Y11.68
X53.075 Y11.552
X53.992 Y12.013
X54.039 Y12.051
X54.813 Y12.801
X54.835 Y12.832
X55.356 Y13.795
X55.373 Y13.847
X55.581 Y14.933
X55.452 Y16.052
X55.435 Y16.105
X54.99 Y17.099
X54.981 Y17.113
X54.238 Y17.952
X54.224 Y17.964
X53.26 Y18.54
X53.245 Y18.545
X52.197 Y18.548
X52.19 Y18.516
X52.146 Y18.353
X52.124 Y18.284
X52.095 Y18.217
X52.042 Y18.109
X52.01 Y18.05
X51.972 Y17.993
X51.884 Y17.874
X51.838 Y17.817
X51.788 Y17.766
X51.684 Y17.671
X51.625 Y17.622
X51.561 Y17.579
X51.418 Y17.494
X51.343 Y17.455
X51.265 Y17.424
X51.102 Y17.372
X51.022 Y17.351
X50.94 Y17.339
X50.777 Y17.324
X50.713 Y17.321
X43.947 Y17.29
X43.189 Y17.178
X42.613 Y16.907
X42.543 Y16.849
X42.114 Y16.461
X41.624 Y15.67
X41.578 Y15.604
X41.526 Y15.544
X41.408 Y15.423
X41.351 Y15.37
X41.289 Y15.323
X41.172 Y15.243
X41.104 Y15.203
X41.034 Y15.17
X40.875 Y15.105
X40.802 Y15.08
X40.726 Y15.062
X40.589 Y15.037
X40.522 Y15.028
X40.455 Y15.025
X32.958 Y15.027
X32.885 Y15.031
X32.812 Y15.042
X32.642 Y15.075
X32.558 Y15.097
X32.476 Y15.129
X32.316 Y15.202
X32.249 Y15.237
X32.186 Y15.279
X32.083 Y15.354
X32.027 Y15.399
X31.976 Y15.449
X31.869 Y15.564
X31.822 Y15.62
X31.78 Y15.68
X31.709 Y15.795
X31.676 Y15.855
X31.648 Y15.919
X31.597 Y16.05
X31.573 Y16.122
X31.557 Y16.197
X31.529 Y16.36
X31.522 Y16.421
X31.519 Y16.482
Y16.525
X28.853 Y16.526
S15000
G3 X28.294 Y14.681 Z-1.131 I0 J-1.007 F300
G1 X29.847 Y13.645 Z-1.154
G3 X30.965 Y15.321 Z-1.193 I0.559 J0.838
X30.406 Y15.49 Z-1.2 I-0.559 J-0.838
S500
G1 X15.714 Y15.492 F1000
G3 X15.714 Y14.516 I0 J-0.488
G1 X30.475 Y14.512
G3 X30.801 Y14.705 I0 J0.371
G1 X30.859 Y14.804
G3 X30.861 Y15.198 I-0.314 J0.198
G1 X30.828 Y15.25
X30.797 Y15.303
G3 X30.475 Y15.49 I-0.322 J-0.184
G1 X30.406
X30.36 Y15.486 Z-1.193 F300
X30.315 Y15.476 Z-1.185
X30.276 Y15.46 Z-1.164
X30.24 Y15.439 Z-1.143
X30.189 Y15.397 Z-1.076
X30.162 Y15.364 Z-0.993
X30.154 Y15.352 Z-0.9
Z4 F1000
X52.908 Y17.384
Z-0.485 F300
S15000
X52.894 Y17.381 Z-0.576
X52.854 Y17.374 Z-0.658
X52.792 Y17.359 Z-0.724
X52.714 Y17.337 Z-0.768
X52.629 Y17.307 Z-0.785
G3 X53.659 Y14.65 Z-0.935 I0.515 J-1.329
X52.629 Y17.307 Z-1.085 I-0.515 J1.329
X52.638 Y14.646 Z-1.2 I0.515 J-1.329
S500
G2 X52.888 Y14.549 I-5.336 J-14.041 F1000
G3 X53.564 Y14.918 I0.186 J0.464
G1 X53.567 Y14.933
X53.575 Y15.008
X53.572 Y15.084
X53.541 Y15.355
G3 X52.531 Y15.854 I-0.666 J-0.077
G2 X51.665 Y15.447 I-2.489 J4.173
X50.722 Y15.283 I-0.956 J2.699
G1 X44.289 Y15.313
G3 X44.292 Y14.772 I0.001 J-0.271
X48.253 Y14.926 I-0.237 J56.999
G2 X52.215 Y14.766 I1.283 J-17.368
X52.557 Y14.677 I-0.269 J-1.727
G1 X52.638 Y14.646
G2 X53.241 Y13.293 I-0.371 J-0.976
G3 X54.476 Y12.475 I0.707 J-0.274
G1 X54.813 Y12.801
X54.835 Y12.832
X55.356 Y13.795
X55.373 Y13.847
X55.581 Y14.933
X55.452 Y16.052
X55.435 Y16.105
X54.99 Y17.099
X54.981 Y17.113
X54.238 Y17.952
X54.224 Y17.964
X53.26 Y18.54
X53.245 Y18.545
X52.197 Y18.548
X52.19 Y18.516
X52.146 Y18.353
X52.124 Y18.284
X52.095 Y18.217
X52.042 Y18.109
X52.01 Y18.05
X51.972 Y17.993
X51.884 Y17.874
X51.838 Y17.817
X51.788 Y17.766
X51.684 Y17.671
X51.625 Y17.622
X51.561 Y17.579
X51.418 Y17.494
X51.343 Y17.455
X51.265 Y17.424
X51.102 Y17.372
X51.022 Y17.351
X50.94 Y17.339
X50.777 Y17.324
X50.713 Y17.321
X43.947 Y17.29
X43.189 Y17.178
X42.613 Y16.907
X42.543 Y16.849
X42.114 Y16.461
X41.624 Y15.67
X41.578 Y15.604
X41.526 Y15.544
X41.408 Y15.423
X41.351 Y15.37
X41.289 Y15.323
X41.172 Y15.243
X41.104 Y15.203
X41.034 Y15.17
X40.875 Y15.105
X40.802 Y15.08
X40.726 Y15.062
X40.589 Y15.037
X40.522 Y15.028
X40.455 Y15.025
X32.958 Y15.027
X32.885 Y15.031
X32.812 Y15.042
X32.642 Y15.075
X32.558 Y15.097
X32.476 Y15.129
X32.316 Y15.202
X32.249 Y15.237
X32.186 Y15.279
X32.083 Y15.354
X32.027 Y15.399
X31.976 Y15.449
X31.869 Y15.564
X31.822 Y15.62
X31.78 Y15.68
X31.709 Y15.795
X31.676 Y15.855
X31.648 Y15.919
X31.597 Y16.05
X31.573 Y16.122
X31.557 Y16.197
X31.529 Y16.36
X31.522 Y16.421
X31.519 Y16.482
Y16.525
X15.004 Y16.528
X14.927 Y16.514
X14.345 Y16.377
X13.976 Y16.089
Y13.924
X14.333 Y13.638
X14.341 Y13.633
X14.986 Y13.486
X15.081 Y13.481
X31.522 Y13.476
Y13.555
X31.526 Y13.632
X31.538 Y13.707
X31.571 Y13.863
X31.592 Y13.94
X31.62 Y14.013
X31.684 Y14.156
X31.722 Y14.23
X31.768 Y14.3
X31.875 Y14.443
X31.929 Y14.507
X31.99 Y14.565
X32.11 Y14.666
X32.172 Y14.714
X32.239 Y14.754
X32.375 Y14.828
X32.442 Y14.86
X32.512 Y14.885
X32.648 Y14.927
X32.705 Y14.942
X32.762 Y14.952
X32.853 Y14.965
X32.958 Y14.973
X40.481 Y14.971
X40.548 Y14.968
X40.614 Y14.959
X40.777 Y14.929
X40.858 Y14.91
X40.937 Y14.881
X41.094 Y14.815
X41.162 Y14.781
X41.227 Y14.741
X41.336 Y14.666
X41.392 Y14.623
X41.444 Y14.574
X41.55 Y14.467
X41.599 Y14.411
X41.643 Y14.351
X42.143 Y13.585
X42.626 Y13.164
X42.89 Y13.04
X43.23 Y12.891
X43.941 Y12.792
X51.626 Y12.824
X51.686 Y12.822
X51.745 Y12.815
X51.907 Y12.79
X51.99 Y12.772
X52.07 Y12.745
X52.233 Y12.68
X52.298 Y12.65
X52.361 Y12.614
X52.455 Y12.553
X52.51 Y12.514
X52.562 Y12.469
X52.677 Y12.361
X52.728 Y12.308
X52.774 Y12.251
X52.852 Y12.142
X52.894 Y12.077
X52.929 Y12.007
X53 Y11.844
X53.03 Y11.763
X53.051 Y11.68
X53.075 Y11.552
X53.992 Y12.013
X54.039 Y12.051
X54.476 Y12.475
S15000
G3 X54.878 Y13.68 Z-1.241 I-0.96 J0.99 F300
G1 X54.486 Y16.152 Z-1.319
G3 X51.763 Y15.72 Z-1.455 I-1.362 J-0.216
X52.635 Y14.648 Z-1.5 I1.362 J0.216
S500
G2 X52.888 Y14.549 I-5.333 J-14.042 F1000
G3 X53.564 Y14.918 I0.186 J0.464
G1 X53.567 Y14.933
X53.575 Y15.008
X53.572 Y15.084
X53.541 Y15.355
G3 X52.531 Y15.854 I-0.666 J-0.077
G2 X51.665 Y15.447 I-2.489 J4.173
X50.722 Y15.283 I-0.956 J2.699
G1 X44.289 Y15.313
G3 X44.292 Y14.772 I0.001 J-0.271
X48.253 Y14.926 I-0.237 J56.999
G2 X52.215 Y14.766 I1.283 J-17.368
X52.557 Y14.677 I-0.269 J-1.727
G1 X52.635 Y14.648
G2 X53.238 Y13.293 I-0.371 J-0.977
G3 X54.475 Y12.473 I0.708 J-0.274
G1 X54.813 Y12.801
X54.835 Y12.832
X55.356 Y13.795
X55.373 Y13.847
X55.581 Y14.933
X55.452 Y16.052
X55.435 Y16.105
X54.99 Y17.099
X54.981 Y17.113
X54.238 Y17.952
X54.224 Y17.964
X53.26 Y18.54
X53.245 Y18.545
X52.197 Y18.548
X52.19 Y18.516
X52.146 Y18.353
X52.124 Y18.284
X52.095 Y18.217
X52.042 Y18.109
X52.01 Y18.05
X51.972 Y17.993
X51.884 Y17.874
X51.838 Y17.817
X51.788 Y17.766
X51.684 Y17.671
X51.625 Y17.622
X51.561 Y17.579
X51.418 Y17.494
X51.343 Y17.455
X51.265 Y17.424
X51.102 Y17.372
X51.022 Y17.351
X50.94 Y17.339
X50.777 Y17.324
X50.713 Y17.321
X43.947 Y17.29
X43.189 Y17.178
X42.613 Y16.907
X42.543 Y16.849
X42.114 Y16.461
X41.624 Y15.67
X41.578 Y15.604
X41.526 Y15.544
X41.408 Y15.423
X41.351 Y15.37
X41.289 Y15.323
X41.172 Y15.243
X41.104 Y15.203
X41.034 Y15.17
X40.875 Y15.105
X40.802 Y15.08
X40.726 Y15.062
X40.589 Y15.037
X40.522 Y15.028
X40.455 Y15.025
X15.181 Y15.031
X15.067 Y15.006
X15.181 Y14.981
X40.481 Y14.971
X40.548 Y14.968
X40.614 Y14.959
X40.777 Y14.929
X40.858 Y14.91
X40.937 Y14.881
X41.094 Y14.815
X41.162 Y14.781
X41.227 Y14.741
X41.336 Y14.666
X41.392 Y14.623
X41.444 Y14.574
X41.55 Y14.467
X41.599 Y14.411
X41.643 Y14.351
X42.143 Y13.585
X42.626 Y13.164
X42.89 Y13.04
X43.23 Y12.891
X43.941 Y12.792
X51.626 Y12.824
X51.686 Y12.822
X51.745 Y12.815
X51.907 Y12.79
X51.99 Y12.772
X52.07 Y12.745
X52.233 Y12.68
X52.298 Y12.65
X52.361 Y12.614
X52.455 Y12.553
X52.51 Y12.514
X52.562 Y12.469
X52.677 Y12.361
X52.728 Y12.308
X52.774 Y12.251
X52.852 Y12.142
X52.894 Y12.077
X52.929 Y12.007
X53 Y11.844
X53.03 Y11.763
X53.051 Y11.68
X53.075 Y11.552
X53.992 Y12.013
X54.039 Y12.051
X54.475 Y12.473
S15000
G3 X54.876 Y13.677 Z-1.541 I-0.958 J0.988 F300
G1 X54.483 Y16.15 Z-1.62
G3 X51.764 Y15.718 Z-1.755 I-1.36 J-0.216
X52.635 Y14.648 Z-1.8 I1.36 J0.216
S500
G2 X52.888 Y14.549 I-5.333 J-14.042 F1000
G3 X53.564 Y14.918 I0.186 J0.464
G1 X53.567 Y14.933
X53.575 Y15.008
X53.572 Y15.084
X53.541 Y15.355
G3 X52.531 Y15.854 I-0.666 J-0.077
G2 X51.665 Y15.447 I-2.489 J4.173
X50.722 Y15.283 I-0.956 J2.699
G1 X44.289 Y15.313
G3 X44.292 Y14.772 I0.001 J-0.271
X48.253 Y14.926 I-0.237 J56.999
G2 X52.215 Y14.766 I1.283 J-17.368
X52.557 Y14.677 I-0.269 J-1.727
G1 X52.635 Y14.648
G2 X53.238 Y13.293 I-0.371 J-0.977
G3 X54.475 Y12.473 I0.708 J-0.274
G1 X54.813 Y12.801
X54.835 Y12.832
X55.356 Y13.795
X55.373 Y13.847
X55.581 Y14.933
X55.452 Y16.052
X55.435 Y16.105
X54.99 Y17.099
X54.981 Y17.113
X54.238 Y17.952
X54.224 Y17.964
X53.26 Y18.54
X53.245 Y18.545
X52.197 Y18.548
X52.19 Y18.516
X52.146 Y18.353
X52.124 Y18.284
X52.095 Y18.217
X52.042 Y18.109
X52.01 Y18.05
X51.972 Y17.993
X51.884 Y17.874
X51.838 Y17.817
X51.788 Y17.766
X51.684 Y17.671
X51.625 Y17.622
X51.561 Y17.579
X51.418 Y17.494
X51.343 Y17.455
X51.265 Y17.424
X51.102 Y17.372
X51.022 Y17.351
X50.94 Y17.339
X50.777 Y17.324
X50.713 Y17.321
X43.947 Y17.29
X43.189 Y17.178
X42.613 Y16.907
X42.543 Y16.849
X42.114 Y16.461
X41.624 Y15.67
X41.578 Y15.604
X41.526 Y15.544
X41.408 Y15.423
X41.351 Y15.37
X41.289 Y15.323
X41.172 Y15.243
X41.104 Y15.203
X41.034 Y15.17
X40.875 Y15.105
X40.802 Y15.08
X40.726 Y15.062
X40.589 Y15.037
X40.522 Y15.028
X40.455 Y15.025
X15.181 Y15.031
X15.067 Y15.006
X15.181 Y14.981
X40.481 Y14.971
X40.548 Y14.968
X40.614 Y14.959
X40.777 Y14.929
X40.858 Y14.91
X40.937 Y14.881
X41.094 Y14.815
X41.162 Y14.781
X41.227 Y14.741
X41.336 Y14.666
X41.392 Y14.623
X41.444 Y14.574
X41.55 Y14.467
X41.599 Y14.411
X41.643 Y14.351
X42.143 Y13.585
X42.626 Y13.164
X42.89 Y13.04
X43.23 Y12.891
X43.941 Y12.792
X51.626 Y12.824
X51.686 Y12.822
X51.745 Y12.815
X51.907 Y12.79
X51.99 Y12.772
X52.07 Y12.745
X52.233 Y12.68
X52.298 Y12.65
X52.361 Y12.614
X52.455 Y12.553
X52.51 Y12.514
X52.562 Y12.469
X52.677 Y12.361
X52.728 Y12.308
X52.774 Y12.251
X52.852 Y12.142
X52.894 Y12.077
X52.929 Y12.007
X53 Y11.844
X53.03 Y11.763
X53.051 Y11.68
X53.075 Y11.552
X53.992 Y12.013
X54.039 Y12.051
X54.475 Y12.473
S15000
G3 X54.876 Y13.677 Z-1.841 I-0.958 J0.988 F300
G1 X54.483 Y16.15 Z-1.92
G3 X51.764 Y15.718 Z-2.055 I-1.36 J-0.216
X52.635 Y14.648 Z-2.1 I1.36 J0.216
S500
G2 X52.888 Y14.549 I-5.333 J-14.042 F1000
G3 X53.564 Y14.918 I0.186 J0.464
G1 X53.567 Y14.933
X53.575 Y15.008
X53.572 Y15.084
X53.541 Y15.355
G3 X52.531 Y15.854 I-0.666 J-0.077
G2 X51.665 Y15.447 I-2.489 J4.173
X50.722 Y15.283 I-0.956 J2.699
G1 X44.289 Y15.313
G3 X44.292 Y14.772 I0.001 J-0.271
X48.253 Y14.926 I-0.237 J56.999
G2 X52.215 Y14.766 I1.283 J-17.368
X52.557 Y14.677 I-0.269 J-1.727
G1 X52.635 Y14.648
G2 X53.238 Y13.293 I-0.371 J-0.977
G3 X54.475 Y12.473 I0.708 J-0.274
G1 X54.813 Y12.801
X54.835 Y12.832
X55.356 Y13.795
X55.373 Y13.847
X55.581 Y14.933
X55.452 Y16.052
X55.435 Y16.105
X54.99 Y17.099
X54.981 Y17.113
X54.238 Y17.952
X54.224 Y17.964
X53.26 Y18.54
X53.245 Y18.545
X52.197 Y18.548
X52.19 Y18.516
X52.146 Y18.353
X52.124 Y18.284
X52.095 Y18.217
X52.042 Y18.109
X52.01 Y18.05
X51.972 Y17.993
X51.884 Y17.874
X51.838 Y17.817
X51.788 Y17.766
X51.684 Y17.671
X51.625 Y17.622
X51.561 Y17.579
X51.418 Y17.494
X51.343 Y17.455
X51.265 Y17.424
X51.102 Y17.372
X51.022 Y17.351
X50.94 Y17.339
X50.777 Y17.324
X50.713 Y17.321
X43.947 Y17.29
X43.189 Y17.178
X42.613 Y16.907
X42.543 Y16.849
X42.114 Y16.461
X41.624 Y15.67
X41.578 Y15.604
X41.526 Y15.544
X41.408 Y15.423
X41.351 Y15.37
X41.289 Y15.323
X41.172 Y15.243
X41.104 Y15.203
X41.034 Y15.17
X40.875 Y15.105
X40.802 Y15.08
X40.726 Y15.062
X40.589 Y15.037
X40.522 Y15.028
X40.455 Y15.025
X15.181 Y15.031
X15.067 Y15.006
X15.181 Y14.981
X40.481 Y14.971
X40.548 Y14.968
X40.614 Y14.959
X40.777 Y14.929
X40.858 Y14.91
X40.937 Y14.881
X41.094 Y14.815
X41.162 Y14.781
X41.227 Y14.741
X41.336 Y14.666
X41.392 Y14.623
X41.444 Y14.574
X41.55 Y14.467
X41.599 Y14.411
X41.643 Y14.351
X42.143 Y13.585
X42.626 Y13.164
X42.89 Y13.04
X43.23 Y12.891
X43.941 Y12.792
X51.626 Y12.824
X51.686 Y12.822
X51.745 Y12.815
X51.907 Y12.79
X51.99 Y12.772
X52.07 Y12.745
X52.233 Y12.68
X52.298 Y12.65
X52.361 Y12.614
X52.455 Y12.553
X52.51 Y12.514
X52.562 Y12.469
X52.677 Y12.361
X52.728 Y12.308
X52.774 Y12.251
X52.852 Y12.142
X52.894 Y12.077
X52.929 Y12.007
X53 Y11.844
X53.03 Y11.763
X53.051 Y11.68
X53.075 Y11.552
X53.992 Y12.013
X54.039 Y12.051
X54.475 Y12.473
S15000
G3 X54.876 Y13.677 Z-2.141 I-0.958 J0.988 F300
G1 X54.483 Y16.15 Z-2.22
G3 X51.764 Y15.718 Z-2.355 I-1.36 J-0.216
X52.635 Y14.648 Z-2.4 I1.36 J0.216
S500
G2 X52.888 Y14.549 I-5.333 J-14.042 F1000
G3 X53.564 Y14.918 I0.186 J0.464
G1 X53.567 Y14.933
X53.575 Y15.008
X53.572 Y15.084
X53.541 Y15.355
G3 X52.531 Y15.854 I-0.666 J-0.077
G2 X51.665 Y15.447 I-2.489 J4.173
X50.722 Y15.283 I-0.956 J2.699
G1 X44.289 Y15.313
G3 X44.292 Y14.772 I0.001 J-0.271
X48.253 Y14.926 I-0.237 J56.999
G2 X52.215 Y14.766 I1.283 J-17.368
X52.557 Y14.677 I-0.269 J-1.727
G1 X52.635 Y14.648
G2 X53.238 Y13.293 I-0.371 J-0.977
G3 X54.475 Y12.473 I0.708 J-0.274
G1 X54.813 Y12.801
X54.835 Y12.832
X55.356 Y13.795
X55.373 Y13.847
X55.581 Y14.933
X55.452 Y16.052
X55.435 Y16.105
X54.99 Y17.099
X54.981 Y17.113
X54.238 Y17.952
X54.224 Y17.964
X53.26 Y18.54
X53.245 Y18.545
X52.197 Y18.548
X52.19 Y18.516
X52.146 Y18.353
X52.124 Y18.284
X52.095 Y18.217
X52.042 Y18.109
X52.01 Y18.05
X51.972 Y17.993
X51.884 Y17.874
X51.838 Y17.817
X51.788 Y17.766
X51.684 Y17.671
X51.625 Y17.622
X51.561 Y17.579
X51.418 Y17.494
X51.343 Y17.455
X51.265 Y17.424
X51.102 Y17.372
X51.022 Y17.351
X50.94 Y17.339
X50.777 Y17.324
X50.713 Y17.321
X43.947 Y17.29
X43.189 Y17.178
X42.613 Y16.907
X42.543 Y16.849
X42.114 Y16.461
X41.624 Y15.67
X41.578 Y15.604
X41.526 Y15.544
X41.408 Y15.423
X41.351 Y15.37
X41.289 Y15.323
X41.172 Y15.243
X41.104 Y15.203
X41.034 Y15.17
X40.875 Y15.105
X40.802 Y15.08
X40.726 Y15.062
X40.589 Y15.037
X40.522 Y15.028
X40.455 Y15.025
X15.181 Y15.031
X15.067 Y15.006
X15.181 Y14.981
X40.481 Y14.971
X40.548 Y14.968
X40.614 Y14.959
X40.777 Y14.929
X40.858 Y14.91
X40.937 Y14.881
X41.094 Y14.815
X41.162 Y14.781
X41.227 Y14.741
X41.336 Y14.666
X41.392 Y14.623
X41.444 Y14.574
X41.55 Y14.467
X41.599 Y14.411
X41.643 Y14.351
X42.143 Y13.585
X42.626 Y13.164
X42.89 Y13.04
X43.23 Y12.891
X43.941 Y12.792
X51.626 Y12.824
X51.686 Y12.822
X51.745 Y12.815
X51.907 Y12.79
X51.99 Y12.772
X52.07 Y12.745
X52.233 Y12.68
X52.298 Y12.65
X52.361 Y12.614
X52.455 Y12.553
X52.51 Y12.514
X52.562 Y12.469
X52.677 Y12.361
X52.728 Y12.308
X52.774 Y12.251
X52.852 Y12.142
X52.894 Y12.077
X52.929 Y12.007
X53 Y11.844
X53.03 Y11.763
X53.051 Y11.68
X53.075 Y11.552
X53.992 Y12.013
X54.039 Y12.051
X54.475 Y12.473
S15000
G3 X54.876 Y13.677 Z-2.441 I-0.958 J0.988 F300
G1 X54.483 Y16.15 Z-2.52
G3 X51.764 Y15.718 Z-2.655 I-1.36 J-0.216
X52.635 Y14.648 Z-2.7 I1.36 J0.216
S500
G2 X52.888 Y14.549 I-5.333 J-14.042 F1000
G3 X53.564 Y14.918 I0.186 J0.464
G1 X53.567 Y14.933
X53.575 Y15.008
X53.572 Y15.084
X53.541 Y15.355
G3 X52.531 Y15.854 I-0.666 J-0.077
G2 X51.665 Y15.447 I-2.489 J4.173
X50.722 Y15.283 I-0.956 J2.699
G1 X44.289 Y15.313
G3 X44.292 Y14.772 I0.001 J-0.271
X48.253 Y14.926 I-0.237 J56.999
G2 X52.215 Y14.766 I1.283 J-17.368
X52.557 Y14.677 I-0.269 J-1.727
G1 X52.635 Y14.648
G2 X53.238 Y13.293 I-0.371 J-0.977
G3 X54.475 Y12.473 I0.708 J-0.274
G1 X54.813 Y12.801
X54.835 Y12.832
X55.356 Y13.795
X55.373 Y13.847
X55.581 Y14.933
X55.452 Y16.052
X55.435 Y16.105
X54.99 Y17.099
X54.981 Y17.113
X54.238 Y17.952
X54.224 Y17.964
X53.26 Y18.54
X53.245 Y18.545
X52.197 Y18.548
X52.19 Y18.516
X52.146 Y18.353
X52.124 Y18.284
X52.095 Y18.217
X52.042 Y18.109
X52.01 Y18.05
X51.972 Y17.993
X51.884 Y17.874
X51.838 Y17.817
X51.788 Y17.766
X51.684 Y17.671
X51.625 Y17.622
X51.561 Y17.579
X51.418 Y17.494
X51.343 Y17.455
X51.265 Y17.424
X51.102 Y17.372
X51.022 Y17.351
X50.94 Y17.339
X50.777 Y17.324
X50.713 Y17.321
X43.947 Y17.29
X43.189 Y17.178
X42.613 Y16.907
X42.543 Y16.849
X42.114 Y16.461
X41.624 Y15.67
X41.578 Y15.604
X41.526 Y15.544
X41.408 Y15.423
X41.351 Y15.37
X41.289 Y15.323
X41.172 Y15.243
X41.104 Y15.203
X41.034 Y15.17
X40.875 Y15.105
X40.802 Y15.08
X40.726 Y15.062
X40.589 Y15.037
X40.522 Y15.028
X40.455 Y15.025
X15.181 Y15.031
X15.067 Y15.006
X15.181 Y14.981
X40.481 Y14.971
X40.548 Y14.968
X40.614 Y14.959
X40.777 Y14.929
X40.858 Y14.91
X40.937 Y14.881
X41.094 Y14.815
X41.162 Y14.781
X41.227 Y14.741
X41.336 Y14.666
X41.392 Y14.623
X41.444 Y14.574
X41.55 Y14.467
X41.599 Y14.411
X41.643 Y14.351
X42.143 Y13.585
X42.626 Y13.164
X42.89 Y13.04
X43.23 Y12.891
X43.941 Y12.792
X51.626 Y12.824
X51.686 Y12.822
X51.745 Y12.815
X51.907 Y12.79
X51.99 Y12.772
X52.07 Y12.745
X52.233 Y12.68
X52.298 Y12.65
X52.361 Y12.614
X52.455 Y12.553
X52.51 Y12.514
X52.562 Y12.469
X52.677 Y12.361
X52.728 Y12.308
X52.774 Y12.251
X52.852 Y12.142
X52.894 Y12.077
X52.929 Y12.007
X53 Y11.844
X53.03 Y11.763
X53.051 Y11.68
X53.075 Y11.552
X53.992 Y12.013
X54.039 Y12.051
X54.475 Y12.473
X54.505 Y12.508 Z-2.693 F300
X54.53 Y12.547 Z-2.685
X54.547 Y12.585 Z-2.664
X54.559 Y12.625 Z-2.643
X54.566 Y12.691 Z-2.576
X54.562 Y12.733 Z-2.493
X54.56 Y12.748 Z-2.4
Z4 F1000
X13.663 Y20.085
Z0.615
S15000
Y20.071 Z0.524 F300
X13.664 Y20.03 Z0.442
X13.669 Y19.967 Z0.376
X13.678 Y19.886 Z0.332
X13.694 Y19.798 Z0.315
G3 X16.482 Y20.39 Z0.165 I1.394 J0.296
X13.694 Y19.798 Z0.015 I-1.394 J-0.296
X16.482 Y20.39 Z-0.135 I1.394 J0.296
X15.088 Y21.519 Z-0.2 I-1.394 J-0.296
X15.088 Y19.517 I0 J-1.001
S500
G1 X30.11 Y19.515 F1000
G3 X30.481 Y19.886 I0 J0.371
G1 X30.482 Y20.12
G3 X30.111 Y20.491 I-0.371 J0
G1 X15.019 Y20.495
G3 X14.693 Y20.301 I0 J-0.371
G1 X14.635 Y20.202
G3 X14.628 Y19.818 I0.314 J-0.198
G1 X14.643 Y19.791
X14.689 Y19.708
G3 X15.014 Y19.517 I0.324 J0.18
G1 X15.088
X15.134 Y19.521 Z-0.193 F300
X15.179 Y19.531 Z-0.185
X15.218 Y19.547 Z-0.164
X15.254 Y19.567 Z-0.143
X15.305 Y19.61 Z-0.076
X15.332 Y19.643 Z0.007
X15.34 Y19.655 Z0.1
Z4 F1000
X-10.122 Y20.473
Z0.615
S15000
X-10.13 Y20.462 Z0.524 F300
X-10.152 Y20.427 Z0.442
X-10.185 Y20.373 Z0.376
X-10.224 Y20.301 Z0.332
X-10.262 Y20.22 Z0.315
G3 X-7.638 Y19.106 Z0.165 I1.312 J-0.557
X-10.262 Y20.22 Z0.015 I-1.312 J0.557
X-7.638 Y19.106 Z-0.135 I1.312 J-0.557
X-8.132 Y20.83 Z-0.2 I-1.312 J0.557
S500
G2 X-8.468 Y21.087 I2.82 J4.027 F1000
G3 X-9.505 Y20.861 I-0.43 J-0.514
G1 X-9.628 Y20.602
X-9.663 Y20.51
X-9.685 Y20.414
X-9.727 Y20.134
G3 X-9.727 Y19.864 I0.889 J-0.133
G1 X-9.682 Y19.575
X-9.661 Y19.48
X-9.625 Y19.389
X-9.502 Y19.134
G3 X-8.461 Y18.916 I0.604 J0.291
G2 X-7.552 Y19.498 I2.502 J-2.911
X-6.512 Y19.781 I1.384 J-3.033
G1 X-0.459 Y19.729
G3 X-0.459 Y20.271 I0 J0.271
X-3.695 Y20.138 I-0.007 J-39.205
G2 X-6.929 Y20.29 I-1.032 J12.489
X-7.751 Y20.588 I0.451 J2.525
X-8.132 Y20.83 I2.439 J4.269
X-8.633 Y22.276 I0.748 J1.068
G3 X-9.837 Y23.219 I-0.786 J0.238
G1 X-10.359 Y22.909
X-10.401 Y22.869
X-11.098 Y22.105
X-11.128 Y22.058
X-11.583 Y21.097
X-11.746 Y20.018
X-11.745 Y19.968
X-11.582 Y18.906
X-11.558 Y18.845
X-11.392 Y18.496
X-11.113 Y17.917
X-11.063 Y17.853
X-10.358 Y17.087
X-10.35 Y17.08
X-9.427 Y16.536
X-9.401 Y16.527
X-7.702 Y16.523
X-7.699 Y16.536
X-7.666 Y16.673
X-7.645 Y16.743
X-7.617 Y16.811
X-7.553 Y16.948
X-7.518 Y17.015
X-7.476 Y17.078
X-7.387 Y17.199
X-7.341 Y17.255
X-7.29 Y17.307
X-7.189 Y17.399
X-7.13 Y17.448
X-7.066 Y17.491
X-6.921 Y17.577
X-6.848 Y17.615
X-6.772 Y17.645
X-6.621 Y17.695
X-6.543 Y17.716
X-6.463 Y17.729
X-6.301 Y17.745
X-6.224 Y17.749
X-0.109 Y17.75
X0.643 Y17.861
X1.215 Y18.126
X1.703 Y18.554
X2.182 Y19.316
X2.219 Y19.369
X2.26 Y19.419
X2.379 Y19.551
X2.435 Y19.607
X2.497 Y19.656
X2.608 Y19.737
X2.67 Y19.777
X2.736 Y19.812
X2.881 Y19.878
X2.957 Y19.908
X3.036 Y19.929
X3.198 Y19.964
X3.277 Y19.976
X3.355 Y19.98
X12.556 Y19.977
X12.637 Y19.973
X12.717 Y19.96
X12.879 Y19.924
X12.963 Y19.9
X13.043 Y19.867
X13.205 Y19.789
X13.275 Y19.751
X13.34 Y19.706
X13.449 Y19.621
X13.502 Y19.576
X13.55 Y19.526
X13.644 Y19.419
X13.695 Y19.356
X13.738 Y19.287
X13.826 Y19.128
X13.864 Y19.049
X13.893 Y18.966
X13.939 Y18.803
X13.956 Y18.725
X13.965 Y18.645
X13.975 Y18.482
X30.337 Y18.48
X30.628 Y18.541
X31.012 Y18.634
X31.017 Y18.637
X31.517 Y19.033
X31.518 Y20.969
X31.008 Y21.373
X30.351 Y21.524
X30.327 Y21.527
X13.974 Y21.531
Y21.477
X13.971 Y21.41
X13.962 Y21.344
X13.932 Y21.181
X13.912 Y21.098
X13.882 Y21.017
X13.811 Y20.854
X13.776 Y20.783
X13.733 Y20.716
X13.652 Y20.603
X13.607 Y20.547
X13.557 Y20.495
X13.449 Y20.392
X13.397 Y20.347
X13.34 Y20.307
X13.232 Y20.237
X13.166 Y20.199
X13.097 Y20.169
X12.934 Y20.106
X12.854 Y20.08
X12.771 Y20.063
X12.608 Y20.039
X12.501 Y20.032
X3.355 Y20.037
X3.28 Y20.041
X3.206 Y20.052
X3.044 Y20.085
X2.975 Y20.102
X2.909 Y20.126
X2.801 Y20.17
X2.743 Y20.196
X2.688 Y20.227
X2.572 Y20.299
X2.512 Y20.341
X2.456 Y20.389
X2.34 Y20.498
X2.286 Y20.554
X2.238 Y20.616
X2.132 Y20.768
X2.116 Y20.793
X1.691 Y21.459
X1.212 Y21.877
X0.646 Y22.137
X0.374 Y22.18
X-0.108 Y22.25
X-6.278 Y22.251
X-6.344 Y22.254
X-6.41 Y22.263
X-6.572 Y22.292
X-6.654 Y22.311
X-6.733 Y22.34
X-6.891 Y22.406
X-6.962 Y22.441
X-7.029 Y22.483
X-7.147 Y22.566
X-7.206 Y22.612
X-7.26 Y22.664
X-7.366 Y22.775
X-7.419 Y22.837
X-7.464 Y22.904
X-7.553 Y23.051
X-7.59 Y23.121
X-7.62 Y23.196
X-7.669 Y23.338
X-7.688 Y23.404
X-7.701 Y23.472
X-9.403
X-9.424 Y23.464
X-9.837 Y23.219
S15000
G3 X-10.531 Y21.896 Z-0.249 I0.728 J-1.225 F300
G1 X-10.372 Y19.565 Z-0.321
G3 X-7.528 Y19.76 Z-0.461 I1.422 J0.097
X-8.132 Y20.83 Z-0.5 I-1.422 J-0.097
S500
G2 X-8.468 Y21.087 I2.82 J4.027 F1000
G3 X-9.505 Y20.861 I-0.43 J-0.514
G1 X-9.628 Y20.602
X-9.663 Y20.51
X-9.685 Y20.414
X-9.727 Y20.134
G3 X-9.727 Y19.864 I0.889 J-0.133
G1 X-9.682 Y19.575
X-9.661 Y19.48
X-9.625 Y19.389
X-9.502 Y19.134
G3 X-8.461 Y18.916 I0.604 J0.291
G2 X-7.552 Y19.498 I2.502 J-2.911
X-6.512 Y19.781 I1.384 J-3.033
G1 X-0.459 Y19.729
G3 X-0.459 Y20.271 I0 J0.271
X-3.695 Y20.138 I-0.007 J-39.205
G2 X-6.929 Y20.29 I-1.032 J12.489
X-7.751 Y20.588 I0.451 J2.525
X-8.132 Y20.83 I2.439 J4.269
G1 X-8.173 Y20.853 Z-0.493 F300
X-8.216 Y20.869 Z-0.485
X-8.257 Y20.878 Z-0.464
X-8.298 Y20.881 Z-0.443
X-8.364 Y20.875 Z-0.376
X-8.405 Y20.863 Z-0.293
X-8.419 Y20.857 Z-0.2
Z4 F1000
X15.793 Y21.332
Z0.415
S15000
X15.781 Y21.339 Z0.324 F300
X15.745 Y21.358 Z0.242
X15.688 Y21.386 Z0.176
X15.613 Y21.418 Z0.132
X15.528 Y21.449 Z0.115
G3 X14.647 Y18.738 Z-0.035 I-0.44 J-1.355
X15.528 Y21.449 Z-0.185 I0.44 J1.355
X14.647 Y18.738 Z-0.335 I-0.44 J-1.355
X16.495 Y19.871 Z-0.418 I0.44 J1.355
X15.088 Y21.519 Z-0.5 I-1.407 J0.223
X15.088 Y19.517 I0 J-1.001
S500
G1 X30.11 Y19.515 F1000
G3 X30.481 Y19.886 I0 J0.371
G1 X30.482 Y20.12
G3 X30.111 Y20.491 I-0.371 J0
G1 X15.019 Y20.495
G3 X14.693 Y20.301 I0 J-0.371
G1 X14.635 Y20.202
G3 X14.628 Y19.818 I0.314 J-0.198
G1 X14.643 Y19.791
X14.689 Y19.708
G3 X15.014 Y19.517 I0.324 J0.18
G1 X15.088
G2 X15.864 Y18.999 I0 J-0.841
G3 X16.64 Y18.482 I0.776 J0.323
G1 X30.337 Y18.48
X30.628 Y18.541
X31.012 Y18.634
X31.017 Y18.637
X31.517 Y19.033
X31.518 Y20.969
X31.008 Y21.373
X30.351 Y21.524
X30.327 Y21.527
X13.974 Y21.531
Y21.477
X13.971 Y21.41
X13.962 Y21.344
X13.932 Y21.181
X13.912 Y21.098
X13.882 Y21.017
X13.811 Y20.854
X13.776 Y20.783
X13.733 Y20.716
X13.652 Y20.603
X13.607 Y20.547
X13.557 Y20.495
X13.449 Y20.392
X13.397 Y20.347
X13.34 Y20.307
X13.232 Y20.237
X13.166 Y20.199
X13.097 Y20.169
X12.934 Y20.106
X12.854 Y20.08
X12.771 Y20.063
X12.608 Y20.039
X12.501 Y20.032
X3.355 Y20.037
X3.28 Y20.041
X3.206 Y20.052
X3.044 Y20.085
X2.975 Y20.102
X2.909 Y20.126
X2.801 Y20.17
X2.743 Y20.196
X2.688 Y20.227
X2.572 Y20.299
X2.512 Y20.341
X2.456 Y20.389
X2.34 Y20.498
X2.286 Y20.554
X2.238 Y20.616
X2.132 Y20.768
X2.116 Y20.793
X1.691 Y21.459
X1.212 Y21.877
X0.646 Y22.137
X0.374 Y22.18
X-0.108 Y22.25
X-6.278 Y22.251
X-6.344 Y22.254
X-6.41 Y22.263
X-6.572 Y22.292
X-6.654 Y22.311
X-6.733 Y22.34
X-6.891 Y22.406
X-6.962 Y22.441
X-7.029 Y22.483
X-7.147 Y22.566
X-7.206 Y22.612
X-7.26 Y22.664
X-7.366 Y22.775
X-7.419 Y22.837
X-7.464 Y22.904
X-7.553 Y23.051
X-7.59 Y23.121
X-7.62 Y23.196
X-7.669 Y23.338
X-7.688 Y23.404
X-7.701 Y23.472
X-9.403
X-9.424 Y23.464
X-10.359 Y22.909
X-10.401 Y22.869
X-11.098 Y22.105
X-11.128 Y22.058
X-11.583 Y21.097
X-11.746 Y20.018
X-11.745 Y19.968
X-11.582 Y18.906
X-11.558 Y18.845
X-11.392 Y18.496
X-11.113 Y17.917
X-11.063 Y17.853
X-10.358 Y17.087
X-10.35 Y17.08
X-9.427 Y16.536
X-9.401 Y16.527
X-7.702 Y16.523
X-7.699 Y16.536
X-7.666 Y16.673
X-7.645 Y16.743
X-7.617 Y16.811
X-7.553 Y16.948
X-7.518 Y17.015
X-7.476 Y17.078
X-7.387 Y17.199
X-7.341 Y17.255
X-7.29 Y17.307
X-7.189 Y17.399
X-7.13 Y17.448
X-7.066 Y17.491
X-6.921 Y17.577
X-6.848 Y17.615
X-6.772 Y17.645
X-6.621 Y17.695
X-6.543 Y17.716
X-6.463 Y17.729
X-6.301 Y17.745
X-6.224 Y17.749
X-0.109 Y17.75
X0.643 Y17.861
X1.215 Y18.126
X1.703 Y18.554
X2.182 Y19.316
X2.219 Y19.369
X2.26 Y19.419
X2.379 Y19.551
X2.435 Y19.607
X2.497 Y19.656
X2.608 Y19.737
X2.67 Y19.777
X2.736 Y19.812
X2.881 Y19.878
X2.957 Y19.908
X3.036 Y19.929
X3.198 Y19.964
X3.277 Y19.976
X3.355 Y19.98
X12.556 Y19.977
X12.637 Y19.973
X12.717 Y19.96
X12.879 Y19.924
X12.963 Y19.9
X13.043 Y19.867
X13.205 Y19.789
X13.275 Y19.751
X13.34 Y19.706
X13.449 Y19.621
X13.502 Y19.576
X13.55 Y19.526
X13.644 Y19.419
X13.695 Y19.356
X13.738 Y19.287
X13.826 Y19.128
X13.864 Y19.049
X13.893 Y18.966
X13.939 Y18.803
X13.956 Y18.725
X13.965 Y18.645
X13.975 Y18.482
X16.64
S15000
G3 X17.199 Y20.326 Z-0.594 I0 J1.007 F300
G1 X15.646 Y21.361 Z-0.662
G3 X14.529 Y19.686 Z-0.778 I-0.559 J-0.838
X15.088 Y19.517 Z-0.8 I0.559 J0.838
S500
G1 X30.11 Y19.515 F1000
G3 X30.481 Y19.886 I0 J0.371
G1 X30.482 Y20.12
G3 X30.111 Y20.491 I-0.371 J0
G1 X15.019 Y20.495
G3 X14.693 Y20.301 I0 J-0.371
G1 X14.635 Y20.202
G3 X14.628 Y19.818 I0.314 J-0.198
G1 X14.643 Y19.791
X14.689 Y19.708
G3 X15.014 Y19.517 I0.324 J0.18
G1 X15.088
X15.134 Y19.521 Z-0.793 F300
X15.179 Y19.531 Z-0.785
X15.218 Y19.547 Z-0.764
X15.254 Y19.567 Z-0.743
X15.305 Y19.61 Z-0.676
X15.332 Y19.643 Z-0.593
X15.34 Y19.655 Z-0.5
Z4 F1000
X-7.662 Y20.272
Z0.115
S15000
X-7.668 Y20.285 Z0.024 F300
X-7.686 Y20.322 Z-0.058
X-7.717 Y20.378 Z-0.124
X-7.76 Y20.446 Z-0.168
X-7.812 Y20.52 Z-0.185
G3 X-10.088 Y18.805 Z-0.335 I-1.138 J-0.857
X-7.812 Y20.52 Z-0.485 I1.138 J0.857
X-10.088 Y18.805 Z-0.635 I-1.138 J-0.857
X-7.812 Y20.52 Z-0.785 I1.138 J0.857
X-8.132 Y20.83 Z-0.8 I-1.138 J-0.857
S500
G2 X-8.468 Y21.087 I2.82 J4.027 F1000
G3 X-9.505 Y20.861 I-0.43 J-0.514
G1 X-9.628 Y20.602
X-9.663 Y20.51
X-9.685 Y20.414
X-9.727 Y20.134
G3 X-9.727 Y19.864 I0.889 J-0.133
G1 X-9.682 Y19.575
X-9.661 Y19.48
X-9.625 Y19.389
X-9.502 Y19.134
G3 X-8.461 Y18.916 I0.604 J0.291
G2 X-7.552 Y19.498 I2.502 J-2.911
X-6.512 Y19.781 I1.384 J-3.033
G1 X-0.459 Y19.729
G3 X-0.459 Y20.271 I0 J0.271
X-3.695 Y20.138 I-0.007 J-39.205
G2 X-6.929 Y20.29 I-1.032 J12.489
X-7.751 Y20.588 I0.451 J2.525
X-8.132 Y20.83 I2.439 J4.269
X-8.633 Y22.276 I0.748 J1.068
G3 X-9.837 Y23.219 I-0.786 J0.238
G1 X-10.359 Y22.909
X-10.401 Y22.869
X-11.098 Y22.105
X-11.128 Y22.058
X-11.583 Y21.097
X-11.746 Y20.018
X-11.745 Y19.968
X-11.582 Y18.906
X-11.558 Y18.845
X-11.392 Y18.496
X-11.113 Y17.917
X-11.063 Y17.853
X-10.358 Y17.087
X-10.35 Y17.08
X-9.427 Y16.536
X-9.401 Y16.527
X-7.702 Y16.523
X-7.699 Y16.536
X-7.666 Y16.673
X-7.645 Y16.743
X-7.617 Y16.811
X-7.553 Y16.948
X-7.518 Y17.015
X-7.476 Y17.078
X-7.387 Y17.199
X-7.341 Y17.255
X-7.29 Y17.307
X-7.189 Y17.399
X-7.13 Y17.448
X-7.066 Y17.491
X-6.921 Y17.577
X-6.848 Y17.615
X-6.772 Y17.645
X-6.621 Y17.695
X-6.543 Y17.716
X-6.463 Y17.729
X-6.301 Y17.745
X-6.224 Y17.749
X-0.109 Y17.75
X0.643 Y17.861
X1.215 Y18.126
X1.703 Y18.554
X2.182 Y19.316
X2.219 Y19.369
X2.26 Y19.419
X2.379 Y19.551
X2.435 Y19.607
X2.497 Y19.656
X2.608 Y19.737
X2.67 Y19.777
X2.736 Y19.812
X2.881 Y19.878
X2.957 Y19.908
X3.036 Y19.929
X3.198 Y19.964
X3.277 Y19.976
X3.355 Y19.98
X12.556 Y19.977
X12.637 Y19.973
X12.717 Y19.96
X12.879 Y19.924
X12.963 Y19.9
X13.043 Y19.867
X13.205 Y19.789
X13.275 Y19.751
X13.34 Y19.706
X13.449 Y19.621
X13.502 Y19.576
X13.55 Y19.526
X13.644 Y19.419
X13.695 Y19.356
X13.738 Y19.287
X13.826 Y19.128
X13.864 Y19.049
X13.893 Y18.966
X13.939 Y18.803
X13.956 Y18.725
X13.965 Y18.645
X13.975 Y18.482
X30.337 Y18.48
X30.628 Y18.541
X31.012 Y18.634
X31.017 Y18.637
X31.517 Y19.033
X31.518 Y20.969
X31.008 Y21.373
X30.351 Y21.524
X30.327 Y21.527
X13.974 Y21.531
Y21.477
X13.971 Y21.41
X13.962 Y21.344
X13.932 Y21.181
X13.912 Y21.098
X13.882 Y21.017
X13.811 Y20.854
X13.776 Y20.783
X13.733 Y20.716
X13.652 Y20.603
X13.607 Y20.547
X13.557 Y20.495
X13.449 Y20.392
X13.397 Y20.347
X13.34 Y20.307
X13.232 Y20.237
X13.166 Y20.199
X13.097 Y20.169
X12.934 Y20.106
X12.854 Y20.08
X12.771 Y20.063
X12.608 Y20.039
X12.501 Y20.032
X3.355 Y20.037
X3.28 Y20.041
X3.206 Y20.052
X3.044 Y20.085
X2.975 Y20.102
X2.909 Y20.126
X2.801 Y20.17
X2.743 Y20.196
X2.688 Y20.227
X2.572 Y20.299
X2.512 Y20.341
X2.456 Y20.389
X2.34 Y20.498
X2.286 Y20.554
X2.238 Y20.616
X2.132 Y20.768
X2.116 Y20.793
X1.691 Y21.459
X1.212 Y21.877
X0.646 Y22.137
X0.374 Y22.18
X-0.108 Y22.25
X-6.278 Y22.251
X-6.344 Y22.254
X-6.41 Y22.263
X-6.572 Y22.292
X-6.654 Y22.311
X-6.733 Y22.34
X-6.891 Y22.406
X-6.962 Y22.441
X-7.029 Y22.483
X-7.147 Y22.566
X-7.206 Y22.612
X-7.26 Y22.664
X-7.366 Y22.775
X-7.419 Y22.837
X-7.464 Y22.904
X-7.553 Y23.051
X-7.59 Y23.121
X-7.62 Y23.196
X-7.669 Y23.338
X-7.688 Y23.404
X-7.701 Y23.472
X-9.403
X-9.424 Y23.464
X-9.837 Y23.219
S15000
G3 X-10.531 Y21.896 Z-0.849 I0.728 J-1.225 F300
G1 X-10.372 Y19.565 Z-0.921
G3 X-7.528 Y19.76 Z-1.061 I1.422 J0.097
X-8.132 Y20.83 Z-1.1 I-1.422 J-0.097
S500
G2 X-8.468 Y21.087 I2.82 J4.027 F1000
G3 X-9.505 Y20.861 I-0.43 J-0.514
G1 X-9.628 Y20.602
X-9.663 Y20.51
X-9.685 Y20.414
X-9.727 Y20.134
G3 X-9.727 Y19.864 I0.889 J-0.133
G1 X-9.682 Y19.575
X-9.661 Y19.48
X-9.625 Y19.389
X-9.502 Y19.134
G3 X-8.461 Y18.916 I0.604 J0.291
G2 X-7.552 Y19.498 I2.502 J-2.911
X-6.512 Y19.781 I1.384 J-3.033
G1 X-0.459 Y19.729
G3 X-0.459 Y20.271 I0 J0.271
X-3.695 Y20.138 I-0.007 J-39.205
G2 X-6.929 Y20.29 I-1.032 J12.489
X-7.751 Y20.588 I0.451 J2.525
X-8.132 Y20.83 I2.439 J4.269
G1 X-8.173 Y20.853 Z-1.093 F300
X-8.216 Y20.869 Z-1.085
X-8.257 Y20.878 Z-1.064
X-8.298 Y20.881 Z-1.043
X-8.364 Y20.875 Z-0.976
X-8.405 Y20.863 Z-0.893
X-8.419 Y20.857 Z-0.8
Z4 F1000
X15.793 Y21.332
Z1.3
Z-0.185 F300
S15000
X15.781 Y21.339 Z-0.276
X15.745 Y21.358 Z-0.358
X15.688 Y21.386 Z-0.424
X15.613 Y21.418 Z-0.468
X15.528 Y21.449 Z-0.485
G3 X14.647 Y18.738 Z-0.635 I-0.44 J-1.355
X15.528 Y21.449 Z-0.785 I0.44 J1.355
X14.647 Y18.738 Z-0.935 I-0.44 J-1.355
X16.495 Y19.871 Z-1.018 I0.44 J1.355
X15.088 Y21.519 Z-1.1 I-1.407 J0.223
X15.088 Y19.517 I0 J-1.001
S500
G1 X30.11 Y19.515 F1000
G3 X30.481 Y19.886 I0 J0.371
G1 X30.482 Y20.12
G3 X30.111 Y20.491 I-0.371 J0
G1 X15.019 Y20.495
G3 X14.693 Y20.301 I0 J-0.371
G1 X14.635 Y20.202
G3 X14.628 Y19.818 I0.314 J-0.198
G1 X14.643 Y19.791
X14.689 Y19.708
G3 X15.014 Y19.517 I0.324 J0.18
G1 X15.088
G2 X15.864 Y18.999 I0 J-0.841
G3 X16.64 Y18.482 I0.776 J0.323
G1 X30.337 Y18.48
X30.628 Y18.541
X31.012 Y18.634
X31.017 Y18.637
X31.517 Y19.033
X31.518 Y20.969
X31.008 Y21.373
X30.351 Y21.524
X30.327 Y21.527
X13.974 Y21.531
Y21.477
X13.971 Y21.41
X13.962 Y21.344
X13.932 Y21.181
X13.912 Y21.098
X13.882 Y21.017
X13.811 Y20.854
X13.776 Y20.783
X13.733 Y20.716
X13.652 Y20.603
X13.607 Y20.547
X13.557 Y20.495
X13.449 Y20.392
X13.397 Y20.347
X13.34 Y20.307
X13.232 Y20.237
X13.166 Y20.199
X13.097 Y20.169
X12.934 Y20.106
X12.854 Y20.08
X12.771 Y20.063
X12.608 Y20.039
X12.501 Y20.032
X3.355 Y20.037
X3.28 Y20.041
X3.206 Y20.052
X3.044 Y20.085
X2.975 Y20.102
X2.909 Y20.126
X2.801 Y20.17
X2.743 Y20.196
X2.688 Y20.227
X2.572 Y20.299
X2.512 Y20.341
X2.456 Y20.389
X2.34 Y20.498
X2.286 Y20.554
X2.238 Y20.616
X2.132 Y20.768
X2.116 Y20.793
X1.691 Y21.459
X1.212 Y21.877
X0.646 Y22.137
X0.374 Y22.18
X-0.108 Y22.25
X-6.278 Y22.251
X-6.344 Y22.254
X-6.41 Y22.263
X-6.572 Y22.292
X-6.654 Y22.311
X-6.733 Y22.34
X-6.891 Y22.406
X-6.962 Y22.441
X-7.029 Y22.483
X-7.147 Y22.566
X-7.206 Y22.612
X-7.26 Y22.664
X-7.366 Y22.775
X-7.419 Y22.837
X-7.464 Y22.904
X-7.553 Y23.051
X-7.59 Y23.121
X-7.62 Y23.196
X-7.669 Y23.338
X-7.688 Y23.404
X-7.701 Y23.472
X-9.403
X-9.424 Y23.464
X-10.359 Y22.909
X-10.401 Y22.869
X-11.098 Y22.105
X-11.128 Y22.058
X-11.583 Y21.097
X-11.746 Y20.018
X-11.745 Y19.968
X-11.582 Y18.906
X-11.558 Y18.845
X-11.392 Y18.496
X-11.113 Y17.917
X-11.063 Y17.853
X-10.358 Y17.087
X-10.35 Y17.08
X-9.427 Y16.536
X-9.401 Y16.527
X-7.702 Y16.523
X-7.699 Y16.536
X-7.666 Y16.673
X-7.645 Y16.743
X-7.617 Y16.811
X-7.553 Y16.948
X-7.518 Y17.015
X-7.476 Y17.078
X-7.387 Y17.199
X-7.341 Y17.255
X-7.29 Y17.307
X-7.189 Y17.399
X-7.13 Y17.448
X-7.066 Y17.491
X-6.921 Y17.577
X-6.848 Y17.615
X-6.772 Y17.645
X-6.621 Y17.695
X-6.543 Y17.716
X-6.463 Y17.729
X-6.301 Y17.745
X-6.224 Y17.749
X-0.109 Y17.75
X0.643 Y17.861
X1.215 Y18.126
X1.703 Y18.554
X2.182 Y19.316
X2.219 Y19.369
X2.26 Y19.419
X2.379 Y19.551
X2.435 Y19.607
X2.497 Y19.656
X2.608 Y19.737
X2.67 Y19.777
X2.736 Y19.812
X2.881 Y19.878
X2.957 Y19.908
X3.036 Y19.929
X3.198 Y19.964
X3.277 Y19.976
X3.355 Y19.98
X12.556 Y19.977
X12.637 Y19.973
X12.717 Y19.96
X12.879 Y19.924
X12.963 Y19.9
X13.043 Y19.867
X13.205 Y19.789
X13.275 Y19.751
X13.34 Y19.706
X13.449 Y19.621
X13.502 Y19.576
X13.55 Y19.526
X13.644 Y19.419
X13.695 Y19.356
X13.738 Y19.287
X13.826 Y19.128
X13.864 Y19.049
X13.893 Y18.966
X13.939 Y18.803
X13.956 Y18.725
X13.965 Y18.645
X13.975 Y18.482
X16.64
S15000
G3 X17.199 Y20.326 Z-1.131 I0 J1.007 F300
G1 X15.646 Y21.361 Z-1.154
G3 X14.529 Y19.686 Z-1.193 I-0.559 J-0.838
X15.088 Y19.517 Z-1.2 I0.559 J0.838
S500
G1 X30.11 Y19.515 F1000
G3 X30.481 Y19.886 I0 J0.371
G1 X30.482 Y20.12
G3 X30.111 Y20.491 I-0.371 J0
G1 X15.019 Y20.495
G3 X14.693 Y20.301 I0 J-0.371
G1 X14.635 Y20.202
G3 X14.628 Y19.818 I0.314 J-0.198
G1 X14.643 Y19.791
X14.689 Y19.708
G3 X15.014 Y19.517 I0.324 J0.18
G1 X15.088
X15.134 Y19.521 Z-1.193 F300
X15.179 Y19.531 Z-1.185
X15.218 Y19.547 Z-1.164
X15.254 Y19.567 Z-1.143
X15.305 Y19.61 Z-1.076
X15.332 Y19.643 Z-0.993
X15.34 Y19.655 Z-0.9
Z4 F1000
X-9.066 Y18.242
Z-0.485
S15000
X-9.052 Y18.241 Z-0.576 F300
X-9.011 Y18.239 Z-0.658
X-8.947 Y18.238 Z-0.724
X-8.866 Y18.24 Z-0.768
X-8.776 Y18.248 Z-0.785
G3 X-9.123 Y21.077 Z-0.935 I-0.173 J1.414
X-8.776 Y18.248 Z-1.085 I0.173 J-1.414
X-8.132 Y20.83 Z-1.2 I-0.173 J1.414
S500
G2 X-8.468 Y21.087 I2.82 J4.027 F1000
G3 X-9.505 Y20.861 I-0.43 J-0.514
G1 X-9.628 Y20.602
X-9.663 Y20.51
X-9.685 Y20.414
X-9.727 Y20.134
G3 X-9.727 Y19.864 I0.889 J-0.133
G1 X-9.682 Y19.575
X-9.661 Y19.48
X-9.625 Y19.389
X-9.502 Y19.134
G3 X-8.461 Y18.916 I0.604 J0.291
G2 X-7.552 Y19.498 I2.502 J-2.911
X-6.512 Y19.781 I1.384 J-3.033
G1 X-0.459 Y19.729
G3 X-0.459 Y20.271 I0 J0.271
X-3.695 Y20.138 I-0.007 J-39.205
G2 X-6.929 Y20.29 I-1.032 J12.489
X-7.751 Y20.588 I0.451 J2.525
X-8.132 Y20.83 I2.439 J4.269
X-8.633 Y22.276 I0.748 J1.068
G3 X-9.837 Y23.219 I-0.786 J0.238
G1 X-10.359 Y22.909
X-10.401 Y22.869
X-11.098 Y22.105
X-11.128 Y22.058
X-11.583 Y21.097
X-11.746 Y20.018
X-11.745 Y19.968
X-11.582 Y18.906
X-11.558 Y18.845
X-11.392 Y18.496
X-11.113 Y17.917
X-11.063 Y17.853
X-10.358 Y17.087
X-10.35 Y17.08
X-9.427 Y16.536
X-9.401 Y16.527
X-7.702 Y16.523
X-7.699 Y16.536
X-7.666 Y16.673
X-7.645 Y16.743
X-7.617 Y16.811
X-7.553 Y16.948
X-7.518 Y17.015
X-7.476 Y17.078
X-7.387 Y17.199
X-7.341 Y17.255
X-7.29 Y17.307
X-7.189 Y17.399
X-7.13 Y17.448
X-7.066 Y17.491
X-6.921 Y17.577
X-6.848 Y17.615
X-6.772 Y17.645
X-6.621 Y17.695
X-6.543 Y17.716
X-6.463 Y17.729
X-6.301 Y17.745
X-6.224 Y17.749
X-0.109 Y17.75
X0.643 Y17.861
X1.215 Y18.126
X1.703 Y18.554
X2.182 Y19.316
X2.219 Y19.369
X2.26 Y19.419
X2.379 Y19.551
X2.435 Y19.607
X2.497 Y19.656
X2.608 Y19.737
X2.67 Y19.777
X2.736 Y19.812
X2.881 Y19.878
X2.957 Y19.908
X3.036 Y19.929
X3.198 Y19.964
X3.277 Y19.976
X3.355 Y19.98
X12.556 Y19.977
X12.637 Y19.973
X12.717 Y19.96
X12.879 Y19.924
X12.963 Y19.9
X13.043 Y19.867
X13.205 Y19.789
X13.275 Y19.751
X13.34 Y19.706
X13.449 Y19.621
X13.502 Y19.576
X13.55 Y19.526
X13.644 Y19.419
X13.695 Y19.356
X13.738 Y19.287
X13.826 Y19.128
X13.864 Y19.049
X13.893 Y18.966
X13.939 Y18.803
X13.956 Y18.725
X13.965 Y18.645
X13.975 Y18.482
X30.337 Y18.48
X30.628 Y18.541
X31.012 Y18.634
X31.017 Y18.637
X31.517 Y19.033
X31.518 Y20.969
X31.008 Y21.373
X30.351 Y21.524
X30.327 Y21.527
X13.974 Y21.531
Y21.477
X13.971 Y21.41
X13.962 Y21.344
X13.932 Y21.181
X13.912 Y21.098
X13.882 Y21.017
X13.811 Y20.854
X13.776 Y20.783
X13.733 Y20.716
X13.652 Y20.603
X13.607 Y20.547
X13.557 Y20.495
X13.449 Y20.392
X13.397 Y20.347
X13.34 Y20.307
X13.232 Y20.237
X13.166 Y20.199
X13.097 Y20.169
X12.934 Y20.106
X12.854 Y20.08
X12.771 Y20.063
X12.608 Y20.039
X12.501 Y20.032
X3.355 Y20.037
X3.28 Y20.041
X3.206 Y20.052
X3.044 Y20.085
X2.975 Y20.102
X2.909 Y20.126
X2.801 Y20.17
X2.743 Y20.196
X2.688 Y20.227
X2.572 Y20.299
X2.512 Y20.341
X2.456 Y20.389
X2.34 Y20.498
X2.286 Y20.554
X2.238 Y20.616
X2.132 Y20.768
X2.116 Y20.793
X1.691 Y21.459
X1.212 Y21.877
X0.646 Y22.137
X0.374 Y22.18
X-0.108 Y22.25
X-6.278 Y22.251
X-6.344 Y22.254
X-6.41 Y22.263
X-6.572 Y22.292
X-6.654 Y22.311
X-6.733 Y22.34
X-6.891 Y22.406
X-6.962 Y22.441
X-7.029 Y22.483
X-7.147 Y22.566
X-7.206 Y22.612
X-7.26 Y22.664
X-7.366 Y22.775
X-7.419 Y22.837
X-7.464 Y22.904
X-7.553 Y23.051
X-7.59 Y23.121
X-7.62 Y23.196
X-7.669 Y23.338
X-7.688 Y23.404
X-7.701 Y23.472
X-9.403
X-9.424 Y23.464
X-9.837 Y23.219
S15000
G3 X-10.531 Y21.896 Z-1.249 I0.728 J-1.225 F300
G1 X-10.372 Y19.565 Z-1.321
G3 X-7.528 Y19.76 Z-1.461 I1.422 J0.097
X-8.132 Y20.83 Z-1.5 I-1.422 J-0.097
S500
G2 X-8.468 Y21.087 I2.82 J4.027 F1000
G3 X-9.505 Y20.861 I-0.43 J-0.514
G1 X-9.628 Y20.602
X-9.663 Y20.51
X-9.685 Y20.414
X-9.727 Y20.134
G3 X-9.727 Y19.864 I0.889 J-0.133
G1 X-9.682 Y19.575
X-9.661 Y19.48
X-9.625 Y19.389
X-9.502 Y19.134
G3 X-8.461 Y18.916 I0.604 J0.291
G2 X-7.552 Y19.498 I2.502 J-2.911
X-6.512 Y19.781 I1.384 J-3.033
G1 X-0.459 Y19.729
G3 X-0.459 Y20.271 I0 J0.271
X-3.695 Y20.138 I-0.007 J-39.205
G2 X-6.929 Y20.29 I-1.032 J12.489
X-7.751 Y20.588 I0.451 J2.525
X-8.132 Y20.83 I2.439 J4.269
X-8.633 Y22.276 I0.748 J1.068
G3 X-9.837 Y23.219 I-0.786 J0.238
G1 X-10.359 Y22.909
X-10.401 Y22.869
X-11.098 Y22.105
X-11.128 Y22.058
X-11.583 Y21.097
X-11.746 Y20.018
X-11.745 Y19.968
X-11.582 Y18.906
X-11.558 Y18.845
X-11.392 Y18.496
X-11.113 Y17.917
X-11.063 Y17.853
X-10.358 Y17.087
X-10.35 Y17.08
X-9.427 Y16.536
X-9.401 Y16.527
X-7.702 Y16.523
X-7.699 Y16.536
X-7.666 Y16.673
X-7.645 Y16.743
X-7.617 Y16.811
X-7.553 Y16.948
X-7.518 Y17.015
X-7.476 Y17.078
X-7.387 Y17.199
X-7.341 Y17.255
X-7.29 Y17.307
X-7.189 Y17.399
X-7.13 Y17.448
X-7.066 Y17.491
X-6.921 Y17.577
X-6.848 Y17.615
X-6.772 Y17.645
X-6.621 Y17.695
X-6.543 Y17.716
X-6.463 Y17.729
X-6.301 Y17.745
X-6.224 Y17.749
X-0.109 Y17.75
X0.643 Y17.861
X1.215 Y18.126
X1.703 Y18.554
X2.182 Y19.316
X2.219 Y19.369
X2.26 Y19.419
X2.379 Y19.551
X2.435 Y19.607
X2.497 Y19.656
X2.608 Y19.737
X2.67 Y19.777
X2.736 Y19.812
X2.881 Y19.878
X2.957 Y19.908
X3.036 Y19.929
X3.198 Y19.964
X3.276 Y19.976
X3.355 Y19.98
X30.17 Y19.977
X30.282 Y20.002
X30.17 Y20.027
X3.355 Y20.037
X3.28 Y20.041
X3.206 Y20.052
X3.044 Y20.085
X2.975 Y20.102
X2.909 Y20.126
X2.801 Y20.17
X2.743 Y20.196
X2.688 Y20.227
X2.572 Y20.299
X2.512 Y20.341
X2.456 Y20.389
X2.34 Y20.498
X2.286 Y20.554
X2.238 Y20.616
X2.132 Y20.768
X2.116 Y20.793
X1.691 Y21.459
X1.212 Y21.877
X0.646 Y22.137
X0.374 Y22.18
X-0.108 Y22.25
X-6.278 Y22.251
X-6.344 Y22.254
X-6.41 Y22.263
X-6.572 Y22.292
X-6.654 Y22.311
X-6.733 Y22.34
X-6.891 Y22.406
X-6.962 Y22.441
X-7.029 Y22.483
X-7.147 Y22.566
X-7.206 Y22.612
X-7.26 Y22.664
X-7.366 Y22.775
X-7.419 Y22.837
X-7.464 Y22.904
X-7.553 Y23.051
X-7.59 Y23.121
X-7.62 Y23.196
X-7.669 Y23.338
X-7.688 Y23.404
X-7.701 Y23.472
X-9.403
X-9.424 Y23.464
X-9.837 Y23.219
S15000
G3 X-10.531 Y21.896 Z-1.549 I0.728 J-1.225 F300
G1 X-10.372 Y19.565 Z-1.621
G3 X-7.528 Y19.76 Z-1.761 I1.422 J0.097
X-8.132 Y20.83 Z-1.8 I-1.422 J-0.097
S500
G2 X-8.468 Y21.087 I2.82 J4.027 F1000
G3 X-9.505 Y20.861 I-0.43 J-0.514
G1 X-9.628 Y20.602
X-9.663 Y20.51
X-9.685 Y20.414
X-9.727 Y20.134
G3 X-9.727 Y19.864 I0.889 J-0.133
G1 X-9.682 Y19.575
X-9.661 Y19.48
X-9.625 Y19.389
X-9.502 Y19.134
G3 X-8.461 Y18.916 I0.604 J0.291
G2 X-7.552 Y19.498 I2.502 J-2.911
X-6.512 Y19.781 I1.384 J-3.033
G1 X-0.459 Y19.729
G3 X-0.459 Y20.271 I0 J0.271
X-3.695 Y20.138 I-0.007 J-39.205
G2 X-6.929 Y20.29 I-1.032 J12.489
X-7.751 Y20.588 I0.451 J2.525
X-8.132 Y20.83 I2.439 J4.269
X-8.633 Y22.276 I0.748 J1.068
G3 X-9.837 Y23.219 I-0.786 J0.238
G1 X-10.359 Y22.909
X-10.401 Y22.869
X-11.098 Y22.105
X-11.128 Y22.058
X-11.583 Y21.097
X-11.746 Y20.018
X-11.745 Y19.968
X-11.582 Y18.906
X-11.558 Y18.845
X-11.392 Y18.496
X-11.113 Y17.917
X-11.063 Y17.853
X-10.358 Y17.087
X-10.35 Y17.08
X-9.427 Y16.536
X-9.401 Y16.527
X-7.702 Y16.523
X-7.699 Y16.536
X-7.666 Y16.673
X-7.645 Y16.743
X-7.617 Y16.811
X-7.553 Y16.948
X-7.518 Y17.015
X-7.476 Y17.078
X-7.387 Y17.199
X-7.341 Y17.255
X-7.29 Y17.307
X-7.189 Y17.399
X-7.13 Y17.448
X-7.066 Y17.491
X-6.921 Y17.577
X-6.848 Y17.615
X-6.772 Y17.645
X-6.621 Y17.695
X-6.543 Y17.716
X-6.463 Y17.729
X-6.301 Y17.745
X-6.224 Y17.749
X-0.109 Y17.75
X0.643 Y17.861
X1.215 Y18.126
X1.703 Y18.554
X2.182 Y19.316
X2.219 Y19.369
X2.26 Y19.419
X2.379 Y19.551
X2.435 Y19.607
X2.497 Y19.656
X2.608 Y19.737
X2.67 Y19.777
X2.736 Y19.812
X2.881 Y19.878
X2.957 Y19.908
X3.036 Y19.929
X3.198 Y19.964
X3.276 Y19.976
X3.355 Y19.98
X30.17 Y19.977
X30.282 Y20.002
X30.17 Y20.027
X3.355 Y20.037
X3.28 Y20.041
X3.206 Y20.052
X3.044 Y20.085
X2.975 Y20.102
X2.909 Y20.126
X2.801 Y20.17
X2.743 Y20.196
X2.688 Y20.227
X2.572 Y20.299
X2.512 Y20.341
X2.456 Y20.389
X2.34 Y20.498
X2.286 Y20.554
X2.238 Y20.616
X2.132 Y20.768
X2.116 Y20.793
X1.691 Y21.459
X1.212 Y21.877
X0.646 Y22.137
X0.374 Y22.18
X-0.108 Y22.25
X-6.278 Y22.251
X-6.344 Y22.254
X-6.41 Y22.263
X-6.572 Y22.292
X-6.654 Y22.311
X-6.733 Y22.34
X-6.891 Y22.406
X-6.962 Y22.441
X-7.029 Y22.483
X-7.147 Y22.566
X-7.206 Y22.612
X-7.26 Y22.664
X-7.366 Y22.775
X-7.419 Y22.837
X-7.464 Y22.904
X-7.553 Y23.051
X-7.59 Y23.121
X-7.62 Y23.196
X-7.669 Y23.338
X-7.688 Y23.404
X-7.701 Y23.472
X-9.403
X-9.424 Y23.464
X-9.837 Y23.219
S15000
G3 X-10.531 Y21.896 Z-1.849 I0.728 J-1.225 F300
G1 X-10.372 Y19.565 Z-1.921
G3 X-7.528 Y19.76 Z-2.061 I1.422 J0.097
X-8.132 Y20.83 Z-2.1 I-1.422 J-0.097
S500
G2 X-8.468 Y21.087 I2.82 J4.027 F1000
G3 X-9.505 Y20.861 I-0.43 J-0.514
G1 X-9.628 Y20.602
X-9.663 Y20.51
X-9.685 Y20.414
X-9.727 Y20.134
G3 X-9.727 Y19.864 I0.889 J-0.133
G1 X-9.682 Y19.575
X-9.661 Y19.48
X-9.625 Y19.389
X-9.502 Y19.134
G3 X-8.461 Y18.916 I0.604 J0.291
G2 X-7.552 Y19.498 I2.502 J-2.911
X-6.512 Y19.781 I1.384 J-3.033
G1 X-0.459 Y19.729
G3 X-0.459 Y20.271 I0 J0.271
X-3.695 Y20.138 I-0.007 J-39.205
G2 X-6.929 Y20.29 I-1.032 J12.489
X-7.751 Y20.588 I0.451 J2.525
X-8.132 Y20.83 I2.439 J4.269
X-8.633 Y22.276 I0.748 J1.068
G3 X-9.837 Y23.219 I-0.786 J0.238
G1 X-10.359 Y22.909
X-10.401 Y22.869
X-11.098 Y22.105
X-11.128 Y22.058
X-11.583 Y21.097
X-11.746 Y20.018
X-11.745 Y19.968
X-11.582 Y18.906
X-11.558 Y18.845
X-11.392 Y18.496
X-11.113 Y17.917
X-11.063 Y17.853
X-10.358 Y17.087
X-10.35 Y17.08
X-9.427 Y16.536
X-9.401 Y16.527
X-7.702 Y16.523
X-7.699 Y16.536
X-7.666 Y16.673
X-7.645 Y16.743
X-7.617 Y16.811
X-7.553 Y16.948
X-7.518 Y17.015
X-7.476 Y17.078
X-7.387 Y17.199
X-7.341 Y17.255
X-7.29 Y17.307
X-7.189 Y17.399
X-7.13 Y17.448
X-7.066 Y17.491
X-6.921 Y17.577
X-6.848 Y17.615
X-6.772 Y17.645
X-6.621 Y17.695
X-6.543 Y17.716
X-6.463 Y17.729
X-6.301 Y17.745
X-6.224 Y17.749
X-0.109 Y17.75
X0.643 Y17.861
X1.215 Y18.126
X1.703 Y18.554
X2.182 Y19.316
X2.219 Y19.369
X2.26 Y19.419
X2.379 Y19.551
