(1001)
(T1  D=3 CR=0 - ZMIN=-18 - flat end mill)
G90 G94
G17
G21

(2D Contour1)
T1
S500 M3
G54
M8
G0 X-13.077 Y14.999
Z6
Z2
G1 Z1.3 F300
Z-0.3
X-13.084 Y15.016 F1000
X-13.102 Y15.024
X-19.411
G2 X-19.975 Y15.134 I0 J1.5
X-19.972 Y24.864 I1.975 J4.864
X-19.408 Y24.974 I0.563 J-1.39
G1 X-13.102
X-13.084 Y24.981
X-13.077 Y24.999
X-13.084 Y25.016
X-13.102 Y25.024
X-19.411
G2 X-19.975 Y25.134 I0 J1.5
X-19.516 Y35.025 I1.975 J4.864
X-19.083 Y35.089 I0.433 J-1.436
G1 X-13.064
X-13.046 Y35.096
X-13.039 Y35.114
X-13.046 Y35.131
X-13.064 Y35.139
X-19.666
G2 X-20.332 Y35.295 I0 J1.5
X-18.001 Y45.248 I2.332 J4.704
G1 X-10.768 Y45.249
G2 X3.898 Y52.473 I14.667 J-11.276
G1 X45.596
G2 X59.904 Y40.326 I0 J-14.5
G1 X61.836
G2 X63.808 Y30.21 I0 J-5.25
X63.245 Y30.101 I-0.564 J1.39
G1 X58.596
X58.578 Y30.093
X58.571 Y30.076
X58.578 Y30.058
X58.596 Y30.051
X63.246
G2 X63.811 Y29.94 I0 J-1.5
X63.808 Y20.21 I-1.975 J-4.865
X63.245 Y20.101 I-0.564 J1.39
G1 X58.596
X58.578 Y20.093
X58.571 Y20.076
X58.578 Y20.058
X58.596 Y20.051
X63.246
G2 X63.811 Y19.94 I0 J-1.5
X63.808 Y10.21 I-1.975 J-4.865
X63.245 Y10.101 I-0.564 J1.39
G1 X58.596
X58.578 Y10.093
X58.571 Y10.076
X58.578 Y10.058
X58.596 Y10.051
X63.246
G2 X63.811 Y9.94 I0 J-1.5
X61.837 Y-0.174 I-1.975 J-4.865
G1 X60.096
Y-6.905
G2 X45.596 Y-21.405 I-14.5 J0
G1 X-0.102
G2 X-14.602 Y-6.905 I0 J14.5
G1 Y-5.251
X-17.999 Y-5.252
G2 X-19.972 Y4.864 I-0.001 J5.25
X-19.408 Y4.974 I0.563 J-1.39
G1 X-13.102
X-13.084 Y4.981
X-13.077 Y4.999
X-13.084 Y5.016
X-13.102 Y5.024
X-19.411
G2 X-19.975 Y5.134 I0 J1.5
X-19.972 Y14.864 I1.975 J4.864
X-19.408 Y14.974 I0.563 J-1.39
G1 X-13.102
X-13.084 Y14.981
X-13.077 Y14.999
Z-0.6 F300
X-13.084 Y15.016 F1000
X-13.102 Y15.024
X-19.411
G2 X-19.975 Y15.134 I0 J1.5
X-19.972 Y24.864 I1.975 J4.864
X-19.408 Y24.974 I0.563 J-1.39
G1 X-13.102
X-13.084 Y24.981
X-13.077 Y24.999
X-13.084 Y25.016
X-13.102 Y25.024
X-19.411
G2 X-19.975 Y25.134 I0 J1.5
X-19.516 Y35.025 I1.975 J4.864
X-19.083 Y35.089 I0.433 J-1.436
G1 X-13.064
X-13.046 Y35.096
X-13.039 Y35.114
X-13.046 Y35.131
X-13.064 Y35.139
X-19.666
G2 X-20.332 Y35.295 I0 J1.5
X-18.001 Y45.248 I2.332 J4.704
G1 X-10.768 Y45.249
G2 X3.898 Y52.473 I14.667 J-11.276
G1 X45.596
G2 X59.904 Y40.326 I0 J-14.5
G1 X61.836
G2 X63.808 Y30.21 I0 J-5.25
X63.245 Y30.101 I-0.564 J1.39
G1 X58.596
X58.578 Y30.093
X58.571 Y30.076
X58.578 Y30.058
X58.596 Y30.051
X63.246
G2 X63.811 Y29.94 I0 J-1.5
X63.808 Y20.21 I-1.975 J-4.865
X63.245 Y20.101 I-0.564 J1.39
G1 X58.596
X58.578 Y20.093
X58.571 Y20.076
X58.578 Y20.058
X58.596 Y20.051
X63.246
G2 X63.811 Y19.94 I0 J-1.5
X63.808 Y10.21 I-1.975 J-4.865
X63.245 Y10.101 I-0.564 J1.39
G1 X58.596
X58.578 Y10.093
X58.571 Y10.076
X58.578 Y10.058
X58.596 Y10.051
X63.246
G2 X63.811 Y9.94 I0 J-1.5
X61.837 Y-0.174 I-1.975 J-4.865
G1 X60.096
Y-6.905
G2 X45.596 Y-21.405 I-14.5 J0
G1 X-0.102
G2 X-14.602 Y-6.905 I0 J14.5
G1 Y-5.251
X-17.999 Y-5.252
G2 X-19.972 Y4.864 I-0.001 J5.25
X-19.408 Y4.974 I0.563 J-1.39
G1 X-13.102
X-13.084 Y4.981
X-13.077 Y4.999
X-13.084 Y5.016
X-13.102 Y5.024
X-19.411
G2 X-19.975 Y5.134 I0 J1.5
X-19.972 Y14.864 I1.975 J4.864
X-19.408 Y14.974 I0.563 J-1.39
G1 X-13.102
X-13.084 Y14.981
X-13.077 Y14.999
Z-0.9 F300
X-13.084 Y15.016 F1000
X-13.102 Y15.024
X-19.411
G2 X-19.975 Y15.134 I0 J1.5
X-19.972 Y24.864 I1.975 J4.864
X-19.408 Y24.974 I0.563 J-1.39
G1 X-13.102
X-13.084 Y24.981
X-13.077 Y24.999
X-13.084 Y25.016
X-13.102 Y25.024
X-19.411
G2 X-19.975 Y25.134 I0 J1.5
X-19.516 Y35.025 I1.975 J4.864
X-19.083 Y35.089 I0.433 J-1.436
G1 X-13.064
X-13.046 Y35.096
X-13.039 Y35.114
X-13.046 Y35.131
X-13.064 Y35.139
X-19.666
G2 X-20.332 Y35.295 I0 J1.5
X-18.001 Y45.248 I2.332 J4.704
G1 X-10.768 Y45.249
G2 X3.898 Y52.473 I14.667 J-11.276
G1 X45.596
G2 X59.904 Y40.326 I0 J-14.5
G1 X61.836
G2 X63.808 Y30.21 I0 J-5.25
X63.245 Y30.101 I-0.564 J1.39
G1 X58.596
X58.578 Y30.093
X58.571 Y30.076
X58.578 Y30.058
X58.596 Y30.051
X63.246
G2 X63.811 Y29.94 I0 J-1.5
X63.808 Y20.21 I-1.975 J-4.865
X63.245 Y20.101 I-0.564 J1.39
G1 X58.596
X58.578 Y20.093
X58.571 Y20.076
X58.578 Y20.058
X58.596 Y20.051
X63.246
G2 X63.811 Y19.94 I0 J-1.5
X63.808 Y10.21 I-1.975 J-4.865
X63.245 Y10.101 I-0.564 J1.39
G1 X58.596
X58.578 Y10.093
X58.571 Y10.076
X58.578 Y10.058
X58.596 Y10.051
X63.246
G2 X63.811 Y9.94 I0 J-1.5
X61.837 Y-0.174 I-1.975 J-4.865
G1 X60.096
Y-6.905
G2 X45.596 Y-21.405 I-14.5 J0
G1 X-0.102
G2 X-14.602 Y-6.905 I0 J14.5
G1 Y-5.251
X-17.999 Y-5.252
G2 X-19.972 Y4.864 I-0.001 J5.25
X-19.408 Y4.974 I0.563 J-1.39
G1 X-13.102
X-13.084 Y4.981
X-13.077 Y4.999
X-13.084 Y5.016
X-13.102 Y5.024
X-19.411
G2 X-19.975 Y5.134 I0 J1.5
X-19.972 Y14.864 I1.975 J4.864
X-19.408 Y14.974 I0.563 J-1.39
G1 X-13.102
X-13.084 Y14.981
X-13.077 Y14.999
Z-1.2 F300
X-13.084 Y15.016 F1000
X-13.102 Y15.024
X-19.411
G2 X-19.975 Y15.134 I0 J1.5
X-19.972 Y24.864 I1.975 J4.864
X-19.408 Y24.974 I0.563 J-1.39
G1 X-13.102
X-13.084 Y24.981
X-13.077 Y24.999
X-13.084 Y25.016
X-13.102 Y25.024
X-19.411
G2 X-19.975 Y25.134 I0 J1.5
X-19.516 Y35.025 I1.975 J4.864
X-19.083 Y35.089 I0.433 J-1.436
G1 X-13.064
X-13.046 Y35.096
X-13.039 Y35.114
X-13.046 Y35.131
X-13.064 Y35.139
X-19.666
G2 X-20.332 Y35.295 I0 J1.5
X-18.001 Y45.248 I2.332 J4.704
G1 X-10.768 Y45.249
G2 X3.898 Y52.473 I14.667 J-11.276
G1 X45.596
G2 X59.904 Y40.326 I0 J-14.5
G1 X61.836
G2 X63.808 Y30.21 I0 J-5.25
X63.245 Y30.101 I-0.564 J1.39
G1 X58.596
X58.578 Y30.093
X58.571 Y30.076
X58.578 Y30.058
X58.596 Y30.051
X63.246
G2 X63.811 Y29.94 I0 J-1.5
X63.808 Y20.21 I-1.975 J-4.865
X63.245 Y20.101 I-0.564 J1.39
G1 X58.596
X58.578 Y20.093
X58.571 Y20.076
X58.578 Y20.058
X58.596 Y20.051
X63.246
G2 X63.811 Y19.94 I0 J-1.5
X63.808 Y10.21 I-1.975 J-4.865
X63.245 Y10.101 I-0.564 J1.39
G1 X58.596
X58.578 Y10.093
X58.571 Y10.076
X58.578 Y10.058
X58.596 Y10.051
X63.246
G2 X63.811 Y9.94 I0 J-1.5
X61.837 Y-0.174 I-1.975 J-4.865
G1 X60.096
Y-6.905
G2 X45.596 Y-21.405 I-14.5 J0
G1 X-0.102
G2 X-14.602 Y-6.905 I0 J14.5
G1 Y-5.251
X-17.999 Y-5.252
G2 X-19.972 Y4.864 I-0.001 J5.25
X-19.408 Y4.974 I0.563 J-1.39
G1 X-13.102
X-13.084 Y4.981
X-13.077 Y4.999
X-13.084 Y5.016
X-13.102 Y5.024
X-19.411
G2 X-19.975 Y5.134 I0 J1.5
X-19.972 Y14.864 I1.975 J4.864
X-19.408 Y14.974 I0.563 J-1.39
G1 X-13.102
X-13.084 Y14.981
X-13.077 Y14.999
Z-1.5 F300
X-13.084 Y15.016 F1000
X-13.102 Y15.024
X-19.411
G2 X-19.975 Y15.134 I0 J1.5
X-19.972 Y24.864 I1.975 J4.864
X-19.408 Y24.974 I0.563 J-1.39
G1 X-13.102
X-13.084 Y24.981
X-13.077 Y24.999
X-13.084 Y25.016
X-13.102 Y25.024
X-19.411
G2 X-19.975 Y25.134 I0 J1.5
X-19.516 Y35.025 I1.975 J4.864
X-19.083 Y35.089 I0.433 J-1.436
G1 X-13.064
X-13.046 Y35.096
X-13.039 Y35.114
X-13.046 Y35.131
X-13.064 Y35.139
X-19.666
G2 X-20.332 Y35.295 I0 J1.5
X-18.001 Y45.248 I2.332 J4.704
G1 X-10.768 Y45.249
G2 X3.898 Y52.473 I14.667 J-11.276
G1 X45.596
G2 X59.904 Y40.326 I0 J-14.5
G1 X61.836
G2 X63.808 Y30.21 I0 J-5.25
X63.245 Y30.101 I-0.564 J1.39
G1 X58.596
X58.578 Y30.093
X58.571 Y30.076
X58.578 Y30.058
X58.596 Y30.051
X63.246
G2 X63.811 Y29.94 I0 J-1.5
X63.808 Y20.21 I-1.975 J-4.865
X63.245 Y20.101 I-0.564 J1.39
G1 X58.596
X58.578 Y20.093
X58.571 Y20.076
X58.578 Y20.058
X58.596 Y20.051
X63.246
G2 X63.811 Y19.94 I0 J-1.5
X63.808 Y10.21 I-1.975 J-4.865
X63.245 Y10.101 I-0.564 J1.39
G1 X58.596
X58.578 Y10.093
X58.571 Y10.076
X58.578 Y10.058
X58.596 Y10.051
X63.246
G2 X63.811 Y9.94 I0 J-1.5
X61.837 Y-0.174 I-1.975 J-4.865
G1 X60.096
Y-6.905
G2 X45.596 Y-21.405 I-14.5 J0
G1 X-0.102
G2 X-14.602 Y-6.905 I0 J14.5
G1 Y-5.251
X-17.999 Y-5.252
G2 X-19.972 Y4.864 I-0.001 J5.25
X-19.408 Y4.974 I0.563 J-1.39
G1 X-13.102
X-13.084 Y4.981
X-13.077 Y4.999
X-13.084 Y5.016
X-13.102 Y5.024
X-19.411
G2 X-19.975 Y5.134 I0 J1.5
X-19.972 Y14.864 I1.975 J4.864
X-19.408 Y14.974 I0.563 J-1.39
G1 X-13.102
X-13.084 Y14.981
X-13.077 Y14.999
Z-1.8 F300
X-13.084 Y15.016 F1000
X-13.102 Y15.024
X-19.411
G2 X-19.975 Y15.134 I0 J1.5
X-19.972 Y24.864 I1.975 J4.864
X-19.408 Y24.974 I0.563 J-1.39
G1 X-13.102
X-13.084 Y24.981
X-13.077 Y24.999
X-13.084 Y25.016
X-13.102 Y25.024
X-19.411
G2 X-19.975 Y25.134 I0 J1.5
X-19.516 Y35.025 I1.975 J4.864
X-19.083 Y35.089 I0.433 J-1.436
G1 X-13.064
X-13.046 Y35.096
X-13.039 Y35.114
X-13.046 Y35.131
X-13.064 Y35.139
X-19.666
G2 X-20.332 Y35.295 I0 J1.5
X-18.001 Y45.248 I2.332 J4.704
G1 X-10.768 Y45.249
G2 X3.898 Y52.473 I14.667 J-11.276
G1 X45.596
G2 X59.904 Y40.326 I0 J-14.5
G1 X61.836
G2 X63.808 Y30.21 I0 J-5.25
X63.245 Y30.101 I-0.564 J1.39
G1 X58.596
X58.578 Y30.093
X58.571 Y30.076
X58.578 Y30.058
X58.596 Y30.051
X63.246
G2 X63.811 Y29.94 I0 J-1.5
X63.808 Y20.21 I-1.975 J-4.865
X63.245 Y20.101 I-0.564 J1.39
G1 X58.596
X58.578 Y20.093
X58.571 Y20.076
X58.578 Y20.058
X58.596 Y20.051
X63.246
G2 X63.811 Y19.94 I0 J-1.5
X63.808 Y10.21 I-1.975 J-4.865
X63.245 Y10.101 I-0.564 J1.39
G1 X58.596
X58.578 Y10.093
X58.571 Y10.076
X58.578 Y10.058
X58.596 Y10.051
X63.246
G2 X63.811 Y9.94 I0 J-1.5
X61.837 Y-0.174 I-1.975 J-4.865
G1 X60.096
Y-6.905
G2 X45.596 Y-21.405 I-14.5 J0
G1 X-0.102
G2 X-14.602 Y-6.905 I0 J14.5
G1 Y-5.251
X-17.999 Y-5.252
G2 X-19.972 Y4.864 I-0.001 J5.25
X-19.408 Y4.974 I0.563 J-1.39
G1 X-13.102
X-13.084 Y4.981
X-13.077 Y4.999
X-13.084 Y5.016
X-13.102 Y5.024
X-19.411
G2 X-19.975 Y5.134 I0 J1.5
X-19.972 Y14.864 I1.975 J4.864
X-19.408 Y14.974 I0.563 J-1.39
G1 X-13.102
X-13.084 Y14.981
X-13.077 Y14.999
Z-2.1 F300
X-13.084 Y15.016 F1000
X-13.102 Y15.024
X-19.411
G2 X-19.975 Y15.134 I0 J1.5
X-19.972 Y24.864 I1.975 J4.864
X-19.408 Y24.974 I0.563 J-1.39
G1 X-13.102
X-13.084 Y24.981
X-13.077 Y24.999
X-13.084 Y25.016
X-13.102 Y25.024
X-19.411
G2 X-19.975 Y25.134 I0 J1.5
X-19.516 Y35.025 I1.975 J4.864
X-19.083 Y35.089 I0.433 J-1.436
G1 X-13.064
X-13.046 Y35.096
X-13.039 Y35.114
X-13.046 Y35.131
X-13.064 Y35.139
X-19.666
G2 X-20.332 Y35.295 I0 J1.5
X-18.001 Y45.248 I2.332 J4.704
G1 X-10.768 Y45.249
G2 X3.898 Y52.473 I14.667 J-11.276
G1 X45.596
G2 X59.904 Y40.326 I0 J-14.5
G1 X61.836
G2 X63.808 Y30.21 I0 J-5.25
X63.245 Y30.101 I-0.564 J1.39
G1 X58.596
X58.578 Y30.093
X58.571 Y30.076
X58.578 Y30.058
X58.596 Y30.051
X63.246
G2 X63.811 Y29.94 I0 J-1.5
X63.808 Y20.21 I-1.975 J-4.865
X63.245 Y20.101 I-0.564 J1.39
G1 X58.596
X58.578 Y20.093
X58.571 Y20.076
X58.578 Y20.058
X58.596 Y20.051
X63.246
G2 X63.811 Y19.94 I0 J-1.5
X63.808 Y10.21 I-1.975 J-4.865
X63.245 Y10.101 I-0.564 J1.39
G1 X58.596
X58.578 Y10.093
X58.571 Y10.076
X58.578 Y10.058
X58.596 Y10.051
X63.246
G2 X63.811 Y9.94 I0 J-1.5
X61.837 Y-0.174 I-1.975 J-4.865
G1 X60.096
Y-6.905
G2 X45.596 Y-21.405 I-14.5 J0
G1 X-0.102
G2 X-14.602 Y-6.905 I0 J14.5
G1 Y-5.251
X-17.999 Y-5.252
G2 X-19.972 Y4.864 I-0.001 J5.25
X-19.408 Y4.974 I0.563 J-1.39
G1 X-13.102
X-13.084 Y4.981
X-13.077 Y4.999
X-13.084 Y5.016
X-13.102 Y5.024
X-19.411
G2 X-19.975 Y5.134 I0 J1.5
X-19.972 Y14.864 I1.975 J4.864
X-19.408 Y14.974 I0.563 J-1.39
G1 X-13.102
X-13.084 Y14.981
X-13.077 Y14.999
Z-2.4 F300
X-13.084 Y15.016 F1000
X-13.102 Y15.024
X-19.411
G2 X-19.975 Y15.134 I0 J1.5
X-19.972 Y24.864 I1.975 J4.864
X-19.408 Y24.974 I0.563 J-1.39
G1 X-13.102
X-13.084 Y24.981
X-13.077 Y24.999
X-13.084 Y25.016
X-13.102 Y25.024
X-19.411
G2 X-19.975 Y25.134 I0 J1.5
X-19.516 Y35.025 I1.975 J4.864
X-19.083 Y35.089 I0.433 J-1.436
G1 X-13.064
X-13.046 Y35.096
X-13.039 Y35.114
X-13.046 Y35.131
X-13.064 Y35.139
X-19.666
G2 X-20.332 Y35.295 I0 J1.5
X-18.001 Y45.248 I2.332 J4.704
G1 X-10.768 Y45.249
G2 X3.898 Y52.473 I14.667 J-11.276
G1 X45.596
G2 X59.904 Y40.326 I0 J-14.5
G1 X61.836
G2 X63.808 Y30.21 I0 J-5.25
X63.245 Y30.101 I-0.564 J1.39
G1 X58.596
X58.578 Y30.093
X58.571 Y30.076
X58.578 Y30.058
X58.596 Y30.051
X63.246
G2 X63.811 Y29.94 I0 J-1.5
X63.808 Y20.21 I-1.975 J-4.865
X63.245 Y20.101 I-0.564 J1.39
G1 X58.596
X58.578 Y20.093
X58.571 Y20.076
X58.578 Y20.058
X58.596 Y20.051
X63.246
G2 X63.811 Y19.94 I0 J-1.5
X63.808 Y10.21 I-1.975 J-4.865
X63.245 Y10.101 I-0.564 J1.39
G1 X58.596
X58.578 Y10.093
X58.571 Y10.076
X58.578 Y10.058
X58.596 Y10.051
X63.246
G2 X63.811 Y9.94 I0 J-1.5
X61.837 Y-0.174 I-1.975 J-4.865
G1 X60.096
Y-6.905
G2 X45.596 Y-21.405 I-14.5 J0
G1 X-0.102
G2 X-14.602 Y-6.905 I0 J14.5
G1 Y-5.251
X-17.999 Y-5.252
G2 X-19.972 Y4.864 I-0.001 J5.25
X-19.408 Y4.974 I0.563 J-1.39
G1 X-13.102
X-13.084 Y4.981
X-13.077 Y4.999
X-13.084 Y5.016
X-13.102 Y5.024
X-19.411
G2 X-19.975 Y5.134 I0 J1.5
X-19.972 Y14.864 I1.975 J4.864
X-19.408 Y14.974 I0.563 J-1.39
G1 X-13.102
X-13.084 Y14.981
X-13.077 Y14.999
Z-2.7 F300
X-13.084 Y15.016 F1000
X-13.102 Y15.024
X-19.411
G2 X-19.975 Y15.134 I0 J1.5
X-19.972 Y24.864 I1.975 J4.864
X-19.408 Y24.974 I0.563 J-1.39
G1 X-13.102
X-13.084 Y24.981
X-13.077 Y24.999
X-13.084 Y25.016
X-13.102 Y25.024
X-19.411
G2 X-19.975 Y25.134 I0 J1.5
X-19.516 Y35.025 I1.975 J4.864
X-19.083 Y35.089 I0.433 J-1.436
G1 X-13.064
X-13.046 Y35.096
X-13.039 Y35.114
X-13.046 Y35.131
X-13.064 Y35.139
X-19.666
G2 X-20.332 Y35.295 I0 J1.5
X-18.001 Y45.248 I2.332 J4.704
G1 X-10.768 Y45.249
G2 X3.898 Y52.473 I14.667 J-11.276
G1 X45.596
G2 X59.904 Y40.326 I0 J-14.5
G1 X61.836
G2 X63.808 Y30.21 I0 J-5.25
X63.245 Y30.101 I-0.564 J1.39
G1 X58.596
X58.578 Y30.093
X58.571 Y30.076
X58.578 Y30.058
X58.596 Y30.051
X63.246
G2 X63.811 Y29.94 I0 J-1.5
X63.808 Y20.21 I-1.975 J-4.865
X63.245 Y20.101 I-0.564 J1.39
G1 X58.596
X58.578 Y20.093
X58.571 Y20.076
X58.578 Y20.058
X58.596 Y20.051
X63.246
G2 X63.811 Y19.94 I0 J-1.5
X63.808 Y10.21 I-1.975 J-4.865
X63.245 Y10.101 I-0.564 J1.39
G1 X58.596
X58.578 Y10.093
X58.571 Y10.076
X58.578 Y10.058
X58.596 Y10.051
X63.246
G2 X63.811 Y9.94 I0 J-1.5
X61.837 Y-0.174 I-1.975 J-4.865
G1 X60.096
Y-6.905
G2 X45.596 Y-21.405 I-14.5 J0
G1 X-0.102
G2 X-14.602 Y-6.905 I0 J14.5
G1 Y-5.251
X-17.999 Y-5.252
G2 X-19.972 Y4.864 I-0.001 J5.25
X-19.408 Y4.974 I0.563 J-1.39
G1 X-13.102
X-13.084 Y4.981
X-13.077 Y4.999
X-13.084 Y5.016
X-13.102 Y5.024
X-19.411
G2 X-19.975 Y5.134 I0 J1.5
X-19.972 Y14.864 I1.975 J4.864
X-19.408 Y14.974 I0.563 J-1.39
G1 X-13.102
X-13.084 Y14.981
X-13.077 Y14.999
Z-3 F300
X-13.084 Y15.016 F1000
X-13.102 Y15.024
X-19.411
G2 X-19.975 Y15.134 I0 J1.5
X-19.972 Y24.864 I1.975 J4.864
X-19.408 Y24.974 I0.563 J-1.39
G1 X-13.102
X-13.084 Y24.981
X-13.077 Y24.999
X-13.084 Y25.016
X-13.102 Y25.024
X-19.411
G2 X-19.975 Y25.134 I0 J1.5
X-19.516 Y35.025 I1.975 J4.864
X-19.083 Y35.089 I0.433 J-1.436
G1 X-13.064
X-13.046 Y35.096
X-13.039 Y35.114
X-13.046 Y35.131
X-13.064 Y35.139
X-19.666
G2 X-20.332 Y35.295 I0 J1.5
X-18.001 Y45.248 I2.332 J4.704
G1 X-10.768 Y45.249
G2 X3.898 Y52.473 I14.667 J-11.276
G1 X45.596
G2 X59.904 Y40.326 I0 J-14.5
G1 X61.836
G2 X63.808 Y30.21 I0 J-5.25
X63.245 Y30.101 I-0.564 J1.39
G1 X58.596
X58.578 Y30.093
X58.571 Y30.076
X58.578 Y30.058
X58.596 Y30.051
X63.246
G2 X63.811 Y29.94 I0 J-1.5
X63.808 Y20.21 I-1.975 J-4.865
X63.245 Y20.101 I-0.564 J1.39
G1 X58.596
X58.578 Y20.093
X58.571 Y20.076
X58.578 Y20.058
X58.596 Y20.051
X63.246
G2 X63.811 Y19.94 I0 J-1.5
X63.808 Y10.21 I-1.975 J-4.865
X63.245 Y10.101 I-0.564 J1.39
G1 X58.596
X58.578 Y10.093
X58.571 Y10.076
X58.578 Y10.058
X58.596 Y10.051
X63.246
G2 X63.811 Y9.94 I0 J-1.5
X61.837 Y-0.174 I-1.975 J-4.865
G1 X60.096
Y-6.905
G2 X45.596 Y-21.405 I-14.5 J0
G1 X-0.102
G2 X-14.602 Y-6.905 I0 J14.5
G1 Y-5.251
X-17.999 Y-5.252
G2 X-19.972 Y4.864 I-0.001 J5.25
X-19.408 Y4.974 I0.563 J-1.39
G1 X-13.102
X-13.084 Y4.981
X-13.077 Y4.999
X-13.084 Y5.016
X-13.102 Y5.024
X-19.411
G2 X-19.975 Y5.134 I0 J1.5
X-19.972 Y14.864 I1.975 J4.864
X-19.408 Y14.974 I0.563 J-1.39
G1 X-13.102
X-13.084 Y14.981
X-13.077 Y14.999
Z-3.3 F300
X-13.084 Y15.016 F1000
X-13.102 Y15.024
X-19.411
G2 X-19.975 Y15.134 I0 J1.5
X-19.972 Y24.864 I1.975 J4.864
X-19.408 Y24.974 I0.563 J-1.39
G1 X-13.102
X-13.084 Y24.981
X-13.077 Y24.999
X-13.084 Y25.016
X-13.102 Y25.024
X-19.411
G2 X-19.975 Y25.134 I0 J1.5
X-19.516 Y35.025 I1.975 J4.864
X-19.083 Y35.089 I0.433 J-1.436
G1 X-13.064
X-13.046 Y35.096
X-13.039 Y35.114
X-13.046 Y35.131
X-13.064 Y35.139
X-19.666
G2 X-20.332 Y35.295 I0 J1.5
X-18.001 Y45.248 I2.332 J4.704
G1 X-10.768 Y45.249
G2 X3.898 Y52.473 I14.667 J-11.276
G1 X45.596
G2 X59.904 Y40.326 I0 J-14.5
G1 X61.836
G2 X63.808 Y30.21 I0 J-5.25
X63.245 Y30.101 I-0.564 J1.39
G1 X58.596
X58.578 Y30.093
X58.571 Y30.076
X58.578 Y30.058
X58.596 Y30.051
X63.246
G2 X63.811 Y29.94 I0 J-1.5
X63.808 Y20.21 I-1.975 J-4.865
X63.245 Y20.101 I-0.564 J1.39
G1 X58.596
X58.578 Y20.093
X58.571 Y20.076
X58.578 Y20.058
X58.596 Y20.051
X63.246
G2 X63.811 Y19.94 I0 J-1.5
X63.808 Y10.21 I-1.975 J-4.865
X63.245 Y10.101 I-0.564 J1.39
G1 X58.596
X58.578 Y10.093
X58.571 Y10.076
X58.578 Y10.058
X58.596 Y10.051
X63.246
G2 X63.811 Y9.94 I0 J-1.5
X61.837 Y-0.174 I-1.975 J-4.865
G1 X60.096
Y-6.905
G2 X45.596 Y-21.405 I-14.5 J0
G1 X-0.102
G2 X-14.602 Y-6.905 I0 J14.5
G1 Y-5.251
X-17.999 Y-5.252
G2 X-19.972 Y4.864 I-0.001 J5.25
X-19.408 Y4.974 I0.563 J-1.39
G1 X-13.102
X-13.084 Y4.981
X-13.077 Y4.999
X-13.084 Y5.016
X-13.102 Y5.024
X-19.411
G2 X-19.975 Y5.134 I0 J1.5
X-19.972 Y14.864 I1.975 J4.864
X-19.408 Y14.974 I0.563 J-1.39
G1 X-13.102
X-13.084 Y14.981
X-13.077 Y14.999
Z-3.6 F300
X-13.084 Y15.016 F1000
X-13.102 Y15.024
X-19.411
G2 X-19.975 Y15.134 I0 J1.5
X-19.972 Y24.864 I1.975 J4.864
X-19.408 Y24.974 I0.563 J-1.39
G1 X-13.102
X-13.084 Y24.981
X-13.077 Y24.999
X-13.084 Y25.016
X-13.102 Y25.024
X-19.411
G2 X-19.975 Y25.134 I0 J1.5
X-19.516 Y35.025 I1.975 J4.864
X-19.083 Y35.089 I0.433 J-1.436
G1 X-13.064
X-13.046 Y35.096
X-13.039 Y35.114
X-13.046 Y35.131
X-13.064 Y35.139
X-19.666
G2 X-20.332 Y35.295 I0 J1.5
X-18.001 Y45.248 I2.332 J4.704
G1 X-10.768 Y45.249
G2 X3.898 Y52.473 I14.667 J-11.276
G1 X45.596
G2 X59.904 Y40.326 I0 J-14.5
G1 X61.836
G2 X63.808 Y30.21 I0 J-5.25
X63.245 Y30.101 I-0.564 J1.39
G1 X58.596
X58.578 Y30.093
X58.571 Y30.076
X58.578 Y30.058
X58.596 Y30.051
X63.246
G2 X63.811 Y29.94 I0 J-1.5
X63.808 Y20.21 I-1.975 J-4.865
X63.245 Y20.101 I-0.564 J1.39
G1 X58.596
X58.578 Y20.093
X58.571 Y20.076
X58.578 Y20.058
X58.596 Y20.051
X63.246
G2 X63.811 Y19.94 I0 J-1.5
X63.808 Y10.21 I-1.975 J-4.865
X63.245 Y10.101 I-0.564 J1.39
G1 X58.596
X58.578 Y10.093
X58.571 Y10.076
X58.578 Y10.058
X58.596 Y10.051
X63.246
G2 X63.811 Y9.94 I0 J-1.5
X61.837 Y-0.174 I-1.975 J-4.865
G1 X60.096
Y-6.905
G2 X45.596 Y-21.405 I-14.5 J0
G1 X-0.102
G2 X-14.602 Y-6.905 I0 J14.5
G1 Y-5.251
X-17.999 Y-5.252
G2 X-19.972 Y4.864 I-0.001 J5.25
X-19.408 Y4.974 I0.563 J-1.39
G1 X-13.102
X-13.084 Y4.981
X-13.077 Y4.999
X-13.084 Y5.016
X-13.102 Y5.024
X-19.411
G2 X-19.975 Y5.134 I0 J1.5
X-19.972 Y14.864 I1.975 J4.864
X-19.408 Y14.974 I0.563 J-1.39
G1 X-13.102
X-13.084 Y14.981
X-13.077 Y14.999
Z-3.9 F300
X-13.084 Y15.016 F1000
X-13.102 Y15.024
X-19.411
G2 X-19.975 Y15.134 I0 J1.5
X-19.972 Y24.864 I1.975 J4.864
X-19.408 Y24.974 I0.563 J-1.39
G1 X-13.102
X-13.084 Y24.981
X-13.077 Y24.999
X-13.084 Y25.016
X-13.102 Y25.024
X-19.411
G2 X-19.975 Y25.134 I0 J1.5
X-19.516 Y35.025 I1.975 J4.864
X-19.083 Y35.089 I0.433 J-1.436
G1 X-13.064
X-13.046 Y35.096
X-13.039 Y35.114
X-13.046 Y35.131
X-13.064 Y35.139
X-19.666
G2 X-20.332 Y35.295 I0 J1.5
X-18.001 Y45.248 I2.332 J4.704
G1 X-10.768 Y45.249
G2 X3.898 Y52.473 I14.667 J-11.276
G1 X45.596
G2 X59.904 Y40.326 I0 J-14.5
G1 X61.836
G2 X63.808 Y30.21 I0 J-5.25
X63.245 Y30.101 I-0.564 J1.39
G1 X58.596
X58.578 Y30.093
X58.571 Y30.076
X58.578 Y30.058
X58.596 Y30.051
X63.246
G2 X63.811 Y29.94 I0 J-1.5
X63.808 Y20.21 I-1.975 J-4.865
X63.245 Y20.101 I-0.564 J1.39
G1 X58.596
X58.578 Y20.093
X58.571 Y20.076
X58.578 Y20.058
X58.596 Y20.051
X63.246
G2 X63.811 Y19.94 I0 J-1.5
X63.808 Y10.21 I-1.975 J-4.865
X63.245 Y10.101 I-0.564 J1.39
G1 X58.596
X58.578 Y10.093
X58.571 Y10.076
X58.578 Y10.058
X58.596 Y10.051
X63.246
G2 X63.811 Y9.94 I0 J-1.5
X61.837 Y-0.174 I-1.975 J-4.865
G1 X60.096
Y-6.905
G2 X45.596 Y-21.405 I-14.5 J0
G1 X-0.102
G2 X-14.602 Y-6.905 I0 J14.5
G1 Y-5.251
X-17.999 Y-5.252
G2 X-19.972 Y4.864 I-0.001 J5.25
X-19.408 Y4.974 I0.563 J-1.39
G1 X-13.102
X-13.084 Y4.981
X-13.077 Y4.999
X-13.084 Y5.016
X-13.102 Y5.024
X-19.411
G2 X-19.975 Y5.134 I0 J1.5
X-19.972 Y14.864 I1.975 J4.864
X-19.408 Y14.974 I0.563 J-1.39
G1 X-13.102
X-13.084 Y14.981
X-13.077 Y14.999
Z-4.2 F300
X-13.084 Y15.016 F1000
X-13.102 Y15.024
X-19.411
G2 X-19.975 Y15.134 I0 J1.5
X-19.972 Y24.864 I1.975 J4.864
X-19.408 Y24.974 I0.563 J-1.39
G1 X-13.102
X-13.084 Y24.981
X-13.077 Y24.999
X-13.084 Y25.016
X-13.102 Y25.024
X-19.411
G2 X-19.975 Y25.134 I0 J1.5
X-19.516 Y35.025 I1.975 J4.864
X-19.083 Y35.089 I0.433 J-1.436
G1 X-13.064
X-13.046 Y35.096
X-13.039 Y35.114
X-13.046 Y35.131
X-13.064 Y35.139
X-19.666
G2 X-20.332 Y35.295 I0 J1.5
X-18.001 Y45.248 I2.332 J4.704
G1 X-10.768 Y45.249
G2 X3.898 Y52.473 I14.667 J-11.276
G1 X45.596
G2 X59.904 Y40.326 I0 J-14.5
G1 X61.836
G2 X63.808 Y30.21 I0 J-5.25
X63.245 Y30.101 I-0.564 J1.39
G1 X58.596
X58.578 Y30.093
X58.571 Y30.076
X58.578 Y30.058
X58.596 Y30.051
X63.246
G2 X63.811 Y29.94 I0 J-1.5
X63.808 Y20.21 I-1.975 J-4.865
X63.245 Y20.101 I-0.564 J1.39
G1 X58.596
X58.578 Y20.093
X58.571 Y20.076
X58.578 Y20.058
X58.596 Y20.051
X63.246
G2 X63.811 Y19.94 I0 J-1.5
X63.808 Y10.21 I-1.975 J-4.865
X63.245 Y10.101 I-0.564 J1.39
G1 X58.596
X58.578 Y10.093
X58.571 Y10.076
X58.578 Y10.058
X58.596 Y10.051
X63.246
G2 X63.811 Y9.94 I0 J-1.5
X61.837 Y-0.174 I-1.975 J-4.865
G1 X60.096
Y-6.905
G2 X45.596 Y-21.405 I-14.5 J0
G1 X-0.102
G2 X-14.602 Y-6.905 I0 J14.5
G1 Y-5.251
X-17.999 Y-5.252
G2 X-19.972 Y4.864 I-0.001 J5.25
X-19.408 Y4.974 I0.563 J-1.39
G1 X-13.102
X-13.084 Y4.981
X-13.077 Y4.999
X-13.084 Y5.016
X-13.102 Y5.024
X-19.411
G2 X-19.975 Y5.134 I0 J1.5
X-19.972 Y14.864 I1.975 J4.864
X-19.408 Y14.974 I0.563 J-1.39
G1 X-13.102
X-13.084 Y14.981
X-13.077 Y14.999
Z-4.5 F300
X-13.084 Y15.016 F1000
X-13.102 Y15.024
X-19.411
G2 X-19.975 Y15.134 I0 J1.5
X-19.972 Y24.864 I1.975 J4.864
X-19.408 Y24.974 I0.563 J-1.39
G1 X-13.102
X-13.084 Y24.981
X-13.077 Y24.999
X-13.084 Y25.016
X-13.102 Y25.024
X-19.411
G2 X-19.975 Y25.134 I0 J1.5
X-19.516 Y35.025 I1.975 J4.864
X-19.083 Y35.089 I0.433 J-1.436
G1 X-13.064
X-13.046 Y35.096
X-13.039 Y35.114
X-13.046 Y35.131
X-13.064 Y35.139
X-19.666
G2 X-20.332 Y35.295 I0 J1.5
X-18.001 Y45.248 I2.332 J4.704
G1 X-10.768 Y45.249
G2 X3.898 Y52.473 I14.667 J-11.276
G1 X45.596
G2 X59.904 Y40.326 I0 J-14.5
G1 X61.836
G2 X63.808 Y30.21 I0 J-5.25
X63.245 Y30.101 I-0.564 J1.39
G1 X58.596
X58.578 Y30.093
X58.571 Y30.076
X58.578 Y30.058
X58.596 Y30.051
X63.246
G2 X63.811 Y29.94 I0 J-1.5
X63.808 Y20.21 I-1.975 J-4.865
X63.245 Y20.101 I-0.564 J1.39
G1 X58.596
X58.578 Y20.093
X58.571 Y20.076
X58.578 Y20.058
X58.596 Y20.051
X63.246
G2 X63.811 Y19.94 I0 J-1.5
X63.808 Y10.21 I-1.975 J-4.865
X63.245 Y10.101 I-0.564 J1.39
G1 X58.596
X58.578 Y10.093
X58.571 Y10.076
X58.578 Y10.058
X58.596 Y10.051
X63.246
G2 X63.811 Y9.94 I0 J-1.5
X61.837 Y-0.174 I-1.975 J-4.865
G1 X60.096
Y-6.905
G2 X45.596 Y-21.405 I-14.5 J0
G1 X-0.102
G2 X-14.602 Y-6.905 I0 J14.5
G1 Y-5.251
X-17.999 Y-5.252
G2 X-19.972 Y4.864 I-0.001 J5.25
X-19.408 Y4.974 I0.563 J-1.39
G1 X-13.102
X-13.084 Y4.981
X-13.077 Y4.999
X-13.084 Y5.016
X-13.102 Y5.024
X-19.411
G2 X-19.975 Y5.134 I0 J1.5
X-19.972 Y14.864 I1.975 J4.864
X-19.408 Y14.974 I0.563 J-1.39
G1 X-13.102
X-13.084 Y14.981
X-13.077 Y14.999
Z-4.8 F300
X-13.084 Y15.016 F1000
X-13.102 Y15.024
X-19.411
G2 X-19.975 Y15.134 I0 J1.5
X-19.972 Y24.864 I1.975 J4.864
X-19.408 Y24.974 I0.563 J-1.39
G1 X-13.102
X-13.084 Y24.981
X-13.077 Y24.999
X-13.084 Y25.016
X-13.102 Y25.024
X-19.411
G2 X-19.975 Y25.134 I0 J1.5
X-19.516 Y35.025 I1.975 J4.864
X-19.083 Y35.089 I0.433 J-1.436
G1 X-13.064
X-13.046 Y35.096
X-13.039 Y35.114
X-13.046 Y35.131
X-13.064 Y35.139
X-19.666
G2 X-20.332 Y35.295 I0 J1.5
X-18.001 Y45.248 I2.332 J4.704
G1 X-10.768 Y45.249
G2 X3.898 Y52.473 I14.667 J-11.276
G1 X45.596
G2 X59.904 Y40.326 I0 J-14.5
G1 X61.836
G2 X63.808 Y30.21 I0 J-5.25
X63.245 Y30.101 I-0.564 J1.39
G1 X58.596
X58.578 Y30.093
X58.571 Y30.076
X58.578 Y30.058
X58.596 Y30.051
X63.246
G2 X63.811 Y29.94 I0 J-1.5
X63.808 Y20.21 I-1.975 J-4.865
X63.245 Y20.101 I-0.564 J1.39
G1 X58.596
X58.578 Y20.093
X58.571 Y20.076
X58.578 Y20.058
X58.596 Y20.051
X63.246
G2 X63.811 Y19.94 I0 J-1.5
X63.808 Y10.21 I-1.975 J-4.865
X63.245 Y10.101 I-0.564 J1.39
G1 X58.596
X58.578 Y10.093
X58.571 Y10.076
X58.578 Y10.058
X58.596 Y10.051
X63.246
G2 X63.811 Y9.94 I0 J-1.5
X61.837 Y-0.174 I-1.975 J-4.865
G1 X60.096
Y-6.905
G2 X45.596 Y-21.405 I-14.5 J0
G1 X-0.102
G2 X-14.602 Y-6.905 I0 J14.5
G1 Y-5.251
X-17.999 Y-5.252
G2 X-19.972 Y4.864 I-0.001 J5.25
X-19.408 Y4.974 I0.563 J-1.39
G1 X-13.102
X-13.084 Y4.981
X-13.077 Y4.999
X-13.084 Y5.016
X-13.102 Y5.024
X-19.411
G2 X-19.975 Y5.134 I0 J1.5
X-19.972 Y14.864 I1.975 J4.864
X-19.408 Y14.974 I0.563 J-1.39
G1 X-13.102
X-13.084 Y14.981
X-13.077 Y14.999
Z-5.1 F300
X-13.084 Y15.016 F1000
X-13.102 Y15.024
X-19.411
G2 X-19.975 Y15.134 I0 J1.5
X-19.972 Y24.864 I1.975 J4.864
X-19.408 Y24.974 I0.563 J-1.39
G1 X-13.102
X-13.084 Y24.981
X-13.077 Y24.999
X-13.084 Y25.016
X-13.102 Y25.024
X-19.411
G2 X-19.975 Y25.134 I0 J1.5
X-19.516 Y35.025 I1.975 J4.864
X-19.083 Y35.089 I0.433 J-1.436
G1 X-13.064
X-13.046 Y35.096
X-13.039 Y35.114
X-13.046 Y35.131
X-13.064 Y35.139
X-19.666
G2 X-20.332 Y35.295 I0 J1.5
X-18.001 Y45.248 I2.332 J4.704
G1 X-10.768 Y45.249
G2 X3.898 Y52.473 I14.667 J-11.276
G1 X45.596
G2 X59.904 Y40.326 I0 J-14.5
G1 X61.836
G2 X63.808 Y30.21 I0 J-5.25
X63.245 Y30.101 I-0.564 J1.39
G1 X58.596
X58.578 Y30.093
X58.571 Y30.076
X58.578 Y30.058
X58.596 Y30.051
X63.246
G2 X63.811 Y29.94 I0 J-1.5
X63.808 Y20.21 I-1.975 J-4.865
X63.245 Y20.101 I-0.564 J1.39
G1 X58.596
X58.578 Y20.093
X58.571 Y20.076
X58.578 Y20.058
X58.596 Y20.051
X63.246
G2 X63.811 Y19.94 I0 J-1.5
X63.808 Y10.21 I-1.975 J-4.865
X63.245 Y10.101 I-0.564 J1.39
G1 X58.596
X58.578 Y10.093
X58.571 Y10.076
X58.578 Y10.058
X58.596 Y10.051
X63.246
G2 X63.811 Y9.94 I0 J-1.5
X61.837 Y-0.174 I-1.975 J-4.865
G1 X60.096
Y-6.905
G2 X45.596 Y-21.405 I-14.5 J0
G1 X-0.102
G2 X-14.602 Y-6.905 I0 J14.5
G1 Y-5.251
X-17.999 Y-5.252
G2 X-19.972 Y4.864 I-0.001 J5.25
X-19.408 Y4.974 I0.563 J-1.39
G1 X-13.102
X-13.084 Y4.981
X-13.077 Y4.999
X-13.084 Y5.016
X-13.102 Y5.024
X-19.411
G2 X-19.975 Y5.134 I0 J1.5
X-19.972 Y14.864 I1.975 J4.864
X-19.408 Y14.974 I0.563 J-1.39
G1 X-13.102
X-13.084 Y14.981
X-13.077 Y14.999
Z-5.4 F300
X-13.084 Y15.016 F1000
X-13.102 Y15.024
X-19.411
G2 X-19.975 Y15.134 I0 J1.5
X-19.972 Y24.864 I1.975 J4.864
X-19.408 Y24.974 I0.563 J-1.39
G1 X-13.102
X-13.084 Y24.981
X-13.077 Y24.999
X-13.084 Y25.016
X-13.102 Y25.024
X-19.411
G2 X-19.975 Y25.134 I0 J1.5
X-19.516 Y35.025 I1.975 J4.864
X-19.083 Y35.089 I0.433 J-1.436
G1 X-13.064
X-13.046 Y35.096
X-13.039 Y35.114
X-13.046 Y35.131
X-13.064 Y35.139
X-19.666
G2 X-20.332 Y35.295 I0 J1.5
X-18.001 Y45.248 I2.332 J4.704
G1 X-10.768 Y45.249
G2 X3.898 Y52.473 I14.667 J-11.276
G1 X45.596
G2 X59.904 Y40.326 I0 J-14.5
G1 X61.836
G2 X63.808 Y30.21 I0 J-5.25
X63.245 Y30.101 I-0.564 J1.39
G1 X58.596
X58.578 Y30.093
X58.571 Y30.076
X58.578 Y30.058
X58.596 Y30.051
X63.246
G2 X63.811 Y29.94 I0 J-1.5
X63.808 Y20.21 I-1.975 J-4.865
X63.245 Y20.101 I-0.564 J1.39
G1 X58.596
X58.578 Y20.093
X58.571 Y20.076
X58.578 Y20.058
X58.596 Y20.051
X63.246
G2 X63.811 Y19.94 I0 J-1.5
X63.808 Y10.21 I-1.975 J-4.865
X63.245 Y10.101 I-0.564 J1.39
G1 X58.596
X58.578 Y10.093
X58.571 Y10.076
X58.578 Y10.058
X58.596 Y10.051
X63.246
G2 X63.811 Y9.94 I0 J-1.5
X61.837 Y-0.174 I-1.975 J-4.865
G1 X60.096
Y-6.905
G2 X45.596 Y-21.405 I-14.5 J0
G1 X-0.102
G2 X-14.602 Y-6.905 I0 J14.5
G1 Y-5.251
X-17.999 Y-5.252
G2 X-19.972 Y4.864 I-0.001 J5.25
X-19.408 Y4.974 I0.563 J-1.39
G1 X-13.102
X-13.084 Y4.981
X-13.077 Y4.999
X-13.084 Y5.016
X-13.102 Y5.024
X-19.411
G2 X-19.975 Y5.134 I0 J1.5
X-19.972 Y14.864 I1.975 J4.864
X-19.408 Y14.974 I0.563 J-1.39
G1 X-13.102
X-13.084 Y14.981
X-13.077 Y14.999
Z-5.7 F300
X-13.084 Y15.016 F1000
X-13.102 Y15.024
X-19.411
G2 X-19.975 Y15.134 I0 J1.5
X-19.972 Y24.864 I1.975 J4.864
X-19.408 Y24.974 I0.563 J-1.39
G1 X-13.102
X-13.084 Y24.981
X-13.077 Y24.999
X-13.084 Y25.016
X-13.102 Y25.024
X-19.411
G2 X-19.975 Y25.134 I0 J1.5
X-19.516 Y35.025 I1.975 J4.864
X-19.083 Y35.089 I0.433 J-1.436
G1 X-13.064
X-13.046 Y35.096
X-13.039 Y35.114
X-13.046 Y35.131
X-13.064 Y35.139
X-19.666
G2 X-20.332 Y35.295 I0 J1.5
X-18.001 Y45.248 I2.332 J4.704
G1 X-10.768 Y45.249
G2 X3.898 Y52.473 I14.667 J-11.276
G1 X45.596
G2 X59.904 Y40.326 I0 J-14.5
G1 X61.836
G2 X63.808 Y30.21 I0 J-5.25
X63.245 Y30.101 I-0.564 J1.39
G1 X58.596
X58.578 Y30.093
X58.571 Y30.076
X58.578 Y30.058
X58.596 Y30.051
X63.246
G2 X63.811 Y29.94 I0 J-1.5
X63.808 Y20.21 I-1.975 J-4.865
X63.245 Y20.101 I-0.564 J1.39
G1 X58.596
X58.578 Y20.093
X58.571 Y20.076
X58.578 Y20.058
X58.596 Y20.051
X63.246
G2 X63.811 Y19.94 I0 J-1.5
X63.808 Y10.21 I-1.975 J-4.865
X63.245 Y10.101 I-0.564 J1.39
G1 X58.596
X58.578 Y10.093
X58.571 Y10.076
X58.578 Y10.058
X58.596 Y10.051
X63.246
G2 X63.811 Y9.94 I0 J-1.5
X61.837 Y-0.174 I-1.975 J-4.865
G1 X60.096
Y-6.905
G2 X45.596 Y-21.405 I-14.5 J0
G1 X-0.102
G2 X-14.602 Y-6.905 I0 J14.5
G1 Y-5.251
X-17.999 Y-5.252
G2 X-19.972 Y4.864 I-0.001 J5.25
X-19.408 Y4.974 I0.563 J-1.39
G1 X-13.102
X-13.084 Y4.981
X-13.077 Y4.999
X-13.084 Y5.016
X-13.102 Y5.024
X-19.411
G2 X-19.975 Y5.134 I0 J1.5
X-19.972 Y14.864 I1.975 J4.864
X-19.408 Y14.974 I0.563 J-1.39
G1 X-13.102
X-13.084 Y14.981
X-13.077 Y14.999
Z-6 F300
X-13.084 Y15.016 F1000
X-13.102 Y15.024
X-19.411
G2 X-19.975 Y15.134 I0 J1.5
X-19.972 Y24.864 I1.975 J4.864
X-19.408 Y24.974 I0.563 J-1.39
G1 X-13.102
X-13.084 Y24.981
X-13.077 Y24.999
X-13.084 Y25.016
X-13.102 Y25.024
X-19.411
G2 X-19.975 Y25.134 I0 J1.5
X-19.516 Y35.025 I1.975 J4.864
X-19.083 Y35.089 I0.433 J-1.436
G1 X-13.064
X-13.046 Y35.096
X-13.039 Y35.114
X-13.046 Y35.131
X-13.064 Y35.139
X-19.666
G2 X-20.332 Y35.295 I0 J1.5
X-18.001 Y45.248 I2.332 J4.704
G1 X-10.768 Y45.249
G2 X3.898 Y52.473 I14.667 J-11.276
G1 X45.596
G2 X59.904 Y40.326 I0 J-14.5
G1 X61.836
G2 X63.808 Y30.21 I0 J-5.25
X63.245 Y30.101 I-0.564 J1.39
G1 X58.596
X58.578 Y30.093
X58.571 Y30.076
X58.578 Y30.058
X58.596 Y30.051
X63.246
G2 X63.811 Y29.94 I0 J-1.5
X63.808 Y20.21 I-1.975 J-4.865
X63.245 Y20.101 I-0.564 J1.39
G1 X58.596
X58.578 Y20.093
X58.571 Y20.076
X58.578 Y20.058
X58.596 Y20.051
X63.246
G2 X63.811 Y19.94 I0 J-1.5
X63.808 Y10.21 I-1.975 J-4.865
X63.245 Y10.101 I-0.564 J1.39
G1 X58.596
X58.578 Y10.093
X58.571 Y10.076
X58.578 Y10.058
X58.596 Y10.051
X63.246
G2 X63.811 Y9.94 I0 J-1.5
X61.837 Y-0.174 I-1.975 J-4.865
G1 X60.096
Y-6.905
G2 X45.596 Y-21.405 I-14.5 J0
G1 X-0.102
G2 X-14.602 Y-6.905 I0 J14.5
G1 Y-5.251
X-17.999 Y-5.252
G2 X-19.972 Y4.864 I-0.001 J5.25
X-19.408 Y4.974 I0.563 J-1.39
G1 X-13.102
X-13.084 Y4.981
X-13.077 Y4.999
X-13.084 Y5.016
X-13.102 Y5.024
X-19.411
G2 X-19.975 Y5.134 I0 J1.5
X-19.972 Y14.864 I1.975 J4.864
X-19.408 Y14.974 I0.563 J-1.39
G1 X-13.102
X-13.084 Y14.981
X-13.077 Y14.999
Z-6.3 F300
X-13.084 Y15.016 F1000
X-13.102 Y15.024
X-19.411
G2 X-19.975 Y15.134 I0 J1.5
X-19.972 Y24.864 I1.975 J4.864
X-19.408 Y24.974 I0.563 J-1.39
G1 X-13.102
X-13.084 Y24.981
X-13.077 Y24.999
X-13.084 Y25.016
X-13.102 Y25.024
X-19.411
G2 X-19.975 Y25.134 I0 J1.5
X-19.516 Y35.025 I1.975 J4.864
X-19.083 Y35.089 I0.433 J-1.436
G1 X-13.064
X-13.046 Y35.096
X-13.039 Y35.114
X-13.046 Y35.131
X-13.064 Y35.139
X-19.666
G2 X-20.332 Y35.295 I0 J1.5
X-18.001 Y45.248 I2.332 J4.704
G1 X-10.768 Y45.249
G2 X3.898 Y52.473 I14.667 J-11.276
G1 X45.596
G2 X59.904 Y40.326 I0 J-14.5
G1 X61.836
G2 X63.808 Y30.21 I0 J-5.25
X63.245 Y30.101 I-0.564 J1.39
G1 X58.596
X58.578 Y30.093
X58.571 Y30.076
X58.578 Y30.058
X58.596 Y30.051
X63.246
G2 X63.811 Y29.94 I0 J-1.5
X63.808 Y20.21 I-1.975 J-4.865
X63.245 Y20.101 I-0.564 J1.39
G1 X58.596
X58.578 Y20.093
X58.571 Y20.076
X58.578 Y20.058
X58.596 Y20.051
X63.246
G2 X63.811 Y19.94 I0 J-1.5
X63.808 Y10.21 I-1.975 J-4.865
X63.245 Y10.101 I-0.564 J1.39
G1 X58.596
X58.578 Y10.093
X58.571 Y10.076
X58.578 Y10.058
X58.596 Y10.051
X63.246
G2 X63.811 Y9.94 I0 J-1.5
X61.837 Y-0.174 I-1.975 J-4.865
G1 X60.096
Y-6.905
G2 X45.596 Y-21.405 I-14.5 J0
G1 X-0.102
G2 X-14.602 Y-6.905 I0 J14.5
G1 Y-5.251
X-17.999 Y-5.252
G2 X-19.972 Y4.864 I-0.001 J5.25
X-19.408 Y4.974 I0.563 J-1.39
G1 X-13.102
X-13.084 Y4.981
X-13.077 Y4.999
X-13.084 Y5.016
X-13.102 Y5.024
X-19.411
G2 X-19.975 Y5.134 I0 J1.5
X-19.972 Y14.864 I1.975 J4.864
X-19.408 Y14.974 I0.563 J-1.39
G1 X-13.102
X-13.084 Y14.981
X-13.077 Y14.999
Z-6.6 F300
X-13.084 Y15.016 F1000
X-13.102 Y15.024
X-19.411
G2 X-19.975 Y15.134 I0 J1.5
X-19.972 Y24.864 I1.975 J4.864
X-19.408 Y24.974 I0.563 J-1.39
G1 X-13.102
X-13.084 Y24.981
X-13.077 Y24.999
X-13.084 Y25.016
X-13.102 Y25.024
X-19.411
G2 X-19.975 Y25.134 I0 J1.5
X-19.516 Y35.025 I1.975 J4.864
X-19.083 Y35.089 I0.433 J-1.436
G1 X-13.064
X-13.046 Y35.096
X-13.039 Y35.114
X-13.046 Y35.131
X-13.064 Y35.139
X-19.666
G2 X-20.332 Y35.295 I0 J1.5
X-18.001 Y45.248 I2.332 J4.704
G1 X-10.768 Y45.249
G2 X3.898 Y52.473 I14.667 J-11.276
G1 X45.596
G2 X59.904 Y40.326 I0 J-14.5
G1 X61.836
G2 X63.808 Y30.21 I0 J-5.25
X63.245 Y30.101 I-0.564 J1.39
G1 X58.596
X58.578 Y30.093
X58.571 Y30.076
X58.578 Y30.058
X58.596 Y30.051
X63.246
G2 X63.811 Y29.94 I0 J-1.5
X63.808 Y20.21 I-1.975 J-4.865
X63.245 Y20.101 I-0.564 J1.39
G1 X58.596
X58.578 Y20.093
X58.571 Y20.076
X58.578 Y20.058
X58.596 Y20.051
X63.246
G2 X63.811 Y19.94 I0 J-1.5
X63.808 Y10.21 I-1.975 J-4.865
X63.245 Y10.101 I-0.564 J1.39
G1 X58.596
X58.578 Y10.093
X58.571 Y10.076
X58.578 Y10.058
X58.596 Y10.051
X63.246
G2 X63.811 Y9.94 I0 J-1.5
X61.837 Y-0.174 I-1.975 J-4.865
G1 X60.096
Y-6.905
G2 X45.596 Y-21.405 I-14.5 J0
G1 X-0.102
G2 X-14.602 Y-6.905 I0 J14.5
G1 Y-5.251
X-17.999 Y-5.252
G2 X-19.972 Y4.864 I-0.001 J5.25
X-19.408 Y4.974 I0.563 J-1.39
G1 X-13.102
X-13.084 Y4.981
X-13.077 Y4.999
X-13.084 Y5.016
X-13.102 Y5.024
X-19.411
G2 X-19.975 Y5.134 I0 J1.5
X-19.972 Y14.864 I1.975 J4.864
X-19.408 Y14.974 I0.563 J-1.39
G1 X-13.102
X-13.084 Y14.981
X-13.077 Y14.999
Z-6.9 F300
X-13.084 Y15.016 F1000
X-13.102 Y15.024
X-19.411
G2 X-19.975 Y15.134 I0 J1.5
X-19.972 Y24.864 I1.975 J4.864
X-19.408 Y24.974 I0.563 J-1.39
G1 X-13.102
X-13.084 Y24.981
X-13.077 Y24.999
X-13.084 Y25.016
X-13.102 Y25.024
X-19.411
G2 X-19.975 Y25.134 I0 J1.5
X-19.516 Y35.025 I1.975 J4.864
X-19.083 Y35.089 I0.433 J-1.436
G1 X-13.064
X-13.046 Y35.096
X-13.039 Y35.114
X-13.046 Y35.131
X-13.064 Y35.139
X-19.666
G2 X-20.332 Y35.295 I0 J1.5
X-18.001 Y45.248 I2.332 J4.704
G1 X-10.768 Y45.249
G2 X3.898 Y52.473 I14.667 J-11.276
G1 X45.596
G2 X59.904 Y40.326 I0 J-14.5
G1 X61.836
G2 X63.808 Y30.21 I0 J-5.25
X63.245 Y30.101 I-0.564 J1.39
G1 X58.596
X58.578 Y30.093
X58.571 Y30.076
X58.578 Y30.058
X58.596 Y30.051
X63.246
G2 X63.811 Y29.94 I0 J-1.5
X63.808 Y20.21 I-1.975 J-4.865
X63.245 Y20.101 I-0.564 J1.39
G1 X58.596
X58.578 Y20.093
X58.571 Y20.076
X58.578 Y20.058
X58.596 Y20.051
X63.246
G2 X63.811 Y19.94 I0 J-1.5
X63.808 Y10.21 I-1.975 J-4.865
X63.245 Y10.101 I-0.564 J1.39
G1 X58.596
X58.578 Y10.093
X58.571 Y10.076
X58.578 Y10.058
X58.596 Y10.051
X63.246
G2 X63.811 Y9.94 I0 J-1.5
X61.837 Y-0.174 I-1.975 J-4.865
G1 X60.096
Y-6.905
G2 X45.596 Y-21.405 I-14.5 J0
G1 X-0.102
G2 X-14.602 Y-6.905 I0 J14.5
G1 Y-5.251
X-17.999 Y-5.252
G2 X-19.972 Y4.864 I-0.001 J5.25
X-19.408 Y4.974 I0.563 J-1.39
G1 X-13.102
X-13.084 Y4.981
X-13.077 Y4.999
X-13.084 Y5.016
X-13.102 Y5.024
X-19.411
G2 X-19.975 Y5.134 I0 J1.5
X-19.972 Y14.864 I1.975 J4.864
X-19.408 Y14.974 I0.563 J-1.39
G1 X-13.102
X-13.084 Y14.981
X-13.077 Y14.999
Z-7.2 F300
X-13.084 Y15.016 F1000
X-13.102 Y15.024
X-19.411
G2 X-19.975 Y15.134 I0 J1.5
X-19.972 Y24.864 I1.975 J4.864
X-19.408 Y24.974 I0.563 J-1.39
G1 X-13.102
X-13.084 Y24.981
X-13.077 Y24.999
X-13.084 Y25.016
X-13.102 Y25.024
X-19.411
G2 X-19.975 Y25.134 I0 J1.5
X-19.516 Y35.025 I1.975 J4.864
X-19.083 Y35.089 I0.433 J-1.436
G1 X-13.064
X-13.046 Y35.096
X-13.039 Y35.114
X-13.046 Y35.131
X-13.064 Y35.139
X-19.666
G2 X-20.332 Y35.295 I0 J1.5
X-18.001 Y45.248 I2.332 J4.704
G1 X-10.768 Y45.249
G2 X3.898 Y52.473 I14.667 J-11.276
G1 X45.596
G2 X59.904 Y40.326 I0 J-14.5
G1 X61.836
G2 X63.808 Y30.21 I0 J-5.25
X63.245 Y30.101 I-0.564 J1.39
G1 X58.596
X58.578 Y30.093
X58.571 Y30.076
X58.578 Y30.058
X58.596 Y30.051
X63.246
G2 X63.811 Y29.94 I0 J-1.5
X63.808 Y20.21 I-1.975 J-4.865
X63.245 Y20.101 I-0.564 J1.39
G1 X58.596
X58.578 Y20.093
X58.571 Y20.076
X58.578 Y20.058
X58.596 Y20.051
X63.246
G2 X63.811 Y19.94 I0 J-1.5
X63.808 Y10.21 I-1.975 J-4.865
X63.245 Y10.101 I-0.564 J1.39
G1 X58.596
X58.578 Y10.093
X58.571 Y10.076
X58.578 Y10.058
X58.596 Y10.051
X63.246
G2 X63.811 Y9.94 I0 J-1.5
X61.837 Y-0.174 I-1.975 J-4.865
G1 X60.096
Y-6.905
G2 X45.596 Y-21.405 I-14.5 J0
G1 X-0.102
G2 X-14.602 Y-6.905 I0 J14.5
G1 Y-5.251
X-17.999 Y-5.252
G2 X-19.972 Y4.864 I-0.001 J5.25
X-19.408 Y4.974 I0.563 J-1.39
G1 X-13.102
X-13.084 Y4.981
X-13.077 Y4.999
X-13.084 Y5.016
X-13.102 Y5.024
X-19.411
G2 X-19.975 Y5.134 I0 J1.5
X-19.972 Y14.864 I1.975 J4.864
X-19.408 Y14.974 I0.563 J-1.39
G1 X-13.102
X-13.084 Y14.981
X-13.077 Y14.999
Z-7.5 F300
X-13.084 Y15.016 F1000
X-13.102 Y15.024
X-19.411
G2 X-19.975 Y15.134 I0 J1.5
X-19.972 Y24.864 I1.975 J4.864
X-19.408 Y24.974 I0.563 J-1.39
G1 X-13.102
X-13.084 Y24.981
X-13.077 Y24.999
X-13.084 Y25.016
X-13.102 Y25.024
X-19.411
G2 X-19.975 Y25.134 I0 J1.5
X-19.516 Y35.025 I1.975 J4.864
X-19.083 Y35.089 I0.433 J-1.436
G1 X-13.064
X-13.046 Y35.096
X-13.039 Y35.114
X-13.046 Y35.131
X-13.064 Y35.139
X-19.666
G2 X-20.332 Y35.295 I0 J1.5
X-18.001 Y45.248 I2.332 J4.704
G1 X-10.768 Y45.249
G2 X3.898 Y52.473 I14.667 J-11.276
G1 X45.596
G2 X59.904 Y40.326 I0 J-14.5
G1 X61.836
G2 X63.808 Y30.21 I0 J-5.25
X63.245 Y30.101 I-0.564 J1.39
G1 X58.596
X58.578 Y30.093
X58.571 Y30.076
X58.578 Y30.058
X58.596 Y30.051
X63.246
G2 X63.811 Y29.94 I0 J-1.5
X63.808 Y20.21 I-1.975 J-4.865
X63.245 Y20.101 I-0.564 J1.39
G1 X58.596
X58.578 Y20.093
X58.571 Y20.076
X58.578 Y20.058
X58.596 Y20.051
X63.246
G2 X63.811 Y19.94 I0 J-1.5
X63.808 Y10.21 I-1.975 J-4.865
X63.245 Y10.101 I-0.564 J1.39
G1 X58.596
X58.578 Y10.093
X58.571 Y10.076
X58.578 Y10.058
X58.596 Y10.051
X63.246
G2 X63.811 Y9.94 I0 J-1.5
X61.837 Y-0.174 I-1.975 J-4.865
G1 X60.096
Y-6.905
G2 X45.596 Y-21.405 I-14.5 J0
G1 X-0.102
G2 X-14.602 Y-6.905 I0 J14.5
G1 Y-5.251
X-17.999 Y-5.252
G2 X-19.972 Y4.864 I-0.001 J5.25
X-19.408 Y4.974 I0.563 J-1.39
G1 X-13.102
X-13.084 Y4.981
X-13.077 Y4.999
X-13.084 Y5.016
X-13.102 Y5.024
X-19.411
G2 X-19.975 Y5.134 I0 J1.5
X-19.972 Y14.864 I1.975 J4.864
X-19.408 Y14.974 I0.563 J-1.39
G1 X-13.102
X-13.084 Y14.981
X-13.077 Y14.999
Z-7.8 F300
X-13.084 Y15.016 F1000
X-13.102 Y15.024
X-19.411
G2 X-19.975 Y15.134 I0 J1.5
X-19.972 Y24.864 I1.975 J4.864
X-19.408 Y24.974 I0.563 J-1.39
G1 X-13.102
X-13.084 Y24.981
X-13.077 Y24.999
X-13.084 Y25.016
X-13.102 Y25.024
X-19.411
G2 X-19.975 Y25.134 I0 J1.5
X-19.516 Y35.025 I1.975 J4.864
X-19.083 Y35.089 I0.433 J-1.436
G1 X-13.064
X-13.046 Y35.096
X-13.039 Y35.114
X-13.046 Y35.131
X-13.064 Y35.139
X-19.666
G2 X-20.332 Y35.295 I0 J1.5
X-18.001 Y45.248 I2.332 J4.704
G1 X-10.768 Y45.249
G2 X3.898 Y52.473 I14.667 J-11.276
G1 X45.596
G2 X59.904 Y40.326 I0 J-14.5
G1 X61.836
G2 X63.808 Y30.21 I0 J-5.25
X63.245 Y30.101 I-0.564 J1.39
G1 X58.596
X58.578 Y30.093
X58.571 Y30.076
X58.578 Y30.058
X58.596 Y30.051
X63.246
G2 X63.811 Y29.94 I0 J-1.5
X63.808 Y20.21 I-1.975 J-4.865
X63.245 Y20.101 I-0.564 J1.39
G1 X58.596
X58.578 Y20.093
X58.571 Y20.076
X58.578 Y20.058
X58.596 Y20.051
X63.246
G2 X63.811 Y19.94 I0 J-1.5
X63.808 Y10.21 I-1.975 J-4.865
X63.245 Y10.101 I-0.564 J1.39
G1 X58.596
X58.578 Y10.093
X58.571 Y10.076
X58.578 Y10.058
X58.596 Y10.051
X63.246
G2 X63.811 Y9.94 I0 J-1.5
X61.837 Y-0.174 I-1.975 J-4.865
G1 X60.096
Y-6.905
G2 X45.596 Y-21.405 I-14.5 J0
G1 X-0.102
G2 X-14.602 Y-6.905 I0 J14.5
G1 Y-5.251
X-17.999 Y-5.252
G2 X-19.972 Y4.864 I-0.001 J5.25
X-19.408 Y4.974 I0.563 J-1.39
G1 X-13.102
X-13.084 Y4.981
X-13.077 Y4.999
X-13.084 Y5.016
X-13.102 Y5.024
X-19.411
G2 X-19.975 Y5.134 I0 J1.5
X-19.972 Y14.864 I1.975 J4.864
X-19.408 Y14.974 I0.563 J-1.39
G1 X-13.102
X-13.084 Y14.981
X-13.077 Y14.999
Z-8.1 F300
X-13.084 Y15.016 F1000
X-13.102 Y15.024
X-19.411
G2 X-19.975 Y15.134 I0 J1.5
X-19.972 Y24.864 I1.975 J4.864
X-19.408 Y24.974 I0.563 J-1.39
G1 X-13.102
X-13.084 Y24.981
X-13.077 Y24.999
X-13.084 Y25.016
X-13.102 Y25.024
X-19.411
G2 X-19.975 Y25.134 I0 J1.5
X-19.516 Y35.025 I1.975 J4.864
X-19.083 Y35.089 I0.433 J-1.436
G1 X-13.064
X-13.046 Y35.096
X-13.039 Y35.114
X-13.046 Y35.131
X-13.064 Y35.139
X-19.666
G2 X-20.332 Y35.295 I0 J1.5
X-18.001 Y45.248 I2.332 J4.704
G1 X-10.768 Y45.249
G2 X3.898 Y52.473 I14.667 J-11.276
G1 X45.596
G2 X59.904 Y40.326 I0 J-14.5
G1 X61.836
G2 X63.808 Y30.21 I0 J-5.25
X63.245 Y30.101 I-0.564 J1.39
G1 X58.596
X58.578 Y30.093
X58.571 Y30.076
X58.578 Y30.058
X58.596 Y30.051
X63.246
G2 X63.811 Y29.94 I0 J-1.5
X63.808 Y20.21 I-1.975 J-4.865
X63.245 Y20.101 I-0.564 J1.39
G1 X58.596
X58.578 Y20.093
X58.571 Y20.076
X58.578 Y20.058
X58.596 Y20.051
X63.246
G2 X63.811 Y19.94 I0 J-1.5
X63.808 Y10.21 I-1.975 J-4.865
X63.245 Y10.101 I-0.564 J1.39
G1 X58.596
X58.578 Y10.093
X58.571 Y10.076
X58.578 Y10.058
X58.596 Y10.051
X63.246
G2 X63.811 Y9.94 I0 J-1.5
X61.837 Y-0.174 I-1.975 J-4.865
G1 X60.096
Y-6.905
G2 X45.596 Y-21.405 I-14.5 J0
G1 X-0.102
G2 X-14.602 Y-6.905 I0 J14.5
G1 Y-5.251
X-17.999 Y-5.252
G2 X-19.972 Y4.864 I-0.001 J5.25
X-19.408 Y4.974 I0.563 J-1.39
G1 X-13.102
X-13.084 Y4.981
X-13.077 Y4.999
X-13.084 Y5.016
X-13.102 Y5.024
X-19.411
G2 X-19.975 Y5.134 I0 J1.5
X-19.972 Y14.864 I1.975 J4.864
X-19.408 Y14.974 I0.563 J-1.39
G1 X-13.102
X-13.084 Y14.981
X-13.077 Y14.999
Z-8.4 F300
X-13.084 Y15.016 F1000
X-13.102 Y15.024
X-19.411
G2 X-19.975 Y15.134 I0 J1.5
X-19.972 Y24.864 I1.975 J4.864
X-19.408 Y24.974 I0.563 J-1.39
G1 X-13.102
X-13.084 Y24.981
X-13.077 Y24.999
X-13.084 Y25.016
X-13.102 Y25.024
X-19.411
G2 X-19.975 Y25.134 I0 J1.5
X-19.516 Y35.025 I1.975 J4.864
X-19.083 Y35.089 I0.433 J-1.436
G1 X-13.064
X-13.046 Y35.096
X-13.039 Y35.114
X-13.046 Y35.131
X-13.064 Y35.139
X-19.666
G2 X-20.332 Y35.295 I0 J1.5
X-18.001 Y45.248 I2.332 J4.704
G1 X-10.768 Y45.249
G2 X3.898 Y52.473 I14.667 J-11.276
G1 X45.596
G2 X59.904 Y40.326 I0 J-14.5
G1 X61.836
G2 X63.808 Y30.21 I0 J-5.25
X63.245 Y30.101 I-0.564 J1.39
G1 X58.596
X58.578 Y30.093
X58.571 Y30.076
X58.578 Y30.058
X58.596 Y30.051
X63.246
G2 X63.811 Y29.94 I0 J-1.5
X63.808 Y20.21 I-1.975 J-4.865
X63.245 Y20.101 I-0.564 J1.39
G1 X58.596
X58.578 Y20.093
X58.571 Y20.076
X58.578 Y20.058
X58.596 Y20.051
X63.246
G2 X63.811 Y19.94 I0 J-1.5
X63.808 Y10.21 I-1.975 J-4.865
X63.245 Y10.101 I-0.564 J1.39
G1 X58.596
X58.578 Y10.093
X58.571 Y10.076
X58.578 Y10.058
X58.596 Y10.051
X63.246
G2 X63.811 Y9.94 I0 J-1.5
X61.837 Y-0.174 I-1.975 J-4.865
G1 X60.096
Y-6.905
G2 X45.596 Y-21.405 I-14.5 J0
G1 X-0.102
G2 X-14.602 Y-6.905 I0 J14.5
G1 Y-5.251
X-17.999 Y-5.252
G2 X-19.972 Y4.864 I-0.001 J5.25
X-19.408 Y4.974 I0.563 J-1.39
G1 X-13.102
X-13.084 Y4.981
X-13.077 Y4.999
X-13.084 Y5.016
X-13.102 Y5.024
X-19.411
G2 X-19.975 Y5.134 I0 J1.5
X-19.972 Y14.864 I1.975 J4.864
X-19.408 Y14.974 I0.563 J-1.39
G1 X-13.102
X-13.084 Y14.981
X-13.077 Y14.999
Z-8.7 F300
X-13.084 Y15.016 F1000
X-13.102 Y15.024
X-19.411
G2 X-19.975 Y15.134 I0 J1.5
X-19.972 Y24.864 I1.975 J4.864
X-19.408 Y24.974 I0.563 J-1.39
G1 X-13.102
X-13.084 Y24.981
X-13.077 Y24.999
X-13.084 Y25.016
X-13.102 Y25.024
X-19.411
G2 X-19.975 Y25.134 I0 J1.5
X-19.516 Y35.025 I1.975 J4.864
X-19.083 Y35.089 I0.433 J-1.436
G1 X-13.064
X-13.046 Y35.096
X-13.039 Y35.114
X-13.046 Y35.131
X-13.064 Y35.139
X-19.666
G2 X-20.332 Y35.295 I0 J1.5
X-18.001 Y45.248 I2.332 J4.704
G1 X-10.768 Y45.249
G2 X3.898 Y52.473 I14.667 J-11.276
G1 X45.596
G2 X59.904 Y40.326 I0 J-14.5
G1 X61.836
G2 X63.808 Y30.21 I0 J-5.25
X63.245 Y30.101 I-0.564 J1.39
G1 X58.596
X58.578 Y30.093
X58.571 Y30.076
X58.578 Y30.058
X58.596 Y30.051
X63.246
G2 X63.811 Y29.94 I0 J-1.5
X63.808 Y20.21 I-1.975 J-4.865
X63.245 Y20.101 I-0.564 J1.39
G1 X58.596
X58.578 Y20.093
X58.571 Y20.076
X58.578 Y20.058
X58.596 Y20.051
X63.246
G2 X63.811 Y19.94 I0 J-1.5
X63.808 Y10.21 I-1.975 J-4.865
X63.245 Y10.101 I-0.564 J1.39
G1 X58.596
X58.578 Y10.093
X58.571 Y10.076
X58.578 Y10.058
X58.596 Y10.051
X63.246
G2 X63.811 Y9.94 I0 J-1.5
X61.837 Y-0.174 I-1.975 J-4.865
G1 X60.096
Y-6.905
G2 X45.596 Y-21.405 I-14.5 J0
G1 X-0.102
G2 X-14.602 Y-6.905 I0 J14.5
G1 Y-5.251
X-17.999 Y-5.252
G2 X-19.972 Y4.864 I-0.001 J5.25
X-19.408 Y4.974 I0.563 J-1.39
G1 X-13.102
X-13.084 Y4.981
X-13.077 Y4.999
X-13.084 Y5.016
X-13.102 Y5.024
X-19.411
G2 X-19.975 Y5.134 I0 J1.5
X-19.972 Y14.864 I1.975 J4.864
X-19.408 Y14.974 I0.563 J-1.39
G1 X-13.102
X-13.084 Y14.981
X-13.077 Y14.999
Z-9 F300
X-13.084 Y15.016 F1000
X-13.102 Y15.024
X-19.411
G2 X-19.975 Y15.134 I0 J1.5
X-19.972 Y24.864 I1.975 J4.864
X-19.408 Y24.974 I0.563 J-1.39
G1 X-13.102
X-13.084 Y24.981
X-13.077 Y24.999
X-13.084 Y25.016
X-13.102 Y25.024
X-19.411
G2 X-19.975 Y25.134 I0 J1.5
X-19.516 Y35.025 I1.975 J4.864
X-19.083 Y35.089 I0.433 J-1.436
G1 X-13.064
X-13.046 Y35.096
X-13.039 Y35.114
X-13.046 Y35.131
X-13.064 Y35.139
X-19.666
G2 X-20.332 Y35.295 I0 J1.5
X-18.001 Y45.248 I2.332 J4.704
G1 X-10.768 Y45.249
G2 X3.898 Y52.473 I14.667 J-11.276
G1 X45.596
G2 X59.904 Y40.326 I0 J-14.5
G1 X61.836
G2 X63.808 Y30.21 I0 J-5.25
X63.245 Y30.101 I-0.564 J1.39
G1 X58.596
X58.578 Y30.093
X58.571 Y30.076
X58.578 Y30.058
X58.596 Y30.051
X63.246
G2 X63.811 Y29.94 I0 J-1.5
X63.808 Y20.21 I-1.975 J-4.865
X63.245 Y20.101 I-0.564 J1.39
G1 X58.596
X58.578 Y20.093
X58.571 Y20.076
X58.578 Y20.058
X58.596 Y20.051
X63.246
G2 X63.811 Y19.94 I0 J-1.5
X63.808 Y10.21 I-1.975 J-4.865
X63.245 Y10.101 I-0.564 J1.39
G1 X58.596
X58.578 Y10.093
X58.571 Y10.076
X58.578 Y10.058
X58.596 Y10.051
X63.246
G2 X63.811 Y9.94 I0 J-1.5
X61.837 Y-0.174 I-1.975 J-4.865
G1 X60.096
Y-6.905
G2 X45.596 Y-21.405 I-14.5 J0
G1 X-0.102
G2 X-14.602 Y-6.905 I0 J14.5
G1 Y-5.251
X-17.999 Y-5.252
G2 X-19.972 Y4.864 I-0.001 J5.25
X-19.408 Y4.974 I0.563 J-1.39
G1 X-13.102
X-13.084 Y4.981
X-13.077 Y4.999
X-13.084 Y5.016
X-13.102 Y5.024
X-19.411
G2 X-19.975 Y5.134 I0 J1.5
X-19.972 Y14.864 I1.975 J4.864
X-19.408 Y14.974 I0.563 J-1.39
G1 X-13.102
X-13.084 Y14.981
X-13.077 Y14.999
Z-9.3 F300
X-13.084 Y15.016 F1000
X-13.102 Y15.024
X-19.411
G2 X-19.975 Y15.134 I0 J1.5
X-19.972 Y24.864 I1.975 J4.864
X-19.408 Y24.974 I0.563 J-1.39
G1 X-13.102
X-13.084 Y24.981
X-13.077 Y24.999
X-13.084 Y25.016
X-13.102 Y25.024
X-19.411
G2 X-19.975 Y25.134 I0 J1.5
X-19.516 Y35.025 I1.975 J4.864
X-19.083 Y35.089 I0.433 J-1.436
G1 X-13.064
X-13.046 Y35.096
X-13.039 Y35.114
X-13.046 Y35.131
X-13.064 Y35.139
X-19.666
G2 X-20.332 Y35.295 I0 J1.5
X-18.001 Y45.248 I2.332 J4.704
G1 X-10.768 Y45.249
G2 X3.898 Y52.473 I14.667 J-11.276
G1 X45.596
G2 X59.904 Y40.326 I0 J-14.5
G1 X61.836
G2 X63.808 Y30.21 I0 J-5.25
X63.245 Y30.101 I-0.564 J1.39
G1 X58.596
X58.578 Y30.093
X58.571 Y30.076
X58.578 Y30.058
X58.596 Y30.051
X63.246
G2 X63.811 Y29.94 I0 J-1.5
X63.808 Y20.21 I-1.975 J-4.865
X63.245 Y20.101 I-0.564 J1.39
G1 X58.596
X58.578 Y20.093
X58.571 Y20.076
X58.578 Y20.058
X58.596 Y20.051
X63.246
G2 X63.811 Y19.94 I0 J-1.5
X63.808 Y10.21 I-1.975 J-4.865
X63.245 Y10.101 I-0.564 J1.39
G1 X58.596
X58.578 Y10.093
X58.571 Y10.076
X58.578 Y10.058
X58.596 Y10.051
X63.246
G2 X63.811 Y9.94 I0 J-1.5
X61.837 Y-0.174 I-1.975 J-4.865
G1 X60.096
Y-6.905
G2 X45.596 Y-21.405 I-14.5 J0
G1 X-0.102
G2 X-14.602 Y-6.905 I0 J14.5
G1 Y-5.251
X-17.999 Y-5.252
G2 X-19.972 Y4.864 I-0.001 J5.25
X-19.408 Y4.974 I0.563 J-1.39
G1 X-13.102
X-13.084 Y4.981
X-13.077 Y4.999
X-13.084 Y5.016
X-13.102 Y5.024
X-19.411
G2 X-19.975 Y5.134 I0 J1.5
X-19.972 Y14.864 I1.975 J4.864
X-19.408 Y14.974 I0.563 J-1.39
G1 X-13.102
X-13.084 Y14.981
X-13.077 Y14.999
Z-9.6 F300
X-13.084 Y15.016 F1000
X-13.102 Y15.024
X-19.411
G2 X-19.975 Y15.134 I0 J1.5
X-19.972 Y24.864 I1.975 J4.864
X-19.408 Y24.974 I0.563 J-1.39
G1 X-13.102
X-13.084 Y24.981
X-13.077 Y24.999
X-13.084 Y25.016
X-13.102 Y25.024
X-19.411
G2 X-19.975 Y25.134 I0 J1.5
X-19.516 Y35.025 I1.975 J4.864
X-19.083 Y35.089 I0.433 J-1.436
G1 X-13.064
X-13.046 Y35.096
X-13.039 Y35.114
X-13.046 Y35.131
X-13.064 Y35.139
X-19.666
G2 X-20.332 Y35.295 I0 J1.5
X-18.001 Y45.248 I2.332 J4.704
G1 X-10.768 Y45.249
G2 X3.898 Y52.473 I14.667 J-11.276
G1 X45.596
G2 X59.904 Y40.326 I0 J-14.5
G1 X61.836
G2 X63.808 Y30.21 I0 J-5.25
X63.245 Y30.101 I-0.564 J1.39
G1 X58.596
X58.578 Y30.093
X58.571 Y30.076
X58.578 Y30.058
X58.596 Y30.051
X63.246
G2 X63.811 Y29.94 I0 J-1.5
X63.808 Y20.21 I-1.975 J-4.865
X63.245 Y20.101 I-0.564 J1.39
G1 X58.596
X58.578 Y20.093
X58.571 Y20.076
X58.578 Y20.058
X58.596 Y20.051
X63.246
G2 X63.811 Y19.94 I0 J-1.5
X63.808 Y10.21 I-1.975 J-4.865
X63.245 Y10.101 I-0.564 J1.39
G1 X58.596
X58.578 Y10.093
X58.571 Y10.076
X58.578 Y10.058
X58.596 Y10.051
X63.246
G2 X63.811 Y9.94 I0 J-1.5
X61.837 Y-0.174 I-1.975 J-4.865
G1 X60.096
Y-6.905
G2 X45.596 Y-21.405 I-14.5 J0
G1 X-0.102
G2 X-14.602 Y-6.905 I0 J14.5
G1 Y-5.251
X-17.999 Y-5.252
G2 X-19.972 Y4.864 I-0.001 J5.25
X-19.408 Y4.974 I0.563 J-1.39
G1 X-13.102
X-13.084 Y4.981
X-13.077 Y4.999
X-13.084 Y5.016
X-13.102 Y5.024
X-19.411
G2 X-19.975 Y5.134 I0 J1.5
X-19.972 Y14.864 I1.975 J4.864
X-19.408 Y14.974 I0.563 J-1.39
G1 X-13.102
X-13.084 Y14.981
X-13.077 Y14.999
Z-9.9 F300
X-13.084 Y15.016 F1000
X-13.102 Y15.024
X-19.411
G2 X-19.975 Y15.134 I0 J1.5
X-19.972 Y24.864 I1.975 J4.864
X-19.408 Y24.974 I0.563 J-1.39
G1 X-13.102
X-13.084 Y24.981
X-13.077 Y24.999
X-13.084 Y25.016
X-13.102 Y25.024
X-19.411
G2 X-19.975 Y25.134 I0 J1.5
X-19.516 Y35.025 I1.975 J4.864
X-19.083 Y35.089 I0.433 J-1.436
G1 X-13.064
X-13.046 Y35.096
X-13.039 Y35.114
X-13.046 Y35.131
X-13.064 Y35.139
X-19.666
G2 X-20.332 Y35.295 I0 J1.5
X-18.001 Y45.248 I2.332 J4.704
G1 X-10.768 Y45.249
G2 X3.898 Y52.473 I14.667 J-11.276
G1 X45.596
G2 X59.904 Y40.326 I0 J-14.5
G1 X61.836
G2 X63.808 Y30.21 I0 J-5.25
X63.245 Y30.101 I-0.564 J1.39
G1 X58.596
X58.578 Y30.093
X58.571 Y30.076
X58.578 Y30.058
X58.596 Y30.051
X63.246
G2 X63.811 Y29.94 I0 J-1.5
X63.808 Y20.21 I-1.975 J-4.865
X63.245 Y20.101 I-0.564 J1.39
G1 X58.596
X58.578 Y20.093
X58.571 Y20.076
X58.578 Y20.058
X58.596 Y20.051
X63.246
G2 X63.811 Y19.94 I0 J-1.5
X63.808 Y10.21 I-1.975 J-4.865
X63.245 Y10.101 I-0.564 J1.39
G1 X58.596
X58.578 Y10.093
X58.571 Y10.076
X58.578 Y10.058
X58.596 Y10.051
X63.246
G2 X63.811 Y9.94 I0 J-1.5
X61.837 Y-0.174 I-1.975 J-4.865
G1 X60.096
Y-6.905
G2 X45.596 Y-21.405 I-14.5 J0
G1 X-0.102
G2 X-14.602 Y-6.905 I0 J14.5
G1 Y-5.251
X-17.999 Y-5.252
G2 X-19.972 Y4.864 I-0.001 J5.25
X-19.408 Y4.974 I0.563 J-1.39
G1 X-13.102
X-13.084 Y4.981
X-13.077 Y4.999
X-13.084 Y5.016
X-13.102 Y5.024
X-19.411
G2 X-19.975 Y5.134 I0 J1.5
X-19.972 Y14.864 I1.975 J4.864
X-19.408 Y14.974 I0.563 J-1.39
G1 X-13.102
X-13.084 Y14.981
X-13.077 Y14.999
Z-10.2 F300
X-13.084 Y15.016 F1000
X-13.102 Y15.024
X-19.411
G2 X-19.975 Y15.134 I0 J1.5
X-19.972 Y24.864 I1.975 J4.864
X-19.408 Y24.974 I0.563 J-1.39
G1 X-13.102
X-13.084 Y24.981
X-13.077 Y24.999
X-13.084 Y25.016
X-13.102 Y25.024
X-19.411
G2 X-19.975 Y25.134 I0 J1.5
X-19.516 Y35.025 I1.975 J4.864
X-19.083 Y35.089 I0.433 J-1.436
G1 X-13.064
X-13.046 Y35.096
X-13.039 Y35.114
X-13.046 Y35.131
X-13.064 Y35.139
X-19.666
G2 X-20.332 Y35.295 I0 J1.5
X-18.001 Y45.248 I2.332 J4.704
G1 X-10.768 Y45.249
G2 X3.898 Y52.473 I14.667 J-11.276
G1 X45.596
G2 X59.904 Y40.326 I0 J-14.5
G1 X61.836
G2 X63.808 Y30.21 I0 J-5.25
X63.245 Y30.101 I-0.564 J1.39
G1 X58.596
X58.578 Y30.093
X58.571 Y30.076
X58.578 Y30.058
X58.596 Y30.051
X63.246
G2 X63.811 Y29.94 I0 J-1.5
X63.808 Y20.21 I-1.975 J-4.865
X63.245 Y20.101 I-0.564 J1.39
G1 X58.596
X58.578 Y20.093
X58.571 Y20.076
X58.578 Y20.058
X58.596 Y20.051
X63.246
G2 X63.811 Y19.94 I0 J-1.5
X63.808 Y10.21 I-1.975 J-4.865
X63.245 Y10.101 I-0.564 J1.39
G1 X58.596
X58.578 Y10.093
X58.571 Y10.076
X58.578 Y10.058
X58.596 Y10.051
X63.246
G2 X63.811 Y9.94 I0 J-1.5
X61.837 Y-0.174 I-1.975 J-4.865
G1 X60.096
Y-6.905
G2 X45.596 Y-21.405 I-14.5 J0
G1 X-0.102
G2 X-14.602 Y-6.905 I0 J14.5
G1 Y-5.251
X-17.999 Y-5.252
G2 X-19.972 Y4.864 I-0.001 J5.25
X-19.408 Y4.974 I0.563 J-1.39
G1 X-13.102
X-13.084 Y4.981
X-13.077 Y4.999
X-13.084 Y5.016
X-13.102 Y5.024
X-19.411
G2 X-19.975 Y5.134 I0 J1.5
X-19.972 Y14.864 I1.975 J4.864
X-19.408 Y14.974 I0.563 J-1.39
G1 X-13.102
X-13.084 Y14.981
X-13.077 Y14.999
Z-10.5 F300
X-13.084 Y15.016 F1000
X-13.102 Y15.024
X-19.411
G2 X-19.975 Y15.134 I0 J1.5
X-19.972 Y24.864 I1.975 J4.864
X-19.408 Y24.974 I0.563 J-1.39
G1 X-13.102
X-13.084 Y24.981
X-13.077 Y24.999
X-13.084 Y25.016
X-13.102 Y25.024
X-19.411
G2 X-19.975 Y25.134 I0 J1.5
X-19.516 Y35.025 I1.975 J4.864
X-19.083 Y35.089 I0.433 J-1.436
G1 X-13.064
X-13.046 Y35.096
X-13.039 Y35.114
X-13.046 Y35.131
X-13.064 Y35.139
X-19.666
G2 X-20.332 Y35.295 I0 J1.5
X-18.001 Y45.248 I2.332 J4.704
G1 X-10.768 Y45.249
G2 X3.898 Y52.473 I14.667 J-11.276
G1 X45.596
G2 X59.904 Y40.326 I0 J-14.5
G1 X61.836
G2 X63.808 Y30.21 I0 J-5.25
X63.245 Y30.101 I-0.564 J1.39
G1 X58.596
X58.578 Y30.093
X58.571 Y30.076
X58.578 Y30.058
X58.596 Y30.051
X63.246
G2 X63.811 Y29.94 I0 J-1.5
X63.808 Y20.21 I-1.975 J-4.865
X63.245 Y20.101 I-0.564 J1.39
G1 X58.596
X58.578 Y20.093
X58.571 Y20.076
X58.578 Y20.058
X58.596 Y20.051
X63.246
G2 X63.811 Y19.94 I0 J-1.5
X63.808 Y10.21 I-1.975 J-4.865
X63.245 Y10.101 I-0.564 J1.39
G1 X58.596
X58.578 Y10.093
X58.571 Y10.076
X58.578 Y10.058
X58.596 Y10.051
X63.246
G2 X63.811 Y9.94 I0 J-1.5
X61.837 Y-0.174 I-1.975 J-4.865
G1 X60.096
Y-6.905
G2 X45.596 Y-21.405 I-14.5 J0
G1 X-0.102
G2 X-14.602 Y-6.905 I0 J14.5
G1 Y-5.251
X-17.999 Y-5.252
G2 X-19.972 Y4.864 I-0.001 J5.25
X-19.408 Y4.974 I0.563 J-1.39
G1 X-13.102
X-13.084 Y4.981
X-13.077 Y4.999
X-13.084 Y5.016
X-13.102 Y5.024
X-19.411
G2 X-19.975 Y5.134 I0 J1.5
X-19.972 Y14.864 I1.975 J4.864
X-19.408 Y14.974 I0.563 J-1.39
G1 X-13.102
X-13.084 Y14.981
X-13.077 Y14.999
Z-10.8 F300
X-13.084 Y15.016 F1000
X-13.102 Y15.024
X-19.411
G2 X-19.975 Y15.134 I0 J1.5
X-19.972 Y24.864 I1.975 J4.864
X-19.408 Y24.974 I0.563 J-1.39
G1 X-13.102
X-13.084 Y24.981
X-13.077 Y24.999
X-13.084 Y25.016
X-13.102 Y25.024
X-19.411
G2 X-19.975 Y25.134 I0 J1.5
X-19.516 Y35.025 I1.975 J4.864
X-19.083 Y35.089 I0.433 J-1.436
G1 X-13.064
X-13.046 Y35.096
X-13.039 Y35.114
X-13.046 Y35.131
X-13.064 Y35.139
X-19.666
G2 X-20.332 Y35.295 I0 J1.5
X-18.001 Y45.248 I2.332 J4.704
G1 X-10.768 Y45.249
G2 X3.898 Y52.473 I14.667 J-11.276
G1 X45.596
G2 X59.904 Y40.326 I0 J-14.5
G1 X61.836
G2 X63.808 Y30.21 I0 J-5.25
X63.245 Y30.101 I-0.564 J1.39
G1 X58.596
X58.578 Y30.093
X58.571 Y30.076
X58.578 Y30.058
X58.596 Y30.051
X63.246
G2 X63.811 Y29.94 I0 J-1.5
X63.808 Y20.21 I-1.975 J-4.865
X63.245 Y20.101 I-0.564 J1.39
G1 X58.596
X58.578 Y20.093
X58.571 Y20.076
X58.578 Y20.058
X58.596 Y20.051
X63.246
G2 X63.811 Y19.94 I0 J-1.5
X63.808 Y10.21 I-1.975 J-4.865
X63.245 Y10.101 I-0.564 J1.39
G1 X58.596
X58.578 Y10.093
X58.571 Y10.076
X58.578 Y10.058
X58.596 Y10.051
X63.246
G2 X63.811 Y9.94 I0 J-1.5
X61.837 Y-0.174 I-1.975 J-4.865
G1 X60.096
Y-6.905
G2 X45.596 Y-21.405 I-14.5 J0
G1 X-0.102
G2 X-14.602 Y-6.905 I0 J14.5
G1 Y-5.251
X-17.999 Y-5.252
G2 X-19.972 Y4.864 I-0.001 J5.25
X-19.408 Y4.974 I0.563 J-1.39
G1 X-13.102
X-13.084 Y4.981
X-13.077 Y4.999
X-13.084 Y5.016
X-13.102 Y5.024
X-19.411
G2 X-19.975 Y5.134 I0 J1.5
X-19.972 Y14.864 I1.975 J4.864
X-19.408 Y14.974 I0.563 J-1.39
G1 X-13.102
X-13.084 Y14.981
X-13.077 Y14.999
Z-11.1 F300
X-13.084 Y15.016 F1000
X-13.102 Y15.024
X-19.411
G2 X-19.975 Y15.134 I0 J1.5
X-19.972 Y24.864 I1.975 J4.864
X-19.408 Y24.974 I0.563 J-1.39
G1 X-13.102
X-13.084 Y24.981
X-13.077 Y24.999
X-13.084 Y25.016
X-13.102 Y25.024
X-19.411
G2 X-19.975 Y25.134 I0 J1.5
X-19.516 Y35.025 I1.975 J4.864
X-19.083 Y35.089 I0.433 J-1.436
G1 X-13.064
X-13.046 Y35.096
X-13.039 Y35.114
X-13.046 Y35.131
X-13.064 Y35.139
X-19.666
G2 X-20.332 Y35.295 I0 J1.5
X-18.001 Y45.248 I2.332 J4.704
G1 X-10.768 Y45.249
G2 X3.898 Y52.473 I14.667 J-11.276
G1 X45.596
G2 X59.904 Y40.326 I0 J-14.5
G1 X61.836
G2 X63.808 Y30.21 I0 J-5.25
X63.245 Y30.101 I-0.564 J1.39
G1 X58.596
X58.578 Y30.093
X58.571 Y30.076
X58.578 Y30.058
X58.596 Y30.051
X63.246
G2 X63.811 Y29.94 I0 J-1.5
X63.808 Y20.21 I-1.975 J-4.865
X63.245 Y20.101 I-0.564 J1.39
G1 X58.596
X58.578 Y20.093
X58.571 Y20.076
X58.578 Y20.058
X58.596 Y20.051
X63.246
G2 X63.811 Y19.94 I0 J-1.5
X63.808 Y10.21 I-1.975 J-4.865
X63.245 Y10.101 I-0.564 J1.39
G1 X58.596
X58.578 Y10.093
X58.571 Y10.076
X58.578 Y10.058
X58.596 Y10.051
X63.246
G2 X63.811 Y9.94 I0 J-1.5
X61.837 Y-0.174 I-1.975 J-4.865
G1 X60.096
Y-6.905
G2 X45.596 Y-21.405 I-14.5 J0
G1 X-0.102
G2 X-14.602 Y-6.905 I0 J14.5
G1 Y-5.251
X-17.999 Y-5.252
G2 X-19.972 Y4.864 I-0.001 J5.25
X-19.408 Y4.974 I0.563 J-1.39
G1 X-13.102
X-13.084 Y4.981
X-13.077 Y4.999
X-13.084 Y5.016
X-13.102 Y5.024
X-19.411
G2 X-19.975 Y5.134 I0 J1.5
X-19.972 Y14.864 I1.975 J4.864
X-19.408 Y14.974 I0.563 J-1.39
G1 X-13.102
X-13.084 Y14.981
X-13.077 Y14.999
Z-11.4 F300
X-13.084 Y15.016 F1000
X-13.102 Y15.024
X-19.411
G2 X-19.975 Y15.134 I0 J1.5
X-19.972 Y24.864 I1.975 J4.864
X-19.408 Y24.974 I0.563 J-1.39
G1 X-13.102
X-13.084 Y24.981
X-13.077 Y24.999
X-13.084 Y25.016
X-13.102 Y25.024
X-19.411
G2 X-19.975 Y25.134 I0 J1.5
X-19.516 Y35.025 I1.975 J4.864
X-19.083 Y35.089 I0.433 J-1.436
G1 X-13.064
X-13.046 Y35.096
X-13.039 Y35.114
X-13.046 Y35.131
X-13.064 Y35.139
X-19.666
G2 X-20.332 Y35.295 I0 J1.5
X-18.001 Y45.248 I2.332 J4.704
G1 X-10.768 Y45.249
G2 X3.898 Y52.473 I14.667 J-11.276
G1 X45.596
G2 X59.904 Y40.326 I0 J-14.5
G1 X61.836
G2 X63.808 Y30.21 I0 J-5.25
X63.245 Y30.101 I-0.564 J1.39
G1 X58.596
X58.578 Y30.093
X58.571 Y30.076
X58.578 Y30.058
X58.596 Y30.051
X63.246
G2 X63.811 Y29.94 I0 J-1.5
X63.808 Y20.21 I-1.975 J-4.865
X63.245 Y20.101 I-0.564 J1.39
G1 X58.596
X58.578 Y20.093
X58.571 Y20.076
X58.578 Y20.058
X58.596 Y20.051
X63.246
G2 X63.811 Y19.94 I0 J-1.5
X63.808 Y10.21 I-1.975 J-4.865
X63.245 Y10.101 I-0.564 J1.39
G1 X58.596
X58.578 Y10.093
X58.571 Y10.076
X58.578 Y10.058
X58.596 Y10.051
X63.246
G2 X63.811 Y9.94 I0 J-1.5
X61.837 Y-0.174 I-1.975 J-4.865
G1 X60.096
Y-6.905
G2 X45.596 Y-21.405 I-14.5 J0
G1 X-0.102
G2 X-14.602 Y-6.905 I0 J14.5
G1 Y-5.251
X-17.999 Y-5.252
G2 X-19.972 Y4.864 I-0.001 J5.25
X-19.408 Y4.974 I0.563 J-1.39
G1 X-13.102
X-13.084 Y4.981
X-13.077 Y4.999
X-13.084 Y5.016
X-13.102 Y5.024
X-19.411
G2 X-19.975 Y5.134 I0 J1.5
X-19.972 Y14.864 I1.975 J4.864
X-19.408 Y14.974 I0.563 J-1.39
G1 X-13.102
X-13.084 Y14.981
X-13.077 Y14.999
Z-11.7 F300
X-13.084 Y15.016 F1000
X-13.102 Y15.024
X-19.411
G2 X-19.975 Y15.134 I0 J1.5
X-19.972 Y24.864 I1.975 J4.864
X-19.408 Y24.974 I0.563 J-1.39
G1 X-13.102
X-13.084 Y24.981
X-13.077 Y24.999
X-13.084 Y25.016
X-13.102 Y25.024
X-19.411
G2 X-19.975 Y25.134 I0 J1.5
X-19.516 Y35.025 I1.975 J4.864
X-19.083 Y35.089 I0.433 J-1.436
G1 X-13.064
X-13.046 Y35.096
X-13.039 Y35.114
X-13.046 Y35.131
X-13.064 Y35.139
X-19.666
G2 X-20.332 Y35.295 I0 J1.5
X-18.001 Y45.248 I2.332 J4.704
G1 X-10.768 Y45.249
G2 X3.898 Y52.473 I14.667 J-11.276
G1 X45.596
G2 X59.904 Y40.326 I0 J-14.5
G1 X61.836
G2 X63.808 Y30.21 I0 J-5.25
X63.245 Y30.101 I-0.564 J1.39
G1 X58.596
X58.578 Y30.093
X58.571 Y30.076
X58.578 Y30.058
X58.596 Y30.051
X63.246
G2 X63.811 Y29.94 I0 J-1.5
X63.808 Y20.21 I-1.975 J-4.865
X63.245 Y20.101 I-0.564 J1.39
G1 X58.596
X58.578 Y20.093
X58.571 Y20.076
X58.578 Y20.058
X58.596 Y20.051
X63.246
G2 X63.811 Y19.94 I0 J-1.5
X63.808 Y10.21 I-1.975 J-4.865
X63.245 Y10.101 I-0.564 J1.39
G1 X58.596
X58.578 Y10.093
X58.571 Y10.076
X58.578 Y10.058
X58.596 Y10.051
X63.246
G2 X63.811 Y9.94 I0 J-1.5
X61.837 Y-0.174 I-1.975 J-4.865
G1 X60.096
Y-6.905
G2 X45.596 Y-21.405 I-14.5 J0
G1 X-0.102
G2 X-14.602 Y-6.905 I0 J14.5
G1 Y-5.251
X-17.999 Y-5.252
G2 X-19.972 Y4.864 I-0.001 J5.25
X-19.408 Y4.974 I0.563 J-1.39
G1 X-13.102
X-13.084 Y4.981
X-13.077 Y4.999
X-13.084 Y5.016
X-13.102 Y5.024
X-19.411
G2 X-19.975 Y5.134 I0 J1.5
X-19.972 Y14.864 I1.975 J4.864
X-19.408 Y14.974 I0.563 J-1.39
G1 X-13.102
X-13.084 Y14.981
X-13.077 Y14.999
Z-12 F300
X-13.084 Y15.016 F1000
X-13.102 Y15.024
X-19.411
G2 X-19.975 Y15.134 I0 J1.5
X-19.972 Y24.864 I1.975 J4.864
X-19.408 Y24.974 I0.563 J-1.39
G1 X-13.102
X-13.084 Y24.981
X-13.077 Y24.999
X-13.084 Y25.016
X-13.102 Y25.024
X-19.411
G2 X-19.975 Y25.134 I0 J1.5
X-19.516 Y35.025 I1.975 J4.864
X-19.083 Y35.089 I0.433 J-1.436
G1 X-13.064
X-13.046 Y35.096
X-13.039 Y35.114
X-13.046 Y35.131
X-13.064 Y35.139
X-19.666
G2 X-20.332 Y35.295 I0 J1.5
X-18.001 Y45.248 I2.332 J4.704
G1 X-10.768 Y45.249
G2 X3.898 Y52.473 I14.667 J-11.276
G1 X45.596
G2 X59.904 Y40.326 I0 J-14.5
G1 X61.836
G2 X63.808 Y30.21 I0 J-5.25
X63.245 Y30.101 I-0.564 J1.39
G1 X58.596
X58.578 Y30.093
X58.571 Y30.076
X58.578 Y30.058
X58.596 Y30.051
X63.246
G2 X63.811 Y29.94 I0 J-1.5
X63.808 Y20.21 I-1.975 J-4.865
X63.245 Y20.101 I-0.564 J1.39
G1 X58.596
X58.578 Y20.093
X58.571 Y20.076
X58.578 Y20.058
X58.596 Y20.051
X63.246
G2 X63.811 Y19.94 I0 J-1.5
X63.808 Y10.21 I-1.975 J-4.865
X63.245 Y10.101 I-0.564 J1.39
G1 X58.596
X58.578 Y10.093
X58.571 Y10.076
X58.578 Y10.058
X58.596 Y10.051
X63.246
G2 X63.811 Y9.94 I0 J-1.5
X61.837 Y-0.174 I-1.975 J-4.865
G1 X60.096
Y-6.905
G2 X45.596 Y-21.405 I-14.5 J0
G1 X-0.102
G2 X-14.602 Y-6.905 I0 J14.5
G1 Y-5.251
X-17.999 Y-5.252
G2 X-19.972 Y4.864 I-0.001 J5.25
X-19.408 Y4.974 I0.563 J-1.39
G1 X-13.102
X-13.084 Y4.981
X-13.077 Y4.999
X-13.084 Y5.016
X-13.102 Y5.024
X-19.411
G2 X-19.975 Y5.134 I0 J1.5
X-19.972 Y14.864 I1.975 J4.864
X-19.408 Y14.974 I0.563 J-1.39
G1 X-13.102
X-13.084 Y14.981
X-13.077 Y14.999
Z-12.3 F300
X-13.084 Y15.016 F1000
X-13.102 Y15.024
X-19.411
G2 X-19.975 Y15.134 I0 J1.5
X-19.972 Y24.864 I1.975 J4.864
X-19.408 Y24.974 I0.563 J-1.39
G1 X-13.102
X-13.084 Y24.981
X-13.077 Y24.999
X-13.084 Y25.016
X-13.102 Y25.024
X-19.411
G2 X-19.975 Y25.134 I0 J1.5
X-19.516 Y35.025 I1.975 J4.864
X-19.083 Y35.089 I0.433 J-1.436
G1 X-13.064
X-13.046 Y35.096
X-13.039 Y35.114
X-13.046 Y35.131
X-13.064 Y35.139
X-19.666
G2 X-20.332 Y35.295 I0 J1.5
X-18.001 Y45.248 I2.332 J4.704
G1 X-10.768 Y45.249
G2 X3.898 Y52.473 I14.667 J-11.276
G1 X45.596
G2 X59.904 Y40.326 I0 J-14.5
G1 X61.836
G2 X63.808 Y30.21 I0 J-5.25
X63.245 Y30.101 I-0.564 J1.39
G1 X58.596
X58.578 Y30.093
X58.571 Y30.076
X58.578 Y30.058
X58.596 Y30.051
X63.246
G2 X63.811 Y29.94 I0 J-1.5
X63.808 Y20.21 I-1.975 J-4.865
X63.245 Y20.101 I-0.564 J1.39
G1 X58.596
X58.578 Y20.093
X58.571 Y20.076
X58.578 Y20.058
X58.596 Y20.051
X63.246
G2 X63.811 Y19.94 I0 J-1.5
X63.808 Y10.21 I-1.975 J-4.865
X63.245 Y10.101 I-0.564 J1.39
G1 X58.596
X58.578 Y10.093
X58.571 Y10.076
X58.578 Y10.058
X58.596 Y10.051
X63.246
G2 X63.811 Y9.94 I0 J-1.5
X61.837 Y-0.174 I-1.975 J-4.865
G1 X60.096
Y-6.905
G2 X45.596 Y-21.405 I-14.5 J0
G1 X-0.102
G2 X-14.602 Y-6.905 I0 J14.5
G1 Y-5.251
X-17.999 Y-5.252
G2 X-19.972 Y4.864 I-0.001 J5.25
X-19.408 Y4.974 I0.563 J-1.39
G1 X-13.102
X-13.084 Y4.981
X-13.077 Y4.999
X-13.084 Y5.016
X-13.102 Y5.024
X-19.411
G2 X-19.975 Y5.134 I0 J1.5
X-19.972 Y14.864 I1.975 J4.864
X-19.408 Y14.974 I0.563 J-1.39
G1 X-13.102
X-13.084 Y14.981
X-13.077 Y14.999
Z-12.6 F300
X-13.084 Y15.016 F1000
X-13.102 Y15.024
X-19.411
G2 X-19.975 Y15.134 I0 J1.5
X-19.972 Y24.864 I1.975 J4.864
X-19.408 Y24.974 I0.563 J-1.39
G1 X-13.102
X-13.084 Y24.981
X-13.077 Y24.999
X-13.084 Y25.016
X-13.102 Y25.024
X-19.411
G2 X-19.975 Y25.134 I0 J1.5
X-19.516 Y35.025 I1.975 J4.864
X-19.083 Y35.089 I0.433 J-1.436
G1 X-13.064
X-13.046 Y35.096
X-13.039 Y35.114
X-13.046 Y35.131
X-13.064 Y35.139
X-19.666
G2 X-20.332 Y35.295 I0 J1.5
X-18.001 Y45.248 I2.332 J4.704
G1 X-10.768 Y45.249
G2 X3.898 Y52.473 I14.667 J-11.276
G1 X45.596
G2 X59.904 Y40.326 I0 J-14.5
G1 X61.836
G2 X63.808 Y30.21 I0 J-5.25
X63.245 Y30.101 I-0.564 J1.39
G1 X58.596
X58.578 Y30.093
X58.571 Y30.076
X58.578 Y30.058
X58.596 Y30.051
X63.246
G2 X63.811 Y29.94 I0 J-1.5
X63.808 Y20.21 I-1.975 J-4.865
X63.245 Y20.101 I-0.564 J1.39
G1 X58.596
X58.578 Y20.093
X58.571 Y20.076
X58.578 Y20.058
X58.596 Y20.051
X63.246
G2 X63.811 Y19.94 I0 J-1.5
X63.808 Y10.21 I-1.975 J-4.865
X63.245 Y10.101 I-0.564 J1.39
G1 X58.596
X58.578 Y10.093
X58.571 Y10.076
X58.578 Y10.058
X58.596 Y10.051
X63.246
G2 X63.811 Y9.94 I0 J-1.5
X61.837 Y-0.174 I-1.975 J-4.865
G1 X60.096
Y-6.905
G2 X45.596 Y-21.405 I-14.5 J0
G1 X-0.102
G2 X-14.602 Y-6.905 I0 J14.5
G1 Y-5.251
X-17.999 Y-5.252
G2 X-19.972 Y4.864 I-0.001 J5.25
X-19.408 Y4.974 I0.563 J-1.39
G1 X-13.102
X-13.084 Y4.981
X-13.077 Y4.999
X-13.084 Y5.016
X-13.102 Y5.024
X-19.411
G2 X-19.975 Y5.134 I0 J1.5
X-19.972 Y14.864 I1.975 J4.864
X-19.408 Y14.974 I0.563 J-1.39
G1 X-13.102
X-13.084 Y14.981
X-13.077 Y14.999
Z-12.9 F300
X-13.084 Y15.016 F1000
X-13.102 Y15.024
X-19.411
G2 X-19.975 Y15.134 I0 J1.5
X-19.972 Y24.864 I1.975 J4.864
X-19.408 Y24.974 I0.563 J-1.39
G1 X-13.102
X-13.084 Y24.981
X-13.077 Y24.999
X-13.084 Y25.016
X-13.102 Y25.024
X-19.411
G2 X-19.975 Y25.134 I0 J1.5
X-19.516 Y35.025 I1.975 J4.864
X-19.083 Y35.089 I0.433 J-1.436
G1 X-13.064
X-13.046 Y35.096
X-13.039 Y35.114
X-13.046 Y35.131
X-13.064 Y35.139
X-19.666
G2 X-20.332 Y35.295 I0 J1.5
X-18.001 Y45.248 I2.332 J4.704
G1 X-10.768 Y45.249
G2 X3.898 Y52.473 I14.667 J-11.276
G1 X45.596
G2 X59.904 Y40.326 I0 J-14.5
G1 X61.836
G2 X63.808 Y30.21 I0 J-5.25
X63.245 Y30.101 I-0.564 J1.39
G1 X58.596
X58.578 Y30.093
X58.571 Y30.076
X58.578 Y30.058
X58.596 Y30.051
X63.246
G2 X63.811 Y29.94 I0 J-1.5
X63.808 Y20.21 I-1.975 J-4.865
X63.245 Y20.101 I-0.564 J1.39
G1 X58.596
X58.578 Y20.093
X58.571 Y20.076
X58.578 Y20.058
X58.596 Y20.051
X63.246
G2 X63.811 Y19.94 I0 J-1.5
X63.808 Y10.21 I-1.975 J-4.865
X63.245 Y10.101 I-0.564 J1.39
G1 X58.596
X58.578 Y10.093
X58.571 Y10.076
X58.578 Y10.058
X58.596 Y10.051
X63.246
G2 X63.811 Y9.94 I0 J-1.5
X61.837 Y-0.174 I-1.975 J-4.865
G1 X60.096
Y-6.905
G2 X45.596 Y-21.405 I-14.5 J0
G1 X-0.102
G2 X-14.602 Y-6.905 I0 J14.5
G1 Y-5.251
X-17.999 Y-5.252
G2 X-19.972 Y4.864 I-0.001 J5.25
X-19.408 Y4.974 I0.563 J-1.39
G1 X-13.102
X-13.084 Y4.981
X-13.077 Y4.999
X-13.084 Y5.016
X-13.102 Y5.024
X-19.411
G2 X-19.975 Y5.134 I0 J1.5
X-19.972 Y14.864 I1.975 J4.864
X-19.408 Y14.974 I0.563 J-1.39
G1 X-13.102
X-13.084 Y14.981
X-13.077 Y14.999
Z-13.2 F300
X-13.084 Y15.016 F1000
X-13.102 Y15.024
X-19.411
G2 X-19.975 Y15.134 I0 J1.5
X-19.972 Y24.864 I1.975 J4.864
X-19.408 Y24.974 I0.563 J-1.39
G1 X-13.102
X-13.084 Y24.981
X-13.077 Y24.999
X-13.084 Y25.016
X-13.102 Y25.024
X-19.411
G2 X-19.975 Y25.134 I0 J1.5
X-19.516 Y35.025 I1.975 J4.864
X-19.083 Y35.089 I0.433 J-1.436
G1 X-13.064
X-13.046 Y35.096
X-13.039 Y35.114
X-13.046 Y35.131
X-13.064 Y35.139
X-19.666
G2 X-20.332 Y35.295 I0 J1.5
X-18.001 Y45.248 I2.332 J4.704
G1 X-10.768 Y45.249
G2 X3.898 Y52.473 I14.667 J-11.276
G1 X45.596
G2 X59.904 Y40.326 I0 J-14.5
G1 X61.836
G2 X63.808 Y30.21 I0 J-5.25
X63.245 Y30.101 I-0.564 J1.39
G1 X58.596
X58.578 Y30.093
X58.571 Y30.076
X58.578 Y30.058
X58.596 Y30.051
X63.246
G2 X63.811 Y29.94 I0 J-1.5
X63.808 Y20.21 I-1.975 J-4.865
X63.245 Y20.101 I-0.564 J1.39
G1 X58.596
X58.578 Y20.093
X58.571 Y20.076
X58.578 Y20.058
X58.596 Y20.051
X63.246
G2 X63.811 Y19.94 I0 J-1.5
X63.808 Y10.21 I-1.975 J-4.865
X63.245 Y10.101 I-0.564 J1.39
G1 X58.596
X58.578 Y10.093
X58.571 Y10.076
X58.578 Y10.058
X58.596 Y10.051
X63.246
G2 X63.811 Y9.94 I0 J-1.5
X61.837 Y-0.174 I-1.975 J-4.865
G1 X60.096
Y-6.905
G2 X45.596 Y-21.405 I-14.5 J0
G1 X-0.102
G2 X-14.602 Y-6.905 I0 J14.5
G1 Y-5.251
X-17.999 Y-5.252
G2 X-19.972 Y4.864 I-0.001 J5.25
X-19.408 Y4.974 I0.563 J-1.39
G1 X-13.102
X-13.084 Y4.981
X-13.077 Y4.999
X-13.084 Y5.016
X-13.102 Y5.024
X-19.411
G2 X-19.975 Y5.134 I0 J1.5
X-19.972 Y14.864 I1.975 J4.864
X-19.408 Y14.974 I0.563 J-1.39
G1 X-13.102
X-13.084 Y14.981
X-13.077 Y14.999
Z-13.5 F300
X-13.084 Y15.016 F1000
X-13.102 Y15.024
X-19.411
G2 X-19.975 Y15.134 I0 J1.5
X-19.972 Y24.864 I1.975 J4.864
X-19.408 Y24.974 I0.563 J-1.39
G1 X-13.102
X-13.084 Y24.981
X-13.077 Y24.999
X-13.084 Y25.016
X-13.102 Y25.024
X-19.411
G2 X-19.975 Y25.134 I0 J1.5
X-19.516 Y35.025 I1.975 J4.864
X-19.083 Y35.089 I0.433 J-1.436
G1 X-13.064
X-13.046 Y35.096
X-13.039 Y35.114
X-13.046 Y35.131
X-13.064 Y35.139
X-19.666
G2 X-20.332 Y35.295 I0 J1.5
X-18.001 Y45.248 I2.332 J4.704
G1 X-10.768 Y45.249
G2 X3.898 Y52.473 I14.667 J-11.276
G1 X45.596
G2 X59.904 Y40.326 I0 J-14.5
G1 X61.836
G2 X63.808 Y30.21 I0 J-5.25
X63.245 Y30.101 I-0.564 J1.39
G1 X58.596
X58.578 Y30.093
X58.571 Y30.076
X58.578 Y30.058
X58.596 Y30.051
X63.246
G2 X63.811 Y29.94 I0 J-1.5
X63.808 Y20.21 I-1.975 J-4.865
X63.245 Y20.101 I-0.564 J1.39
G1 X58.596
X58.578 Y20.093
X58.571 Y20.076
X58.578 Y20.058
X58.596 Y20.051
X63.246
G2 X63.811 Y19.94 I0 J-1.5
X63.808 Y10.21 I-1.975 J-4.865
X63.245 Y10.101 I-0.564 J1.39
G1 X58.596
X58.578 Y10.093
X58.571 Y10.076
X58.578 Y10.058
X58.596 Y10.051
X63.246
G2 X63.811 Y9.94 I0 J-1.5
X61.837 Y-0.174 I-1.975 J-4.865
G1 X60.096
Y-6.905
G2 X45.596 Y-21.405 I-14.5 J0
G1 X-0.102
G2 X-14.602 Y-6.905 I0 J14.5
G1 Y-5.251
X-17.999 Y-5.252
G2 X-19.972 Y4.864 I-0.001 J5.25
X-19.408 Y4.974 I0.563 J-1.39
G1 X-13.102
X-13.084 Y4.981
X-13.077 Y4.999
X-13.084 Y5.016
X-13.102 Y5.024
X-19.411
G2 X-19.975 Y5.134 I0 J1.5
X-19.972 Y14.864 I1.975 J4.864
X-19.408 Y14.974 I0.563 J-1.39
G1 X-13.102
X-13.084 Y14.981
X-13.077 Y14.999
Z-13.8 F300
X-13.084 Y15.016 F1000
X-13.102 Y15.024
X-19.411
G2 X-19.975 Y15.134 I0 J1.5
X-19.972 Y24.864 I1.975 J4.864
X-19.408 Y24.974 I0.563 J-1.39
G1 X-13.102
X-13.084 Y24.981
X-13.077 Y24.999
X-13.084 Y25.016
X-13.102 Y25.024
X-19.411
G2 X-19.975 Y25.134 I0 J1.5
X-19.516 Y35.025 I1.975 J4.864
X-19.083 Y35.089 I0.433 J-1.436
G1 X-13.064
X-13.046 Y35.096
X-13.039 Y35.114
X-13.046 Y35.131
X-13.064 Y35.139
X-19.666
G2 X-20.332 Y35.295 I0 J1.5
X-18.001 Y45.248 I2.332 J4.704
G1 X-10.768 Y45.249
G2 X3.898 Y52.473 I14.667 J-11.276
G1 X45.596
G2 X59.904 Y40.326 I0 J-14.5
G1 X61.836
G2 X63.808 Y30.21 I0 J-5.25
X63.245 Y30.101 I-0.564 J1.39
G1 X58.596
X58.578 Y30.093
X58.571 Y30.076
X58.578 Y30.058
X58.596 Y30.051
X63.246
G2 X63.811 Y29.94 I0 J-1.5
X63.808 Y20.21 I-1.975 J-4.865
X63.245 Y20.101 I-0.564 J1.39
G1 X58.596
X58.578 Y20.093
X58.571 Y20.076
X58.578 Y20.058
X58.596 Y20.051
X63.246
G2 X63.811 Y19.94 I0 J-1.5
X63.808 Y10.21 I-1.975 J-4.865
X63.245 Y10.101 I-0.564 J1.39
G1 X58.596
X58.578 Y10.093
X58.571 Y10.076
X58.578 Y10.058
X58.596 Y10.051
X63.246
G2 X63.811 Y9.94 I0 J-1.5
X61.837 Y-0.174 I-1.975 J-4.865
G1 X60.096
Y-6.905
G2 X45.596 Y-21.405 I-14.5 J0
G1 X-0.102
G2 X-14.602 Y-6.905 I0 J14.5
G1 Y-5.251
X-17.999 Y-5.252
G2 X-19.972 Y4.864 I-0.001 J5.25
X-19.408 Y4.974 I0.563 J-1.39
G1 X-13.102
X-13.084 Y4.981
X-13.077 Y4.999
X-13.084 Y5.016
X-13.102 Y5.024
X-19.411
G2 X-19.975 Y5.134 I0 J1.5
X-19.972 Y14.864 I1.975 J4.864
X-19.408 Y14.974 I0.563 J-1.39
G1 X-13.102
X-13.084 Y14.981
X-13.077 Y14.999
Z-14.1 F300
X-13.084 Y15.016 F1000
X-13.102 Y15.024
X-19.411
G2 X-19.975 Y15.134 I0 J1.5
X-19.972 Y24.864 I1.975 J4.864
X-19.408 Y24.974 I0.563 J-1.39
G1 X-13.102
X-13.084 Y24.981
X-13.077 Y24.999
X-13.084 Y25.016
X-13.102 Y25.024
X-19.411
G2 X-19.975 Y25.134 I0 J1.5
X-19.516 Y35.025 I1.975 J4.864
X-19.083 Y35.089 I0.433 J-1.436
G1 X-13.064
X-13.046 Y35.096
X-13.039 Y35.114
X-13.046 Y35.131
X-13.064 Y35.139
X-19.666
G2 X-20.332 Y35.295 I0 J1.5
X-18.001 Y45.248 I2.332 J4.704
G1 X-10.768 Y45.249
G2 X3.898 Y52.473 I14.667 J-11.276
G1 X45.596
G2 X59.904 Y40.326 I0 J-14.5
G1 X61.836
G2 X63.808 Y30.21 I0 J-5.25
X63.245 Y30.101 I-0.564 J1.39
G1 X58.596
X58.578 Y30.093
X58.571 Y30.076
X58.578 Y30.058
X58.596 Y30.051
X63.246
G2 X63.811 Y29.94 I0 J-1.5
X63.808 Y20.21 I-1.975 J-4.865
X63.245 Y20.101 I-0.564 J1.39
G1 X58.596
X58.578 Y20.093
X58.571 Y20.076
X58.578 Y20.058
X58.596 Y20.051
X63.246
G2 X63.811 Y19.94 I0 J-1.5
X63.808 Y10.21 I-1.975 J-4.865
X63.245 Y10.101 I-0.564 J1.39
G1 X58.596
X58.578 Y10.093
X58.571 Y10.076
X58.578 Y10.058
X58.596 Y10.051
X63.246
G2 X63.811 Y9.94 I0 J-1.5
X61.837 Y-0.174 I-1.975 J-4.865
G1 X60.096
Y-6.905
G2 X45.596 Y-21.405 I-14.5 J0
G1 X-0.102
G2 X-14.602 Y-6.905 I0 J14.5
G1 Y-5.251
X-17.999 Y-5.252
G2 X-19.972 Y4.864 I-0.001 J5.25
X-19.408 Y4.974 I0.563 J-1.39
G1 X-13.102
X-13.084 Y4.981
X-13.077 Y4.999
X-13.084 Y5.016
X-13.102 Y5.024
X-19.411
G2 X-19.975 Y5.134 I0 J1.5
X-19.972 Y14.864 I1.975 J4.864
X-19.408 Y14.974 I0.563 J-1.39
G1 X-13.102
X-13.084 Y14.981
X-13.077 Y14.999
Z-14.4 F300
X-13.084 Y15.016 F1000
X-13.102 Y15.024
X-19.411
G2 X-19.975 Y15.134 I0 J1.5
X-19.972 Y24.864 I1.975 J4.864
X-19.408 Y24.974 I0.563 J-1.39
G1 X-13.102
X-13.084 Y24.981
X-13.077 Y24.999
X-13.084 Y25.016
X-13.102 Y25.024
X-19.411
G2 X-19.975 Y25.134 I0 J1.5
X-19.516 Y35.025 I1.975 J4.864
X-19.083 Y35.089 I0.433 J-1.436
G1 X-13.064
X-13.046 Y35.096
X-13.039 Y35.114
X-13.046 Y35.131
X-13.064 Y35.139
X-19.666
G2 X-20.332 Y35.295 I0 J1.5
X-18.001 Y45.248 I2.332 J4.704
G1 X-10.768 Y45.249
G2 X3.898 Y52.473 I14.667 J-11.276
G1 X45.596
G2 X59.904 Y40.326 I0 J-14.5
G1 X61.836
G2 X63.808 Y30.21 I0 J-5.25
X63.245 Y30.101 I-0.564 J1.39
G1 X58.596
X58.578 Y30.093
X58.571 Y30.076
X58.578 Y30.058
X58.596 Y30.051
X63.246
G2 X63.811 Y29.94 I0 J-1.5
X63.808 Y20.21 I-1.975 J-4.865
X63.245 Y20.101 I-0.564 J1.39
G1 X58.596
X58.578 Y20.093
X58.571 Y20.076
X58.578 Y20.058
X58.596 Y20.051
X63.246
G2 X63.811 Y19.94 I0 J-1.5
X63.808 Y10.21 I-1.975 J-4.865
X63.245 Y10.101 I-0.564 J1.39
G1 X58.596
X58.578 Y10.093
X58.571 Y10.076
X58.578 Y10.058
X58.596 Y10.051
X63.246
G2 X63.811 Y9.94 I0 J-1.5
X61.837 Y-0.174 I-1.975 J-4.865
G1 X60.096
Y-6.905
G2 X45.596 Y-21.405 I-14.5 J0
G1 X-0.102
G2 X-14.602 Y-6.905 I0 J14.5
G1 Y-5.251
X-17.999 Y-5.252
G2 X-19.972 Y4.864 I-0.001 J5.25
X-19.408 Y4.974 I0.563 J-1.39
G1 X-13.102
X-13.084 Y4.981
X-13.077 Y4.999
X-13.084 Y5.016
X-13.102 Y5.024
X-19.411
G2 X-19.975 Y5.134 I0 J1.5
X-19.972 Y14.864 I1.975 J4.864
X-19.408 Y14.974 I0.563 J-1.39
G1 X-13.102
X-13.084 Y14.981
X-13.077 Y14.999
Z-14.7 F300
X-13.084 Y15.016 F1000
X-13.102 Y15.024
X-19.411
G2 X-19.975 Y15.134 I0 J1.5
X-19.972 Y24.864 I1.975 J4.864
X-19.408 Y24.974 I0.563 J-1.39
G1 X-13.102
X-13.084 Y24.981
X-13.077 Y24.999
X-13.084 Y25.016
X-13.102 Y25.024
X-19.411
G2 X-19.975 Y25.134 I0 J1.5
X-19.516 Y35.025 I1.975 J4.864
X-19.083 Y35.089 I0.433 J-1.436
G1 X-13.064
X-13.046 Y35.096
X-13.039 Y35.114
X-13.046 Y35.131
X-13.064 Y35.139
X-19.666
G2 X-20.332 Y35.295 I0 J1.5
X-18.001 Y45.248 I2.332 J4.704
G1 X-10.768 Y45.249
G2 X3.898 Y52.473 I14.667 J-11.276
G1 X45.596
G2 X59.904 Y40.326 I0 J-14.5
G1 X61.836
G2 X63.808 Y30.21 I0 J-5.25
X63.245 Y30.101 I-0.564 J1.39
G1 X58.596
X58.578 Y30.093
X58.571 Y30.076
X58.578 Y30.058
X58.596 Y30.051
X63.246
G2 X63.811 Y29.94 I0 J-1.5
X63.808 Y20.21 I-1.975 J-4.865
X63.245 Y20.101 I-0.564 J1.39
G1 X58.596
X58.578 Y20.093
X58.571 Y20.076
X58.578 Y20.058
X58.596 Y20.051
X63.246
G2 X63.811 Y19.94 I0 J-1.5
X63.808 Y10.21 I-1.975 J-4.865
X63.245 Y10.101 I-0.564 J1.39
G1 X58.596
X58.578 Y10.093
X58.571 Y10.076
X58.578 Y10.058
X58.596 Y10.051
X63.246
G2 X63.811 Y9.94 I0 J-1.5
X61.837 Y-0.174 I-1.975 J-4.865
G1 X60.096
Y-6.905
G2 X45.596 Y-21.405 I-14.5 J0
G1 X-0.102
G2 X-14.602 Y-6.905 I0 J14.5
G1 Y-5.251
X-17.999 Y-5.252
G2 X-19.972 Y4.864 I-0.001 J5.25
X-19.408 Y4.974 I0.563 J-1.39
G1 X-13.102
X-13.084 Y4.981
X-13.077 Y4.999
X-13.084 Y5.016
X-13.102 Y5.024
X-19.411
G2 X-19.975 Y5.134 I0 J1.5
X-19.972 Y14.864 I1.975 J4.864
X-19.408 Y14.974 I0.563 J-1.39
G1 X-13.102
X-13.084 Y14.981
X-13.077 Y14.999
Z-15 F300
X-13.084 Y15.016 F1000
X-13.102 Y15.024
X-19.411
G2 X-19.975 Y15.134 I0 J1.5
X-19.972 Y24.864 I1.975 J4.864
X-19.408 Y24.974 I0.563 J-1.39
G1 X-13.102
X-13.084 Y24.981
X-13.077 Y24.999
X-13.084 Y25.016
X-13.102 Y25.024
X-19.411
G2 X-19.975 Y25.134 I0 J1.5
X-19.516 Y35.025 I1.975 J4.864
X-19.083 Y35.089 I0.433 J-1.436
G1 X-13.064
X-13.046 Y35.096
X-13.039 Y35.114
X-13.046 Y35.131
X-13.064 Y35.139
X-19.666
G2 X-20.332 Y35.295 I0 J1.5
X-18.001 Y45.248 I2.332 J4.704
G1 X-10.768 Y45.249
G2 X3.898 Y52.473 I14.667 J-11.276
G1 X45.596
G2 X59.904 Y40.326 I0 J-14.5
G1 X61.836
G2 X63.808 Y30.21 I0 J-5.25
X63.245 Y30.101 I-0.564 J1.39
G1 X58.596
X58.578 Y30.093
X58.571 Y30.076
X58.578 Y30.058
X58.596 Y30.051
X63.246
G2 X63.811 Y29.94 I0 J-1.5
X63.808 Y20.21 I-1.975 J-4.865
X63.245 Y20.101 I-0.564 J1.39
G1 X58.596
X58.578 Y20.093
X58.571 Y20.076
X58.578 Y20.058
X58.596 Y20.051
X63.246
G2 X63.811 Y19.94 I0 J-1.5
X63.808 Y10.21 I-1.975 J-4.865
X63.245 Y10.101 I-0.564 J1.39
G1 X58.596
X58.578 Y10.093
X58.571 Y10.076
X58.578 Y10.058
X58.596 Y10.051
X63.246
G2 X63.811 Y9.94 I0 J-1.5
X61.837 Y-0.174 I-1.975 J-4.865
G1 X60.096
Y-6.905
G2 X45.596 Y-21.405 I-14.5 J0
G1 X-0.102
G2 X-14.602 Y-6.905 I0 J14.5
G1 Y-5.251
X-17.999 Y-5.252
G2 X-19.972 Y4.864 I-0.001 J5.25
X-19.408 Y4.974 I0.563 J-1.39
G1 X-13.102
X-13.084 Y4.981
X-13.077 Y4.999
X-13.084 Y5.016
X-13.102 Y5.024
X-19.411
G2 X-19.975 Y5.134 I0 J1.5
X-19.972 Y14.864 I1.975 J4.864
X-19.408 Y14.974 I0.563 J-1.39
G1 X-13.102
X-13.084 Y14.981
X-13.077 Y14.999
Z-15.3 F300
X-13.084 Y15.016 F1000
X-13.102 Y15.024
X-19.411
G2 X-19.975 Y15.134 I0 J1.5
X-19.972 Y24.864 I1.975 J4.864
X-19.408 Y24.974 I0.563 J-1.39
G1 X-13.102
X-13.084 Y24.981
X-13.077 Y24.999
X-13.084 Y25.016
X-13.102 Y25.024
X-19.411
G2 X-19.975 Y25.134 I0 J1.5
X-19.516 Y35.025 I1.975 J4.864
X-19.083 Y35.089 I0.433 J-1.436
G1 X-13.064
X-13.046 Y35.096
X-13.039 Y35.114
X-13.046 Y35.131
X-13.064 Y35.139
X-19.666
G2 X-20.332 Y35.295 I0 J1.5
X-18.001 Y45.248 I2.332 J4.704
G1 X-10.768 Y45.249
G2 X3.898 Y52.473 I14.667 J-11.276
G1 X45.596
G2 X59.904 Y40.326 I0 J-14.5
G1 X61.836
G2 X63.808 Y30.21 I0 J-5.25
X63.245 Y30.101 I-0.564 J1.39
G1 X58.596
X58.578 Y30.093
X58.571 Y30.076
X58.578 Y30.058
X58.596 Y30.051
X63.246
G2 X63.811 Y29.94 I0 J-1.5
X63.808 Y20.21 I-1.975 J-4.865
X63.245 Y20.101 I-0.564 J1.39
G1 X58.596
X58.578 Y20.093
X58.571 Y20.076
X58.578 Y20.058
X58.596 Y20.051
X63.246
G2 X63.811 Y19.94 I0 J-1.5
X63.808 Y10.21 I-1.975 J-4.865
X63.245 Y10.101 I-0.564 J1.39
G1 X58.596
X58.578 Y10.093
X58.571 Y10.076
X58.578 Y10.058
X58.596 Y10.051
X63.246
G2 X63.811 Y9.94 I0 J-1.5
X61.837 Y-0.174 I-1.975 J-4.865
G1 X60.096
Y-6.905
G2 X45.596 Y-21.405 I-14.5 J0
G1 X-0.102
G2 X-14.602 Y-6.905 I0 J14.5
G1 Y-5.251
X-17.999 Y-5.252
G2 X-19.972 Y4.864 I-0.001 J5.25
X-19.408 Y4.974 I0.563 J-1.39
G1 X-13.102
X-13.084 Y4.981
X-13.077 Y4.999
X-13.084 Y5.016
X-13.102 Y5.024
X-19.411
G2 X-19.975 Y5.134 I0 J1.5
X-19.972 Y14.864 I1.975 J4.864
X-19.408 Y14.974 I0.563 J-1.39
G1 X-13.102
X-13.084 Y14.981
X-13.077 Y14.999
Z-15.6 F300
X-13.084 Y15.016 F1000
X-13.102 Y15.024
X-19.411
G2 X-19.975 Y15.134 I0 J1.5
X-19.972 Y24.864 I1.975 J4.864
X-19.408 Y24.974 I0.563 J-1.39
G1 X-13.102
X-13.084 Y24.981
X-13.077 Y24.999
X-13.084 Y25.016
X-13.102 Y25.024
X-19.411
G2 X-19.975 Y25.134 I0 J1.5
X-19.516 Y35.025 I1.975 J4.864
X-19.083 Y35.089 I0.433 J-1.436
G1 X-13.064
X-13.046 Y35.096
X-13.039 Y35.114
X-13.046 Y35.131
X-13.064 Y35.139
X-19.666
G2 X-20.332 Y35.295 I0 J1.5
X-18.001 Y45.248 I2.332 J4.704
G1 X-10.768 Y45.249
G2 X3.898 Y52.473 I14.667 J-11.276
G1 X45.596
G2 X59.904 Y40.326 I0 J-14.5
G1 X61.836
G2 X63.808 Y30.21 I0 J-5.25
X63.245 Y30.101 I-0.564 J1.39
G1 X58.596
X58.578 Y30.093
X58.571 Y30.076
X58.578 Y30.058
X58.596 Y30.051
X63.246
G2 X63.811 Y29.94 I0 J-1.5
X63.808 Y20.21 I-1.975 J-4.865
X63.245 Y20.101 I-0.564 J1.39
G1 X58.596
X58.578 Y20.093
X58.571 Y20.076
X58.578 Y20.058
X58.596 Y20.051
X63.246
G2 X63.811 Y19.94 I0 J-1.5
X63.808 Y10.21 I-1.975 J-4.865
X63.245 Y10.101 I-0.564 J1.39
G1 X58.596
X58.578 Y10.093
X58.571 Y10.076
X58.578 Y10.058
X58.596 Y10.051
X63.246
G2 X63.811 Y9.94 I0 J-1.5
X61.837 Y-0.174 I-1.975 J-4.865
G1 X60.096
Y-6.905
G2 X45.596 Y-21.405 I-14.5 J0
G1 X-0.102
G2 X-14.602 Y-6.905 I0 J14.5
G1 Y-5.251
X-17.999 Y-5.252
G2 X-19.972 Y4.864 I-0.001 J5.25
X-19.408 Y4.974 I0.563 J-1.39
G1 X-13.102
X-13.084 Y4.981
X-13.077 Y4.999
X-13.084 Y5.016
X-13.102 Y5.024
X-19.411
G2 X-19.975 Y5.134 I0 J1.5
X-19.972 Y14.864 I1.975 J4.864
X-19.408 Y14.974 I0.563 J-1.39
G1 X-13.102
X-13.084 Y14.981
X-13.077 Y14.999
Z-15.9 F300
X-13.084 Y15.016 F1000
X-13.102 Y15.024
X-19.411
G2 X-19.975 Y15.134 I0 J1.5
X-19.972 Y24.864 I1.975 J4.864
X-19.408 Y24.974 I0.563 J-1.39
G1 X-13.102
X-13.084 Y24.981
X-13.077 Y24.999
X-13.084 Y25.016
X-13.102 Y25.024
X-19.411
G2 X-19.975 Y25.134 I0 J1.5
X-19.516 Y35.025 I1.975 J4.864
X-19.083 Y35.089 I0.433 J-1.436
G1 X-13.064
X-13.046 Y35.096
X-13.039 Y35.114
X-13.046 Y35.131
X-13.064 Y35.139
X-19.666
G2 X-20.332 Y35.295 I0 J1.5
X-18.001 Y45.248 I2.332 J4.704
G1 X-10.768 Y45.249
G2 X3.898 Y52.473 I14.667 J-11.276
G1 X45.596
G2 X59.904 Y40.326 I0 J-14.5
G1 X61.836
G2 X63.808 Y30.21 I0 J-5.25
X63.245 Y30.101 I-0.564 J1.39
G1 X58.596
X58.578 Y30.093
X58.571 Y30.076
X58.578 Y30.058
X58.596 Y30.051
X63.246
G2 X63.811 Y29.94 I0 J-1.5
X63.808 Y20.21 I-1.975 J-4.865
X63.245 Y20.101 I-0.564 J1.39
G1 X58.596
X58.578 Y20.093
X58.571 Y20.076
X58.578 Y20.058
X58.596 Y20.051
X63.246
G2 X63.811 Y19.94 I0 J-1.5
X63.808 Y10.21 I-1.975 J-4.865
X63.245 Y10.101 I-0.564 J1.39
G1 X58.596
X58.578 Y10.093
X58.571 Y10.076
X58.578 Y10.058
X58.596 Y10.051
X63.246
G2 X63.811 Y9.94 I0 J-1.5
X61.837 Y-0.174 I-1.975 J-4.865
G1 X60.096
Y-6.905
G2 X45.596 Y-21.405 I-14.5 J0
G1 X-0.102
G2 X-14.602 Y-6.905 I0 J14.5
G1 Y-5.251
X-17.999 Y-5.252
G2 X-19.972 Y4.864 I-0.001 J5.25
X-19.408 Y4.974 I0.563 J-1.39
G1 X-13.102
X-13.084 Y4.981
X-13.077 Y4.999
X-13.084 Y5.016
X-13.102 Y5.024
X-19.411
G2 X-19.975 Y5.134 I0 J1.5
X-19.972 Y14.864 I1.975 J4.864
X-19.408 Y14.974 I0.563 J-1.39
G1 X-13.102
X-13.084 Y14.981
X-13.077 Y14.999
Z-16.2 F300
X-13.084 Y15.016 F1000
X-13.102 Y15.024
X-19.411
G2 X-19.975 Y15.134 I0 J1.5
X-19.972 Y24.864 I1.975 J4.864
X-19.408 Y24.974 I0.563 J-1.39
G1 X-13.102
X-13.084 Y24.981
X-13.077 Y24.999
X-13.084 Y25.016
X-13.102 Y25.024
X-19.411
G2 X-19.975 Y25.134 I0 J1.5
X-19.516 Y35.025 I1.975 J4.864
X-19.083 Y35.089 I0.433 J-1.436
G1 X-13.064
X-13.046 Y35.096
X-13.039 Y35.114
X-13.046 Y35.131
X-13.064 Y35.139
X-19.666
G2 X-20.332 Y35.295 I0 J1.5
X-18.001 Y45.248 I2.332 J4.704
G1 X-10.768 Y45.249
G2 X3.898 Y52.473 I14.667 J-11.276
G1 X45.596
G2 X59.904 Y40.326 I0 J-14.5
G1 X61.836
G2 X63.808 Y30.21 I0 J-5.25
X63.245 Y30.101 I-0.564 J1.39
G1 X58.596
X58.578 Y30.093
X58.571 Y30.076
X58.578 Y30.058
X58.596 Y30.051
X63.246
G2 X63.811 Y29.94 I0 J-1.5
X63.808 Y20.21 I-1.975 J-4.865
X63.245 Y20.101 I-0.564 J1.39
G1 X58.596
X58.578 Y20.093
X58.571 Y20.076
X58.578 Y20.058
X58.596 Y20.051
X63.246
G2 X63.811 Y19.94 I0 J-1.5
X63.808 Y10.21 I-1.975 J-4.865
X63.245 Y10.101 I-0.564 J1.39
G1 X58.596
X58.578 Y10.093
X58.571 Y10.076
X58.578 Y10.058
X58.596 Y10.051
X63.246
G2 X63.811 Y9.94 I0 J-1.5
X61.837 Y-0.174 I-1.975 J-4.865
G1 X60.096
Y-6.905
G2 X45.596 Y-21.405 I-14.5 J0
G1 X-0.102
G2 X-14.602 Y-6.905 I0 J14.5
G1 Y-5.251
X-17.999 Y-5.252
G2 X-19.972 Y4.864 I-0.001 J5.25
X-19.408 Y4.974 I0.563 J-1.39
G1 X-13.102
X-13.084 Y4.981
X-13.077 Y4.999
X-13.084 Y5.016
X-13.102 Y5.024
X-19.411
G2 X-19.975 Y5.134 I0 J1.5
X-19.972 Y14.864 I1.975 J4.864
X-19.408 Y14.974 I0.563 J-1.39
G1 X-13.102
X-13.084 Y14.981
X-13.077 Y14.999
Z-16.5 F300
X-13.084 Y15.016 F1000
X-13.102 Y15.024
X-19.411
G2 X-19.975 Y15.134 I0 J1.5
X-19.972 Y24.864 I1.975 J4.864
X-19.408 Y24.974 I0.563 J-1.39
G1 X-13.102
X-13.084 Y24.981
X-13.077 Y24.999
X-13.084 Y25.016
X-13.102 Y25.024
X-19.411
G2 X-19.975 Y25.134 I0 J1.5
X-19.516 Y35.025 I1.975 J4.864
X-19.083 Y35.089 I0.433 J-1.436
G1 X-13.064
X-13.046 Y35.096
X-13.039 Y35.114
X-13.046 Y35.131
X-13.064 Y35.139
X-19.666
G2 X-20.332 Y35.295 I0 J1.5
X-18.001 Y45.248 I2.332 J4.704
G1 X-10.768 Y45.249
G2 X3.898 Y52.473 I14.667 J-11.276
G1 X45.596
G2 X59.904 Y40.326 I0 J-14.5
G1 X61.836
G2 X63.808 Y30.21 I0 J-5.25
X63.245 Y30.101 I-0.564 J1.39
G1 X58.596
X58.578 Y30.093
X58.571 Y30.076
X58.578 Y30.058
X58.596 Y30.051
X63.246
G2 X63.811 Y29.94 I0 J-1.5
X63.808 Y20.21 I-1.975 J-4.865
X63.245 Y20.101 I-0.564 J1.39
G1 X58.596
X58.578 Y20.093
X58.571 Y20.076
X58.578 Y20.058
X58.596 Y20.051
X63.246
G2 X63.811 Y19.94 I0 J-1.5
X63.808 Y10.21 I-1.975 J-4.865
X63.245 Y10.101 I-0.564 J1.39
G1 X58.596
X58.578 Y10.093
X58.571 Y10.076
X58.578 Y10.058
X58.596 Y10.051
X63.246
G2 X63.811 Y9.94 I0 J-1.5
X61.837 Y-0.174 I-1.975 J-4.865
G1 X60.096
Y-6.905
G2 X45.596 Y-21.405 I-14.5 J0
G1 X-0.102
G2 X-14.602 Y-6.905 I0 J14.5
G1 Y-5.251
X-17.999 Y-5.252
G2 X-19.972 Y4.864 I-0.001 J5.25
X-19.408 Y4.974 I0.563 J-1.39
G1 X-13.102
X-13.084 Y4.981
X-13.077 Y4.999
X-13.084 Y5.016
X-13.102 Y5.024
X-19.411
G2 X-19.975 Y5.134 I0 J1.5
X-19.972 Y14.864 I1.975 J4.864
X-19.408 Y14.974 I0.563 J-1.39
G1 X-13.102
X-13.084 Y14.981
X-13.077 Y14.999
Z-16.8 F300
X-13.084 Y15.016 F1000
X-13.102 Y15.024
X-19.411
G2 X-19.975 Y15.134 I0 J1.5
X-19.972 Y24.864 I1.975 J4.864
X-19.408 Y24.974 I0.563 J-1.39
G1 X-13.102
X-13.084 Y24.981
X-13.077 Y24.999
X-13.084 Y25.016
X-13.102 Y25.024
X-19.411
G2 X-19.975 Y25.134 I0 J1.5
X-19.516 Y35.025 I1.975 J4.864
X-19.083 Y35.089 I0.433 J-1.436
G1 X-13.064
X-13.046 Y35.096
X-13.039 Y35.114
X-13.046 Y35.131
X-13.064 Y35.139
X-19.666
G2 X-20.332 Y35.295 I0 J1.5
X-18.001 Y45.248 I2.332 J4.704
G1 X-10.768 Y45.249
G2 X-6.563 Y49.232 I14.667 J-11.276
G1 Z-16.5
G2 X-2.569 Y51.306 I10.461 J-15.258
G1 Z-16.8 F300
G2 X3.898 Y52.473 I6.468 J-17.333 F1000
G1 X12.073
Z-16.5
X16.573
Z-16.8 F300
X32.921 F1000
Z-16.5
X37.421
Z-16.8 F300
X45.596 F1000
G2 X53.745 Y49.967 I0 J-14.5
G1 Z-16.5
G2 X57.029 Y46.891 I-8.149 J-11.994
G1 Z-16.8 F300
G2 X59.904 Y40.326 I-11.434 J-8.918 F1000
G1 X61.836
G2 X63.808 Y30.21 I0 J-5.25
X63.245 Y30.101 I-0.564 J1.39
G1 X58.596
X58.578 Y30.093
X58.571 Y30.076
X58.578 Y30.058
X58.596 Y30.051
X63.246
G2 X63.811 Y29.94 I0 J-1.5
X63.808 Y20.21 I-1.975 J-4.865
X63.245 Y20.101 I-0.564 J1.39
G1 X58.596
X58.578 Y20.093
X58.571 Y20.076
X58.578 Y20.058
X58.596 Y20.051
X63.246
G2 X63.811 Y19.94 I0 J-1.5
X63.808 Y10.21 I-1.975 J-4.865
X63.245 Y10.101 I-0.564 J1.39
G1 X58.596
X58.578 Y10.093
X58.571 Y10.076
X58.578 Y10.058
X58.596 Y10.051
X63.246
G2 X63.811 Y9.94 I0 J-1.5
X61.837 Y-0.174 I-1.975 J-4.865
G1 X60.096
Y-6.905
G2 X57.316 Y-15.442 I-14.5 J0
G1 Z-16.5
G2 X54.134 Y-18.624 I-11.72 J8.538
G1 Z-16.8 F300
G2 X45.596 Y-21.405 I-8.538 J11.72 F1000
G1 X40.229
Z-16.5
X35.729
Z-16.8 F300
X24.997 F1000
Z-16.5
X20.497
Z-16.8 F300
X9.764 F1000
Z-16.5
X5.265
Z-16.8 F300
X-0.102 F1000
G2 X-8.64 Y-18.624 I0 J14.5
G1 Z-16.5
G2 X-11.822 Y-15.442 I8.538 J11.72
G1 Z-16.8 F300
G2 X-14.602 Y-6.905 I11.72 J8.538 F1000
G1 Y-5.251
X-17.999 Y-5.252
G2 X-19.972 Y4.864 I-0.001 J5.25
X-19.408 Y4.974 I0.563 J-1.39
G1 X-13.102
X-13.084 Y4.981
X-13.077 Y4.999
X-13.084 Y5.016
X-13.102 Y5.024
X-19.411
G2 X-19.975 Y5.134 I0 J1.5
X-19.972 Y14.864 I1.975 J4.864
X-19.408 Y14.974 I0.563 J-1.39
G1 X-13.102
X-13.084 Y14.981
X-13.077 Y14.999
Z-17.1 F300
X-13.084 Y15.016 F1000
X-13.102 Y15.024
X-19.411
G2 X-19.975 Y15.134 I0 J1.5
X-19.972 Y24.864 I1.975 J4.864
X-19.408 Y24.974 I0.563 J-1.39
G1 X-13.102
X-13.084 Y24.981
X-13.077 Y24.999
X-13.084 Y25.016
X-13.102 Y25.024
X-19.411
G2 X-19.975 Y25.134 I0 J1.5
X-19.516 Y35.025 I1.975 J4.864
X-19.083 Y35.089 I0.433 J-1.436
G1 X-13.064
X-13.046 Y35.096
X-13.039 Y35.114
X-13.046 Y35.131
X-13.064 Y35.139
X-19.666
G2 X-20.332 Y35.295 I0 J1.5
X-18.001 Y45.248 I2.332 J4.704
G1 X-10.768 Y45.249
G2 X-6.563 Y49.232 I14.667 J-11.276
G1 Z-16.5
G2 X-2.569 Y51.306 I10.461 J-15.258
G1 Z-17.1 F300
G2 X3.898 Y52.473 I6.468 J-17.333 F1000
G1 X12.073
Z-16.5
X16.573
Z-17.1 F300
X32.921 F1000
Z-16.5
X37.421
Z-17.1 F300
X45.596 F1000
G2 X53.745 Y49.967 I0 J-14.5
G1 Z-16.5
G2 X57.029 Y46.891 I-8.149 J-11.994
G1 Z-17.1 F300
G2 X59.904 Y40.326 I-11.434 J-8.918 F1000
G1 X61.836
G2 X63.808 Y30.21 I0 J-5.25
X63.245 Y30.101 I-0.564 J1.39
G1 X58.596
X58.578 Y30.093
X58.571 Y30.076
X58.578 Y30.058
X58.596 Y30.051
X63.246
G2 X63.811 Y29.94 I0 J-1.5
X63.808 Y20.21 I-1.975 J-4.865
X63.245 Y20.101 I-0.564 J1.39
G1 X58.596
X58.578 Y20.093
X58.571 Y20.076
X58.578 Y20.058
X58.596 Y20.051
X63.246
G2 X63.811 Y19.94 I0 J-1.5
X63.808 Y10.21 I-1.975 J-4.865
X63.245 Y10.101 I-0.564 J1.39
G1 X58.596
X58.578 Y10.093
X58.571 Y10.076
X58.578 Y10.058
X58.596 Y10.051
X63.246
G2 X63.811 Y9.94 I0 J-1.5
X61.837 Y-0.174 I-1.975 J-4.865
G1 X60.096
Y-6.905
G2 X57.316 Y-15.442 I-14.5 J0
G1 Z-16.5
G2 X54.134 Y-18.624 I-11.72 J8.538
G1 Z-17.1 F300
G2 X45.596 Y-21.405 I-8.538 J11.72 F1000
G1 X40.229
Z-16.5
X35.729
Z-17.1 F300
X24.997 F1000
Z-16.5
X20.497
Z-17.1 F300
X9.764 F1000
Z-16.5
X5.265
Z-17.1 F300
X-0.102 F1000
G2 X-8.64 Y-18.624 I0 J14.5
G1 Z-16.5
G2 X-11.822 Y-15.442 I8.538 J11.72
G1 Z-17.1 F300
G2 X-14.602 Y-6.905 I11.72 J8.538 F1000
G1 Y-5.251
X-17.999 Y-5.252
G2 X-19.972 Y4.864 I-0.001 J5.25
X-19.408 Y4.974 I0.563 J-1.39
G1 X-13.102
X-13.084 Y4.981
X-13.077 Y4.999
X-13.084 Y5.016
X-13.102 Y5.024
X-19.411
G2 X-19.975 Y5.134 I0 J1.5
X-19.972 Y14.864 I1.975 J4.864
X-19.408 Y14.974 I0.563 J-1.39
G1 X-13.102
X-13.084 Y14.981
X-13.077 Y14.999
Z-17.4 F300
X-13.084 Y15.016 F1000
X-13.102 Y15.024
X-19.411
G2 X-19.975 Y15.134 I0 J1.5
X-19.972 Y24.864 I1.975 J4.864
X-19.408 Y24.974 I0.563 J-1.39
G1 X-13.102
X-13.084 Y24.981
X-13.077 Y24.999
X-13.084 Y25.016
X-13.102 Y25.024
X-19.411
G2 X-19.975 Y25.134 I0 J1.5
X-19.516 Y35.025 I1.975 J4.864
X-19.083 Y35.089 I0.433 J-1.436
G1 X-13.064
X-13.046 Y35.096
X-13.039 Y35.114
X-13.046 Y35.131
X-13.064 Y35.139
X-19.666
G2 X-20.332 Y35.295 I0 J1.5
X-18.001 Y45.248 I2.332 J4.704
G1 X-10.768 Y45.249
G2 X-6.563 Y49.232 I14.667 J-11.276
G1 Z-16.5
G2 X-2.569 Y51.306 I10.461 J-15.258
G1 Z-17.4 F300
G2 X3.898 Y52.473 I6.468 J-17.333 F1000
G1 X12.073
Z-16.5
X16.573
Z-17.4 F300
X32.921 F1000
Z-16.5
X37.421
Z-17.4 F300
X45.596 F1000
G2 X53.745 Y49.967 I0 J-14.5
G1 Z-16.5
G2 X57.029 Y46.891 I-8.149 J-11.994
G1 Z-17.4 F300
G2 X59.904 Y40.326 I-11.434 J-8.918 F1000
G1 X61.836
G2 X63.808 Y30.21 I0 J-5.25
X63.245 Y30.101 I-0.564 J1.39
G1 X58.596
X58.578 Y30.093
X58.571 Y30.076
X58.578 Y30.058
X58.596 Y30.051
X63.246
G2 X63.811 Y29.94 I0 J-1.5
X63.808 Y20.21 I-1.975 J-4.865
X63.245 Y20.101 I-0.564 J1.39
G1 X58.596
X58.578 Y20.093
X58.571 Y20.076
X58.578 Y20.058
X58.596 Y20.051
X63.246
G2 X63.811 Y19.94 I0 J-1.5
X63.808 Y10.21 I-1.975 J-4.865
X63.245 Y10.101 I-0.564 J1.39
G1 X58.596
X58.578 Y10.093
X58.571 Y10.076
X58.578 Y10.058
X58.596 Y10.051
X63.246
G2 X63.811 Y9.94 I0 J-1.5
X61.837 Y-0.174 I-1.975 J-4.865
G1 X60.096
Y-6.905
G2 X57.316 Y-15.442 I-14.5 J0
G1 Z-16.5
G2 X54.134 Y-18.624 I-11.72 J8.538
G1 Z-17.4 F300
G2 X45.596 Y-21.405 I-8.538 J11.72 F1000
G1 X40.229
Z-16.5
X35.729
Z-17.4 F300
X24.997 F1000
Z-16.5
X20.497
Z-17.4 F300
X9.764 F1000
Z-16.5
X5.265
Z-17.4 F300
X-0.102 F1000
G2 X-8.64 Y-18.624 I0 J14.5
G1 Z-16.5
G2 X-11.822 Y-15.442 I8.538 J11.72
G1 Z-17.4 F300
G2 X-14.602 Y-6.905 I11.72 J8.538 F1000
G1 Y-5.251
X-17.999 Y-5.252
G2 X-19.972 Y4.864 I-0.001 J5.25
X-19.408 Y4.974 I0.563 J-1.39
G1 X-13.102
X-13.084 Y4.981
X-13.077 Y4.999
X-13.084 Y5.016
X-13.102 Y5.024
X-19.411
G2 X-19.975 Y5.134 I0 J1.5
X-19.972 Y14.864 I1.975 J4.864
X-19.408 Y14.974 I0.563 J-1.39
G1 X-13.102
X-13.084 Y14.981
X-13.077 Y14.999
Z-17.7 F300
X-13.084 Y15.016 F1000
X-13.102 Y15.024
X-19.411
G2 X-19.975 Y15.134 I0 J1.5
X-19.972 Y24.864 I1.975 J4.864
X-19.408 Y24.974 I0.563 J-1.39
G1 X-13.102
X-13.084 Y24.981
X-13.077 Y24.999
X-13.084 Y25.016
X-13.102 Y25.024
X-19.411
G2 X-19.975 Y25.134 I0 J1.5
X-19.516 Y35.025 I1.975 J4.864
X-19.083 Y35.089 I0.433 J-1.436
G1 X-13.064
X-13.046 Y35.096
X-13.039 Y35.114
X-13.046 Y35.131
X-13.064 Y35.139
X-19.666
G2 X-20.332 Y35.295 I0 J1.5
X-18.001 Y45.248 I2.332 J4.704
G1 X-10.768 Y45.249
G2 X-6.563 Y49.232 I14.667 J-11.276
G1 Z-16.5
G2 X-2.569 Y51.306 I10.461 J-15.258
G1 Z-17.7 F300
G2 X3.898 Y52.473 I6.468 J-17.333 F1000
G1 X12.073
Z-16.5
X16.573
Z-17.7 F300
X32.921 F1000
Z-16.5
X37.421
Z-17.7 F300
X45.596 F1000
G2 X53.745 Y49.967 I0 J-14.5
G1 Z-16.5
G2 X57.029 Y46.891 I-8.149 J-11.994
G1 Z-17.7 F300
G2 X59.904 Y40.326 I-11.434 J-8.918 F1000
G1 X61.836
G2 X63.808 Y30.21 I0 J-5.25
X63.245 Y30.101 I-0.564 J1.39
G1 X58.596
X58.578 Y30.093
X58.571 Y30.076
X58.578 Y30.058
X58.596 Y30.051
X63.246
G2 X63.811 Y29.94 I0 J-1.5
X63.808 Y20.21 I-1.975 J-4.865
X63.245 Y20.101 I-0.564 J1.39
G1 X58.596
X58.578 Y20.093
X58.571 Y20.076
X58.578 Y20.058
X58.596 Y20.051
X63.246
G2 X63.811 Y19.94 I0 J-1.5
X63.808 Y10.21 I-1.975 J-4.865
X63.245 Y10.101 I-0.564 J1.39
G1 X58.596
X58.578 Y10.093
X58.571 Y10.076
X58.578 Y10.058
X58.596 Y10.051
X63.246
G2 X63.811 Y9.94 I0 J-1.5
X61.837 Y-0.174 I-1.975 J-4.865
G1 X60.096
Y-6.905
G2 X57.316 Y-15.442 I-14.5 J0
G1 Z-16.5
G2 X54.134 Y-18.624 I-11.72 J8.538
G1 Z-17.7 F300
G2 X45.596 Y-21.405 I-8.538 J11.72 F1000
G1 X40.229
Z-16.5
X35.729
Z-17.7 F300
X24.997 F1000
Z-16.5
X20.497
Z-17.7 F300
X9.764 F1000
Z-16.5
X5.265
Z-17.7 F300
X-0.102 F1000
G2 X-8.64 Y-18.624 I0 J14.5
G1 Z-16.5
G2 X-11.822 Y-15.442 I8.538 J11.72
G1 Z-17.7 F300
G2 X-14.602 Y-6.905 I11.72 J8.538 F1000
G1 Y-5.251
X-17.999 Y-5.252
G2 X-19.972 Y4.864 I-0.001 J5.25
X-19.408 Y4.974 I0.563 J-1.39
G1 X-13.102
X-13.084 Y4.981
X-13.077 Y4.999
X-13.084 Y5.016
X-13.102 Y5.024
X-19.411
G2 X-19.975 Y5.134 I0 J1.5
X-19.972 Y14.864 I1.975 J4.864
X-19.408 Y14.974 I0.563 J-1.39
G1 X-13.102
X-13.084 Y14.981
X-13.077 Y14.999
Z-18 F300
X-13.084 Y15.016 F1000
X-13.102 Y15.024
X-19.411
G2 X-19.975 Y15.134 I0 J1.5
X-19.972 Y24.864 I1.975 J4.864
X-19.408 Y24.974 I0.563 J-1.39
G1 X-13.102
X-13.084 Y24.981
X-13.077 Y24.999
X-13.084 Y25.016
X-13.102 Y25.024
X-19.411
G2 X-19.975 Y25.134 I0 J1.5
X-19.516 Y35.025 I1.975 J4.864
X-19.083 Y35.089 I0.433 J-1.436
G1 X-13.064
X-13.046 Y35.096
X-13.039 Y35.114
X-13.046 Y35.131
X-13.064 Y35.139
X-19.666
G2 X-20.332 Y35.295 I0 J1.5
X-18.001 Y45.248 I2.332 J4.704
G1 X-10.768 Y45.249
G2 X-6.563 Y49.232 I14.667 J-11.276
G1 Z-16.5
G2 X-2.569 Y51.306 I10.461 J-15.258
G1 Z-18 F300
G2 X3.898 Y52.473 I6.468 J-17.333 F1000
G1 X12.073
Z-16.5
X16.573
Z-18 F300
X32.921 F1000
Z-16.5
X37.421
Z-18 F300
X45.596 F1000
G2 X53.745 Y49.967 I0 J-14.5
G1 Z-16.5
G2 X57.029 Y46.891 I-8.149 J-11.994
G1 Z-18 F300
G2 X59.904 Y40.326 I-11.434 J-8.918 F1000
G1 X61.836
G2 X63.808 Y30.21 I0 J-5.25
X63.245 Y30.101 I-0.564 J1.39
G1 X58.596
X58.578 Y30.093
X58.571 Y30.076
X58.578 Y30.058
X58.596 Y30.051
X63.246
G2 X63.811 Y29.94 I0 J-1.5
X63.808 Y20.21 I-1.975 J-4.865
X63.245 Y20.101 I-0.564 J1.39
G1 X58.596
X58.578 Y20.093
X58.571 Y20.076
X58.578 Y20.058
X58.596 Y20.051
X63.246
G2 X63.811 Y19.94 I0 J-1.5
X63.808 Y10.21 I-1.975 J-4.865
X63.245 Y10.101 I-0.564 J1.39
G1 X58.596
X58.578 Y10.093
X58.571 Y10.076
X58.578 Y10.058
X58.596 Y10.051
X63.246
G2 X63.811 Y9.94 I0 J-1.5
X61.837 Y-0.174 I-1.975 J-4.865
G1 X60.096
Y-6.905
G2 X57.316 Y-15.442 I-14.5 J0
G1 Z-16.5
G2 X54.134 Y-18.624 I-11.72 J8.538
G1 Z-18 F300
G2 X45.596 Y-21.405 I-8.538 J11.72 F1000
G1 X40.229
Z-16.5
X35.729
Z-18 F300
X24.997 F1000
Z-16.5
X20.497
Z-18 F300
X9.764 F1000
Z-16.5
X5.265
Z-18 F300
X-0.102 F1000
G2 X-8.64 Y-18.624 I0 J14.5
G1 Z-16.5
G2 X-11.822 Y-15.442 I8.538 J11.72
G1 Z-18 F300
G2 X-14.602 Y-6.905 I11.72 J8.538 F1000
G1 Y-5.251
X-17.999 Y-5.252
G2 X-19.972 Y4.864 I-0.001 J5.25
X-19.408 Y4.974 I0.563 J-1.39
G1 X-13.102
X-13.084 Y4.981
X-13.077 Y4.999
X-13.084 Y5.016
X-13.102 Y5.024
X-19.411
G2 X-19.975 Y5.134 I0 J1.5
X-19.972 Y14.864 I1.975 J4.864
X-19.408 Y14.974 I0.563 J-1.39
G1 X-13.102
X-13.084 Y14.981
X-13.077 Y14.999
G0 Z6
M9
M5
M30
