(1001)
(T1  D=3 CR=0 - ZMIN=-8.7 - flat end mill)
G90 G94
G17
G21
(When using Fusion 360 for Personal Use, the feedrate of rapid moves is reduced to match the feedrate of cutting moves, which can increase machining time. Unrestricted rapid moves are available with a Fusion 360 Subscription.)

(2D Contour1)
T1
S500 M3
G54
M8
G0 X41.01 Y-23.009
Z6
G1 Z2 F1000
Z1.3 F300
Z-0.3
G2 X38.528 Y-21.405 I0.455 J3.425 F1000
G1 X34.739
G2 X31.577 Y-23.405 I-3.162 J1.5
X28.414 Y-21.405 I0 J3.5
G1 X24.71
G2 X21.827 Y-23.155 I-2.883 J1.5
X18.943 Y-21.405 I0 J3.25
G1 X15.207
G2 X9.489 Y-21.405 I-2.859 J1.5
G1 X4.956
X4.847 Y-21.401
G2 X-8.602 Y-6.903 I1.051 J14.462
G1 Y-5.217
G2 X-10.01 Y4.848 I0.602 J5.215
X-9.443 Y4.963 I0.574 J-1.386
G1 X-7.109 Y4.974
X-7.102
X-7.087 Y4.978
X-7.08 Y4.987
X-7.077 Y4.999
X-7.084 Y5.016
X-7.102 Y5.024
X-7.108
X-9.442 Y5.034
G2 X-10.01 Y5.148 I0.007 J1.5
X-10.007 Y14.85 I2.01 J4.85
X-9.44 Y14.964 I0.573 J-1.386
G1 X-7.108 Y14.974
X-7.102
X-7.087 Y14.978
X-7.08 Y14.987
X-7.077 Y14.999
X-7.084 Y15.016
X-7.102 Y15.024
X-7.107
X-9.438 Y15.033
G2 X-10.005 Y15.146 I0.006 J1.5
X-10.002 Y24.852 I2.005 J4.852
X-9.436 Y24.965 I0.572 J-1.387
G1 X-7.107 Y24.974
X-7.102
X-7.087 Y24.978
X-7.08 Y24.987
X-7.077 Y24.999
X-7.084 Y25.016
X-7.102 Y25.024
X-7.107
X-9.434 Y25.031
G2 X-10.001 Y25.144 I0.005 J1.5
X-9.547 Y35.015 I2.001 J4.854
X-9.11 Y35.082 I0.442 J-1.433
G1 X-7.068 Y35.089
X-7.063
X-7.052 Y35.091
X-7.043 Y35.1
X-7.039 Y35.112
X-7.041 Y35.125
X-7.05 Y35.135
X-7.063 Y35.139
X-7.067
X-9.683 Y35.145
G2 X-10.351 Y35.304 I0.004 J1.5
X-8.001 Y45.248 I2.351 J4.694
G1 X-4.77 Y45.249
G2 X10.835 Y52.473 I14.684 J-11.253
G1 X38.596
G2 X52.922 Y40.212 I0 J-14.5
X53.82 Y30.215 I-1.086 J-5.137
X53.257 Y30.104 I-0.567 J1.389
G1 X51.599 Y30.101
X51.596
X51.578 Y30.093
X51.571 Y30.076
X51.578 Y30.058
X51.596 Y30.051
X51.6 Y30.05
X53.263 Y30.046
G2 X53.827 Y29.934 I-0.004 J-1.5
X53.825 Y20.217 I-1.991 J-4.858
X53.261 Y20.105 I-0.568 J1.388
G1 X51.6 Y20.101
X51.596
X51.592 Y20.1
X51.581 Y20.092
X51.574 Y20.084
X51.571 Y20.074
X51.579 Y20.057
X51.596 Y20.051
X51.602 Y20.05
X53.269 Y20.044
G2 X53.834 Y19.931 I-0.006 J-1.5
X53.832 Y10.22 I-1.998 J-4.855
X53.268 Y10.107 I-0.57 J1.387
G1 X53.096
Y10.042
X53.277 Y10.041
G2 X53.842 Y9.927 I-0.008 J-1.5
X53.096 Y-0.021 I-2.006 J-4.852
G1 Y-6.905
G2 X44.899 Y-19.963 I-14.5 J0
X42.228 Y-22.954 I-3.434 J0.379
X41.01 Y-23.009 I-0.763 J3.37
G1 Z-0.6 F300
G2 X38.528 Y-21.405 I0.455 J3.425 F1000
G1 X34.739
G2 X31.577 Y-23.405 I-3.162 J1.5
X28.414 Y-21.405 I0 J3.5
G1 X24.71
G2 X21.827 Y-23.155 I-2.883 J1.5
X18.943 Y-21.405 I0 J3.25
G1 X15.207
G2 X9.489 Y-21.405 I-2.859 J1.5
G1 X4.956
X4.847 Y-21.401
G2 X-8.602 Y-6.903 I1.051 J14.462
G1 Y-5.217
G2 X-10.01 Y4.848 I0.602 J5.215
X-9.443 Y4.963 I0.574 J-1.386
G1 X-7.109 Y4.974
X-7.102
X-7.087 Y4.978
X-7.08 Y4.987
X-7.077 Y4.999
X-7.084 Y5.016
X-7.102 Y5.024
X-7.108
X-9.442 Y5.034
G2 X-10.01 Y5.148 I0.007 J1.5
X-10.007 Y14.85 I2.01 J4.85
X-9.44 Y14.964 I0.573 J-1.386
G1 X-7.108 Y14.974
X-7.102
X-7.087 Y14.978
X-7.08 Y14.987
X-7.077 Y14.999
X-7.084 Y15.016
X-7.102 Y15.024
X-7.107
X-9.438 Y15.033
G2 X-10.005 Y15.146 I0.006 J1.5
X-10.002 Y24.852 I2.005 J4.852
X-9.436 Y24.965 I0.572 J-1.387
G1 X-7.107 Y24.974
X-7.102
X-7.087 Y24.978
X-7.08 Y24.987
X-7.077 Y24.999
X-7.084 Y25.016
X-7.102 Y25.024
X-7.107
X-9.434 Y25.031
G2 X-10.001 Y25.144 I0.005 J1.5
X-9.547 Y35.015 I2.001 J4.854
X-9.11 Y35.082 I0.442 J-1.433
G1 X-7.068 Y35.089
X-7.063
X-7.052 Y35.091
X-7.043 Y35.1
X-7.039 Y35.112
X-7.041 Y35.125
X-7.05 Y35.135
X-7.063 Y35.139
X-7.067
X-9.683 Y35.145
G2 X-10.351 Y35.304 I0.004 J1.5
X-8.001 Y45.248 I2.351 J4.694
G1 X-4.77 Y45.249
G2 X10.835 Y52.473 I14.684 J-11.253
G1 X38.596
G2 X52.922 Y40.212 I0 J-14.5
X53.82 Y30.215 I-1.086 J-5.137
X53.257 Y30.104 I-0.567 J1.389
G1 X51.599 Y30.101
X51.596
X51.578 Y30.093
X51.571 Y30.076
X51.578 Y30.058
X51.596 Y30.051
X51.6 Y30.05
X53.263 Y30.046
G2 X53.827 Y29.934 I-0.004 J-1.5
X53.825 Y20.217 I-1.991 J-4.858
X53.261 Y20.105 I-0.568 J1.388
G1 X51.6 Y20.101
X51.596
X51.592 Y20.1
X51.581 Y20.092
X51.574 Y20.084
X51.571 Y20.074
X51.579 Y20.057
X51.596 Y20.051
X51.602 Y20.05
X53.269 Y20.044
G2 X53.834 Y19.931 I-0.006 J-1.5
X53.832 Y10.22 I-1.998 J-4.855
X53.268 Y10.107 I-0.57 J1.387
G1 X53.096
Y10.042
X53.277 Y10.041
G2 X53.842 Y9.927 I-0.008 J-1.5
X53.096 Y-0.021 I-2.006 J-4.852
G1 Y-6.905
G2 X44.899 Y-19.963 I-14.5 J0
X42.228 Y-22.954 I-3.434 J0.379
X41.01 Y-23.009 I-0.763 J3.37
G1 Z-0.9 F300
G2 X38.528 Y-21.405 I0.455 J3.425 F1000
G1 X34.739
G2 X31.577 Y-23.405 I-3.162 J1.5
X28.414 Y-21.405 I0 J3.5
G1 X24.71
G2 X21.827 Y-23.155 I-2.883 J1.5
X18.943 Y-21.405 I0 J3.25
G1 X15.207
G2 X9.489 Y-21.405 I-2.859 J1.5
G1 X4.956
X4.847 Y-21.401
G2 X-8.602 Y-6.903 I1.051 J14.462
G1 Y-5.217
G2 X-10.01 Y4.848 I0.602 J5.215
X-9.443 Y4.963 I0.574 J-1.386
G1 X-7.109 Y4.974
X-7.102
X-7.087 Y4.978
X-7.08 Y4.987
X-7.077 Y4.999
X-7.084 Y5.016
X-7.102 Y5.024
X-7.108
X-9.442 Y5.034
G2 X-10.01 Y5.148 I0.007 J1.5
X-10.007 Y14.85 I2.01 J4.85
X-9.44 Y14.964 I0.573 J-1.386
G1 X-7.108 Y14.974
X-7.102
X-7.087 Y14.978
X-7.08 Y14.987
X-7.077 Y14.999
X-7.084 Y15.016
X-7.102 Y15.024
X-7.107
X-9.438 Y15.033
G2 X-10.005 Y15.146 I0.006 J1.5
X-10.002 Y24.852 I2.005 J4.852
X-9.436 Y24.965 I0.572 J-1.387
G1 X-7.107 Y24.974
X-7.102
X-7.087 Y24.978
X-7.08 Y24.987
X-7.077 Y24.999
X-7.084 Y25.016
X-7.102 Y25.024
X-7.107
X-9.434 Y25.031
G2 X-10.001 Y25.144 I0.005 J1.5
X-9.547 Y35.015 I2.001 J4.854
X-9.11 Y35.082 I0.442 J-1.433
G1 X-7.068 Y35.089
X-7.063
X-7.052 Y35.091
X-7.043 Y35.1
X-7.039 Y35.112
X-7.041 Y35.125
X-7.05 Y35.135
X-7.063 Y35.139
X-7.067
X-9.683 Y35.145
G2 X-10.351 Y35.304 I0.004 J1.5
X-8.001 Y45.248 I2.351 J4.694
G1 X-4.77 Y45.249
G2 X10.835 Y52.473 I14.684 J-11.253
G1 X38.596
G2 X52.922 Y40.212 I0 J-14.5
X53.82 Y30.215 I-1.086 J-5.137
X53.257 Y30.104 I-0.567 J1.389
G1 X51.599 Y30.101
X51.596
X51.578 Y30.093
X51.571 Y30.076
X51.578 Y30.058
X51.596 Y30.051
X51.6 Y30.05
X53.263 Y30.046
G2 X53.827 Y29.934 I-0.004 J-1.5
X53.825 Y20.217 I-1.991 J-4.858
X53.261 Y20.105 I-0.568 J1.388
G1 X51.6 Y20.101
X51.596
X51.592 Y20.1
X51.581 Y20.092
X51.574 Y20.084
X51.571 Y20.074
X51.579 Y20.057
X51.596 Y20.051
X51.602 Y20.05
X53.269 Y20.044
G2 X53.834 Y19.931 I-0.006 J-1.5
X53.832 Y10.22 I-1.998 J-4.855
X53.268 Y10.107 I-0.57 J1.387
G1 X53.096
Y10.042
X53.277 Y10.041
G2 X53.842 Y9.927 I-0.008 J-1.5
X53.096 Y-0.021 I-2.006 J-4.852
G1 Y-6.905
G2 X44.899 Y-19.963 I-14.5 J0
X42.228 Y-22.954 I-3.434 J0.379
X41.01 Y-23.009 I-0.763 J3.37
G1 Z-1.2 F300
G2 X38.528 Y-21.405 I0.455 J3.425 F1000
G1 X34.739
G2 X31.577 Y-23.405 I-3.162 J1.5
X28.414 Y-21.405 I0 J3.5
G1 X24.71
G2 X21.827 Y-23.155 I-2.883 J1.5
X18.943 Y-21.405 I0 J3.25
G1 X15.207
G2 X9.489 Y-21.405 I-2.859 J1.5
G1 X4.956
X4.847 Y-21.401
G2 X-8.602 Y-6.903 I1.051 J14.462
G1 Y-5.217
G2 X-10.01 Y4.848 I0.602 J5.215
X-9.443 Y4.963 I0.574 J-1.386
G1 X-7.109 Y4.974
X-7.102
X-7.087 Y4.978
X-7.08 Y4.987
X-7.077 Y4.999
X-7.084 Y5.016
X-7.102 Y5.024
X-7.108
X-9.442 Y5.034
G2 X-10.01 Y5.148 I0.007 J1.5
X-10.007 Y14.85 I2.01 J4.85
X-9.44 Y14.964 I0.573 J-1.386
G1 X-7.108 Y14.974
X-7.102
X-7.087 Y14.978
X-7.08 Y14.987
X-7.077 Y14.999
X-7.084 Y15.016
X-7.102 Y15.024
X-7.107
X-9.438 Y15.033
G2 X-10.005 Y15.146 I0.006 J1.5
X-10.002 Y24.852 I2.005 J4.852
X-9.436 Y24.965 I0.572 J-1.387
G1 X-7.107 Y24.974
X-7.102
X-7.087 Y24.978
X-7.08 Y24.987
X-7.077 Y24.999
X-7.084 Y25.016
X-7.102 Y25.024
X-7.107
X-9.434 Y25.031
G2 X-10.001 Y25.144 I0.005 J1.5
X-9.547 Y35.015 I2.001 J4.854
X-9.11 Y35.082 I0.442 J-1.433
G1 X-7.068 Y35.089
X-7.063
X-7.052 Y35.091
X-7.043 Y35.1
X-7.039 Y35.112
X-7.041 Y35.125
X-7.05 Y35.135
X-7.063 Y35.139
X-7.067
X-9.683 Y35.145
G2 X-10.351 Y35.304 I0.004 J1.5
X-8.001 Y45.248 I2.351 J4.694
G1 X-4.77 Y45.249
G2 X10.835 Y52.473 I14.684 J-11.253
G1 X38.596
G2 X52.922 Y40.212 I0 J-14.5
X53.82 Y30.215 I-1.086 J-5.137
X53.257 Y30.104 I-0.567 J1.389
G1 X51.599 Y30.101
X51.596
X51.578 Y30.093
X51.571 Y30.076
X51.578 Y30.058
X51.596 Y30.051
X51.6 Y30.05
X53.263 Y30.046
G2 X53.827 Y29.934 I-0.004 J-1.5
X53.825 Y20.217 I-1.991 J-4.858
X53.261 Y20.105 I-0.568 J1.388
G1 X51.6 Y20.101
X51.596
X51.592 Y20.1
X51.581 Y20.092
X51.574 Y20.084
X51.571 Y20.074
X51.579 Y20.057
X51.596 Y20.051
X51.602 Y20.05
X53.269 Y20.044
G2 X53.834 Y19.931 I-0.006 J-1.5
X53.832 Y10.22 I-1.998 J-4.855
X53.268 Y10.107 I-0.57 J1.387
G1 X53.096
Y10.042
X53.277 Y10.041
G2 X53.842 Y9.927 I-0.008 J-1.5
X53.096 Y-0.021 I-2.006 J-4.852
G1 Y-6.905
G2 X44.899 Y-19.963 I-14.5 J0
X42.228 Y-22.954 I-3.434 J0.379
X41.01 Y-23.009 I-0.763 J3.37
G1 Z-1.5 F300
G2 X38.528 Y-21.405 I0.455 J3.425 F1000
G1 X34.739
G2 X31.577 Y-23.405 I-3.162 J1.5
X28.414 Y-21.405 I0 J3.5
G1 X24.71
G2 X21.827 Y-23.155 I-2.883 J1.5
X18.943 Y-21.405 I0 J3.25
G1 X15.207
G2 X9.489 Y-21.405 I-2.859 J1.5
G1 X4.956
X4.847 Y-21.401
G2 X-8.602 Y-6.903 I1.051 J14.462
G1 Y-5.217
G2 X-10.01 Y4.848 I0.602 J5.215
X-9.443 Y4.963 I0.574 J-1.386
G1 X-7.109 Y4.974
X-7.102
X-7.087 Y4.978
X-7.08 Y4.987
X-7.077 Y4.999
X-7.084 Y5.016
X-7.102 Y5.024
X-7.108
X-9.442 Y5.034
G2 X-10.01 Y5.148 I0.007 J1.5
X-10.007 Y14.85 I2.01 J4.85
X-9.44 Y14.964 I0.573 J-1.386
G1 X-7.108 Y14.974
X-7.102
X-7.087 Y14.978
X-7.08 Y14.987
X-7.077 Y14.999
X-7.084 Y15.016
X-7.102 Y15.024
X-7.107
X-9.438 Y15.033
G2 X-10.005 Y15.146 I0.006 J1.5
X-10.002 Y24.852 I2.005 J4.852
X-9.436 Y24.965 I0.572 J-1.387
G1 X-7.107 Y24.974
X-7.102
X-7.087 Y24.978
X-7.08 Y24.987
X-7.077 Y24.999
X-7.084 Y25.016
X-7.102 Y25.024
X-7.107
X-9.434 Y25.031
G2 X-10.001 Y25.144 I0.005 J1.5
X-9.547 Y35.015 I2.001 J4.854
X-9.11 Y35.082 I0.442 J-1.433
G1 X-7.068 Y35.089
X-7.063
X-7.052 Y35.091
X-7.043 Y35.1
X-7.039 Y35.112
X-7.041 Y35.125
X-7.05 Y35.135
X-7.063 Y35.139
X-7.067
X-9.683 Y35.145
G2 X-10.351 Y35.304 I0.004 J1.5
X-8.001 Y45.248 I2.351 J4.694
G1 X-4.77 Y45.249
G2 X10.835 Y52.473 I14.684 J-11.253
G1 X38.596
G2 X52.922 Y40.212 I0 J-14.5
X53.82 Y30.215 I-1.086 J-5.137
X53.257 Y30.104 I-0.567 J1.389
G1 X51.599 Y30.101
X51.596
X51.578 Y30.093
X51.571 Y30.076
X51.578 Y30.058
X51.596 Y30.051
X51.6 Y30.05
X53.263 Y30.046
G2 X53.827 Y29.934 I-0.004 J-1.5
X53.825 Y20.217 I-1.991 J-4.858
X53.261 Y20.105 I-0.568 J1.388
G1 X51.6 Y20.101
X51.596
X51.592 Y20.1
X51.581 Y20.092
X51.574 Y20.084
X51.571 Y20.074
X51.579 Y20.057
X51.596 Y20.051
X51.602 Y20.05
X53.269 Y20.044
G2 X53.834 Y19.931 I-0.006 J-1.5
X53.832 Y10.22 I-1.998 J-4.855
X53.268 Y10.107 I-0.57 J1.387
G1 X53.096
Y10.042
X53.277 Y10.041
G2 X53.842 Y9.927 I-0.008 J-1.5
X53.096 Y-0.021 I-2.006 J-4.852
G1 Y-6.905
G2 X44.899 Y-19.963 I-14.5 J0
X42.228 Y-22.954 I-3.434 J0.379
X41.01 Y-23.009 I-0.763 J3.37
G1 Z-1.8 F300
G2 X38.528 Y-21.405 I0.455 J3.425 F1000
G1 X34.739
G2 X31.577 Y-23.405 I-3.162 J1.5
X28.414 Y-21.405 I0 J3.5
G1 X24.71
G2 X21.827 Y-23.155 I-2.883 J1.5
X18.943 Y-21.405 I0 J3.25
G1 X15.207
G2 X9.489 Y-21.405 I-2.859 J1.5
G1 X4.956
X4.847 Y-21.401
G2 X-8.602 Y-6.903 I1.051 J14.462
G1 Y-5.217
G2 X-10.01 Y4.848 I0.602 J5.215
X-9.443 Y4.963 I0.574 J-1.386
G1 X-7.109 Y4.974
X-7.102
X-7.087 Y4.978
X-7.08 Y4.987
X-7.077 Y4.999
X-7.084 Y5.016
X-7.102 Y5.024
X-7.108
X-9.442 Y5.034
G2 X-10.01 Y5.148 I0.007 J1.5
X-10.007 Y14.85 I2.01 J4.85
X-9.44 Y14.964 I0.573 J-1.386
G1 X-7.108 Y14.974
X-7.102
X-7.087 Y14.978
X-7.08 Y14.987
X-7.077 Y14.999
X-7.084 Y15.016
X-7.102 Y15.024
X-7.107
X-9.438 Y15.033
G2 X-10.005 Y15.146 I0.006 J1.5
X-10.002 Y24.852 I2.005 J4.852
X-9.436 Y24.965 I0.572 J-1.387
G1 X-7.107 Y24.974
X-7.102
X-7.087 Y24.978
X-7.08 Y24.987
X-7.077 Y24.999
X-7.084 Y25.016
X-7.102 Y25.024
X-7.107
X-9.434 Y25.031
G2 X-10.001 Y25.144 I0.005 J1.5
X-9.547 Y35.015 I2.001 J4.854
X-9.11 Y35.082 I0.442 J-1.433
G1 X-7.068 Y35.089
X-7.063
X-7.052 Y35.091
X-7.043 Y35.1
X-7.039 Y35.112
X-7.041 Y35.125
X-7.05 Y35.135
X-7.063 Y35.139
X-7.067
X-9.683 Y35.145
G2 X-10.351 Y35.304 I0.004 J1.5
X-8.001 Y45.248 I2.351 J4.694
G1 X-4.77 Y45.249
G2 X10.835 Y52.473 I14.684 J-11.253
G1 X38.596
G2 X52.922 Y40.212 I0 J-14.5
X53.82 Y30.215 I-1.086 J-5.137
X53.257 Y30.104 I-0.567 J1.389
G1 X51.599 Y30.101
X51.596
X51.578 Y30.093
X51.571 Y30.076
X51.578 Y30.058
X51.596 Y30.051
X51.6 Y30.05
X53.263 Y30.046
G2 X53.827 Y29.934 I-0.004 J-1.5
X53.825 Y20.217 I-1.991 J-4.858
X53.261 Y20.105 I-0.568 J1.388
G1 X51.6 Y20.101
X51.596
X51.592 Y20.1
X51.581 Y20.092
X51.574 Y20.084
X51.571 Y20.074
X51.579 Y20.057
X51.596 Y20.051
X51.602 Y20.05
X53.269 Y20.044
G2 X53.834 Y19.931 I-0.006 J-1.5
X53.832 Y10.22 I-1.998 J-4.855
X53.268 Y10.107 I-0.57 J1.387
G1 X53.096
Y10.042
X53.277 Y10.041
G2 X53.842 Y9.927 I-0.008 J-1.5
X53.096 Y-0.021 I-2.006 J-4.852
G1 Y-6.905
G2 X44.899 Y-19.963 I-14.5 J0
X42.228 Y-22.954 I-3.434 J0.379
X41.01 Y-23.009 I-0.763 J3.37
G1 Z-2.1 F300
G2 X38.528 Y-21.405 I0.455 J3.425 F1000
G1 X34.739
G2 X31.577 Y-23.405 I-3.162 J1.5
X28.414 Y-21.405 I0 J3.5
G1 X24.71
G2 X21.827 Y-23.155 I-2.883 J1.5
X18.943 Y-21.405 I0 J3.25
G1 X15.207
G2 X9.489 Y-21.405 I-2.859 J1.5
G1 X4.956
X4.847 Y-21.401
G2 X-8.602 Y-6.903 I1.051 J14.462
G1 Y-5.217
G2 X-10.01 Y4.848 I0.602 J5.215
X-9.443 Y4.963 I0.574 J-1.386
G1 X-7.109 Y4.974
X-7.102
X-7.087 Y4.978
X-7.08 Y4.987
X-7.077 Y4.999
X-7.084 Y5.016
X-7.102 Y5.024
X-7.108
X-9.442 Y5.034
G2 X-10.01 Y5.148 I0.007 J1.5
X-10.007 Y14.85 I2.01 J4.85
X-9.44 Y14.964 I0.573 J-1.386
G1 X-7.108 Y14.974
X-7.102
X-7.087 Y14.978
X-7.08 Y14.987
X-7.077 Y14.999
X-7.084 Y15.016
X-7.102 Y15.024
X-7.107
X-9.438 Y15.033
G2 X-10.005 Y15.146 I0.006 J1.5
X-10.002 Y24.852 I2.005 J4.852
X-9.436 Y24.965 I0.572 J-1.387
G1 X-7.107 Y24.974
X-7.102
X-7.087 Y24.978
X-7.08 Y24.987
X-7.077 Y24.999
X-7.084 Y25.016
X-7.102 Y25.024
X-7.107
X-9.434 Y25.031
G2 X-10.001 Y25.144 I0.005 J1.5
X-9.547 Y35.015 I2.001 J4.854
X-9.11 Y35.082 I0.442 J-1.433
G1 X-7.068 Y35.089
X-7.063
X-7.052 Y35.091
X-7.043 Y35.1
X-7.039 Y35.112
X-7.041 Y35.125
X-7.05 Y35.135
X-7.063 Y35.139
X-7.067
X-9.683 Y35.145
G2 X-10.351 Y35.304 I0.004 J1.5
X-8.001 Y45.248 I2.351 J4.694
G1 X-4.77 Y45.249
G2 X10.835 Y52.473 I14.684 J-11.253
G1 X38.596
G2 X52.922 Y40.212 I0 J-14.5
X53.82 Y30.215 I-1.086 J-5.137
X53.257 Y30.104 I-0.567 J1.389
G1 X51.599 Y30.101
X51.596
X51.578 Y30.093
X51.571 Y30.076
X51.578 Y30.058
X51.596 Y30.051
X51.6 Y30.05
X53.263 Y30.046
G2 X53.827 Y29.934 I-0.004 J-1.5
X53.825 Y20.217 I-1.991 J-4.858
X53.261 Y20.105 I-0.568 J1.388
G1 X51.6 Y20.101
X51.596
X51.592 Y20.1
X51.581 Y20.092
X51.574 Y20.084
X51.571 Y20.074
X51.579 Y20.057
X51.596 Y20.051
X51.602 Y20.05
X53.269 Y20.044
G2 X53.834 Y19.931 I-0.006 J-1.5
X53.832 Y10.22 I-1.998 J-4.855
X53.268 Y10.107 I-0.57 J1.387
G1 X53.096
Y10.042
X53.277 Y10.041
G2 X53.842 Y9.927 I-0.008 J-1.5
X53.096 Y-0.021 I-2.006 J-4.852
G1 Y-6.905
G2 X44.899 Y-19.963 I-14.5 J0
X42.228 Y-22.954 I-3.434 J0.379
X41.01 Y-23.009 I-0.763 J3.37
G1 Z-2.4 F300
G2 X38.528 Y-21.405 I0.455 J3.425 F1000
G1 X34.739
G2 X31.577 Y-23.405 I-3.162 J1.5
X28.414 Y-21.405 I0 J3.5
G1 X24.71
G2 X21.827 Y-23.155 I-2.883 J1.5
X18.943 Y-21.405 I0 J3.25
G1 X15.207
G2 X9.489 Y-21.405 I-2.859 J1.5
G1 X4.956
X4.847 Y-21.401
G2 X-8.602 Y-6.903 I1.051 J14.462
G1 Y-5.217
G2 X-10.01 Y4.848 I0.602 J5.215
X-9.443 Y4.963 I0.574 J-1.386
G1 X-7.109 Y4.974
X-7.102
X-7.087 Y4.978
X-7.08 Y4.987
X-7.077 Y4.999
X-7.084 Y5.016
X-7.102 Y5.024
X-7.108
X-9.442 Y5.034
G2 X-10.01 Y5.148 I0.007 J1.5
X-10.007 Y14.85 I2.01 J4.85
X-9.44 Y14.964 I0.573 J-1.386
G1 X-7.108 Y14.974
X-7.102
X-7.087 Y14.978
X-7.08 Y14.987
X-7.077 Y14.999
X-7.084 Y15.016
X-7.102 Y15.024
X-7.107
X-9.438 Y15.033
G2 X-10.005 Y15.146 I0.006 J1.5
X-10.002 Y24.852 I2.005 J4.852
X-9.436 Y24.965 I0.572 J-1.387
G1 X-7.107 Y24.974
X-7.102
X-7.087 Y24.978
X-7.08 Y24.987
X-7.077 Y24.999
X-7.084 Y25.016
X-7.102 Y25.024
X-7.107
X-9.434 Y25.031
G2 X-10.001 Y25.144 I0.005 J1.5
X-9.547 Y35.015 I2.001 J4.854
X-9.11 Y35.082 I0.442 J-1.433
G1 X-7.068 Y35.089
X-7.063
X-7.052 Y35.091
X-7.043 Y35.1
X-7.039 Y35.112
X-7.041 Y35.125
X-7.05 Y35.135
X-7.063 Y35.139
X-7.067
X-9.683 Y35.145
G2 X-10.351 Y35.304 I0.004 J1.5
X-8.001 Y45.248 I2.351 J4.694
G1 X-4.77 Y45.249
G2 X10.835 Y52.473 I14.684 J-11.253
G1 X38.596
G2 X52.922 Y40.212 I0 J-14.5
X53.82 Y30.215 I-1.086 J-5.137
X53.257 Y30.104 I-0.567 J1.389
G1 X51.599 Y30.101
X51.596
X51.578 Y30.093
X51.571 Y30.076
X51.578 Y30.058
X51.596 Y30.051
X51.6 Y30.05
X53.263 Y30.046
G2 X53.827 Y29.934 I-0.004 J-1.5
X53.825 Y20.217 I-1.991 J-4.858
X53.261 Y20.105 I-0.568 J1.388
G1 X51.6 Y20.101
X51.596
X51.592 Y20.1
X51.581 Y20.092
X51.574 Y20.084
X51.571 Y20.074
X51.579 Y20.057
X51.596 Y20.051
X51.602 Y20.05
X53.269 Y20.044
G2 X53.834 Y19.931 I-0.006 J-1.5
X53.832 Y10.22 I-1.998 J-4.855
X53.268 Y10.107 I-0.57 J1.387
G1 X53.096
Y10.042
X53.277 Y10.041
G2 X53.842 Y9.927 I-0.008 J-1.5
X53.096 Y-0.021 I-2.006 J-4.852
G1 Y-6.905
G2 X44.899 Y-19.963 I-14.5 J0
X42.228 Y-22.954 I-3.434 J0.379
X41.01 Y-23.009 I-0.763 J3.37
G1 Z-2.7 F300
G2 X38.528 Y-21.405 I0.455 J3.425 F1000
G1 X34.739
G2 X31.577 Y-23.405 I-3.162 J1.5
X28.414 Y-21.405 I0 J3.5
G1 X24.71
G2 X21.827 Y-23.155 I-2.883 J1.5
X18.943 Y-21.405 I0 J3.25
G1 X15.207
G2 X9.489 Y-21.405 I-2.859 J1.5
G1 X4.956
X4.847 Y-21.401
G2 X-8.602 Y-6.903 I1.051 J14.462
G1 Y-5.217
G2 X-10.01 Y4.848 I0.602 J5.215
X-9.443 Y4.963 I0.574 J-1.386
G1 X-7.109 Y4.974
X-7.102
X-7.087 Y4.978
X-7.08 Y4.987
X-7.077 Y4.999
X-7.084 Y5.016
X-7.102 Y5.024
X-7.108
X-9.442 Y5.034
G2 X-10.01 Y5.148 I0.007 J1.5
X-10.007 Y14.85 I2.01 J4.85
X-9.44 Y14.964 I0.573 J-1.386
G1 X-7.108 Y14.974
X-7.102
X-7.087 Y14.978
X-7.08 Y14.987
X-7.077 Y14.999
X-7.084 Y15.016
X-7.102 Y15.024
X-7.107
X-9.438 Y15.033
G2 X-10.005 Y15.146 I0.006 J1.5
X-10.002 Y24.852 I2.005 J4.852
X-9.436 Y24.965 I0.572 J-1.387
G1 X-7.107 Y24.974
X-7.102
X-7.087 Y24.978
X-7.08 Y24.987
X-7.077 Y24.999
X-7.084 Y25.016
X-7.102 Y25.024
X-7.107
X-9.434 Y25.031
G2 X-10.001 Y25.144 I0.005 J1.5
X-9.547 Y35.015 I2.001 J4.854
X-9.11 Y35.082 I0.442 J-1.433
G1 X-7.068 Y35.089
X-7.063
X-7.052 Y35.091
X-7.043 Y35.1
X-7.039 Y35.112
X-7.041 Y35.125
X-7.05 Y35.135
X-7.063 Y35.139
X-7.067
X-9.683 Y35.145
G2 X-10.351 Y35.304 I0.004 J1.5
X-8.001 Y45.248 I2.351 J4.694
G1 X-4.77 Y45.249
G2 X10.835 Y52.473 I14.684 J-11.253
G1 X38.596
G2 X52.922 Y40.212 I0 J-14.5
X53.82 Y30.215 I-1.086 J-5.137
X53.257 Y30.104 I-0.567 J1.389
G1 X51.599 Y30.101
X51.596
X51.578 Y30.093
X51.571 Y30.076
X51.578 Y30.058
X51.596 Y30.051
X51.6 Y30.05
X53.263 Y30.046
G2 X53.827 Y29.934 I-0.004 J-1.5
X53.825 Y20.217 I-1.991 J-4.858
X53.261 Y20.105 I-0.568 J1.388
G1 X51.6 Y20.101
X51.596
X51.592 Y20.1
X51.581 Y20.092
X51.574 Y20.084
X51.571 Y20.074
X51.579 Y20.057
X51.596 Y20.051
X51.602 Y20.05
X53.269 Y20.044
G2 X53.834 Y19.931 I-0.006 J-1.5
X53.832 Y10.22 I-1.998 J-4.855
X53.268 Y10.107 I-0.57 J1.387
G1 X53.096
Y10.042
X53.277 Y10.041
G2 X53.842 Y9.927 I-0.008 J-1.5
X53.096 Y-0.021 I-2.006 J-4.852
G1 Y-6.905
G2 X44.899 Y-19.963 I-14.5 J0
X42.228 Y-22.954 I-3.434 J0.379
X41.01 Y-23.009 I-0.763 J3.37
G1 Z-3 F300
G2 X38.528 Y-21.405 I0.455 J3.425 F1000
G1 X34.739
G2 X31.577 Y-23.405 I-3.162 J1.5
X28.414 Y-21.405 I0 J3.5
G1 X24.71
G2 X21.827 Y-23.155 I-2.883 J1.5
X18.943 Y-21.405 I0 J3.25
G1 X15.207
G2 X9.489 Y-21.405 I-2.859 J1.5
G1 X4.956
X4.847 Y-21.401
G2 X-8.602 Y-6.903 I1.051 J14.462
G1 Y-5.217
G2 X-10.01 Y4.848 I0.602 J5.215
X-9.443 Y4.963 I0.574 J-1.386
G1 X-7.109 Y4.974
X-7.102
X-7.087 Y4.978
X-7.08 Y4.987
X-7.077 Y4.999
X-7.084 Y5.016
X-7.102 Y5.024
X-7.108
X-9.442 Y5.034
G2 X-10.01 Y5.148 I0.007 J1.5
X-10.007 Y14.85 I2.01 J4.85
X-9.44 Y14.964 I0.573 J-1.386
G1 X-7.108 Y14.974
X-7.102
X-7.087 Y14.978
X-7.08 Y14.987
X-7.077 Y14.999
X-7.084 Y15.016
X-7.102 Y15.024
X-7.107
X-9.438 Y15.033
G2 X-10.005 Y15.146 I0.006 J1.5
X-10.002 Y24.852 I2.005 J4.852
X-9.436 Y24.965 I0.572 J-1.387
G1 X-7.107 Y24.974
X-7.102
X-7.087 Y24.978
X-7.08 Y24.987
X-7.077 Y24.999
X-7.084 Y25.016
X-7.102 Y25.024
X-7.107
X-9.434 Y25.031
G2 X-10.001 Y25.144 I0.005 J1.5
X-9.547 Y35.015 I2.001 J4.854
X-9.11 Y35.082 I0.442 J-1.433
G1 X-7.068 Y35.089
X-7.063
X-7.052 Y35.091
X-7.043 Y35.1
X-7.039 Y35.112
X-7.041 Y35.125
X-7.05 Y35.135
X-7.063 Y35.139
X-7.067
X-9.683 Y35.145
G2 X-10.351 Y35.304 I0.004 J1.5
X-8.001 Y45.248 I2.351 J4.694
G1 X-4.77 Y45.249
G2 X10.835 Y52.473 I14.684 J-11.253
G1 X38.596
G2 X52.922 Y40.212 I0 J-14.5
X53.82 Y30.215 I-1.086 J-5.137
X53.257 Y30.104 I-0.567 J1.389
G1 X51.599 Y30.101
X51.596
X51.578 Y30.093
X51.571 Y30.076
X51.578 Y30.058
X51.596 Y30.051
X51.6 Y30.05
X53.263 Y30.046
G2 X53.827 Y29.934 I-0.004 J-1.5
X53.825 Y20.217 I-1.991 J-4.858
X53.261 Y20.105 I-0.568 J1.388
G1 X51.6 Y20.101
X51.596
X51.592 Y20.1
X51.581 Y20.092
X51.574 Y20.084
X51.571 Y20.074
X51.579 Y20.057
X51.596 Y20.051
X51.602 Y20.05
X53.269 Y20.044
G2 X53.834 Y19.931 I-0.006 J-1.5
X53.832 Y10.22 I-1.998 J-4.855
X53.268 Y10.107 I-0.57 J1.387
G1 X53.096
Y10.042
X53.277 Y10.041
G2 X53.842 Y9.927 I-0.008 J-1.5
X53.096 Y-0.021 I-2.006 J-4.852
G1 Y-6.905
G2 X44.899 Y-19.963 I-14.5 J0
X42.228 Y-22.954 I-3.434 J0.379
X41.01 Y-23.009 I-0.763 J3.37
G1 Z-3.3 F300
G2 X38.528 Y-21.405 I0.455 J3.425 F1000
G1 X34.739
G2 X31.577 Y-23.405 I-3.162 J1.5
X28.414 Y-21.405 I0 J3.5
G1 X24.71
G2 X21.827 Y-23.155 I-2.883 J1.5
X18.943 Y-21.405 I0 J3.25
G1 X15.207
G2 X9.489 Y-21.405 I-2.859 J1.5
G1 X4.956
X4.847 Y-21.401
G2 X-8.602 Y-6.903 I1.051 J14.462
G1 Y-5.217
G2 X-10.01 Y4.848 I0.602 J5.215
X-9.443 Y4.963 I0.574 J-1.386
G1 X-7.109 Y4.974
X-7.102
X-7.087 Y4.978
X-7.08 Y4.987
X-7.077 Y4.999
X-7.084 Y5.016
X-7.102 Y5.024
X-7.108
X-9.442 Y5.034
G2 X-10.01 Y5.148 I0.007 J1.5
X-10.007 Y14.85 I2.01 J4.85
X-9.44 Y14.964 I0.573 J-1.386
G1 X-7.108 Y14.974
X-7.102
X-7.087 Y14.978
X-7.08 Y14.987
X-7.077 Y14.999
X-7.084 Y15.016
X-7.102 Y15.024
X-7.107
X-9.438 Y15.033
G2 X-10.005 Y15.146 I0.006 J1.5
X-10.002 Y24.852 I2.005 J4.852
X-9.436 Y24.965 I0.572 J-1.387
G1 X-7.107 Y24.974
X-7.102
X-7.087 Y24.978
X-7.08 Y24.987
X-7.077 Y24.999
X-7.084 Y25.016
X-7.102 Y25.024
X-7.107
X-9.434 Y25.031
G2 X-10.001 Y25.144 I0.005 J1.5
X-9.547 Y35.015 I2.001 J4.854
X-9.11 Y35.082 I0.442 J-1.433
G1 X-7.068 Y35.089
X-7.063
X-7.052 Y35.091
X-7.043 Y35.1
X-7.039 Y35.112
X-7.041 Y35.125
X-7.05 Y35.135
X-7.063 Y35.139
X-7.067
X-9.683 Y35.145
G2 X-10.351 Y35.304 I0.004 J1.5
X-8.001 Y45.248 I2.351 J4.694
G1 X-4.77 Y45.249
G2 X10.835 Y52.473 I14.684 J-11.253
G1 X38.596
G2 X52.922 Y40.212 I0 J-14.5
X53.82 Y30.215 I-1.086 J-5.137
X53.257 Y30.104 I-0.567 J1.389
G1 X51.599 Y30.101
X51.596
X51.578 Y30.093
X51.571 Y30.076
X51.578 Y30.058
X51.596 Y30.051
X51.6 Y30.05
X53.263 Y30.046
G2 X53.827 Y29.934 I-0.004 J-1.5
X53.825 Y20.217 I-1.991 J-4.858
X53.261 Y20.105 I-0.568 J1.388
G1 X51.6 Y20.101
X51.596
X51.592 Y20.1
X51.581 Y20.092
X51.574 Y20.084
X51.571 Y20.074
X51.579 Y20.057
X51.596 Y20.051
X51.602 Y20.05
X53.269 Y20.044
G2 X53.834 Y19.931 I-0.006 J-1.5
X53.832 Y10.22 I-1.998 J-4.855
X53.268 Y10.107 I-0.57 J1.387
G1 X53.096
Y10.042
X53.277 Y10.041
G2 X53.842 Y9.927 I-0.008 J-1.5
X53.096 Y-0.021 I-2.006 J-4.852
G1 Y-6.905
G2 X44.899 Y-19.963 I-14.5 J0
X42.228 Y-22.954 I-3.434 J0.379
X41.01 Y-23.009 I-0.763 J3.37
G1 Z-3.6 F300
G2 X38.528 Y-21.405 I0.455 J3.425 F1000
G1 X34.739
G2 X31.577 Y-23.405 I-3.162 J1.5
X28.414 Y-21.405 I0 J3.5
G1 X24.71
G2 X21.827 Y-23.155 I-2.883 J1.5
X18.943 Y-21.405 I0 J3.25
G1 X15.207
G2 X9.489 Y-21.405 I-2.859 J1.5
G1 X4.956
X4.847 Y-21.401
G2 X-8.602 Y-6.903 I1.051 J14.462
G1 Y-5.217
G2 X-10.01 Y4.848 I0.602 J5.215
X-9.443 Y4.963 I0.574 J-1.386
G1 X-7.109 Y4.974
X-7.102
X-7.087 Y4.978
X-7.08 Y4.987
X-7.077 Y4.999
X-7.084 Y5.016
X-7.102 Y5.024
X-7.108
X-9.442 Y5.034
G2 X-10.01 Y5.148 I0.007 J1.5
X-10.007 Y14.85 I2.01 J4.85
X-9.44 Y14.964 I0.573 J-1.386
G1 X-7.108 Y14.974
X-7.102
X-7.087 Y14.978
X-7.08 Y14.987
X-7.077 Y14.999
X-7.084 Y15.016
X-7.102 Y15.024
X-7.107
X-9.438 Y15.033
G2 X-10.005 Y15.146 I0.006 J1.5
X-10.002 Y24.852 I2.005 J4.852
X-9.436 Y24.965 I0.572 J-1.387
G1 X-7.107 Y24.974
X-7.102
X-7.087 Y24.978
X-7.08 Y24.987
X-7.077 Y24.999
X-7.084 Y25.016
X-7.102 Y25.024
X-7.107
X-9.434 Y25.031
G2 X-10.001 Y25.144 I0.005 J1.5
X-9.547 Y35.015 I2.001 J4.854
X-9.11 Y35.082 I0.442 J-1.433
G1 X-7.068 Y35.089
X-7.063
X-7.052 Y35.091
X-7.043 Y35.1
X-7.039 Y35.112
X-7.041 Y35.125
X-7.05 Y35.135
X-7.063 Y35.139
X-7.067
X-9.683 Y35.145
G2 X-10.351 Y35.304 I0.004 J1.5
X-8.001 Y45.248 I2.351 J4.694
G1 X-4.77 Y45.249
G2 X10.835 Y52.473 I14.684 J-11.253
G1 X38.596
G2 X52.922 Y40.212 I0 J-14.5
X53.82 Y30.215 I-1.086 J-5.137
X53.257 Y30.104 I-0.567 J1.389
G1 X51.599 Y30.101
X51.596
X51.578 Y30.093
X51.571 Y30.076
X51.578 Y30.058
X51.596 Y30.051
X51.6 Y30.05
X53.263 Y30.046
G2 X53.827 Y29.934 I-0.004 J-1.5
X53.825 Y20.217 I-1.991 J-4.858
X53.261 Y20.105 I-0.568 J1.388
G1 X51.6 Y20.101
X51.596
X51.592 Y20.1
X51.581 Y20.092
X51.574 Y20.084
X51.571 Y20.074
X51.579 Y20.057
X51.596 Y20.051
X51.602 Y20.05
X53.269 Y20.044
G2 X53.834 Y19.931 I-0.006 J-1.5
X53.832 Y10.22 I-1.998 J-4.855
X53.268 Y10.107 I-0.57 J1.387
G1 X53.096
Y10.042
X53.277 Y10.041
G2 X53.842 Y9.927 I-0.008 J-1.5
X53.096 Y-0.021 I-2.006 J-4.852
G1 Y-6.905
G2 X44.899 Y-19.963 I-14.5 J0
X42.228 Y-22.954 I-3.434 J0.379
X41.01 Y-23.009 I-0.763 J3.37
G1 Z-3.9 F300
G2 X38.528 Y-21.405 I0.455 J3.425 F1000
G1 X34.739
G2 X31.577 Y-23.405 I-3.162 J1.5
X28.414 Y-21.405 I0 J3.5
G1 X24.71
G2 X21.827 Y-23.155 I-2.883 J1.5
X18.943 Y-21.405 I0 J3.25
G1 X15.207
G2 X9.489 Y-21.405 I-2.859 J1.5
G1 X4.956
X4.847 Y-21.401
G2 X-8.602 Y-6.903 I1.051 J14.462
G1 Y-5.217
G2 X-10.01 Y4.848 I0.602 J5.215
X-9.443 Y4.963 I0.574 J-1.386
G1 X-7.109 Y4.974
X-7.102
X-7.087 Y4.978
X-7.08 Y4.987
X-7.077 Y4.999
X-7.084 Y5.016
X-7.102 Y5.024
X-7.108
X-9.442 Y5.034
G2 X-10.01 Y5.148 I0.007 J1.5
X-10.007 Y14.85 I2.01 J4.85
X-9.44 Y14.964 I0.573 J-1.386
G1 X-7.108 Y14.974
X-7.102
X-7.087 Y14.978
X-7.08 Y14.987
X-7.077 Y14.999
X-7.084 Y15.016
X-7.102 Y15.024
X-7.107
X-9.438 Y15.033
G2 X-10.005 Y15.146 I0.006 J1.5
X-10.002 Y24.852 I2.005 J4.852
X-9.436 Y24.965 I0.572 J-1.387
G1 X-7.107 Y24.974
X-7.102
X-7.087 Y24.978
X-7.08 Y24.987
X-7.077 Y24.999
X-7.084 Y25.016
X-7.102 Y25.024
X-7.107
X-9.434 Y25.031
G2 X-10.001 Y25.144 I0.005 J1.5
X-9.547 Y35.015 I2.001 J4.854
X-9.11 Y35.082 I0.442 J-1.433
G1 X-7.068 Y35.089
X-7.063
X-7.052 Y35.091
X-7.043 Y35.1
X-7.039 Y35.112
X-7.041 Y35.125
X-7.05 Y35.135
X-7.063 Y35.139
X-7.067
X-9.683 Y35.145
G2 X-10.351 Y35.304 I0.004 J1.5
X-8.001 Y45.248 I2.351 J4.694
G1 X-4.77 Y45.249
G2 X10.835 Y52.473 I14.684 J-11.253
G1 X38.596
G2 X52.922 Y40.212 I0 J-14.5
X53.82 Y30.215 I-1.086 J-5.137
X53.257 Y30.104 I-0.567 J1.389
G1 X51.599 Y30.101
X51.596
X51.578 Y30.093
X51.571 Y30.076
X51.578 Y30.058
X51.596 Y30.051
X51.6 Y30.05
X53.263 Y30.046
G2 X53.827 Y29.934 I-0.004 J-1.5
X53.825 Y20.217 I-1.991 J-4.858
X53.261 Y20.105 I-0.568 J1.388
G1 X51.6 Y20.101
X51.596
X51.592 Y20.1
X51.581 Y20.092
X51.574 Y20.084
X51.571 Y20.074
X51.579 Y20.057
X51.596 Y20.051
X51.602 Y20.05
X53.269 Y20.044
G2 X53.834 Y19.931 I-0.006 J-1.5
X53.832 Y10.22 I-1.998 J-4.855
X53.268 Y10.107 I-0.57 J1.387
G1 X53.096
Y10.042
X53.277 Y10.041
G2 X53.842 Y9.927 I-0.008 J-1.5
X53.096 Y-0.021 I-2.006 J-4.852
G1 Y-6.905
G2 X44.899 Y-19.963 I-14.5 J0
X42.228 Y-22.954 I-3.434 J0.379
X41.01 Y-23.009 I-0.763 J3.37
G1 Z-4.2 F300
G2 X38.528 Y-21.405 I0.455 J3.425 F1000
G1 X34.739
G2 X31.577 Y-23.405 I-3.162 J1.5
X28.414 Y-21.405 I0 J3.5
G1 X24.71
G2 X21.827 Y-23.155 I-2.883 J1.5
X18.943 Y-21.405 I0 J3.25
G1 X15.207
G2 X9.489 Y-21.405 I-2.859 J1.5
G1 X4.956
X4.847 Y-21.401
G2 X-8.602 Y-6.903 I1.051 J14.462
G1 Y-5.217
G2 X-10.01 Y4.848 I0.602 J5.215
X-9.443 Y4.963 I0.574 J-1.386
G1 X-7.109 Y4.974
X-7.102
X-7.087 Y4.978
X-7.08 Y4.987
X-7.077 Y4.999
X-7.084 Y5.016
X-7.102 Y5.024
X-7.108
X-9.442 Y5.034
G2 X-10.01 Y5.148 I0.007 J1.5
X-10.007 Y14.85 I2.01 J4.85
X-9.44 Y14.964 I0.573 J-1.386
G1 X-7.108 Y14.974
X-7.102
X-7.087 Y14.978
X-7.08 Y14.987
X-7.077 Y14.999
X-7.084 Y15.016
X-7.102 Y15.024
X-7.107
X-9.438 Y15.033
G2 X-10.005 Y15.146 I0.006 J1.5
X-10.002 Y24.852 I2.005 J4.852
X-9.436 Y24.965 I0.572 J-1.387
G1 X-7.107 Y24.974
X-7.102
X-7.087 Y24.978
X-7.08 Y24.987
X-7.077 Y24.999
X-7.084 Y25.016
X-7.102 Y25.024
X-7.107
X-9.434 Y25.031
G2 X-10.001 Y25.144 I0.005 J1.5
X-9.547 Y35.015 I2.001 J4.854
X-9.11 Y35.082 I0.442 J-1.433
G1 X-7.068 Y35.089
X-7.063
X-7.052 Y35.091
X-7.043 Y35.1
X-7.039 Y35.112
X-7.041 Y35.125
X-7.05 Y35.135
X-7.063 Y35.139
X-7.067
X-9.683 Y35.145
G2 X-10.351 Y35.304 I0.004 J1.5
X-8.001 Y45.248 I2.351 J4.694
G1 X-4.77 Y45.249
G2 X10.835 Y52.473 I14.684 J-11.253
G1 X38.596
G2 X52.922 Y40.212 I0 J-14.5
X53.82 Y30.215 I-1.086 J-5.137
X53.257 Y30.104 I-0.567 J1.389
G1 X51.599 Y30.101
X51.596
X51.578 Y30.093
X51.571 Y30.076
X51.578 Y30.058
X51.596 Y30.051
X51.6 Y30.05
X53.263 Y30.046
G2 X53.827 Y29.934 I-0.004 J-1.5
X53.825 Y20.217 I-1.991 J-4.858
X53.261 Y20.105 I-0.568 J1.388
G1 X51.6 Y20.101
X51.596
X51.592 Y20.1
X51.581 Y20.092
X51.574 Y20.084
X51.571 Y20.074
X51.579 Y20.057
X51.596 Y20.051
X51.602 Y20.05
X53.269 Y20.044
G2 X53.834 Y19.931 I-0.006 J-1.5
X53.832 Y10.22 I-1.998 J-4.855
X53.268 Y10.107 I-0.57 J1.387
G1 X53.096
Y10.042
X53.277 Y10.041
G2 X53.842 Y9.927 I-0.008 J-1.5
X53.096 Y-0.021 I-2.006 J-4.852
G1 Y-6.905
G2 X44.899 Y-19.963 I-14.5 J0
X42.228 Y-22.954 I-3.434 J0.379
X41.01 Y-23.009 I-0.763 J3.37
G1 Z-4.5 F300
G2 X38.528 Y-21.405 I0.455 J3.425 F1000
G1 X34.739
G2 X31.577 Y-23.405 I-3.162 J1.5
X28.414 Y-21.405 I0 J3.5
G1 X24.71
G2 X21.827 Y-23.155 I-2.883 J1.5
X18.943 Y-21.405 I0 J3.25
G1 X15.207
G2 X9.489 Y-21.405 I-2.859 J1.5
G1 X4.956
X4.847 Y-21.401
G2 X-8.602 Y-6.903 I1.051 J14.462
G1 Y-5.217
G2 X-10.01 Y4.848 I0.602 J5.215
X-9.443 Y4.963 I0.574 J-1.386
G1 X-7.109 Y4.974
X-7.102
X-7.087 Y4.978
X-7.08 Y4.987
X-7.077 Y4.999
X-7.084 Y5.016
X-7.102 Y5.024
X-7.108
X-9.442 Y5.034
G2 X-10.01 Y5.148 I0.007 J1.5
X-10.007 Y14.85 I2.01 J4.85
X-9.44 Y14.964 I0.573 J-1.386
G1 X-7.108 Y14.974
X-7.102
X-7.087 Y14.978
X-7.08 Y14.987
X-7.077 Y14.999
X-7.084 Y15.016
X-7.102 Y15.024
X-7.107
X-9.438 Y15.033
G2 X-10.005 Y15.146 I0.006 J1.5
X-10.002 Y24.852 I2.005 J4.852
X-9.436 Y24.965 I0.572 J-1.387
G1 X-7.107 Y24.974
X-7.102
X-7.087 Y24.978
X-7.08 Y24.987
X-7.077 Y24.999
X-7.084 Y25.016
X-7.102 Y25.024
X-7.107
X-9.434 Y25.031
G2 X-10.001 Y25.144 I0.005 J1.5
X-9.547 Y35.015 I2.001 J4.854
X-9.11 Y35.082 I0.442 J-1.433
G1 X-7.068 Y35.089
X-7.063
X-7.052 Y35.091
X-7.043 Y35.1
X-7.039 Y35.112
X-7.041 Y35.125
X-7.05 Y35.135
X-7.063 Y35.139
X-7.067
X-9.683 Y35.145
G2 X-10.351 Y35.304 I0.004 J1.5
X-8.001 Y45.248 I2.351 J4.694
G1 X-4.77 Y45.249
G2 X10.835 Y52.473 I14.684 J-11.253
G1 X38.596
G2 X52.922 Y40.212 I0 J-14.5
X53.82 Y30.215 I-1.086 J-5.137
X53.257 Y30.104 I-0.567 J1.389
G1 X51.599 Y30.101
X51.596
X51.578 Y30.093
X51.571 Y30.076
X51.578 Y30.058
X51.596 Y30.051
X51.6 Y30.05
X53.263 Y30.046
G2 X53.827 Y29.934 I-0.004 J-1.5
X53.825 Y20.217 I-1.991 J-4.858
X53.261 Y20.105 I-0.568 J1.388
G1 X51.6 Y20.101
X51.596
X51.592 Y20.1
X51.581 Y20.092
X51.574 Y20.084
X51.571 Y20.074
X51.579 Y20.057
X51.596 Y20.051
X51.602 Y20.05
X53.269 Y20.044
G2 X53.834 Y19.931 I-0.006 J-1.5
X53.832 Y10.22 I-1.998 J-4.855
X53.268 Y10.107 I-0.57 J1.387
G1 X53.096
Y10.042
X53.277 Y10.041
G2 X53.842 Y9.927 I-0.008 J-1.5
X53.096 Y-0.021 I-2.006 J-4.852
G1 Y-6.905
G2 X44.899 Y-19.963 I-14.5 J0
X42.228 Y-22.954 I-3.434 J0.379
X41.01 Y-23.009 I-0.763 J3.37
G1 Z-4.8 F300
G2 X38.528 Y-21.405 I0.455 J3.425 F1000
G1 X34.739
G2 X31.577 Y-23.405 I-3.162 J1.5
X28.414 Y-21.405 I0 J3.5
G1 X24.71
G2 X21.827 Y-23.155 I-2.883 J1.5
X18.943 Y-21.405 I0 J3.25
G1 X15.207
G2 X9.489 Y-21.405 I-2.859 J1.5
G1 X4.956
X4.847 Y-21.401
G2 X-8.602 Y-6.903 I1.051 J14.462
G1 Y-5.217
G2 X-10.01 Y4.848 I0.602 J5.215
X-9.443 Y4.963 I0.574 J-1.386
G1 X-7.109 Y4.974
X-7.102
X-7.087 Y4.978
X-7.08 Y4.987
X-7.077 Y4.999
X-7.084 Y5.016
X-7.102 Y5.024
X-7.108
X-9.442 Y5.034
G2 X-10.01 Y5.148 I0.007 J1.5
X-10.007 Y14.85 I2.01 J4.85
X-9.44 Y14.964 I0.573 J-1.386
G1 X-7.108 Y14.974
X-7.102
X-7.087 Y14.978
X-7.08 Y14.987
X-7.077 Y14.999
X-7.084 Y15.016
X-7.102 Y15.024
X-7.107
X-9.438 Y15.033
G2 X-10.005 Y15.146 I0.006 J1.5
X-10.002 Y24.852 I2.005 J4.852
X-9.436 Y24.965 I0.572 J-1.387
G1 X-7.107 Y24.974
X-7.102
X-7.087 Y24.978
X-7.08 Y24.987
X-7.077 Y24.999
X-7.084 Y25.016
X-7.102 Y25.024
X-7.107
X-9.434 Y25.031
G2 X-10.001 Y25.144 I0.005 J1.5
X-9.547 Y35.015 I2.001 J4.854
X-9.11 Y35.082 I0.442 J-1.433
G1 X-7.068 Y35.089
X-7.063
X-7.052 Y35.091
X-7.043 Y35.1
X-7.039 Y35.112
X-7.041 Y35.125
X-7.05 Y35.135
X-7.063 Y35.139
X-7.067
X-9.683 Y35.145
G2 X-10.351 Y35.304 I0.004 J1.5
X-8.001 Y45.248 I2.351 J4.694
G1 X-4.77 Y45.249
G2 X10.835 Y52.473 I14.684 J-11.253
G1 X38.596
G2 X52.922 Y40.212 I0 J-14.5
X53.82 Y30.215 I-1.086 J-5.137
X53.257 Y30.104 I-0.567 J1.389
G1 X51.599 Y30.101
X51.596
X51.578 Y30.093
X51.571 Y30.076
X51.578 Y30.058
X51.596 Y30.051
X51.6 Y30.05
X53.263 Y30.046
G2 X53.827 Y29.934 I-0.004 J-1.5
X53.825 Y20.217 I-1.991 J-4.858
X53.261 Y20.105 I-0.568 J1.388
G1 X51.6 Y20.101
X51.596
X51.592 Y20.1
X51.581 Y20.092
X51.574 Y20.084
X51.571 Y20.074
X51.579 Y20.057
X51.596 Y20.051
X51.602 Y20.05
X53.269 Y20.044
G2 X53.834 Y19.931 I-0.006 J-1.5
X53.832 Y10.22 I-1.998 J-4.855
X53.268 Y10.107 I-0.57 J1.387
G1 X53.096
Y10.042
X53.277 Y10.041
G2 X53.842 Y9.927 I-0.008 J-1.5
X53.096 Y-0.021 I-2.006 J-4.852
G1 Y-6.905
G2 X44.899 Y-19.963 I-14.5 J0
X42.228 Y-22.954 I-3.434 J0.379
X41.01 Y-23.009 I-0.763 J3.37
G1 Z-5.1 F300
G2 X38.528 Y-21.405 I0.455 J3.425 F1000
G1 X34.739
G2 X31.577 Y-23.405 I-3.162 J1.5
X28.414 Y-21.405 I0 J3.5
G1 X24.71
G2 X21.827 Y-23.155 I-2.883 J1.5
X18.943 Y-21.405 I0 J3.25
G1 X15.207
G2 X9.489 Y-21.405 I-2.859 J1.5
G1 X4.956
X4.847 Y-21.401
G2 X-8.602 Y-6.903 I1.051 J14.462
G1 Y-5.217
G2 X-10.01 Y4.848 I0.602 J5.215
X-9.443 Y4.963 I0.574 J-1.386
G1 X-7.109 Y4.974
X-7.102
X-7.087 Y4.978
X-7.08 Y4.987
X-7.077 Y4.999
X-7.084 Y5.016
X-7.102 Y5.024
X-7.108
X-9.442 Y5.034
G2 X-10.01 Y5.148 I0.007 J1.5
X-10.007 Y14.85 I2.01 J4.85
X-9.44 Y14.964 I0.573 J-1.386
G1 X-7.108 Y14.974
X-7.102
X-7.087 Y14.978
X-7.08 Y14.987
X-7.077 Y14.999
X-7.084 Y15.016
X-7.102 Y15.024
X-7.107
X-9.438 Y15.033
G2 X-10.005 Y15.146 I0.006 J1.5
X-10.002 Y24.852 I2.005 J4.852
X-9.436 Y24.965 I0.572 J-1.387
G1 X-7.107 Y24.974
X-7.102
X-7.087 Y24.978
X-7.08 Y24.987
X-7.077 Y24.999
X-7.084 Y25.016
X-7.102 Y25.024
X-7.107
X-9.434 Y25.031
G2 X-10.001 Y25.144 I0.005 J1.5
X-9.547 Y35.015 I2.001 J4.854
X-9.11 Y35.082 I0.442 J-1.433
G1 X-7.068 Y35.089
X-7.063
X-7.052 Y35.091
X-7.043 Y35.1
X-7.039 Y35.112
X-7.041 Y35.125
X-7.05 Y35.135
X-7.063 Y35.139
X-7.067
X-9.683 Y35.145
G2 X-10.351 Y35.304 I0.004 J1.5
X-8.001 Y45.248 I2.351 J4.694
G1 X-4.77 Y45.249
G2 X10.835 Y52.473 I14.684 J-11.253
G1 X38.596
G2 X52.922 Y40.212 I0 J-14.5
X53.82 Y30.215 I-1.086 J-5.137
X53.257 Y30.104 I-0.567 J1.389
G1 X51.599 Y30.101
X51.596
X51.578 Y30.093
X51.571 Y30.076
X51.578 Y30.058
X51.596 Y30.051
X51.6 Y30.05
X53.263 Y30.046
G2 X53.827 Y29.934 I-0.004 J-1.5
X53.825 Y20.217 I-1.991 J-4.858
X53.261 Y20.105 I-0.568 J1.388
G1 X51.6 Y20.101
X51.596
X51.592 Y20.1
X51.581 Y20.092
X51.574 Y20.084
X51.571 Y20.074
X51.579 Y20.057
X51.596 Y20.051
X51.602 Y20.05
X53.269 Y20.044
G2 X53.834 Y19.931 I-0.006 J-1.5
X53.832 Y10.22 I-1.998 J-4.855
X53.268 Y10.107 I-0.57 J1.387
G1 X53.096
Y10.042
X53.277 Y10.041
G2 X53.842 Y9.927 I-0.008 J-1.5
X53.096 Y-0.021 I-2.006 J-4.852
G1 Y-6.905
G2 X44.899 Y-19.963 I-14.5 J0
X42.228 Y-22.954 I-3.434 J0.379
X41.01 Y-23.009 I-0.763 J3.37
G1 Z-5.4 F300
G2 X38.528 Y-21.405 I0.455 J3.425 F1000
G1 X34.739
G2 X31.577 Y-23.405 I-3.162 J1.5
X28.414 Y-21.405 I0 J3.5
G1 X24.71
G2 X21.827 Y-23.155 I-2.883 J1.5
X18.943 Y-21.405 I0 J3.25
G1 X15.207
G2 X9.489 Y-21.405 I-2.859 J1.5
G1 X4.956
X4.847 Y-21.401
G2 X-8.602 Y-6.903 I1.051 J14.462
G1 Y-5.217
G2 X-10.01 Y4.848 I0.602 J5.215
X-9.443 Y4.963 I0.574 J-1.386
G1 X-7.109 Y4.974
X-7.102
X-7.087 Y4.978
X-7.08 Y4.987
X-7.077 Y4.999
X-7.084 Y5.016
X-7.102 Y5.024
X-7.108
X-9.442 Y5.034
G2 X-10.01 Y5.148 I0.007 J1.5
X-10.007 Y14.85 I2.01 J4.85
X-9.44 Y14.964 I0.573 J-1.386
G1 X-7.108 Y14.974
X-7.102
X-7.087 Y14.978
X-7.08 Y14.987
X-7.077 Y14.999
X-7.084 Y15.016
X-7.102 Y15.024
X-7.107
X-9.438 Y15.033
G2 X-10.005 Y15.146 I0.006 J1.5
X-10.002 Y24.852 I2.005 J4.852
X-9.436 Y24.965 I0.572 J-1.387
G1 X-7.107 Y24.974
X-7.102
X-7.087 Y24.978
X-7.08 Y24.987
X-7.077 Y24.999
X-7.084 Y25.016
X-7.102 Y25.024
X-7.107
X-9.434 Y25.031
G2 X-10.001 Y25.144 I0.005 J1.5
X-9.547 Y35.015 I2.001 J4.854
X-9.11 Y35.082 I0.442 J-1.433
G1 X-7.068 Y35.089
X-7.063
X-7.052 Y35.091
X-7.043 Y35.1
X-7.039 Y35.112
X-7.041 Y35.125
X-7.05 Y35.135
X-7.063 Y35.139
X-7.067
X-9.683 Y35.145
G2 X-10.351 Y35.304 I0.004 J1.5
X-8.001 Y45.248 I2.351 J4.694
G1 X-4.77 Y45.249
G2 X10.835 Y52.473 I14.684 J-11.253
G1 X38.596
G2 X52.922 Y40.212 I0 J-14.5
X53.82 Y30.215 I-1.086 J-5.137
X53.257 Y30.104 I-0.567 J1.389
G1 X51.599 Y30.101
X51.596
X51.578 Y30.093
X51.571 Y30.076
X51.578 Y30.058
X51.596 Y30.051
X51.6 Y30.05
X53.263 Y30.046
G2 X53.827 Y29.934 I-0.004 J-1.5
X53.825 Y20.217 I-1.991 J-4.858
X53.261 Y20.105 I-0.568 J1.388
G1 X51.6 Y20.101
X51.596
X51.592 Y20.1
X51.581 Y20.092
X51.574 Y20.084
X51.571 Y20.074
X51.579 Y20.057
X51.596 Y20.051
X51.602 Y20.05
X53.269 Y20.044
G2 X53.834 Y19.931 I-0.006 J-1.5
X53.832 Y10.22 I-1.998 J-4.855
X53.268 Y10.107 I-0.57 J1.387
G1 X53.096
Y10.042
X53.277 Y10.041
G2 X53.842 Y9.927 I-0.008 J-1.5
X53.096 Y-0.021 I-2.006 J-4.852
G1 Y-6.905
G2 X44.899 Y-19.963 I-14.5 J0
X42.228 Y-22.954 I-3.434 J0.379
X41.01 Y-23.009 I-0.763 J3.37
G1 Z-5.7 F300
G2 X38.528 Y-21.405 I0.455 J3.425 F1000
G1 X34.739
G2 X31.577 Y-23.405 I-3.162 J1.5
X28.414 Y-21.405 I0 J3.5
G1 X24.71
G2 X21.827 Y-23.155 I-2.883 J1.5
X18.943 Y-21.405 I0 J3.25
G1 X15.207
G2 X9.489 Y-21.405 I-2.859 J1.5
G1 X4.956
X4.847 Y-21.401
G2 X-8.602 Y-6.903 I1.051 J14.462
G1 Y-5.217
G2 X-10.01 Y4.848 I0.602 J5.215
X-9.443 Y4.963 I0.574 J-1.386
G1 X-7.109 Y4.974
X-7.102
X-7.087 Y4.978
X-7.08 Y4.987
X-7.077 Y4.999
X-7.084 Y5.016
X-7.102 Y5.024
X-7.108
X-9.442 Y5.034
G2 X-10.01 Y5.148 I0.007 J1.5
X-10.007 Y14.85 I2.01 J4.85
X-9.44 Y14.964 I0.573 J-1.386
G1 X-7.108 Y14.974
X-7.102
X-7.087 Y14.978
X-7.08 Y14.987
X-7.077 Y14.999
X-7.084 Y15.016
X-7.102 Y15.024
X-7.107
X-9.438 Y15.033
G2 X-10.005 Y15.146 I0.006 J1.5
X-10.002 Y24.852 I2.005 J4.852
X-9.436 Y24.965 I0.572 J-1.387
G1 X-7.107 Y24.974
X-7.102
X-7.087 Y24.978
X-7.08 Y24.987
X-7.077 Y24.999
X-7.084 Y25.016
X-7.102 Y25.024
X-7.107
X-9.434 Y25.031
G2 X-10.001 Y25.144 I0.005 J1.5
X-9.547 Y35.015 I2.001 J4.854
X-9.11 Y35.082 I0.442 J-1.433
G1 X-7.068 Y35.089
X-7.063
X-7.052 Y35.091
X-7.043 Y35.1
X-7.039 Y35.112
X-7.041 Y35.125
X-7.05 Y35.135
X-7.063 Y35.139
X-7.067
X-9.683 Y35.145
G2 X-10.351 Y35.304 I0.004 J1.5
X-8.001 Y45.248 I2.351 J4.694
G1 X-4.77 Y45.249
G2 X10.835 Y52.473 I14.684 J-11.253
G1 X38.596
G2 X52.922 Y40.212 I0 J-14.5
X53.82 Y30.215 I-1.086 J-5.137
X53.257 Y30.104 I-0.567 J1.389
G1 X51.599 Y30.101
X51.596
X51.578 Y30.093
X51.571 Y30.076
X51.578 Y30.058
X51.596 Y30.051
X51.6 Y30.05
X53.263 Y30.046
G2 X53.827 Y29.934 I-0.004 J-1.5
X53.825 Y20.217 I-1.991 J-4.858
X53.261 Y20.105 I-0.568 J1.388
G1 X51.6 Y20.101
X51.596
X51.592 Y20.1
X51.581 Y20.092
X51.574 Y20.084
X51.571 Y20.074
X51.579 Y20.057
X51.596 Y20.051
X51.602 Y20.05
X53.269 Y20.044
G2 X53.834 Y19.931 I-0.006 J-1.5
X53.832 Y10.22 I-1.998 J-4.855
X53.268 Y10.107 I-0.57 J1.387
G1 X53.096
Y10.042
X53.277 Y10.041
G2 X53.842 Y9.927 I-0.008 J-1.5
X53.096 Y-0.021 I-2.006 J-4.852
G1 Y-6.905
G2 X44.899 Y-19.963 I-14.5 J0
X42.228 Y-22.954 I-3.434 J0.379
X41.01 Y-23.009 I-0.763 J3.37
G1 Z-6 F300
G2 X38.528 Y-21.405 I0.455 J3.425 F1000
G1 X34.739
G2 X31.577 Y-23.405 I-3.162 J1.5
X28.414 Y-21.405 I0 J3.5
G1 X24.71
G2 X21.827 Y-23.155 I-2.883 J1.5
X18.943 Y-21.405 I0 J3.25
G1 X15.207
G2 X9.489 Y-21.405 I-2.859 J1.5
G1 X4.956
X4.847 Y-21.401
G2 X-8.602 Y-6.903 I1.051 J14.462
G1 Y-5.217
G2 X-10.01 Y4.848 I0.602 J5.215
X-9.443 Y4.963 I0.574 J-1.386
G1 X-7.109 Y4.974
X-7.102
X-7.087 Y4.978
X-7.08 Y4.987
X-7.077 Y4.999
X-7.084 Y5.016
X-7.102 Y5.024
X-7.108
X-9.442 Y5.034
G2 X-10.01 Y5.148 I0.007 J1.5
X-10.007 Y14.85 I2.01 J4.85
X-9.44 Y14.964 I0.573 J-1.386
G1 X-7.108 Y14.974
X-7.102
X-7.087 Y14.978
X-7.08 Y14.987
X-7.077 Y14.999
X-7.084 Y15.016
X-7.102 Y15.024
X-7.107
X-9.438 Y15.033
G2 X-10.005 Y15.146 I0.006 J1.5
X-10.002 Y24.852 I2.005 J4.852
X-9.436 Y24.965 I0.572 J-1.387
G1 X-7.107 Y24.974
X-7.102
X-7.087 Y24.978
X-7.08 Y24.987
X-7.077 Y24.999
X-7.084 Y25.016
X-7.102 Y25.024
X-7.107
X-9.434 Y25.031
G2 X-10.001 Y25.144 I0.005 J1.5
X-9.547 Y35.015 I2.001 J4.854
X-9.11 Y35.082 I0.442 J-1.433
G1 X-7.068 Y35.089
X-7.063
X-7.052 Y35.091
X-7.043 Y35.1
X-7.039 Y35.112
X-7.041 Y35.125
X-7.05 Y35.135
X-7.063 Y35.139
X-7.067
X-9.683 Y35.145
G2 X-10.351 Y35.304 I0.004 J1.5
X-8.001 Y45.248 I2.351 J4.694
G1 X-4.77 Y45.249
G2 X10.835 Y52.473 I14.684 J-11.253
G1 X38.596
G2 X52.922 Y40.212 I0 J-14.5
X53.82 Y30.215 I-1.086 J-5.137
X53.257 Y30.104 I-0.567 J1.389
G1 X51.599 Y30.101
X51.596
X51.578 Y30.093
X51.571 Y30.076
X51.578 Y30.058
X51.596 Y30.051
X51.6 Y30.05
X53.263 Y30.046
G2 X53.827 Y29.934 I-0.004 J-1.5
X53.825 Y20.217 I-1.991 J-4.858
X53.261 Y20.105 I-0.568 J1.388
G1 X51.6 Y20.101
X51.596
X51.592 Y20.1
X51.581 Y20.092
X51.574 Y20.084
X51.571 Y20.074
X51.579 Y20.057
X51.596 Y20.051
X51.602 Y20.05
X53.269 Y20.044
G2 X53.834 Y19.931 I-0.006 J-1.5
X53.832 Y10.22 I-1.998 J-4.855
X53.268 Y10.107 I-0.57 J1.387
G1 X53.096
Y10.042
X53.277 Y10.041
G2 X53.842 Y9.927 I-0.008 J-1.5
X53.096 Y-0.021 I-2.006 J-4.852
G1 Y-6.905
G2 X44.899 Y-19.963 I-14.5 J0
X42.228 Y-22.954 I-3.434 J0.379
X41.01 Y-23.009 I-0.763 J3.37
G1 Z-6.3 F300
G2 X38.528 Y-21.405 I0.455 J3.425 F1000
G1 X34.739
G2 X31.577 Y-23.405 I-3.162 J1.5
X28.414 Y-21.405 I0 J3.5
G1 X24.71
G2 X21.827 Y-23.155 I-2.883 J1.5
X18.943 Y-21.405 I0 J3.25
G1 X15.207
G2 X9.489 Y-21.405 I-2.859 J1.5
G1 X4.956
X4.847 Y-21.401
G2 X-8.602 Y-6.903 I1.051 J14.462
G1 Y-5.217
G2 X-10.01 Y4.848 I0.602 J5.215
X-9.443 Y4.963 I0.574 J-1.386
G1 X-7.109 Y4.974
X-7.102
X-7.087 Y4.978
X-7.08 Y4.987
X-7.077 Y4.999
X-7.084 Y5.016
X-7.102 Y5.024
X-7.108
X-9.442 Y5.034
G2 X-10.01 Y5.148 I0.007 J1.5
X-10.007 Y14.85 I2.01 J4.85
X-9.44 Y14.964 I0.573 J-1.386
G1 X-7.108 Y14.974
X-7.102
X-7.087 Y14.978
X-7.08 Y14.987
X-7.077 Y14.999
X-7.084 Y15.016
X-7.102 Y15.024
X-7.107
X-9.438 Y15.033
G2 X-10.005 Y15.146 I0.006 J1.5
X-10.002 Y24.852 I2.005 J4.852
X-9.436 Y24.965 I0.572 J-1.387
G1 X-7.107 Y24.974
X-7.102
X-7.087 Y24.978
X-7.08 Y24.987
X-7.077 Y24.999
X-7.084 Y25.016
X-7.102 Y25.024
X-7.107
X-9.434 Y25.031
G2 X-10.001 Y25.144 I0.005 J1.5
X-9.547 Y35.015 I2.001 J4.854
X-9.11 Y35.082 I0.442 J-1.433
G1 X-7.068 Y35.089
X-7.063
X-7.052 Y35.091
X-7.043 Y35.1
X-7.039 Y35.112
X-7.041 Y35.125
X-7.05 Y35.135
X-7.063 Y35.139
X-7.067
X-9.683 Y35.145
G2 X-10.351 Y35.304 I0.004 J1.5
X-8.001 Y45.248 I2.351 J4.694
G1 X-4.77 Y45.249
G2 X10.835 Y52.473 I14.684 J-11.253
G1 X38.596
G2 X52.922 Y40.212 I0 J-14.5
X53.82 Y30.215 I-1.086 J-5.137
X53.257 Y30.104 I-0.567 J1.389
G1 X51.599 Y30.101
X51.596
X51.578 Y30.093
X51.571 Y30.076
X51.578 Y30.058
X51.596 Y30.051
X51.6 Y30.05
X53.263 Y30.046
G2 X53.827 Y29.934 I-0.004 J-1.5
X53.825 Y20.217 I-1.991 J-4.858
X53.261 Y20.105 I-0.568 J1.388
G1 X51.6 Y20.101
X51.596
X51.592 Y20.1
X51.581 Y20.092
X51.574 Y20.084
X51.571 Y20.074
X51.579 Y20.057
X51.596 Y20.051
X51.602 Y20.05
X53.269 Y20.044
G2 X53.834 Y19.931 I-0.006 J-1.5
X53.832 Y10.22 I-1.998 J-4.855
X53.268 Y10.107 I-0.57 J1.387
G1 X53.096
Y10.042
X53.277 Y10.041
G2 X53.842 Y9.927 I-0.008 J-1.5
X53.096 Y-0.021 I-2.006 J-4.852
G1 Y-6.905
G2 X44.899 Y-19.963 I-14.5 J0
X42.228 Y-22.954 I-3.434 J0.379
X41.01 Y-23.009 I-0.763 J3.37
G1 Z-6.6 F300
G2 X38.528 Y-21.405 I0.455 J3.425 F1000
G1 X34.739
G2 X31.577 Y-23.405 I-3.162 J1.5
X28.414 Y-21.405 I0 J3.5
G1 X24.71
G2 X21.827 Y-23.155 I-2.883 J1.5
X18.943 Y-21.405 I0 J3.25
G1 X15.207
G2 X9.489 Y-21.405 I-2.859 J1.5
G1 X4.956
X4.847 Y-21.401
G2 X-8.602 Y-6.903 I1.051 J14.462
G1 Y-5.217
G2 X-10.01 Y4.848 I0.602 J5.215
X-9.443 Y4.963 I0.574 J-1.386
G1 X-7.109 Y4.974
X-7.102
X-7.087 Y4.978
X-7.08 Y4.987
X-7.077 Y4.999
X-7.084 Y5.016
X-7.102 Y5.024
X-7.108
X-9.442 Y5.034
G2 X-10.01 Y5.148 I0.007 J1.5
X-10.007 Y14.85 I2.01 J4.85
X-9.44 Y14.964 I0.573 J-1.386
G1 X-7.108 Y14.974
X-7.102
X-7.087 Y14.978
X-7.08 Y14.987
X-7.077 Y14.999
X-7.084 Y15.016
X-7.102 Y15.024
X-7.107
X-9.438 Y15.033
G2 X-10.005 Y15.146 I0.006 J1.5
X-10.002 Y24.852 I2.005 J4.852
X-9.436 Y24.965 I0.572 J-1.387
G1 X-7.107 Y24.974
X-7.102
X-7.087 Y24.978
X-7.08 Y24.987
X-7.077 Y24.999
X-7.084 Y25.016
X-7.102 Y25.024
X-7.107
X-9.434 Y25.031
G2 X-10.001 Y25.144 I0.005 J1.5
X-9.547 Y35.015 I2.001 J4.854
X-9.11 Y35.082 I0.442 J-1.433
G1 X-7.068 Y35.089
X-7.063
X-7.052 Y35.091
X-7.043 Y35.1
X-7.039 Y35.112
X-7.041 Y35.125
X-7.05 Y35.135
X-7.063 Y35.139
X-7.067
X-9.683 Y35.145
G2 X-10.351 Y35.304 I0.004 J1.5
X-8.001 Y45.248 I2.351 J4.694
G1 X-4.77 Y45.249
G2 X10.835 Y52.473 I14.684 J-11.253
G1 X38.596
G2 X52.922 Y40.212 I0 J-14.5
X53.82 Y30.215 I-1.086 J-5.137
X53.257 Y30.104 I-0.567 J1.389
G1 X51.599 Y30.101
X51.596
X51.578 Y30.093
X51.571 Y30.076
X51.578 Y30.058
X51.596 Y30.051
X51.6 Y30.05
X53.263 Y30.046
G2 X53.827 Y29.934 I-0.004 J-1.5
X53.825 Y20.217 I-1.991 J-4.858
X53.261 Y20.105 I-0.568 J1.388
G1 X51.6 Y20.101
X51.596
X51.592 Y20.1
X51.581 Y20.092
X51.574 Y20.084
X51.571 Y20.074
X51.579 Y20.057
X51.596 Y20.051
X51.602 Y20.05
X53.269 Y20.044
G2 X53.834 Y19.931 I-0.006 J-1.5
X53.832 Y10.22 I-1.998 J-4.855
X53.268 Y10.107 I-0.57 J1.387
G1 X53.096
Y10.042
X53.277 Y10.041
G2 X53.842 Y9.927 I-0.008 J-1.5
X53.096 Y-0.021 I-2.006 J-4.852
G1 Y-6.905
G2 X44.899 Y-19.963 I-14.5 J0
X42.228 Y-22.954 I-3.434 J0.379
X41.01 Y-23.009 I-0.763 J3.37
G1 Z-6.9 F300
G2 X38.528 Y-21.405 I0.455 J3.425 F1000
G1 X34.739
G2 X31.577 Y-23.405 I-3.162 J1.5
X28.414 Y-21.405 I0 J3.5
G1 X24.71
G2 X21.827 Y-23.155 I-2.883 J1.5
X18.943 Y-21.405 I0 J3.25
G1 X15.207
G2 X9.489 Y-21.405 I-2.859 J1.5
G1 X4.956
X4.847 Y-21.401
G2 X-8.602 Y-6.903 I1.051 J14.462
G1 Y-5.217
G2 X-10.01 Y4.848 I0.602 J5.215
X-9.443 Y4.963 I0.574 J-1.386
G1 X-7.109 Y4.974
X-7.102
X-7.087 Y4.978
X-7.08 Y4.987
X-7.077 Y4.999
X-7.084 Y5.016
X-7.102 Y5.024
X-7.108
X-9.442 Y5.034
G2 X-10.01 Y5.148 I0.007 J1.5
X-10.007 Y14.85 I2.01 J4.85
X-9.44 Y14.964 I0.573 J-1.386
G1 X-7.108 Y14.974
X-7.102
X-7.087 Y14.978
X-7.08 Y14.987
X-7.077 Y14.999
X-7.084 Y15.016
X-7.102 Y15.024
X-7.107
X-9.438 Y15.033
G2 X-10.005 Y15.146 I0.006 J1.5
X-10.002 Y24.852 I2.005 J4.852
X-9.436 Y24.965 I0.572 J-1.387
G1 X-7.107 Y24.974
X-7.102
X-7.087 Y24.978
X-7.08 Y24.987
X-7.077 Y24.999
X-7.084 Y25.016
X-7.102 Y25.024
X-7.107
X-9.434 Y25.031
G2 X-10.001 Y25.144 I0.005 J1.5
X-9.547 Y35.015 I2.001 J4.854
X-9.11 Y35.082 I0.442 J-1.433
G1 X-7.068 Y35.089
X-7.063
X-7.052 Y35.091
X-7.043 Y35.1
X-7.039 Y35.112
X-7.041 Y35.125
X-7.05 Y35.135
X-7.063 Y35.139
X-7.067
X-9.683 Y35.145
G2 X-10.351 Y35.304 I0.004 J1.5
X-8.001 Y45.248 I2.351 J4.694
G1 X-4.77 Y45.249
G2 X10.835 Y52.473 I14.684 J-11.253
G1 X38.596
G2 X52.922 Y40.212 I0 J-14.5
X53.82 Y30.215 I-1.086 J-5.137
X53.257 Y30.104 I-0.567 J1.389
G1 X51.599 Y30.101
X51.596
X51.578 Y30.093
X51.571 Y30.076
X51.578 Y30.058
X51.596 Y30.051
X51.6 Y30.05
X53.263 Y30.046
G2 X53.827 Y29.934 I-0.004 J-1.5
X53.825 Y20.217 I-1.991 J-4.858
X53.261 Y20.105 I-0.568 J1.388
G1 X51.6 Y20.101
X51.596
X51.592 Y20.1
X51.581 Y20.092
X51.574 Y20.084
X51.571 Y20.074
X51.579 Y20.057
X51.596 Y20.051
X51.602 Y20.05
X53.269 Y20.044
G2 X53.834 Y19.931 I-0.006 J-1.5
X53.832 Y10.22 I-1.998 J-4.855
X53.268 Y10.107 I-0.57 J1.387
G1 X53.096
Y10.042
X53.277 Y10.041
G2 X53.842 Y9.927 I-0.008 J-1.5
X53.096 Y-0.021 I-2.006 J-4.852
G1 Y-6.905
G2 X44.899 Y-19.963 I-14.5 J0
X42.228 Y-22.954 I-3.434 J0.379
X41.01 Y-23.009 I-0.763 J3.37
G1 Z-7.2 F300
G2 X38.528 Y-21.405 I0.455 J3.425 F1000
G1 X34.739
G2 X31.577 Y-23.405 I-3.162 J1.5
X28.414 Y-21.405 I0 J3.5
G1 X24.71
G2 X21.827 Y-23.155 I-2.883 J1.5
X18.943 Y-21.405 I0 J3.25
G1 X15.207
G2 X9.489 Y-21.405 I-2.859 J1.5
G1 X4.956
X4.847 Y-21.401
G2 X-8.602 Y-6.903 I1.051 J14.462
G1 Y-5.217
G2 X-10.01 Y4.848 I0.602 J5.215
X-9.443 Y4.963 I0.574 J-1.386
G1 X-7.109 Y4.974
X-7.102
X-7.087 Y4.978
X-7.08 Y4.987
X-7.077 Y4.999
X-7.084 Y5.016
X-7.102 Y5.024
X-7.108
X-9.442 Y5.034
G2 X-10.01 Y5.148 I0.007 J1.5
X-10.007 Y14.85 I2.01 J4.85
X-9.44 Y14.964 I0.573 J-1.386
G1 X-7.108 Y14.974
X-7.102
X-7.087 Y14.978
X-7.08 Y14.987
X-7.077 Y14.999
X-7.084 Y15.016
X-7.102 Y15.024
X-7.107
X-9.438 Y15.033
G2 X-10.005 Y15.146 I0.006 J1.5
X-10.002 Y24.852 I2.005 J4.852
X-9.436 Y24.965 I0.572 J-1.387
G1 X-7.107 Y24.974
X-7.102
X-7.087 Y24.978
X-7.08 Y24.987
X-7.077 Y24.999
X-7.084 Y25.016
X-7.102 Y25.024
X-7.107
X-9.434 Y25.031
G2 X-10.001 Y25.144 I0.005 J1.5
X-9.547 Y35.015 I2.001 J4.854
X-9.11 Y35.082 I0.442 J-1.433
G1 X-7.068 Y35.089
X-7.063
X-7.052 Y35.091
X-7.043 Y35.1
X-7.039 Y35.112
X-7.041 Y35.125
X-7.05 Y35.135
X-7.063 Y35.139
X-7.067
X-9.683 Y35.145
G2 X-10.351 Y35.304 I0.004 J1.5
X-8.001 Y45.248 I2.351 J4.694
G1 X-4.77 Y45.249
G2 X10.835 Y52.473 I14.684 J-11.253
G1 X38.596
G2 X52.922 Y40.212 I0 J-14.5
X53.82 Y30.215 I-1.086 J-5.137
X53.257 Y30.104 I-0.567 J1.389
G1 X51.599 Y30.101
X51.596
X51.578 Y30.093
X51.571 Y30.076
X51.578 Y30.058
X51.596 Y30.051
X51.6 Y30.05
X53.263 Y30.046
G2 X53.827 Y29.934 I-0.004 J-1.5
X53.825 Y20.217 I-1.991 J-4.858
X53.261 Y20.105 I-0.568 J1.388
G1 X51.6 Y20.101
X51.596
X51.592 Y20.1
X51.581 Y20.092
X51.574 Y20.084
X51.571 Y20.074
X51.579 Y20.057
X51.596 Y20.051
X51.602 Y20.05
X53.269 Y20.044
G2 X53.834 Y19.931 I-0.006 J-1.5
X53.832 Y10.22 I-1.998 J-4.855
X53.268 Y10.107 I-0.57 J1.387
G1 X53.096
Y10.042
X53.277 Y10.041
G2 X53.842 Y9.927 I-0.008 J-1.5
X53.096 Y-0.021 I-2.006 J-4.852
G1 Y-6.905
G2 X44.899 Y-19.963 I-14.5 J0
X42.228 Y-22.954 I-3.434 J0.379
X41.01 Y-23.009 I-0.763 J3.37
G1 Z-7.5 F300
G2 X38.528 Y-21.405 I0.455 J3.425 F1000
G1 X34.739
G2 X31.577 Y-23.405 I-3.162 J1.5
X28.414 Y-21.405 I0 J3.5
G1 X24.71
G2 X21.827 Y-23.155 I-2.883 J1.5
X18.943 Y-21.405 I0 J3.25
G1 X15.207
G2 X9.489 Y-21.405 I-2.859 J1.5
G1 X4.956
X4.847 Y-21.401
G2 X-3.074 Y-18.33 I1.051 J14.462
G1 Z-7.2
G2 X-6.134 Y-15.03 I8.972 J11.391
G1 Z-7.5 F300
G2 X-8.602 Y-6.903 I12.032 J8.091 F1000
G1 Y-5.217
G2 X-10.01 Y4.848 I0.602 J5.215
X-9.443 Y4.963 I0.574 J-1.386
G1 X-7.109 Y4.974
X-7.102
X-7.087 Y4.978
X-7.08 Y4.987
X-7.077 Y4.999
X-7.084 Y5.016
X-7.102 Y5.024
X-7.108
X-9.442 Y5.034
G2 X-10.01 Y5.148 I0.007 J1.5
X-10.007 Y14.85 I2.01 J4.85
X-9.44 Y14.964 I0.573 J-1.386
G1 X-7.108 Y14.974
X-7.102
X-7.087 Y14.978
X-7.08 Y14.987
X-7.077 Y14.999
X-7.084 Y15.016
X-7.102 Y15.024
X-7.107
X-9.438 Y15.033
G2 X-10.005 Y15.146 I0.006 J1.5
X-10.002 Y24.852 I2.005 J4.852
X-9.436 Y24.965 I0.572 J-1.387
G1 X-7.107 Y24.974
X-7.102
X-7.087 Y24.978
X-7.08 Y24.987
X-7.077 Y24.999
X-7.084 Y25.016
X-7.102 Y25.024
X-7.107
X-9.434 Y25.031
G2 X-10.001 Y25.144 I0.005 J1.5
X-9.547 Y35.015 I2.001 J4.854
X-9.11 Y35.082 I0.442 J-1.433
G1 X-7.068 Y35.089
X-7.063
X-7.052 Y35.091
X-7.043 Y35.1
X-7.039 Y35.112
X-7.041 Y35.125
X-7.05 Y35.135
X-7.063 Y35.139
X-7.067
X-9.683 Y35.145
G2 X-10.351 Y35.304 I0.004 J1.5
X-8.001 Y45.248 I2.351 J4.694
G1 X-4.77 Y45.249
G2 X-0.16 Y49.513 I14.684 J-11.253
G1 Z-7.2
G2 X3.884 Y51.486 I10.074 J-15.516
G1 Z-7.5 F300
G2 X10.835 Y52.473 I6.03 J-17.49 F1000
G1 X22.446
Z-7.2
X26.946
Z-7.5 F300
X38.596 F1000
G2 X46.745 Y49.967 I0 J-14.5
G1 Z-7.2
G2 X50.029 Y46.891 I-8.149 J-11.994
G1 Z-7.5 F300
G2 X52.922 Y40.212 I-11.434 J-8.918 F1000
X53.82 Y30.215 I-1.086 J-5.137
X53.257 Y30.104 I-0.567 J1.389
G1 X51.599 Y30.101
X51.596
X51.578 Y30.093
X51.571 Y30.076
X51.578 Y30.058
X51.596 Y30.051
X51.6 Y30.05
X53.263 Y30.046
G2 X53.827 Y29.934 I-0.004 J-1.5
X53.825 Y20.217 I-1.991 J-4.858
X53.261 Y20.105 I-0.568 J1.388
G1 X51.6 Y20.101
X51.596
X51.592 Y20.1
X51.581 Y20.092
X51.574 Y20.084
X51.571 Y20.074
X51.579 Y20.057
X51.596 Y20.051
X51.602 Y20.05
X53.269 Y20.044
G2 X53.834 Y19.931 I-0.006 J-1.5
X53.832 Y10.22 I-1.998 J-4.855
X53.268 Y10.107 I-0.57 J1.387
G1 X53.096
Y10.042
X53.277 Y10.041
G2 X53.842 Y9.927 I-0.008 J-1.5
X53.096 Y-0.021 I-2.006 J-4.852
G1 Y-6.905
G2 X51.696 Y-13.121 I-14.5 J0
G1 Z-7.2
G2 X49.159 Y-16.838 I-13.1 J6.216
G1 Z-7.5 F300
G2 X44.899 Y-19.963 I-10.564 J9.933 F1000
X42.228 Y-22.954 I-3.434 J0.379
X41.01 Y-23.009 I-0.763 J3.37
G1 Z-7.8 F300
G2 X38.528 Y-21.405 I0.455 J3.425 F1000
G1 X34.739
G2 X31.577 Y-23.405 I-3.162 J1.5
X28.414 Y-21.405 I0 J3.5
G1 X24.71
G2 X21.827 Y-23.155 I-2.883 J1.5
X18.943 Y-21.405 I0 J3.25
G1 X15.207
G2 X9.489 Y-21.405 I-2.859 J1.5
G1 X4.956
X4.847 Y-21.401
G2 X-3.074 Y-18.33 I1.051 J14.462
G1 Z-7.2
G2 X-6.134 Y-15.03 I8.972 J11.391
G1 Z-7.8 F300
G2 X-8.602 Y-6.903 I12.032 J8.091 F1000
G1 Y-5.217
G2 X-10.01 Y4.848 I0.602 J5.215
X-9.443 Y4.963 I0.574 J-1.386
G1 X-7.109 Y4.974
X-7.102
X-7.087 Y4.978
X-7.08 Y4.987
X-7.077 Y4.999
X-7.084 Y5.016
X-7.102 Y5.024
X-7.108
X-9.442 Y5.034
G2 X-10.01 Y5.148 I0.007 J1.5
X-10.007 Y14.85 I2.01 J4.85
X-9.44 Y14.964 I0.573 J-1.386
G1 X-7.108 Y14.974
X-7.102
X-7.087 Y14.978
X-7.08 Y14.987
X-7.077 Y14.999
X-7.084 Y15.016
X-7.102 Y15.024
X-7.107
X-9.438 Y15.033
G2 X-10.005 Y15.146 I0.006 J1.5
X-10.002 Y24.852 I2.005 J4.852
X-9.436 Y24.965 I0.572 J-1.387
G1 X-7.107 Y24.974
X-7.102
X-7.087 Y24.978
X-7.08 Y24.987
X-7.077 Y24.999
X-7.084 Y25.016
X-7.102 Y25.024
X-7.107
X-9.434 Y25.031
G2 X-10.001 Y25.144 I0.005 J1.5
X-9.547 Y35.015 I2.001 J4.854
X-9.11 Y35.082 I0.442 J-1.433
G1 X-7.068 Y35.089
X-7.063
X-7.052 Y35.091
X-7.043 Y35.1
X-7.039 Y35.112
X-7.041 Y35.125
X-7.05 Y35.135
X-7.063 Y35.139
X-7.067
X-9.683 Y35.145
G2 X-10.351 Y35.304 I0.004 J1.5
X-8.001 Y45.248 I2.351 J4.694
G1 X-4.77 Y45.249
G2 X-0.16 Y49.513 I14.684 J-11.253
G1 Z-7.2
G2 X3.884 Y51.486 I10.074 J-15.516
G1 Z-7.8 F300
G2 X10.835 Y52.473 I6.03 J-17.49 F1000
G1 X22.446
Z-7.2
X26.946
Z-7.8 F300
X38.596 F1000
G2 X46.745 Y49.967 I0 J-14.5
G1 Z-7.2
G2 X50.029 Y46.891 I-8.149 J-11.994
G1 Z-7.8 F300
G2 X52.922 Y40.212 I-11.434 J-8.918 F1000
X53.82 Y30.215 I-1.086 J-5.137
X53.257 Y30.104 I-0.567 J1.389
G1 X51.599 Y30.101
X51.596
X51.578 Y30.093
X51.571 Y30.076
X51.578 Y30.058
X51.596 Y30.051
X51.6 Y30.05
X53.263 Y30.046
G2 X53.827 Y29.934 I-0.004 J-1.5
X53.825 Y20.217 I-1.991 J-4.858
X53.261 Y20.105 I-0.568 J1.388
G1 X51.6 Y20.101
X51.596
X51.592 Y20.1
X51.581 Y20.092
X51.574 Y20.084
X51.571 Y20.074
X51.579 Y20.057
X51.596 Y20.051
X51.602 Y20.05
X53.269 Y20.044
G2 X53.834 Y19.931 I-0.006 J-1.5
X53.832 Y10.22 I-1.998 J-4.855
X53.268 Y10.107 I-0.57 J1.387
G1 X53.096
Y10.042
X53.277 Y10.041
G2 X53.842 Y9.927 I-0.008 J-1.5
X53.096 Y-0.021 I-2.006 J-4.852
G1 Y-6.905
G2 X51.696 Y-13.121 I-14.5 J0
G1 Z-7.2
G2 X49.159 Y-16.838 I-13.1 J6.216
G1 Z-7.8 F300
G2 X44.899 Y-19.963 I-10.564 J9.933 F1000
X42.228 Y-22.954 I-3.434 J0.379
X41.01 Y-23.009 I-0.763 J3.37
G1 Z-8.1 F300
G2 X38.528 Y-21.405 I0.455 J3.425 F1000
G1 X34.739
G2 X31.577 Y-23.405 I-3.162 J1.5
X28.414 Y-21.405 I0 J3.5
G1 X24.71
G2 X21.827 Y-23.155 I-2.883 J1.5
X18.943 Y-21.405 I0 J3.25
G1 X15.207
G2 X9.489 Y-21.405 I-2.859 J1.5
G1 X4.956
X4.847 Y-21.401
G2 X-3.074 Y-18.33 I1.051 J14.462
G1 Z-7.2
G2 X-6.134 Y-15.03 I8.972 J11.391
G1 Z-8.1 F300
G2 X-8.602 Y-6.903 I12.032 J8.091 F1000
G1 Y-5.217
G2 X-10.01 Y4.848 I0.602 J5.215
X-9.443 Y4.963 I0.574 J-1.386
G1 X-7.109 Y4.974
X-7.102
X-7.087 Y4.978
X-7.08 Y4.987
X-7.077 Y4.999
X-7.084 Y5.016
X-7.102 Y5.024
X-7.108
X-9.442 Y5.034
G2 X-10.01 Y5.148 I0.007 J1.5
X-10.007 Y14.85 I2.01 J4.85
X-9.44 Y14.964 I0.573 J-1.386
G1 X-7.108 Y14.974
X-7.102
X-7.087 Y14.978
X-7.08 Y14.987
X-7.077 Y14.999
X-7.084 Y15.016
X-7.102 Y15.024
X-7.107
X-9.438 Y15.033
G2 X-10.005 Y15.146 I0.006 J1.5
X-10.002 Y24.852 I2.005 J4.852
X-9.436 Y24.965 I0.572 J-1.387
G1 X-7.107 Y24.974
X-7.102
X-7.087 Y24.978
X-7.08 Y24.987
X-7.077 Y24.999
X-7.084 Y25.016
X-7.102 Y25.024
X-7.107
X-9.434 Y25.031
G2 X-10.001 Y25.144 I0.005 J1.5
X-9.547 Y35.015 I2.001 J4.854
X-9.11 Y35.082 I0.442 J-1.433
G1 X-7.068 Y35.089
X-7.063
X-7.052 Y35.091
X-7.043 Y35.1
X-7.039 Y35.112
X-7.041 Y35.125
X-7.05 Y35.135
X-7.063 Y35.139
X-7.067
X-9.683 Y35.145
G2 X-10.351 Y35.304 I0.004 J1.5
X-8.001 Y45.248 I2.351 J4.694
G1 X-4.77 Y45.249
G2 X-0.16 Y49.513 I14.684 J-11.253
G1 Z-7.2
G2 X3.884 Y51.486 I10.074 J-15.516
G1 Z-8.1 F300
G2 X10.835 Y52.473 I6.03 J-17.49 F1000
G1 X22.446
Z-7.2
X26.946
Z-8.1 F300
X38.596 F1000
G2 X46.745 Y49.967 I0 J-14.5
G1 Z-7.2
G2 X50.029 Y46.891 I-8.149 J-11.994
G1 Z-8.1 F300
G2 X52.922 Y40.212 I-11.434 J-8.918 F1000
X53.82 Y30.215 I-1.086 J-5.137
X53.257 Y30.104 I-0.567 J1.389
G1 X51.599 Y30.101
X51.596
X51.578 Y30.093
X51.571 Y30.076
X51.578 Y30.058
X51.596 Y30.051
X51.6 Y30.05
X53.263 Y30.046
G2 X53.827 Y29.934 I-0.004 J-1.5
X53.825 Y20.217 I-1.991 J-4.858
X53.261 Y20.105 I-0.568 J1.388
G1 X51.6 Y20.101
X51.596
X51.592 Y20.1
X51.581 Y20.092
X51.574 Y20.084
X51.571 Y20.074
X51.579 Y20.057
X51.596 Y20.051
X51.602 Y20.05
X53.269 Y20.044
G2 X53.834 Y19.931 I-0.006 J-1.5
X53.832 Y10.22 I-1.998 J-4.855
X53.268 Y10.107 I-0.57 J1.387
G1 X53.096
Y10.042
X53.277 Y10.041
G2 X53.842 Y9.927 I-0.008 J-1.5
X53.096 Y-0.021 I-2.006 J-4.852
G1 Y-6.905
G2 X51.696 Y-13.121 I-14.5 J0
G1 Z-7.2
G2 X49.159 Y-16.838 I-13.1 J6.216
G1 Z-8.1 F300
G2 X44.899 Y-19.963 I-10.564 J9.933 F1000
X42.228 Y-22.954 I-3.434 J0.379
X41.01 Y-23.009 I-0.763 J3.37
G1 Z-8.4 F300
G2 X38.528 Y-21.405 I0.455 J3.425 F1000
G1 X34.739
G2 X31.577 Y-23.405 I-3.162 J1.5
X28.414 Y-21.405 I0 J3.5
G1 X24.71
G2 X21.827 Y-23.155 I-2.883 J1.5
X18.943 Y-21.405 I0 J3.25
G1 X15.207
G2 X9.489 Y-21.405 I-2.859 J1.5
G1 X4.956
X4.847 Y-21.401
G2 X-3.074 Y-18.33 I1.051 J14.462
G1 Z-7.2
G2 X-6.134 Y-15.03 I8.972 J11.391
G1 Z-8.4 F300
G2 X-8.602 Y-6.903 I12.032 J8.091 F1000
G1 Y-5.217
G2 X-10.01 Y4.848 I0.602 J5.215
X-9.443 Y4.963 I0.574 J-1.386
G1 X-7.109 Y4.974
X-7.102
X-7.087 Y4.978
X-7.08 Y4.987
X-7.077 Y4.999
X-7.084 Y5.016
X-7.102 Y5.024
X-7.108
X-9.442 Y5.034
G2 X-10.01 Y5.148 I0.007 J1.5
X-10.007 Y14.85 I2.01 J4.85
X-9.44 Y14.964 I0.573 J-1.386
G1 X-7.108 Y14.974
X-7.102
X-7.087 Y14.978
X-7.08 Y14.987
X-7.077 Y14.999
X-7.084 Y15.016
X-7.102 Y15.024
X-7.107
X-9.438 Y15.033
G2 X-10.005 Y15.146 I0.006 J1.5
X-10.002 Y24.852 I2.005 J4.852
X-9.436 Y24.965 I0.572 J-1.387
G1 X-7.107 Y24.974
X-7.102
X-7.087 Y24.978
X-7.08 Y24.987
X-7.077 Y24.999
X-7.084 Y25.016
X-7.102 Y25.024
X-7.107
X-9.434 Y25.031
G2 X-10.001 Y25.144 I0.005 J1.5
X-9.547 Y35.015 I2.001 J4.854
X-9.11 Y35.082 I0.442 J-1.433
G1 X-7.068 Y35.089
X-7.063
X-7.052 Y35.091
X-7.043 Y35.1
X-7.039 Y35.112
X-7.041 Y35.125
X-7.05 Y35.135
X-7.063 Y35.139
X-7.067
X-9.683 Y35.145
G2 X-10.351 Y35.304 I0.004 J1.5
X-8.001 Y45.248 I2.351 J4.694
G1 X-4.77 Y45.249
G2 X-0.16 Y49.513 I14.684 J-11.253
G1 Z-7.2
G2 X3.884 Y51.486 I10.074 J-15.516
G1 Z-8.4 F300
G2 X10.835 Y52.473 I6.03 J-17.49 F1000
G1 X22.446
Z-7.2
X26.946
Z-8.4 F300
X38.596 F1000
G2 X46.745 Y49.967 I0 J-14.5
G1 Z-7.2
G2 X50.029 Y46.891 I-8.149 J-11.994
G1 Z-8.4 F300
G2 X52.922 Y40.212 I-11.434 J-8.918 F1000
X53.82 Y30.215 I-1.086 J-5.137
X53.257 Y30.104 I-0.567 J1.389
G1 X51.599 Y30.101
X51.596
X51.578 Y30.093
X51.571 Y30.076
X51.578 Y30.058
X51.596 Y30.051
X51.6 Y30.05
X53.263 Y30.046
G2 X53.827 Y29.934 I-0.004 J-1.5
X53.825 Y20.217 I-1.991 J-4.858
X53.261 Y20.105 I-0.568 J1.388
G1 X51.6 Y20.101
X51.596
X51.592 Y20.1
X51.581 Y20.092
X51.574 Y20.084
X51.571 Y20.074
X51.579 Y20.057
X51.596 Y20.051
X51.602 Y20.05
X53.269 Y20.044
G2 X53.834 Y19.931 I-0.006 J-1.5
X53.832 Y10.22 I-1.998 J-4.855
X53.268 Y10.107 I-0.57 J1.387
G1 X53.096
Y10.042
X53.277 Y10.041
G2 X53.842 Y9.927 I-0.008 J-1.5
X53.096 Y-0.021 I-2.006 J-4.852
G1 Y-6.905
G2 X51.696 Y-13.121 I-14.5 J0
G1 Z-7.2
G2 X49.159 Y-16.838 I-13.1 J6.216
G1 Z-8.4 F300
G2 X44.899 Y-19.963 I-10.564 J9.933 F1000
X42.228 Y-22.954 I-3.434 J0.379
X41.01 Y-23.009 I-0.763 J3.37
G1 Z-8.7 F300
G2 X38.528 Y-21.405 I0.455 J3.425 F1000
G1 X34.739
G2 X31.577 Y-23.405 I-3.162 J1.5
X28.414 Y-21.405 I0 J3.5
G1 X24.71
G2 X21.827 Y-23.155 I-2.883 J1.5
X18.943 Y-21.405 I0 J3.25
G1 X15.207
G2 X9.489 Y-21.405 I-2.859 J1.5
G1 X4.956
X4.847 Y-21.401
G2 X-3.074 Y-18.33 I1.051 J14.462
G1 Z-7.2
G2 X-6.134 Y-15.03 I8.972 J11.391
G1 Z-8.7 F300
G2 X-8.602 Y-6.903 I12.032 J8.091 F1000
G1 Y-5.217
G2 X-10.01 Y4.848 I0.602 J5.215
X-9.443 Y4.963 I0.574 J-1.386
G1 X-7.109 Y4.974
X-7.102
X-7.087 Y4.978
X-7.08 Y4.987
X-7.077 Y4.999
X-7.084 Y5.016
X-7.102 Y5.024
X-7.108
X-9.442 Y5.034
G2 X-10.01 Y5.148 I0.007 J1.5
X-10.007 Y14.85 I2.01 J4.85
X-9.44 Y14.964 I0.573 J-1.386
G1 X-7.108 Y14.974
X-7.102
X-7.087 Y14.978
X-7.08 Y14.987
X-7.077 Y14.999
X-7.084 Y15.016
X-7.102 Y15.024
X-7.107
X-9.438 Y15.033
G2 X-10.005 Y15.146 I0.006 J1.5
X-10.002 Y24.852 I2.005 J4.852
X-9.436 Y24.965 I0.572 J-1.387
G1 X-7.107 Y24.974
X-7.102
X-7.087 Y24.978
X-7.08 Y24.987
X-7.077 Y24.999
X-7.084 Y25.016
X-7.102 Y25.024
X-7.107
X-9.434 Y25.031
G2 X-10.001 Y25.144 I0.005 J1.5
X-9.547 Y35.015 I2.001 J4.854
X-9.11 Y35.082 I0.442 J-1.433
G1 X-7.068 Y35.089
X-7.063
X-7.052 Y35.091
X-7.043 Y35.1
X-7.039 Y35.112
X-7.041 Y35.125
X-7.05 Y35.135
X-7.063 Y35.139
X-7.067
X-9.683 Y35.145
G2 X-10.351 Y35.304 I0.004 J1.5
X-8.001 Y45.248 I2.351 J4.694
G1 X-4.77 Y45.249
G2 X-0.16 Y49.513 I14.684 J-11.253
G1 Z-7.2
G2 X3.884 Y51.486 I10.074 J-15.516
G1 Z-8.7 F300
G2 X10.835 Y52.473 I6.03 J-17.49 F1000
G1 X22.446
Z-7.2
X26.946
Z-8.7 F300
X38.596 F1000
G2 X46.745 Y49.967 I0 J-14.5
G1 Z-7.2
G2 X50.029 Y46.891 I-8.149 J-11.994
G1 Z-8.7 F300
G2 X52.922 Y40.212 I-11.434 J-8.918 F1000
X53.82 Y30.215 I-1.086 J-5.137
X53.257 Y30.104 I-0.567 J1.389
G1 X51.599 Y30.101
X51.596
X51.578 Y30.093
X51.571 Y30.076
X51.578 Y30.058
X51.596 Y30.051
X51.6 Y30.05
X53.263 Y30.046
G2 X53.827 Y29.934 I-0.004 J-1.5
X53.825 Y20.217 I-1.991 J-4.858
X53.261 Y20.105 I-0.568 J1.388
G1 X51.6 Y20.101
X51.596
X51.592 Y20.1
X51.581 Y20.092
X51.574 Y20.084
X51.571 Y20.074
X51.579 Y20.057
X51.596 Y20.051
X51.602 Y20.05
X53.269 Y20.044
G2 X53.834 Y19.931 I-0.006 J-1.5
X53.832 Y10.22 I-1.998 J-4.855
X53.268 Y10.107 I-0.57 J1.387
G1 X53.096
Y10.042
X53.277 Y10.041
G2 X53.842 Y9.927 I-0.008 J-1.5
X53.096 Y-0.021 I-2.006 J-4.852
G1 Y-6.905
G2 X51.696 Y-13.121 I-14.5 J0
G1 Z-7.2
G2 X49.159 Y-16.838 I-13.1 J6.216
G1 Z-8.7 F300
G2 X44.899 Y-19.963 I-10.564 J9.933 F1000
X42.228 Y-22.954 I-3.434 J0.379
X41.01 Y-23.009 I-0.763 J3.37
G1 Z6
M9
M5
M30
