(1001)
(Machine)
(  vendor: Autodesk)
(  description: Generic 3-axis)
(T4  D=3 CR=0 - ZMIN=-15 - flat end mill)
G90 G94
G17
G21

(2D Pocket5)
T4
S15000 M3
G54
M8
G0 X22.106 Y110.605
Z6
Z2
G3 X24.844 Y111.395 Z1.844 I1.369 J0.395 F333.3
X22.106 Y110.605 Z1.687 I-1.369 J-0.395
X24.844 Y111.395 Z1.531 I1.369 J0.395
X22.106 Y110.605 Z1.375 I-1.369 J-0.395
X24.844 Y111.395 Z1.218 I1.369 J0.395
X22.106 Y110.605 Z1.062 I-1.369 J-0.395
X24.844 Y111.395 Z0.906 I1.369 J0.395
X22.106 Y110.605 Z0.749 I-1.369 J-0.395
X24.844 Y111.395 Z0.593 I1.369 J0.395
X22.106 Y110.605 Z0.437 I-1.369 J-0.395
X24.844 Y111.395 Z0.28 I1.369 J0.395
X22.106 Y110.605 Z0.124 I-1.369 J-0.395
X24.844 Y111.395 Z-0.032 I1.369 J0.395
X22.106 Y110.605 Z-0.189 I-1.369 J-0.395
X24.844 Y111.395 Z-0.345 I1.369 J0.395
X22.106 Y110.605 Z-0.501 I-1.369 J-0.395
X24.844 Y111.395 Z-0.658 I1.369 J0.395
X22.05 Y111 Z-0.8 I-1.369 J-0.395
X24.8 Y111 I1.375 J0 F700
X19.2 Y111 I-2.8 J0
X27.65 Y111 I4.225 J0
X16.35 Y111 I-5.65 J0
X30.5 Y111 I7.075 J0
X13.5 Y111 I-8.5 J0
X30.5 Y111 I8.5 J0
X29.436 Y111.911 I-0.922 J0
G1 X25.202 Y111.249
X25.091 Y111.238
X24.979 Y111.241
G3 X24.818 Y109.405 I-0.08 J-0.918
X25.324 Y111.141 I0.08 J0.918
G1 X24.369 Y111.637
G3 X23.52 Y110.001 I-0.425 J-0.818
X24.804 Y110.487 I0.425 J0.818
X22.146 Y111.513 Z-0.956 I-1.329 J0.513 F333.3
X24.804 Y110.487 Z-1.113 I1.329 J-0.513
X22.146 Y111.513 Z-1.269 I-1.329 J0.513
X24.804 Y110.487 Z-1.425 I1.329 J-0.513
X22.146 Y111.513 Z-1.582 I-1.329 J0.513
X22.05 Y111 Z-1.6 I1.329 J-0.513
X24.8 Y111 I1.375 J0 F700
X19.2 Y111 I-2.8 J0
X27.65 Y111 I4.225 J0
X16.35 Y111 I-5.65 J0
X30.5 Y111 I7.075 J0
X13.5 Y111 I-8.5 J0
X30.5 Y111 I8.5 J0
X29.436 Y111.911 I-0.922 J0
G1 X25.202 Y111.249
X25.091 Y111.238
X24.979 Y111.241
G3 X24.818 Y109.405 I-0.08 J-0.918
X25.324 Y111.141 I0.08 J0.918
G1 X24.369 Y111.637
G3 X23.52 Y110.001 I-0.425 J-0.818
X24.804 Y110.487 I0.425 J0.818
X22.146 Y111.513 Z-1.756 I-1.329 J0.513 F333.3
X24.804 Y110.487 Z-1.913 I1.329 J-0.513
X22.146 Y111.513 Z-2.069 I-1.329 J0.513
X24.804 Y110.487 Z-2.225 I1.329 J-0.513
X22.146 Y111.513 Z-2.382 I-1.329 J0.513
X22.05 Y111 Z-2.4 I1.329 J-0.513
X24.8 Y111 I1.375 J0 F700
X19.2 Y111 I-2.8 J0
X27.65 Y111 I4.225 J0
X16.35 Y111 I-5.65 J0
X30.5 Y111 I7.075 J0
X13.5 Y111 I-8.5 J0
X30.5 Y111 I8.5 J0
X29.436 Y111.911 I-0.922 J0
G1 X25.202 Y111.249
X25.091 Y111.238
X24.979 Y111.241
G3 X24.818 Y109.405 I-0.08 J-0.918
X25.324 Y111.141 I0.08 J0.918
G1 X24.369 Y111.637
G3 X23.52 Y110.001 I-0.425 J-0.818
X24.804 Y110.487 I0.425 J0.818
X22.146 Y111.513 Z-2.556 I-1.329 J0.513 F333.3
X24.804 Y110.487 Z-2.713 I1.329 J-0.513
X22.146 Y111.513 Z-2.869 I-1.329 J0.513
X24.804 Y110.487 Z-3.025 I1.329 J-0.513
X22.146 Y111.513 Z-3.182 I-1.329 J0.513
X22.05 Y111 Z-3.2 I1.329 J-0.513
X24.8 Y111 I1.375 J0 F700
X19.2 Y111 I-2.8 J0
X27.65 Y111 I4.225 J0
X16.35 Y111 I-5.65 J0
X30.5 Y111 I7.075 J0
X13.5 Y111 I-8.5 J0
X30.5 Y111 I8.5 J0
X29.436 Y111.911 I-0.922 J0
G1 X25.202 Y111.249
X25.091 Y111.238
X24.979 Y111.241
G3 X24.818 Y109.405 I-0.08 J-0.918
X25.324 Y111.141 I0.08 J0.918
G1 X24.369 Y111.637
G3 X23.52 Y110.001 I-0.425 J-0.818
X24.804 Y110.487 I0.425 J0.818
X22.146 Y111.513 Z-3.356 I-1.329 J0.513 F333.3
X24.804 Y110.487 Z-3.513 I1.329 J-0.513
X22.146 Y111.513 Z-3.669 I-1.329 J0.513
X24.804 Y110.487 Z-3.825 I1.329 J-0.513
X22.146 Y111.513 Z-3.982 I-1.329 J0.513
X22.05 Y111 Z-4 I1.329 J-0.513
X24.8 Y111 I1.375 J0 F700
X19.2 Y111 I-2.8 J0
X27.65 Y111 I4.225 J0
X16.35 Y111 I-5.65 J0
X30.5 Y111 I7.075 J0
X13.5 Y111 I-8.5 J0
X30.5 Y111 I8.5 J0
X29.436 Y111.911 I-0.922 J0
G1 X25.202 Y111.249
X25.091 Y111.238
X24.979 Y111.241
G3 X24.818 Y109.405 I-0.08 J-0.918
X25.324 Y111.141 I0.08 J0.918
G1 X24.369 Y111.637
G3 X23.52 Y110.001 I-0.425 J-0.818
X24.804 Y110.487 I0.425 J0.818
X22.146 Y111.513 Z-4.156 I-1.329 J0.513 F333.3
X24.804 Y110.487 Z-4.313 I1.329 J-0.513
X22.146 Y111.513 Z-4.469 I-1.329 J0.513
X24.804 Y110.487 Z-4.625 I1.329 J-0.513
X22.146 Y111.513 Z-4.782 I-1.329 J0.513
X22.05 Y111 Z-4.8 I1.329 J-0.513
X24.8 Y111 I1.375 J0 F700
X19.2 Y111 I-2.8 J0
X27.65 Y111 I4.225 J0
X16.35 Y111 I-5.65 J0
X30.5 Y111 I7.075 J0
X13.5 Y111 I-8.5 J0
X30.5 Y111 I8.5 J0
X29.436 Y111.911 I-0.922 J0
G1 X25.202 Y111.249
X25.091 Y111.238
X24.979 Y111.241
G3 X24.818 Y109.405 I-0.08 J-0.918
X25.324 Y111.141 I0.08 J0.918
G1 X24.369 Y111.637
G3 X23.52 Y110.001 I-0.425 J-0.818
X24.804 Y110.487 I0.425 J0.818
X22.146 Y111.513 Z-4.956 I-1.329 J0.513 F333.3
X24.804 Y110.487 Z-5.113 I1.329 J-0.513
X22.146 Y111.513 Z-5.269 I-1.329 J0.513
X24.804 Y110.487 Z-5.425 I1.329 J-0.513
X22.146 Y111.513 Z-5.582 I-1.329 J0.513
X22.05 Y111 Z-5.6 I1.329 J-0.513
X24.8 Y111 I1.375 J0 F700
X19.2 Y111 I-2.8 J0
X27.65 Y111 I4.225 J0
X16.35 Y111 I-5.65 J0
X30.5 Y111 I7.075 J0
X13.5 Y111 I-8.5 J0
X30.5 Y111 I8.5 J0
X29.436 Y111.911 I-0.922 J0
G1 X25.202 Y111.249
X25.091 Y111.238
X24.979 Y111.241
G3 X24.818 Y109.405 I-0.08 J-0.918
X25.324 Y111.141 I0.08 J0.918
G1 X24.369 Y111.637
G3 X23.52 Y110.001 I-0.425 J-0.818
X24.804 Y110.487 I0.425 J0.818
X22.146 Y111.513 Z-5.756 I-1.329 J0.513 F333.3
X24.804 Y110.487 Z-5.913 I1.329 J-0.513
X22.146 Y111.513 Z-6.069 I-1.329 J0.513
X24.804 Y110.487 Z-6.225 I1.329 J-0.513
X22.146 Y111.513 Z-6.382 I-1.329 J0.513
X22.05 Y111 Z-6.4 I1.329 J-0.513
X24.8 Y111 I1.375 J0 F700
X19.2 Y111 I-2.8 J0
X27.65 Y111 I4.225 J0
X16.35 Y111 I-5.65 J0
X30.5 Y111 I7.075 J0
X13.5 Y111 I-8.5 J0
X30.5 Y111 I8.5 J0
X29.436 Y111.911 I-0.922 J0
G1 X25.202 Y111.249
X25.091 Y111.238
X24.979 Y111.241
G3 X24.818 Y109.405 I-0.08 J-0.918
X25.324 Y111.141 I0.08 J0.918
G1 X24.369 Y111.637
G3 X23.52 Y110.001 I-0.425 J-0.818
X24.804 Y110.487 I0.425 J0.818
X22.146 Y111.513 Z-6.556 I-1.329 J0.513 F333.3
X24.804 Y110.487 Z-6.713 I1.329 J-0.513
X22.146 Y111.513 Z-6.869 I-1.329 J0.513
X24.804 Y110.487 Z-7.025 I1.329 J-0.513
X22.146 Y111.513 Z-7.182 I-1.329 J0.513
X22.05 Y111 Z-7.2 I1.329 J-0.513
X24.8 Y111 I1.375 J0 F700
X19.2 Y111 I-2.8 J0
X27.65 Y111 I4.225 J0
X16.35 Y111 I-5.65 J0
X30.5 Y111 I7.075 J0
X13.5 Y111 I-8.5 J0
X30.5 Y111 I8.5 J0
X29.436 Y111.911 I-0.922 J0
G1 X25.202 Y111.249
X25.091 Y111.238
X24.979 Y111.241
G3 X24.818 Y109.405 I-0.08 J-0.918
X25.324 Y111.141 I0.08 J0.918
G1 X24.369 Y111.637
G3 X23.52 Y110.001 I-0.425 J-0.818
X24.804 Y110.487 I0.425 J0.818
X22.146 Y111.513 Z-7.356 I-1.329 J0.513 F333.3
X24.804 Y110.487 Z-7.513 I1.329 J-0.513
X22.146 Y111.513 Z-7.669 I-1.329 J0.513
X24.804 Y110.487 Z-7.825 I1.329 J-0.513
X22.146 Y111.513 Z-7.982 I-1.329 J0.513
X22.05 Y111 Z-8 I1.329 J-0.513
X24.8 Y111 I1.375 J0 F700
X19.2 Y111 I-2.8 J0
X27.65 Y111 I4.225 J0
X16.35 Y111 I-5.65 J0
X30.5 Y111 I7.075 J0
X13.5 Y111 I-8.5 J0
X30.5 Y111 I8.5 J0
X29.436 Y111.911 I-0.922 J0
G1 X25.202 Y111.249
X25.091 Y111.238
X24.979 Y111.241
G3 X24.818 Y109.405 I-0.08 J-0.918
X25.324 Y111.141 I0.08 J0.918
G1 X24.369 Y111.637
G3 X23.52 Y110.001 I-0.425 J-0.818
X24.804 Y110.487 I0.425 J0.818
X22.146 Y111.513 Z-8.156 I-1.329 J0.513 F333.3
X24.804 Y110.487 Z-8.313 I1.329 J-0.513
X22.146 Y111.513 Z-8.469 I-1.329 J0.513
X24.804 Y110.487 Z-8.625 I1.329 J-0.513
X22.146 Y111.513 Z-8.782 I-1.329 J0.513
X22.05 Y111 Z-8.8 I1.329 J-0.513
X24.8 Y111 I1.375 J0 F700
X19.2 Y111 I-2.8 J0
X27.65 Y111 I4.225 J0
X16.35 Y111 I-5.65 J0
X30.5 Y111 I7.075 J0
X13.5 Y111 I-8.5 J0
X30.5 Y111 I8.5 J0
X29.436 Y111.911 I-0.922 J0
G1 X25.202 Y111.249
X25.091 Y111.238
X24.979 Y111.241
G3 X24.818 Y109.405 I-0.08 J-0.918
X25.324 Y111.141 I0.08 J0.918
G1 X24.369 Y111.637
G3 X23.52 Y110.001 I-0.425 J-0.818
X24.804 Y110.487 I0.425 J0.818
X22.146 Y111.513 Z-8.956 I-1.329 J0.513 F333.3
X24.804 Y110.487 Z-9.113 I1.329 J-0.513
X22.146 Y111.513 Z-9.269 I-1.329 J0.513
X24.804 Y110.487 Z-9.425 I1.329 J-0.513
X22.146 Y111.513 Z-9.582 I-1.329 J0.513
X22.05 Y111 Z-9.6 I1.329 J-0.513
X24.8 Y111 I1.375 J0 F700
X19.2 Y111 I-2.8 J0
X27.65 Y111 I4.225 J0
X16.35 Y111 I-5.65 J0
X30.5 Y111 I7.075 J0
X13.5 Y111 I-8.5 J0
X30.5 Y111 I8.5 J0
X29.436 Y111.911 I-0.922 J0
G1 X25.202 Y111.249
X25.091 Y111.238
X24.979 Y111.241
G3 X24.818 Y109.405 I-0.08 J-0.918
X25.324 Y111.141 I0.08 J0.918
G1 X24.369 Y111.637
G3 X23.52 Y110.001 I-0.425 J-0.818
X24.804 Y110.487 I0.425 J0.818
X22.146 Y111.513 Z-9.756 I-1.329 J0.513 F333.3
X24.804 Y110.487 Z-9.913 I1.329 J-0.513
X22.146 Y111.513 Z-10.069 I-1.329 J0.513
X24.804 Y110.487 Z-10.225 I1.329 J-0.513
X22.146 Y111.513 Z-10.382 I-1.329 J0.513
X22.05 Y111 Z-10.4 I1.329 J-0.513
X24.8 Y111 I1.375 J0 F700
X19.2 Y111 I-2.8 J0
X27.65 Y111 I4.225 J0
X16.35 Y111 I-5.65 J0
X30.5 Y111 I7.075 J0
X13.5 Y111 I-8.5 J0
X30.5 Y111 I8.5 J0
X29.436 Y111.911 I-0.922 J0
G1 X25.202 Y111.249
X25.091 Y111.238
X24.979 Y111.241
G3 X24.818 Y109.405 I-0.08 J-0.918
X25.324 Y111.141 I0.08 J0.918
G1 X24.369 Y111.637
G3 X23.52 Y110.001 I-0.425 J-0.818
X24.804 Y110.487 I0.425 J0.818
X22.146 Y111.513 Z-10.556 I-1.329 J0.513 F333.3
X24.804 Y110.487 Z-10.713 I1.329 J-0.513
X22.146 Y111.513 Z-10.869 I-1.329 J0.513
X24.804 Y110.487 Z-11.025 I1.329 J-0.513
X22.146 Y111.513 Z-11.182 I-1.329 J0.513
X22.05 Y111 Z-11.2 I1.329 J-0.513
X24.8 Y111 I1.375 J0 F700
X19.2 Y111 I-2.8 J0
X27.65 Y111 I4.225 J0
X16.35 Y111 I-5.65 J0
X30.5 Y111 I7.075 J0
X13.5 Y111 I-8.5 J0
X30.5 Y111 I8.5 J0
X29.436 Y111.911 I-0.922 J0
G1 X25.202 Y111.249
X25.091 Y111.238
X24.979 Y111.241
G3 X24.818 Y109.405 I-0.08 J-0.918
X25.324 Y111.141 I0.08 J0.918
G1 X24.369 Y111.637
G3 X23.52 Y110.001 I-0.425 J-0.818
X24.804 Y110.487 I0.425 J0.818
X22.146 Y111.513 Z-11.356 I-1.329 J0.513 F333.3
X24.804 Y110.487 Z-11.513 I1.329 J-0.513
X22.146 Y111.513 Z-11.669 I-1.329 J0.513
X24.804 Y110.487 Z-11.825 I1.329 J-0.513
X22.146 Y111.513 Z-11.982 I-1.329 J0.513
X22.05 Y111 Z-12 I1.329 J-0.513
X24.8 Y111 I1.375 J0 F700
X19.2 Y111 I-2.8 J0
X27.65 Y111 I4.225 J0
X16.35 Y111 I-5.65 J0
X30.5 Y111 I7.075 J0
X13.5 Y111 I-8.5 J0
X30.5 Y111 I8.5 J0
X29.436 Y111.911 I-0.922 J0
G1 X25.202 Y111.249
X25.091 Y111.238
X24.979 Y111.241
G3 X24.818 Y109.405 I-0.08 J-0.918
X25.324 Y111.141 I0.08 J0.918
G1 X24.369 Y111.637
G3 X23.52 Y110.001 I-0.425 J-0.818
X24.804 Y110.487 I0.425 J0.818
X22.146 Y111.513 Z-12.156 I-1.329 J0.513 F333.3
X24.804 Y110.487 Z-12.313 I1.329 J-0.513
X22.146 Y111.513 Z-12.469 I-1.329 J0.513
X24.804 Y110.487 Z-12.625 I1.329 J-0.513
X22.146 Y111.513 Z-12.782 I-1.329 J0.513
X22.05 Y111 Z-12.8 I1.329 J-0.513
X24.8 Y111 I1.375 J0 F700
X19.2 Y111 I-2.8 J0
X27.65 Y111 I4.225 J0
X16.35 Y111 I-5.65 J0
X30.5 Y111 I7.075 J0
X13.5 Y111 I-8.5 J0
X30.5 Y111 I8.5 J0
X29.436 Y111.911 I-0.922 J0
G1 X25.202 Y111.249
X25.091 Y111.238
X24.979 Y111.241
G3 X24.818 Y109.405 I-0.08 J-0.918
X25.324 Y111.141 I0.08 J0.918
G1 X24.369 Y111.637
G3 X23.52 Y110.001 I-0.425 J-0.818
X24.804 Y110.487 I0.425 J0.818
X22.146 Y111.513 Z-12.956 I-1.329 J0.513 F333.3
X24.804 Y110.487 Z-13.113 I1.329 J-0.513
X22.146 Y111.513 Z-13.269 I-1.329 J0.513
X24.804 Y110.487 Z-13.425 I1.329 J-0.513
X22.146 Y111.513 Z-13.582 I-1.329 J0.513
X22.05 Y111 Z-13.6 I1.329 J-0.513
X24.8 Y111 I1.375 J0 F700
X19.2 Y111 I-2.8 J0
X27.65 Y111 I4.225 J0
X16.35 Y111 I-5.65 J0
X30.5 Y111 I7.075 J0
X13.5 Y111 I-8.5 J0
X30.5 Y111 I8.5 J0
X29.436 Y111.911 I-0.922 J0
G1 X25.202 Y111.249
X25.091 Y111.238
X24.979 Y111.241
G3 X24.818 Y109.405 I-0.08 J-0.918
X25.324 Y111.141 I0.08 J0.918
G1 X24.369 Y111.637
G3 X23.52 Y110.001 I-0.425 J-0.818
X24.804 Y110.487 I0.425 J0.818
X22.146 Y111.513 Z-13.756 I-1.329 J0.513 F333.3
X24.804 Y110.487 Z-13.913 I1.329 J-0.513
X22.146 Y111.513 Z-14.069 I-1.329 J0.513
X24.804 Y110.487 Z-14.225 I1.329 J-0.513
X22.146 Y111.513 Z-14.382 I-1.329 J0.513
X22.05 Y111 Z-14.4 I1.329 J-0.513
X24.8 Y111 I1.375 J0 F700
X19.2 Y111 I-2.8 J0
X27.65 Y111 I4.225 J0
X16.35 Y111 I-5.65 J0
X30.5 Y111 I7.075 J0
X13.5 Y111 I-8.5 J0
X30.5 Y111 I8.5 J0
X29.675 Y111.704 I-0.713 J0
G1 X26.4 Y111.18
X26.315 Y111.172
X26.23 Y111.174
X22.894 Y111.365
G3 X22.231 Y110.306 I-0.041 J-0.712
X24.719 Y111.694 Z-14.556 I1.244 J0.694 F333.3
X22.231 Y110.306 Z-14.713 I-1.244 J-0.694
X24.719 Y111.694 Z-14.869 I1.244 J0.694
X22.05 Y111 Z-15 I-1.244 J-0.694
X24.8 Y111 I1.375 J0 F700
X19.2 Y111 I-2.8 J0
X27.65 Y111 I4.225 J0
X16.35 Y111 I-5.65 J0
X30.5 Y111 I7.075 J0
X13.5 Y111 I-8.5 J0
X30.5 Y111 I8.5 J0
G0 Z6
X11.006 Y94.605
Z2
G3 X13.744 Y95.395 Z1.844 I1.369 J0.395 F333.3
X11.006 Y94.605 Z1.687 I-1.369 J-0.395
X13.744 Y95.395 Z1.531 I1.369 J0.395
X11.006 Y94.605 Z1.375 I-1.369 J-0.395
X13.744 Y95.395 Z1.218 I1.369 J0.395
X11.006 Y94.605 Z1.062 I-1.369 J-0.395
X13.744 Y95.395 Z0.906 I1.369 J0.395
X11.006 Y94.605 Z0.749 I-1.369 J-0.395
X13.744 Y95.395 Z0.593 I1.369 J0.395
X11.006 Y94.605 Z0.437 I-1.369 J-0.395
X13.744 Y95.395 Z0.28 I1.369 J0.395
X11.006 Y94.605 Z0.124 I-1.369 J-0.395
X13.744 Y95.395 Z-0.032 I1.369 J0.395
X11.006 Y94.605 Z-0.189 I-1.369 J-0.395
X13.744 Y95.395 Z-0.345 I1.369 J0.395
X11.006 Y94.605 Z-0.501 I-1.369 J-0.395
X13.744 Y95.395 Z-0.658 I1.369 J0.395
X10.95 Y95 Z-0.8 I-1.369 J-0.395
X11.9 Y95 I0.475 J0 F700
X8.1 Y95 I-1.9 J0
X14.75 Y95 I3.325 J0
X5.25 Y95 I-4.75 J0
X14.75 Y95 I4.75 J0
X14.364 Y95.073 I-0.2 J0
G1 X14.077 Y94.342
G2 X13.704 Y94.487 I-0.186 J0.073
G3 X11.046 Y95.513 Z-0.956 I-1.329 J0.513 F333.3
X13.704 Y94.487 Z-1.113 I1.329 J-0.513
X11.046 Y95.513 Z-1.269 I-1.329 J0.513
X13.704 Y94.487 Z-1.425 I1.329 J-0.513
X11.046 Y95.513 Z-1.582 I-1.329 J0.513
X10.95 Y95 Z-1.6 I1.329 J-0.513
X11.9 Y95 I0.475 J0 F700
X8.1 Y95 I-1.9 J0
X14.75 Y95 I3.325 J0
X5.25 Y95 I-4.75 J0
X14.75 Y95 I4.75 J0
X14.364 Y95.073 I-0.2 J0
G1 X14.077 Y94.342
G2 X13.704 Y94.487 I-0.186 J0.073
G3 X11.046 Y95.513 Z-1.756 I-1.329 J0.513 F333.3
X13.704 Y94.487 Z-1.913 I1.329 J-0.513
X11.046 Y95.513 Z-2.069 I-1.329 J0.513
X13.704 Y94.487 Z-2.225 I1.329 J-0.513
X11.046 Y95.513 Z-2.382 I-1.329 J0.513
X10.95 Y95 Z-2.4 I1.329 J-0.513
X11.9 Y95 I0.475 J0 F700
X8.1 Y95 I-1.9 J0
X14.75 Y95 I3.325 J0
X5.25 Y95 I-4.75 J0
X14.75 Y95 I4.75 J0
X14.364 Y95.073 I-0.2 J0
G1 X14.077 Y94.342
G2 X13.704 Y94.487 I-0.186 J0.073
G3 X11.046 Y95.513 Z-2.556 I-1.329 J0.513 F333.3
X13.704 Y94.487 Z-2.713 I1.329 J-0.513
X11.046 Y95.513 Z-2.869 I-1.329 J0.513
X13.704 Y94.487 Z-3.025 I1.329 J-0.513
X11.046 Y95.513 Z-3.182 I-1.329 J0.513
X10.95 Y95 Z-3.2 I1.329 J-0.513
X11.9 Y95 I0.475 J0 F700
X8.1 Y95 I-1.9 J0
X14.75 Y95 I3.325 J0
X5.25 Y95 I-4.75 J0
X14.75 Y95 I4.75 J0
X14.364 Y95.073 I-0.2 J0
G1 X14.077 Y94.342
G2 X13.704 Y94.487 I-0.186 J0.073
G3 X11.046 Y95.513 Z-3.356 I-1.329 J0.513 F333.3
X13.704 Y94.487 Z-3.513 I1.329 J-0.513
X11.046 Y95.513 Z-3.669 I-1.329 J0.513
X13.704 Y94.487 Z-3.825 I1.329 J-0.513
X11.046 Y95.513 Z-3.982 I-1.329 J0.513
X10.95 Y95 Z-4 I1.329 J-0.513
X11.9 Y95 I0.475 J0 F700
X8.1 Y95 I-1.9 J0
X14.75 Y95 I3.325 J0
X5.25 Y95 I-4.75 J0
X14.75 Y95 I4.75 J0
X14.364 Y95.073 I-0.2 J0
G1 X14.077 Y94.342
G2 X13.704 Y94.487 I-0.186 J0.073
G3 X11.046 Y95.513 Z-4.156 I-1.329 J0.513 F333.3
X13.704 Y94.487 Z-4.313 I1.329 J-0.513
X11.046 Y95.513 Z-4.469 I-1.329 J0.513
X13.704 Y94.487 Z-4.625 I1.329 J-0.513
X11.046 Y95.513 Z-4.782 I-1.329 J0.513
X10.95 Y95 Z-4.8 I1.329 J-0.513
X11.9 Y95 I0.475 J0 F700
X8.1 Y95 I-1.9 J0
X14.75 Y95 I3.325 J0
X5.25 Y95 I-4.75 J0
X14.75 Y95 I4.75 J0
X14.364 Y95.073 I-0.2 J0
G1 X14.077 Y94.342
G2 X13.704 Y94.487 I-0.186 J0.073
G3 X11.046 Y95.513 Z-4.956 I-1.329 J0.513 F333.3
X13.704 Y94.487 Z-5.113 I1.329 J-0.513
X11.046 Y95.513 Z-5.269 I-1.329 J0.513
X13.704 Y94.487 Z-5.425 I1.329 J-0.513
X11.046 Y95.513 Z-5.582 I-1.329 J0.513
X10.95 Y95 Z-5.6 I1.329 J-0.513
X11.9 Y95 I0.475 J0 F700
X8.1 Y95 I-1.9 J0
X14.75 Y95 I3.325 J0
X5.25 Y95 I-4.75 J0
X14.75 Y95 I4.75 J0
X14.364 Y95.073 I-0.2 J0
G1 X14.077 Y94.342
G2 X13.704 Y94.487 I-0.186 J0.073
G3 X11.046 Y95.513 Z-5.756 I-1.329 J0.513 F333.3
X13.704 Y94.487 Z-5.913 I1.329 J-0.513
X11.046 Y95.513 Z-6.069 I-1.329 J0.513
X13.704 Y94.487 Z-6.225 I1.329 J-0.513
X11.046 Y95.513 Z-6.382 I-1.329 J0.513
X10.95 Y95 Z-6.4 I1.329 J-0.513
X11.9 Y95 I0.475 J0 F700
X8.1 Y95 I-1.9 J0
X14.75 Y95 I3.325 J0
X5.25 Y95 I-4.75 J0
X14.75 Y95 I4.75 J0
X14.364 Y95.073 I-0.2 J0
G1 X14.077 Y94.342
G2 X13.704 Y94.487 I-0.186 J0.073
G3 X11.046 Y95.513 Z-6.556 I-1.329 J0.513 F333.3
X13.704 Y94.487 Z-6.713 I1.329 J-0.513
X11.046 Y95.513 Z-6.869 I-1.329 J0.513
X13.704 Y94.487 Z-7.025 I1.329 J-0.513
X11.046 Y95.513 Z-7.182 I-1.329 J0.513
X10.95 Y95 Z-7.2 I1.329 J-0.513
X11.9 Y95 I0.475 J0 F700
X8.1 Y95 I-1.9 J0
X14.75 Y95 I3.325 J0
X5.25 Y95 I-4.75 J0
X14.75 Y95 I4.75 J0
X14.364 Y95.073 I-0.2 J0
G1 X14.077 Y94.342
G2 X13.704 Y94.487 I-0.186 J0.073
G3 X11.046 Y95.513 Z-7.356 I-1.329 J0.513 F333.3
X13.704 Y94.487 Z-7.513 I1.329 J-0.513
X11.046 Y95.513 Z-7.669 I-1.329 J0.513
X13.704 Y94.487 Z-7.825 I1.329 J-0.513
X11.046 Y95.513 Z-7.982 I-1.329 J0.513
X10.95 Y95 Z-8 I1.329 J-0.513
X11.9 Y95 I0.475 J0 F700
X8.1 Y95 I-1.9 J0
X14.75 Y95 I3.325 J0
X5.25 Y95 I-4.75 J0
X14.75 Y95 I4.75 J0
X14.364 Y95.073 I-0.2 J0
G1 X14.077 Y94.342
G2 X13.704 Y94.487 I-0.186 J0.073
G3 X11.046 Y95.513 Z-8.156 I-1.329 J0.513 F333.3
X13.704 Y94.487 Z-8.313 I1.329 J-0.513
X11.046 Y95.513 Z-8.469 I-1.329 J0.513
X13.704 Y94.487 Z-8.625 I1.329 J-0.513
X11.046 Y95.513 Z-8.782 I-1.329 J0.513
X10.95 Y95 Z-8.8 I1.329 J-0.513
X11.9 Y95 I0.475 J0 F700
X8.1 Y95 I-1.9 J0
X14.75 Y95 I3.325 J0
X5.25 Y95 I-4.75 J0
X14.75 Y95 I4.75 J0
X14.364 Y95.073 I-0.2 J0
G1 X14.077 Y94.342
G2 X13.704 Y94.487 I-0.186 J0.073
G3 X11.046 Y95.513 Z-8.956 I-1.329 J0.513 F333.3
X13.704 Y94.487 Z-9.113 I1.329 J-0.513
X11.046 Y95.513 Z-9.269 I-1.329 J0.513
X13.704 Y94.487 Z-9.425 I1.329 J-0.513
X11.046 Y95.513 Z-9.582 I-1.329 J0.513
X10.95 Y95 Z-9.6 I1.329 J-0.513
X11.9 Y95 I0.475 J0 F700
X8.1 Y95 I-1.9 J0
X14.75 Y95 I3.325 J0
X5.25 Y95 I-4.75 J0
X14.75 Y95 I4.75 J0
X14.364 Y95.073 I-0.2 J0
G1 X14.077 Y94.342
G2 X13.704 Y94.487 I-0.186 J0.073
G3 X11.046 Y95.513 Z-9.756 I-1.329 J0.513 F333.3
X13.704 Y94.487 Z-9.913 I1.329 J-0.513
X11.046 Y95.513 Z-10.069 I-1.329 J0.513
X13.704 Y94.487 Z-10.225 I1.329 J-0.513
X11.046 Y95.513 Z-10.382 I-1.329 J0.513
X10.95 Y95 Z-10.4 I1.329 J-0.513
X11.9 Y95 I0.475 J0 F700
X8.1 Y95 I-1.9 J0
X14.75 Y95 I3.325 J0
X5.25 Y95 I-4.75 J0
X14.75 Y95 I4.75 J0
X14.364 Y95.073 I-0.2 J0
G1 X14.077 Y94.342
G2 X13.704 Y94.487 I-0.186 J0.073
G3 X11.046 Y95.513 Z-10.556 I-1.329 J0.513 F333.3
X13.704 Y94.487 Z-10.713 I1.329 J-0.513
X11.046 Y95.513 Z-10.869 I-1.329 J0.513
X13.704 Y94.487 Z-11.025 I1.329 J-0.513
X11.046 Y95.513 Z-11.182 I-1.329 J0.513
X10.95 Y95 Z-11.2 I1.329 J-0.513
X11.9 Y95 I0.475 J0 F700
X8.1 Y95 I-1.9 J0
X14.75 Y95 I3.325 J0
X5.25 Y95 I-4.75 J0
X14.75 Y95 I4.75 J0
X14.364 Y95.073 I-0.2 J0
G1 X14.077 Y94.342
G2 X13.704 Y94.487 I-0.186 J0.073
G3 X11.046 Y95.513 Z-11.356 I-1.329 J0.513 F333.3
X13.704 Y94.487 Z-11.513 I1.329 J-0.513
X11.046 Y95.513 Z-11.669 I-1.329 J0.513
X13.704 Y94.487 Z-11.825 I1.329 J-0.513
X11.046 Y95.513 Z-11.982 I-1.329 J0.513
X10.95 Y95 Z-12 I1.329 J-0.513
X11.9 Y95 I0.475 J0 F700
X8.1 Y95 I-1.9 J0
X14.75 Y95 I3.325 J0
X5.25 Y95 I-4.75 J0
X14.75 Y95 I4.75 J0
X14.364 Y95.073 I-0.2 J0
G1 X14.077 Y94.342
G2 X13.704 Y94.487 I-0.186 J0.073
G3 X11.046 Y95.513 Z-12.156 I-1.329 J0.513 F333.3
X13.704 Y94.487 Z-12.313 I1.329 J-0.513
X11.046 Y95.513 Z-12.469 I-1.329 J0.513
X13.704 Y94.487 Z-12.625 I1.329 J-0.513
X11.046 Y95.513 Z-12.782 I-1.329 J0.513
X10.95 Y95 Z-12.8 I1.329 J-0.513
X11.9 Y95 I0.475 J0 F700
X8.1 Y95 I-1.9 J0
X14.75 Y95 I3.325 J0
X5.25 Y95 I-4.75 J0
X14.75 Y95 I4.75 J0
X14.364 Y95.073 I-0.2 J0
G1 X14.077 Y94.342
G2 X13.704 Y94.487 I-0.186 J0.073
G3 X11.046 Y95.513 Z-12.956 I-1.329 J0.513 F333.3
X13.704 Y94.487 Z-13.113 I1.329 J-0.513
X11.046 Y95.513 Z-13.269 I-1.329 J0.513
X13.704 Y94.487 Z-13.425 I1.329 J-0.513
X11.046 Y95.513 Z-13.582 I-1.329 J0.513
X10.95 Y95 Z-13.6 I1.329 J-0.513
X11.9 Y95 I0.475 J0 F700
X8.1 Y95 I-1.9 J0
X14.75 Y95 I3.325 J0
X5.25 Y95 I-4.75 J0
X14.75 Y95 I4.75 J0
X14.364 Y95.073 I-0.2 J0
G1 X14.077 Y94.342
G2 X13.704 Y94.487 I-0.186 J0.073
G3 X11.046 Y95.513 Z-13.756 I-1.329 J0.513 F333.3
X13.704 Y94.487 Z-13.913 I1.329 J-0.513
X11.046 Y95.513 Z-14.069 I-1.329 J0.513
X13.704 Y94.487 Z-14.225 I1.329 J-0.513
X11.046 Y95.513 Z-14.382 I-1.329 J0.513
X10.95 Y95 Z-14.4 I1.329 J-0.513
X11.9 Y95 I0.475 J0 F700
X8.1 Y95 I-1.9 J0
X14.75 Y95 I3.325 J0
X5.25 Y95 I-4.75 J0
X14.75 Y95 I4.75 J0
X14.351 Y95.301 I-0.313 J0
G1 X12.881 Y94.881
X11.381 Y94.77
G3 X11.131 Y94.306 I0.023 J-0.312
X13.619 Y95.694 Z-14.556 I1.244 J0.694 F333.3
X11.131 Y94.306 Z-14.713 I-1.244 J-0.694
X13.619 Y95.694 Z-14.869 I1.244 J0.694
X10.95 Y95 Z-15 I-1.244 J-0.694
X11.9 Y95 I0.475 J0 F700
X8.1 Y95 I-1.9 J0
X14.75 Y95 I3.325 J0
X5.25 Y95 I-4.75 J0
X14.75 Y95 I4.75 J0
G0 Z6
X35.45 Y94.605
Z2
G3 X38.189 Y95.395 Z1.844 I1.369 J0.395 F333.3
X35.45 Y94.605 Z1.687 I-1.369 J-0.395
X38.189 Y95.395 Z1.531 I1.369 J0.395
X35.45 Y94.605 Z1.375 I-1.369 J-0.395
X38.189 Y95.395 Z1.218 I1.369 J0.395
X35.45 Y94.605 Z1.062 I-1.369 J-0.395
X38.189 Y95.395 Z0.906 I1.369 J0.395
X35.45 Y94.605 Z0.749 I-1.369 J-0.395
X38.189 Y95.395 Z0.593 I1.369 J0.395
X35.45 Y94.605 Z0.437 I-1.369 J-0.395
X38.189 Y95.395 Z0.28 I1.369 J0.395
X35.45 Y94.605 Z0.124 I-1.369 J-0.395
X38.189 Y95.395 Z-0.032 I1.369 J0.395
X35.45 Y94.605 Z-0.189 I-1.369 J-0.395
X38.189 Y95.395 Z-0.345 I1.369 J0.395
X35.45 Y94.605 Z-0.501 I-1.369 J-0.395
X38.189 Y95.395 Z-0.658 I1.369 J0.395
X35.394 Y95 Z-0.8 I-1.369 J-0.395
X36.344 Y95 I0.475 J0 F700
X32.544 Y95 I-1.9 J0
X39.194 Y95 I3.325 J0
X29.694 Y95 I-4.75 J0
X39.194 Y95 I4.75 J0
X38.808 Y95.073 I-0.2 J0
G1 X38.521 Y94.342
G2 X38.149 Y94.487 I-0.186 J0.073
G3 X35.49 Y95.513 Z-0.956 I-1.329 J0.513 F333.3
X38.149 Y94.487 Z-1.113 I1.329 J-0.513
X35.49 Y95.513 Z-1.269 I-1.329 J0.513
X38.149 Y94.487 Z-1.425 I1.329 J-0.513
X35.49 Y95.513 Z-1.582 I-1.329 J0.513
X35.394 Y95 Z-1.6 I1.329 J-0.513
X36.344 Y95 I0.475 J0 F700
X32.544 Y95 I-1.9 J0
X39.194 Y95 I3.325 J0
X29.694 Y95 I-4.75 J0
X39.194 Y95 I4.75 J0
X38.808 Y95.073 I-0.2 J0
G1 X38.521 Y94.342
G2 X38.149 Y94.487 I-0.186 J0.073
G3 X35.49 Y95.513 Z-1.756 I-1.329 J0.513 F333.3
X38.149 Y94.487 Z-1.913 I1.329 J-0.513
X35.49 Y95.513 Z-2.069 I-1.329 J0.513
X38.149 Y94.487 Z-2.225 I1.329 J-0.513
X35.49 Y95.513 Z-2.382 I-1.329 J0.513
X35.394 Y95 Z-2.4 I1.329 J-0.513
X36.344 Y95 I0.475 J0 F700
X32.544 Y95 I-1.9 J0
X39.194 Y95 I3.325 J0
X29.694 Y95 I-4.75 J0
X39.194 Y95 I4.75 J0
X38.808 Y95.073 I-0.2 J0
G1 X38.521 Y94.342
G2 X38.149 Y94.487 I-0.186 J0.073
G3 X35.49 Y95.513 Z-2.556 I-1.329 J0.513 F333.3
X38.149 Y94.487 Z-2.713 I1.329 J-0.513
X35.49 Y95.513 Z-2.869 I-1.329 J0.513
X38.149 Y94.487 Z-3.025 I1.329 J-0.513
X35.49 Y95.513 Z-3.182 I-1.329 J0.513
X35.394 Y95 Z-3.2 I1.329 J-0.513
X36.344 Y95 I0.475 J0 F700
X32.544 Y95 I-1.9 J0
X39.194 Y95 I3.325 J0
X29.694 Y95 I-4.75 J0
X39.194 Y95 I4.75 J0
X38.808 Y95.073 I-0.2 J0
G1 X38.521 Y94.342
G2 X38.149 Y94.487 I-0.186 J0.073
G3 X35.49 Y95.513 Z-3.356 I-1.329 J0.513 F333.3
X38.149 Y94.487 Z-3.513 I1.329 J-0.513
X35.49 Y95.513 Z-3.669 I-1.329 J0.513
X38.149 Y94.487 Z-3.825 I1.329 J-0.513
X35.49 Y95.513 Z-3.982 I-1.329 J0.513
X35.394 Y95 Z-4 I1.329 J-0.513
X36.344 Y95 I0.475 J0 F700
X32.544 Y95 I-1.9 J0
X39.194 Y95 I3.325 J0
X29.694 Y95 I-4.75 J0
X39.194 Y95 I4.75 J0
X38.808 Y95.073 I-0.2 J0
G1 X38.521 Y94.342
G2 X38.149 Y94.487 I-0.186 J0.073
G3 X35.49 Y95.513 Z-4.156 I-1.329 J0.513 F333.3
X38.149 Y94.487 Z-4.313 I1.329 J-0.513
X35.49 Y95.513 Z-4.469 I-1.329 J0.513
X38.149 Y94.487 Z-4.625 I1.329 J-0.513
X35.49 Y95.513 Z-4.782 I-1.329 J0.513
X35.394 Y95 Z-4.8 I1.329 J-0.513
X36.344 Y95 I0.475 J0 F700
X32.544 Y95 I-1.9 J0
X39.194 Y95 I3.325 J0
X29.694 Y95 I-4.75 J0
X39.194 Y95 I4.75 J0
X38.808 Y95.073 I-0.2 J0
G1 X38.521 Y94.342
G2 X38.149 Y94.487 I-0.186 J0.073
G3 X35.49 Y95.513 Z-4.956 I-1.329 J0.513 F333.3
X38.149 Y94.487 Z-5.113 I1.329 J-0.513
X35.49 Y95.513 Z-5.269 I-1.329 J0.513
X38.149 Y94.487 Z-5.425 I1.329 J-0.513
X35.49 Y95.513 Z-5.582 I-1.329 J0.513
X35.394 Y95 Z-5.6 I1.329 J-0.513
X36.344 Y95 I0.475 J0 F700
X32.544 Y95 I-1.9 J0
X39.194 Y95 I3.325 J0
X29.694 Y95 I-4.75 J0
X39.194 Y95 I4.75 J0
X38.808 Y95.073 I-0.2 J0
G1 X38.521 Y94.342
G2 X38.149 Y94.487 I-0.186 J0.073
G3 X35.49 Y95.513 Z-5.756 I-1.329 J0.513 F333.3
X38.149 Y94.487 Z-5.913 I1.329 J-0.513
X35.49 Y95.513 Z-6.069 I-1.329 J0.513
X38.149 Y94.487 Z-6.225 I1.329 J-0.513
X35.49 Y95.513 Z-6.382 I-1.329 J0.513
X35.394 Y95 Z-6.4 I1.329 J-0.513
X36.344 Y95 I0.475 J0 F700
X32.544 Y95 I-1.9 J0
X39.194 Y95 I3.325 J0
X29.694 Y95 I-4.75 J0
X39.194 Y95 I4.75 J0
X38.808 Y95.073 I-0.2 J0
G1 X38.521 Y94.342
G2 X38.149 Y94.487 I-0.186 J0.073
G3 X35.49 Y95.513 Z-6.556 I-1.329 J0.513 F333.3
X38.149 Y94.487 Z-6.713 I1.329 J-0.513
X35.49 Y95.513 Z-6.869 I-1.329 J0.513
X38.149 Y94.487 Z-7.025 I1.329 J-0.513
X35.49 Y95.513 Z-7.182 I-1.329 J0.513
X35.394 Y95 Z-7.2 I1.329 J-0.513
X36.344 Y95 I0.475 J0 F700
X32.544 Y95 I-1.9 J0
X39.194 Y95 I3.325 J0
X29.694 Y95 I-4.75 J0
X39.194 Y95 I4.75 J0
X38.808 Y95.073 I-0.2 J0
G1 X38.521 Y94.342
G2 X38.149 Y94.487 I-0.186 J0.073
G3 X35.49 Y95.513 Z-7.356 I-1.329 J0.513 F333.3
X38.149 Y94.487 Z-7.513 I1.329 J-0.513
X35.49 Y95.513 Z-7.669 I-1.329 J0.513
X38.149 Y94.487 Z-7.825 I1.329 J-0.513
X35.49 Y95.513 Z-7.982 I-1.329 J0.513
X35.394 Y95 Z-8 I1.329 J-0.513
X36.344 Y95 I0.475 J0 F700
X32.544 Y95 I-1.9 J0
X39.194 Y95 I3.325 J0
X29.694 Y95 I-4.75 J0
X39.194 Y95 I4.75 J0
X38.808 Y95.073 I-0.2 J0
G1 X38.521 Y94.342
G2 X38.149 Y94.487 I-0.186 J0.073
G3 X35.49 Y95.513 Z-8.156 I-1.329 J0.513 F333.3
X38.149 Y94.487 Z-8.313 I1.329 J-0.513
X35.49 Y95.513 Z-8.469 I-1.329 J0.513
X38.149 Y94.487 Z-8.625 I1.329 J-0.513
X35.49 Y95.513 Z-8.782 I-1.329 J0.513
X35.394 Y95 Z-8.8 I1.329 J-0.513
X36.344 Y95 I0.475 J0 F700
X32.544 Y95 I-1.9 J0
X39.194 Y95 I3.325 J0
X29.694 Y95 I-4.75 J0
X39.194 Y95 I4.75 J0
X38.808 Y95.073 I-0.2 J0
G1 X38.521 Y94.342
G2 X38.149 Y94.487 I-0.186 J0.073
G3 X35.49 Y95.513 Z-8.956 I-1.329 J0.513 F333.3
X38.149 Y94.487 Z-9.113 I1.329 J-0.513
X35.49 Y95.513 Z-9.269 I-1.329 J0.513
X38.149 Y94.487 Z-9.425 I1.329 J-0.513
X35.49 Y95.513 Z-9.582 I-1.329 J0.513
X35.394 Y95 Z-9.6 I1.329 J-0.513
X36.344 Y95 I0.475 J0 F700
X32.544 Y95 I-1.9 J0
X39.194 Y95 I3.325 J0
X29.694 Y95 I-4.75 J0
X39.194 Y95 I4.75 J0
X38.808 Y95.073 I-0.2 J0
G1 X38.521 Y94.342
G2 X38.149 Y94.487 I-0.186 J0.073
G3 X35.49 Y95.513 Z-9.756 I-1.329 J0.513 F333.3
X38.149 Y94.487 Z-9.913 I1.329 J-0.513
X35.49 Y95.513 Z-10.069 I-1.329 J0.513
X38.149 Y94.487 Z-10.225 I1.329 J-0.513
X35.49 Y95.513 Z-10.382 I-1.329 J0.513
X35.394 Y95 Z-10.4 I1.329 J-0.513
X36.344 Y95 I0.475 J0 F700
X32.544 Y95 I-1.9 J0
X39.194 Y95 I3.325 J0
X29.694 Y95 I-4.75 J0
X39.194 Y95 I4.75 J0
X38.808 Y95.073 I-0.2 J0
G1 X38.521 Y94.342
G2 X38.149 Y94.487 I-0.186 J0.073
G3 X35.49 Y95.513 Z-10.556 I-1.329 J0.513 F333.3
X38.149 Y94.487 Z-10.713 I1.329 J-0.513
X35.49 Y95.513 Z-10.869 I-1.329 J0.513
X38.149 Y94.487 Z-11.025 I1.329 J-0.513
X35.49 Y95.513 Z-11.182 I-1.329 J0.513
X35.394 Y95 Z-11.2 I1.329 J-0.513
X36.344 Y95 I0.475 J0 F700
X32.544 Y95 I-1.9 J0
X39.194 Y95 I3.325 J0
X29.694 Y95 I-4.75 J0
X39.194 Y95 I4.75 J0
X38.808 Y95.073 I-0.2 J0
G1 X38.521 Y94.342
G2 X38.149 Y94.487 I-0.186 J0.073
G3 X35.49 Y95.513 Z-11.356 I-1.329 J0.513 F333.3
X38.149 Y94.487 Z-11.513 I1.329 J-0.513
X35.49 Y95.513 Z-11.669 I-1.329 J0.513
X38.149 Y94.487 Z-11.825 I1.329 J-0.513
X35.49 Y95.513 Z-11.982 I-1.329 J0.513
X35.394 Y95 Z-12 I1.329 J-0.513
X36.344 Y95 I0.475 J0 F700
X32.544 Y95 I-1.9 J0
X39.194 Y95 I3.325 J0
X29.694 Y95 I-4.75 J0
X39.194 Y95 I4.75 J0
X38.808 Y95.073 I-0.2 J0
G1 X38.521 Y94.342
G2 X38.149 Y94.487 I-0.186 J0.073
G3 X35.49 Y95.513 Z-12.156 I-1.329 J0.513 F333.3
X38.149 Y94.487 Z-12.313 I1.329 J-0.513
X35.49 Y95.513 Z-12.469 I-1.329 J0.513
X38.149 Y94.487 Z-12.625 I1.329 J-0.513
X35.49 Y95.513 Z-12.782 I-1.329 J0.513
X35.394 Y95 Z-12.8 I1.329 J-0.513
X36.344 Y95 I0.475 J0 F700
X32.544 Y95 I-1.9 J0
X39.194 Y95 I3.325 J0
X29.694 Y95 I-4.75 J0
X39.194 Y95 I4.75 J0
X38.808 Y95.073 I-0.2 J0
G1 X38.521 Y94.342
G2 X38.149 Y94.487 I-0.186 J0.073
G3 X35.49 Y95.513 Z-12.956 I-1.329 J0.513 F333.3
X38.149 Y94.487 Z-13.113 I1.329 J-0.513
X35.49 Y95.513 Z-13.269 I-1.329 J0.513
X38.149 Y94.487 Z-13.425 I1.329 J-0.513
X35.49 Y95.513 Z-13.582 I-1.329 J0.513
X35.394 Y95 Z-13.6 I1.329 J-0.513
X36.344 Y95 I0.475 J0 F700
X32.544 Y95 I-1.9 J0
X39.194 Y95 I3.325 J0
X29.694 Y95 I-4.75 J0
X39.194 Y95 I4.75 J0
X38.808 Y95.073 I-0.2 J0
G1 X38.521 Y94.342
G2 X38.149 Y94.487 I-0.186 J0.073
G3 X35.49 Y95.513 Z-13.756 I-1.329 J0.513 F333.3
X38.149 Y94.487 Z-13.913 I1.329 J-0.513
X35.49 Y95.513 Z-14.069 I-1.329 J0.513
X38.149 Y94.487 Z-14.225 I1.329 J-0.513
X35.49 Y95.513 Z-14.382 I-1.329 J0.513
X35.394 Y95 Z-14.4 I1.329 J-0.513
X36.344 Y95 I0.475 J0 F700
X32.544 Y95 I-1.9 J0
X39.194 Y95 I3.325 J0
X29.694 Y95 I-4.75 J0
X39.194 Y95 I4.75 J0
X38.795 Y95.301 I-0.313 J0
G1 X37.325 Y94.881
X35.825 Y94.77
G3 X35.575 Y94.306 I0.023 J-0.312
X38.064 Y95.694 Z-14.556 I1.244 J0.694 F333.3
X35.575 Y94.306 Z-14.713 I-1.244 J-0.694
X38.064 Y95.694 Z-14.869 I1.244 J0.694
X35.394 Y95 Z-15 I-1.244 J-0.694
X36.344 Y95 I0.475 J0 F700
X32.544 Y95 I-1.9 J0
X39.194 Y95 I3.325 J0
X29.694 Y95 I-4.75 J0
X39.194 Y95 I4.75 J0
G0 Z6
X46.834 Y128.346
Z2
G3 X49.573 Y129.136 Z1.844 I1.369 J0.395 F333.3
X46.834 Y128.346 Z1.687 I-1.369 J-0.395
X49.573 Y129.136 Z1.531 I1.369 J0.395
X46.834 Y128.346 Z1.375 I-1.369 J-0.395
X49.573 Y129.136 Z1.218 I1.369 J0.395
X46.834 Y128.346 Z1.062 I-1.369 J-0.395
X49.573 Y129.136 Z0.906 I1.369 J0.395
X46.834 Y128.346 Z0.749 I-1.369 J-0.395
X49.573 Y129.136 Z0.593 I1.369 J0.395
X46.834 Y128.346 Z0.437 I-1.369 J-0.395
X49.573 Y129.136 Z0.28 I1.369 J0.395
X46.834 Y128.346 Z0.124 I-1.369 J-0.395
X49.573 Y129.136 Z-0.032 I1.369 J0.395
X46.834 Y128.346 Z-0.189 I-1.369 J-0.395
X49.573 Y129.136 Z-0.345 I1.369 J0.395
X46.834 Y128.346 Z-0.501 I-1.369 J-0.395
X49.573 Y129.136 Z-0.658 I1.369 J0.395
X46.778 Y128.741 Z-0.8 I-1.369 J-0.395
X48.828 Y128.741 I1.025 J0 F700
X43.928 Y128.741 I-2.45 J0
X51.678 Y128.741 I3.875 J0
X41.078 Y128.741 I-5.3 J0
X54.528 Y128.741 I6.725 J0
X38.228 Y128.741 I-8.15 J0
X57.378 Y128.741 I9.575 J0
X35.378 Y128.741 I-11 J0
X57.378 Y128.741 I11 J0
X55.927 Y130.002 I-1.273 J0
G1 X50.086 Y129.177
G2 X49.765 Y129.172 I-0.178 J1.261
G3 X49.477 Y126.642 I-0.144 J-1.265
X50.284 Y128.994 I0.144 J1.265
G1 X49.009 Y129.773
G3 X47.682 Y127.6 I-0.663 J-1.087
X49.533 Y128.228 I0.663 J1.087
X46.874 Y129.254 Z-0.956 I-1.329 J0.513 F333.3
X49.533 Y128.228 Z-1.113 I1.329 J-0.513
X46.874 Y129.254 Z-1.269 I-1.329 J0.513
X49.533 Y128.228 Z-1.425 I1.329 J-0.513
X46.874 Y129.254 Z-1.582 I-1.329 J0.513
X46.778 Y128.741 Z-1.6 I1.329 J-0.513
X48.828 Y128.741 I1.025 J0 F700
X43.928 Y128.741 I-2.45 J0
X51.678 Y128.741 I3.875 J0
X41.078 Y128.741 I-5.3 J0
X54.528 Y128.741 I6.725 J0
X38.228 Y128.741 I-8.15 J0
X57.378 Y128.741 I9.575 J0
X35.378 Y128.741 I-11 J0
X57.378 Y128.741 I11 J0
X55.927 Y130.002 I-1.273 J0
G1 X50.086 Y129.177
G2 X49.765 Y129.172 I-0.178 J1.261
G3 X49.477 Y126.642 I-0.144 J-1.265
X50.284 Y128.994 I0.144 J1.265
G1 X49.009 Y129.773
G3 X47.682 Y127.6 I-0.663 J-1.087
X49.533 Y128.228 I0.663 J1.087
X46.874 Y129.254 Z-1.756 I-1.329 J0.513 F333.3
X49.533 Y128.228 Z-1.913 I1.329 J-0.513
X46.874 Y129.254 Z-2.069 I-1.329 J0.513
X49.533 Y128.228 Z-2.225 I1.329 J-0.513
X46.874 Y129.254 Z-2.382 I-1.329 J0.513
X46.778 Y128.741 Z-2.4 I1.329 J-0.513
X48.828 Y128.741 I1.025 J0 F700
X43.928 Y128.741 I-2.45 J0
X51.678 Y128.741 I3.875 J0
X41.078 Y128.741 I-5.3 J0
X54.528 Y128.741 I6.725 J0
X38.228 Y128.741 I-8.15 J0
X57.378 Y128.741 I9.575 J0
X35.378 Y128.741 I-11 J0
X57.378 Y128.741 I11 J0
X55.927 Y130.002 I-1.273 J0
G1 X50.086 Y129.177
G2 X49.765 Y129.172 I-0.178 J1.261
G3 X49.477 Y126.642 I-0.144 J-1.265
X50.284 Y128.994 I0.144 J1.265
G1 X49.009 Y129.773
G3 X47.682 Y127.6 I-0.663 J-1.087
X49.533 Y128.228 I0.663 J1.087
X46.874 Y129.254 Z-2.556 I-1.329 J0.513 F333.3
X49.533 Y128.228 Z-2.713 I1.329 J-0.513
X46.874 Y129.254 Z-2.869 I-1.329 J0.513
X49.533 Y128.228 Z-3.025 I1.329 J-0.513
X46.874 Y129.254 Z-3.182 I-1.329 J0.513
X46.778 Y128.741 Z-3.2 I1.329 J-0.513
X48.828 Y128.741 I1.025 J0 F700
X43.928 Y128.741 I-2.45 J0
X51.678 Y128.741 I3.875 J0
X41.078 Y128.741 I-5.3 J0
X54.528 Y128.741 I6.725 J0
X38.228 Y128.741 I-8.15 J0
X57.378 Y128.741 I9.575 J0
X35.378 Y128.741 I-11 J0
X57.378 Y128.741 I11 J0
X55.927 Y130.002 I-1.273 J0
G1 X50.086 Y129.177
G2 X49.765 Y129.172 I-0.178 J1.261
G3 X49.477 Y126.642 I-0.144 J-1.265
X50.284 Y128.994 I0.144 J1.265
G1 X49.009 Y129.773
G3 X47.682 Y127.6 I-0.663 J-1.087
X49.533 Y128.228 I0.663 J1.087
X46.874 Y129.254 Z-3.356 I-1.329 J0.513 F333.3
X49.533 Y128.228 Z-3.513 I1.329 J-0.513
X46.874 Y129.254 Z-3.669 I-1.329 J0.513
X49.533 Y128.228 Z-3.825 I1.329 J-0.513
X46.874 Y129.254 Z-3.982 I-1.329 J0.513
X46.778 Y128.741 Z-4 I1.329 J-0.513
X48.828 Y128.741 I1.025 J0 F700
X43.928 Y128.741 I-2.45 J0
X51.678 Y128.741 I3.875 J0
X41.078 Y128.741 I-5.3 J0
X54.528 Y128.741 I6.725 J0
X38.228 Y128.741 I-8.15 J0
X57.378 Y128.741 I9.575 J0
X35.378 Y128.741 I-11 J0
X57.378 Y128.741 I11 J0
X55.927 Y130.002 I-1.273 J0
G1 X50.086 Y129.177
G2 X49.765 Y129.172 I-0.178 J1.261
G3 X49.477 Y126.642 I-0.144 J-1.265
X50.284 Y128.994 I0.144 J1.265
G1 X49.009 Y129.773
G3 X47.682 Y127.6 I-0.663 J-1.087
X49.533 Y128.228 I0.663 J1.087
X46.874 Y129.254 Z-4.156 I-1.329 J0.513 F333.3
X49.533 Y128.228 Z-4.313 I1.329 J-0.513
X46.874 Y129.254 Z-4.469 I-1.329 J0.513
X49.533 Y128.228 Z-4.625 I1.329 J-0.513
X46.874 Y129.254 Z-4.782 I-1.329 J0.513
X46.778 Y128.741 Z-4.8 I1.329 J-0.513
X48.828 Y128.741 I1.025 J0 F700
X43.928 Y128.741 I-2.45 J0
X51.678 Y128.741 I3.875 J0
X41.078 Y128.741 I-5.3 J0
X54.528 Y128.741 I6.725 J0
X38.228 Y128.741 I-8.15 J0
X57.378 Y128.741 I9.575 J0
X35.378 Y128.741 I-11 J0
X57.378 Y128.741 I11 J0
X55.927 Y130.002 I-1.273 J0
G1 X50.086 Y129.177
G2 X49.765 Y129.172 I-0.178 J1.261
G3 X49.477 Y126.642 I-0.144 J-1.265
X50.284 Y128.994 I0.144 J1.265
G1 X49.009 Y129.773
G3 X47.682 Y127.6 I-0.663 J-1.087
X49.533 Y128.228 I0.663 J1.087
X46.874 Y129.254 Z-4.956 I-1.329 J0.513 F333.3
X49.533 Y128.228 Z-5.113 I1.329 J-0.513
X46.874 Y129.254 Z-5.269 I-1.329 J0.513
X49.533 Y128.228 Z-5.425 I1.329 J-0.513
X46.874 Y129.254 Z-5.582 I-1.329 J0.513
X46.778 Y128.741 Z-5.6 I1.329 J-0.513
X48.828 Y128.741 I1.025 J0 F700
X43.928 Y128.741 I-2.45 J0
X51.678 Y128.741 I3.875 J0
X41.078 Y128.741 I-5.3 J0
X54.528 Y128.741 I6.725 J0
X38.228 Y128.741 I-8.15 J0
X57.378 Y128.741 I9.575 J0
X35.378 Y128.741 I-11 J0
X57.378 Y128.741 I11 J0
X55.927 Y130.002 I-1.273 J0
G1 X50.086 Y129.177
G2 X49.765 Y129.172 I-0.178 J1.261
G3 X49.477 Y126.642 I-0.144 J-1.265
X50.284 Y128.994 I0.144 J1.265
G1 X49.009 Y129.773
G3 X47.682 Y127.6 I-0.663 J-1.087
X49.533 Y128.228 I0.663 J1.087
X46.874 Y129.254 Z-5.756 I-1.329 J0.513 F333.3
X49.533 Y128.228 Z-5.913 I1.329 J-0.513
X46.874 Y129.254 Z-6.069 I-1.329 J0.513
X49.533 Y128.228 Z-6.225 I1.329 J-0.513
X46.874 Y129.254 Z-6.382 I-1.329 J0.513
X46.778 Y128.741 Z-6.4 I1.329 J-0.513
X48.828 Y128.741 I1.025 J0 F700
X43.928 Y128.741 I-2.45 J0
X51.678 Y128.741 I3.875 J0
X41.078 Y128.741 I-5.3 J0
X54.528 Y128.741 I6.725 J0
X38.228 Y128.741 I-8.15 J0
X57.378 Y128.741 I9.575 J0
X35.378 Y128.741 I-11 J0
X57.378 Y128.741 I11 J0
X55.927 Y130.002 I-1.273 J0
G1 X50.086 Y129.177
G2 X49.765 Y129.172 I-0.178 J1.261
G3 X49.477 Y126.642 I-0.144 J-1.265
X50.284 Y128.994 I0.144 J1.265
G1 X49.009 Y129.773
G3 X47.682 Y127.6 I-0.663 J-1.087
X49.533 Y128.228 I0.663 J1.087
X46.874 Y129.254 Z-6.556 I-1.329 J0.513 F333.3
X49.533 Y128.228 Z-6.713 I1.329 J-0.513
X46.874 Y129.254 Z-6.869 I-1.329 J0.513
X49.533 Y128.228 Z-7.025 I1.329 J-0.513
X46.874 Y129.254 Z-7.182 I-1.329 J0.513
X46.778 Y128.741 Z-7.2 I1.329 J-0.513
X48.828 Y128.741 I1.025 J0 F700
X43.928 Y128.741 I-2.45 J0
X51.678 Y128.741 I3.875 J0
X41.078 Y128.741 I-5.3 J0
X54.528 Y128.741 I6.725 J0
X38.228 Y128.741 I-8.15 J0
X57.378 Y128.741 I9.575 J0
X35.378 Y128.741 I-11 J0
X57.378 Y128.741 I11 J0
X55.927 Y130.002 I-1.273 J0
G1 X50.086 Y129.177
G2 X49.765 Y129.172 I-0.178 J1.261
G3 X49.477 Y126.642 I-0.144 J-1.265
X50.284 Y128.994 I0.144 J1.265
G1 X49.009 Y129.773
G3 X47.682 Y127.6 I-0.663 J-1.087
X49.533 Y128.228 I0.663 J1.087
X46.874 Y129.254 Z-7.356 I-1.329 J0.513 F333.3
X49.533 Y128.228 Z-7.513 I1.329 J-0.513
X46.874 Y129.254 Z-7.669 I-1.329 J0.513
X49.533 Y128.228 Z-7.825 I1.329 J-0.513
X46.874 Y129.254 Z-7.982 I-1.329 J0.513
X46.778 Y128.741 Z-8 I1.329 J-0.513
X48.828 Y128.741 I1.025 J0 F700
X43.928 Y128.741 I-2.45 J0
X51.678 Y128.741 I3.875 J0
X41.078 Y128.741 I-5.3 J0
X54.528 Y128.741 I6.725 J0
X38.228 Y128.741 I-8.15 J0
X57.378 Y128.741 I9.575 J0
X35.378 Y128.741 I-11 J0
X57.378 Y128.741 I11 J0
X55.927 Y130.002 I-1.273 J0
G1 X50.086 Y129.177
G2 X49.765 Y129.172 I-0.178 J1.261
G3 X49.477 Y126.642 I-0.144 J-1.265
X50.284 Y128.994 I0.144 J1.265
G1 X49.009 Y129.773
G3 X47.682 Y127.6 I-0.663 J-1.087
X49.533 Y128.228 I0.663 J1.087
X46.874 Y129.254 Z-8.156 I-1.329 J0.513 F333.3
X49.533 Y128.228 Z-8.313 I1.329 J-0.513
X46.874 Y129.254 Z-8.469 I-1.329 J0.513
X49.533 Y128.228 Z-8.625 I1.329 J-0.513
X46.874 Y129.254 Z-8.782 I-1.329 J0.513
X46.778 Y128.741 Z-8.8 I1.329 J-0.513
X48.828 Y128.741 I1.025 J0 F700
X43.928 Y128.741 I-2.45 J0
X51.678 Y128.741 I3.875 J0
X41.078 Y128.741 I-5.3 J0
X54.528 Y128.741 I6.725 J0
X38.228 Y128.741 I-8.15 J0
X57.378 Y128.741 I9.575 J0
X35.378 Y128.741 I-11 J0
X57.378 Y128.741 I11 J0
X55.927 Y130.002 I-1.273 J0
G1 X50.086 Y129.177
G2 X49.765 Y129.172 I-0.178 J1.261
G3 X49.477 Y126.642 I-0.144 J-1.265
X50.284 Y128.994 I0.144 J1.265
G1 X49.009 Y129.773
G3 X47.682 Y127.6 I-0.663 J-1.087
X49.533 Y128.228 I0.663 J1.087
X46.874 Y129.254 Z-8.956 I-1.329 J0.513 F333.3
X49.533 Y128.228 Z-9.113 I1.329 J-0.513
X46.874 Y129.254 Z-9.269 I-1.329 J0.513
X49.533 Y128.228 Z-9.425 I1.329 J-0.513
X46.874 Y129.254 Z-9.582 I-1.329 J0.513
X46.778 Y128.741 Z-9.6 I1.329 J-0.513
X48.828 Y128.741 I1.025 J0 F700
X43.928 Y128.741 I-2.45 J0
X51.678 Y128.741 I3.875 J0
X41.078 Y128.741 I-5.3 J0
X54.528 Y128.741 I6.725 J0
X38.228 Y128.741 I-8.15 J0
X57.378 Y128.741 I9.575 J0
X35.378 Y128.741 I-11 J0
X57.378 Y128.741 I11 J0
X55.927 Y130.002 I-1.273 J0
G1 X50.086 Y129.177
G2 X49.765 Y129.172 I-0.178 J1.261
G3 X49.477 Y126.642 I-0.144 J-1.265
X50.284 Y128.994 I0.144 J1.265
G1 X49.009 Y129.773
G3 X47.682 Y127.6 I-0.663 J-1.087
X49.533 Y128.228 I0.663 J1.087
X46.874 Y129.254 Z-9.756 I-1.329 J0.513 F333.3
X49.533 Y128.228 Z-9.913 I1.329 J-0.513
X46.874 Y129.254 Z-10.069 I-1.329 J0.513
X49.533 Y128.228 Z-10.225 I1.329 J-0.513
X46.874 Y129.254 Z-10.382 I-1.329 J0.513
X46.778 Y128.741 Z-10.4 I1.329 J-0.513
X48.828 Y128.741 I1.025 J0 F700
X43.928 Y128.741 I-2.45 J0
X51.678 Y128.741 I3.875 J0
X41.078 Y128.741 I-5.3 J0
X54.528 Y128.741 I6.725 J0
X38.228 Y128.741 I-8.15 J0
X57.378 Y128.741 I9.575 J0
X35.378 Y128.741 I-11 J0
X57.378 Y128.741 I11 J0
X55.927 Y130.002 I-1.273 J0
G1 X50.086 Y129.177
G2 X49.765 Y129.172 I-0.178 J1.261
G3 X49.477 Y126.642 I-0.144 J-1.265
X50.284 Y128.994 I0.144 J1.265
G1 X49.009 Y129.773
G3 X47.682 Y127.6 I-0.663 J-1.087
X49.533 Y128.228 I0.663 J1.087
X46.874 Y129.254 Z-10.556 I-1.329 J0.513 F333.3
X49.533 Y128.228 Z-10.713 I1.329 J-0.513
X46.874 Y129.254 Z-10.869 I-1.329 J0.513
X49.533 Y128.228 Z-11.025 I1.329 J-0.513
X46.874 Y129.254 Z-11.182 I-1.329 J0.513
X46.778 Y128.741 Z-11.2 I1.329 J-0.513
X48.828 Y128.741 I1.025 J0 F700
X43.928 Y128.741 I-2.45 J0
X51.678 Y128.741 I3.875 J0
X41.078 Y128.741 I-5.3 J0
X54.528 Y128.741 I6.725 J0
X38.228 Y128.741 I-8.15 J0
X57.378 Y128.741 I9.575 J0
X35.378 Y128.741 I-11 J0
X57.378 Y128.741 I11 J0
X55.927 Y130.002 I-1.273 J0
G1 X50.086 Y129.177
G2 X49.765 Y129.172 I-0.178 J1.261
G3 X49.477 Y126.642 I-0.144 J-1.265
X50.284 Y128.994 I0.144 J1.265
G1 X49.009 Y129.773
G3 X47.682 Y127.6 I-0.663 J-1.087
X49.533 Y128.228 I0.663 J1.087
X46.874 Y129.254 Z-11.356 I-1.329 J0.513 F333.3
X49.533 Y128.228 Z-11.513 I1.329 J-0.513
X46.874 Y129.254 Z-11.669 I-1.329 J0.513
X49.533 Y128.228 Z-11.825 I1.329 J-0.513
X46.874 Y129.254 Z-11.982 I-1.329 J0.513
X46.778 Y128.741 Z-12 I1.329 J-0.513
X48.828 Y128.741 I1.025 J0 F700
X43.928 Y128.741 I-2.45 J0
X51.678 Y128.741 I3.875 J0
X41.078 Y128.741 I-5.3 J0
X54.528 Y128.741 I6.725 J0
X38.228 Y128.741 I-8.15 J0
X57.378 Y128.741 I9.575 J0
X35.378 Y128.741 I-11 J0
X57.378 Y128.741 I11 J0
G0 Z6
X59.895 Y94.605
Z2
G3 X62.633 Y95.395 Z1.844 I1.369 J0.395 F333.3
X59.895 Y94.605 Z1.687 I-1.369 J-0.395
X62.633 Y95.395 Z1.531 I1.369 J0.395
X59.895 Y94.605 Z1.375 I-1.369 J-0.395
X62.633 Y95.395 Z1.218 I1.369 J0.395
X59.895 Y94.605 Z1.062 I-1.369 J-0.395
X62.633 Y95.395 Z0.906 I1.369 J0.395
X59.895 Y94.605 Z0.749 I-1.369 J-0.395
X62.633 Y95.395 Z0.593 I1.369 J0.395
X59.895 Y94.605 Z0.437 I-1.369 J-0.395
X62.633 Y95.395 Z0.28 I1.369 J0.395
X59.895 Y94.605 Z0.124 I-1.369 J-0.395
X62.633 Y95.395 Z-0.032 I1.369 J0.395
X59.895 Y94.605 Z-0.189 I-1.369 J-0.395
X62.633 Y95.395 Z-0.345 I1.369 J0.395
X59.895 Y94.605 Z-0.501 I-1.369 J-0.395
X62.633 Y95.395 Z-0.658 I1.369 J0.395
X59.839 Y95 Z-0.8 I-1.369 J-0.395
X60.789 Y95 I0.475 J0 F700
X56.989 Y95 I-1.9 J0
X63.639 Y95 I3.325 J0
X54.139 Y95 I-4.75 J0
X63.639 Y95 I4.75 J0
X63.253 Y95.073 I-0.2 J0
G1 X62.966 Y94.342
G2 X62.593 Y94.487 I-0.186 J0.073
G3 X59.935 Y95.513 Z-0.956 I-1.329 J0.513 F333.3
X62.593 Y94.487 Z-1.113 I1.329 J-0.513
X59.935 Y95.513 Z-1.269 I-1.329 J0.513
X62.593 Y94.487 Z-1.425 I1.329 J-0.513
X59.935 Y95.513 Z-1.582 I-1.329 J0.513
X59.839 Y95 Z-1.6 I1.329 J-0.513
X60.789 Y95 I0.475 J0 F700
X56.989 Y95 I-1.9 J0
X63.639 Y95 I3.325 J0
X54.139 Y95 I-4.75 J0
X63.639 Y95 I4.75 J0
X63.253 Y95.073 I-0.2 J0
G1 X62.966 Y94.342
G2 X62.593 Y94.487 I-0.186 J0.073
G3 X59.935 Y95.513 Z-1.756 I-1.329 J0.513 F333.3
X62.593 Y94.487 Z-1.913 I1.329 J-0.513
X59.935 Y95.513 Z-2.069 I-1.329 J0.513
X62.593 Y94.487 Z-2.225 I1.329 J-0.513
X59.935 Y95.513 Z-2.382 I-1.329 J0.513
X59.839 Y95 Z-2.4 I1.329 J-0.513
X60.789 Y95 I0.475 J0 F700
X56.989 Y95 I-1.9 J0
X63.639 Y95 I3.325 J0
X54.139 Y95 I-4.75 J0
X63.639 Y95 I4.75 J0
X63.253 Y95.073 I-0.2 J0
G1 X62.966 Y94.342
G2 X62.593 Y94.487 I-0.186 J0.073
G3 X59.935 Y95.513 Z-2.556 I-1.329 J0.513 F333.3
X62.593 Y94.487 Z-2.713 I1.329 J-0.513
X59.935 Y95.513 Z-2.869 I-1.329 J0.513
X62.593 Y94.487 Z-3.025 I1.329 J-0.513
X59.935 Y95.513 Z-3.182 I-1.329 J0.513
X59.839 Y95 Z-3.2 I1.329 J-0.513
X60.789 Y95 I0.475 J0 F700
X56.989 Y95 I-1.9 J0
X63.639 Y95 I3.325 J0
X54.139 Y95 I-4.75 J0
X63.639 Y95 I4.75 J0
X63.253 Y95.073 I-0.2 J0
G1 X62.966 Y94.342
G2 X62.593 Y94.487 I-0.186 J0.073
G3 X59.935 Y95.513 Z-3.356 I-1.329 J0.513 F333.3
X62.593 Y94.487 Z-3.513 I1.329 J-0.513
X59.935 Y95.513 Z-3.669 I-1.329 J0.513
X62.593 Y94.487 Z-3.825 I1.329 J-0.513
X59.935 Y95.513 Z-3.982 I-1.329 J0.513
X59.839 Y95 Z-4 I1.329 J-0.513
X60.789 Y95 I0.475 J0 F700
X56.989 Y95 I-1.9 J0
X63.639 Y95 I3.325 J0
X54.139 Y95 I-4.75 J0
X63.639 Y95 I4.75 J0
X63.253 Y95.073 I-0.2 J0
G1 X62.966 Y94.342
G2 X62.593 Y94.487 I-0.186 J0.073
G3 X59.935 Y95.513 Z-4.156 I-1.329 J0.513 F333.3
X62.593 Y94.487 Z-4.313 I1.329 J-0.513
X59.935 Y95.513 Z-4.469 I-1.329 J0.513
X62.593 Y94.487 Z-4.625 I1.329 J-0.513
X59.935 Y95.513 Z-4.782 I-1.329 J0.513
X59.839 Y95 Z-4.8 I1.329 J-0.513
X60.789 Y95 I0.475 J0 F700
X56.989 Y95 I-1.9 J0
X63.639 Y95 I3.325 J0
X54.139 Y95 I-4.75 J0
X63.639 Y95 I4.75 J0
X63.253 Y95.073 I-0.2 J0
G1 X62.966 Y94.342
G2 X62.593 Y94.487 I-0.186 J0.073
G3 X59.935 Y95.513 Z-4.956 I-1.329 J0.513 F333.3
X62.593 Y94.487 Z-5.113 I1.329 J-0.513
X59.935 Y95.513 Z-5.269 I-1.329 J0.513
X62.593 Y94.487 Z-5.425 I1.329 J-0.513
X59.935 Y95.513 Z-5.582 I-1.329 J0.513
X59.839 Y95 Z-5.6 I1.329 J-0.513
X60.789 Y95 I0.475 J0 F700
X56.989 Y95 I-1.9 J0
X63.639 Y95 I3.325 J0
X54.139 Y95 I-4.75 J0
X63.639 Y95 I4.75 J0
X63.253 Y95.073 I-0.2 J0
G1 X62.966 Y94.342
G2 X62.593 Y94.487 I-0.186 J0.073
G3 X59.935 Y95.513 Z-5.756 I-1.329 J0.513 F333.3
X62.593 Y94.487 Z-5.913 I1.329 J-0.513
X59.935 Y95.513 Z-6.069 I-1.329 J0.513
X62.593 Y94.487 Z-6.225 I1.329 J-0.513
X59.935 Y95.513 Z-6.382 I-1.329 J0.513
X59.839 Y95 Z-6.4 I1.329 J-0.513
X60.789 Y95 I0.475 J0 F700
X56.989 Y95 I-1.9 J0
X63.639 Y95 I3.325 J0
X54.139 Y95 I-4.75 J0
X63.639 Y95 I4.75 J0
X63.253 Y95.073 I-0.2 J0
G1 X62.966 Y94.342
G2 X62.593 Y94.487 I-0.186 J0.073
G3 X59.935 Y95.513 Z-6.556 I-1.329 J0.513 F333.3
X62.593 Y94.487 Z-6.713 I1.329 J-0.513
X59.935 Y95.513 Z-6.869 I-1.329 J0.513
X62.593 Y94.487 Z-7.025 I1.329 J-0.513
X59.935 Y95.513 Z-7.182 I-1.329 J0.513
X59.839 Y95 Z-7.2 I1.329 J-0.513
X60.789 Y95 I0.475 J0 F700
X56.989 Y95 I-1.9 J0
X63.639 Y95 I3.325 J0
X54.139 Y95 I-4.75 J0
X63.639 Y95 I4.75 J0
X63.253 Y95.073 I-0.2 J0
G1 X62.966 Y94.342
G2 X62.593 Y94.487 I-0.186 J0.073
G3 X59.935 Y95.513 Z-7.356 I-1.329 J0.513 F333.3
X62.593 Y94.487 Z-7.513 I1.329 J-0.513
X59.935 Y95.513 Z-7.669 I-1.329 J0.513
X62.593 Y94.487 Z-7.825 I1.329 J-0.513
X59.935 Y95.513 Z-7.982 I-1.329 J0.513
X59.839 Y95 Z-8 I1.329 J-0.513
X60.789 Y95 I0.475 J0 F700
X56.989 Y95 I-1.9 J0
X63.639 Y95 I3.325 J0
X54.139 Y95 I-4.75 J0
X63.639 Y95 I4.75 J0
X63.253 Y95.073 I-0.2 J0
G1 X62.966 Y94.342
G2 X62.593 Y94.487 I-0.186 J0.073
G3 X59.935 Y95.513 Z-8.156 I-1.329 J0.513 F333.3
X62.593 Y94.487 Z-8.313 I1.329 J-0.513
X59.935 Y95.513 Z-8.469 I-1.329 J0.513
X62.593 Y94.487 Z-8.625 I1.329 J-0.513
X59.935 Y95.513 Z-8.782 I-1.329 J0.513
X59.839 Y95 Z-8.8 I1.329 J-0.513
X60.789 Y95 I0.475 J0 F700
X56.989 Y95 I-1.9 J0
X63.639 Y95 I3.325 J0
X54.139 Y95 I-4.75 J0
X63.639 Y95 I4.75 J0
X63.253 Y95.073 I-0.2 J0
G1 X62.966 Y94.342
G2 X62.593 Y94.487 I-0.186 J0.073
G3 X59.935 Y95.513 Z-8.956 I-1.329 J0.513 F333.3
X62.593 Y94.487 Z-9.113 I1.329 J-0.513
X59.935 Y95.513 Z-9.269 I-1.329 J0.513
X62.593 Y94.487 Z-9.425 I1.329 J-0.513
X59.935 Y95.513 Z-9.582 I-1.329 J0.513
X59.839 Y95 Z-9.6 I1.329 J-0.513
X60.789 Y95 I0.475 J0 F700
X56.989 Y95 I-1.9 J0
X63.639 Y95 I3.325 J0
X54.139 Y95 I-4.75 J0
X63.639 Y95 I4.75 J0
X63.253 Y95.073 I-0.2 J0
G1 X62.966 Y94.342
G2 X62.593 Y94.487 I-0.186 J0.073
G3 X59.935 Y95.513 Z-9.756 I-1.329 J0.513 F333.3
X62.593 Y94.487 Z-9.913 I1.329 J-0.513
X59.935 Y95.513 Z-10.069 I-1.329 J0.513
X62.593 Y94.487 Z-10.225 I1.329 J-0.513
X59.935 Y95.513 Z-10.382 I-1.329 J0.513
X59.839 Y95 Z-10.4 I1.329 J-0.513
X60.789 Y95 I0.475 J0 F700
X56.989 Y95 I-1.9 J0
X63.639 Y95 I3.325 J0
X54.139 Y95 I-4.75 J0
X63.639 Y95 I4.75 J0
X63.253 Y95.073 I-0.2 J0
G1 X62.966 Y94.342
G2 X62.593 Y94.487 I-0.186 J0.073
G3 X59.935 Y95.513 Z-10.556 I-1.329 J0.513 F333.3
X62.593 Y94.487 Z-10.713 I1.329 J-0.513
X59.935 Y95.513 Z-10.869 I-1.329 J0.513
X62.593 Y94.487 Z-11.025 I1.329 J-0.513
X59.935 Y95.513 Z-11.182 I-1.329 J0.513
X59.839 Y95 Z-11.2 I1.329 J-0.513
X60.789 Y95 I0.475 J0 F700
X56.989 Y95 I-1.9 J0
X63.639 Y95 I3.325 J0
X54.139 Y95 I-4.75 J0
X63.639 Y95 I4.75 J0
X63.253 Y95.073 I-0.2 J0
G1 X62.966 Y94.342
G2 X62.593 Y94.487 I-0.186 J0.073
G3 X59.935 Y95.513 Z-11.356 I-1.329 J0.513 F333.3
X62.593 Y94.487 Z-11.513 I1.329 J-0.513
X59.935 Y95.513 Z-11.669 I-1.329 J0.513
X62.593 Y94.487 Z-11.825 I1.329 J-0.513
X59.935 Y95.513 Z-11.982 I-1.329 J0.513
X59.839 Y95 Z-12 I1.329 J-0.513
X60.789 Y95 I0.475 J0 F700
X56.989 Y95 I-1.9 J0
X63.639 Y95 I3.325 J0
X54.139 Y95 I-4.75 J0
X63.639 Y95 I4.75 J0
X63.253 Y95.073 I-0.2 J0
G1 X62.966 Y94.342
G2 X62.593 Y94.487 I-0.186 J0.073
G3 X59.935 Y95.513 Z-12.156 I-1.329 J0.513 F333.3
X62.593 Y94.487 Z-12.313 I1.329 J-0.513
X59.935 Y95.513 Z-12.469 I-1.329 J0.513
X62.593 Y94.487 Z-12.625 I1.329 J-0.513
X59.935 Y95.513 Z-12.782 I-1.329 J0.513
X59.839 Y95 Z-12.8 I1.329 J-0.513
X60.789 Y95 I0.475 J0 F700
X56.989 Y95 I-1.9 J0
X63.639 Y95 I3.325 J0
X54.139 Y95 I-4.75 J0
X63.639 Y95 I4.75 J0
X63.253 Y95.073 I-0.2 J0
G1 X62.966 Y94.342
G2 X62.593 Y94.487 I-0.186 J0.073
G3 X59.935 Y95.513 Z-12.956 I-1.329 J0.513 F333.3
X62.593 Y94.487 Z-13.113 I1.329 J-0.513
X59.935 Y95.513 Z-13.269 I-1.329 J0.513
X62.593 Y94.487 Z-13.425 I1.329 J-0.513
X59.935 Y95.513 Z-13.582 I-1.329 J0.513
X59.839 Y95 Z-13.6 I1.329 J-0.513
X60.789 Y95 I0.475 J0 F700
X56.989 Y95 I-1.9 J0
X63.639 Y95 I3.325 J0
X54.139 Y95 I-4.75 J0
X63.639 Y95 I4.75 J0
X63.253 Y95.073 I-0.2 J0
G1 X62.966 Y94.342
G2 X62.593 Y94.487 I-0.186 J0.073
G3 X59.935 Y95.513 Z-13.756 I-1.329 J0.513 F333.3
X62.593 Y94.487 Z-13.913 I1.329 J-0.513
X59.935 Y95.513 Z-14.069 I-1.329 J0.513
X62.593 Y94.487 Z-14.225 I1.329 J-0.513
X59.935 Y95.513 Z-14.382 I-1.329 J0.513
X59.839 Y95 Z-14.4 I1.329 J-0.513
X60.789 Y95 I0.475 J0 F700
X56.989 Y95 I-1.9 J0
X63.639 Y95 I3.325 J0
X54.139 Y95 I-4.75 J0
X63.639 Y95 I4.75 J0
X63.24 Y95.301 I-0.313 J0
G1 X61.77 Y94.881
X60.27 Y94.77
G3 X60.02 Y94.306 I0.023 J-0.312
X62.508 Y95.694 Z-14.556 I1.244 J0.694 F333.3
X60.02 Y94.306 Z-14.713 I-1.244 J-0.694
X62.508 Y95.694 Z-14.869 I1.244 J0.694
X59.839 Y95 Z-15 I-1.244 J-0.694
X60.789 Y95 I0.475 J0 F700
X56.989 Y95 I-1.9 J0
X63.639 Y95 I3.325 J0
X54.139 Y95 I-4.75 J0
X63.639 Y95 I4.75 J0
G0 Z6
X71.106 Y110.605
Z2
G3 X73.844 Y111.395 Z1.844 I1.369 J0.395 F333.3
X71.106 Y110.605 Z1.687 I-1.369 J-0.395
X73.844 Y111.395 Z1.531 I1.369 J0.395
X71.106 Y110.605 Z1.375 I-1.369 J-0.395
X73.844 Y111.395 Z1.218 I1.369 J0.395
X71.106 Y110.605 Z1.062 I-1.369 J-0.395
X73.844 Y111.395 Z0.906 I1.369 J0.395
X71.106 Y110.605 Z0.749 I-1.369 J-0.395
X73.844 Y111.395 Z0.593 I1.369 J0.395
X71.106 Y110.605 Z0.437 I-1.369 J-0.395
X73.844 Y111.395 Z0.28 I1.369 J0.395
X71.106 Y110.605 Z0.124 I-1.369 J-0.395
X73.844 Y111.395 Z-0.032 I1.369 J0.395
X71.106 Y110.605 Z-0.189 I-1.369 J-0.395
X73.844 Y111.395 Z-0.345 I1.369 J0.395
X71.106 Y110.605 Z-0.501 I-1.369 J-0.395
X73.844 Y111.395 Z-0.658 I1.369 J0.395
X71.05 Y111 Z-0.8 I-1.369 J-0.395
X73.8 Y111 I1.375 J0 F700
X68.2 Y111 I-2.8 J0
X76.65 Y111 I4.225 J0
X65.35 Y111 I-5.65 J0
X79.5 Y111 I7.075 J0
X62.5 Y111 I-8.5 J0
X79.5 Y111 I8.5 J0
X78.436 Y111.911 I-0.922 J0
G1 X74.202 Y111.249
X74.091 Y111.238
X73.979 Y111.241
G3 X73.818 Y109.405 I-0.08 J-0.918
X74.324 Y111.141 I0.08 J0.918
G1 X73.369 Y111.637
G3 X72.52 Y110.001 I-0.425 J-0.818
X73.804 Y110.487 I0.425 J0.818
X71.146 Y111.513 Z-0.956 I-1.329 J0.513 F333.3
X73.804 Y110.487 Z-1.113 I1.329 J-0.513
X71.146 Y111.513 Z-1.269 I-1.329 J0.513
X73.804 Y110.487 Z-1.425 I1.329 J-0.513
X71.146 Y111.513 Z-1.582 I-1.329 J0.513
X71.05 Y111 Z-1.6 I1.329 J-0.513
X73.8 Y111 I1.375 J0 F700
X68.2 Y111 I-2.8 J0
X76.65 Y111 I4.225 J0
X65.35 Y111 I-5.65 J0
X79.5 Y111 I7.075 J0
X62.5 Y111 I-8.5 J0
X79.5 Y111 I8.5 J0
X78.436 Y111.911 I-0.922 J0
G1 X74.202 Y111.249
X74.091 Y111.238
X73.979 Y111.241
G3 X73.818 Y109.405 I-0.08 J-0.918
X74.324 Y111.141 I0.08 J0.918
G1 X73.369 Y111.637
G3 X72.52 Y110.001 I-0.425 J-0.818
X73.804 Y110.487 I0.425 J0.818
X71.146 Y111.513 Z-1.756 I-1.329 J0.513 F333.3
X73.804 Y110.487 Z-1.913 I1.329 J-0.513
X71.146 Y111.513 Z-2.069 I-1.329 J0.513
X73.804 Y110.487 Z-2.225 I1.329 J-0.513
X71.146 Y111.513 Z-2.382 I-1.329 J0.513
X71.05 Y111 Z-2.4 I1.329 J-0.513
X73.8 Y111 I1.375 J0 F700
X68.2 Y111 I-2.8 J0
X76.65 Y111 I4.225 J0
X65.35 Y111 I-5.65 J0
X79.5 Y111 I7.075 J0
X62.5 Y111 I-8.5 J0
X79.5 Y111 I8.5 J0
X78.436 Y111.911 I-0.922 J0
G1 X74.202 Y111.249
X74.091 Y111.238
X73.979 Y111.241
G3 X73.818 Y109.405 I-0.08 J-0.918
X74.324 Y111.141 I0.08 J0.918
G1 X73.369 Y111.637
G3 X72.52 Y110.001 I-0.425 J-0.818
X73.804 Y110.487 I0.425 J0.818
X71.146 Y111.513 Z-2.556 I-1.329 J0.513 F333.3
X73.804 Y110.487 Z-2.713 I1.329 J-0.513
X71.146 Y111.513 Z-2.869 I-1.329 J0.513
X73.804 Y110.487 Z-3.025 I1.329 J-0.513
X71.146 Y111.513 Z-3.182 I-1.329 J0.513
X71.05 Y111 Z-3.2 I1.329 J-0.513
X73.8 Y111 I1.375 J0 F700
X68.2 Y111 I-2.8 J0
X76.65 Y111 I4.225 J0
X65.35 Y111 I-5.65 J0
X79.5 Y111 I7.075 J0
X62.5 Y111 I-8.5 J0
X79.5 Y111 I8.5 J0
X78.436 Y111.911 I-0.922 J0
G1 X74.202 Y111.249
X74.091 Y111.238
X73.979 Y111.241
G3 X73.818 Y109.405 I-0.08 J-0.918
X74.324 Y111.141 I0.08 J0.918
G1 X73.369 Y111.637
G3 X72.52 Y110.001 I-0.425 J-0.818
X73.804 Y110.487 I0.425 J0.818
X71.146 Y111.513 Z-3.356 I-1.329 J0.513 F333.3
X73.804 Y110.487 Z-3.513 I1.329 J-0.513
X71.146 Y111.513 Z-3.669 I-1.329 J0.513
X73.804 Y110.487 Z-3.825 I1.329 J-0.513
X71.146 Y111.513 Z-3.982 I-1.329 J0.513
X71.05 Y111 Z-4 I1.329 J-0.513
X73.8 Y111 I1.375 J0 F700
X68.2 Y111 I-2.8 J0
X76.65 Y111 I4.225 J0
X65.35 Y111 I-5.65 J0
X79.5 Y111 I7.075 J0
X62.5 Y111 I-8.5 J0
X79.5 Y111 I8.5 J0
X78.436 Y111.911 I-0.922 J0
G1 X74.202 Y111.249
X74.091 Y111.238
X73.979 Y111.241
G3 X73.818 Y109.405 I-0.08 J-0.918
X74.324 Y111.141 I0.08 J0.918
G1 X73.369 Y111.637
G3 X72.52 Y110.001 I-0.425 J-0.818
X73.804 Y110.487 I0.425 J0.818
X71.146 Y111.513 Z-4.156 I-1.329 J0.513 F333.3
X73.804 Y110.487 Z-4.313 I1.329 J-0.513
X71.146 Y111.513 Z-4.469 I-1.329 J0.513
X73.804 Y110.487 Z-4.625 I1.329 J-0.513
X71.146 Y111.513 Z-4.782 I-1.329 J0.513
X71.05 Y111 Z-4.8 I1.329 J-0.513
X73.8 Y111 I1.375 J0 F700
X68.2 Y111 I-2.8 J0
X76.65 Y111 I4.225 J0
X65.35 Y111 I-5.65 J0
X79.5 Y111 I7.075 J0
X62.5 Y111 I-8.5 J0
X79.5 Y111 I8.5 J0
X78.436 Y111.911 I-0.922 J0
G1 X74.202 Y111.249
X74.091 Y111.238
X73.979 Y111.241
G3 X73.818 Y109.405 I-0.08 J-0.918
X74.324 Y111.141 I0.08 J0.918
G1 X73.369 Y111.637
G3 X72.52 Y110.001 I-0.425 J-0.818
X73.804 Y110.487 I0.425 J0.818
X71.146 Y111.513 Z-4.956 I-1.329 J0.513 F333.3
X73.804 Y110.487 Z-5.113 I1.329 J-0.513
X71.146 Y111.513 Z-5.269 I-1.329 J0.513
X73.804 Y110.487 Z-5.425 I1.329 J-0.513
X71.146 Y111.513 Z-5.582 I-1.329 J0.513
X71.05 Y111 Z-5.6 I1.329 J-0.513
X73.8 Y111 I1.375 J0 F700
X68.2 Y111 I-2.8 J0
X76.65 Y111 I4.225 J0
X65.35 Y111 I-5.65 J0
X79.5 Y111 I7.075 J0
X62.5 Y111 I-8.5 J0
X79.5 Y111 I8.5 J0
X78.436 Y111.911 I-0.922 J0
G1 X74.202 Y111.249
X74.091 Y111.238
X73.979 Y111.241
G3 X73.818 Y109.405 I-0.08 J-0.918
X74.324 Y111.141 I0.08 J0.918
G1 X73.369 Y111.637
G3 X72.52 Y110.001 I-0.425 J-0.818
X73.804 Y110.487 I0.425 J0.818
X71.146 Y111.513 Z-5.756 I-1.329 J0.513 F333.3
X73.804 Y110.487 Z-5.913 I1.329 J-0.513
X71.146 Y111.513 Z-6.069 I-1.329 J0.513
X73.804 Y110.487 Z-6.225 I1.329 J-0.513
X71.146 Y111.513 Z-6.382 I-1.329 J0.513
X71.05 Y111 Z-6.4 I1.329 J-0.513
X73.8 Y111 I1.375 J0 F700
X68.2 Y111 I-2.8 J0
X76.65 Y111 I4.225 J0
X65.35 Y111 I-5.65 J0
X79.5 Y111 I7.075 J0
X62.5 Y111 I-8.5 J0
X79.5 Y111 I8.5 J0
X78.436 Y111.911 I-0.922 J0
G1 X74.202 Y111.249
X74.091 Y111.238
X73.979 Y111.241
G3 X73.818 Y109.405 I-0.08 J-0.918
X74.324 Y111.141 I0.08 J0.918
G1 X73.369 Y111.637
G3 X72.52 Y110.001 I-0.425 J-0.818
X73.804 Y110.487 I0.425 J0.818
X71.146 Y111.513 Z-6.556 I-1.329 J0.513 F333.3
X73.804 Y110.487 Z-6.713 I1.329 J-0.513
X71.146 Y111.513 Z-6.869 I-1.329 J0.513
X73.804 Y110.487 Z-7.025 I1.329 J-0.513
X71.146 Y111.513 Z-7.182 I-1.329 J0.513
X71.05 Y111 Z-7.2 I1.329 J-0.513
X73.8 Y111 I1.375 J0 F700
X68.2 Y111 I-2.8 J0
X76.65 Y111 I4.225 J0
X65.35 Y111 I-5.65 J0
X79.5 Y111 I7.075 J0
X62.5 Y111 I-8.5 J0
X79.5 Y111 I8.5 J0
X78.436 Y111.911 I-0.922 J0
G1 X74.202 Y111.249
X74.091 Y111.238
X73.979 Y111.241
G3 X73.818 Y109.405 I-0.08 J-0.918
X74.324 Y111.141 I0.08 J0.918
G1 X73.369 Y111.637
G3 X72.52 Y110.001 I-0.425 J-0.818
X73.804 Y110.487 I0.425 J0.818
X71.146 Y111.513 Z-7.356 I-1.329 J0.513 F333.3
X73.804 Y110.487 Z-7.513 I1.329 J-0.513
X71.146 Y111.513 Z-7.669 I-1.329 J0.513
X73.804 Y110.487 Z-7.825 I1.329 J-0.513
X71.146 Y111.513 Z-7.982 I-1.329 J0.513
X71.05 Y111 Z-8 I1.329 J-0.513
X73.8 Y111 I1.375 J0 F700
X68.2 Y111 I-2.8 J0
X76.65 Y111 I4.225 J0
X65.35 Y111 I-5.65 J0
X79.5 Y111 I7.075 J0
X62.5 Y111 I-8.5 J0
X79.5 Y111 I8.5 J0
X78.436 Y111.911 I-0.922 J0
G1 X74.202 Y111.249
X74.091 Y111.238
X73.979 Y111.241
G3 X73.818 Y109.405 I-0.08 J-0.918
X74.324 Y111.141 I0.08 J0.918
G1 X73.369 Y111.637
G3 X72.52 Y110.001 I-0.425 J-0.818
X73.804 Y110.487 I0.425 J0.818
X71.146 Y111.513 Z-8.156 I-1.329 J0.513 F333.3
X73.804 Y110.487 Z-8.313 I1.329 J-0.513
X71.146 Y111.513 Z-8.469 I-1.329 J0.513
X73.804 Y110.487 Z-8.625 I1.329 J-0.513
X71.146 Y111.513 Z-8.782 I-1.329 J0.513
X71.05 Y111 Z-8.8 I1.329 J-0.513
X73.8 Y111 I1.375 J0 F700
X68.2 Y111 I-2.8 J0
X76.65 Y111 I4.225 J0
X65.35 Y111 I-5.65 J0
X79.5 Y111 I7.075 J0
X62.5 Y111 I-8.5 J0
X79.5 Y111 I8.5 J0
X78.436 Y111.911 I-0.922 J0
G1 X74.202 Y111.249
X74.091 Y111.238
X73.979 Y111.241
G3 X73.818 Y109.405 I-0.08 J-0.918
X74.324 Y111.141 I0.08 J0.918
G1 X73.369 Y111.637
G3 X72.52 Y110.001 I-0.425 J-0.818
X73.804 Y110.487 I0.425 J0.818
X71.146 Y111.513 Z-8.956 I-1.329 J0.513 F333.3
X73.804 Y110.487 Z-9.113 I1.329 J-0.513
X71.146 Y111.513 Z-9.269 I-1.329 J0.513
X73.804 Y110.487 Z-9.425 I1.329 J-0.513
X71.146 Y111.513 Z-9.582 I-1.329 J0.513
X71.05 Y111 Z-9.6 I1.329 J-0.513
X73.8 Y111 I1.375 J0 F700
X68.2 Y111 I-2.8 J0
X76.65 Y111 I4.225 J0
X65.35 Y111 I-5.65 J0
X79.5 Y111 I7.075 J0
X62.5 Y111 I-8.5 J0
X79.5 Y111 I8.5 J0
X78.436 Y111.911 I-0.922 J0
G1 X74.202 Y111.249
X74.091 Y111.238
X73.979 Y111.241
G3 X73.818 Y109.405 I-0.08 J-0.918
X74.324 Y111.141 I0.08 J0.918
G1 X73.369 Y111.637
G3 X72.52 Y110.001 I-0.425 J-0.818
X73.804 Y110.487 I0.425 J0.818
X71.146 Y111.513 Z-9.756 I-1.329 J0.513 F333.3
X73.804 Y110.487 Z-9.913 I1.329 J-0.513
X71.146 Y111.513 Z-10.069 I-1.329 J0.513
X73.804 Y110.487 Z-10.225 I1.329 J-0.513
X71.146 Y111.513 Z-10.382 I-1.329 J0.513
X71.05 Y111 Z-10.4 I1.329 J-0.513
X73.8 Y111 I1.375 J0 F700
X68.2 Y111 I-2.8 J0
X76.65 Y111 I4.225 J0
X65.35 Y111 I-5.65 J0
X79.5 Y111 I7.075 J0
X62.5 Y111 I-8.5 J0
X79.5 Y111 I8.5 J0
X78.436 Y111.911 I-0.922 J0
G1 X74.202 Y111.249
X74.091 Y111.238
X73.979 Y111.241
G3 X73.818 Y109.405 I-0.08 J-0.918
X74.324 Y111.141 I0.08 J0.918
G1 X73.369 Y111.637
G3 X72.52 Y110.001 I-0.425 J-0.818
X73.804 Y110.487 I0.425 J0.818
X71.146 Y111.513 Z-10.556 I-1.329 J0.513 F333.3
X73.804 Y110.487 Z-10.713 I1.329 J-0.513
X71.146 Y111.513 Z-10.869 I-1.329 J0.513
X73.804 Y110.487 Z-11.025 I1.329 J-0.513
X71.146 Y111.513 Z-11.182 I-1.329 J0.513
X71.05 Y111 Z-11.2 I1.329 J-0.513
X73.8 Y111 I1.375 J0 F700
X68.2 Y111 I-2.8 J0
X76.65 Y111 I4.225 J0
X65.35 Y111 I-5.65 J0
X79.5 Y111 I7.075 J0
X62.5 Y111 I-8.5 J0
X79.5 Y111 I8.5 J0
X78.436 Y111.911 I-0.922 J0
G1 X74.202 Y111.249
X74.091 Y111.238
X73.979 Y111.241
G3 X73.818 Y109.405 I-0.08 J-0.918
X74.324 Y111.141 I0.08 J0.918
G1 X73.369 Y111.637
G3 X72.52 Y110.001 I-0.425 J-0.818
X73.804 Y110.487 I0.425 J0.818
X71.146 Y111.513 Z-11.356 I-1.329 J0.513 F333.3
X73.804 Y110.487 Z-11.513 I1.329 J-0.513
X71.146 Y111.513 Z-11.669 I-1.329 J0.513
X73.804 Y110.487 Z-11.825 I1.329 J-0.513
X71.146 Y111.513 Z-11.982 I-1.329 J0.513
X71.05 Y111 Z-12 I1.329 J-0.513
X73.8 Y111 I1.375 J0 F700
X68.2 Y111 I-2.8 J0
X76.65 Y111 I4.225 J0
X65.35 Y111 I-5.65 J0
X79.5 Y111 I7.075 J0
X62.5 Y111 I-8.5 J0
X79.5 Y111 I8.5 J0
X78.436 Y111.911 I-0.922 J0
G1 X74.202 Y111.249
X74.091 Y111.238
X73.979 Y111.241
G3 X73.818 Y109.405 I-0.08 J-0.918
X74.324 Y111.141 I0.08 J0.918
G1 X73.369 Y111.637
G3 X72.52 Y110.001 I-0.425 J-0.818
X73.804 Y110.487 I0.425 J0.818
X71.146 Y111.513 Z-12.156 I-1.329 J0.513 F333.3
X73.804 Y110.487 Z-12.313 I1.329 J-0.513
X71.146 Y111.513 Z-12.469 I-1.329 J0.513
X73.804 Y110.487 Z-12.625 I1.329 J-0.513
X71.146 Y111.513 Z-12.782 I-1.329 J0.513
X71.05 Y111 Z-12.8 I1.329 J-0.513
X73.8 Y111 I1.375 J0 F700
X68.2 Y111 I-2.8 J0
X76.65 Y111 I4.225 J0
X65.35 Y111 I-5.65 J0
X79.5 Y111 I7.075 J0
X62.5 Y111 I-8.5 J0
X79.5 Y111 I8.5 J0
X78.436 Y111.911 I-0.922 J0
G1 X74.202 Y111.249
X74.091 Y111.238
X73.979 Y111.241
G3 X73.818 Y109.405 I-0.08 J-0.918
X74.324 Y111.141 I0.08 J0.918
G1 X73.369 Y111.637
G3 X72.52 Y110.001 I-0.425 J-0.818
X73.804 Y110.487 I0.425 J0.818
X71.146 Y111.513 Z-12.956 I-1.329 J0.513 F333.3
X73.804 Y110.487 Z-13.113 I1.329 J-0.513
X71.146 Y111.513 Z-13.269 I-1.329 J0.513
X73.804 Y110.487 Z-13.425 I1.329 J-0.513
X71.146 Y111.513 Z-13.582 I-1.329 J0.513
X71.05 Y111 Z-13.6 I1.329 J-0.513
X73.8 Y111 I1.375 J0 F700
X68.2 Y111 I-2.8 J0
X76.65 Y111 I4.225 J0
X65.35 Y111 I-5.65 J0
X79.5 Y111 I7.075 J0
X62.5 Y111 I-8.5 J0
X79.5 Y111 I8.5 J0
X78.436 Y111.911 I-0.922 J0
G1 X74.202 Y111.249
X74.091 Y111.238
X73.979 Y111.241
G3 X73.818 Y109.405 I-0.08 J-0.918
X74.324 Y111.141 I0.08 J0.918
G1 X73.369 Y111.637
G3 X72.52 Y110.001 I-0.425 J-0.818
X73.804 Y110.487 I0.425 J0.818
X71.146 Y111.513 Z-13.756 I-1.329 J0.513 F333.3
X73.804 Y110.487 Z-13.913 I1.329 J-0.513
X71.146 Y111.513 Z-14.069 I-1.329 J0.513
X73.804 Y110.487 Z-14.225 I1.329 J-0.513
X71.146 Y111.513 Z-14.382 I-1.329 J0.513
X71.05 Y111 Z-14.4 I1.329 J-0.513
X73.8 Y111 I1.375 J0 F700
X68.2 Y111 I-2.8 J0
X76.65 Y111 I4.225 J0
X65.35 Y111 I-5.65 J0
X79.5 Y111 I7.075 J0
X62.5 Y111 I-8.5 J0
X79.5 Y111 I8.5 J0
X78.675 Y111.704 I-0.713 J0
G1 X75.4 Y111.18
X75.315 Y111.172
X75.23 Y111.174
X71.894 Y111.365
G3 X71.231 Y110.306 I-0.041 J-0.712
X73.719 Y111.694 Z-14.556 I1.244 J0.694 F333.3
X71.231 Y110.306 Z-14.713 I-1.244 J-0.694
X73.719 Y111.694 Z-14.869 I1.244 J0.694
X71.05 Y111 Z-15 I-1.244 J-0.694
X73.8 Y111 I1.375 J0 F700
X68.2 Y111 I-2.8 J0
X76.65 Y111 I4.225 J0
X65.35 Y111 I-5.65 J0
X79.5 Y111 I7.075 J0
X62.5 Y111 I-8.5 J0
X79.5 Y111 I8.5 J0
G0 Z6
X84.339 Y94.605
Z2
G3 X87.077 Y95.395 Z1.844 I1.369 J0.395 F333.3
X84.339 Y94.605 Z1.687 I-1.369 J-0.395
X87.077 Y95.395 Z1.531 I1.369 J0.395
X84.339 Y94.605 Z1.375 I-1.369 J-0.395
X87.077 Y95.395 Z1.218 I1.369 J0.395
X84.339 Y94.605 Z1.062 I-1.369 J-0.395
X87.077 Y95.395 Z0.906 I1.369 J0.395
X84.339 Y94.605 Z0.749 I-1.369 J-0.395
X87.077 Y95.395 Z0.593 I1.369 J0.395
X84.339 Y94.605 Z0.437 I-1.369 J-0.395
X87.077 Y95.395 Z0.28 I1.369 J0.395
X84.339 Y94.605 Z0.124 I-1.369 J-0.395
X87.077 Y95.395 Z-0.032 I1.369 J0.395
X84.339 Y94.605 Z-0.189 I-1.369 J-0.395
X87.077 Y95.395 Z-0.345 I1.369 J0.395
X84.339 Y94.605 Z-0.501 I-1.369 J-0.395
X87.077 Y95.395 Z-0.658 I1.369 J0.395
X84.283 Y95 Z-0.8 I-1.369 J-0.395
X85.233 Y95 I0.475 J0 F700
X81.433 Y95 I-1.9 J0
X88.083 Y95 I3.325 J0
X78.583 Y95 I-4.75 J0
X88.083 Y95 I4.75 J0
X87.697 Y95.073 I-0.2 J0
G1 X87.41 Y94.342
G2 X87.038 Y94.487 I-0.186 J0.073
G3 X84.379 Y95.513 Z-0.956 I-1.329 J0.513 F333.3
X87.038 Y94.487 Z-1.113 I1.329 J-0.513
X84.379 Y95.513 Z-1.269 I-1.329 J0.513
X87.038 Y94.487 Z-1.425 I1.329 J-0.513
X84.379 Y95.513 Z-1.582 I-1.329 J0.513
X84.283 Y95 Z-1.6 I1.329 J-0.513
X85.233 Y95 I0.475 J0 F700
X81.433 Y95 I-1.9 J0
X88.083 Y95 I3.325 J0
X78.583 Y95 I-4.75 J0
X88.083 Y95 I4.75 J0
X87.697 Y95.073 I-0.2 J0
G1 X87.41 Y94.342
G2 X87.038 Y94.487 I-0.186 J0.073
G3 X84.379 Y95.513 Z-1.756 I-1.329 J0.513 F333.3
X87.038 Y94.487 Z-1.913 I1.329 J-0.513
X84.379 Y95.513 Z-2.069 I-1.329 J0.513
X87.038 Y94.487 Z-2.225 I1.329 J-0.513
X84.379 Y95.513 Z-2.382 I-1.329 J0.513
X84.283 Y95 Z-2.4 I1.329 J-0.513
X85.233 Y95 I0.475 J0 F700
X81.433 Y95 I-1.9 J0
X88.083 Y95 I3.325 J0
X78.583 Y95 I-4.75 J0
X88.083 Y95 I4.75 J0
X87.697 Y95.073 I-0.2 J0
G1 X87.41 Y94.342
G2 X87.038 Y94.487 I-0.186 J0.073
G3 X84.379 Y95.513 Z-2.556 I-1.329 J0.513 F333.3
X87.038 Y94.487 Z-2.713 I1.329 J-0.513
X84.379 Y95.513 Z-2.869 I-1.329 J0.513
X87.038 Y94.487 Z-3.025 I1.329 J-0.513
X84.379 Y95.513 Z-3.182 I-1.329 J0.513
X84.283 Y95 Z-3.2 I1.329 J-0.513
X85.233 Y95 I0.475 J0 F700
X81.433 Y95 I-1.9 J0
X88.083 Y95 I3.325 J0
X78.583 Y95 I-4.75 J0
X88.083 Y95 I4.75 J0
X87.697 Y95.073 I-0.2 J0
G1 X87.41 Y94.342
G2 X87.038 Y94.487 I-0.186 J0.073
G3 X84.379 Y95.513 Z-3.356 I-1.329 J0.513 F333.3
X87.038 Y94.487 Z-3.513 I1.329 J-0.513
X84.379 Y95.513 Z-3.669 I-1.329 J0.513
X87.038 Y94.487 Z-3.825 I1.329 J-0.513
X84.379 Y95.513 Z-3.982 I-1.329 J0.513
X84.283 Y95 Z-4 I1.329 J-0.513
X85.233 Y95 I0.475 J0 F700
X81.433 Y95 I-1.9 J0
X88.083 Y95 I3.325 J0
X78.583 Y95 I-4.75 J0
X88.083 Y95 I4.75 J0
X87.697 Y95.073 I-0.2 J0
G1 X87.41 Y94.342
G2 X87.038 Y94.487 I-0.186 J0.073
G3 X84.379 Y95.513 Z-4.156 I-1.329 J0.513 F333.3
X87.038 Y94.487 Z-4.313 I1.329 J-0.513
X84.379 Y95.513 Z-4.469 I-1.329 J0.513
X87.038 Y94.487 Z-4.625 I1.329 J-0.513
X84.379 Y95.513 Z-4.782 I-1.329 J0.513
X84.283 Y95 Z-4.8 I1.329 J-0.513
X85.233 Y95 I0.475 J0 F700
X81.433 Y95 I-1.9 J0
X88.083 Y95 I3.325 J0
X78.583 Y95 I-4.75 J0
X88.083 Y95 I4.75 J0
X87.697 Y95.073 I-0.2 J0
G1 X87.41 Y94.342
G2 X87.038 Y94.487 I-0.186 J0.073
G3 X84.379 Y95.513 Z-4.956 I-1.329 J0.513 F333.3
X87.038 Y94.487 Z-5.113 I1.329 J-0.513
X84.379 Y95.513 Z-5.269 I-1.329 J0.513
X87.038 Y94.487 Z-5.425 I1.329 J-0.513
X84.379 Y95.513 Z-5.582 I-1.329 J0.513
X84.283 Y95 Z-5.6 I1.329 J-0.513
X85.233 Y95 I0.475 J0 F700
X81.433 Y95 I-1.9 J0
X88.083 Y95 I3.325 J0
X78.583 Y95 I-4.75 J0
X88.083 Y95 I4.75 J0
X87.697 Y95.073 I-0.2 J0
G1 X87.41 Y94.342
G2 X87.038 Y94.487 I-0.186 J0.073
G3 X84.379 Y95.513 Z-5.756 I-1.329 J0.513 F333.3
X87.038 Y94.487 Z-5.913 I1.329 J-0.513
X84.379 Y95.513 Z-6.069 I-1.329 J0.513
X87.038 Y94.487 Z-6.225 I1.329 J-0.513
X84.379 Y95.513 Z-6.382 I-1.329 J0.513
X84.283 Y95 Z-6.4 I1.329 J-0.513
X85.233 Y95 I0.475 J0 F700
X81.433 Y95 I-1.9 J0
X88.083 Y95 I3.325 J0
X78.583 Y95 I-4.75 J0
X88.083 Y95 I4.75 J0
X87.697 Y95.073 I-0.2 J0
G1 X87.41 Y94.342
G2 X87.038 Y94.487 I-0.186 J0.073
G3 X84.379 Y95.513 Z-6.556 I-1.329 J0.513 F333.3
X87.038 Y94.487 Z-6.713 I1.329 J-0.513
X84.379 Y95.513 Z-6.869 I-1.329 J0.513
X87.038 Y94.487 Z-7.025 I1.329 J-0.513
X84.379 Y95.513 Z-7.182 I-1.329 J0.513
X84.283 Y95 Z-7.2 I1.329 J-0.513
X85.233 Y95 I0.475 J0 F700
X81.433 Y95 I-1.9 J0
X88.083 Y95 I3.325 J0
X78.583 Y95 I-4.75 J0
X88.083 Y95 I4.75 J0
X87.697 Y95.073 I-0.2 J0
G1 X87.41 Y94.342
G2 X87.038 Y94.487 I-0.186 J0.073
G3 X84.379 Y95.513 Z-7.356 I-1.329 J0.513 F333.3
X87.038 Y94.487 Z-7.513 I1.329 J-0.513
X84.379 Y95.513 Z-7.669 I-1.329 J0.513
X87.038 Y94.487 Z-7.825 I1.329 J-0.513
X84.379 Y95.513 Z-7.982 I-1.329 J0.513
X84.283 Y95 Z-8 I1.329 J-0.513
X85.233 Y95 I0.475 J0 F700
X81.433 Y95 I-1.9 J0
X88.083 Y95 I3.325 J0
X78.583 Y95 I-4.75 J0
X88.083 Y95 I4.75 J0
X87.697 Y95.073 I-0.2 J0
G1 X87.41 Y94.342
G2 X87.038 Y94.487 I-0.186 J0.073
G3 X84.379 Y95.513 Z-8.156 I-1.329 J0.513 F333.3
X87.038 Y94.487 Z-8.313 I1.329 J-0.513
X84.379 Y95.513 Z-8.469 I-1.329 J0.513
X87.038 Y94.487 Z-8.625 I1.329 J-0.513
X84.379 Y95.513 Z-8.782 I-1.329 J0.513
X84.283 Y95 Z-8.8 I1.329 J-0.513
X85.233 Y95 I0.475 J0 F700
X81.433 Y95 I-1.9 J0
X88.083 Y95 I3.325 J0
X78.583 Y95 I-4.75 J0
X88.083 Y95 I4.75 J0
X87.697 Y95.073 I-0.2 J0
G1 X87.41 Y94.342
G2 X87.038 Y94.487 I-0.186 J0.073
G3 X84.379 Y95.513 Z-8.956 I-1.329 J0.513 F333.3
X87.038 Y94.487 Z-9.113 I1.329 J-0.513
X84.379 Y95.513 Z-9.269 I-1.329 J0.513
X87.038 Y94.487 Z-9.425 I1.329 J-0.513
X84.379 Y95.513 Z-9.582 I-1.329 J0.513
X84.283 Y95 Z-9.6 I1.329 J-0.513
X85.233 Y95 I0.475 J0 F700
X81.433 Y95 I-1.9 J0
X88.083 Y95 I3.325 J0
X78.583 Y95 I-4.75 J0
X88.083 Y95 I4.75 J0
X87.697 Y95.073 I-0.2 J0
G1 X87.41 Y94.342
G2 X87.038 Y94.487 I-0.186 J0.073
G3 X84.379 Y95.513 Z-9.756 I-1.329 J0.513 F333.3
X87.038 Y94.487 Z-9.913 I1.329 J-0.513
X84.379 Y95.513 Z-10.069 I-1.329 J0.513
X87.038 Y94.487 Z-10.225 I1.329 J-0.513
X84.379 Y95.513 Z-10.382 I-1.329 J0.513
X84.283 Y95 Z-10.4 I1.329 J-0.513
X85.233 Y95 I0.475 J0 F700
X81.433 Y95 I-1.9 J0
X88.083 Y95 I3.325 J0
X78.583 Y95 I-4.75 J0
X88.083 Y95 I4.75 J0
X87.697 Y95.073 I-0.2 J0
G1 X87.41 Y94.342
G2 X87.038 Y94.487 I-0.186 J0.073
G3 X84.379 Y95.513 Z-10.556 I-1.329 J0.513 F333.3
X87.038 Y94.487 Z-10.713 I1.329 J-0.513
X84.379 Y95.513 Z-10.869 I-1.329 J0.513
X87.038 Y94.487 Z-11.025 I1.329 J-0.513
X84.379 Y95.513 Z-11.182 I-1.329 J0.513
X84.283 Y95 Z-11.2 I1.329 J-0.513
X85.233 Y95 I0.475 J0 F700
X81.433 Y95 I-1.9 J0
X88.083 Y95 I3.325 J0
X78.583 Y95 I-4.75 J0
X88.083 Y95 I4.75 J0
X87.697 Y95.073 I-0.2 J0
G1 X87.41 Y94.342
G2 X87.038 Y94.487 I-0.186 J0.073
G3 X84.379 Y95.513 Z-11.356 I-1.329 J0.513 F333.3
X87.038 Y94.487 Z-11.513 I1.329 J-0.513
X84.379 Y95.513 Z-11.669 I-1.329 J0.513
X87.038 Y94.487 Z-11.825 I1.329 J-0.513
X84.379 Y95.513 Z-11.982 I-1.329 J0.513
X84.283 Y95 Z-12 I1.329 J-0.513
X85.233 Y95 I0.475 J0 F700
X81.433 Y95 I-1.9 J0
X88.083 Y95 I3.325 J0
X78.583 Y95 I-4.75 J0
X88.083 Y95 I4.75 J0
X87.697 Y95.073 I-0.2 J0
G1 X87.41 Y94.342
G2 X87.038 Y94.487 I-0.186 J0.073
G3 X84.379 Y95.513 Z-12.156 I-1.329 J0.513 F333.3
X87.038 Y94.487 Z-12.313 I1.329 J-0.513
X84.379 Y95.513 Z-12.469 I-1.329 J0.513
X87.038 Y94.487 Z-12.625 I1.329 J-0.513
X84.379 Y95.513 Z-12.782 I-1.329 J0.513
X84.283 Y95 Z-12.8 I1.329 J-0.513
X85.233 Y95 I0.475 J0 F700
X81.433 Y95 I-1.9 J0
X88.083 Y95 I3.325 J0
X78.583 Y95 I-4.75 J0
X88.083 Y95 I4.75 J0
X87.697 Y95.073 I-0.2 J0
G1 X87.41 Y94.342
G2 X87.038 Y94.487 I-0.186 J0.073
G3 X84.379 Y95.513 Z-12.956 I-1.329 J0.513 F333.3
X87.038 Y94.487 Z-13.113 I1.329 J-0.513
X84.379 Y95.513 Z-13.269 I-1.329 J0.513
X87.038 Y94.487 Z-13.425 I1.329 J-0.513
X84.379 Y95.513 Z-13.582 I-1.329 J0.513
X84.283 Y95 Z-13.6 I1.329 J-0.513
X85.233 Y95 I0.475 J0 F700
X81.433 Y95 I-1.9 J0
X88.083 Y95 I3.325 J0
X78.583 Y95 I-4.75 J0
X88.083 Y95 I4.75 J0
X87.697 Y95.073 I-0.2 J0
G1 X87.41 Y94.342
G2 X87.038 Y94.487 I-0.186 J0.073
G3 X84.379 Y95.513 Z-13.756 I-1.329 J0.513 F333.3
X87.038 Y94.487 Z-13.913 I1.329 J-0.513
X84.379 Y95.513 Z-14.069 I-1.329 J0.513
X87.038 Y94.487 Z-14.225 I1.329 J-0.513
X84.379 Y95.513 Z-14.382 I-1.329 J0.513
X84.283 Y95 Z-14.4 I1.329 J-0.513
X85.233 Y95 I0.475 J0 F700
X81.433 Y95 I-1.9 J0
X88.083 Y95 I3.325 J0
X78.583 Y95 I-4.75 J0
X88.083 Y95 I4.75 J0
X87.684 Y95.301 I-0.313 J0
G1 X86.214 Y94.881
X84.714 Y94.77
G3 X84.464 Y94.306 I0.023 J-0.312
X86.953 Y95.694 Z-14.556 I1.244 J0.694 F333.3
X84.464 Y94.306 Z-14.713 I-1.244 J-0.694
X86.953 Y95.694 Z-14.869 I1.244 J0.694
X84.283 Y95 Z-15 I-1.244 J-0.694
X85.233 Y95 I0.475 J0 F700
X81.433 Y95 I-1.9 J0
X88.083 Y95 I3.325 J0
X78.583 Y95 I-4.75 J0
X88.083 Y95 I4.75 J0
G0 Z6
X95.762 Y127.847
Z2
G3 X94.972 Y130.585 Z1.844 I-0.395 J1.369 F333.3
X95.762 Y127.847 Z1.687 I0.395 J-1.369
X94.972 Y130.585 Z1.531 I-0.395 J1.369
X95.762 Y127.847 Z1.375 I0.395 J-1.369
X94.972 Y130.585 Z1.218 I-0.395 J1.369
X95.762 Y127.847 Z1.062 I0.395 J-1.369
X94.972 Y130.585 Z0.906 I-0.395 J1.369
X95.762 Y127.847 Z0.749 I0.395 J-1.369
X94.972 Y130.585 Z0.593 I-0.395 J1.369
X95.762 Y127.847 Z0.437 I0.395 J-1.369
X94.972 Y130.585 Z0.28 I-0.395 J1.369
X95.762 Y127.847 Z0.124 I0.395 J-1.369
X94.972 Y130.585 Z-0.032 I-0.395 J1.369
X95.762 Y127.847 Z-0.189 I0.395 J-1.369
X94.972 Y130.585 Z-0.345 I-0.395 J1.369
X95.762 Y127.847 Z-0.501 I0.395 J-1.369
X94.972 Y130.585 Z-0.658 I-0.395 J1.369
X95.367 Y127.791 Z-0.8 I0.395 J-1.369
X96.317 Y128.741 I0 J0.95 F700
X95.367 Y129.691 I-0.95 J0
X94.417 Y128.741 I0 J-0.95
X95.367 Y127.791 I0.95 J0
X97.597 Y127.809 I-0.041 J147.299
X98.974 Y129.562 I-0.022 J1.435
X95.367 Y132.441 I-3.608 J-0.821
X91.667 Y128.741 I0 J-3.7
X95.367 Y125.041 I3.7 J0
G1 X95.373 Y125.022
X95.389 Y125.009
X95.409 Y125.007
X95.427 Y125.017
X95.454 Y125.036
X95.486 Y125.043
G3 X98.974 Y129.562 I-0.119 J3.698
G2 X99.595 Y131.556 I2.028 J0.462
G3 X99.558 Y133.644 I-0.944 J1.027
X95.367 Y135.191 I-4.191 J-4.903
X88.917 Y128.741 I0 J-6.45
X95.367 Y122.291 I6.45 J0
X101.817 Y128.741 I0 J6.45
X99.558 Y133.644 I-6.45 J0
G2 X98.865 Y135.742 I1.386 J1.622
G3 X97.723 Y137.634 I-1.549 J0.355
X95.367 Y137.941 I-2.356 J-8.893
X86.167 Y128.741 I0 J-9.2
X104.567 Y128.741 I9.2 J0
X97.723 Y137.634 I-9.2 J0
G2 X96.133 Y139.314 I0.563 J2.124
G3 X94.276 Y140.691 I-1.7 J-0.351
X83.367 Y128.741 I1.091 J-11.951
X95.367 Y116.741 I12 J0
X107.367 Y128.741 I0 J12
X94.276 Y140.691 I-12 J0
X94.098 Y140.451 I0.018 J-0.199
G1 X96.148 Y130.773
G2 X95.88 Y130.545 I-0.196 J-0.041
G3 X94.853 Y127.887 Z-0.956 I-0.513 J-1.329 F333.3
X95.88 Y130.545 Z-1.113 I0.513 J1.329
X94.853 Y127.887 Z-1.269 I-0.513 J-1.329
X95.88 Y130.545 Z-1.425 I0.513 J1.329
X94.853 Y127.887 Z-1.582 I-0.513 J-1.329
X95.367 Y127.791 Z-1.6 I0.513 J1.329
X96.317 Y128.741 I0 J0.95 F700
X95.367 Y129.691 I-0.95 J0
X94.417 Y128.741 I0 J-0.95
X95.367 Y127.791 I0.95 J0
X97.597 Y127.809 I-0.041 J147.299
X98.974 Y129.562 I-0.022 J1.435
X95.367 Y132.441 I-3.608 J-0.821
X91.667 Y128.741 I0 J-3.7
X95.367 Y125.041 I3.7 J0
G1 X95.373 Y125.022
X95.389 Y125.009
X95.409 Y125.007
X95.427 Y125.017
X95.454 Y125.036
X95.486 Y125.043
G3 X98.974 Y129.562 I-0.119 J3.698
G2 X99.595 Y131.556 I2.028 J0.462
G3 X99.558 Y133.644 I-0.944 J1.027
X95.367 Y135.191 I-4.191 J-4.903
X88.917 Y128.741 I0 J-6.45
X95.367 Y122.291 I6.45 J0
X101.817 Y128.741 I0 J6.45
X99.558 Y133.644 I-6.45 J0
G2 X98.865 Y135.742 I1.386 J1.622
G3 X97.723 Y137.634 I-1.549 J0.355
X95.367 Y137.941 I-2.356 J-8.893
X86.167 Y128.741 I0 J-9.2
X104.567 Y128.741 I9.2 J0
X97.723 Y137.634 I-9.2 J0
G2 X96.133 Y139.314 I0.563 J2.124
G3 X94.276 Y140.691 I-1.7 J-0.351
X83.367 Y128.741 I1.091 J-11.951
X95.367 Y116.741 I12 J0
X107.367 Y128.741 I0 J12
X94.276 Y140.691 I-12 J0
X94.098 Y140.451 I0.018 J-0.199
G1 X96.148 Y130.773
G2 X95.88 Y130.545 I-0.196 J-0.041
G3 X94.853 Y127.887 Z-1.756 I-0.513 J-1.329 F333.3
X95.88 Y130.545 Z-1.913 I0.513 J1.329
X94.853 Y127.887 Z-2.069 I-0.513 J-1.329
X95.88 Y130.545 Z-2.225 I0.513 J1.329
X94.853 Y127.887 Z-2.382 I-0.513 J-1.329
X95.367 Y127.791 Z-2.4 I0.513 J1.329
X96.317 Y128.741 I0 J0.95 F700
X95.367 Y129.691 I-0.95 J0
X94.417 Y128.741 I0 J-0.95
X95.367 Y127.791 I0.95 J0
X97.597 Y127.809 I-0.041 J147.299
X98.974 Y129.562 I-0.022 J1.435
X95.367 Y132.441 I-3.608 J-0.821
X91.667 Y128.741 I0 J-3.7
X95.367 Y125.041 I3.7 J0
G1 X95.373 Y125.022
X95.389 Y125.009
X95.409 Y125.007
X95.427 Y125.017
X95.454 Y125.036
X95.486 Y125.043
G3 X98.974 Y129.562 I-0.119 J3.698
G2 X99.595 Y131.556 I2.028 J0.462
G3 X99.558 Y133.644 I-0.944 J1.027
X95.367 Y135.191 I-4.191 J-4.903
X88.917 Y128.741 I0 J-6.45
X95.367 Y122.291 I6.45 J0
X101.817 Y128.741 I0 J6.45
X99.558 Y133.644 I-6.45 J0
G2 X98.865 Y135.742 I1.386 J1.622
G3 X97.723 Y137.634 I-1.549 J0.355
X95.367 Y137.941 I-2.356 J-8.893
X86.167 Y128.741 I0 J-9.2
X104.567 Y128.741 I9.2 J0
X97.723 Y137.634 I-9.2 J0
G2 X96.133 Y139.314 I0.563 J2.124
G3 X94.276 Y140.691 I-1.7 J-0.351
X83.367 Y128.741 I1.091 J-11.951
X95.367 Y116.741 I12 J0
X107.367 Y128.741 I0 J12
X94.276 Y140.691 I-12 J0
X94.098 Y140.451 I0.018 J-0.199
G1 X96.148 Y130.773
G2 X95.88 Y130.545 I-0.196 J-0.041
G3 X94.853 Y127.887 Z-2.556 I-0.513 J-1.329 F333.3
X95.88 Y130.545 Z-2.713 I0.513 J1.329
X94.853 Y127.887 Z-2.869 I-0.513 J-1.329
X95.88 Y130.545 Z-3.025 I0.513 J1.329
X94.853 Y127.887 Z-3.182 I-0.513 J-1.329
X95.367 Y127.791 Z-3.2 I0.513 J1.329
X96.317 Y128.741 I0 J0.95 F700
X95.367 Y129.691 I-0.95 J0
X94.417 Y128.741 I0 J-0.95
X95.367 Y127.791 I0.95 J0
X97.597 Y127.809 I-0.041 J147.299
X98.974 Y129.562 I-0.022 J1.435
X95.367 Y132.441 I-3.608 J-0.821
X91.667 Y128.741 I0 J-3.7
X95.367 Y125.041 I3.7 J0
G1 X95.373 Y125.022
X95.389 Y125.009
X95.409 Y125.007
X95.427 Y125.017
X95.454 Y125.036
X95.486 Y125.043
G3 X98.974 Y129.562 I-0.119 J3.698
G2 X99.595 Y131.556 I2.028 J0.462
G3 X99.558 Y133.644 I-0.944 J1.027
X95.367 Y135.191 I-4.191 J-4.903
X88.917 Y128.741 I0 J-6.45
X95.367 Y122.291 I6.45 J0
X101.817 Y128.741 I0 J6.45
X99.558 Y133.644 I-6.45 J0
G2 X98.865 Y135.742 I1.386 J1.622
G3 X97.723 Y137.634 I-1.549 J0.355
X95.367 Y137.941 I-2.356 J-8.893
X86.167 Y128.741 I0 J-9.2
X104.567 Y128.741 I9.2 J0
X97.723 Y137.634 I-9.2 J0
G2 X96.133 Y139.314 I0.563 J2.124
G3 X94.276 Y140.691 I-1.7 J-0.351
X83.367 Y128.741 I1.091 J-11.951
X95.367 Y116.741 I12 J0
X107.367 Y128.741 I0 J12
X94.276 Y140.691 I-12 J0
X94.098 Y140.451 I0.018 J-0.199
G1 X96.148 Y130.773
G2 X95.88 Y130.545 I-0.196 J-0.041
G3 X94.853 Y127.887 Z-3.356 I-0.513 J-1.329 F333.3
X95.88 Y130.545 Z-3.513 I0.513 J1.329
X94.853 Y127.887 Z-3.669 I-0.513 J-1.329
X95.88 Y130.545 Z-3.825 I0.513 J1.329
X94.853 Y127.887 Z-3.982 I-0.513 J-1.329
X95.367 Y127.791 Z-4 I0.513 J1.329
X96.317 Y128.741 I0 J0.95 F700
X95.367 Y129.691 I-0.95 J0
X94.417 Y128.741 I0 J-0.95
X95.367 Y127.791 I0.95 J0
X97.597 Y127.809 I-0.041 J147.299
X98.974 Y129.562 I-0.022 J1.435
X95.367 Y132.441 I-3.608 J-0.821
X91.667 Y128.741 I0 J-3.7
X95.367 Y125.041 I3.7 J0
G1 X95.373 Y125.022
X95.389 Y125.009
X95.409 Y125.007
X95.427 Y125.017
X95.454 Y125.036
X95.486 Y125.043
G3 X98.974 Y129.562 I-0.119 J3.698
G2 X99.595 Y131.556 I2.028 J0.462
G3 X99.558 Y133.644 I-0.944 J1.027
X95.367 Y135.191 I-4.191 J-4.903
X88.917 Y128.741 I0 J-6.45
X95.367 Y122.291 I6.45 J0
X101.817 Y128.741 I0 J6.45
X99.558 Y133.644 I-6.45 J0
G2 X98.865 Y135.742 I1.386 J1.622
G3 X97.723 Y137.634 I-1.549 J0.355
X95.367 Y137.941 I-2.356 J-8.893
X86.167 Y128.741 I0 J-9.2
X104.567 Y128.741 I9.2 J0
X97.723 Y137.634 I-9.2 J0
G2 X96.133 Y139.314 I0.563 J2.124
G3 X94.276 Y140.691 I-1.7 J-0.351
X83.367 Y128.741 I1.091 J-11.951
X95.367 Y116.741 I12 J0
X107.367 Y128.741 I0 J12
X94.276 Y140.691 I-12 J0
X94.098 Y140.451 I0.018 J-0.199
G1 X96.148 Y130.773
G2 X95.88 Y130.545 I-0.196 J-0.041
G3 X94.853 Y127.887 Z-4.156 I-0.513 J-1.329 F333.3
X95.88 Y130.545 Z-4.313 I0.513 J1.329
X94.853 Y127.887 Z-4.469 I-0.513 J-1.329
X95.88 Y130.545 Z-4.625 I0.513 J1.329
X94.853 Y127.887 Z-4.782 I-0.513 J-1.329
X95.367 Y127.791 Z-4.8 I0.513 J1.329
X96.317 Y128.741 I0 J0.95 F700
X95.367 Y129.691 I-0.95 J0
X94.417 Y128.741 I0 J-0.95
X95.367 Y127.791 I0.95 J0
X97.597 Y127.809 I-0.041 J147.299
X98.974 Y129.562 I-0.022 J1.435
X95.367 Y132.441 I-3.608 J-0.821
X91.667 Y128.741 I0 J-3.7
X95.367 Y125.041 I3.7 J0
G1 X95.373 Y125.022
X95.389 Y125.009
X95.409 Y125.007
X95.427 Y125.017
X95.454 Y125.036
X95.486 Y125.043
G3 X98.974 Y129.562 I-0.119 J3.698
G2 X99.595 Y131.556 I2.028 J0.462
G3 X99.558 Y133.644 I-0.944 J1.027
X95.367 Y135.191 I-4.191 J-4.903
X88.917 Y128.741 I0 J-6.45
X95.367 Y122.291 I6.45 J0
X101.817 Y128.741 I0 J6.45
X99.558 Y133.644 I-6.45 J0
G2 X98.865 Y135.742 I1.386 J1.622
G3 X97.723 Y137.634 I-1.549 J0.355
X95.367 Y137.941 I-2.356 J-8.893
X86.167 Y128.741 I0 J-9.2
X104.567 Y128.741 I9.2 J0
X97.723 Y137.634 I-9.2 J0
G2 X96.133 Y139.314 I0.563 J2.124
G3 X94.276 Y140.691 I-1.7 J-0.351
X83.367 Y128.741 I1.091 J-11.951
X95.367 Y116.741 I12 J0
X107.367 Y128.741 I0 J12
X94.276 Y140.691 I-12 J0
X94.098 Y140.451 I0.018 J-0.199
G1 X96.148 Y130.773
G2 X95.88 Y130.545 I-0.196 J-0.041
G3 X94.853 Y127.887 Z-4.956 I-0.513 J-1.329 F333.3
X95.88 Y130.545 Z-5.113 I0.513 J1.329
X94.853 Y127.887 Z-5.269 I-0.513 J-1.329
X95.88 Y130.545 Z-5.425 I0.513 J1.329
X94.853 Y127.887 Z-5.582 I-0.513 J-1.329
X95.367 Y127.791 Z-5.6 I0.513 J1.329
X96.317 Y128.741 I0 J0.95 F700
X95.367 Y129.691 I-0.95 J0
X94.417 Y128.741 I0 J-0.95
X95.367 Y127.791 I0.95 J0
X97.597 Y127.809 I-0.041 J147.299
X98.974 Y129.562 I-0.022 J1.435
X95.367 Y132.441 I-3.608 J-0.821
X91.667 Y128.741 I0 J-3.7
X95.367 Y125.041 I3.7 J0
G1 X95.373 Y125.022
X95.389 Y125.009
X95.409 Y125.007
X95.427 Y125.017
X95.454 Y125.036
X95.486 Y125.043
G3 X98.974 Y129.562 I-0.119 J3.698
G2 X99.595 Y131.556 I2.028 J0.462
G3 X99.558 Y133.644 I-0.944 J1.027
X95.367 Y135.191 I-4.191 J-4.903
X88.917 Y128.741 I0 J-6.45
X95.367 Y122.291 I6.45 J0
X101.817 Y128.741 I0 J6.45
X99.558 Y133.644 I-6.45 J0
G2 X98.865 Y135.742 I1.386 J1.622
G3 X97.723 Y137.634 I-1.549 J0.355
X95.367 Y137.941 I-2.356 J-8.893
X86.167 Y128.741 I0 J-9.2
X104.567 Y128.741 I9.2 J0
X97.723 Y137.634 I-9.2 J0
G2 X96.133 Y139.314 I0.563 J2.124
G3 X94.276 Y140.691 I-1.7 J-0.351
X83.367 Y128.741 I1.091 J-11.951
X95.367 Y116.741 I12 J0
X107.367 Y128.741 I0 J12
X94.276 Y140.691 I-12 J0
X94.098 Y140.451 I0.018 J-0.199
G1 X96.148 Y130.773
G2 X95.88 Y130.545 I-0.196 J-0.041
G3 X94.853 Y127.887 Z-5.756 I-0.513 J-1.329 F333.3
X95.88 Y130.545 Z-5.913 I0.513 J1.329
X94.853 Y127.887 Z-6.069 I-0.513 J-1.329
X95.88 Y130.545 Z-6.225 I0.513 J1.329
X94.853 Y127.887 Z-6.382 I-0.513 J-1.329
X95.367 Y127.791 Z-6.4 I0.513 J1.329
X96.317 Y128.741 I0 J0.95 F700
X95.367 Y129.691 I-0.95 J0
X94.417 Y128.741 I0 J-0.95
X95.367 Y127.791 I0.95 J0
X97.597 Y127.809 I-0.041 J147.299
X98.974 Y129.562 I-0.022 J1.435
X95.367 Y132.441 I-3.608 J-0.821
X91.667 Y128.741 I0 J-3.7
X95.367 Y125.041 I3.7 J0
G1 X95.373 Y125.022
X95.389 Y125.009
X95.409 Y125.007
X95.427 Y125.017
X95.454 Y125.036
X95.486 Y125.043
G3 X98.974 Y129.562 I-0.119 J3.698
G2 X99.595 Y131.556 I2.028 J0.462
G3 X99.558 Y133.644 I-0.944 J1.027
X95.367 Y135.191 I-4.191 J-4.903
X88.917 Y128.741 I0 J-6.45
X95.367 Y122.291 I6.45 J0
X101.817 Y128.741 I0 J6.45
X99.558 Y133.644 I-6.45 J0
G2 X98.865 Y135.742 I1.386 J1.622
G3 X97.723 Y137.634 I-1.549 J0.355
X95.367 Y137.941 I-2.356 J-8.893
X86.167 Y128.741 I0 J-9.2
X104.567 Y128.741 I9.2 J0
X97.723 Y137.634 I-9.2 J0
G2 X96.133 Y139.314 I0.563 J2.124
G3 X94.276 Y140.691 I-1.7 J-0.351
X83.367 Y128.741 I1.091 J-11.951
X95.367 Y116.741 I12 J0
X107.367 Y128.741 I0 J12
X94.276 Y140.691 I-12 J0
X94.098 Y140.451 I0.018 J-0.199
G1 X96.148 Y130.773
G2 X95.88 Y130.545 I-0.196 J-0.041
G3 X94.853 Y127.887 Z-6.556 I-0.513 J-1.329 F333.3
X95.88 Y130.545 Z-6.713 I0.513 J1.329
X94.853 Y127.887 Z-6.869 I-0.513 J-1.329
X95.88 Y130.545 Z-7.025 I0.513 J1.329
X94.853 Y127.887 Z-7.182 I-0.513 J-1.329
X95.367 Y127.791 Z-7.2 I0.513 J1.329
X96.317 Y128.741 I0 J0.95 F700
X95.367 Y129.691 I-0.95 J0
X94.417 Y128.741 I0 J-0.95
X95.367 Y127.791 I0.95 J0
X97.597 Y127.809 I-0.041 J147.299
X98.974 Y129.562 I-0.022 J1.435
X95.367 Y132.441 I-3.608 J-0.821
X91.667 Y128.741 I0 J-3.7
X95.367 Y125.041 I3.7 J0
G1 X95.373 Y125.022
X95.389 Y125.009
X95.409 Y125.007
X95.427 Y125.017
X95.454 Y125.036
X95.486 Y125.043
G3 X98.974 Y129.562 I-0.119 J3.698
G2 X99.595 Y131.556 I2.028 J0.462
G3 X99.558 Y133.644 I-0.944 J1.027
X95.367 Y135.191 I-4.191 J-4.903
X88.917 Y128.741 I0 J-6.45
X95.367 Y122.291 I6.45 J0
X101.817 Y128.741 I0 J6.45
X99.558 Y133.644 I-6.45 J0
G2 X98.865 Y135.742 I1.386 J1.622
G3 X97.723 Y137.634 I-1.549 J0.355
X95.367 Y137.941 I-2.356 J-8.893
X86.167 Y128.741 I0 J-9.2
X104.567 Y128.741 I9.2 J0
X97.723 Y137.634 I-9.2 J0
G2 X96.133 Y139.314 I0.563 J2.124
G3 X94.276 Y140.691 I-1.7 J-0.351
X83.367 Y128.741 I1.091 J-11.951
X95.367 Y116.741 I12 J0
X107.367 Y128.741 I0 J12
X94.276 Y140.691 I-12 J0
X94.098 Y140.451 I0.018 J-0.199
G1 X96.148 Y130.773
G2 X95.88 Y130.545 I-0.196 J-0.041
G3 X94.853 Y127.887 Z-7.356 I-0.513 J-1.329 F333.3
X95.88 Y130.545 Z-7.513 I0.513 J1.329
X94.853 Y127.887 Z-7.669 I-0.513 J-1.329
X95.88 Y130.545 Z-7.825 I0.513 J1.329
X94.853 Y127.887 Z-7.982 I-0.513 J-1.329
X95.367 Y127.791 Z-8 I0.513 J1.329
X96.317 Y128.741 I0 J0.95 F700
X95.367 Y129.691 I-0.95 J0
X94.417 Y128.741 I0 J-0.95
X95.367 Y127.791 I0.95 J0
X97.597 Y127.809 I-0.041 J147.299
X98.974 Y129.562 I-0.022 J1.435
X95.367 Y132.441 I-3.608 J-0.821
X91.667 Y128.741 I0 J-3.7
X95.367 Y125.041 I3.7 J0
G1 X95.373 Y125.022
X95.389 Y125.009
X95.409 Y125.007
X95.427 Y125.017
X95.454 Y125.036
X95.486 Y125.043
G3 X98.974 Y129.562 I-0.119 J3.698
G2 X99.595 Y131.556 I2.028 J0.462
G3 X99.558 Y133.644 I-0.944 J1.027
X95.367 Y135.191 I-4.191 J-4.903
X88.917 Y128.741 I0 J-6.45
X95.367 Y122.291 I6.45 J0
X101.817 Y128.741 I0 J6.45
X99.558 Y133.644 I-6.45 J0
G2 X98.865 Y135.742 I1.386 J1.622
G3 X97.723 Y137.634 I-1.549 J0.355
X95.367 Y137.941 I-2.356 J-8.893
X86.167 Y128.741 I0 J-9.2
X104.567 Y128.741 I9.2 J0
X97.723 Y137.634 I-9.2 J0
G2 X96.133 Y139.314 I0.563 J2.124
G3 X94.276 Y140.691 I-1.7 J-0.351
X83.367 Y128.741 I1.091 J-11.951
X95.367 Y116.741 I12 J0
X107.367 Y128.741 I0 J12
X94.276 Y140.691 I-12 J0
X94.098 Y140.451 I0.018 J-0.199
G1 X96.148 Y130.773
G2 X95.88 Y130.545 I-0.196 J-0.041
G3 X94.853 Y127.887 Z-8.156 I-0.513 J-1.329 F333.3
X95.88 Y130.545 Z-8.313 I0.513 J1.329
X94.853 Y127.887 Z-8.469 I-0.513 J-1.329
X95.88 Y130.545 Z-8.625 I0.513 J1.329
X94.853 Y127.887 Z-8.782 I-0.513 J-1.329
X95.367 Y127.791 Z-8.8 I0.513 J1.329
X96.317 Y128.741 I0 J0.95 F700
X95.367 Y129.691 I-0.95 J0
X94.417 Y128.741 I0 J-0.95
X95.367 Y127.791 I0.95 J0
X97.597 Y127.809 I-0.041 J147.299
X98.974 Y129.562 I-0.022 J1.435
X95.367 Y132.441 I-3.608 J-0.821
X91.667 Y128.741 I0 J-3.7
X95.367 Y125.041 I3.7 J0
G1 X95.373 Y125.022
X95.389 Y125.009
X95.409 Y125.007
X95.427 Y125.017
X95.454 Y125.036
X95.486 Y125.043
G3 X98.974 Y129.562 I-0.119 J3.698
G2 X99.595 Y131.556 I2.028 J0.462
G3 X99.558 Y133.644 I-0.944 J1.027
X95.367 Y135.191 I-4.191 J-4.903
X88.917 Y128.741 I0 J-6.45
X95.367 Y122.291 I6.45 J0
X101.817 Y128.741 I0 J6.45
X99.558 Y133.644 I-6.45 J0
G2 X98.865 Y135.742 I1.386 J1.622
G3 X97.723 Y137.634 I-1.549 J0.355
X95.367 Y137.941 I-2.356 J-8.893
X86.167 Y128.741 I0 J-9.2
X104.567 Y128.741 I9.2 J0
X97.723 Y137.634 I-9.2 J0
G2 X96.133 Y139.314 I0.563 J2.124
G3 X94.276 Y140.691 I-1.7 J-0.351
X83.367 Y128.741 I1.091 J-11.951
X95.367 Y116.741 I12 J0
X107.367 Y128.741 I0 J12
X94.276 Y140.691 I-12 J0
X94.098 Y140.451 I0.018 J-0.199
G1 X96.148 Y130.773
G2 X95.88 Y130.545 I-0.196 J-0.041
G3 X94.853 Y127.887 Z-8.956 I-0.513 J-1.329 F333.3
X95.88 Y130.545 Z-9.113 I0.513 J1.329
X94.853 Y127.887 Z-9.269 I-0.513 J-1.329
X95.88 Y130.545 Z-9.425 I0.513 J1.329
X94.853 Y127.887 Z-9.582 I-0.513 J-1.329
X95.367 Y127.791 Z-9.6 I0.513 J1.329
X96.317 Y128.741 I0 J0.95 F700
X95.367 Y129.691 I-0.95 J0
X94.417 Y128.741 I0 J-0.95
X95.367 Y127.791 I0.95 J0
X97.597 Y127.809 I-0.041 J147.299
X98.974 Y129.562 I-0.022 J1.435
X95.367 Y132.441 I-3.608 J-0.821
X91.667 Y128.741 I0 J-3.7
X95.367 Y125.041 I3.7 J0
G1 X95.373 Y125.022
X95.389 Y125.009
X95.409 Y125.007
X95.427 Y125.017
X95.454 Y125.036
X95.486 Y125.043
G3 X98.974 Y129.562 I-0.119 J3.698
G2 X99.595 Y131.556 I2.028 J0.462
G3 X99.558 Y133.644 I-0.944 J1.027
X95.367 Y135.191 I-4.191 J-4.903
X88.917 Y128.741 I0 J-6.45
X95.367 Y122.291 I6.45 J0
X101.817 Y128.741 I0 J6.45
X99.558 Y133.644 I-6.45 J0
G2 X98.865 Y135.742 I1.386 J1.622
G3 X97.723 Y137.634 I-1.549 J0.355
X95.367 Y137.941 I-2.356 J-8.893
X86.167 Y128.741 I0 J-9.2
X104.567 Y128.741 I9.2 J0
X97.723 Y137.634 I-9.2 J0
G2 X96.133 Y139.314 I0.563 J2.124
G3 X94.276 Y140.691 I-1.7 J-0.351
X83.367 Y128.741 I1.091 J-11.951
X95.367 Y116.741 I12 J0
X107.367 Y128.741 I0 J12
X94.276 Y140.691 I-12 J0
X94.098 Y140.451 I0.018 J-0.199
G1 X96.148 Y130.773
G2 X95.88 Y130.545 I-0.196 J-0.041
G3 X94.853 Y127.887 Z-9.756 I-0.513 J-1.329 F333.3
X95.88 Y130.545 Z-9.913 I0.513 J1.329
X94.853 Y127.887 Z-10.069 I-0.513 J-1.329
X95.88 Y130.545 Z-10.225 I0.513 J1.329
X94.853 Y127.887 Z-10.382 I-0.513 J-1.329
X95.367 Y127.791 Z-10.4 I0.513 J1.329
X96.317 Y128.741 I0 J0.95 F700
X95.367 Y129.691 I-0.95 J0
X94.417 Y128.741 I0 J-0.95
X95.367 Y127.791 I0.95 J0
X97.597 Y127.809 I-0.041 J147.299
X98.974 Y129.562 I-0.022 J1.435
X95.367 Y132.441 I-3.608 J-0.821
X91.667 Y128.741 I0 J-3.7
X95.367 Y125.041 I3.7 J0
G1 X95.373 Y125.022
X95.389 Y125.009
X95.409 Y125.007
X95.427 Y125.017
X95.454 Y125.036
X95.486 Y125.043
G3 X98.974 Y129.562 I-0.119 J3.698
G2 X99.595 Y131.556 I2.028 J0.462
G3 X99.558 Y133.644 I-0.944 J1.027
X95.367 Y135.191 I-4.191 J-4.903
X88.917 Y128.741 I0 J-6.45
X95.367 Y122.291 I6.45 J0
X101.817 Y128.741 I0 J6.45
X99.558 Y133.644 I-6.45 J0
G2 X98.865 Y135.742 I1.386 J1.622
G3 X97.723 Y137.634 I-1.549 J0.355
X95.367 Y137.941 I-2.356 J-8.893
X86.167 Y128.741 I0 J-9.2
X104.567 Y128.741 I9.2 J0
X97.723 Y137.634 I-9.2 J0
G2 X96.133 Y139.314 I0.563 J2.124
G3 X94.276 Y140.691 I-1.7 J-0.351
X83.367 Y128.741 I1.091 J-11.951
X95.367 Y116.741 I12 J0
X107.367 Y128.741 I0 J12
X94.276 Y140.691 I-12 J0
X94.098 Y140.451 I0.018 J-0.199
G1 X96.148 Y130.773
G2 X95.88 Y130.545 I-0.196 J-0.041
G3 X94.853 Y127.887 Z-10.556 I-0.513 J-1.329 F333.3
X95.88 Y130.545 Z-10.713 I0.513 J1.329
X94.853 Y127.887 Z-10.869 I-0.513 J-1.329
X95.88 Y130.545 Z-11.025 I0.513 J1.329
X94.853 Y127.887 Z-11.182 I-0.513 J-1.329
X95.367 Y127.791 Z-11.2 I0.513 J1.329
X96.317 Y128.741 I0 J0.95 F700
X95.367 Y129.691 I-0.95 J0
X94.417 Y128.741 I0 J-0.95
X95.367 Y127.791 I0.95 J0
X97.597 Y127.809 I-0.041 J147.299
X98.974 Y129.562 I-0.022 J1.435
X95.367 Y132.441 I-3.608 J-0.821
X91.667 Y128.741 I0 J-3.7
X95.367 Y125.041 I3.7 J0
G1 X95.373 Y125.022
X95.389 Y125.009
X95.409 Y125.007
X95.427 Y125.017
X95.454 Y125.036
X95.486 Y125.043
G3 X98.974 Y129.562 I-0.119 J3.698
G2 X99.595 Y131.556 I2.028 J0.462
G3 X99.558 Y133.644 I-0.944 J1.027
X95.367 Y135.191 I-4.191 J-4.903
X88.917 Y128.741 I0 J-6.45
X95.367 Y122.291 I6.45 J0
X101.817 Y128.741 I0 J6.45
X99.558 Y133.644 I-6.45 J0
G2 X98.865 Y135.742 I1.386 J1.622
G3 X97.723 Y137.634 I-1.549 J0.355
X95.367 Y137.941 I-2.356 J-8.893
X86.167 Y128.741 I0 J-9.2
X104.567 Y128.741 I9.2 J0
X97.723 Y137.634 I-9.2 J0
G2 X96.133 Y139.314 I0.563 J2.124
G3 X94.276 Y140.691 I-1.7 J-0.351
X83.367 Y128.741 I1.091 J-11.951
X95.367 Y116.741 I12 J0
X107.367 Y128.741 I0 J12
X94.276 Y140.691 I-12 J0
X94.098 Y140.451 I0.018 J-0.199
G1 X96.148 Y130.773
G2 X95.88 Y130.545 I-0.196 J-0.041
G3 X94.853 Y127.887 Z-11.356 I-0.513 J-1.329 F333.3
X95.88 Y130.545 Z-11.513 I0.513 J1.329
X94.853 Y127.887 Z-11.669 I-0.513 J-1.329
X95.88 Y130.545 Z-11.825 I0.513 J1.329
X94.853 Y127.887 Z-11.982 I-0.513 J-1.329
X95.367 Y127.791 Z-12 I0.513 J1.329
X96.317 Y128.741 I0 J0.95 F700
X95.367 Y129.691 I-0.95 J0
X94.417 Y128.741 I0 J-0.95
X95.367 Y127.791 I0.95 J0
X97.597 Y127.809 I-0.041 J147.299
X98.974 Y129.562 I-0.022 J1.435
X95.367 Y132.441 I-3.608 J-0.821
X91.667 Y128.741 I0 J-3.7
X95.367 Y125.041 I3.7 J0
G1 X95.373 Y125.022
X95.389 Y125.009
X95.409 Y125.007
X95.427 Y125.017
X95.454 Y125.036
X95.486 Y125.043
G3 X98.974 Y129.562 I-0.119 J3.698
G2 X99.595 Y131.556 I2.028 J0.462
G3 X99.558 Y133.644 I-0.944 J1.027
X95.367 Y135.191 I-4.191 J-4.903
X88.917 Y128.741 I0 J-6.45
X95.367 Y122.291 I6.45 J0
X101.817 Y128.741 I0 J6.45
X99.558 Y133.644 I-6.45 J0
G2 X98.865 Y135.742 I1.386 J1.622
G3 X97.723 Y137.634 I-1.549 J0.355
X95.367 Y137.941 I-2.356 J-8.893
X86.167 Y128.741 I0 J-9.2
X104.567 Y128.741 I9.2 J0
X97.723 Y137.634 I-9.2 J0
G2 X96.133 Y139.314 I0.563 J2.124
G3 X94.276 Y140.691 I-1.7 J-0.351
X83.367 Y128.741 I1.091 J-11.951
X95.367 Y116.741 I12 J0
X107.367 Y128.741 I0 J12
X94.276 Y140.691 I-12 J0
G0 Z6
X108.784 Y94.605
Z2
G3 X111.522 Y95.395 Z1.844 I1.369 J0.395 F333.3
X108.784 Y94.605 Z1.687 I-1.369 J-0.395
X111.522 Y95.395 Z1.531 I1.369 J0.395
X108.784 Y94.605 Z1.375 I-1.369 J-0.395
X111.522 Y95.395 Z1.218 I1.369 J0.395
X108.784 Y94.605 Z1.062 I-1.369 J-0.395
X111.522 Y95.395 Z0.906 I1.369 J0.395
X108.784 Y94.605 Z0.749 I-1.369 J-0.395
X111.522 Y95.395 Z0.593 I1.369 J0.395
X108.784 Y94.605 Z0.437 I-1.369 J-0.395
X111.522 Y95.395 Z0.28 I1.369 J0.395
X108.784 Y94.605 Z0.124 I-1.369 J-0.395
X111.522 Y95.395 Z-0.032 I1.369 J0.395
X108.784 Y94.605 Z-0.189 I-1.369 J-0.395
X111.522 Y95.395 Z-0.345 I1.369 J0.395
X108.784 Y94.605 Z-0.501 I-1.369 J-0.395
X111.522 Y95.395 Z-0.658 I1.369 J0.395
X108.728 Y95 Z-0.8 I-1.369 J-0.395
X109.678 Y95 I0.475 J0 F700
X105.878 Y95 I-1.9 J0
X112.528 Y95 I3.325 J0
X103.028 Y95 I-4.75 J0
X112.528 Y95 I4.75 J0
X112.142 Y95.073 I-0.2 J0
G1 X111.855 Y94.342
G2 X111.482 Y94.487 I-0.186 J0.073
G3 X108.824 Y95.513 Z-0.956 I-1.329 J0.513 F333.3
X111.482 Y94.487 Z-1.113 I1.329 J-0.513
X108.824 Y95.513 Z-1.269 I-1.329 J0.513
X111.482 Y94.487 Z-1.425 I1.329 J-0.513
X108.824 Y95.513 Z-1.582 I-1.329 J0.513
X108.728 Y95 Z-1.6 I1.329 J-0.513
X109.678 Y95 I0.475 J0 F700
X105.878 Y95 I-1.9 J0
X112.528 Y95 I3.325 J0
X103.028 Y95 I-4.75 J0
X112.528 Y95 I4.75 J0
X112.142 Y95.073 I-0.2 J0
G1 X111.855 Y94.342
G2 X111.482 Y94.487 I-0.186 J0.073
G3 X108.824 Y95.513 Z-1.756 I-1.329 J0.513 F333.3
X111.482 Y94.487 Z-1.913 I1.329 J-0.513
X108.824 Y95.513 Z-2.069 I-1.329 J0.513
X111.482 Y94.487 Z-2.225 I1.329 J-0.513
X108.824 Y95.513 Z-2.382 I-1.329 J0.513
X108.728 Y95 Z-2.4 I1.329 J-0.513
X109.678 Y95 I0.475 J0 F700
X105.878 Y95 I-1.9 J0
X112.528 Y95 I3.325 J0
X103.028 Y95 I-4.75 J0
X112.528 Y95 I4.75 J0
X112.142 Y95.073 I-0.2 J0
G1 X111.855 Y94.342
G2 X111.482 Y94.487 I-0.186 J0.073
G3 X108.824 Y95.513 Z-2.556 I-1.329 J0.513 F333.3
X111.482 Y94.487 Z-2.713 I1.329 J-0.513
X108.824 Y95.513 Z-2.869 I-1.329 J0.513
X111.482 Y94.487 Z-3.025 I1.329 J-0.513
X108.824 Y95.513 Z-3.182 I-1.329 J0.513
X108.728 Y95 Z-3.2 I1.329 J-0.513
X109.678 Y95 I0.475 J0 F700
X105.878 Y95 I-1.9 J0
X112.528 Y95 I3.325 J0
X103.028 Y95 I-4.75 J0
X112.528 Y95 I4.75 J0
X112.142 Y95.073 I-0.2 J0
G1 X111.855 Y94.342
G2 X111.482 Y94.487 I-0.186 J0.073
G3 X108.824 Y95.513 Z-3.356 I-1.329 J0.513 F333.3
X111.482 Y94.487 Z-3.513 I1.329 J-0.513
X108.824 Y95.513 Z-3.669 I-1.329 J0.513
X111.482 Y94.487 Z-3.825 I1.329 J-0.513
X108.824 Y95.513 Z-3.982 I-1.329 J0.513
X108.728 Y95 Z-4 I1.329 J-0.513
X109.678 Y95 I0.475 J0 F700
X105.878 Y95 I-1.9 J0
X112.528 Y95 I3.325 J0
X103.028 Y95 I-4.75 J0
X112.528 Y95 I4.75 J0
X112.142 Y95.073 I-0.2 J0
G1 X111.855 Y94.342
G2 X111.482 Y94.487 I-0.186 J0.073
G3 X108.824 Y95.513 Z-4.156 I-1.329 J0.513 F333.3
X111.482 Y94.487 Z-4.313 I1.329 J-0.513
X108.824 Y95.513 Z-4.469 I-1.329 J0.513
X111.482 Y94.487 Z-4.625 I1.329 J-0.513
X108.824 Y95.513 Z-4.782 I-1.329 J0.513
X108.728 Y95 Z-4.8 I1.329 J-0.513
X109.678 Y95 I0.475 J0 F700
X105.878 Y95 I-1.9 J0
X112.528 Y95 I3.325 J0
X103.028 Y95 I-4.75 J0
X112.528 Y95 I4.75 J0
X112.142 Y95.073 I-0.2 J0
G1 X111.855 Y94.342
G2 X111.482 Y94.487 I-0.186 J0.073
G3 X108.824 Y95.513 Z-4.956 I-1.329 J0.513 F333.3
X111.482 Y94.487 Z-5.113 I1.329 J-0.513
X108.824 Y95.513 Z-5.269 I-1.329 J0.513
X111.482 Y94.487 Z-5.425 I1.329 J-0.513
X108.824 Y95.513 Z-5.582 I-1.329 J0.513
X108.728 Y95 Z-5.6 I1.329 J-0.513
X109.678 Y95 I0.475 J0 F700
X105.878 Y95 I-1.9 J0
X112.528 Y95 I3.325 J0
X103.028 Y95 I-4.75 J0
X112.528 Y95 I4.75 J0
X112.142 Y95.073 I-0.2 J0
G1 X111.855 Y94.342
G2 X111.482 Y94.487 I-0.186 J0.073
G3 X108.824 Y95.513 Z-5.756 I-1.329 J0.513 F333.3
X111.482 Y94.487 Z-5.913 I1.329 J-0.513
X108.824 Y95.513 Z-6.069 I-1.329 J0.513
X111.482 Y94.487 Z-6.225 I1.329 J-0.513
X108.824 Y95.513 Z-6.382 I-1.329 J0.513
X108.728 Y95 Z-6.4 I1.329 J-0.513
X109.678 Y95 I0.475 J0 F700
X105.878 Y95 I-1.9 J0
X112.528 Y95 I3.325 J0
X103.028 Y95 I-4.75 J0
X112.528 Y95 I4.75 J0
X112.142 Y95.073 I-0.2 J0
G1 X111.855 Y94.342
G2 X111.482 Y94.487 I-0.186 J0.073
G3 X108.824 Y95.513 Z-6.556 I-1.329 J0.513 F333.3
X111.482 Y94.487 Z-6.713 I1.329 J-0.513
X108.824 Y95.513 Z-6.869 I-1.329 J0.513
X111.482 Y94.487 Z-7.025 I1.329 J-0.513
X108.824 Y95.513 Z-7.182 I-1.329 J0.513
X108.728 Y95 Z-7.2 I1.329 J-0.513
X109.678 Y95 I0.475 J0 F700
X105.878 Y95 I-1.9 J0
X112.528 Y95 I3.325 J0
X103.028 Y95 I-4.75 J0
X112.528 Y95 I4.75 J0
X112.142 Y95.073 I-0.2 J0
G1 X111.855 Y94.342
G2 X111.482 Y94.487 I-0.186 J0.073
G3 X108.824 Y95.513 Z-7.356 I-1.329 J0.513 F333.3
X111.482 Y94.487 Z-7.513 I1.329 J-0.513
X108.824 Y95.513 Z-7.669 I-1.329 J0.513
X111.482 Y94.487 Z-7.825 I1.329 J-0.513
X108.824 Y95.513 Z-7.982 I-1.329 J0.513
X108.728 Y95 Z-8 I1.329 J-0.513
X109.678 Y95 I0.475 J0 F700
X105.878 Y95 I-1.9 J0
X112.528 Y95 I3.325 J0
X103.028 Y95 I-4.75 J0
X112.528 Y95 I4.75 J0
X112.142 Y95.073 I-0.2 J0
G1 X111.855 Y94.342
G2 X111.482 Y94.487 I-0.186 J0.073
G3 X108.824 Y95.513 Z-8.156 I-1.329 J0.513 F333.3
X111.482 Y94.487 Z-8.313 I1.329 J-0.513
X108.824 Y95.513 Z-8.469 I-1.329 J0.513
X111.482 Y94.487 Z-8.625 I1.329 J-0.513
X108.824 Y95.513 Z-8.782 I-1.329 J0.513
X108.728 Y95 Z-8.8 I1.329 J-0.513
X109.678 Y95 I0.475 J0 F700
X105.878 Y95 I-1.9 J0
X112.528 Y95 I3.325 J0
X103.028 Y95 I-4.75 J0
X112.528 Y95 I4.75 J0
X112.142 Y95.073 I-0.2 J0
G1 X111.855 Y94.342
G2 X111.482 Y94.487 I-0.186 J0.073
G3 X108.824 Y95.513 Z-8.956 I-1.329 J0.513 F333.3
X111.482 Y94.487 Z-9.113 I1.329 J-0.513
X108.824 Y95.513 Z-9.269 I-1.329 J0.513
X111.482 Y94.487 Z-9.425 I1.329 J-0.513
X108.824 Y95.513 Z-9.582 I-1.329 J0.513
X108.728 Y95 Z-9.6 I1.329 J-0.513
X109.678 Y95 I0.475 J0 F700
X105.878 Y95 I-1.9 J0
X112.528 Y95 I3.325 J0
X103.028 Y95 I-4.75 J0
X112.528 Y95 I4.75 J0
X112.142 Y95.073 I-0.2 J0
G1 X111.855 Y94.342
G2 X111.482 Y94.487 I-0.186 J0.073
G3 X108.824 Y95.513 Z-9.756 I-1.329 J0.513 F333.3
X111.482 Y94.487 Z-9.913 I1.329 J-0.513
X108.824 Y95.513 Z-10.069 I-1.329 J0.513
X111.482 Y94.487 Z-10.225 I1.329 J-0.513
X108.824 Y95.513 Z-10.382 I-1.329 J0.513
X108.728 Y95 Z-10.4 I1.329 J-0.513
X109.678 Y95 I0.475 J0 F700
X105.878 Y95 I-1.9 J0
X112.528 Y95 I3.325 J0
X103.028 Y95 I-4.75 J0
X112.528 Y95 I4.75 J0
X112.142 Y95.073 I-0.2 J0
G1 X111.855 Y94.342
G2 X111.482 Y94.487 I-0.186 J0.073
G3 X108.824 Y95.513 Z-10.556 I-1.329 J0.513 F333.3
X111.482 Y94.487 Z-10.713 I1.329 J-0.513
X108.824 Y95.513 Z-10.869 I-1.329 J0.513
X111.482 Y94.487 Z-11.025 I1.329 J-0.513
X108.824 Y95.513 Z-11.182 I-1.329 J0.513
X108.728 Y95 Z-11.2 I1.329 J-0.513
X109.678 Y95 I0.475 J0 F700
X105.878 Y95 I-1.9 J0
X112.528 Y95 I3.325 J0
X103.028 Y95 I-4.75 J0
X112.528 Y95 I4.75 J0
X112.142 Y95.073 I-0.2 J0
G1 X111.855 Y94.342
G2 X111.482 Y94.487 I-0.186 J0.073
G3 X108.824 Y95.513 Z-11.356 I-1.329 J0.513 F333.3
X111.482 Y94.487 Z-11.513 I1.329 J-0.513
X108.824 Y95.513 Z-11.669 I-1.329 J0.513
X111.482 Y94.487 Z-11.825 I1.329 J-0.513
X108.824 Y95.513 Z-11.982 I-1.329 J0.513
X108.728 Y95 Z-12 I1.329 J-0.513
X109.678 Y95 I0.475 J0 F700
X105.878 Y95 I-1.9 J0
X112.528 Y95 I3.325 J0
X103.028 Y95 I-4.75 J0
X112.528 Y95 I4.75 J0
X112.142 Y95.073 I-0.2 J0
G1 X111.855 Y94.342
G2 X111.482 Y94.487 I-0.186 J0.073
G3 X108.824 Y95.513 Z-12.156 I-1.329 J0.513 F333.3
X111.482 Y94.487 Z-12.313 I1.329 J-0.513
X108.824 Y95.513 Z-12.469 I-1.329 J0.513
X111.482 Y94.487 Z-12.625 I1.329 J-0.513
X108.824 Y95.513 Z-12.782 I-1.329 J0.513
X108.728 Y95 Z-12.8 I1.329 J-0.513
X109.678 Y95 I0.475 J0 F700
X105.878 Y95 I-1.9 J0
X112.528 Y95 I3.325 J0
X103.028 Y95 I-4.75 J0
X112.528 Y95 I4.75 J0
X112.142 Y95.073 I-0.2 J0
G1 X111.855 Y94.342
G2 X111.482 Y94.487 I-0.186 J0.073
G3 X108.824 Y95.513 Z-12.956 I-1.329 J0.513 F333.3
X111.482 Y94.487 Z-13.113 I1.329 J-0.513
X108.824 Y95.513 Z-13.269 I-1.329 J0.513
X111.482 Y94.487 Z-13.425 I1.329 J-0.513
X108.824 Y95.513 Z-13.582 I-1.329 J0.513
X108.728 Y95 Z-13.6 I1.329 J-0.513
X109.678 Y95 I0.475 J0 F700
X105.878 Y95 I-1.9 J0
X112.528 Y95 I3.325 J0
X103.028 Y95 I-4.75 J0
X112.528 Y95 I4.75 J0
X112.142 Y95.073 I-0.2 J0
G1 X111.855 Y94.342
G2 X111.482 Y94.487 I-0.186 J0.073
G3 X108.824 Y95.513 Z-13.756 I-1.329 J0.513 F333.3
X111.482 Y94.487 Z-13.913 I1.329 J-0.513
X108.824 Y95.513 Z-14.069 I-1.329 J0.513
X111.482 Y94.487 Z-14.225 I1.329 J-0.513
X108.824 Y95.513 Z-14.382 I-1.329 J0.513
X108.728 Y95 Z-14.4 I1.329 J-0.513
X109.678 Y95 I0.475 J0 F700
X105.878 Y95 I-1.9 J0
X112.528 Y95 I3.325 J0
X103.028 Y95 I-4.75 J0
X112.528 Y95 I4.75 J0
X112.129 Y95.301 I-0.313 J0
G1 X110.659 Y94.881
X109.159 Y94.77
G3 X108.909 Y94.306 I0.023 J-0.312
X111.397 Y95.694 Z-14.556 I1.244 J0.694 F333.3
X108.909 Y94.306 Z-14.713 I-1.244 J-0.694
X111.397 Y95.694 Z-14.869 I1.244 J0.694
X108.728 Y95 Z-15 I-1.244 J-0.694
X109.678 Y95 I0.475 J0 F700
X105.878 Y95 I-1.9 J0
X112.528 Y95 I3.325 J0
X103.028 Y95 I-4.75 J0
X112.528 Y95 I4.75 J0
G0 Z6
X120.106 Y110.605
Z2
G3 X122.844 Y111.395 Z1.844 I1.369 J0.395 F333.3
X120.106 Y110.605 Z1.687 I-1.369 J-0.395
X122.844 Y111.395 Z1.531 I1.369 J0.395
X120.106 Y110.605 Z1.375 I-1.369 J-0.395
X122.844 Y111.395 Z1.218 I1.369 J0.395
X120.106 Y110.605 Z1.062 I-1.369 J-0.395
X122.844 Y111.395 Z0.906 I1.369 J0.395
X120.106 Y110.605 Z0.749 I-1.369 J-0.395
X122.844 Y111.395 Z0.593 I1.369 J0.395
X120.106 Y110.605 Z0.437 I-1.369 J-0.395
X122.844 Y111.395 Z0.28 I1.369 J0.395
X120.106 Y110.605 Z0.124 I-1.369 J-0.395
X122.844 Y111.395 Z-0.032 I1.369 J0.395
X120.106 Y110.605 Z-0.189 I-1.369 J-0.395
X122.844 Y111.395 Z-0.345 I1.369 J0.395
X120.106 Y110.605 Z-0.501 I-1.369 J-0.395
X122.844 Y111.395 Z-0.658 I1.369 J0.395
X120.05 Y111 Z-0.8 I-1.369 J-0.395
X122.8 Y111 I1.375 J0 F700
X117.2 Y111 I-2.8 J0
X125.65 Y111 I4.225 J0
X114.35 Y111 I-5.65 J0
X128.5 Y111 I7.075 J0
X111.5 Y111 I-8.5 J0
X128.5 Y111 I8.5 J0
X127.436 Y111.911 I-0.922 J0
G1 X123.202 Y111.249
X123.091 Y111.238
X122.979 Y111.241
G3 X122.818 Y109.405 I-0.08 J-0.918
X123.324 Y111.141 I0.08 J0.918
G1 X122.369 Y111.637
G3 X121.52 Y110.001 I-0.425 J-0.818
X122.804 Y110.487 I0.425 J0.818
X120.146 Y111.513 Z-0.956 I-1.329 J0.513 F333.3
X122.804 Y110.487 Z-1.113 I1.329 J-0.513
X120.146 Y111.513 Z-1.269 I-1.329 J0.513
X122.804 Y110.487 Z-1.425 I1.329 J-0.513
X120.146 Y111.513 Z-1.582 I-1.329 J0.513
X120.05 Y111 Z-1.6 I1.329 J-0.513
X122.8 Y111 I1.375 J0 F700
X117.2 Y111 I-2.8 J0
X125.65 Y111 I4.225 J0
X114.35 Y111 I-5.65 J0
X128.5 Y111 I7.075 J0
X111.5 Y111 I-8.5 J0
X128.5 Y111 I8.5 J0
X127.436 Y111.911 I-0.922 J0
G1 X123.202 Y111.249
X123.091 Y111.238
X122.979 Y111.241
G3 X122.818 Y109.405 I-0.08 J-0.918
X123.324 Y111.141 I0.08 J0.918
G1 X122.369 Y111.637
G3 X121.52 Y110.001 I-0.425 J-0.818
X122.804 Y110.487 I0.425 J0.818
X120.146 Y111.513 Z-1.756 I-1.329 J0.513 F333.3
X122.804 Y110.487 Z-1.913 I1.329 J-0.513
X120.146 Y111.513 Z-2.069 I-1.329 J0.513
X122.804 Y110.487 Z-2.225 I1.329 J-0.513
X120.146 Y111.513 Z-2.382 I-1.329 J0.513
X120.05 Y111 Z-2.4 I1.329 J-0.513
X122.8 Y111 I1.375 J0 F700
X117.2 Y111 I-2.8 J0
X125.65 Y111 I4.225 J0
X114.35 Y111 I-5.65 J0
X128.5 Y111 I7.075 J0
X111.5 Y111 I-8.5 J0
X128.5 Y111 I8.5 J0
X127.436 Y111.911 I-0.922 J0
G1 X123.202 Y111.249
X123.091 Y111.238
X122.979 Y111.241
G3 X122.818 Y109.405 I-0.08 J-0.918
X123.324 Y111.141 I0.08 J0.918
