(1001)
(Machine)
(  vendor: Autodesk)
(  description: Generic 3-axis)
(T4  D=3 CR=0 - ZMIN=-14 - flat end mill)
G90 G94
G17
G21

(2D Pocket6)
T4
S15000 M3
G54
M8
G0 X52.218 Y39.88
Z8
Z3
G1 Z2.5 F700
Z-1.5
G3 X52.398 Y40.12 I0.09 J0.12 F1000
X52.218 Y39.88 I-0.09 J-0.12
X52.398 Y40.12 Z-1.626 I0.09 J0.12 F700
X52.218 Y39.88 Z-1.753 I-0.09 J-0.12
X52.398 Y40.12 Z-1.879 I0.09 J0.12
X52.218 Y39.88 Z-2.005 I-0.09 J-0.12
X52.398 Y40.12 Z-2.131 I0.09 J0.12
X52.218 Y39.88 Z-2.258 I-0.09 J-0.12
X52.398 Y40.12 Z-2.384 I0.09 J0.12
X52.218 Y39.88 Z-2.51 I-0.09 J-0.12
X52.398 Y40.12 Z-2.636 I0.09 J0.12
X52.218 Y39.88 Z-2.763 I-0.09 J-0.12
X52.398 Y40.12 Z-2.889 I0.09 J0.12
X52.18 Y39.922 Z-3 I-0.09 J-0.12
X52.436 Y40.078 I0.128 J0.078 F1000
X52.18 Y39.922 I-0.128 J-0.078
X52.436 Y40.078 Z-3.126 I0.128 J0.078 F700
X52.18 Y39.922 Z-3.253 I-0.128 J-0.078
X52.436 Y40.078 Z-3.379 I0.128 J0.078
X52.18 Y39.922 Z-3.505 I-0.128 J-0.078
X52.436 Y40.078 Z-3.631 I0.128 J0.078
X52.18 Y39.922 Z-3.758 I-0.128 J-0.078
X52.436 Y40.078 Z-3.884 I0.128 J0.078
X52.18 Y39.922 Z-4.01 I-0.128 J-0.078
X52.436 Y40.078 Z-4.136 I0.128 J0.078
X52.18 Y39.922 Z-4.263 I-0.128 J-0.078
X52.436 Y40.078 Z-4.389 I0.128 J0.078
X52.16 Y39.975 Z-4.5 I-0.128 J-0.078
X52.456 Y40.025 I0.148 J0.025 F1000
X52.16 Y39.975 I-0.148 J-0.025
X52.456 Y40.025 Z-4.626 I0.148 J0.025 F700
X52.16 Y39.975 Z-4.753 I-0.148 J-0.025
X52.456 Y40.025 Z-4.879 I0.148 J0.025
X52.16 Y39.975 Z-5.005 I-0.148 J-0.025
X52.456 Y40.025 Z-5.131 I0.148 J0.025
X52.16 Y39.975 Z-5.258 I-0.148 J-0.025
X52.456 Y40.025 Z-5.384 I0.148 J0.025
X52.16 Y39.975 Z-5.51 I-0.148 J-0.025
X52.456 Y40.025 Z-5.636 I0.148 J0.025
X52.16 Y39.975 Z-5.763 I-0.148 J-0.025
X52.456 Y40.025 Z-5.889 I0.148 J0.025
X52.161 Y40.031 Z-6 I-0.148 J-0.025
X52.454 Y39.969 I0.147 J-0.031 F1000
X52.161 Y40.031 I-0.147 J0.031
X52.454 Y39.969 Z-6.126 I0.147 J-0.031 F700
X52.161 Y40.031 Z-6.253 I-0.147 J0.031
X52.454 Y39.969 Z-6.379 I0.147 J-0.031
X52.161 Y40.031 Z-6.505 I-0.147 J0.031
X52.454 Y39.969 Z-6.631 I0.147 J-0.031
X52.161 Y40.031 Z-6.758 I-0.147 J0.031
X52.454 Y39.969 Z-6.884 I0.147 J-0.031
X52.161 Y40.031 Z-7.01 I-0.147 J0.031
X52.454 Y39.969 Z-7.136 I0.147 J-0.031
X52.161 Y40.031 Z-7.263 I-0.147 J0.031
X52.454 Y39.969 Z-7.389 I0.147 J-0.031
X52.183 Y40.083 Z-7.5 I-0.147 J0.031
X52.433 Y39.917 I0.125 J-0.083 F1000
X52.183 Y40.083 I-0.125 J0.083
X52.433 Y39.917 Z-7.626 I0.125 J-0.083 F700
X52.183 Y40.083 Z-7.753 I-0.125 J0.083
X52.433 Y39.917 Z-7.879 I0.125 J-0.083
X52.183 Y40.083 Z-8.005 I-0.125 J0.083
X52.433 Y39.917 Z-8.131 I0.125 J-0.083
X52.183 Y40.083 Z-8.258 I-0.125 J0.083
X52.433 Y39.917 Z-8.384 I0.125 J-0.083
X52.183 Y40.083 Z-8.51 I-0.125 J0.083
X52.433 Y39.917 Z-8.636 I0.125 J-0.083
X52.183 Y40.083 Z-8.763 I-0.125 J0.083
X52.433 Y39.917 Z-8.889 I0.125 J-0.083
X52.222 Y40.123 Z-9 I-0.125 J0.083
X52.393 Y39.877 I0.085 J-0.123 F1000
X52.222 Y40.123 I-0.085 J0.123
G1 X52.218 Y40.12 Z-9.002 F700
G3 X52.398 Y39.88 Z-9.128 I0.09 J-0.12
X52.218 Y40.12 Z-9.254 I-0.09 J0.12
X52.398 Y39.88 Z-9.38 I0.09 J-0.12
X52.218 Y40.12 Z-9.507 I-0.09 J0.12
X52.398 Y39.88 Z-9.633 I0.09 J-0.12
X52.218 Y40.12 Z-9.759 I-0.09 J0.12
X52.398 Y39.88 Z-9.885 I0.09 J-0.12
X52.218 Y40.12 Z-10.012 I-0.09 J0.12
X52.398 Y39.88 Z-10.138 I0.09 J-0.12
X52.218 Y40.12 Z-10.264 I-0.09 J0.12
X52.398 Y39.88 Z-10.39 I0.09 J-0.12
X52.274 Y40.146 Z-10.5 I-0.09 J0.12
X52.341 Y39.854 I0.034 J-0.146 F1000
X52.274 Y40.146 I-0.034 J0.146
X52.341 Y39.854 Z-10.626 I0.034 J-0.146 F700
X52.274 Y40.146 Z-10.753 I-0.034 J0.146
X52.341 Y39.854 Z-10.879 I0.034 J-0.146
X52.274 Y40.146 Z-11.005 I-0.034 J0.146
X52.341 Y39.854 Z-11.131 I0.034 J-0.146
X52.274 Y40.146 Z-11.258 I-0.034 J0.146
X52.341 Y39.854 Z-11.384 I0.034 J-0.146
X52.274 Y40.146 Z-11.51 I-0.034 J0.146
X52.341 Y39.854 Z-11.636 I0.034 J-0.146
X52.274 Y40.146 Z-11.763 I-0.034 J0.146
X52.341 Y39.854 Z-11.889 I0.034 J-0.146
X52.33 Y40.148 Z-12 I-0.034 J0.146
X52.285 Y39.852 I-0.023 J-0.148 F1000
X52.33 Y40.148 I0.023 J0.148
X52.285 Y39.852 Z-12.126 I-0.023 J-0.148 F700
X52.33 Y40.148 Z-12.253 I0.023 J0.148
X52.285 Y39.852 Z-12.379 I-0.023 J-0.148
X52.33 Y40.148 Z-12.505 I0.023 J0.148
X52.285 Y39.852 Z-12.631 I-0.023 J-0.148
X52.33 Y40.148 Z-12.758 I0.023 J0.148
X52.285 Y39.852 Z-12.884 I-0.023 J-0.148
X52.33 Y40.148 Z-13.01 I0.023 J0.148
X52.285 Y39.852 Z-13.136 I-0.023 J-0.148
X52.33 Y40.148 Z-13.263 I0.023 J0.148
X52.285 Y39.852 Z-13.389 I-0.023 J-0.148
X52.384 Y40.129 Z-13.5 I0.023 J0.148
X52.232 Y39.871 I-0.076 J-0.129 F1000
X52.384 Y40.129 I0.076 J0.129
X52.232 Y39.871 Z-13.626 I-0.076 J-0.129 F700
X52.384 Y40.129 Z-13.753 I0.076 J0.129
X52.232 Y39.871 Z-13.879 I-0.076 J-0.129
X52.399 Y40.119 Z-14 I0.076 J0.129
X52.216 Y39.881 I-0.092 J-0.119 F1000
X52.399 Y40.119 I0.092 J0.119
G0 Z8
X52.218 Y29.88
Z3
G1 Z2.5 F700
Z-1.5
G3 X52.398 Y30.12 I0.09 J0.12 F1000
X52.218 Y29.88 I-0.09 J-0.12
X52.398 Y30.12 Z-1.626 I0.09 J0.12 F700
X52.218 Y29.88 Z-1.753 I-0.09 J-0.12
X52.398 Y30.12 Z-1.879 I0.09 J0.12
X52.218 Y29.88 Z-2.005 I-0.09 J-0.12
X52.398 Y30.12 Z-2.131 I0.09 J0.12
X52.218 Y29.88 Z-2.258 I-0.09 J-0.12
X52.398 Y30.12 Z-2.384 I0.09 J0.12
X52.218 Y29.88 Z-2.51 I-0.09 J-0.12
X52.398 Y30.12 Z-2.636 I0.09 J0.12
X52.218 Y29.88 Z-2.763 I-0.09 J-0.12
X52.398 Y30.12 Z-2.889 I0.09 J0.12
X52.18 Y29.922 Z-3 I-0.09 J-0.12
X52.436 Y30.078 I0.128 J0.078 F1000
X52.18 Y29.922 I-0.128 J-0.078
X52.436 Y30.078 Z-3.126 I0.128 J0.078 F700
X52.18 Y29.922 Z-3.253 I-0.128 J-0.078
X52.436 Y30.078 Z-3.379 I0.128 J0.078
X52.18 Y29.922 Z-3.505 I-0.128 J-0.078
X52.436 Y30.078 Z-3.631 I0.128 J0.078
X52.18 Y29.922 Z-3.758 I-0.128 J-0.078
X52.436 Y30.078 Z-3.884 I0.128 J0.078
X52.18 Y29.922 Z-4.01 I-0.128 J-0.078
X52.436 Y30.078 Z-4.136 I0.128 J0.078
X52.18 Y29.922 Z-4.263 I-0.128 J-0.078
X52.436 Y30.078 Z-4.389 I0.128 J0.078
X52.16 Y29.975 Z-4.5 I-0.128 J-0.078
X52.456 Y30.025 I0.148 J0.025 F1000
X52.16 Y29.975 I-0.148 J-0.025
X52.456 Y30.025 Z-4.626 I0.148 J0.025 F700
X52.16 Y29.975 Z-4.753 I-0.148 J-0.025
X52.456 Y30.025 Z-4.879 I0.148 J0.025
X52.16 Y29.975 Z-5.005 I-0.148 J-0.025
X52.456 Y30.025 Z-5.131 I0.148 J0.025
X52.16 Y29.975 Z-5.258 I-0.148 J-0.025
X52.456 Y30.025 Z-5.384 I0.148 J0.025
X52.16 Y29.975 Z-5.51 I-0.148 J-0.025
X52.456 Y30.025 Z-5.636 I0.148 J0.025
X52.16 Y29.975 Z-5.763 I-0.148 J-0.025
X52.456 Y30.025 Z-5.889 I0.148 J0.025
X52.161 Y30.031 Z-6 I-0.148 J-0.025
X52.454 Y29.969 I0.147 J-0.031 F1000
X52.161 Y30.031 I-0.147 J0.031
X52.454 Y29.969 Z-6.126 I0.147 J-0.031 F700
X52.161 Y30.031 Z-6.253 I-0.147 J0.031
X52.454 Y29.969 Z-6.379 I0.147 J-0.031
X52.161 Y30.031 Z-6.505 I-0.147 J0.031
X52.454 Y29.969 Z-6.631 I0.147 J-0.031
X52.161 Y30.031 Z-6.758 I-0.147 J0.031
X52.454 Y29.969 Z-6.884 I0.147 J-0.031
X52.161 Y30.031 Z-7.01 I-0.147 J0.031
X52.454 Y29.969 Z-7.136 I0.147 J-0.031
X52.161 Y30.031 Z-7.263 I-0.147 J0.031
X52.454 Y29.969 Z-7.389 I0.147 J-0.031
X52.183 Y30.083 Z-7.5 I-0.147 J0.031
X52.433 Y29.917 I0.125 J-0.083 F1000
X52.183 Y30.083 I-0.125 J0.083
X52.433 Y29.917 Z-7.626 I0.125 J-0.083 F700
X52.183 Y30.083 Z-7.753 I-0.125 J0.083
X52.433 Y29.917 Z-7.879 I0.125 J-0.083
X52.183 Y30.083 Z-8.005 I-0.125 J0.083
X52.433 Y29.917 Z-8.131 I0.125 J-0.083
X52.183 Y30.083 Z-8.258 I-0.125 J0.083
X52.433 Y29.917 Z-8.384 I0.125 J-0.083
X52.183 Y30.083 Z-8.51 I-0.125 J0.083
X52.433 Y29.917 Z-8.636 I0.125 J-0.083
X52.183 Y30.083 Z-8.763 I-0.125 J0.083
X52.433 Y29.917 Z-8.889 I0.125 J-0.083
X52.222 Y30.123 Z-9 I-0.125 J0.083
X52.393 Y29.877 I0.085 J-0.123 F1000
X52.222 Y30.123 I-0.085 J0.123
G1 X52.218 Y30.12 Z-9.002 F700
G3 X52.398 Y29.88 Z-9.128 I0.09 J-0.12
X52.218 Y30.12 Z-9.254 I-0.09 J0.12
X52.398 Y29.88 Z-9.38 I0.09 J-0.12
X52.218 Y30.12 Z-9.507 I-0.09 J0.12
X52.398 Y29.88 Z-9.633 I0.09 J-0.12
X52.218 Y30.12 Z-9.759 I-0.09 J0.12
X52.398 Y29.88 Z-9.885 I0.09 J-0.12
X52.218 Y30.12 Z-10.012 I-0.09 J0.12
X52.398 Y29.88 Z-10.138 I0.09 J-0.12
X52.218 Y30.12 Z-10.264 I-0.09 J0.12
X52.398 Y29.88 Z-10.39 I0.09 J-0.12
X52.274 Y30.146 Z-10.5 I-0.09 J0.12
X52.341 Y29.854 I0.034 J-0.146 F1000
X52.274 Y30.146 I-0.034 J0.146
X52.341 Y29.854 Z-10.626 I0.034 J-0.146 F700
X52.274 Y30.146 Z-10.753 I-0.034 J0.146
X52.341 Y29.854 Z-10.879 I0.034 J-0.146
X52.274 Y30.146 Z-11.005 I-0.034 J0.146
X52.341 Y29.854 Z-11.131 I0.034 J-0.146
X52.274 Y30.146 Z-11.258 I-0.034 J0.146
X52.341 Y29.854 Z-11.384 I0.034 J-0.146
X52.274 Y30.146 Z-11.51 I-0.034 J0.146
X52.341 Y29.854 Z-11.636 I0.034 J-0.146
X52.274 Y30.146 Z-11.763 I-0.034 J0.146
X52.341 Y29.854 Z-11.889 I0.034 J-0.146
X52.33 Y30.148 Z-12 I-0.034 J0.146
X52.285 Y29.852 I-0.023 J-0.148 F1000
X52.33 Y30.148 I0.023 J0.148
X52.285 Y29.852 Z-12.126 I-0.023 J-0.148 F700
X52.33 Y30.148 Z-12.253 I0.023 J0.148
X52.285 Y29.852 Z-12.379 I-0.023 J-0.148
X52.33 Y30.148 Z-12.505 I0.023 J0.148
X52.285 Y29.852 Z-12.631 I-0.023 J-0.148
X52.33 Y30.148 Z-12.758 I0.023 J0.148
X52.285 Y29.852 Z-12.884 I-0.023 J-0.148
X52.33 Y30.148 Z-13.01 I0.023 J0.148
X52.285 Y29.852 Z-13.136 I-0.023 J-0.148
X52.33 Y30.148 Z-13.263 I0.023 J0.148
X52.285 Y29.852 Z-13.389 I-0.023 J-0.148
X52.384 Y30.129 Z-13.5 I0.023 J0.148
X52.232 Y29.871 I-0.076 J-0.129 F1000
X52.384 Y30.129 I0.076 J0.129
X52.232 Y29.871 Z-13.626 I-0.076 J-0.129 F700
X52.384 Y30.129 Z-13.753 I0.076 J0.129
X52.232 Y29.871 Z-13.879 I-0.076 J-0.129
X52.399 Y30.119 Z-14 I0.076 J0.129
X52.216 Y29.881 I-0.092 J-0.119 F1000
X52.399 Y30.119 I0.092 J0.119
G0 Z8
X52.218 Y19.88
Z3
G1 Z2.5 F700
Z-1.5
G3 X52.398 Y20.12 I0.09 J0.12 F1000
X52.218 Y19.88 I-0.09 J-0.12
X52.398 Y20.12 Z-1.626 I0.09 J0.12 F700
X52.218 Y19.88 Z-1.753 I-0.09 J-0.12
X52.398 Y20.12 Z-1.879 I0.09 J0.12
X52.218 Y19.88 Z-2.005 I-0.09 J-0.12
X52.398 Y20.12 Z-2.131 I0.09 J0.12
X52.218 Y19.88 Z-2.258 I-0.09 J-0.12
X52.398 Y20.12 Z-2.384 I0.09 J0.12
X52.218 Y19.88 Z-2.51 I-0.09 J-0.12
X52.398 Y20.12 Z-2.636 I0.09 J0.12
X52.218 Y19.88 Z-2.763 I-0.09 J-0.12
X52.398 Y20.12 Z-2.889 I0.09 J0.12
X52.18 Y19.922 Z-3 I-0.09 J-0.12
X52.436 Y20.078 I0.128 J0.078 F1000
X52.18 Y19.922 I-0.128 J-0.078
X52.436 Y20.078 Z-3.126 I0.128 J0.078 F700
X52.18 Y19.922 Z-3.253 I-0.128 J-0.078
X52.436 Y20.078 Z-3.379 I0.128 J0.078
X52.18 Y19.922 Z-3.505 I-0.128 J-0.078
X52.436 Y20.078 Z-3.631 I0.128 J0.078
X52.18 Y19.922 Z-3.758 I-0.128 J-0.078
X52.436 Y20.078 Z-3.884 I0.128 J0.078
X52.18 Y19.922 Z-4.01 I-0.128 J-0.078
X52.436 Y20.078 Z-4.136 I0.128 J0.078
X52.18 Y19.922 Z-4.263 I-0.128 J-0.078
X52.436 Y20.078 Z-4.389 I0.128 J0.078
X52.16 Y19.975 Z-4.5 I-0.128 J-0.078
X52.456 Y20.025 I0.148 J0.025 F1000
X52.16 Y19.975 I-0.148 J-0.025
X52.456 Y20.025 Z-4.626 I0.148 J0.025 F700
X52.16 Y19.975 Z-4.753 I-0.148 J-0.025
X52.456 Y20.025 Z-4.879 I0.148 J0.025
X52.16 Y19.975 Z-5.005 I-0.148 J-0.025
X52.456 Y20.025 Z-5.131 I0.148 J0.025
X52.16 Y19.975 Z-5.258 I-0.148 J-0.025
X52.456 Y20.025 Z-5.384 I0.148 J0.025
X52.16 Y19.975 Z-5.51 I-0.148 J-0.025
X52.456 Y20.025 Z-5.636 I0.148 J0.025
X52.16 Y19.975 Z-5.763 I-0.148 J-0.025
X52.456 Y20.025 Z-5.889 I0.148 J0.025
X52.161 Y20.031 Z-6 I-0.148 J-0.025
X52.454 Y19.969 I0.147 J-0.031 F1000
X52.161 Y20.031 I-0.147 J0.031
X52.454 Y19.969 Z-6.126 I0.147 J-0.031 F700
X52.161 Y20.031 Z-6.253 I-0.147 J0.031
X52.454 Y19.969 Z-6.379 I0.147 J-0.031
X52.161 Y20.031 Z-6.505 I-0.147 J0.031
X52.454 Y19.969 Z-6.631 I0.147 J-0.031
X52.161 Y20.031 Z-6.758 I-0.147 J0.031
X52.454 Y19.969 Z-6.884 I0.147 J-0.031
X52.161 Y20.031 Z-7.01 I-0.147 J0.031
X52.454 Y19.969 Z-7.136 I0.147 J-0.031
X52.161 Y20.031 Z-7.263 I-0.147 J0.031
X52.454 Y19.969 Z-7.389 I0.147 J-0.031
X52.183 Y20.083 Z-7.5 I-0.147 J0.031
X52.433 Y19.917 I0.125 J-0.083 F1000
X52.183 Y20.083 I-0.125 J0.083
X52.433 Y19.917 Z-7.626 I0.125 J-0.083 F700
X52.183 Y20.083 Z-7.753 I-0.125 J0.083
X52.433 Y19.917 Z-7.879 I0.125 J-0.083
X52.183 Y20.083 Z-8.005 I-0.125 J0.083
X52.433 Y19.917 Z-8.131 I0.125 J-0.083
X52.183 Y20.083 Z-8.258 I-0.125 J0.083
X52.433 Y19.917 Z-8.384 I0.125 J-0.083
X52.183 Y20.083 Z-8.51 I-0.125 J0.083
X52.433 Y19.917 Z-8.636 I0.125 J-0.083
X52.183 Y20.083 Z-8.763 I-0.125 J0.083
X52.433 Y19.917 Z-8.889 I0.125 J-0.083
X52.222 Y20.123 Z-9 I-0.125 J0.083
X52.393 Y19.877 I0.085 J-0.123 F1000
X52.222 Y20.123 I-0.085 J0.123
G1 X52.218 Y20.12 Z-9.002 F700
G3 X52.398 Y19.88 Z-9.128 I0.09 J-0.12
X52.218 Y20.12 Z-9.254 I-0.09 J0.12
X52.398 Y19.88 Z-9.38 I0.09 J-0.12
X52.218 Y20.12 Z-9.507 I-0.09 J0.12
X52.398 Y19.88 Z-9.633 I0.09 J-0.12
X52.218 Y20.12 Z-9.759 I-0.09 J0.12
X52.398 Y19.88 Z-9.885 I0.09 J-0.12
X52.218 Y20.12 Z-10.012 I-0.09 J0.12
X52.398 Y19.88 Z-10.138 I0.09 J-0.12
X52.218 Y20.12 Z-10.264 I-0.09 J0.12
X52.398 Y19.88 Z-10.39 I0.09 J-0.12
X52.274 Y20.146 Z-10.5 I-0.09 J0.12
X52.341 Y19.854 I0.034 J-0.146 F1000
X52.274 Y20.146 I-0.034 J0.146
X52.341 Y19.854 Z-10.626 I0.034 J-0.146 F700
X52.274 Y20.146 Z-10.753 I-0.034 J0.146
X52.341 Y19.854 Z-10.879 I0.034 J-0.146
X52.274 Y20.146 Z-11.005 I-0.034 J0.146
X52.341 Y19.854 Z-11.131 I0.034 J-0.146
X52.274 Y20.146 Z-11.258 I-0.034 J0.146
X52.341 Y19.854 Z-11.384 I0.034 J-0.146
X52.274 Y20.146 Z-11.51 I-0.034 J0.146
X52.341 Y19.854 Z-11.636 I0.034 J-0.146
X52.274 Y20.146 Z-11.763 I-0.034 J0.146
X52.341 Y19.854 Z-11.889 I0.034 J-0.146
X52.33 Y20.148 Z-12 I-0.034 J0.146
X52.285 Y19.852 I-0.023 J-0.148 F1000
X52.33 Y20.148 I0.023 J0.148
X52.285 Y19.852 Z-12.126 I-0.023 J-0.148 F700
X52.33 Y20.148 Z-12.253 I0.023 J0.148
X52.285 Y19.852 Z-12.379 I-0.023 J-0.148
X52.33 Y20.148 Z-12.505 I0.023 J0.148
X52.285 Y19.852 Z-12.631 I-0.023 J-0.148
X52.33 Y20.148 Z-12.758 I0.023 J0.148
X52.285 Y19.852 Z-12.884 I-0.023 J-0.148
X52.33 Y20.148 Z-13.01 I0.023 J0.148
X52.285 Y19.852 Z-13.136 I-0.023 J-0.148
X52.33 Y20.148 Z-13.263 I0.023 J0.148
X52.285 Y19.852 Z-13.389 I-0.023 J-0.148
X52.384 Y20.129 Z-13.5 I0.023 J0.148
X52.232 Y19.871 I-0.076 J-0.129 F1000
X52.384 Y20.129 I0.076 J0.129
X52.232 Y19.871 Z-13.626 I-0.076 J-0.129 F700
X52.384 Y20.129 Z-13.753 I0.076 J0.129
X52.232 Y19.871 Z-13.879 I-0.076 J-0.129
X52.399 Y20.119 Z-14 I0.076 J0.129
X52.216 Y19.881 I-0.092 J-0.119 F1000
X52.399 Y20.119 I0.092 J0.119
G0 Z8
X52.218 Y9.88
Z3
G1 Z2.5 F700
Z-1.5
G3 X52.398 Y10.12 I0.09 J0.12 F1000
X52.218 Y9.88 I-0.09 J-0.12
X52.398 Y10.12 Z-1.626 I0.09 J0.12 F700
X52.218 Y9.88 Z-1.753 I-0.09 J-0.12
X52.398 Y10.12 Z-1.879 I0.09 J0.12
X52.218 Y9.88 Z-2.005 I-0.09 J-0.12
X52.398 Y10.12 Z-2.131 I0.09 J0.12
X52.218 Y9.88 Z-2.258 I-0.09 J-0.12
X52.398 Y10.12 Z-2.384 I0.09 J0.12
X52.218 Y9.88 Z-2.51 I-0.09 J-0.12
X52.398 Y10.12 Z-2.636 I0.09 J0.12
X52.218 Y9.88 Z-2.763 I-0.09 J-0.12
X52.398 Y10.12 Z-2.889 I0.09 J0.12
X52.18 Y9.922 Z-3 I-0.09 J-0.12
X52.436 Y10.078 I0.128 J0.078 F1000
X52.18 Y9.922 I-0.128 J-0.078
X52.436 Y10.078 Z-3.126 I0.128 J0.078 F700
X52.18 Y9.922 Z-3.253 I-0.128 J-0.078
X52.436 Y10.078 Z-3.379 I0.128 J0.078
X52.18 Y9.922 Z-3.505 I-0.128 J-0.078
X52.436 Y10.078 Z-3.631 I0.128 J0.078
X52.18 Y9.922 Z-3.758 I-0.128 J-0.078
X52.436 Y10.078 Z-3.884 I0.128 J0.078
X52.18 Y9.922 Z-4.01 I-0.128 J-0.078
X52.436 Y10.078 Z-4.136 I0.128 J0.078
X52.18 Y9.922 Z-4.263 I-0.128 J-0.078
X52.436 Y10.078 Z-4.389 I0.128 J0.078
X52.16 Y9.975 Z-4.5 I-0.128 J-0.078
X52.456 Y10.025 I0.148 J0.025 F1000
X52.16 Y9.975 I-0.148 J-0.025
X52.456 Y10.025 Z-4.626 I0.148 J0.025 F700
X52.16 Y9.975 Z-4.753 I-0.148 J-0.025
X52.456 Y10.025 Z-4.879 I0.148 J0.025
X52.16 Y9.975 Z-5.005 I-0.148 J-0.025
X52.456 Y10.025 Z-5.131 I0.148 J0.025
X52.16 Y9.975 Z-5.258 I-0.148 J-0.025
X52.456 Y10.025 Z-5.384 I0.148 J0.025
X52.16 Y9.975 Z-5.51 I-0.148 J-0.025
X52.456 Y10.025 Z-5.636 I0.148 J0.025
X52.16 Y9.975 Z-5.763 I-0.148 J-0.025
X52.456 Y10.025 Z-5.889 I0.148 J0.025
X52.161 Y10.031 Z-6 I-0.148 J-0.025
X52.454 Y9.969 I0.147 J-0.031 F1000
X52.161 Y10.031 I-0.147 J0.031
X52.454 Y9.969 Z-6.126 I0.147 J-0.031 F700
X52.161 Y10.031 Z-6.253 I-0.147 J0.031
X52.454 Y9.969 Z-6.379 I0.147 J-0.031
X52.161 Y10.031 Z-6.505 I-0.147 J0.031
X52.454 Y9.969 Z-6.631 I0.147 J-0.031
X52.161 Y10.031 Z-6.758 I-0.147 J0.031
X52.454 Y9.969 Z-6.884 I0.147 J-0.031
X52.161 Y10.031 Z-7.01 I-0.147 J0.031
X52.454 Y9.969 Z-7.136 I0.147 J-0.031
X52.161 Y10.031 Z-7.263 I-0.147 J0.031
X52.454 Y9.969 Z-7.389 I0.147 J-0.031
X52.183 Y10.083 Z-7.5 I-0.147 J0.031
X52.433 Y9.917 I0.125 J-0.083 F1000
X52.183 Y10.083 I-0.125 J0.083
X52.433 Y9.917 Z-7.626 I0.125 J-0.083 F700
X52.183 Y10.083 Z-7.753 I-0.125 J0.083
X52.433 Y9.917 Z-7.879 I0.125 J-0.083
X52.183 Y10.083 Z-8.005 I-0.125 J0.083
X52.433 Y9.917 Z-8.131 I0.125 J-0.083
X52.183 Y10.083 Z-8.258 I-0.125 J0.083
X52.433 Y9.917 Z-8.384 I0.125 J-0.083
X52.183 Y10.083 Z-8.51 I-0.125 J0.083
X52.433 Y9.917 Z-8.636 I0.125 J-0.083
X52.183 Y10.083 Z-8.763 I-0.125 J0.083
X52.433 Y9.917 Z-8.889 I0.125 J-0.083
X52.222 Y10.123 Z-9 I-0.125 J0.083
X52.393 Y9.877 I0.085 J-0.123 F1000
X52.222 Y10.123 I-0.085 J0.123
G1 X52.218 Y10.12 Z-9.002 F700
G3 X52.398 Y9.88 Z-9.128 I0.09 J-0.12
X52.218 Y10.12 Z-9.254 I-0.09 J0.12
X52.398 Y9.88 Z-9.38 I0.09 J-0.12
X52.218 Y10.12 Z-9.507 I-0.09 J0.12
X52.398 Y9.88 Z-9.633 I0.09 J-0.12
X52.218 Y10.12 Z-9.759 I-0.09 J0.12
X52.398 Y9.88 Z-9.885 I0.09 J-0.12
X52.218 Y10.12 Z-10.012 I-0.09 J0.12
X52.398 Y9.88 Z-10.138 I0.09 J-0.12
X52.218 Y10.12 Z-10.264 I-0.09 J0.12
X52.398 Y9.88 Z-10.39 I0.09 J-0.12
X52.274 Y10.146 Z-10.5 I-0.09 J0.12
X52.341 Y9.854 I0.034 J-0.146 F1000
X52.274 Y10.146 I-0.034 J0.146
X52.341 Y9.854 Z-10.626 I0.034 J-0.146 F700
X52.274 Y10.146 Z-10.753 I-0.034 J0.146
X52.341 Y9.854 Z-10.879 I0.034 J-0.146
X52.274 Y10.146 Z-11.005 I-0.034 J0.146
X52.341 Y9.854 Z-11.131 I0.034 J-0.146
X52.274 Y10.146 Z-11.258 I-0.034 J0.146
X52.341 Y9.854 Z-11.384 I0.034 J-0.146
X52.274 Y10.146 Z-11.51 I-0.034 J0.146
X52.341 Y9.854 Z-11.636 I0.034 J-0.146
X52.274 Y10.146 Z-11.763 I-0.034 J0.146
X52.341 Y9.854 Z-11.889 I0.034 J-0.146
X52.33 Y10.148 Z-12 I-0.034 J0.146
X52.285 Y9.852 I-0.023 J-0.148 F1000
X52.33 Y10.148 I0.023 J0.148
X52.285 Y9.852 Z-12.126 I-0.023 J-0.148 F700
X52.33 Y10.148 Z-12.253 I0.023 J0.148
X52.285 Y9.852 Z-12.379 I-0.023 J-0.148
X52.33 Y10.148 Z-12.505 I0.023 J0.148
X52.285 Y9.852 Z-12.631 I-0.023 J-0.148
X52.33 Y10.148 Z-12.758 I0.023 J0.148
X52.285 Y9.852 Z-12.884 I-0.023 J-0.148
X52.33 Y10.148 Z-13.01 I0.023 J0.148
X52.285 Y9.852 Z-13.136 I-0.023 J-0.148
X52.33 Y10.148 Z-13.263 I0.023 J0.148
X52.285 Y9.852 Z-13.389 I-0.023 J-0.148
X52.384 Y10.129 Z-13.5 I0.023 J0.148
X52.232 Y9.871 I-0.076 J-0.129 F1000
X52.384 Y10.129 I0.076 J0.129
X52.232 Y9.871 Z-13.626 I-0.076 J-0.129 F700
X52.384 Y10.129 Z-13.753 I0.076 J0.129
X52.232 Y9.871 Z-13.879 I-0.076 J-0.129
X52.399 Y10.119 Z-14 I0.076 J0.129
X52.216 Y9.881 I-0.092 J-0.119 F1000
X52.399 Y10.119 I0.092 J0.119
G0 Z8
X60.679 Y10.12
Z3
G1 Z2.5 F700
Z-1.5
G3 X60.859 Y9.88 I0.09 J-0.12 F1000
X60.679 Y10.12 I-0.09 J0.12
X60.859 Y9.88 Z-1.626 I0.09 J-0.12 F700
X60.679 Y10.12 Z-1.753 I-0.09 J0.12
X60.859 Y9.88 Z-1.879 I0.09 J-0.12
X60.679 Y10.12 Z-2.005 I-0.09 J0.12
X60.859 Y9.88 Z-2.131 I0.09 J-0.12
X60.679 Y10.12 Z-2.258 I-0.09 J0.12
X60.859 Y9.88 Z-2.384 I0.09 J-0.12
X60.679 Y10.12 Z-2.51 I-0.09 J0.12
X60.859 Y9.88 Z-2.636 I0.09 J-0.12
X60.679 Y10.12 Z-2.763 I-0.09 J0.12
X60.859 Y9.88 Z-2.889 I0.09 J-0.12
X60.73 Y10.145 Z-3 I-0.09 J0.12
X60.808 Y9.855 I0.039 J-0.145 F1000
X60.73 Y10.145 I-0.039 J0.145
X60.808 Y9.855 Z-3.126 I0.039 J-0.145 F700
X60.73 Y10.145 Z-3.253 I-0.039 J0.145
X60.808 Y9.855 Z-3.379 I0.039 J-0.145
X60.73 Y10.145 Z-3.505 I-0.039 J0.145
X60.808 Y9.855 Z-3.631 I0.039 J-0.145
X60.73 Y10.145 Z-3.758 I-0.039 J0.145
X60.808 Y9.855 Z-3.884 I0.039 J-0.145
X60.73 Y10.145 Z-4.01 I-0.039 J0.145
X60.808 Y9.855 Z-4.136 I0.039 J-0.145
X60.73 Y10.145 Z-4.263 I-0.039 J0.145
X60.808 Y9.855 Z-4.389 I0.039 J-0.145
X60.786 Y10.149 Z-4.5 I-0.039 J0.145
X60.752 Y9.851 I-0.017 J-0.149 F1000
X60.786 Y10.149 I0.017 J0.149
X60.752 Y9.851 Z-4.626 I-0.017 J-0.149 F700
X60.786 Y10.149 Z-4.753 I0.017 J0.149
X60.752 Y9.851 Z-4.879 I-0.017 J-0.149
X60.786 Y10.149 Z-5.005 I0.017 J0.149
X60.752 Y9.851 Z-5.131 I-0.017 J-0.149
X60.786 Y10.149 Z-5.258 I0.017 J0.149
X60.752 Y9.851 Z-5.384 I-0.017 J-0.149
X60.786 Y10.149 Z-5.51 I0.017 J0.149
X60.752 Y9.851 Z-5.636 I-0.017 J-0.149
X60.786 Y10.149 Z-5.763 I0.017 J0.149
X60.752 Y9.851 Z-5.889 I-0.017 J-0.149
X60.84 Y10.132 Z-6 I0.017 J0.149
X60.698 Y9.868 I-0.071 J-0.132 F1000
X60.84 Y10.132 I0.071 J0.132
X60.698 Y9.868 Z-6.126 I-0.071 J-0.132 F700
X60.84 Y10.132 Z-6.253 I0.071 J0.132
X60.698 Y9.868 Z-6.379 I-0.071 J-0.132
X60.84 Y10.132 Z-6.505 I0.071 J0.132
X60.698 Y9.868 Z-6.631 I-0.071 J-0.132
X60.84 Y10.132 Z-6.758 I0.071 J0.132
X60.698 Y9.868 Z-6.884 I-0.071 J-0.132
X60.84 Y10.132 Z-7.01 I0.071 J0.132
X60.698 Y9.868 Z-7.136 I-0.071 J-0.132
X60.84 Y10.132 Z-7.263 I0.071 J0.132
X60.698 Y9.868 Z-7.389 I-0.071 J-0.132
X60.884 Y10.097 Z-7.5 I0.071 J0.132
X60.654 Y9.903 I-0.115 J-0.097 F1000
X60.884 Y10.097 I0.115 J0.097
X60.654 Y9.903 Z-7.626 I-0.115 J-0.097 F700
X60.884 Y10.097 Z-7.753 I0.115 J0.097
X60.654 Y9.903 Z-7.879 I-0.115 J-0.097
X60.884 Y10.097 Z-8.005 I0.115 J0.097
X60.654 Y9.903 Z-8.131 I-0.115 J-0.097
X60.884 Y10.097 Z-8.258 I0.115 J0.097
X60.654 Y9.903 Z-8.384 I-0.115 J-0.097
X60.884 Y10.097 Z-8.51 I0.115 J0.097
X60.654 Y9.903 Z-8.636 I-0.115 J-0.097
X60.884 Y10.097 Z-8.763 I0.115 J0.097
X60.654 Y9.903 Z-8.889 I-0.115 J-0.097
X60.912 Y10.047 Z-9 I0.115 J0.097
X60.627 Y9.953 I-0.142 J-0.047 F1000
X60.912 Y10.047 I0.142 J0.047
X60.627 Y9.953 Z-9.126 I-0.142 J-0.047 F700
X60.912 Y10.047 Z-9.253 I0.142 J0.047
X60.627 Y9.953 Z-9.379 I-0.142 J-0.047
X60.912 Y10.047 Z-9.505 I0.142 J0.047
X60.627 Y9.953 Z-9.631 I-0.142 J-0.047
X60.912 Y10.047 Z-9.758 I0.142 J0.047
X60.627 Y9.953 Z-9.884 I-0.142 J-0.047
X60.912 Y10.047 Z-10.01 I0.142 J0.047
X60.627 Y9.953 Z-10.136 I-0.142 J-0.047
X60.912 Y10.047 Z-10.263 I0.142 J0.047
X60.627 Y9.953 Z-10.389 I-0.142 J-0.047
X60.919 Y9.991 Z-10.5 I0.142 J0.047
X60.619 Y10.009 I-0.15 J0.009 F1000
X60.919 Y9.991 I0.15 J-0.009
X60.619 Y10.009 Z-10.626 I-0.15 J0.009 F700
X60.919 Y9.991 Z-10.753 I0.15 J-0.009
X60.619 Y10.009 Z-10.879 I-0.15 J0.009
X60.919 Y9.991 Z-11.005 I0.15 J-0.009
X60.619 Y10.009 Z-11.131 I-0.15 J0.009
X60.919 Y9.991 Z-11.258 I0.15 J-0.009
X60.619 Y10.009 Z-11.384 I-0.15 J0.009
X60.919 Y9.991 Z-11.51 I0.15 J-0.009
X60.619 Y10.009 Z-11.636 I-0.15 J0.009
X60.919 Y9.991 Z-11.763 I0.15 J-0.009
X60.619 Y10.009 Z-11.889 I-0.15 J0.009
X60.905 Y9.937 Z-12 I0.15 J-0.009
X60.633 Y10.063 I-0.136 J0.063 F1000
X60.905 Y9.937 I0.136 J-0.063
X60.633 Y10.063 Z-12.126 I-0.136 J0.063 F700
X60.905 Y9.937 Z-12.253 I0.136 J-0.063
X60.633 Y10.063 Z-12.379 I-0.136 J0.063
X60.905 Y9.937 Z-12.505 I0.136 J-0.063
X60.633 Y10.063 Z-12.631 I-0.136 J0.063
X60.905 Y9.937 Z-12.758 I0.136 J-0.063
X60.633 Y10.063 Z-12.884 I-0.136 J0.063
X60.905 Y9.937 Z-13.01 I0.136 J-0.063
X60.633 Y10.063 Z-13.136 I-0.136 J0.063
X60.905 Y9.937 Z-13.263 I0.136 J-0.063
X60.633 Y10.063 Z-13.389 I-0.136 J0.063
X60.872 Y9.891 Z-13.5 I0.136 J-0.063
X60.666 Y10.109 I-0.103 J0.109 F1000
X60.872 Y9.891 I0.103 J-0.109
X60.666 Y10.109 Z-13.626 I-0.103 J0.109 F700
X60.872 Y9.891 Z-13.753 I0.103 J-0.109
X60.666 Y10.109 Z-13.879 I-0.103 J0.109
X60.858 Y9.879 Z-14 I0.103 J-0.109
X60.681 Y10.121 I-0.088 J0.121 F1000
X60.858 Y9.879 I0.088 J-0.121
G0 Z8
X69.141 Y9.88
Z3
G1 Z2.5 F700
Z-1.5
G3 X69.321 Y10.12 I0.09 J0.12 F1000
X69.141 Y9.88 I-0.09 J-0.12
X69.321 Y10.12 Z-1.626 I0.09 J0.12 F700
X69.141 Y9.88 Z-1.753 I-0.09 J-0.12
X69.321 Y10.12 Z-1.879 I0.09 J0.12
X69.141 Y9.88 Z-2.005 I-0.09 J-0.12
X69.321 Y10.12 Z-2.131 I0.09 J0.12
X69.141 Y9.88 Z-2.258 I-0.09 J-0.12
X69.321 Y10.12 Z-2.384 I0.09 J0.12
X69.141 Y9.88 Z-2.51 I-0.09 J-0.12
X69.321 Y10.12 Z-2.636 I0.09 J0.12
X69.141 Y9.88 Z-2.763 I-0.09 J-0.12
X69.321 Y10.12 Z-2.889 I0.09 J0.12
X69.103 Y9.922 Z-3 I-0.09 J-0.12
X69.359 Y10.078 I0.128 J0.078 F1000
X69.103 Y9.922 I-0.128 J-0.078
X69.359 Y10.078 Z-3.126 I0.128 J0.078 F700
X69.103 Y9.922 Z-3.253 I-0.128 J-0.078
X69.359 Y10.078 Z-3.379 I0.128 J0.078
X69.103 Y9.922 Z-3.505 I-0.128 J-0.078
X69.359 Y10.078 Z-3.631 I0.128 J0.078
X69.103 Y9.922 Z-3.758 I-0.128 J-0.078
X69.359 Y10.078 Z-3.884 I0.128 J0.078
X69.103 Y9.922 Z-4.01 I-0.128 J-0.078
X69.359 Y10.078 Z-4.136 I0.128 J0.078
X69.103 Y9.922 Z-4.263 I-0.128 J-0.078
X69.359 Y10.078 Z-4.389 I0.128 J0.078
X69.083 Y9.975 Z-4.5 I-0.128 J-0.078
X69.379 Y10.025 I0.148 J0.025 F1000
X69.083 Y9.975 I-0.148 J-0.025
X69.379 Y10.025 Z-4.626 I0.148 J0.025 F700
X69.083 Y9.975 Z-4.753 I-0.148 J-0.025
X69.379 Y10.025 Z-4.879 I0.148 J0.025
X69.083 Y9.975 Z-5.005 I-0.148 J-0.025
X69.379 Y10.025 Z-5.131 I0.148 J0.025
X69.083 Y9.975 Z-5.258 I-0.148 J-0.025
X69.379 Y10.025 Z-5.384 I0.148 J0.025
X69.083 Y9.975 Z-5.51 I-0.148 J-0.025
X69.379 Y10.025 Z-5.636 I0.148 J0.025
X69.083 Y9.975 Z-5.763 I-0.148 J-0.025
X69.379 Y10.025 Z-5.889 I0.148 J0.025
X69.084 Y10.031 Z-6 I-0.148 J-0.025
X69.378 Y9.969 I0.147 J-0.031 F1000
X69.084 Y10.031 I-0.147 J0.031
X69.378 Y9.969 Z-6.126 I0.147 J-0.031 F700
X69.084 Y10.031 Z-6.253 I-0.147 J0.031
X69.378 Y9.969 Z-6.379 I0.147 J-0.031
X69.084 Y10.031 Z-6.505 I-0.147 J0.031
X69.378 Y9.969 Z-6.631 I0.147 J-0.031
X69.084 Y10.031 Z-6.758 I-0.147 J0.031
X69.378 Y9.969 Z-6.884 I0.147 J-0.031
X69.084 Y10.031 Z-7.01 I-0.147 J0.031
X69.378 Y9.969 Z-7.136 I0.147 J-0.031
X69.084 Y10.031 Z-7.263 I-0.147 J0.031
X69.378 Y9.969 Z-7.389 I0.147 J-0.031
X69.106 Y10.083 Z-7.5 I-0.147 J0.031
X69.356 Y9.917 I0.125 J-0.083 F1000
X69.106 Y10.083 I-0.125 J0.083
X69.356 Y9.917 Z-7.626 I0.125 J-0.083 F700
X69.106 Y10.083 Z-7.753 I-0.125 J0.083
X69.356 Y9.917 Z-7.879 I0.125 J-0.083
X69.106 Y10.083 Z-8.005 I-0.125 J0.083
X69.356 Y9.917 Z-8.131 I0.125 J-0.083
X69.106 Y10.083 Z-8.258 I-0.125 J0.083
X69.356 Y9.917 Z-8.384 I0.125 J-0.083
X69.106 Y10.083 Z-8.51 I-0.125 J0.083
X69.356 Y9.917 Z-8.636 I0.125 J-0.083
X69.106 Y10.083 Z-8.763 I-0.125 J0.083
X69.356 Y9.917 Z-8.889 I0.125 J-0.083
X69.145 Y10.123 Z-9 I-0.125 J0.083
X69.316 Y9.877 I0.085 J-0.123 F1000
X69.145 Y10.123 I-0.085 J0.123
G1 X69.141 Y10.12 Z-9.002 F700
G3 X69.321 Y9.88 Z-9.128 I0.09 J-0.12
X69.141 Y10.12 Z-9.254 I-0.09 J0.12
X69.321 Y9.88 Z-9.38 I0.09 J-0.12
X69.141 Y10.12 Z-9.507 I-0.09 J0.12
X69.321 Y9.88 Z-9.633 I0.09 J-0.12
X69.141 Y10.12 Z-9.759 I-0.09 J0.12
X69.321 Y9.88 Z-9.885 I0.09 J-0.12
X69.141 Y10.12 Z-10.012 I-0.09 J0.12
X69.321 Y9.88 Z-10.138 I0.09 J-0.12
X69.141 Y10.12 Z-10.264 I-0.09 J0.12
X69.321 Y9.88 Z-10.39 I0.09 J-0.12
X69.197 Y10.146 Z-10.5 I-0.09 J0.12
X69.264 Y9.854 I0.034 J-0.146 F1000
X69.197 Y10.146 I-0.034 J0.146
X69.264 Y9.854 Z-10.626 I0.034 J-0.146 F700
X69.197 Y10.146 Z-10.753 I-0.034 J0.146
X69.264 Y9.854 Z-10.879 I0.034 J-0.146
X69.197 Y10.146 Z-11.005 I-0.034 J0.146
X69.264 Y9.854 Z-11.131 I0.034 J-0.146
X69.197 Y10.146 Z-11.258 I-0.034 J0.146
X69.264 Y9.854 Z-11.384 I0.034 J-0.146
X69.197 Y10.146 Z-11.51 I-0.034 J0.146
X69.264 Y9.854 Z-11.636 I0.034 J-0.146
X69.197 Y10.146 Z-11.763 I-0.034 J0.146
X69.264 Y9.854 Z-11.889 I0.034 J-0.146
X69.254 Y10.148 Z-12 I-0.034 J0.146
X69.208 Y9.852 I-0.023 J-0.148 F1000
X69.254 Y10.148 I0.023 J0.148
X69.208 Y9.852 Z-12.126 I-0.023 J-0.148 F700
X69.254 Y10.148 Z-12.253 I0.023 J0.148
X69.208 Y9.852 Z-12.379 I-0.023 J-0.148
X69.254 Y10.148 Z-12.505 I0.023 J0.148
X69.208 Y9.852 Z-12.631 I-0.023 J-0.148
X69.254 Y10.148 Z-12.758 I0.023 J0.148
X69.208 Y9.852 Z-12.884 I-0.023 J-0.148
X69.254 Y10.148 Z-13.01 I0.023 J0.148
X69.208 Y9.852 Z-13.136 I-0.023 J-0.148
X69.254 Y10.148 Z-13.263 I0.023 J0.148
X69.208 Y9.852 Z-13.389 I-0.023 J-0.148
X69.307 Y10.129 Z-13.5 I0.023 J0.148
X69.155 Y9.871 I-0.076 J-0.129 F1000
X69.307 Y10.129 I0.076 J0.129
X69.155 Y9.871 Z-13.626 I-0.076 J-0.129 F700
X69.307 Y10.129 Z-13.753 I0.076 J0.129
X69.155 Y9.871 Z-13.879 I-0.076 J-0.129
X69.322 Y10.119 Z-14 I0.076 J0.129
X69.139 Y9.881 I-0.092 J-0.119 F1000
X69.322 Y10.119 I0.092 J0.119
G0 Z8
X69.141 Y19.88
Z3
G1 Z2.5 F700
Z-1.5
G3 X69.321 Y20.12 I0.09 J0.12 F1000
X69.141 Y19.88 I-0.09 J-0.12
X69.321 Y20.12 Z-1.626 I0.09 J0.12 F700
X69.141 Y19.88 Z-1.753 I-0.09 J-0.12
X69.321 Y20.12 Z-1.879 I0.09 J0.12
X69.141 Y19.88 Z-2.005 I-0.09 J-0.12
X69.321 Y20.12 Z-2.131 I0.09 J0.12
X69.141 Y19.88 Z-2.258 I-0.09 J-0.12
X69.321 Y20.12 Z-2.384 I0.09 J0.12
X69.141 Y19.88 Z-2.51 I-0.09 J-0.12
X69.321 Y20.12 Z-2.636 I0.09 J0.12
X69.141 Y19.88 Z-2.763 I-0.09 J-0.12
X69.321 Y20.12 Z-2.889 I0.09 J0.12
X69.103 Y19.922 Z-3 I-0.09 J-0.12
X69.359 Y20.078 I0.128 J0.078 F1000
X69.103 Y19.922 I-0.128 J-0.078
X69.359 Y20.078 Z-3.126 I0.128 J0.078 F700
X69.103 Y19.922 Z-3.253 I-0.128 J-0.078
X69.359 Y20.078 Z-3.379 I0.128 J0.078
X69.103 Y19.922 Z-3.505 I-0.128 J-0.078
X69.359 Y20.078 Z-3.631 I0.128 J0.078
X69.103 Y19.922 Z-3.758 I-0.128 J-0.078
X69.359 Y20.078 Z-3.884 I0.128 J0.078
X69.103 Y19.922 Z-4.01 I-0.128 J-0.078
X69.359 Y20.078 Z-4.136 I0.128 J0.078
X69.103 Y19.922 Z-4.263 I-0.128 J-0.078
X69.359 Y20.078 Z-4.389 I0.128 J0.078
X69.083 Y19.975 Z-4.5 I-0.128 J-0.078
X69.379 Y20.025 I0.148 J0.025 F1000
X69.083 Y19.975 I-0.148 J-0.025
X69.379 Y20.025 Z-4.626 I0.148 J0.025 F700
X69.083 Y19.975 Z-4.753 I-0.148 J-0.025
X69.379 Y20.025 Z-4.879 I0.148 J0.025
X69.083 Y19.975 Z-5.005 I-0.148 J-0.025
X69.379 Y20.025 Z-5.131 I0.148 J0.025
X69.083 Y19.975 Z-5.258 I-0.148 J-0.025
X69.379 Y20.025 Z-5.384 I0.148 J0.025
X69.083 Y19.975 Z-5.51 I-0.148 J-0.025
X69.379 Y20.025 Z-5.636 I0.148 J0.025
X69.083 Y19.975 Z-5.763 I-0.148 J-0.025
X69.379 Y20.025 Z-5.889 I0.148 J0.025
X69.084 Y20.031 Z-6 I-0.148 J-0.025
X69.378 Y19.969 I0.147 J-0.031 F1000
X69.084 Y20.031 I-0.147 J0.031
X69.378 Y19.969 Z-6.126 I0.147 J-0.031 F700
X69.084 Y20.031 Z-6.253 I-0.147 J0.031
X69.378 Y19.969 Z-6.379 I0.147 J-0.031
X69.084 Y20.031 Z-6.505 I-0.147 J0.031
X69.378 Y19.969 Z-6.631 I0.147 J-0.031
X69.084 Y20.031 Z-6.758 I-0.147 J0.031
X69.378 Y19.969 Z-6.884 I0.147 J-0.031
X69.084 Y20.031 Z-7.01 I-0.147 J0.031
X69.378 Y19.969 Z-7.136 I0.147 J-0.031
X69.084 Y20.031 Z-7.263 I-0.147 J0.031
X69.378 Y19.969 Z-7.389 I0.147 J-0.031
X69.106 Y20.083 Z-7.5 I-0.147 J0.031
X69.356 Y19.917 I0.125 J-0.083 F1000
X69.106 Y20.083 I-0.125 J0.083
X69.356 Y19.917 Z-7.626 I0.125 J-0.083 F700
X69.106 Y20.083 Z-7.753 I-0.125 J0.083
X69.356 Y19.917 Z-7.879 I0.125 J-0.083
X69.106 Y20.083 Z-8.005 I-0.125 J0.083
X69.356 Y19.917 Z-8.131 I0.125 J-0.083
X69.106 Y20.083 Z-8.258 I-0.125 J0.083
X69.356 Y19.917 Z-8.384 I0.125 J-0.083
X69.106 Y20.083 Z-8.51 I-0.125 J0.083
X69.356 Y19.917 Z-8.636 I0.125 J-0.083
X69.106 Y20.083 Z-8.763 I-0.125 J0.083
X69.356 Y19.917 Z-8.889 I0.125 J-0.083
X69.145 Y20.123 Z-9 I-0.125 J0.083
X69.316 Y19.877 I0.085 J-0.123 F1000
X69.145 Y20.123 I-0.085 J0.123
G1 X69.141 Y20.12 Z-9.002 F700
G3 X69.321 Y19.88 Z-9.128 I0.09 J-0.12
X69.141 Y20.12 Z-9.254 I-0.09 J0.12
X69.321 Y19.88 Z-9.38 I0.09 J-0.12
X69.141 Y20.12 Z-9.507 I-0.09 J0.12
X69.321 Y19.88 Z-9.633 I0.09 J-0.12
X69.141 Y20.12 Z-9.759 I-0.09 J0.12
X69.321 Y19.88 Z-9.885 I0.09 J-0.12
X69.141 Y20.12 Z-10.012 I-0.09 J0.12
X69.321 Y19.88 Z-10.138 I0.09 J-0.12
X69.141 Y20.12 Z-10.264 I-0.09 J0.12
X69.321 Y19.88 Z-10.39 I0.09 J-0.12
X69.197 Y20.146 Z-10.5 I-0.09 J0.12
X69.264 Y19.854 I0.034 J-0.146 F1000
X69.197 Y20.146 I-0.034 J0.146
X69.264 Y19.854 Z-10.626 I0.034 J-0.146 F700
X69.197 Y20.146 Z-10.753 I-0.034 J0.146
X69.264 Y19.854 Z-10.879 I0.034 J-0.146
X69.197 Y20.146 Z-11.005 I-0.034 J0.146
X69.264 Y19.854 Z-11.131 I0.034 J-0.146
X69.197 Y20.146 Z-11.258 I-0.034 J0.146
X69.264 Y19.854 Z-11.384 I0.034 J-0.146
X69.197 Y20.146 Z-11.51 I-0.034 J0.146
X69.264 Y19.854 Z-11.636 I0.034 J-0.146
X69.197 Y20.146 Z-11.763 I-0.034 J0.146
X69.264 Y19.854 Z-11.889 I0.034 J-0.146
X69.254 Y20.148 Z-12 I-0.034 J0.146
X69.208 Y19.852 I-0.023 J-0.148 F1000
X69.254 Y20.148 I0.023 J0.148
X69.208 Y19.852 Z-12.126 I-0.023 J-0.148 F700
X69.254 Y20.148 Z-12.253 I0.023 J0.148
X69.208 Y19.852 Z-12.379 I-0.023 J-0.148
X69.254 Y20.148 Z-12.505 I0.023 J0.148
X69.208 Y19.852 Z-12.631 I-0.023 J-0.148
X69.254 Y20.148 Z-12.758 I0.023 J0.148
X69.208 Y19.852 Z-12.884 I-0.023 J-0.148
X69.254 Y20.148 Z-13.01 I0.023 J0.148
X69.208 Y19.852 Z-13.136 I-0.023 J-0.148
X69.254 Y20.148 Z-13.263 I0.023 J0.148
X69.208 Y19.852 Z-13.389 I-0.023 J-0.148
X69.307 Y20.129 Z-13.5 I0.023 J0.148
X69.155 Y19.871 I-0.076 J-0.129 F1000
X69.307 Y20.129 I0.076 J0.129
X69.155 Y19.871 Z-13.626 I-0.076 J-0.129 F700
X69.307 Y20.129 Z-13.753 I0.076 J0.129
X69.155 Y19.871 Z-13.879 I-0.076 J-0.129
X69.322 Y20.119 Z-14 I0.076 J0.129
X69.139 Y19.881 I-0.092 J-0.119 F1000
X69.322 Y20.119 I0.092 J0.119
G0 Z8
X60.679 Y20.12
Z3
G1 Z2.5 F700
Z-1.5
G3 X60.859 Y19.88 I0.09 J-0.12 F1000
X60.679 Y20.12 I-0.09 J0.12
X60.859 Y19.88 Z-1.626 I0.09 J-0.12 F700
X60.679 Y20.12 Z-1.753 I-0.09 J0.12
X60.859 Y19.88 Z-1.879 I0.09 J-0.12
X60.679 Y20.12 Z-2.005 I-0.09 J0.12
X60.859 Y19.88 Z-2.131 I0.09 J-0.12
X60.679 Y20.12 Z-2.258 I-0.09 J0.12
X60.859 Y19.88 Z-2.384 I0.09 J-0.12
X60.679 Y20.12 Z-2.51 I-0.09 J0.12
X60.859 Y19.88 Z-2.636 I0.09 J-0.12
X60.679 Y20.12 Z-2.763 I-0.09 J0.12
X60.859 Y19.88 Z-2.889 I0.09 J-0.12
X60.73 Y20.145 Z-3 I-0.09 J0.12
X60.808 Y19.855 I0.039 J-0.145 F1000
X60.73 Y20.145 I-0.039 J0.145
X60.808 Y19.855 Z-3.126 I0.039 J-0.145 F700
X60.73 Y20.145 Z-3.253 I-0.039 J0.145
X60.808 Y19.855 Z-3.379 I0.039 J-0.145
X60.73 Y20.145 Z-3.505 I-0.039 J0.145
X60.808 Y19.855 Z-3.631 I0.039 J-0.145
X60.73 Y20.145 Z-3.758 I-0.039 J0.145
X60.808 Y19.855 Z-3.884 I0.039 J-0.145
X60.73 Y20.145 Z-4.01 I-0.039 J0.145
X60.808 Y19.855 Z-4.136 I0.039 J-0.145
X60.73 Y20.145 Z-4.263 I-0.039 J0.145
X60.808 Y19.855 Z-4.389 I0.039 J-0.145
X60.786 Y20.149 Z-4.5 I-0.039 J0.145
X60.752 Y19.851 I-0.017 J-0.149 F1000
X60.786 Y20.149 I0.017 J0.149
X60.752 Y19.851 Z-4.626 I-0.017 J-0.149 F700
X60.786 Y20.149 Z-4.753 I0.017 J0.149
X60.752 Y19.851 Z-4.879 I-0.017 J-0.149
X60.786 Y20.149 Z-5.005 I0.017 J0.149
X60.752 Y19.851 Z-5.131 I-0.017 J-0.149
X60.786 Y20.149 Z-5.258 I0.017 J0.149
X60.752 Y19.851 Z-5.384 I-0.017 J-0.149
X60.786 Y20.149 Z-5.51 I0.017 J0.149
X60.752 Y19.851 Z-5.636 I-0.017 J-0.149
X60.786 Y20.149 Z-5.763 I0.017 J0.149
X60.752 Y19.851 Z-5.889 I-0.017 J-0.149
X60.84 Y20.132 Z-6 I0.017 J0.149
X60.698 Y19.868 I-0.071 J-0.132 F1000
X60.84 Y20.132 I0.071 J0.132
X60.698 Y19.868 Z-6.126 I-0.071 J-0.132 F700
X60.84 Y20.132 Z-6.253 I0.071 J0.132
X60.698 Y19.868 Z-6.379 I-0.071 J-0.132
X60.84 Y20.132 Z-6.505 I0.071 J0.132
X60.698 Y19.868 Z-6.631 I-0.071 J-0.132
X60.84 Y20.132 Z-6.758 I0.071 J0.132
X60.698 Y19.868 Z-6.884 I-0.071 J-0.132
X60.84 Y20.132 Z-7.01 I0.071 J0.132
X60.698 Y19.868 Z-7.136 I-0.071 J-0.132
X60.84 Y20.132 Z-7.263 I0.071 J0.132
X60.698 Y19.868 Z-7.389 I-0.071 J-0.132
X60.884 Y20.097 Z-7.5 I0.071 J0.132
X60.654 Y19.903 I-0.115 J-0.097 F1000
X60.884 Y20.097 I0.115 J0.097
X60.654 Y19.903 Z-7.626 I-0.115 J-0.097 F700
X60.884 Y20.097 Z-7.753 I0.115 J0.097
X60.654 Y19.903 Z-7.879 I-0.115 J-0.097
X60.884 Y20.097 Z-8.005 I0.115 J0.097
X60.654 Y19.903 Z-8.131 I-0.115 J-0.097
X60.884 Y20.097 Z-8.258 I0.115 J0.097
X60.654 Y19.903 Z-8.384 I-0.115 J-0.097
X60.884 Y20.097 Z-8.51 I0.115 J0.097
X60.654 Y19.903 Z-8.636 I-0.115 J-0.097
X60.884 Y20.097 Z-8.763 I0.115 J0.097
X60.654 Y19.903 Z-8.889 I-0.115 J-0.097
X60.912 Y20.047 Z-9 I0.115 J0.097
X60.627 Y19.953 I-0.142 J-0.047 F1000
X60.912 Y20.047 I0.142 J0.047
X60.627 Y19.953 Z-9.126 I-0.142 J-0.047 F700
X60.912 Y20.047 Z-9.253 I0.142 J0.047
X60.627 Y19.953 Z-9.379 I-0.142 J-0.047
X60.912 Y20.047 Z-9.505 I0.142 J0.047
X60.627 Y19.953 Z-9.631 I-0.142 J-0.047
X60.912 Y20.047 Z-9.758 I0.142 J0.047
X60.627 Y19.953 Z-9.884 I-0.142 J-0.047
X60.912 Y20.047 Z-10.01 I0.142 J0.047
X60.627 Y19.953 Z-10.136 I-0.142 J-0.047
X60.912 Y20.047 Z-10.263 I0.142 J0.047
X60.627 Y19.953 Z-10.389 I-0.142 J-0.047
X60.919 Y19.991 Z-10.5 I0.142 J0.047
X60.619 Y20.009 I-0.15 J0.009 F1000
X60.919 Y19.991 I0.15 J-0.009
X60.619 Y20.009 Z-10.626 I-0.15 J0.009 F700
X60.919 Y19.991 Z-10.753 I0.15 J-0.009
X60.619 Y20.009 Z-10.879 I-0.15 J0.009
X60.919 Y19.991 Z-11.005 I0.15 J-0.009
X60.619 Y20.009 Z-11.131 I-0.15 J0.009
X60.919 Y19.991 Z-11.258 I0.15 J-0.009
X60.619 Y20.009 Z-11.384 I-0.15 J0.009
X60.919 Y19.991 Z-11.51 I0.15 J-0.009
X60.619 Y20.009 Z-11.636 I-0.15 J0.009
X60.919 Y19.991 Z-11.763 I0.15 J-0.009
X60.619 Y20.009 Z-11.889 I-0.15 J0.009
X60.905 Y19.937 Z-12 I0.15 J-0.009
X60.633 Y20.063 I-0.136 J0.063 F1000
X60.905 Y19.937 I0.136 J-0.063
X60.633 Y20.063 Z-12.126 I-0.136 J0.063 F700
X60.905 Y19.937 Z-12.253 I0.136 J-0.063
X60.633 Y20.063 Z-12.379 I-0.136 J0.063
X60.905 Y19.937 Z-12.505 I0.136 J-0.063
X60.633 Y20.063 Z-12.631 I-0.136 J0.063
X60.905 Y19.937 Z-12.758 I0.136 J-0.063
X60.633 Y20.063 Z-12.884 I-0.136 J0.063
X60.905 Y19.937 Z-13.01 I0.136 J-0.063
X60.633 Y20.063 Z-13.136 I-0.136 J0.063
X60.905 Y19.937 Z-13.263 I0.136 J-0.063
X60.633 Y20.063 Z-13.389 I-0.136 J0.063
X60.872 Y19.891 Z-13.5 I0.136 J-0.063
X60.666 Y20.109 I-0.103 J0.109 F1000
X60.872 Y19.891 I0.103 J-0.109
X60.666 Y20.109 Z-13.626 I-0.103 J0.109 F700
X60.872 Y19.891 Z-13.753 I0.103 J-0.109
X60.666 Y20.109 Z-13.879 I-0.103 J0.109
X60.858 Y19.879 Z-14 I0.103 J-0.109
X60.681 Y20.121 I-0.088 J0.121 F1000
X60.858 Y19.879 I0.088 J-0.121
G0 Z8
X60.679 Y30.12
Z3
G1 Z2.5 F700
Z-1.5
G3 X60.859 Y29.88 I0.09 J-0.12 F1000
X60.679 Y30.12 I-0.09 J0.12
X60.859 Y29.88 Z-1.626 I0.09 J-0.12 F700
X60.679 Y30.12 Z-1.753 I-0.09 J0.12
X60.859 Y29.88 Z-1.879 I0.09 J-0.12
X60.679 Y30.12 Z-2.005 I-0.09 J0.12
X60.859 Y29.88 Z-2.131 I0.09 J-0.12
X60.679 Y30.12 Z-2.258 I-0.09 J0.12
X60.859 Y29.88 Z-2.384 I0.09 J-0.12
X60.679 Y30.12 Z-2.51 I-0.09 J0.12
X60.859 Y29.88 Z-2.636 I0.09 J-0.12
X60.679 Y30.12 Z-2.763 I-0.09 J0.12
X60.859 Y29.88 Z-2.889 I0.09 J-0.12
X60.73 Y30.145 Z-3 I-0.09 J0.12
X60.808 Y29.855 I0.039 J-0.145 F1000
X60.73 Y30.145 I-0.039 J0.145
X60.808 Y29.855 Z-3.126 I0.039 J-0.145 F700
X60.73 Y30.145 Z-3.253 I-0.039 J0.145
X60.808 Y29.855 Z-3.379 I0.039 J-0.145
X60.73 Y30.145 Z-3.505 I-0.039 J0.145
X60.808 Y29.855 Z-3.631 I0.039 J-0.145
X60.73 Y30.145 Z-3.758 I-0.039 J0.145
X60.808 Y29.855 Z-3.884 I0.039 J-0.145
X60.73 Y30.145 Z-4.01 I-0.039 J0.145
X60.808 Y29.855 Z-4.136 I0.039 J-0.145
X60.73 Y30.145 Z-4.263 I-0.039 J0.145
X60.808 Y29.855 Z-4.389 I0.039 J-0.145
X60.786 Y30.149 Z-4.5 I-0.039 J0.145
X60.752 Y29.851 I-0.017 J-0.149 F1000
X60.786 Y30.149 I0.017 J0.149
X60.752 Y29.851 Z-4.626 I-0.017 J-0.149 F700
X60.786 Y30.149 Z-4.753 I0.017 J0.149
X60.752 Y29.851 Z-4.879 I-0.017 J-0.149
X60.786 Y30.149 Z-5.005 I0.017 J0.149
X60.752 Y29.851 Z-5.131 I-0.017 J-0.149
X60.786 Y30.149 Z-5.258 I0.017 J0.149
X60.752 Y29.851 Z-5.384 I-0.017 J-0.149
X60.786 Y30.149 Z-5.51 I0.017 J0.149
X60.752 Y29.851 Z-5.636 I-0.017 J-0.149
X60.786 Y30.149 Z-5.763 I0.017 J0.149
X60.752 Y29.851 Z-5.889 I-0.017 J-0.149
X60.84 Y30.132 Z-6 I0.017 J0.149
X60.698 Y29.868 I-0.071 J-0.132 F1000
X60.84 Y30.132 I0.071 J0.132
X60.698 Y29.868 Z-6.126 I-0.071 J-0.132 F700
X60.84 Y30.132 Z-6.253 I0.071 J0.132
X60.698 Y29.868 Z-6.379 I-0.071 J-0.132
X60.84 Y30.132 Z-6.505 I0.071 J0.132
X60.698 Y29.868 Z-6.631 I-0.071 J-0.132
X60.84 Y30.132 Z-6.758 I0.071 J0.132
X60.698 Y29.868 Z-6.884 I-0.071 J-0.132
X60.84 Y30.132 Z-7.01 I0.071 J0.132
X60.698 Y29.868 Z-7.136 I-0.071 J-0.132
X60.84 Y30.132 Z-7.263 I0.071 J0.132
X60.698 Y29.868 Z-7.389 I-0.071 J-0.132
X60.884 Y30.097 Z-7.5 I0.071 J0.132
X60.654 Y29.903 I-0.115 J-0.097 F1000
X60.884 Y30.097 I0.115 J0.097
X60.654 Y29.903 Z-7.626 I-0.115 J-0.097 F700
X60.884 Y30.097 Z-7.753 I0.115 J0.097
X60.654 Y29.903 Z-7.879 I-0.115 J-0.097
X60.884 Y30.097 Z-8.005 I0.115 J0.097
X60.654 Y29.903 Z-8.131 I-0.115 J-0.097
X60.884 Y30.097 Z-8.258 I0.115 J0.097
X60.654 Y29.903 Z-8.384 I-0.115 J-0.097
X60.884 Y30.097 Z-8.51 I0.115 J0.097
X60.654 Y29.903 Z-8.636 I-0.115 J-0.097
X60.884 Y30.097 Z-8.763 I0.115 J0.097
X60.654 Y29.903 Z-8.889 I-0.115 J-0.097
X60.912 Y30.047 Z-9 I0.115 J0.097
X60.627 Y29.953 I-0.142 J-0.047 F1000
X60.912 Y30.047 I0.142 J0.047
X60.627 Y29.953 Z-9.126 I-0.142 J-0.047 F700
X60.912 Y30.047 Z-9.253 I0.142 J0.047
X60.627 Y29.953 Z-9.379 I-0.142 J-0.047
X60.912 Y30.047 Z-9.505 I0.142 J0.047
X60.627 Y29.953 Z-9.631 I-0.142 J-0.047
X60.912 Y30.047 Z-9.758 I0.142 J0.047
X60.627 Y29.953 Z-9.884 I-0.142 J-0.047
X60.912 Y30.047 Z-10.01 I0.142 J0.047
X60.627 Y29.953 Z-10.136 I-0.142 J-0.047
X60.912 Y30.047 Z-10.263 I0.142 J0.047
X60.627 Y29.953 Z-10.389 I-0.142 J-0.047
X60.919 Y29.991 Z-10.5 I0.142 J0.047
X60.619 Y30.009 I-0.15 J0.009 F1000
X60.919 Y29.991 I0.15 J-0.009
X60.619 Y30.009 Z-10.626 I-0.15 J0.009 F700
X60.919 Y29.991 Z-10.753 I0.15 J-0.009
X60.619 Y30.009 Z-10.879 I-0.15 J0.009
X60.919 Y29.991 Z-11.005 I0.15 J-0.009
X60.619 Y30.009 Z-11.131 I-0.15 J0.009
X60.919 Y29.991 Z-11.258 I0.15 J-0.009
X60.619 Y30.009 Z-11.384 I-0.15 J0.009
X60.919 Y29.991 Z-11.51 I0.15 J-0.009
X60.619 Y30.009 Z-11.636 I-0.15 J0.009
X60.919 Y29.991 Z-11.763 I0.15 J-0.009
X60.619 Y30.009 Z-11.889 I-0.15 J0.009
X60.905 Y29.937 Z-12 I0.15 J-0.009
X60.633 Y30.063 I-0.136 J0.063 F1000
X60.905 Y29.937 I0.136 J-0.063
X60.633 Y30.063 Z-12.126 I-0.136 J0.063 F700
X60.905 Y29.937 Z-12.253 I0.136 J-0.063
X60.633 Y30.063 Z-12.379 I-0.136 J0.063
X60.905 Y29.937 Z-12.505 I0.136 J-0.063
X60.633 Y30.063 Z-12.631 I-0.136 J0.063
X60.905 Y29.937 Z-12.758 I0.136 J-0.063
X60.633 Y30.063 Z-12.884 I-0.136 J0.063
X60.905 Y29.937 Z-13.01 I0.136 J-0.063
X60.633 Y30.063 Z-13.136 I-0.136 J0.063
X60.905 Y29.937 Z-13.263 I0.136 J-0.063
X60.633 Y30.063 Z-13.389 I-0.136 J0.063
X60.872 Y29.891 Z-13.5 I0.136 J-0.063
X60.666 Y30.109 I-0.103 J0.109 F1000
X60.872 Y29.891 I0.103 J-0.109
X60.666 Y30.109 Z-13.626 I-0.103 J0.109 F700
X60.872 Y29.891 Z-13.753 I0.103 J-0.109
X60.666 Y30.109 Z-13.879 I-0.103 J0.109
X60.858 Y29.879 Z-14 I0.103 J-0.109
X60.681 Y30.121 I-0.088 J0.121 F1000
X60.858 Y29.879 I0.088 J-0.121
G0 Z8
X69.141 Y29.88
Z3
G1 Z2.5 F700
Z-1.5
G3 X69.321 Y30.12 I0.09 J0.12 F1000
X69.141 Y29.88 I-0.09 J-0.12
X69.321 Y30.12 Z-1.626 I0.09 J0.12 F700
X69.141 Y29.88 Z-1.753 I-0.09 J-0.12
X69.321 Y30.12 Z-1.879 I0.09 J0.12
X69.141 Y29.88 Z-2.005 I-0.09 J-0.12
X69.321 Y30.12 Z-2.131 I0.09 J0.12
X69.141 Y29.88 Z-2.258 I-0.09 J-0.12
X69.321 Y30.12 Z-2.384 I0.09 J0.12
X69.141 Y29.88 Z-2.51 I-0.09 J-0.12
X69.321 Y30.12 Z-2.636 I0.09 J0.12
X69.141 Y29.88 Z-2.763 I-0.09 J-0.12
X69.321 Y30.12 Z-2.889 I0.09 J0.12
X69.103 Y29.922 Z-3 I-0.09 J-0.12
X69.359 Y30.078 I0.128 J0.078 F1000
X69.103 Y29.922 I-0.128 J-0.078
X69.359 Y30.078 Z-3.126 I0.128 J0.078 F700
X69.103 Y29.922 Z-3.253 I-0.128 J-0.078
X69.359 Y30.078 Z-3.379 I0.128 J0.078
X69.103 Y29.922 Z-3.505 I-0.128 J-0.078
X69.359 Y30.078 Z-3.631 I0.128 J0.078
X69.103 Y29.922 Z-3.758 I-0.128 J-0.078
X69.359 Y30.078 Z-3.884 I0.128 J0.078
X69.103 Y29.922 Z-4.01 I-0.128 J-0.078
X69.359 Y30.078 Z-4.136 I0.128 J0.078
X69.103 Y29.922 Z-4.263 I-0.128 J-0.078
X69.359 Y30.078 Z-4.389 I0.128 J0.078
X69.083 Y29.975 Z-4.5 I-0.128 J-0.078
X69.379 Y30.025 I0.148 J0.025 F1000
X69.083 Y29.975 I-0.148 J-0.025
X69.379 Y30.025 Z-4.626 I0.148 J0.025 F700
X69.083 Y29.975 Z-4.753 I-0.148 J-0.025
X69.379 Y30.025 Z-4.879 I0.148 J0.025
X69.083 Y29.975 Z-5.005 I-0.148 J-0.025
X69.379 Y30.025 Z-5.131 I0.148 J0.025
X69.083 Y29.975 Z-5.258 I-0.148 J-0.025
X69.379 Y30.025 Z-5.384 I0.148 J0.025
X69.083 Y29.975 Z-5.51 I-0.148 J-0.025
X69.379 Y30.025 Z-5.636 I0.148 J0.025
X69.083 Y29.975 Z-5.763 I-0.148 J-0.025
X69.379 Y30.025 Z-5.889 I0.148 J0.025
X69.084 Y30.031 Z-6 I-0.148 J-0.025
X69.378 Y29.969 I0.147 J-0.031 F1000
X69.084 Y30.031 I-0.147 J0.031
X69.378 Y29.969 Z-6.126 I0.147 J-0.031 F700
X69.084 Y30.031 Z-6.253 I-0.147 J0.031
X69.378 Y29.969 Z-6.379 I0.147 J-0.031
X69.084 Y30.031 Z-6.505 I-0.147 J0.031
X69.378 Y29.969 Z-6.631 I0.147 J-0.031
X69.084 Y30.031 Z-6.758 I-0.147 J0.031
X69.378 Y29.969 Z-6.884 I0.147 J-0.031
X69.084 Y30.031 Z-7.01 I-0.147 J0.031
X69.378 Y29.969 Z-7.136 I0.147 J-0.031
X69.084 Y30.031 Z-7.263 I-0.147 J0.031
X69.378 Y29.969 Z-7.389 I0.147 J-0.031
X69.106 Y30.083 Z-7.5 I-0.147 J0.031
X69.356 Y29.917 I0.125 J-0.083 F1000
X69.106 Y30.083 I-0.125 J0.083
X69.356 Y29.917 Z-7.626 I0.125 J-0.083 F700
X69.106 Y30.083 Z-7.753 I-0.125 J0.083
X69.356 Y29.917 Z-7.879 I0.125 J-0.083
X69.106 Y30.083 Z-8.005 I-0.125 J0.083
X69.356 Y29.917 Z-8.131 I0.125 J-0.083
X69.106 Y30.083 Z-8.258 I-0.125 J0.083
X69.356 Y29.917 Z-8.384 I0.125 J-0.083
X69.106 Y30.083 Z-8.51 I-0.125 J0.083
X69.356 Y29.917 Z-8.636 I0.125 J-0.083
X69.106 Y30.083 Z-8.763 I-0.125 J0.083
X69.356 Y29.917 Z-8.889 I0.125 J-0.083
X69.145 Y30.123 Z-9 I-0.125 J0.083
X69.316 Y29.877 I0.085 J-0.123 F1000
X69.145 Y30.123 I-0.085 J0.123
G1 X69.141 Y30.12 Z-9.002 F700
G3 X69.321 Y29.88 Z-9.128 I0.09 J-0.12
X69.141 Y30.12 Z-9.254 I-0.09 J0.12
X69.321 Y29.88 Z-9.38 I0.09 J-0.12
X69.141 Y30.12 Z-9.507 I-0.09 J0.12
X69.321 Y29.88 Z-9.633 I0.09 J-0.12
X69.141 Y30.12 Z-9.759 I-0.09 J0.12
X69.321 Y29.88 Z-9.885 I0.09 J-0.12
X69.141 Y30.12 Z-10.012 I-0.09 J0.12
X69.321 Y29.88 Z-10.138 I0.09 J-0.12
X69.141 Y30.12 Z-10.264 I-0.09 J0.12
X69.321 Y29.88 Z-10.39 I0.09 J-0.12
X69.197 Y30.146 Z-10.5 I-0.09 J0.12
X69.264 Y29.854 I0.034 J-0.146 F1000
X69.197 Y30.146 I-0.034 J0.146
X69.264 Y29.854 Z-10.626 I0.034 J-0.146 F700
X69.197 Y30.146 Z-10.753 I-0.034 J0.146
X69.264 Y29.854 Z-10.879 I0.034 J-0.146
X69.197 Y30.146 Z-11.005 I-0.034 J0.146
X69.264 Y29.854 Z-11.131 I0.034 J-0.146
X69.197 Y30.146 Z-11.258 I-0.034 J0.146
X69.264 Y29.854 Z-11.384 I0.034 J-0.146
X69.197 Y30.146 Z-11.51 I-0.034 J0.146
X69.264 Y29.854 Z-11.636 I0.034 J-0.146
X69.197 Y30.146 Z-11.763 I-0.034 J0.146
X69.264 Y29.854 Z-11.889 I0.034 J-0.146
X69.254 Y30.148 Z-12 I-0.034 J0.146
X69.208 Y29.852 I-0.023 J-0.148 F1000
X69.254 Y30.148 I0.023 J0.148
X69.208 Y29.852 Z-12.126 I-0.023 J-0.148 F700
X69.254 Y30.148 Z-12.253 I0.023 J0.148
X69.208 Y29.852 Z-12.379 I-0.023 J-0.148
X69.254 Y30.148 Z-12.505 I0.023 J0.148
X69.208 Y29.852 Z-12.631 I-0.023 J-0.148
X69.254 Y30.148 Z-12.758 I0.023 J0.148
X69.208 Y29.852 Z-12.884 I-0.023 J-0.148
X69.254 Y30.148 Z-13.01 I0.023 J0.148
X69.208 Y29.852 Z-13.136 I-0.023 J-0.148
X69.254 Y30.148 Z-13.263 I0.023 J0.148
X69.208 Y29.852 Z-13.389 I-0.023 J-0.148
X69.307 Y30.129 Z-13.5 I0.023 J0.148
X69.155 Y29.871 I-0.076 J-0.129 F1000
X69.307 Y30.129 I0.076 J0.129
X69.155 Y29.871 Z-13.626 I-0.076 J-0.129 F700
X69.307 Y30.129 Z-13.753 I0.076 J0.129
X69.155 Y29.871 Z-13.879 I-0.076 J-0.129
X69.322 Y30.119 Z-14 I0.076 J0.129
X69.139 Y29.881 I-0.092 J-0.119 F1000
X69.322 Y30.119 I0.092 J0.119
G0 Z8
X60.679 Y40.12
Z3
G1 Z2.5 F700
Z-1.5
G3 X60.859 Y39.88 I0.09 J-0.12 F1000
X60.679 Y40.12 I-0.09 J0.12
X60.859 Y39.88 Z-1.626 I0.09 J-0.12 F700
X60.679 Y40.12 Z-1.753 I-0.09 J0.12
X60.859 Y39.88 Z-1.879 I0.09 J-0.12
X60.679 Y40.12 Z-2.005 I-0.09 J0.12
X60.859 Y39.88 Z-2.131 I0.09 J-0.12
X60.679 Y40.12 Z-2.258 I-0.09 J0.12
X60.859 Y39.88 Z-2.384 I0.09 J-0.12
X60.679 Y40.12 Z-2.51 I-0.09 J0.12
X60.859 Y39.88 Z-2.636 I0.09 J-0.12
X60.679 Y40.12 Z-2.763 I-0.09 J0.12
X60.859 Y39.88 Z-2.889 I0.09 J-0.12
X60.73 Y40.145 Z-3 I-0.09 J0.12
X60.808 Y39.855 I0.039 J-0.145 F1000
X60.73 Y40.145 I-0.039 J0.145
X60.808 Y39.855 Z-3.126 I0.039 J-0.145 F700
X60.73 Y40.145 Z-3.253 I-0.039 J0.145
X60.808 Y39.855 Z-3.379 I0.039 J-0.145
X60.73 Y40.145 Z-3.505 I-0.039 J0.145
X60.808 Y39.855 Z-3.631 I0.039 J-0.145
X60.73 Y40.145 Z-3.758 I-0.039 J0.145
X60.808 Y39.855 Z-3.884 I0.039 J-0.145
X60.73 Y40.145 Z-4.01 I-0.039 J0.145
X60.808 Y39.855 Z-4.136 I0.039 J-0.145
X60.73 Y40.145 Z-4.263 I-0.039 J0.145
X60.808 Y39.855 Z-4.389 I0.039 J-0.145
X60.786 Y40.149 Z-4.5 I-0.039 J0.145
X60.752 Y39.851 I-0.017 J-0.149 F1000
X60.786 Y40.149 I0.017 J0.149
X60.752 Y39.851 Z-4.626 I-0.017 J-0.149 F700
X60.786 Y40.149 Z-4.753 I0.017 J0.149
X60.752 Y39.851 Z-4.879 I-0.017 J-0.149
X60.786 Y40.149 Z-5.005 I0.017 J0.149
X60.752 Y39.851 Z-5.131 I-0.017 J-0.149
X60.786 Y40.149 Z-5.258 I0.017 J0.149
X60.752 Y39.851 Z-5.384 I-0.017 J-0.149
X60.786 Y40.149 Z-5.51 I0.017 J0.149
X60.752 Y39.851 Z-5.636 I-0.017 J-0.149
X60.786 Y40.149 Z-5.763 I0.017 J0.149
X60.752 Y39.851 Z-5.889 I-0.017 J-0.149
X60.84 Y40.132 Z-6 I0.017 J0.149
X60.698 Y39.868 I-0.071 J-0.132 F1000
X60.84 Y40.132 I0.071 J0.132
X60.698 Y39.868 Z-6.126 I-0.071 J-0.132 F700
X60.84 Y40.132 Z-6.253 I0.071 J0.132
X60.698 Y39.868 Z-6.379 I-0.071 J-0.132
X60.84 Y40.132 Z-6.505 I0.071 J0.132
X60.698 Y39.868 Z-6.631 I-0.071 J-0.132
X60.84 Y40.132 Z-6.758 I0.071 J0.132
X60.698 Y39.868 Z-6.884 I-0.071 J-0.132
X60.84 Y40.132 Z-7.01 I0.071 J0.132
X60.698 Y39.868 Z-7.136 I-0.071 J-0.132
X60.84 Y40.132 Z-7.263 I0.071 J0.132
X60.698 Y39.868 Z-7.389 I-0.071 J-0.132
X60.884 Y40.097 Z-7.5 I0.071 J0.132
X60.654 Y39.903 I-0.115 J-0.097 F1000
X60.884 Y40.097 I0.115 J0.097
X60.654 Y39.903 Z-7.626 I-0.115 J-0.097 F700
X60.884 Y40.097 Z-7.753 I0.115 J0.097
X60.654 Y39.903 Z-7.879 I-0.115 J-0.097
X60.884 Y40.097 Z-8.005 I0.115 J0.097
X60.654 Y39.903 Z-8.131 I-0.115 J-0.097
X60.884 Y40.097 Z-8.258 I0.115 J0.097
X60.654 Y39.903 Z-8.384 I-0.115 J-0.097
X60.884 Y40.097 Z-8.51 I0.115 J0.097
X60.654 Y39.903 Z-8.636 I-0.115 J-0.097
X60.884 Y40.097 Z-8.763 I0.115 J0.097
X60.654 Y39.903 Z-8.889 I-0.115 J-0.097
X60.912 Y40.047 Z-9 I0.115 J0.097
X60.627 Y39.953 I-0.142 J-0.047 F1000
X60.912 Y40.047 I0.142 J0.047
X60.627 Y39.953 Z-9.126 I-0.142 J-0.047 F700
X60.912 Y40.047 Z-9.253 I0.142 J0.047
X60.627 Y39.953 Z-9.379 I-0.142 J-0.047
X60.912 Y40.047 Z-9.505 I0.142 J0.047
X60.627 Y39.953 Z-9.631 I-0.142 J-0.047
X60.912 Y40.047 Z-9.758 I0.142 J0.047
X60.627 Y39.953 Z-9.884 I-0.142 J-0.047
X60.912 Y40.047 Z-10.01 I0.142 J0.047
X60.627 Y39.953 Z-10.136 I-0.142 J-0.047
X60.912 Y40.047 Z-10.263 I0.142 J0.047
X60.627 Y39.953 Z-10.389 I-0.142 J-0.047
X60.919 Y39.991 Z-10.5 I0.142 J0.047
X60.619 Y40.009 I-0.15 J0.009 F1000
X60.919 Y39.991 I0.15 J-0.009
X60.619 Y40.009 Z-10.626 I-0.15 J0.009 F700
X60.919 Y39.991 Z-10.753 I0.15 J-0.009
X60.619 Y40.009 Z-10.879 I-0.15 J0.009
X60.919 Y39.991 Z-11.005 I0.15 J-0.009
X60.619 Y40.009 Z-11.131 I-0.15 J0.009
X60.919 Y39.991 Z-11.258 I0.15 J-0.009
X60.619 Y40.009 Z-11.384 I-0.15 J0.009
X60.919 Y39.991 Z-11.51 I0.15 J-0.009
X60.619 Y40.009 Z-11.636 I-0.15 J0.009
X60.919 Y39.991 Z-11.763 I0.15 J-0.009
X60.619 Y40.009 Z-11.889 I-0.15 J0.009
X60.905 Y39.937 Z-12 I0.15 J-0.009
X60.633 Y40.063 I-0.136 J0.063 F1000
X60.905 Y39.937 I0.136 J-0.063
X60.633 Y40.063 Z-12.126 I-0.136 J0.063 F700
X60.905 Y39.937 Z-12.253 I0.136 J-0.063
X60.633 Y40.063 Z-12.379 I-0.136 J0.063
X60.905 Y39.937 Z-12.505 I0.136 J-0.063
X60.633 Y40.063 Z-12.631 I-0.136 J0.063
X60.905 Y39.937 Z-12.758 I0.136 J-0.063
X60.633 Y40.063 Z-12.884 I-0.136 J0.063
X60.905 Y39.937 Z-13.01 I0.136 J-0.063
X60.633 Y40.063 Z-13.136 I-0.136 J0.063
X60.905 Y39.937 Z-13.263 I0.136 J-0.063
X60.633 Y40.063 Z-13.389 I-0.136 J0.063
X60.872 Y39.891 Z-13.5 I0.136 J-0.063
X60.666 Y40.109 I-0.103 J0.109 F1000
X60.872 Y39.891 I0.103 J-0.109
X60.666 Y40.109 Z-13.626 I-0.103 J0.109 F700
X60.872 Y39.891 Z-13.753 I0.103 J-0.109
X60.666 Y40.109 Z-13.879 I-0.103 J0.109
X60.858 Y39.879 Z-14 I0.103 J-0.109
X60.681 Y40.121 I-0.088 J0.121 F1000
X60.858 Y39.879 I0.088 J-0.121
G0 Z8
X69.141 Y39.88
Z3
G1 Z2.5 F700
Z-1.5
G3 X69.321 Y40.12 I0.09 J0.12 F1000
X69.141 Y39.88 I-0.09 J-0.12
X69.321 Y40.12 Z-1.626 I0.09 J0.12 F700
X69.141 Y39.88 Z-1.753 I-0.09 J-0.12
X69.321 Y40.12 Z-1.879 I0.09 J0.12
X69.141 Y39.88 Z-2.005 I-0.09 J-0.12
X69.321 Y40.12 Z-2.131 I0.09 J0.12
X69.141 Y39.88 Z-2.258 I-0.09 J-0.12
X69.321 Y40.12 Z-2.384 I0.09 J0.12
X69.141 Y39.88 Z-2.51 I-0.09 J-0.12
X69.321 Y40.12 Z-2.636 I0.09 J0.12
X69.141 Y39.88 Z-2.763 I-0.09 J-0.12
X69.321 Y40.12 Z-2.889 I0.09 J0.12
X69.103 Y39.922 Z-3 I-0.09 J-0.12
X69.359 Y40.078 I0.128 J0.078 F1000
X69.103 Y39.922 I-0.128 J-0.078
X69.359 Y40.078 Z-3.126 I0.128 J0.078 F700
X69.103 Y39.922 Z-3.253 I-0.128 J-0.078
X69.359 Y40.078 Z-3.379 I0.128 J0.078
X69.103 Y39.922 Z-3.505 I-0.128 J-0.078
X69.359 Y40.078 Z-3.631 I0.128 J0.078
X69.103 Y39.922 Z-3.758 I-0.128 J-0.078
X69.359 Y40.078 Z-3.884 I0.128 J0.078
X69.103 Y39.922 Z-4.01 I-0.128 J-0.078
X69.359 Y40.078 Z-4.136 I0.128 J0.078
X69.103 Y39.922 Z-4.263 I-0.128 J-0.078
X69.359 Y40.078 Z-4.389 I0.128 J0.078
X69.083 Y39.975 Z-4.5 I-0.128 J-0.078
X69.379 Y40.025 I0.148 J0.025 F1000
X69.083 Y39.975 I-0.148 J-0.025
X69.379 Y40.025 Z-4.626 I0.148 J0.025 F700
X69.083 Y39.975 Z-4.753 I-0.148 J-0.025
X69.379 Y40.025 Z-4.879 I0.148 J0.025
X69.083 Y39.975 Z-5.005 I-0.148 J-0.025
X69.379 Y40.025 Z-5.131 I0.148 J0.025
X69.083 Y39.975 Z-5.258 I-0.148 J-0.025
X69.379 Y40.025 Z-5.384 I0.148 J0.025
X69.083 Y39.975 Z-5.51 I-0.148 J-0.025
X69.379 Y40.025 Z-5.636 I0.148 J0.025
X69.083 Y39.975 Z-5.763 I-0.148 J-0.025
X69.379 Y40.025 Z-5.889 I0.148 J0.025
X69.084 Y40.031 Z-6 I-0.148 J-0.025
X69.378 Y39.969 I0.147 J-0.031 F1000
X69.084 Y40.031 I-0.147 J0.031
X69.378 Y39.969 Z-6.126 I0.147 J-0.031 F700
X69.084 Y40.031 Z-6.253 I-0.147 J0.031
X69.378 Y39.969 Z-6.379 I0.147 J-0.031
X69.084 Y40.031 Z-6.505 I-0.147 J0.031
X69.378 Y39.969 Z-6.631 I0.147 J-0.031
X69.084 Y40.031 Z-6.758 I-0.147 J0.031
X69.378 Y39.969 Z-6.884 I0.147 J-0.031
X69.084 Y40.031 Z-7.01 I-0.147 J0.031
X69.378 Y39.969 Z-7.136 I0.147 J-0.031
X69.084 Y40.031 Z-7.263 I-0.147 J0.031
X69.378 Y39.969 Z-7.389 I0.147 J-0.031
X69.106 Y40.083 Z-7.5 I-0.147 J0.031
X69.356 Y39.917 I0.125 J-0.083 F1000
X69.106 Y40.083 I-0.125 J0.083
X69.356 Y39.917 Z-7.626 I0.125 J-0.083 F700
X69.106 Y40.083 Z-7.753 I-0.125 J0.083
X69.356 Y39.917 Z-7.879 I0.125 J-0.083
X69.106 Y40.083 Z-8.005 I-0.125 J0.083
X69.356 Y39.917 Z-8.131 I0.125 J-0.083
X69.106 Y40.083 Z-8.258 I-0.125 J0.083
X69.356 Y39.917 Z-8.384 I0.125 J-0.083
X69.106 Y40.083 Z-8.51 I-0.125 J0.083
X69.356 Y39.917 Z-8.636 I0.125 J-0.083
X69.106 Y40.083 Z-8.763 I-0.125 J0.083
X69.356 Y39.917 Z-8.889 I0.125 J-0.083
X69.145 Y40.123 Z-9 I-0.125 J0.083
X69.316 Y39.877 I0.085 J-0.123 F1000
X69.145 Y40.123 I-0.085 J0.123
G1 X69.141 Y40.12 Z-9.002 F700
G3 X69.321 Y39.88 Z-9.128 I0.09 J-0.12
X69.141 Y40.12 Z-9.254 I-0.09 J0.12
X69.321 Y39.88 Z-9.38 I0.09 J-0.12
X69.141 Y40.12 Z-9.507 I-0.09 J0.12
X69.321 Y39.88 Z-9.633 I0.09 J-0.12
X69.141 Y40.12 Z-9.759 I-0.09 J0.12
X69.321 Y39.88 Z-9.885 I0.09 J-0.12
X69.141 Y40.12 Z-10.012 I-0.09 J0.12
X69.321 Y39.88 Z-10.138 I0.09 J-0.12
X69.141 Y40.12 Z-10.264 I-0.09 J0.12
X69.321 Y39.88 Z-10.39 I0.09 J-0.12
X69.197 Y40.146 Z-10.5 I-0.09 J0.12
X69.264 Y39.854 I0.034 J-0.146 F1000
X69.197 Y40.146 I-0.034 J0.146
X69.264 Y39.854 Z-10.626 I0.034 J-0.146 F700
X69.197 Y40.146 Z-10.753 I-0.034 J0.146
X69.264 Y39.854 Z-10.879 I0.034 J-0.146
X69.197 Y40.146 Z-11.005 I-0.034 J0.146
X69.264 Y39.854 Z-11.131 I0.034 J-0.146
X69.197 Y40.146 Z-11.258 I-0.034 J0.146
X69.264 Y39.854 Z-11.384 I0.034 J-0.146
X69.197 Y40.146 Z-11.51 I-0.034 J0.146
X69.264 Y39.854 Z-11.636 I0.034 J-0.146
X69.197 Y40.146 Z-11.763 I-0.034 J0.146
X69.264 Y39.854 Z-11.889 I0.034 J-0.146
X69.254 Y40.148 Z-12 I-0.034 J0.146
X69.208 Y39.852 I-0.023 J-0.148 F1000
X69.254 Y40.148 I0.023 J0.148
X69.208 Y39.852 Z-12.126 I-0.023 J-0.148 F700
X69.254 Y40.148 Z-12.253 I0.023 J0.148
X69.208 Y39.852 Z-12.379 I-0.023 J-0.148
X69.254 Y40.148 Z-12.505 I0.023 J0.148
X69.208 Y39.852 Z-12.631 I-0.023 J-0.148
X69.254 Y40.148 Z-12.758 I0.023 J0.148
X69.208 Y39.852 Z-12.884 I-0.023 J-0.148
X69.254 Y40.148 Z-13.01 I0.023 J0.148
X69.208 Y39.852 Z-13.136 I-0.023 J-0.148
X69.254 Y40.148 Z-13.263 I0.023 J0.148
X69.208 Y39.852 Z-13.389 I-0.023 J-0.148
X69.307 Y40.129 Z-13.5 I0.023 J0.148
X69.155 Y39.871 I-0.076 J-0.129 F1000
X69.307 Y40.129 I0.076 J0.129
X69.155 Y39.871 Z-13.626 I-0.076 J-0.129 F700
X69.307 Y40.129 Z-13.753 I0.076 J0.129
X69.155 Y39.871 Z-13.879 I-0.076 J-0.129
X69.322 Y40.119 Z-14 I0.076 J0.129
X69.139 Y39.881 I-0.092 J-0.119 F1000
X69.322 Y40.119 I0.092 J0.119
G0 Z8
X77.602 Y39.88
Z3
G1 Z2.5 F700
Z-1.5
G3 X77.782 Y40.12 I0.09 J0.12 F1000
X77.602 Y39.88 I-0.09 J-0.12
X77.782 Y40.12 Z-1.626 I0.09 J0.12 F700
X77.602 Y39.88 Z-1.753 I-0.09 J-0.12
X77.782 Y40.12 Z-1.879 I0.09 J0.12
X77.602 Y39.88 Z-2.005 I-0.09 J-0.12
X77.782 Y40.12 Z-2.131 I0.09 J0.12
X77.602 Y39.88 Z-2.258 I-0.09 J-0.12
X77.782 Y40.12 Z-2.384 I0.09 J0.12
X77.602 Y39.88 Z-2.51 I-0.09 J-0.12
X77.782 Y40.12 Z-2.636 I0.09 J0.12
X77.602 Y39.88 Z-2.763 I-0.09 J-0.12
X77.782 Y40.12 Z-2.889 I0.09 J0.12
X77.564 Y39.922 Z-3 I-0.09 J-0.12
X77.82 Y40.078 I0.128 J0.078 F1000
X77.564 Y39.922 I-0.128 J-0.078
X77.82 Y40.078 Z-3.126 I0.128 J0.078 F700
X77.564 Y39.922 Z-3.253 I-0.128 J-0.078
X77.82 Y40.078 Z-3.379 I0.128 J0.078
X77.564 Y39.922 Z-3.505 I-0.128 J-0.078
X77.82 Y40.078 Z-3.631 I0.128 J0.078
X77.564 Y39.922 Z-3.758 I-0.128 J-0.078
X77.82 Y40.078 Z-3.884 I0.128 J0.078
X77.564 Y39.922 Z-4.01 I-0.128 J-0.078
X77.82 Y40.078 Z-4.136 I0.128 J0.078
X77.564 Y39.922 Z-4.263 I-0.128 J-0.078
X77.82 Y40.078 Z-4.389 I0.128 J0.078
X77.544 Y39.975 Z-4.5 I-0.128 J-0.078
X77.84 Y40.025 I0.148 J0.025 F1000
X77.544 Y39.975 I-0.148 J-0.025
X77.84 Y40.025 Z-4.626 I0.148 J0.025 F700
X77.544 Y39.975 Z-4.753 I-0.148 J-0.025
X77.84 Y40.025 Z-4.879 I0.148 J0.025
X77.544 Y39.975 Z-5.005 I-0.148 J-0.025
X77.84 Y40.025 Z-5.131 I0.148 J0.025
X77.544 Y39.975 Z-5.258 I-0.148 J-0.025
X77.84 Y40.025 Z-5.384 I0.148 J0.025
X77.544 Y39.975 Z-5.51 I-0.148 J-0.025
X77.84 Y40.025 Z-5.636 I0.148 J0.025
X77.544 Y39.975 Z-5.763 I-0.148 J-0.025
X77.84 Y40.025 Z-5.889 I0.148 J0.025
X77.546 Y40.031 Z-6 I-0.148 J-0.025
X77.839 Y39.969 I0.147 J-0.031 F1000
X77.546 Y40.031 I-0.147 J0.031
X77.839 Y39.969 Z-6.126 I0.147 J-0.031 F700
X77.546 Y40.031 Z-6.253 I-0.147 J0.031
X77.839 Y39.969 Z-6.379 I0.147 J-0.031
X77.546 Y40.031 Z-6.505 I-0.147 J0.031
X77.839 Y39.969 Z-6.631 I0.147 J-0.031
X77.546 Y40.031 Z-6.758 I-0.147 J0.031
X77.839 Y39.969 Z-6.884 I0.147 J-0.031
X77.546 Y40.031 Z-7.01 I-0.147 J0.031
X77.839 Y39.969 Z-7.136 I0.147 J-0.031
X77.546 Y40.031 Z-7.263 I-0.147 J0.031
X77.839 Y39.969 Z-7.389 I0.147 J-0.031
X77.567 Y40.083 Z-7.5 I-0.147 J0.031
X77.817 Y39.917 I0.125 J-0.083 F1000
X77.567 Y40.083 I-0.125 J0.083
X77.817 Y39.917 Z-7.626 I0.125 J-0.083 F700
X77.567 Y40.083 Z-7.753 I-0.125 J0.083
X77.817 Y39.917 Z-7.879 I0.125 J-0.083
X77.567 Y40.083 Z-8.005 I-0.125 J0.083
X77.817 Y39.917 Z-8.131 I0.125 J-0.083
X77.567 Y40.083 Z-8.258 I-0.125 J0.083
X77.817 Y39.917 Z-8.384 I0.125 J-0.083
X77.567 Y40.083 Z-8.51 I-0.125 J0.083
X77.817 Y39.917 Z-8.636 I0.125 J-0.083
X77.567 Y40.083 Z-8.763 I-0.125 J0.083
X77.817 Y39.917 Z-8.889 I0.125 J-0.083
X77.607 Y40.123 Z-9 I-0.125 J0.083
X77.778 Y39.877 I0.085 J-0.123 F1000
X77.607 Y40.123 I-0.085 J0.123
G1 X77.602 Y40.12 Z-9.002 F700
G3 X77.782 Y39.88 Z-9.128 I0.09 J-0.12
X77.602 Y40.12 Z-9.254 I-0.09 J0.12
X77.782 Y39.88 Z-9.38 I0.09 J-0.12
X77.602 Y40.12 Z-9.507 I-0.09 J0.12
X77.782 Y39.88 Z-9.633 I0.09 J-0.12
X77.602 Y40.12 Z-9.759 I-0.09 J0.12
X77.782 Y39.88 Z-9.885 I0.09 J-0.12
X77.602 Y40.12 Z-10.012 I-0.09 J0.12
X77.782 Y39.88 Z-10.138 I0.09 J-0.12
X77.602 Y40.12 Z-10.264 I-0.09 J0.12
X77.782 Y39.88 Z-10.39 I0.09 J-0.12
X77.659 Y40.146 Z-10.5 I-0.09 J0.12
X77.726 Y39.854 I0.034 J-0.146 F1000
X77.659 Y40.146 I-0.034 J0.146
X77.726 Y39.854 Z-10.626 I0.034 J-0.146 F700
X77.659 Y40.146 Z-10.753 I-0.034 J0.146
X77.726 Y39.854 Z-10.879 I0.034 J-0.146
X77.659 Y40.146 Z-11.005 I-0.034 J0.146
X77.726 Y39.854 Z-11.131 I0.034 J-0.146
X77.659 Y40.146 Z-11.258 I-0.034 J0.146
X77.726 Y39.854 Z-11.384 I0.034 J-0.146
X77.659 Y40.146 Z-11.51 I-0.034 J0.146
X77.726 Y39.854 Z-11.636 I0.034 J-0.146
X77.659 Y40.146 Z-11.763 I-0.034 J0.146
X77.726 Y39.854 Z-11.889 I0.034 J-0.146
X77.715 Y40.148 Z-12 I-0.034 J0.146
X77.67 Y39.852 I-0.023 J-0.148 F1000
X77.715 Y40.148 I0.023 J0.148
X77.67 Y39.852 Z-12.126 I-0.023 J-0.148 F700
X77.715 Y40.148 Z-12.253 I0.023 J0.148
X77.67 Y39.852 Z-12.379 I-0.023 J-0.148
X77.715 Y40.148 Z-12.505 I0.023 J0.148
X77.67 Y39.852 Z-12.631 I-0.023 J-0.148
X77.715 Y40.148 Z-12.758 I0.023 J0.148
X77.67 Y39.852 Z-12.884 I-0.023 J-0.148
X77.715 Y40.148 Z-13.01 I0.023 J0.148
X77.67 Y39.852 Z-13.136 I-0.023 J-0.148
X77.715 Y40.148 Z-13.263 I0.023 J0.148
X77.67 Y39.852 Z-13.389 I-0.023 J-0.148
X77.768 Y40.129 Z-13.5 I0.023 J0.148
X77.616 Y39.871 I-0.076 J-0.129 F1000
X77.768 Y40.129 I0.076 J0.129
X77.616 Y39.871 Z-13.626 I-0.076 J-0.129 F700
X77.768 Y40.129 Z-13.753 I0.076 J0.129
X77.616 Y39.871 Z-13.879 I-0.076 J-0.129
X77.784 Y40.119 Z-14 I0.076 J0.129
X77.601 Y39.881 I-0.092 J-0.119 F1000
X77.784 Y40.119 I0.092 J0.119
G0 Z8
X77.602 Y29.88
Z3
G1 Z2.5 F700
Z-1.5
G3 X77.782 Y30.12 I0.09 J0.12 F1000
X77.602 Y29.88 I-0.09 J-0.12
X77.782 Y30.12 Z-1.626 I0.09 J0.12 F700
X77.602 Y29.88 Z-1.753 I-0.09 J-0.12
X77.782 Y30.12 Z-1.879 I0.09 J0.12
X77.602 Y29.88 Z-2.005 I-0.09 J-0.12
X77.782 Y30.12 Z-2.131 I0.09 J0.12
X77.602 Y29.88 Z-2.258 I-0.09 J-0.12
X77.782 Y30.12 Z-2.384 I0.09 J0.12
X77.602 Y29.88 Z-2.51 I-0.09 J-0.12
X77.782 Y30.12 Z-2.636 I0.09 J0.12
X77.602 Y29.88 Z-2.763 I-0.09 J-0.12
X77.782 Y30.12 Z-2.889 I0.09 J0.12
X77.564 Y29.922 Z-3 I-0.09 J-0.12
X77.82 Y30.078 I0.128 J0.078 F1000
X77.564 Y29.922 I-0.128 J-0.078
X77.82 Y30.078 Z-3.126 I0.128 J0.078 F700
X77.564 Y29.922 Z-3.253 I-0.128 J-0.078
X77.82 Y30.078 Z-3.379 I0.128 J0.078
X77.564 Y29.922 Z-3.505 I-0.128 J-0.078
X77.82 Y30.078 Z-3.631 I0.128 J0.078
X77.564 Y29.922 Z-3.758 I-0.128 J-0.078
X77.82 Y30.078 Z-3.884 I0.128 J0.078
X77.564 Y29.922 Z-4.01 I-0.128 J-0.078
X77.82 Y30.078 Z-4.136 I0.128 J0.078
X77.564 Y29.922 Z-4.263 I-0.128 J-0.078
X77.82 Y30.078 Z-4.389 I0.128 J0.078
X77.544 Y29.975 Z-4.5 I-0.128 J-0.078
X77.84 Y30.025 I0.148 J0.025 F1000
X77.544 Y29.975 I-0.148 J-0.025
X77.84 Y30.025 Z-4.626 I0.148 J0.025 F700
X77.544 Y29.975 Z-4.753 I-0.148 J-0.025
X77.84 Y30.025 Z-4.879 I0.148 J0.025
X77.544 Y29.975 Z-5.005 I-0.148 J-0.025
X77.84 Y30.025 Z-5.131 I0.148 J0.025
X77.544 Y29.975 Z-5.258 I-0.148 J-0.025
X77.84 Y30.025 Z-5.384 I0.148 J0.025
X77.544 Y29.975 Z-5.51 I-0.148 J-0.025
X77.84 Y30.025 Z-5.636 I0.148 J0.025
X77.544 Y29.975 Z-5.763 I-0.148 J-0.025
X77.84 Y30.025 Z-5.889 I0.148 J0.025
X77.546 Y30.031 Z-6 I-0.148 J-0.025
X77.839 Y29.969 I0.147 J-0.031 F1000
X77.546 Y30.031 I-0.147 J0.031
X77.839 Y29.969 Z-6.126 I0.147 J-0.031 F700
X77.546 Y30.031 Z-6.253 I-0.147 J0.031
X77.839 Y29.969 Z-6.379 I0.147 J-0.031
X77.546 Y30.031 Z-6.505 I-0.147 J0.031
X77.839 Y29.969 Z-6.631 I0.147 J-0.031
X77.546 Y30.031 Z-6.758 I-0.147 J0.031
X77.839 Y29.969 Z-6.884 I0.147 J-0.031
X77.546 Y30.031 Z-7.01 I-0.147 J0.031
X77.839 Y29.969 Z-7.136 I0.147 J-0.031
X77.546 Y30.031 Z-7.263 I-0.147 J0.031
X77.839 Y29.969 Z-7.389 I0.147 J-0.031
X77.567 Y30.083 Z-7.5 I-0.147 J0.031
X77.817 Y29.917 I0.125 J-0.083 F1000
X77.567 Y30.083 I-0.125 J0.083
X77.817 Y29.917 Z-7.626 I0.125 J-0.083 F700
X77.567 Y30.083 Z-7.753 I-0.125 J0.083
X77.817 Y29.917 Z-7.879 I0.125 J-0.083
X77.567 Y30.083 Z-8.005 I-0.125 J0.083
X77.817 Y29.917 Z-8.131 I0.125 J-0.083
X77.567 Y30.083 Z-8.258 I-0.125 J0.083
X77.817 Y29.917 Z-8.384 I0.125 J-0.083
X77.567 Y30.083 Z-8.51 I-0.125 J0.083
X77.817 Y29.917 Z-8.636 I0.125 J-0.083
X77.567 Y30.083 Z-8.763 I-0.125 J0.083
X77.817 Y29.917 Z-8.889 I0.125 J-0.083
X77.607 Y30.123 Z-9 I-0.125 J0.083
X77.778 Y29.877 I0.085 J-0.123 F1000
X77.607 Y30.123 I-0.085 J0.123
G1 X77.602 Y30.12 Z-9.002 F700
G3 X77.782 Y29.88 Z-9.128 I0.09 J-0.12
X77.602 Y30.12 Z-9.254 I-0.09 J0.12
X77.782 Y29.88 Z-9.38 I0.09 J-0.12
X77.602 Y30.12 Z-9.507 I-0.09 J0.12
X77.782 Y29.88 Z-9.633 I0.09 J-0.12
X77.602 Y30.12 Z-9.759 I-0.09 J0.12
X77.782 Y29.88 Z-9.885 I0.09 J-0.12
X77.602 Y30.12 Z-10.012 I-0.09 J0.12
X77.782 Y29.88 Z-10.138 I0.09 J-0.12
X77.602 Y30.12 Z-10.264 I-0.09 J0.12
X77.782 Y29.88 Z-10.39 I0.09 J-0.12
X77.659 Y30.146 Z-10.5 I-0.09 J0.12
X77.726 Y29.854 I0.034 J-0.146 F1000
X77.659 Y30.146 I-0.034 J0.146
X77.726 Y29.854 Z-10.626 I0.034 J-0.146 F700
X77.659 Y30.146 Z-10.753 I-0.034 J0.146
X77.726 Y29.854 Z-10.879 I0.034 J-0.146
X77.659 Y30.146 Z-11.005 I-0.034 J0.146
X77.726 Y29.854 Z-11.131 I0.034 J-0.146
X77.659 Y30.146 Z-11.258 I-0.034 J0.146
X77.726 Y29.854 Z-11.384 I0.034 J-0.146
X77.659 Y30.146 Z-11.51 I-0.034 J0.146
X77.726 Y29.854 Z-11.636 I0.034 J-0.146
X77.659 Y30.146 Z-11.763 I-0.034 J0.146
X77.726 Y29.854 Z-11.889 I0.034 J-0.146
X77.715 Y30.148 Z-12 I-0.034 J0.146
X77.67 Y29.852 I-0.023 J-0.148 F1000
X77.715 Y30.148 I0.023 J0.148
X77.67 Y29.852 Z-12.126 I-0.023 J-0.148 F700
X77.715 Y30.148 Z-12.253 I0.023 J0.148
X77.67 Y29.852 Z-12.379 I-0.023 J-0.148
X77.715 Y30.148 Z-12.505 I0.023 J0.148
X77.67 Y29.852 Z-12.631 I-0.023 J-0.148
X77.715 Y30.148 Z-12.758 I0.023 J0.148
X77.67 Y29.852 Z-12.884 I-0.023 J-0.148
X77.715 Y30.148 Z-13.01 I0.023 J0.148
X77.67 Y29.852 Z-13.136 I-0.023 J-0.148
X77.715 Y30.148 Z-13.263 I0.023 J0.148
X77.67 Y29.852 Z-13.389 I-0.023 J-0.148
X77.768 Y30.129 Z-13.5 I0.023 J0.148
X77.616 Y29.871 I-0.076 J-0.129 F1000
X77.768 Y30.129 I0.076 J0.129
X77.616 Y29.871 Z-13.626 I-0.076 J-0.129 F700
X77.768 Y30.129 Z-13.753 I0.076 J0.129
X77.616 Y29.871 Z-13.879 I-0.076 J-0.129
X77.784 Y30.119 Z-14 I0.076 J0.129
X77.601 Y29.881 I-0.092 J-0.119 F1000
X77.784 Y30.119 I0.092 J0.119
G0 Z8
X77.602 Y19.88
Z3
G1 Z2.5 F700
Z-1.5
G3 X77.782 Y20.12 I0.09 J0.12 F1000
X77.602 Y19.88 I-0.09 J-0.12
X77.782 Y20.12 Z-1.626 I0.09 J0.12 F700
X77.602 Y19.88 Z-1.753 I-0.09 J-0.12
X77.782 Y20.12 Z-1.879 I0.09 J0.12
X77.602 Y19.88 Z-2.005 I-0.09 J-0.12
X77.782 Y20.12 Z-2.131 I0.09 J0.12
X77.602 Y19.88 Z-2.258 I-0.09 J-0.12
X77.782 Y20.12 Z-2.384 I0.09 J0.12
X77.602 Y19.88 Z-2.51 I-0.09 J-0.12
X77.782 Y20.12 Z-2.636 I0.09 J0.12
X77.602 Y19.88 Z-2.763 I-0.09 J-0.12
X77.782 Y20.12 Z-2.889 I0.09 J0.12
X77.564 Y19.922 Z-3 I-0.09 J-0.12
X77.82 Y20.078 I0.128 J0.078 F1000
X77.564 Y19.922 I-0.128 J-0.078
X77.82 Y20.078 Z-3.126 I0.128 J0.078 F700
X77.564 Y19.922 Z-3.253 I-0.128 J-0.078
X77.82 Y20.078 Z-3.379 I0.128 J0.078
X77.564 Y19.922 Z-3.505 I-0.128 J-0.078
X77.82 Y20.078 Z-3.631 I0.128 J0.078
X77.564 Y19.922 Z-3.758 I-0.128 J-0.078
X77.82 Y20.078 Z-3.884 I0.128 J0.078
X77.564 Y19.922 Z-4.01 I-0.128 J-0.078
X77.82 Y20.078 Z-4.136 I0.128 J0.078
X77.564 Y19.922 Z-4.263 I-0.128 J-0.078
X77.82 Y20.078 Z-4.389 I0.128 J0.078
X77.544 Y19.975 Z-4.5 I-0.128 J-0.078
X77.84 Y20.025 I0.148 J0.025 F1000
X77.544 Y19.975 I-0.148 J-0.025
X77.84 Y20.025 Z-4.626 I0.148 J0.025 F700
X77.544 Y19.975 Z-4.753 I-0.148 J-0.025
X77.84 Y20.025 Z-4.879 I0.148 J0.025
X77.544 Y19.975 Z-5.005 I-0.148 J-0.025
X77.84 Y20.025 Z-5.131 I0.148 J0.025
X77.544 Y19.975 Z-5.258 I-0.148 J-0.025
X77.84 Y20.025 Z-5.384 I0.148 J0.025
X77.544 Y19.975 Z-5.51 I-0.148 J-0.025
X77.84 Y20.025 Z-5.636 I0.148 J0.025
X77.544 Y19.975 Z-5.763 I-0.148 J-0.025
X77.84 Y20.025 Z-5.889 I0.148 J0.025
X77.546 Y20.031 Z-6 I-0.148 J-0.025
X77.839 Y19.969 I0.147 J-0.031 F1000
X77.546 Y20.031 I-0.147 J0.031
X77.839 Y19.969 Z-6.126 I0.147 J-0.031 F700
X77.546 Y20.031 Z-6.253 I-0.147 J0.031
X77.839 Y19.969 Z-6.379 I0.147 J-0.031
X77.546 Y20.031 Z-6.505 I-0.147 J0.031
X77.839 Y19.969 Z-6.631 I0.147 J-0.031
X77.546 Y20.031 Z-6.758 I-0.147 J0.031
X77.839 Y19.969 Z-6.884 I0.147 J-0.031
X77.546 Y20.031 Z-7.01 I-0.147 J0.031
X77.839 Y19.969 Z-7.136 I0.147 J-0.031
X77.546 Y20.031 Z-7.263 I-0.147 J0.031
X77.839 Y19.969 Z-7.389 I0.147 J-0.031
X77.567 Y20.083 Z-7.5 I-0.147 J0.031
X77.817 Y19.917 I0.125 J-0.083 F1000
X77.567 Y20.083 I-0.125 J0.083
X77.817 Y19.917 Z-7.626 I0.125 J-0.083 F700
X77.567 Y20.083 Z-7.753 I-0.125 J0.083
X77.817 Y19.917 Z-7.879 I0.125 J-0.083
X77.567 Y20.083 Z-8.005 I-0.125 J0.083
X77.817 Y19.917 Z-8.131 I0.125 J-0.083
X77.567 Y20.083 Z-8.258 I-0.125 J0.083
X77.817 Y19.917 Z-8.384 I0.125 J-0.083
X77.567 Y20.083 Z-8.51 I-0.125 J0.083
X77.817 Y19.917 Z-8.636 I0.125 J-0.083
X77.567 Y20.083 Z-8.763 I-0.125 J0.083
X77.817 Y19.917 Z-8.889 I0.125 J-0.083
X77.607 Y20.123 Z-9 I-0.125 J0.083
X77.778 Y19.877 I0.085 J-0.123 F1000
X77.607 Y20.123 I-0.085 J0.123
G1 X77.602 Y20.12 Z-9.002 F700
G3 X77.782 Y19.88 Z-9.128 I0.09 J-0.12
X77.602 Y20.12 Z-9.254 I-0.09 J0.12
X77.782 Y19.88 Z-9.38 I0.09 J-0.12
X77.602 Y20.12 Z-9.507 I-0.09 J0.12
X77.782 Y19.88 Z-9.633 I0.09 J-0.12
X77.602 Y20.12 Z-9.759 I-0.09 J0.12
X77.782 Y19.88 Z-9.885 I0.09 J-0.12
X77.602 Y20.12 Z-10.012 I-0.09 J0.12
X77.782 Y19.88 Z-10.138 I0.09 J-0.12
X77.602 Y20.12 Z-10.264 I-0.09 J0.12
X77.782 Y19.88 Z-10.39 I0.09 J-0.12
X77.659 Y20.146 Z-10.5 I-0.09 J0.12
X77.726 Y19.854 I0.034 J-0.146 F1000
X77.659 Y20.146 I-0.034 J0.146
X77.726 Y19.854 Z-10.626 I0.034 J-0.146 F700
X77.659 Y20.146 Z-10.753 I-0.034 J0.146
X77.726 Y19.854 Z-10.879 I0.034 J-0.146
X77.659 Y20.146 Z-11.005 I-0.034 J0.146
X77.726 Y19.854 Z-11.131 I0.034 J-0.146
X77.659 Y20.146 Z-11.258 I-0.034 J0.146
X77.726 Y19.854 Z-11.384 I0.034 J-0.146
X77.659 Y20.146 Z-11.51 I-0.034 J0.146
X77.726 Y19.854 Z-11.636 I0.034 J-0.146
X77.659 Y20.146 Z-11.763 I-0.034 J0.146
X77.726 Y19.854 Z-11.889 I0.034 J-0.146
X77.715 Y20.148 Z-12 I-0.034 J0.146
X77.67 Y19.852 I-0.023 J-0.148 F1000
X77.715 Y20.148 I0.023 J0.148
X77.67 Y19.852 Z-12.126 I-0.023 J-0.148 F700
X77.715 Y20.148 Z-12.253 I0.023 J0.148
X77.67 Y19.852 Z-12.379 I-0.023 J-0.148
X77.715 Y20.148 Z-12.505 I0.023 J0.148
X77.67 Y19.852 Z-12.631 I-0.023 J-0.148
X77.715 Y20.148 Z-12.758 I0.023 J0.148
X77.67 Y19.852 Z-12.884 I-0.023 J-0.148
X77.715 Y20.148 Z-13.01 I0.023 J0.148
X77.67 Y19.852 Z-13.136 I-0.023 J-0.148
X77.715 Y20.148 Z-13.263 I0.023 J0.148
X77.67 Y19.852 Z-13.389 I-0.023 J-0.148
X77.768 Y20.129 Z-13.5 I0.023 J0.148
X77.616 Y19.871 I-0.076 J-0.129 F1000
X77.768 Y20.129 I0.076 J0.129
X77.616 Y19.871 Z-13.626 I-0.076 J-0.129 F700
X77.768 Y20.129 Z-13.753 I0.076 J0.129
X77.616 Y19.871 Z-13.879 I-0.076 J-0.129
X77.784 Y20.119 Z-14 I0.076 J0.129
X77.601 Y19.881 I-0.092 J-0.119 F1000
X77.784 Y20.119 I0.092 J0.119
G0 Z8
X77.602 Y9.88
Z3
G1 Z2.5 F700
Z-1.5
G3 X77.782 Y10.12 I0.09 J0.12 F1000
X77.602 Y9.88 I-0.09 J-0.12
X77.782 Y10.12 Z-1.626 I0.09 J0.12 F700
X77.602 Y9.88 Z-1.753 I-0.09 J-0.12
X77.782 Y10.12 Z-1.879 I0.09 J0.12
X77.602 Y9.88 Z-2.005 I-0.09 J-0.12
X77.782 Y10.12 Z-2.131 I0.09 J0.12
X77.602 Y9.88 Z-2.258 I-0.09 J-0.12
X77.782 Y10.12 Z-2.384 I0.09 J0.12
X77.602 Y9.88 Z-2.51 I-0.09 J-0.12
X77.782 Y10.12 Z-2.636 I0.09 J0.12
X77.602 Y9.88 Z-2.763 I-0.09 J-0.12
X77.782 Y10.12 Z-2.889 I0.09 J0.12
X77.564 Y9.922 Z-3 I-0.09 J-0.12
X77.82 Y10.078 I0.128 J0.078 F1000
X77.564 Y9.922 I-0.128 J-0.078
X77.82 Y10.078 Z-3.126 I0.128 J0.078 F700
X77.564 Y9.922 Z-3.253 I-0.128 J-0.078
X77.82 Y10.078 Z-3.379 I0.128 J0.078
X77.564 Y9.922 Z-3.505 I-0.128 J-0.078
X77.82 Y10.078 Z-3.631 I0.128 J0.078
X77.564 Y9.922 Z-3.758 I-0.128 J-0.078
X77.82 Y10.078 Z-3.884 I0.128 J0.078
X77.564 Y9.922 Z-4.01 I-0.128 J-0.078
X77.82 Y10.078 Z-4.136 I0.128 J0.078
X77.564 Y9.922 Z-4.263 I-0.128 J-0.078
X77.82 Y10.078 Z-4.389 I0.128 J0.078
X77.544 Y9.975 Z-4.5 I-0.128 J-0.078
X77.84 Y10.025 I0.148 J0.025 F1000
X77.544 Y9.975 I-0.148 J-0.025
X77.84 Y10.025 Z-4.626 I0.148 J0.025 F700
X77.544 Y9.975 Z-4.753 I-0.148 J-0.025
X77.84 Y10.025 Z-4.879 I0.148 J0.025
X77.544 Y9.975 Z-5.005 I-0.148 J-0.025
X77.84 Y10.025 Z-5.131 I0.148 J0.025
X77.544 Y9.975 Z-5.258 I-0.148 J-0.025
X77.84 Y10.025 Z-5.384 I0.148 J0.025
X77.544 Y9.975 Z-5.51 I-0.148 J-0.025
X77.84 Y10.025 Z-5.636 I0.148 J0.025
X77.544 Y9.975 Z-5.763 I-0.148 J-0.025
X77.84 Y10.025 Z-5.889 I0.148 J0.025
X77.546 Y10.031 Z-6 I-0.148 J-0.025
X77.839 Y9.969 I0.147 J-0.031 F1000
X77.546 Y10.031 I-0.147 J0.031
X77.839 Y9.969 Z-6.126 I0.147 J-0.031 F700
X77.546 Y10.031 Z-6.253 I-0.147 J0.031
X77.839 Y9.969 Z-6.379 I0.147 J-0.031
X77.546 Y10.031 Z-6.505 I-0.147 J0.031
X77.839 Y9.969 Z-6.631 I0.147 J-0.031
X77.546 Y10.031 Z-6.758 I-0.147 J0.031
X77.839 Y9.969 Z-6.884 I0.147 J-0.031
X77.546 Y10.031 Z-7.01 I-0.147 J0.031
X77.839 Y9.969 Z-7.136 I0.147 J-0.031
X77.546 Y10.031 Z-7.263 I-0.147 J0.031
X77.839 Y9.969 Z-7.389 I0.147 J-0.031
X77.567 Y10.083 Z-7.5 I-0.147 J0.031
X77.817 Y9.917 I0.125 J-0.083 F1000
X77.567 Y10.083 I-0.125 J0.083
X77.817 Y9.917 Z-7.626 I0.125 J-0.083 F700
X77.567 Y10.083 Z-7.753 I-0.125 J0.083
X77.817 Y9.917 Z-7.879 I0.125 J-0.083
X77.567 Y10.083 Z-8.005 I-0.125 J0.083
X77.817 Y9.917 Z-8.131 I0.125 J-0.083
X77.567 Y10.083 Z-8.258 I-0.125 J0.083
X77.817 Y9.917 Z-8.384 I0.125 J-0.083
X77.567 Y10.083 Z-8.51 I-0.125 J0.083
X77.817 Y9.917 Z-8.636 I0.125 J-0.083
X77.567 Y10.083 Z-8.763 I-0.125 J0.083
X77.817 Y9.917 Z-8.889 I0.125 J-0.083
X77.607 Y10.123 Z-9 I-0.125 J0.083
X77.778 Y9.877 I0.085 J-0.123 F1000
X77.607 Y10.123 I-0.085 J0.123
G1 X77.602 Y10.12 Z-9.002 F700
G3 X77.782 Y9.88 Z-9.128 I0.09 J-0.12
X77.602 Y10.12 Z-9.254 I-0.09 J0.12
X77.782 Y9.88 Z-9.38 I0.09 J-0.12
X77.602 Y10.12 Z-9.507 I-0.09 J0.12
X77.782 Y9.88 Z-9.633 I0.09 J-0.12
X77.602 Y10.12 Z-9.759 I-0.09 J0.12
X77.782 Y9.88 Z-9.885 I0.09 J-0.12
X77.602 Y10.12 Z-10.012 I-0.09 J0.12
X77.782 Y9.88 Z-10.138 I0.09 J-0.12
X77.602 Y10.12 Z-10.264 I-0.09 J0.12
X77.782 Y9.88 Z-10.39 I0.09 J-0.12
X77.659 Y10.146 Z-10.5 I-0.09 J0.12
X77.726 Y9.854 I0.034 J-0.146 F1000
X77.659 Y10.146 I-0.034 J0.146
X77.726 Y9.854 Z-10.626 I0.034 J-0.146 F700
X77.659 Y10.146 Z-10.753 I-0.034 J0.146
X77.726 Y9.854 Z-10.879 I0.034 J-0.146
X77.659 Y10.146 Z-11.005 I-0.034 J0.146
X77.726 Y9.854 Z-11.131 I0.034 J-0.146
X77.659 Y10.146 Z-11.258 I-0.034 J0.146
X77.726 Y9.854 Z-11.384 I0.034 J-0.146
X77.659 Y10.146 Z-11.51 I-0.034 J0.146
X77.726 Y9.854 Z-11.636 I0.034 J-0.146
X77.659 Y10.146 Z-11.763 I-0.034 J0.146
X77.726 Y9.854 Z-11.889 I0.034 J-0.146
X77.715 Y10.148 Z-12 I-0.034 J0.146
X77.67 Y9.852 I-0.023 J-0.148 F1000
X77.715 Y10.148 I0.023 J0.148
X77.67 Y9.852 Z-12.126 I-0.023 J-0.148 F700
X77.715 Y10.148 Z-12.253 I0.023 J0.148
X77.67 Y9.852 Z-12.379 I-0.023 J-0.148
X77.715 Y10.148 Z-12.505 I0.023 J0.148
X77.67 Y9.852 Z-12.631 I-0.023 J-0.148
X77.715 Y10.148 Z-12.758 I0.023 J0.148
X77.67 Y9.852 Z-12.884 I-0.023 J-0.148
X77.715 Y10.148 Z-13.01 I0.023 J0.148
X77.67 Y9.852 Z-13.136 I-0.023 J-0.148
X77.715 Y10.148 Z-13.263 I0.023 J0.148
X77.67 Y9.852 Z-13.389 I-0.023 J-0.148
X77.768 Y10.129 Z-13.5 I0.023 J0.148
X77.616 Y9.871 I-0.076 J-0.129 F1000
X77.768 Y10.129 I0.076 J0.129
X77.616 Y9.871 Z-13.626 I-0.076 J-0.129 F700
X77.768 Y10.129 Z-13.753 I0.076 J0.129
X77.616 Y9.871 Z-13.879 I-0.076 J-0.129
X77.784 Y10.119 Z-14 I0.076 J0.129
X77.601 Y9.881 I-0.092 J-0.119 F1000
X77.784 Y10.119 I0.092 J0.119
G0 Z8
X86.064 Y9.88
Z3
G1 Z2.5 F700
Z-1.5
G3 X86.244 Y10.12 I0.09 J0.12 F1000
X86.064 Y9.88 I-0.09 J-0.12
X86.244 Y10.12 Z-1.626 I0.09 J0.12 F700
X86.064 Y9.88 Z-1.753 I-0.09 J-0.12
X86.244 Y10.12 Z-1.879 I0.09 J0.12
X86.064 Y9.88 Z-2.005 I-0.09 J-0.12
X86.244 Y10.12 Z-2.131 I0.09 J0.12
X86.064 Y9.88 Z-2.258 I-0.09 J-0.12
X86.244 Y10.12 Z-2.384 I0.09 J0.12
X86.064 Y9.88 Z-2.51 I-0.09 J-0.12
X86.244 Y10.12 Z-2.636 I0.09 J0.12
X86.064 Y9.88 Z-2.763 I-0.09 J-0.12
X86.244 Y10.12 Z-2.889 I0.09 J0.12
X86.026 Y9.922 Z-3 I-0.09 J-0.12
X86.282 Y10.078 I0.128 J0.078 F1000
X86.026 Y9.922 I-0.128 J-0.078
X86.282 Y10.078 Z-3.126 I0.128 J0.078 F700
X86.026 Y9.922 Z-3.253 I-0.128 J-0.078
X86.282 Y10.078 Z-3.379 I0.128 J0.078
X86.026 Y9.922 Z-3.505 I-0.128 J-0.078
X86.282 Y10.078 Z-3.631 I0.128 J0.078
X86.026 Y9.922 Z-3.758 I-0.128 J-0.078
X86.282 Y10.078 Z-3.884 I0.128 J0.078
X86.026 Y9.922 Z-4.01 I-0.128 J-0.078
X86.282 Y10.078 Z-4.136 I0.128 J0.078
X86.026 Y9.922 Z-4.263 I-0.128 J-0.078
X86.282 Y10.078 Z-4.389 I0.128 J0.078
X86.006 Y9.975 Z-4.5 I-0.128 J-0.078
X86.302 Y10.025 I0.148 J0.025 F1000
X86.006 Y9.975 I-0.148 J-0.025
X86.302 Y10.025 Z-4.626 I0.148 J0.025 F700
X86.006 Y9.975 Z-4.753 I-0.148 J-0.025
X86.302 Y10.025 Z-4.879 I0.148 J0.025
X86.006 Y9.975 Z-5.005 I-0.148 J-0.025
X86.302 Y10.025 Z-5.131 I0.148 J0.025
X86.006 Y9.975 Z-5.258 I-0.148 J-0.025
X86.302 Y10.025 Z-5.384 I0.148 J0.025
X86.006 Y9.975 Z-5.51 I-0.148 J-0.025
X86.302 Y10.025 Z-5.636 I0.148 J0.025
X86.006 Y9.975 Z-5.763 I-0.148 J-0.025
X86.302 Y10.025 Z-5.889 I0.148 J0.025
X86.007 Y10.031 Z-6 I-0.148 J-0.025
X86.301 Y9.969 I0.147 J-0.031 F1000
X86.007 Y10.031 I-0.147 J0.031
X86.301 Y9.969 Z-6.126 I0.147 J-0.031 F700
X86.007 Y10.031 Z-6.253 I-0.147 J0.031
X86.301 Y9.969 Z-6.379 I0.147 J-0.031
X86.007 Y10.031 Z-6.505 I-0.147 J0.031
X86.301 Y9.969 Z-6.631 I0.147 J-0.031
X86.007 Y10.031 Z-6.758 I-0.147 J0.031
X86.301 Y9.969 Z-6.884 I0.147 J-0.031
X86.007 Y10.031 Z-7.01 I-0.147 J0.031
X86.301 Y9.969 Z-7.136 I0.147 J-0.031
X86.007 Y10.031 Z-7.263 I-0.147 J0.031
X86.301 Y9.969 Z-7.389 I0.147 J-0.031
X86.029 Y10.083 Z-7.5 I-0.147 J0.031
X86.279 Y9.917 I0.125 J-0.083 F1000
X86.029 Y10.083 I-0.125 J0.083
X86.279 Y9.917 Z-7.626 I0.125 J-0.083 F700
X86.029 Y10.083 Z-7.753 I-0.125 J0.083
X86.279 Y9.917 Z-7.879 I0.125 J-0.083
X86.029 Y10.083 Z-8.005 I-0.125 J0.083
X86.279 Y9.917 Z-8.131 I0.125 J-0.083
X86.029 Y10.083 Z-8.258 I-0.125 J0.083
X86.279 Y9.917 Z-8.384 I0.125 J-0.083
X86.029 Y10.083 Z-8.51 I-0.125 J0.083
X86.279 Y9.917 Z-8.636 I0.125 J-0.083
X86.029 Y10.083 Z-8.763 I-0.125 J0.083
X86.279 Y9.917 Z-8.889 I0.125 J-0.083
X86.068 Y10.123 Z-9 I-0.125 J0.083
X86.239 Y9.877 I0.085 J-0.123 F1000
X86.068 Y10.123 I-0.085 J0.123
G1 X86.064 Y10.12 Z-9.002 F700
G3 X86.244 Y9.88 Z-9.128 I0.09 J-0.12
X86.064 Y10.12 Z-9.254 I-0.09 J0.12
X86.244 Y9.88 Z-9.38 I0.09 J-0.12
X86.064 Y10.12 Z-9.507 I-0.09 J0.12
X86.244 Y9.88 Z-9.633 I0.09 J-0.12
X86.064 Y10.12 Z-9.759 I-0.09 J0.12
X86.244 Y9.88 Z-9.885 I0.09 J-0.12
X86.064 Y10.12 Z-10.012 I-0.09 J0.12
X86.244 Y9.88 Z-10.138 I0.09 J-0.12
X86.064 Y10.12 Z-10.264 I-0.09 J0.12
X86.244 Y9.88 Z-10.39 I0.09 J-0.12
X86.12 Y10.146 Z-10.5 I-0.09 J0.12
X86.187 Y9.854 I0.034 J-0.146 F1000
X86.12 Y10.146 I-0.034 J0.146
X86.187 Y9.854 Z-10.626 I0.034 J-0.146 F700
X86.12 Y10.146 Z-10.753 I-0.034 J0.146
X86.187 Y9.854 Z-10.879 I0.034 J-0.146
X86.12 Y10.146 Z-11.005 I-0.034 J0.146
X86.187 Y9.854 Z-11.131 I0.034 J-0.146
X86.12 Y10.146 Z-11.258 I-0.034 J0.146
X86.187 Y9.854 Z-11.384 I0.034 J-0.146
X86.12 Y10.146 Z-11.51 I-0.034 J0.146
X86.187 Y9.854 Z-11.636 I0.034 J-0.146
X86.12 Y10.146 Z-11.763 I-0.034 J0.146
X86.187 Y9.854 Z-11.889 I0.034 J-0.146
X86.177 Y10.148 Z-12 I-0.034 J0.146
X86.131 Y9.852 I-0.023 J-0.148 F1000
X86.177 Y10.148 I0.023 J0.148
X86.131 Y9.852 Z-12.126 I-0.023 J-0.148 F700
X86.177 Y10.148 Z-12.253 I0.023 J0.148
X86.131 Y9.852 Z-12.379 I-0.023 J-0.148
X86.177 Y10.148 Z-12.505 I0.023 J0.148
X86.131 Y9.852 Z-12.631 I-0.023 J-0.148
X86.177 Y10.148 Z-12.758 I0.023 J0.148
X86.131 Y9.852 Z-12.884 I-0.023 J-0.148
X86.177 Y10.148 Z-13.01 I0.023 J0.148
X86.131 Y9.852 Z-13.136 I-0.023 J-0.148
X86.177 Y10.148 Z-13.263 I0.023 J0.148
X86.131 Y9.852 Z-13.389 I-0.023 J-0.148
X86.23 Y10.129 Z-13.5 I0.023 J0.148
X86.078 Y9.871 I-0.076 J-0.129 F1000
X86.23 Y10.129 I0.076 J0.129
X86.078 Y9.871 Z-13.626 I-0.076 J-0.129 F700
X86.23 Y10.129 Z-13.753 I0.076 J0.129
X86.078 Y9.871 Z-13.879 I-0.076 J-0.129
X86.245 Y10.119 Z-14 I0.076 J0.129
X86.062 Y9.881 I-0.092 J-0.119 F1000
X86.245 Y10.119 I0.092 J0.119
G0 Z8
X94.525 Y9.88
Z3
G1 Z2.5 F700
Z-1.5
G3 X94.705 Y10.12 I0.09 J0.12 F1000
X94.525 Y9.88 I-0.09 J-0.12
X94.705 Y10.12 Z-1.626 I0.09 J0.12 F700
X94.525 Y9.88 Z-1.753 I-0.09 J-0.12
X94.705 Y10.12 Z-1.879 I0.09 J0.12
X94.525 Y9.88 Z-2.005 I-0.09 J-0.12
X94.705 Y10.12 Z-2.131 I0.09 J0.12
X94.525 Y9.88 Z-2.258 I-0.09 J-0.12
X94.705 Y10.12 Z-2.384 I0.09 J0.12
X94.525 Y9.88 Z-2.51 I-0.09 J-0.12
X94.705 Y10.12 Z-2.636 I0.09 J0.12
X94.525 Y9.88 Z-2.763 I-0.09 J-0.12
X94.705 Y10.12 Z-2.889 I0.09 J0.12
X94.487 Y9.922 Z-3 I-0.09 J-0.12
X94.743 Y10.078 I0.128 J0.078 F1000
X94.487 Y9.922 I-0.128 J-0.078
X94.743 Y10.078 Z-3.126 I0.128 J0.078 F700
X94.487 Y9.922 Z-3.253 I-0.128 J-0.078
X94.743 Y10.078 Z-3.379 I0.128 J0.078
X94.487 Y9.922 Z-3.505 I-0.128 J-0.078
X94.743 Y10.078 Z-3.631 I0.128 J0.078
X94.487 Y9.922 Z-3.758 I-0.128 J-0.078
X94.743 Y10.078 Z-3.884 I0.128 J0.078
X94.487 Y9.922 Z-4.01 I-0.128 J-0.078
X94.743 Y10.078 Z-4.136 I0.128 J0.078
X94.487 Y9.922 Z-4.263 I-0.128 J-0.078
X94.743 Y10.078 Z-4.389 I0.128 J0.078
X94.468 Y9.975 Z-4.5 I-0.128 J-0.078
X94.763 Y10.025 I0.148 J0.025 F1000
X94.468 Y9.975 I-0.148 J-0.025
X94.763 Y10.025 Z-4.626 I0.148 J0.025 F700
X94.468 Y9.975 Z-4.753 I-0.148 J-0.025
X94.763 Y10.025 Z-4.879 I0.148 J0.025
X94.468 Y9.975 Z-5.005 I-0.148 J-0.025
X94.763 Y10.025 Z-5.131 I0.148 J0.025
X94.468 Y9.975 Z-5.258 I-0.148 J-0.025
X94.763 Y10.025 Z-5.384 I0.148 J0.025
X94.468 Y9.975 Z-5.51 I-0.148 J-0.025
X94.763 Y10.025 Z-5.636 I0.148 J0.025
X94.468 Y9.975 Z-5.763 I-0.148 J-0.025
X94.763 Y10.025 Z-5.889 I0.148 J0.025
X94.469 Y10.031 Z-6 I-0.148 J-0.025
X94.762 Y9.969 I0.147 J-0.031 F1000
X94.469 Y10.031 I-0.147 J0.031
X94.762 Y9.969 Z-6.126 I0.147 J-0.031 F700
X94.469 Y10.031 Z-6.253 I-0.147 J0.031
X94.762 Y9.969 Z-6.379 I0.147 J-0.031
X94.469 Y10.031 Z-6.505 I-0.147 J0.031
X94.762 Y9.969 Z-6.631 I0.147 J-0.031
X94.469 Y10.031 Z-6.758 I-0.147 J0.031
X94.762 Y9.969 Z-6.884 I0.147 J-0.031
X94.469 Y10.031 Z-7.01 I-0.147 J0.031
X94.762 Y9.969 Z-7.136 I0.147 J-0.031
X94.469 Y10.031 Z-7.263 I-0.147 J0.031
X94.762 Y9.969 Z-7.389 I0.147 J-0.031
X94.491 Y10.083 Z-7.5 I-0.147 J0.031
X94.74 Y9.917 I0.125 J-0.083 F1000
X94.491 Y10.083 I-0.125 J0.083
X94.74 Y9.917 Z-7.626 I0.125 J-0.083 F700
X94.491 Y10.083 Z-7.753 I-0.125 J0.083
X94.74 Y9.917 Z-7.879 I0.125 J-0.083
X94.491 Y10.083 Z-8.005 I-0.125 J0.083
X94.74 Y9.917 Z-8.131 I0.125 J-0.083
X94.491 Y10.083 Z-8.258 I-0.125 J0.083
X94.74 Y9.917 Z-8.384 I0.125 J-0.083
X94.491 Y10.083 Z-8.51 I-0.125 J0.083
X94.74 Y9.917 Z-8.636 I0.125 J-0.083
X94.491 Y10.083 Z-8.763 I-0.125 J0.083
X94.74 Y9.917 Z-8.889 I0.125 J-0.083
X94.53 Y10.123 Z-9 I-0.125 J0.083
X94.701 Y9.877 I0.085 J-0.123 F1000
X94.53 Y10.123 I-0.085 J0.123
G1 X94.525 Y10.12 Z-9.002 F700
G3 X94.705 Y9.88 Z-9.128 I0.09 J-0.12
X94.525 Y10.12 Z-9.254 I-0.09 J0.12
X94.705 Y9.88 Z-9.38 I0.09 J-0.12
X94.525 Y10.12 Z-9.507 I-0.09 J0.12
X94.705 Y9.88 Z-9.633 I0.09 J-0.12
X94.525 Y10.12 Z-9.759 I-0.09 J0.12
X94.705 Y9.88 Z-9.885 I0.09 J-0.12
X94.525 Y10.12 Z-10.012 I-0.09 J0.12
X94.705 Y9.88 Z-10.138 I0.09 J-0.12
X94.525 Y10.12 Z-10.264 I-0.09 J0.12
X94.705 Y9.88 Z-10.39 I0.09 J-0.12
X94.582 Y10.146 Z-10.5 I-0.09 J0.12
X94.649 Y9.854 I0.034 J-0.146 F1000
X94.582 Y10.146 I-0.034 J0.146
X94.649 Y9.854 Z-10.626 I0.034 J-0.146 F700
X94.582 Y10.146 Z-10.753 I-0.034 J0.146
X94.649 Y9.854 Z-10.879 I0.034 J-0.146
X94.582 Y10.146 Z-11.005 I-0.034 J0.146
X94.649 Y9.854 Z-11.131 I0.034 J-0.146
X94.582 Y10.146 Z-11.258 I-0.034 J0.146
X94.649 Y9.854 Z-11.384 I0.034 J-0.146
X94.582 Y10.146 Z-11.51 I-0.034 J0.146
X94.649 Y9.854 Z-11.636 I0.034 J-0.146
X94.582 Y10.146 Z-11.763 I-0.034 J0.146
X94.649 Y9.854 Z-11.889 I0.034 J-0.146
X94.638 Y10.148 Z-12 I-0.034 J0.146
X94.593 Y9.852 I-0.023 J-0.148 F1000
X94.638 Y10.148 I0.023 J0.148
X94.593 Y9.852 Z-12.126 I-0.023 J-0.148 F700
X94.638 Y10.148 Z-12.253 I0.023 J0.148
X94.593 Y9.852 Z-12.379 I-0.023 J-0.148
X94.638 Y10.148 Z-12.505 I0.023 J0.148
X94.593 Y9.852 Z-12.631 I-0.023 J-0.148
X94.638 Y10.148 Z-12.758 I0.023 J0.148
X94.593 Y9.852 Z-12.884 I-0.023 J-0.148
X94.638 Y10.148 Z-13.01 I0.023 J0.148
X94.593 Y9.852 Z-13.136 I-0.023 J-0.148
X94.638 Y10.148 Z-13.263 I0.023 J0.148
X94.593 Y9.852 Z-13.389 I-0.023 J-0.148
X94.691 Y10.129 Z-13.5 I0.023 J0.148
X94.539 Y9.871 I-0.076 J-0.129 F1000
X94.691 Y10.129 I0.076 J0.129
X94.539 Y9.871 Z-13.626 I-0.076 J-0.129 F700
X94.691 Y10.129 Z-13.753 I0.076 J0.129
X94.539 Y9.871 Z-13.879 I-0.076 J-0.129
X94.707 Y10.119 Z-14 I0.076 J0.129
X94.524 Y9.881 I-0.092 J-0.119 F1000
X94.707 Y10.119 I0.092 J0.119
G0 Z8
X102.987 Y9.88
Z3
G1 Z2.5 F700
Z-1.5
G3 X103.167 Y10.12 I0.09 J0.12 F1000
X102.987 Y9.88 I-0.09 J-0.12
X103.167 Y10.12 Z-1.626 I0.09 J0.12 F700
X102.987 Y9.88 Z-1.753 I-0.09 J-0.12
X103.167 Y10.12 Z-1.879 I0.09 J0.12
X102.987 Y9.88 Z-2.005 I-0.09 J-0.12
X103.167 Y10.12 Z-2.131 I0.09 J0.12
X102.987 Y9.88 Z-2.258 I-0.09 J-0.12
X103.167 Y10.12 Z-2.384 I0.09 J0.12
X102.987 Y9.88 Z-2.51 I-0.09 J-0.12
X103.167 Y10.12 Z-2.636 I0.09 J0.12
X102.987 Y9.88 Z-2.763 I-0.09 J-0.12
X103.167 Y10.12 Z-2.889 I0.09 J0.12
X102.949 Y9.922 Z-3 I-0.09 J-0.12
X103.205 Y10.078 I0.128 J0.078 F1000
X102.949 Y9.922 I-0.128 J-0.078
X103.205 Y10.078 Z-3.126 I0.128 J0.078 F700
X102.949 Y9.922 Z-3.253 I-0.128 J-0.078
X103.205 Y10.078 Z-3.379 I0.128 J0.078
X102.949 Y9.922 Z-3.505 I-0.128 J-0.078
X103.205 Y10.078 Z-3.631 I0.128 J0.078
X102.949 Y9.922 Z-3.758 I-0.128 J-0.078
X103.205 Y10.078 Z-3.884 I0.128 J0.078
X102.949 Y9.922 Z-4.01 I-0.128 J-0.078
X103.205 Y10.078 Z-4.136 I0.128 J0.078
X102.949 Y9.922 Z-4.263 I-0.128 J-0.078
X103.205 Y10.078 Z-4.389 I0.128 J0.078
X102.929 Y9.975 Z-4.5 I-0.128 J-0.078
X103.225 Y10.025 I0.148 J0.025 F1000
X102.929 Y9.975 I-0.148 J-0.025
X103.225 Y10.025 Z-4.626 I0.148 J0.025 F700
X102.929 Y9.975 Z-4.753 I-0.148 J-0.025
X103.225 Y10.025 Z-4.879 I0.148 J0.025
X102.929 Y9.975 Z-5.005 I-0.148 J-0.025
X103.225 Y10.025 Z-5.131 I0.148 J0.025
X102.929 Y9.975 Z-5.258 I-0.148 J-0.025
X103.225 Y10.025 Z-5.384 I0.148 J0.025
X102.929 Y9.975 Z-5.51 I-0.148 J-0.025
X103.225 Y10.025 Z-5.636 I0.148 J0.025
X102.929 Y9.975 Z-5.763 I-0.148 J-0.025
X103.225 Y10.025 Z-5.889 I0.148 J0.025
X102.93 Y10.031 Z-6 I-0.148 J-0.025
X103.224 Y9.969 I0.147 J-0.031 F1000
X102.93 Y10.031 I-0.147 J0.031
X103.224 Y9.969 Z-6.126 I0.147 J-0.031 F700
X102.93 Y10.031 Z-6.253 I-0.147 J0.031
X103.224 Y9.969 Z-6.379 I0.147 J-0.031
X102.93 Y10.031 Z-6.505 I-0.147 J0.031
X103.224 Y9.969 Z-6.631 I0.147 J-0.031
X102.93 Y10.031 Z-6.758 I-0.147 J0.031
X103.224 Y9.969 Z-6.884 I0.147 J-0.031
X102.93 Y10.031 Z-7.01 I-0.147 J0.031
X103.224 Y9.969 Z-7.136 I0.147 J-0.031
X102.93 Y10.031 Z-7.263 I-0.147 J0.031
X103.224 Y9.969 Z-7.389 I0.147 J-0.031
X102.952 Y10.083 Z-7.5 I-0.147 J0.031
X103.202 Y9.917 I0.125 J-0.083 F1000
X102.952 Y10.083 I-0.125 J0.083
X103.202 Y9.917 Z-7.626 I0.125 J-0.083 F700
X102.952 Y10.083 Z-7.753 I-0.125 J0.083
X103.202 Y9.917 Z-7.879 I0.125 J-0.083
X102.952 Y10.083 Z-8.005 I-0.125 J0.083
X103.202 Y9.917 Z-8.131 I0.125 J-0.083
X102.952 Y10.083 Z-8.258 I-0.125 J0.083
X103.202 Y9.917 Z-8.384 I0.125 J-0.083
X102.952 Y10.083 Z-8.51 I-0.125 J0.083
X103.202 Y9.917 Z-8.636 I0.125 J-0.083
X102.952 Y10.083 Z-8.763 I-0.125 J0.083
X103.202 Y9.917 Z-8.889 I0.125 J-0.083
X102.992 Y10.123 Z-9 I-0.125 J0.083
X103.162 Y9.877 I0.085 J-0.123 F1000
X102.992 Y10.123 I-0.085 J0.123
G1 X102.987 Y10.12 Z-9.002 F700
G3 X103.167 Y9.88 Z-9.128 I0.09 J-0.12
X102.987 Y10.12 Z-9.254 I-0.09 J0.12
X103.167 Y9.88 Z-9.38 I0.09 J-0.12
X102.987 Y10.12 Z-9.507 I-0.09 J0.12
X103.167 Y9.88 Z-9.633 I0.09 J-0.12
X102.987 Y10.12 Z-9.759 I-0.09 J0.12
X103.167 Y9.88 Z-9.885 I0.09 J-0.12
X102.987 Y10.12 Z-10.012 I-0.09 J0.12
X103.167 Y9.88 Z-10.138 I0.09 J-0.12
X102.987 Y10.12 Z-10.264 I-0.09 J0.12
X103.167 Y9.88 Z-10.39 I0.09 J-0.12
X103.043 Y10.146 Z-10.5 I-0.09 J0.12
X103.111 Y9.854 I0.034 J-0.146 F1000
X103.043 Y10.146 I-0.034 J0.146
X103.111 Y9.854 Z-10.626 I0.034 J-0.146 F700
X103.043 Y10.146 Z-10.753 I-0.034 J0.146
X103.111 Y9.854 Z-10.879 I0.034 J-0.146
X103.043 Y10.146 Z-11.005 I-0.034 J0.146
X103.111 Y9.854 Z-11.131 I0.034 J-0.146
X103.043 Y10.146 Z-11.258 I-0.034 J0.146
X103.111 Y9.854 Z-11.384 I0.034 J-0.146
X103.043 Y10.146 Z-11.51 I-0.034 J0.146
X103.111 Y9.854 Z-11.636 I0.034 J-0.146
X103.043 Y10.146 Z-11.763 I-0.034 J0.146
X103.111 Y9.854 Z-11.889 I0.034 J-0.146
X103.1 Y10.148 Z-12 I-0.034 J0.146
X103.054 Y9.852 I-0.023 J-0.148 F1000
X103.1 Y10.148 I0.023 J0.148
X103.054 Y9.852 Z-12.126 I-0.023 J-0.148 F700
X103.1 Y10.148 Z-12.253 I0.023 J0.148
X103.054 Y9.852 Z-12.379 I-0.023 J-0.148
X103.1 Y10.148 Z-12.505 I0.023 J0.148
X103.054 Y9.852 Z-12.631 I-0.023 J-0.148
X103.1 Y10.148 Z-12.758 I0.023 J0.148
X103.054 Y9.852 Z-12.884 I-0.023 J-0.148
X103.1 Y10.148 Z-13.01 I0.023 J0.148
X103.054 Y9.852 Z-13.136 I-0.023 J-0.148
X103.1 Y10.148 Z-13.263 I0.023 J0.148
X103.054 Y9.852 Z-13.389 I-0.023 J-0.148
X103.153 Y10.129 Z-13.5 I0.023 J0.148
X103.001 Y9.871 I-0.076 J-0.129 F1000
X103.153 Y10.129 I0.076 J0.129
X103.001 Y9.871 Z-13.626 I-0.076 J-0.129 F700
X103.153 Y10.129 Z-13.753 I0.076 J0.129
X103.001 Y9.871 Z-13.879 I-0.076 J-0.129
X103.169 Y10.119 Z-14 I0.076 J0.129
X102.985 Y9.881 I-0.092 J-0.119 F1000
X103.169 Y10.119 I0.092 J0.119
G0 Z8
X102.987 Y19.88
Z3
G1 Z2.5 F700
Z-1.5
G3 X103.167 Y20.12 I0.09 J0.12 F1000
X102.987 Y19.88 I-0.09 J-0.12
X103.167 Y20.12 Z-1.626 I0.09 J0.12 F700
X102.987 Y19.88 Z-1.753 I-0.09 J-0.12
X103.167 Y20.12 Z-1.879 I0.09 J0.12
X102.987 Y19.88 Z-2.005 I-0.09 J-0.12
X103.167 Y20.12 Z-2.131 I0.09 J0.12
X102.987 Y19.88 Z-2.258 I-0.09 J-0.12
X103.167 Y20.12 Z-2.384 I0.09 J0.12
X102.987 Y19.88 Z-2.51 I-0.09 J-0.12
X103.167 Y20.12 Z-2.636 I0.09 J0.12
X102.987 Y19.88 Z-2.763 I-0.09 J-0.12
X103.167 Y20.12 Z-2.889 I0.09 J0.12
X102.949 Y19.922 Z-3 I-0.09 J-0.12
X103.205 Y20.078 I0.128 J0.078 F1000
X102.949 Y19.922 I-0.128 J-0.078
X103.205 Y20.078 Z-3.126 I0.128 J0.078 F700
X102.949 Y19.922 Z-3.253 I-0.128 J-0.078
X103.205 Y20.078 Z-3.379 I0.128 J0.078
X102.949 Y19.922 Z-3.505 I-0.128 J-0.078
X103.205 Y20.078 Z-3.631 I0.128 J0.078
X102.949 Y19.922 Z-3.758 I-0.128 J-0.078
X103.205 Y20.078 Z-3.884 I0.128 J0.078
X102.949 Y19.922 Z-4.01 I-0.128 J-0.078
X103.205 Y20.078 Z-4.136 I0.128 J0.078
X102.949 Y19.922 Z-4.263 I-0.128 J-0.078
X103.205 Y20.078 Z-4.389 I0.128 J0.078
X102.929 Y19.975 Z-4.5 I-0.128 J-0.078
X103.225 Y20.025 I0.148 J0.025 F1000
X102.929 Y19.975 I-0.148 J-0.025
X103.225 Y20.025 Z-4.626 I0.148 J0.025 F700
X102.929 Y19.975 Z-4.753 I-0.148 J-0.025
X103.225 Y20.025 Z-4.879 I0.148 J0.025
X102.929 Y19.975 Z-5.005 I-0.148 J-0.025
X103.225 Y20.025 Z-5.131 I0.148 J0.025
X102.929 Y19.975 Z-5.258 I-0.148 J-0.025
X103.225 Y20.025 Z-5.384 I0.148 J0.025
X102.929 Y19.975 Z-5.51 I-0.148 J-0.025
X103.225 Y20.025 Z-5.636 I0.148 J0.025
X102.929 Y19.975 Z-5.763 I-0.148 J-0.025
X103.225 Y20.025 Z-5.889 I0.148 J0.025
X102.93 Y20.031 Z-6 I-0.148 J-0.025
X103.224 Y19.969 I0.147 J-0.031 F1000
X102.93 Y20.031 I-0.147 J0.031
X103.224 Y19.969 Z-6.126 I0.147 J-0.031 F700
X102.93 Y20.031 Z-6.253 I-0.147 J0.031
X103.224 Y19.969 Z-6.379 I0.147 J-0.031
X102.93 Y20.031 Z-6.505 I-0.147 J0.031
X103.224 Y19.969 Z-6.631 I0.147 J-0.031
X102.93 Y20.031 Z-6.758 I-0.147 J0.031
X103.224 Y19.969 Z-6.884 I0.147 J-0.031
X102.93 Y20.031 Z-7.01 I-0.147 J0.031
X103.224 Y19.969 Z-7.136 I0.147 J-0.031
X102.93 Y20.031 Z-7.263 I-0.147 J0.031
X103.224 Y19.969 Z-7.389 I0.147 J-0.031
X102.952 Y20.083 Z-7.5 I-0.147 J0.031
X103.202 Y19.917 I0.125 J-0.083 F1000
X102.952 Y20.083 I-0.125 J0.083
X103.202 Y19.917 Z-7.626 I0.125 J-0.083 F700
X102.952 Y20.083 Z-7.753 I-0.125 J0.083
X103.202 Y19.917 Z-7.879 I0.125 J-0.083
X102.952 Y20.083 Z-8.005 I-0.125 J0.083
X103.202 Y19.917 Z-8.131 I0.125 J-0.083
X102.952 Y20.083 Z-8.258 I-0.125 J0.083
X103.202 Y19.917 Z-8.384 I0.125 J-0.083
X102.952 Y20.083 Z-8.51 I-0.125 J0.083
X103.202 Y19.917 Z-8.636 I0.125 J-0.083
X102.952 Y20.083 Z-8.763 I-0.125 J0.083
X103.202 Y19.917 Z-8.889 I0.125 J-0.083
X102.992 Y20.123 Z-9 I-0.125 J0.083
X103.162 Y19.877 I0.085 J-0.123 F1000
X102.992 Y20.123 I-0.085 J0.123
G1 X102.987 Y20.12 Z-9.002 F700
G3 X103.167 Y19.88 Z-9.128 I0.09 J-0.12
X102.987 Y20.12 Z-9.254 I-0.09 J0.12
X103.167 Y19.88 Z-9.38 I0.09 J-0.12
X102.987 Y20.12 Z-9.507 I-0.09 J0.12
X103.167 Y19.88 Z-9.633 I0.09 J-0.12
X102.987 Y20.12 Z-9.759 I-0.09 J0.12
X103.167 Y19.88 Z-9.885 I0.09 J-0.12
X102.987 Y20.12 Z-10.012 I-0.09 J0.12
X103.167 Y19.88 Z-10.138 I0.09 J-0.12
X102.987 Y20.12 Z-10.264 I-0.09 J0.12
X103.167 Y19.88 Z-10.39 I0.09 J-0.12
X103.043 Y20.146 Z-10.5 I-0.09 J0.12
X103.111 Y19.854 I0.034 J-0.146 F1000
X103.043 Y20.146 I-0.034 J0.146
X103.111 Y19.854 Z-10.626 I0.034 J-0.146 F700
X103.043 Y20.146 Z-10.753 I-0.034 J0.146
X103.111 Y19.854 Z-10.879 I0.034 J-0.146
X103.043 Y20.146 Z-11.005 I-0.034 J0.146
X103.111 Y19.854 Z-11.131 I0.034 J-0.146
X103.043 Y20.146 Z-11.258 I-0.034 J0.146
X103.111 Y19.854 Z-11.384 I0.034 J-0.146
X103.043 Y20.146 Z-11.51 I-0.034 J0.146
X103.111 Y19.854 Z-11.636 I0.034 J-0.146
X103.043 Y20.146 Z-11.763 I-0.034 J0.146
X103.111 Y19.854 Z-11.889 I0.034 J-0.146
X103.1 Y20.148 Z-12 I-0.034 J0.146
X103.054 Y19.852 I-0.023 J-0.148 F1000
X103.1 Y20.148 I0.023 J0.148
X103.054 Y19.852 Z-12.126 I-0.023 J-0.148 F700
X103.1 Y20.148 Z-12.253 I0.023 J0.148
X103.054 Y19.852 Z-12.379 I-0.023 J-0.148
X103.1 Y20.148 Z-12.505 I0.023 J0.148
X103.054 Y19.852 Z-12.631 I-0.023 J-0.148
X103.1 Y20.148 Z-12.758 I0.023 J0.148
X103.054 Y19.852 Z-12.884 I-0.023 J-0.148
X103.1 Y20.148 Z-13.01 I0.023 J0.148
X103.054 Y19.852 Z-13.136 I-0.023 J-0.148
X103.1 Y20.148 Z-13.263 I0.023 J0.148
X103.054 Y19.852 Z-13.389 I-0.023 J-0.148
X103.153 Y20.129 Z-13.5 I0.023 J0.148
X103.001 Y19.871 I-0.076 J-0.129 F1000
X103.153 Y20.129 I0.076 J0.129
X103.001 Y19.871 Z-13.626 I-0.076 J-0.129 F700
X103.153 Y20.129 Z-13.753 I0.076 J0.129
X103.001 Y19.871 Z-13.879 I-0.076 J-0.129
X103.169 Y20.119 Z-14 I0.076 J0.129
X102.985 Y19.881 I-0.092 J-0.119 F1000
X103.169 Y20.119 I0.092 J0.119
G0 Z8
X94.525 Y19.88
Z3
G1 Z2.5 F700
Z-1.5
G3 X94.705 Y20.12 I0.09 J0.12 F1000
X94.525 Y19.88 I-0.09 J-0.12
X94.705 Y20.12 Z-1.626 I0.09 J0.12 F700
X94.525 Y19.88 Z-1.753 I-0.09 J-0.12
X94.705 Y20.12 Z-1.879 I0.09 J0.12
X94.525 Y19.88 Z-2.005 I-0.09 J-0.12
X94.705 Y20.12 Z-2.131 I0.09 J0.12
X94.525 Y19.88 Z-2.258 I-0.09 J-0.12
X94.705 Y20.12 Z-2.384 I0.09 J0.12
X94.525 Y19.88 Z-2.51 I-0.09 J-0.12
X94.705 Y20.12 Z-2.636 I0.09 J0.12
X94.525 Y19.88 Z-2.763 I-0.09 J-0.12
X94.705 Y20.12 Z-2.889 I0.09 J0.12
X94.487 Y19.922 Z-3 I-0.09 J-0.12
X94.743 Y20.078 I0.128 J0.078 F1000
X94.487 Y19.922 I-0.128 J-0.078
X94.743 Y20.078 Z-3.126 I0.128 J0.078 F700
X94.487 Y19.922 Z-3.253 I-0.128 J-0.078
X94.743 Y20.078 Z-3.379 I0.128 J0.078
X94.487 Y19.922 Z-3.505 I-0.128 J-0.078
X94.743 Y20.078 Z-3.631 I0.128 J0.078
X94.487 Y19.922 Z-3.758 I-0.128 J-0.078
X94.743 Y20.078 Z-3.884 I0.128 J0.078
X94.487 Y19.922 Z-4.01 I-0.128 J-0.078
X94.743 Y20.078 Z-4.136 I0.128 J0.078
X94.487 Y19.922 Z-4.263 I-0.128 J-0.078
X94.743 Y20.078 Z-4.389 I0.128 J0.078
X94.468 Y19.975 Z-4.5 I-0.128 J-0.078
X94.763 Y20.025 I0.148 J0.025 F1000
X94.468 Y19.975 I-0.148 J-0.025
X94.763 Y20.025 Z-4.626 I0.148 J0.025 F700
X94.468 Y19.975 Z-4.753 I-0.148 J-0.025
X94.763 Y20.025 Z-4.879 I0.148 J0.025
X94.468 Y19.975 Z-5.005 I-0.148 J-0.025
X94.763 Y20.025 Z-5.131 I0.148 J0.025
X94.468 Y19.975 Z-5.258 I-0.148 J-0.025
X94.763 Y20.025 Z-5.384 I0.148 J0.025
X94.468 Y19.975 Z-5.51 I-0.148 J-0.025
X94.763 Y20.025 Z-5.636 I0.148 J0.025
X94.468 Y19.975 Z-5.763 I-0.148 J-0.025
X94.763 Y20.025 Z-5.889 I0.148 J0.025
X94.469 Y20.031 Z-6 I-0.148 J-0.025
X94.762 Y19.969 I0.147 J-0.031 F1000
X94.469 Y20.031 I-0.147 J0.031
X94.762 Y19.969 Z-6.126 I0.147 J-0.031 F700
X94.469 Y20.031 Z-6.253 I-0.147 J0.031
X94.762 Y19.969 Z-6.379 I0.147 J-0.031
X94.469 Y20.031 Z-6.505 I-0.147 J0.031
X94.762 Y19.969 Z-6.631 I0.147 J-0.031
X94.469 Y20.031 Z-6.758 I-0.147 J0.031
X94.762 Y19.969 Z-6.884 I0.147 J-0.031
X94.469 Y20.031 Z-7.01 I-0.147 J0.031
X94.762 Y19.969 Z-7.136 I0.147 J-0.031
X94.469 Y20.031 Z-7.263 I-0.147 J0.031
X94.762 Y19.969 Z-7.389 I0.147 J-0.031
X94.491 Y20.083 Z-7.5 I-0.147 J0.031
X94.74 Y19.917 I0.125 J-0.083 F1000
X94.491 Y20.083 I-0.125 J0.083
X94.74 Y19.917 Z-7.626 I0.125 J-0.083 F700
X94.491 Y20.083 Z-7.753 I-0.125 J0.083
X94.74 Y19.917 Z-7.879 I0.125 J-0.083
X94.491 Y20.083 Z-8.005 I-0.125 J0.083
X94.74 Y19.917 Z-8.131 I0.125 J-0.083
X94.491 Y20.083 Z-8.258 I-0.125 J0.083
X94.74 Y19.917 Z-8.384 I0.125 J-0.083
X94.491 Y20.083 Z-8.51 I-0.125 J0.083
X94.74 Y19.917 Z-8.636 I0.125 J-0.083
X94.491 Y20.083 Z-8.763 I-0.125 J0.083
X94.74 Y19.917 Z-8.889 I0.125 J-0.083
X94.53 Y20.123 Z-9 I-0.125 J0.083
X94.701 Y19.877 I0.085 J-0.123 F1000
X94.53 Y20.123 I-0.085 J0.123
G1 X94.525 Y20.12 Z-9.002 F700
G3 X94.705 Y19.88 Z-9.128 I0.09 J-0.12
X94.525 Y20.12 Z-9.254 I-0.09 J0.12
X94.705 Y19.88 Z-9.38 I0.09 J-0.12
X94.525 Y20.12 Z-9.507 I-0.09 J0.12
X94.705 Y19.88 Z-9.633 I0.09 J-0.12
X94.525 Y20.12 Z-9.759 I-0.09 J0.12
X94.705 Y19.88 Z-9.885 I0.09 J-0.12
X94.525 Y20.12 Z-10.012 I-0.09 J0.12
X94.705 Y19.88 Z-10.138 I0.09 J-0.12
X94.525 Y20.12 Z-10.264 I-0.09 J0.12
X94.705 Y19.88 Z-10.39 I0.09 J-0.12
X94.582 Y20.146 Z-10.5 I-0.09 J0.12
X94.649 Y19.854 I0.034 J-0.146 F1000
X94.582 Y20.146 I-0.034 J0.146
X94.649 Y19.854 Z-10.626 I0.034 J-0.146 F700
X94.582 Y20.146 Z-10.753 I-0.034 J0.146
X94.649 Y19.854 Z-10.879 I0.034 J-0.146
X94.582 Y20.146 Z-11.005 I-0.034 J0.146
X94.649 Y19.854 Z-11.131 I0.034 J-0.146
X94.582 Y20.146 Z-11.258 I-0.034 J0.146
X94.649 Y19.854 Z-11.384 I0.034 J-0.146
X94.582 Y20.146 Z-11.51 I-0.034 J0.146
X94.649 Y19.854 Z-11.636 I0.034 J-0.146
X94.582 Y20.146 Z-11.763 I-0.034 J0.146
X94.649 Y19.854 Z-11.889 I0.034 J-0.146
X94.638 Y20.148 Z-12 I-0.034 J0.146
X94.593 Y19.852 I-0.023 J-0.148 F1000
X94.638 Y20.148 I0.023 J0.148
X94.593 Y19.852 Z-12.126 I-0.023 J-0.148 F700
X94.638 Y20.148 Z-12.253 I0.023 J0.148
X94.593 Y19.852 Z-12.379 I-0.023 J-0.148
X94.638 Y20.148 Z-12.505 I0.023 J0.148
X94.593 Y19.852 Z-12.631 I-0.023 J-0.148
X94.638 Y20.148 Z-12.758 I0.023 J0.148
X94.593 Y19.852 Z-12.884 I-0.023 J-0.148
X94.638 Y20.148 Z-13.01 I0.023 J0.148
X94.593 Y19.852 Z-13.136 I-0.023 J-0.148
X94.638 Y20.148 Z-13.263 I0.023 J0.148
X94.593 Y19.852 Z-13.389 I-0.023 J-0.148
X94.691 Y20.129 Z-13.5 I0.023 J0.148
X94.539 Y19.871 I-0.076 J-0.129 F1000
X94.691 Y20.129 I0.076 J0.129
X94.539 Y19.871 Z-13.626 I-0.076 J-0.129 F700
X94.691 Y20.129 Z-13.753 I0.076 J0.129
X94.539 Y19.871 Z-13.879 I-0.076 J-0.129
X94.707 Y20.119 Z-14 I0.076 J0.129
X94.524 Y19.881 I-0.092 J-0.119 F1000
X94.707 Y20.119 I0.092 J0.119
G0 Z8
X86.064 Y19.88
Z3
G1 Z2.5 F700
Z-1.5
G3 X86.244 Y20.12 I0.09 J0.12 F1000
X86.064 Y19.88 I-0.09 J-0.12
X86.244 Y20.12 Z-1.626 I0.09 J0.12 F700
X86.064 Y19.88 Z-1.753 I-0.09 J-0.12
X86.244 Y20.12 Z-1.879 I0.09 J0.12
X86.064 Y19.88 Z-2.005 I-0.09 J-0.12
X86.244 Y20.12 Z-2.131 I0.09 J0.12
X86.064 Y19.88 Z-2.258 I-0.09 J-0.12
X86.244 Y20.12 Z-2.384 I0.09 J0.12
X86.064 Y19.88 Z-2.51 I-0.09 J-0.12
X86.244 Y20.12 Z-2.636 I0.09 J0.12
X86.064 Y19.88 Z-2.763 I-0.09 J-0.12
X86.244 Y20.12 Z-2.889 I0.09 J0.12
X86.026 Y19.922 Z-3 I-0.09 J-0.12
X86.282 Y20.078 I0.128 J0.078 F1000
X86.026 Y19.922 I-0.128 J-0.078
X86.282 Y20.078 Z-3.126 I0.128 J0.078 F700
X86.026 Y19.922 Z-3.253 I-0.128 J-0.078
X86.282 Y20.078 Z-3.379 I0.128 J0.078
X86.026 Y19.922 Z-3.505 I-0.128 J-0.078
X86.282 Y20.078 Z-3.631 I0.128 J0.078
X86.026 Y19.922 Z-3.758 I-0.128 J-0.078
X86.282 Y20.078 Z-3.884 I0.128 J0.078
X86.026 Y19.922 Z-4.01 I-0.128 J-0.078
X86.282 Y20.078 Z-4.136 I0.128 J0.078
X86.026 Y19.922 Z-4.263 I-0.128 J-0.078
X86.282 Y20.078 Z-4.389 I0.128 J0.078
X86.006 Y19.975 Z-4.5 I-0.128 J-0.078
X86.302 Y20.025 I0.148 J0.025 F1000
X86.006 Y19.975 I-0.148 J-0.025
X86.302 Y20.025 Z-4.626 I0.148 J0.025 F700
X86.006 Y19.975 Z-4.753 I-0.148 J-0.025
X86.302 Y20.025 Z-4.879 I0.148 J0.025
X86.006 Y19.975 Z-5.005 I-0.148 J-0.025
X86.302 Y20.025 Z-5.131 I0.148 J0.025
X86.006 Y19.975 Z-5.258 I-0.148 J-0.025
X86.302 Y20.025 Z-5.384 I0.148 J0.025
X86.006 Y19.975 Z-5.51 I-0.148 J-0.025
X86.302 Y20.025 Z-5.636 I0.148 J0.025
X86.006 Y19.975 Z-5.763 I-0.148 J-0.025
X86.302 Y20.025 Z-5.889 I0.148 J0.025
X86.007 Y20.031 Z-6 I-0.148 J-0.025
X86.301 Y19.969 I0.147 J-0.031 F1000
X86.007 Y20.031 I-0.147 J0.031
X86.301 Y19.969 Z-6.126 I0.147 J-0.031 F700
X86.007 Y20.031 Z-6.253 I-0.147 J0.031
X86.301 Y19.969 Z-6.379 I0.147 J-0.031
X86.007 Y20.031 Z-6.505 I-0.147 J0.031
X86.301 Y19.969 Z-6.631 I0.147 J-0.031
X86.007 Y20.031 Z-6.758 I-0.147 J0.031
X86.301 Y19.969 Z-6.884 I0.147 J-0.031
X86.007 Y20.031 Z-7.01 I-0.147 J0.031
X86.301 Y19.969 Z-7.136 I0.147 J-0.031
X86.007 Y20.031 Z-7.263 I-0.147 J0.031
X86.301 Y19.969 Z-7.389 I0.147 J-0.031
X86.029 Y20.083 Z-7.5 I-0.147 J0.031
X86.279 Y19.917 I0.125 J-0.083 F1000
X86.029 Y20.083 I-0.125 J0.083
X86.279 Y19.917 Z-7.626 I0.125 J-0.083 F700
X86.029 Y20.083 Z-7.753 I-0.125 J0.083
X86.279 Y19.917 Z-7.879 I0.125 J-0.083
X86.029 Y20.083 Z-8.005 I-0.125 J0.083
X86.279 Y19.917 Z-8.131 I0.125 J-0.083
X86.029 Y20.083 Z-8.258 I-0.125 J0.083
X86.279 Y19.917 Z-8.384 I0.125 J-0.083
X86.029 Y20.083 Z-8.51 I-0.125 J0.083
X86.279 Y19.917 Z-8.636 I0.125 J-0.083
X86.029 Y20.083 Z-8.763 I-0.125 J0.083
X86.279 Y19.917 Z-8.889 I0.125 J-0.083
X86.068 Y20.123 Z-9 I-0.125 J0.083
X86.239 Y19.877 I0.085 J-0.123 F1000
X86.068 Y20.123 I-0.085 J0.123
G1 X86.064 Y20.12 Z-9.002 F700
G3 X86.244 Y19.88 Z-9.128 I0.09 J-0.12
X86.064 Y20.12 Z-9.254 I-0.09 J0.12
X86.244 Y19.88 Z-9.38 I0.09 J-0.12
X86.064 Y20.12 Z-9.507 I-0.09 J0.12
X86.244 Y19.88 Z-9.633 I0.09 J-0.12
X86.064 Y20.12 Z-9.759 I-0.09 J0.12
X86.244 Y19.88 Z-9.885 I0.09 J-0.12
X86.064 Y20.12 Z-10.012 I-0.09 J0.12
X86.244 Y19.88 Z-10.138 I0.09 J-0.12
X86.064 Y20.12 Z-10.264 I-0.09 J0.12
X86.244 Y19.88 Z-10.39 I0.09 J-0.12
X86.12 Y20.146 Z-10.5 I-0.09 J0.12
X86.187 Y19.854 I0.034 J-0.146 F1000
X86.12 Y20.146 I-0.034 J0.146
