(1001)
(Machine)
(  vendor: Autodesk)
(  description: Generic 3-axis)
(T4  D=3 CR=0 - ZMIN=-15 - flat end mill)
G90 G94
G17
G21

(2D Pocket5)
T4
S15000 M3
G54
M8
G0 X22.249 Y110.273
Z7
Z3
G1 Z1.8 F700
G3 X24.701 Y111.727 Z1.644 I1.226 J0.727 F333.3
X22.249 Y110.273 Z1.487 I-1.226 J-0.727
X24.701 Y111.727 Z1.331 I1.226 J0.727
X22.249 Y110.273 Z1.175 I-1.226 J-0.727
X24.701 Y111.727 Z1.018 I1.226 J0.727
X22.249 Y110.273 Z0.862 I-1.226 J-0.727
X24.701 Y111.727 Z0.706 I1.226 J0.727
X22.249 Y110.273 Z0.549 I-1.226 J-0.727
X24.701 Y111.727 Z0.393 I1.226 J0.727
X22.249 Y110.273 Z0.237 I-1.226 J-0.727
X24.701 Y111.727 Z0.08 I1.226 J0.727
X22.249 Y110.273 Z-0.076 I-1.226 J-0.727
X24.701 Y111.727 Z-0.232 I1.226 J0.727
X22.249 Y110.273 Z-0.389 I-1.226 J-0.727
X24.701 Y111.727 Z-0.545 I1.226 J0.727
X22.249 Y110.273 Z-0.701 I-1.226 J-0.727
X24.701 Y111.727 Z-0.858 I1.226 J0.727
X22.249 Y110.273 Z-1.014 I-1.226 J-0.727
X24.701 Y111.727 Z-1.17 I1.226 J0.727
X22.05 Y111 Z-1.3 I-1.226 J-0.727
X24.8 Y111 I1.375 J0 F700
X19.2 Y111 I-2.8 J0
X27.65 Y111 I4.225 J0
X16.35 Y111 I-5.65 J0
X30.5 Y111 I7.075 J0
X13.5 Y111 I-8.5 J0
X30.5 Y111 I8.5 J0
X29.548 Y111.706 I-0.738 J0
G1 X26.2 Y110.693
G2 X25.572 Y110.789 I-0.214 J0.706
G1 X23.513 Y112.186
G3 X22.695 Y112.193 I-0.414 J-0.611
X24.255 Y109.807 Z-1.456 I0.78 J-1.193 F333.3
X22.695 Y112.193 Z-1.613 I-0.78 J1.193
X24.255 Y109.807 Z-1.769 I0.78 J-1.193
X22.695 Y112.193 Z-1.925 I-0.78 J1.193
X24.255 Y109.807 Z-2.082 I0.78 J-1.193
X22.695 Y112.193 Z-2.238 I-0.78 J1.193
X24.255 Y109.807 Z-2.394 I0.78 J-1.193
X22.695 Y112.193 Z-2.551 I-0.78 J1.193
X22.05 Y111 Z-2.6 I0.78 J-1.193
X24.8 Y111 I1.375 J0 F700
X19.2 Y111 I-2.8 J0
X27.65 Y111 I4.225 J0
X16.35 Y111 I-5.65 J0
X30.5 Y111 I7.075 J0
X13.5 Y111 I-8.5 J0
X30.5 Y111 I8.5 J0
X29.548 Y111.706 I-0.738 J0
G1 X26.2 Y110.693
G2 X25.572 Y110.789 I-0.214 J0.706
G1 X23.513 Y112.186
G3 X22.695 Y112.193 I-0.414 J-0.611
X24.255 Y109.807 Z-2.756 I0.78 J-1.193 F333.3
X22.695 Y112.193 Z-2.913 I-0.78 J1.193
X24.255 Y109.807 Z-3.069 I0.78 J-1.193
X22.695 Y112.193 Z-3.225 I-0.78 J1.193
X24.255 Y109.807 Z-3.382 I0.78 J-1.193
X22.695 Y112.193 Z-3.538 I-0.78 J1.193
X24.255 Y109.807 Z-3.694 I0.78 J-1.193
X22.695 Y112.193 Z-3.851 I-0.78 J1.193
X22.05 Y111 Z-3.9 I0.78 J-1.193
X24.8 Y111 I1.375 J0 F700
X19.2 Y111 I-2.8 J0
X27.65 Y111 I4.225 J0
X16.35 Y111 I-5.65 J0
X30.5 Y111 I7.075 J0
X13.5 Y111 I-8.5 J0
X30.5 Y111 I8.5 J0
X29.548 Y111.706 I-0.738 J0
G1 X26.2 Y110.693
G2 X25.572 Y110.789 I-0.214 J0.706
G1 X23.513 Y112.186
G3 X22.695 Y112.193 I-0.414 J-0.611
X24.255 Y109.807 Z-4.056 I0.78 J-1.193 F333.3
X22.695 Y112.193 Z-4.213 I-0.78 J1.193
X24.255 Y109.807 Z-4.369 I0.78 J-1.193
X22.695 Y112.193 Z-4.525 I-0.78 J1.193
X24.255 Y109.807 Z-4.682 I0.78 J-1.193
X22.695 Y112.193 Z-4.838 I-0.78 J1.193
X24.255 Y109.807 Z-4.994 I0.78 J-1.193
X22.695 Y112.193 Z-5.151 I-0.78 J1.193
X22.05 Y111 Z-5.2 I0.78 J-1.193
X24.8 Y111 I1.375 J0 F700
X19.2 Y111 I-2.8 J0
X27.65 Y111 I4.225 J0
X16.35 Y111 I-5.65 J0
X30.5 Y111 I7.075 J0
X13.5 Y111 I-8.5 J0
X30.5 Y111 I8.5 J0
X29.548 Y111.706 I-0.738 J0
G1 X26.2 Y110.693
G2 X25.572 Y110.789 I-0.214 J0.706
G1 X23.513 Y112.186
G3 X22.695 Y112.193 I-0.414 J-0.611
X24.255 Y109.807 Z-5.356 I0.78 J-1.193 F333.3
X22.695 Y112.193 Z-5.513 I-0.78 J1.193
X24.255 Y109.807 Z-5.669 I0.78 J-1.193
X22.695 Y112.193 Z-5.825 I-0.78 J1.193
X24.255 Y109.807 Z-5.982 I0.78 J-1.193
X22.695 Y112.193 Z-6.138 I-0.78 J1.193
X24.255 Y109.807 Z-6.294 I0.78 J-1.193
X22.695 Y112.193 Z-6.451 I-0.78 J1.193
X22.05 Y111 Z-6.5 I0.78 J-1.193
X24.8 Y111 I1.375 J0 F700
X19.2 Y111 I-2.8 J0
X27.65 Y111 I4.225 J0
X16.35 Y111 I-5.65 J0
X30.5 Y111 I7.075 J0
X13.5 Y111 I-8.5 J0
X30.5 Y111 I8.5 J0
X29.548 Y111.706 I-0.738 J0
G1 X26.2 Y110.693
G2 X25.572 Y110.789 I-0.214 J0.706
G1 X23.513 Y112.186
G3 X22.695 Y112.193 I-0.414 J-0.611
X24.255 Y109.807 Z-6.656 I0.78 J-1.193 F333.3
X22.695 Y112.193 Z-6.813 I-0.78 J1.193
X24.255 Y109.807 Z-6.969 I0.78 J-1.193
X22.695 Y112.193 Z-7.125 I-0.78 J1.193
X24.255 Y109.807 Z-7.282 I0.78 J-1.193
X22.695 Y112.193 Z-7.438 I-0.78 J1.193
X24.255 Y109.807 Z-7.594 I0.78 J-1.193
X22.695 Y112.193 Z-7.751 I-0.78 J1.193
X22.05 Y111 Z-7.8 I0.78 J-1.193
X24.8 Y111 I1.375 J0 F700
X19.2 Y111 I-2.8 J0
X27.65 Y111 I4.225 J0
X16.35 Y111 I-5.65 J0
X30.5 Y111 I7.075 J0
X13.5 Y111 I-8.5 J0
X30.5 Y111 I8.5 J0
X29.548 Y111.706 I-0.738 J0
G1 X26.2 Y110.693
G2 X25.572 Y110.789 I-0.214 J0.706
G1 X23.513 Y112.186
G3 X22.695 Y112.193 I-0.414 J-0.611
X24.255 Y109.807 Z-7.956 I0.78 J-1.193 F333.3
X22.695 Y112.193 Z-8.113 I-0.78 J1.193
X24.255 Y109.807 Z-8.269 I0.78 J-1.193
X22.695 Y112.193 Z-8.425 I-0.78 J1.193
X24.255 Y109.807 Z-8.582 I0.78 J-1.193
X22.695 Y112.193 Z-8.738 I-0.78 J1.193
X24.255 Y109.807 Z-8.894 I0.78 J-1.193
X22.695 Y112.193 Z-9.051 I-0.78 J1.193
X22.05 Y111 Z-9.1 I0.78 J-1.193
X24.8 Y111 I1.375 J0 F700
X19.2 Y111 I-2.8 J0
X27.65 Y111 I4.225 J0
X16.35 Y111 I-5.65 J0
X30.5 Y111 I7.075 J0
X13.5 Y111 I-8.5 J0
X30.5 Y111 I8.5 J0
X29.548 Y111.706 I-0.738 J0
G1 X26.2 Y110.693
G2 X25.572 Y110.789 I-0.214 J0.706
G1 X23.513 Y112.186
G3 X22.695 Y112.193 I-0.414 J-0.611
X24.255 Y109.807 Z-9.256 I0.78 J-1.193 F333.3
X22.695 Y112.193 Z-9.413 I-0.78 J1.193
X24.255 Y109.807 Z-9.569 I0.78 J-1.193
X22.695 Y112.193 Z-9.725 I-0.78 J1.193
X24.255 Y109.807 Z-9.882 I0.78 J-1.193
X22.695 Y112.193 Z-10.038 I-0.78 J1.193
X24.255 Y109.807 Z-10.194 I0.78 J-1.193
X22.695 Y112.193 Z-10.351 I-0.78 J1.193
X22.05 Y111 Z-10.4 I0.78 J-1.193
X24.8 Y111 I1.375 J0 F700
X19.2 Y111 I-2.8 J0
X27.65 Y111 I4.225 J0
X16.35 Y111 I-5.65 J0
X30.5 Y111 I7.075 J0
X13.5 Y111 I-8.5 J0
X30.5 Y111 I8.5 J0
X29.548 Y111.706 I-0.738 J0
G1 X26.2 Y110.693
G2 X25.572 Y110.789 I-0.214 J0.706
G1 X23.513 Y112.186
G3 X22.695 Y112.193 I-0.414 J-0.611
X24.255 Y109.807 Z-10.556 I0.78 J-1.193 F333.3
X22.695 Y112.193 Z-10.713 I-0.78 J1.193
X24.255 Y109.807 Z-10.869 I0.78 J-1.193
X22.695 Y112.193 Z-11.025 I-0.78 J1.193
X24.255 Y109.807 Z-11.182 I0.78 J-1.193
X22.695 Y112.193 Z-11.338 I-0.78 J1.193
X24.255 Y109.807 Z-11.494 I0.78 J-1.193
X22.695 Y112.193 Z-11.651 I-0.78 J1.193
X22.05 Y111 Z-11.7 I0.78 J-1.193
X24.8 Y111 I1.375 J0 F700
X19.2 Y111 I-2.8 J0
X27.65 Y111 I4.225 J0
X16.35 Y111 I-5.65 J0
X30.5 Y111 I7.075 J0
X13.5 Y111 I-8.5 J0
X30.5 Y111 I8.5 J0
X29.548 Y111.706 I-0.738 J0
G1 X26.2 Y110.693
G2 X25.572 Y110.789 I-0.214 J0.706
G1 X23.513 Y112.186
G3 X22.695 Y112.193 I-0.414 J-0.611
X24.255 Y109.807 Z-11.856 I0.78 J-1.193 F333.3
X22.695 Y112.193 Z-12.013 I-0.78 J1.193
X24.255 Y109.807 Z-12.169 I0.78 J-1.193
X22.695 Y112.193 Z-12.325 I-0.78 J1.193
X24.255 Y109.807 Z-12.482 I0.78 J-1.193
X22.695 Y112.193 Z-12.638 I-0.78 J1.193
X24.255 Y109.807 Z-12.794 I0.78 J-1.193
X22.695 Y112.193 Z-12.951 I-0.78 J1.193
X22.05 Y111 Z-13 I0.78 J-1.193
X24.8 Y111 I1.375 J0 F700
X19.2 Y111 I-2.8 J0
X27.65 Y111 I4.225 J0
X16.35 Y111 I-5.65 J0
X30.5 Y111 I7.075 J0
X13.5 Y111 I-8.5 J0
X30.5 Y111 I8.5 J0
X29.548 Y111.706 I-0.738 J0
G1 X26.2 Y110.693
G2 X25.572 Y110.789 I-0.214 J0.706
G1 X23.513 Y112.186
G3 X22.695 Y112.193 I-0.414 J-0.611
X24.255 Y109.807 Z-13.156 I0.78 J-1.193 F333.3
X22.695 Y112.193 Z-13.313 I-0.78 J1.193
X24.255 Y109.807 Z-13.469 I0.78 J-1.193
X22.695 Y112.193 Z-13.625 I-0.78 J1.193
X24.255 Y109.807 Z-13.782 I0.78 J-1.193
X22.695 Y112.193 Z-13.938 I-0.78 J1.193
X24.255 Y109.807 Z-14.094 I0.78 J-1.193
X22.695 Y112.193 Z-14.251 I-0.78 J1.193
X22.05 Y111 Z-14.3 I0.78 J-1.193
X24.8 Y111 I1.375 J0 F700
X19.2 Y111 I-2.8 J0
X27.65 Y111 I4.225 J0
X16.35 Y111 I-5.65 J0
X30.5 Y111 I7.075 J0
X13.5 Y111 I-8.5 J0
X30.5 Y111 I8.5 J0
X29.468 Y111.743 I-0.784 J0
G1 X25.939 Y110.564
G2 X25.076 Y110.821 I-0.248 J0.743
G1 X24.045 Y112.126
G3 X23.375 Y112.421 I-0.615 J-0.486
X23.575 Y109.579 Z-14.456 I0.1 J-1.421 F333.3
X23.375 Y112.421 Z-14.613 I-0.1 J1.421
X23.575 Y109.579 Z-14.769 I0.1 J-1.421
X23.375 Y112.421 Z-14.925 I-0.1 J1.421
X22.05 Y111 Z-15 I0.1 J-1.421
X24.8 Y111 I1.375 J0 F700
X19.2 Y111 I-2.8 J0
X27.65 Y111 I4.225 J0
X16.35 Y111 I-5.65 J0
X30.5 Y111 I7.075 J0
X13.5 Y111 I-8.5 J0
X30.5 Y111 I8.5 J0
G0 Z7
X11.149 Y94.273
Z3
G1 Z1.8 F700
G3 X13.601 Y95.727 Z1.644 I1.226 J0.727 F333.3
X11.149 Y94.273 Z1.487 I-1.226 J-0.727
X13.601 Y95.727 Z1.331 I1.226 J0.727
X11.149 Y94.273 Z1.175 I-1.226 J-0.727
X13.601 Y95.727 Z1.018 I1.226 J0.727
X11.149 Y94.273 Z0.862 I-1.226 J-0.727
X13.601 Y95.727 Z0.706 I1.226 J0.727
X11.149 Y94.273 Z0.549 I-1.226 J-0.727
X13.601 Y95.727 Z0.393 I1.226 J0.727
X11.149 Y94.273 Z0.237 I-1.226 J-0.727
X13.601 Y95.727 Z0.08 I1.226 J0.727
X11.149 Y94.273 Z-0.076 I-1.226 J-0.727
X13.601 Y95.727 Z-0.232 I1.226 J0.727
X11.149 Y94.273 Z-0.389 I-1.226 J-0.727
X13.601 Y95.727 Z-0.545 I1.226 J0.727
X11.149 Y94.273 Z-0.701 I-1.226 J-0.727
X13.601 Y95.727 Z-0.858 I1.226 J0.727
X11.149 Y94.273 Z-1.014 I-1.226 J-0.727
X13.601 Y95.727 Z-1.17 I1.226 J0.727
X10.95 Y95 Z-1.3 I-1.226 J-0.727
X11.9 Y95 I0.475 J0 F700
X8.1 Y95 I-1.9 J0
X14.75 Y95 I3.325 J0
X5.25 Y95 I-4.75 J0
X14.75 Y95 I4.75 J0
G1 X14.744 Y95.049
X14.726 Y95.094
X14.698 Y95.134
X14.661 Y95.166
X14.618 Y95.188
X11.772 Y96.213
X11.727 Y96.224
X11.681
X11.636 Y96.213
X11.595 Y96.193
G3 X13.155 Y93.807 Z-1.456 I0.78 J-1.193 F333.3
X11.595 Y96.193 Z-1.613 I-0.78 J1.193
X13.155 Y93.807 Z-1.769 I0.78 J-1.193
X11.595 Y96.193 Z-1.925 I-0.78 J1.193
X13.155 Y93.807 Z-2.082 I0.78 J-1.193
X11.595 Y96.193 Z-2.238 I-0.78 J1.193
X13.155 Y93.807 Z-2.394 I0.78 J-1.193
X11.595 Y96.193 Z-2.551 I-0.78 J1.193
X10.95 Y95 Z-2.6 I0.78 J-1.193
X11.9 Y95 I0.475 J0 F700
X8.1 Y95 I-1.9 J0
X14.75 Y95 I3.325 J0
X5.25 Y95 I-4.75 J0
X14.75 Y95 I4.75 J0
G1 X14.744 Y95.049
X14.726 Y95.094
X14.698 Y95.134
X14.661 Y95.166
X14.618 Y95.188
X11.772 Y96.213
X11.727 Y96.224
X11.681
X11.636 Y96.213
X11.595 Y96.193
G3 X13.155 Y93.807 Z-2.756 I0.78 J-1.193 F333.3
X11.595 Y96.193 Z-2.913 I-0.78 J1.193
X13.155 Y93.807 Z-3.069 I0.78 J-1.193
X11.595 Y96.193 Z-3.225 I-0.78 J1.193
X13.155 Y93.807 Z-3.382 I0.78 J-1.193
X11.595 Y96.193 Z-3.538 I-0.78 J1.193
X13.155 Y93.807 Z-3.694 I0.78 J-1.193
X11.595 Y96.193 Z-3.851 I-0.78 J1.193
X10.95 Y95 Z-3.9 I0.78 J-1.193
X11.9 Y95 I0.475 J0 F700
X8.1 Y95 I-1.9 J0
X14.75 Y95 I3.325 J0
X5.25 Y95 I-4.75 J0
X14.75 Y95 I4.75 J0
G1 X14.744 Y95.049
X14.726 Y95.094
X14.698 Y95.134
X14.661 Y95.166
X14.618 Y95.188
X11.772 Y96.213
X11.727 Y96.224
X11.681
X11.636 Y96.213
X11.595 Y96.193
G3 X13.155 Y93.807 Z-4.056 I0.78 J-1.193 F333.3
X11.595 Y96.193 Z-4.213 I-0.78 J1.193
X13.155 Y93.807 Z-4.369 I0.78 J-1.193
X11.595 Y96.193 Z-4.525 I-0.78 J1.193
X13.155 Y93.807 Z-4.682 I0.78 J-1.193
X11.595 Y96.193 Z-4.838 I-0.78 J1.193
X13.155 Y93.807 Z-4.994 I0.78 J-1.193
X11.595 Y96.193 Z-5.151 I-0.78 J1.193
X10.95 Y95 Z-5.2 I0.78 J-1.193
X11.9 Y95 I0.475 J0 F700
X8.1 Y95 I-1.9 J0
X14.75 Y95 I3.325 J0
X5.25 Y95 I-4.75 J0
X14.75 Y95 I4.75 J0
G1 X14.744 Y95.049
X14.726 Y95.094
X14.698 Y95.134
X14.661 Y95.166
X14.618 Y95.188
X11.772 Y96.213
X11.727 Y96.224
X11.681
X11.636 Y96.213
X11.595 Y96.193
G3 X13.155 Y93.807 Z-5.356 I0.78 J-1.193 F333.3
X11.595 Y96.193 Z-5.513 I-0.78 J1.193
X13.155 Y93.807 Z-5.669 I0.78 J-1.193
X11.595 Y96.193 Z-5.825 I-0.78 J1.193
X13.155 Y93.807 Z-5.982 I0.78 J-1.193
X11.595 Y96.193 Z-6.138 I-0.78 J1.193
X13.155 Y93.807 Z-6.294 I0.78 J-1.193
X11.595 Y96.193 Z-6.451 I-0.78 J1.193
X10.95 Y95 Z-6.5 I0.78 J-1.193
X11.9 Y95 I0.475 J0 F700
X8.1 Y95 I-1.9 J0
X14.75 Y95 I3.325 J0
X5.25 Y95 I-4.75 J0
X14.75 Y95 I4.75 J0
G1 X14.744 Y95.049
X14.726 Y95.094
X14.698 Y95.134
X14.661 Y95.166
X14.618 Y95.188
X11.772 Y96.213
X11.727 Y96.224
X11.681
X11.636 Y96.213
X11.595 Y96.193
G3 X13.155 Y93.807 Z-6.656 I0.78 J-1.193 F333.3
X11.595 Y96.193 Z-6.813 I-0.78 J1.193
X13.155 Y93.807 Z-6.969 I0.78 J-1.193
X11.595 Y96.193 Z-7.125 I-0.78 J1.193
X13.155 Y93.807 Z-7.282 I0.78 J-1.193
X11.595 Y96.193 Z-7.438 I-0.78 J1.193
X13.155 Y93.807 Z-7.594 I0.78 J-1.193
X11.595 Y96.193 Z-7.751 I-0.78 J1.193
X10.95 Y95 Z-7.8 I0.78 J-1.193
X11.9 Y95 I0.475 J0 F700
X8.1 Y95 I-1.9 J0
X14.75 Y95 I3.325 J0
X5.25 Y95 I-4.75 J0
X14.75 Y95 I4.75 J0
G1 X14.744 Y95.049
X14.726 Y95.094
X14.698 Y95.134
X14.661 Y95.166
X14.618 Y95.188
X11.772 Y96.213
X11.727 Y96.224
X11.681
X11.636 Y96.213
X11.595 Y96.193
G3 X13.155 Y93.807 Z-7.956 I0.78 J-1.193 F333.3
X11.595 Y96.193 Z-8.113 I-0.78 J1.193
X13.155 Y93.807 Z-8.269 I0.78 J-1.193
X11.595 Y96.193 Z-8.425 I-0.78 J1.193
X13.155 Y93.807 Z-8.582 I0.78 J-1.193
X11.595 Y96.193 Z-8.738 I-0.78 J1.193
X13.155 Y93.807 Z-8.894 I0.78 J-1.193
X11.595 Y96.193 Z-9.051 I-0.78 J1.193
X10.95 Y95 Z-9.1 I0.78 J-1.193
X11.9 Y95 I0.475 J0 F700
X8.1 Y95 I-1.9 J0
X14.75 Y95 I3.325 J0
X5.25 Y95 I-4.75 J0
X14.75 Y95 I4.75 J0
G1 X14.744 Y95.049
X14.726 Y95.094
X14.698 Y95.134
X14.661 Y95.166
X14.618 Y95.188
X11.772 Y96.213
X11.727 Y96.224
X11.681
X11.636 Y96.213
X11.595 Y96.193
G3 X13.155 Y93.807 Z-9.256 I0.78 J-1.193 F333.3
X11.595 Y96.193 Z-9.413 I-0.78 J1.193
X13.155 Y93.807 Z-9.569 I0.78 J-1.193
X11.595 Y96.193 Z-9.725 I-0.78 J1.193
X13.155 Y93.807 Z-9.882 I0.78 J-1.193
X11.595 Y96.193 Z-10.038 I-0.78 J1.193
X13.155 Y93.807 Z-10.194 I0.78 J-1.193
X11.595 Y96.193 Z-10.351 I-0.78 J1.193
X10.95 Y95 Z-10.4 I0.78 J-1.193
X11.9 Y95 I0.475 J0 F700
X8.1 Y95 I-1.9 J0
X14.75 Y95 I3.325 J0
X5.25 Y95 I-4.75 J0
X14.75 Y95 I4.75 J0
G1 X14.744 Y95.049
X14.726 Y95.094
X14.698 Y95.134
X14.661 Y95.166
X14.618 Y95.188
X11.772 Y96.213
X11.727 Y96.224
X11.681
X11.636 Y96.213
X11.595 Y96.193
G3 X13.155 Y93.807 Z-10.556 I0.78 J-1.193 F333.3
X11.595 Y96.193 Z-10.713 I-0.78 J1.193
X13.155 Y93.807 Z-10.869 I0.78 J-1.193
X11.595 Y96.193 Z-11.025 I-0.78 J1.193
X13.155 Y93.807 Z-11.182 I0.78 J-1.193
X11.595 Y96.193 Z-11.338 I-0.78 J1.193
X13.155 Y93.807 Z-11.494 I0.78 J-1.193
X11.595 Y96.193 Z-11.651 I-0.78 J1.193
X10.95 Y95 Z-11.7 I0.78 J-1.193
X11.9 Y95 I0.475 J0 F700
X8.1 Y95 I-1.9 J0
X14.75 Y95 I3.325 J0
X5.25 Y95 I-4.75 J0
X14.75 Y95 I4.75 J0
G1 X14.744 Y95.049
X14.726 Y95.094
X14.698 Y95.134
X14.661 Y95.166
X14.618 Y95.188
X11.772 Y96.213
X11.727 Y96.224
X11.681
X11.636 Y96.213
X11.595 Y96.193
G3 X13.155 Y93.807 Z-11.856 I0.78 J-1.193 F333.3
X11.595 Y96.193 Z-12.013 I-0.78 J1.193
X13.155 Y93.807 Z-12.169 I0.78 J-1.193
X11.595 Y96.193 Z-12.325 I-0.78 J1.193
X13.155 Y93.807 Z-12.482 I0.78 J-1.193
X11.595 Y96.193 Z-12.638 I-0.78 J1.193
X13.155 Y93.807 Z-12.794 I0.78 J-1.193
X11.595 Y96.193 Z-12.951 I-0.78 J1.193
X10.95 Y95 Z-13 I0.78 J-1.193
X11.9 Y95 I0.475 J0 F700
X8.1 Y95 I-1.9 J0
X14.75 Y95 I3.325 J0
X5.25 Y95 I-4.75 J0
X14.75 Y95 I4.75 J0
G1 X14.744 Y95.049
X14.726 Y95.094
X14.698 Y95.134
X14.661 Y95.166
X14.618 Y95.188
X11.772 Y96.213
X11.727 Y96.224
X11.681
X11.636 Y96.213
X11.595 Y96.193
G3 X13.155 Y93.807 Z-13.156 I0.78 J-1.193 F333.3
X11.595 Y96.193 Z-13.313 I-0.78 J1.193
X13.155 Y93.807 Z-13.469 I0.78 J-1.193
X11.595 Y96.193 Z-13.625 I-0.78 J1.193
X13.155 Y93.807 Z-13.782 I0.78 J-1.193
X11.595 Y96.193 Z-13.938 I-0.78 J1.193
X13.155 Y93.807 Z-14.094 I0.78 J-1.193
X11.595 Y96.193 Z-14.251 I-0.78 J1.193
X10.95 Y95 Z-14.3 I0.78 J-1.193
X11.9 Y95 I0.475 J0 F700
X8.1 Y95 I-1.9 J0
X14.75 Y95 I3.325 J0
X5.25 Y95 I-4.75 J0
X14.75 Y95 I4.75 J0
G1 X14.743 Y95.053
X14.722 Y95.102
X14.688 Y95.144
X14.645 Y95.176
X12.384 Y96.398
X12.331 Y96.417
X12.275 Y96.421
G3 X12.475 Y93.579 Z-14.456 I0.1 J-1.421 F333.3
X12.275 Y96.421 Z-14.613 I-0.1 J1.421
X12.475 Y93.579 Z-14.769 I0.1 J-1.421
X12.275 Y96.421 Z-14.925 I-0.1 J1.421
X10.95 Y95 Z-15 I0.1 J-1.421
X11.9 Y95 I0.475 J0 F700
X8.1 Y95 I-1.9 J0
X14.75 Y95 I3.325 J0
X5.25 Y95 I-4.75 J0
X14.75 Y95 I4.75 J0
G0 Z7
X35.594 Y94.273
Z3
G1 Z1.8 F700
G3 X38.045 Y95.727 Z1.644 I1.226 J0.727 F333.3
X35.594 Y94.273 Z1.487 I-1.226 J-0.727
X38.045 Y95.727 Z1.331 I1.226 J0.727
X35.594 Y94.273 Z1.175 I-1.226 J-0.727
X38.045 Y95.727 Z1.018 I1.226 J0.727
X35.594 Y94.273 Z0.862 I-1.226 J-0.727
X38.045 Y95.727 Z0.706 I1.226 J0.727
X35.594 Y94.273 Z0.549 I-1.226 J-0.727
X38.045 Y95.727 Z0.393 I1.226 J0.727
X35.594 Y94.273 Z0.237 I-1.226 J-0.727
X38.045 Y95.727 Z0.08 I1.226 J0.727
X35.594 Y94.273 Z-0.076 I-1.226 J-0.727
X38.045 Y95.727 Z-0.232 I1.226 J0.727
X35.594 Y94.273 Z-0.389 I-1.226 J-0.727
X38.045 Y95.727 Z-0.545 I1.226 J0.727
X35.594 Y94.273 Z-0.701 I-1.226 J-0.727
X38.045 Y95.727 Z-0.858 I1.226 J0.727
X35.594 Y94.273 Z-1.014 I-1.226 J-0.727
X38.045 Y95.727 Z-1.17 I1.226 J0.727
X35.394 Y95 Z-1.3 I-1.226 J-0.727
X36.344 Y95 I0.475 J0 F700
X32.544 Y95 I-1.9 J0
X39.194 Y95 I3.325 J0
X29.694 Y95 I-4.75 J0
X39.194 Y95 I4.75 J0
G1 X39.188 Y95.049
X39.171 Y95.094
X39.143 Y95.134
X39.106 Y95.166
X39.062 Y95.188
X36.217 Y96.213
X36.172 Y96.224
X36.126
X36.081 Y96.213
X36.039 Y96.193
G3 X37.599 Y93.807 Z-1.456 I0.78 J-1.193 F333.3
X36.039 Y96.193 Z-1.613 I-0.78 J1.193
X37.599 Y93.807 Z-1.769 I0.78 J-1.193
X36.039 Y96.193 Z-1.925 I-0.78 J1.193
X37.599 Y93.807 Z-2.082 I0.78 J-1.193
X36.039 Y96.193 Z-2.238 I-0.78 J1.193
X37.599 Y93.807 Z-2.394 I0.78 J-1.193
X36.039 Y96.193 Z-2.551 I-0.78 J1.193
X35.394 Y95 Z-2.6 I0.78 J-1.193
X36.344 Y95 I0.475 J0 F700
X32.544 Y95 I-1.9 J0
X39.194 Y95 I3.325 J0
X29.694 Y95 I-4.75 J0
X39.194 Y95 I4.75 J0
G1 X39.188 Y95.049
X39.171 Y95.094
X39.143 Y95.134
X39.106 Y95.166
X39.062 Y95.188
X36.217 Y96.213
X36.172 Y96.224
X36.126
X36.081 Y96.213
X36.039 Y96.193
G3 X37.599 Y93.807 Z-2.756 I0.78 J-1.193 F333.3
X36.039 Y96.193 Z-2.913 I-0.78 J1.193
X37.599 Y93.807 Z-3.069 I0.78 J-1.193
X36.039 Y96.193 Z-3.225 I-0.78 J1.193
X37.599 Y93.807 Z-3.382 I0.78 J-1.193
X36.039 Y96.193 Z-3.538 I-0.78 J1.193
X37.599 Y93.807 Z-3.694 I0.78 J-1.193
X36.039 Y96.193 Z-3.851 I-0.78 J1.193
X35.394 Y95 Z-3.9 I0.78 J-1.193
X36.344 Y95 I0.475 J0 F700
X32.544 Y95 I-1.9 J0
X39.194 Y95 I3.325 J0
X29.694 Y95 I-4.75 J0
X39.194 Y95 I4.75 J0
G1 X39.188 Y95.049
X39.171 Y95.094
X39.143 Y95.134
X39.106 Y95.166
X39.062 Y95.188
X36.217 Y96.213
X36.172 Y96.224
X36.126
X36.081 Y96.213
X36.039 Y96.193
G3 X37.599 Y93.807 Z-4.056 I0.78 J-1.193 F333.3
X36.039 Y96.193 Z-4.213 I-0.78 J1.193
X37.599 Y93.807 Z-4.369 I0.78 J-1.193
X36.039 Y96.193 Z-4.525 I-0.78 J1.193
X37.599 Y93.807 Z-4.682 I0.78 J-1.193
X36.039 Y96.193 Z-4.838 I-0.78 J1.193
X37.599 Y93.807 Z-4.994 I0.78 J-1.193
X36.039 Y96.193 Z-5.151 I-0.78 J1.193
X35.394 Y95 Z-5.2 I0.78 J-1.193
X36.344 Y95 I0.475 J0 F700
X32.544 Y95 I-1.9 J0
X39.194 Y95 I3.325 J0
X29.694 Y95 I-4.75 J0
X39.194 Y95 I4.75 J0
G1 X39.188 Y95.049
X39.171 Y95.094
X39.143 Y95.134
X39.106 Y95.166
X39.062 Y95.188
X36.217 Y96.213
X36.172 Y96.224
X36.126
X36.081 Y96.213
X36.039 Y96.193
G3 X37.599 Y93.807 Z-5.356 I0.78 J-1.193 F333.3
X36.039 Y96.193 Z-5.513 I-0.78 J1.193
X37.599 Y93.807 Z-5.669 I0.78 J-1.193
X36.039 Y96.193 Z-5.825 I-0.78 J1.193
X37.599 Y93.807 Z-5.982 I0.78 J-1.193
X36.039 Y96.193 Z-6.138 I-0.78 J1.193
X37.599 Y93.807 Z-6.294 I0.78 J-1.193
X36.039 Y96.193 Z-6.451 I-0.78 J1.193
X35.394 Y95 Z-6.5 I0.78 J-1.193
X36.344 Y95 I0.475 J0 F700
X32.544 Y95 I-1.9 J0
X39.194 Y95 I3.325 J0
X29.694 Y95 I-4.75 J0
X39.194 Y95 I4.75 J0
G1 X39.188 Y95.049
X39.171 Y95.094
X39.143 Y95.134
X39.106 Y95.166
X39.062 Y95.188
X36.217 Y96.213
X36.172 Y96.224
X36.126
X36.081 Y96.213
X36.039 Y96.193
G3 X37.599 Y93.807 Z-6.656 I0.78 J-1.193 F333.3
X36.039 Y96.193 Z-6.813 I-0.78 J1.193
X37.599 Y93.807 Z-6.969 I0.78 J-1.193
X36.039 Y96.193 Z-7.125 I-0.78 J1.193
X37.599 Y93.807 Z-7.282 I0.78 J-1.193
X36.039 Y96.193 Z-7.438 I-0.78 J1.193
X37.599 Y93.807 Z-7.594 I0.78 J-1.193
X36.039 Y96.193 Z-7.751 I-0.78 J1.193
X35.394 Y95 Z-7.8 I0.78 J-1.193
X36.344 Y95 I0.475 J0 F700
X32.544 Y95 I-1.9 J0
X39.194 Y95 I3.325 J0
X29.694 Y95 I-4.75 J0
X39.194 Y95 I4.75 J0
G1 X39.188 Y95.049
X39.171 Y95.094
X39.143 Y95.134
X39.106 Y95.166
X39.062 Y95.188
X36.217 Y96.213
X36.172 Y96.224
X36.126
X36.081 Y96.213
X36.039 Y96.193
G3 X37.599 Y93.807 Z-7.956 I0.78 J-1.193 F333.3
X36.039 Y96.193 Z-8.113 I-0.78 J1.193
X37.599 Y93.807 Z-8.269 I0.78 J-1.193
X36.039 Y96.193 Z-8.425 I-0.78 J1.193
X37.599 Y93.807 Z-8.582 I0.78 J-1.193
X36.039 Y96.193 Z-8.738 I-0.78 J1.193
X37.599 Y93.807 Z-8.894 I0.78 J-1.193
X36.039 Y96.193 Z-9.051 I-0.78 J1.193
X35.394 Y95 Z-9.1 I0.78 J-1.193
X36.344 Y95 I0.475 J0 F700
X32.544 Y95 I-1.9 J0
X39.194 Y95 I3.325 J0
X29.694 Y95 I-4.75 J0
X39.194 Y95 I4.75 J0
G1 X39.188 Y95.049
X39.171 Y95.094
X39.143 Y95.134
X39.106 Y95.166
X39.062 Y95.188
X36.217 Y96.213
X36.172 Y96.224
X36.126
X36.081 Y96.213
X36.039 Y96.193
G3 X37.599 Y93.807 Z-9.256 I0.78 J-1.193 F333.3
X36.039 Y96.193 Z-9.413 I-0.78 J1.193
X37.599 Y93.807 Z-9.569 I0.78 J-1.193
X36.039 Y96.193 Z-9.725 I-0.78 J1.193
X37.599 Y93.807 Z-9.882 I0.78 J-1.193
X36.039 Y96.193 Z-10.038 I-0.78 J1.193
X37.599 Y93.807 Z-10.194 I0.78 J-1.193
X36.039 Y96.193 Z-10.351 I-0.78 J1.193
X35.394 Y95 Z-10.4 I0.78 J-1.193
X36.344 Y95 I0.475 J0 F700
X32.544 Y95 I-1.9 J0
X39.194 Y95 I3.325 J0
X29.694 Y95 I-4.75 J0
X39.194 Y95 I4.75 J0
G1 X39.188 Y95.049
X39.171 Y95.094
X39.143 Y95.134
X39.106 Y95.166
X39.062 Y95.188
X36.217 Y96.213
X36.172 Y96.224
X36.126
X36.081 Y96.213
X36.039 Y96.193
G3 X37.599 Y93.807 Z-10.556 I0.78 J-1.193 F333.3
X36.039 Y96.193 Z-10.713 I-0.78 J1.193
X37.599 Y93.807 Z-10.869 I0.78 J-1.193
X36.039 Y96.193 Z-11.025 I-0.78 J1.193
X37.599 Y93.807 Z-11.182 I0.78 J-1.193
X36.039 Y96.193 Z-11.338 I-0.78 J1.193
X37.599 Y93.807 Z-11.494 I0.78 J-1.193
X36.039 Y96.193 Z-11.651 I-0.78 J1.193
X35.394 Y95 Z-11.7 I0.78 J-1.193
X36.344 Y95 I0.475 J0 F700
X32.544 Y95 I-1.9 J0
X39.194 Y95 I3.325 J0
X29.694 Y95 I-4.75 J0
X39.194 Y95 I4.75 J0
G1 X39.188 Y95.049
X39.171 Y95.094
X39.143 Y95.134
X39.106 Y95.166
X39.062 Y95.188
X36.217 Y96.213
X36.172 Y96.224
X36.126
X36.081 Y96.213
X36.039 Y96.193
G3 X37.599 Y93.807 Z-11.856 I0.78 J-1.193 F333.3
X36.039 Y96.193 Z-12.013 I-0.78 J1.193
X37.599 Y93.807 Z-12.169 I0.78 J-1.193
X36.039 Y96.193 Z-12.325 I-0.78 J1.193
X37.599 Y93.807 Z-12.482 I0.78 J-1.193
X36.039 Y96.193 Z-12.638 I-0.78 J1.193
X37.599 Y93.807 Z-12.794 I0.78 J-1.193
X36.039 Y96.193 Z-12.951 I-0.78 J1.193
X35.394 Y95 Z-13 I0.78 J-1.193
X36.344 Y95 I0.475 J0 F700
X32.544 Y95 I-1.9 J0
X39.194 Y95 I3.325 J0
X29.694 Y95 I-4.75 J0
X39.194 Y95 I4.75 J0
G1 X39.188 Y95.049
X39.171 Y95.094
X39.143 Y95.134
X39.106 Y95.166
X39.062 Y95.188
X36.217 Y96.213
X36.172 Y96.224
X36.126
X36.081 Y96.213
X36.039 Y96.193
G3 X37.599 Y93.807 Z-13.156 I0.78 J-1.193 F333.3
X36.039 Y96.193 Z-13.313 I-0.78 J1.193
X37.599 Y93.807 Z-13.469 I0.78 J-1.193
X36.039 Y96.193 Z-13.625 I-0.78 J1.193
X37.599 Y93.807 Z-13.782 I0.78 J-1.193
X36.039 Y96.193 Z-13.938 I-0.78 J1.193
X37.599 Y93.807 Z-14.094 I0.78 J-1.193
X36.039 Y96.193 Z-14.251 I-0.78 J1.193
X35.394 Y95 Z-14.3 I0.78 J-1.193
X36.344 Y95 I0.475 J0 F700
X32.544 Y95 I-1.9 J0
X39.194 Y95 I3.325 J0
X29.694 Y95 I-4.75 J0
X39.194 Y95 I4.75 J0
G1 X39.187 Y95.053
X39.166 Y95.102
X39.133 Y95.144
X39.089 Y95.176
X36.829 Y96.398
X36.776 Y96.417
X36.719 Y96.421
G3 X36.919 Y93.579 Z-14.456 I0.1 J-1.421 F333.3
X36.719 Y96.421 Z-14.613 I-0.1 J1.421
X36.919 Y93.579 Z-14.769 I0.1 J-1.421
X36.719 Y96.421 Z-14.925 I-0.1 J1.421
X35.394 Y95 Z-15 I0.1 J-1.421
X36.344 Y95 I0.475 J0 F700
X32.544 Y95 I-1.9 J0
X39.194 Y95 I3.325 J0
X29.694 Y95 I-4.75 J0
X39.194 Y95 I4.75 J0
G0 Z7
X46.978 Y128.014
Z3
G1 Z1.8 F700
G3 X49.429 Y129.468 Z1.644 I1.226 J0.727 F333.3
X46.978 Y128.014 Z1.487 I-1.226 J-0.727
X49.429 Y129.468 Z1.331 I1.226 J0.727
X46.978 Y128.014 Z1.175 I-1.226 J-0.727
X49.429 Y129.468 Z1.018 I1.226 J0.727
X46.978 Y128.014 Z0.862 I-1.226 J-0.727
X49.429 Y129.468 Z0.706 I1.226 J0.727
X46.978 Y128.014 Z0.549 I-1.226 J-0.727
X49.429 Y129.468 Z0.393 I1.226 J0.727
X46.978 Y128.014 Z0.237 I-1.226 J-0.727
X49.429 Y129.468 Z0.08 I1.226 J0.727
X46.978 Y128.014 Z-0.076 I-1.226 J-0.727
X49.429 Y129.468 Z-0.232 I1.226 J0.727
X46.978 Y128.014 Z-0.389 I-1.226 J-0.727
X49.429 Y129.468 Z-0.545 I1.226 J0.727
X46.978 Y128.014 Z-0.701 I-1.226 J-0.727
X49.429 Y129.468 Z-0.858 I1.226 J0.727
X46.978 Y128.014 Z-1.014 I-1.226 J-0.727
X49.429 Y129.468 Z-1.17 I1.226 J0.727
X46.778 Y128.741 Z-1.3 I-1.226 J-0.727
X48.828 Y128.741 I1.025 J0 F700
X43.928 Y128.741 I-2.45 J0
X51.678 Y128.741 I3.875 J0
X41.078 Y128.741 I-5.3 J0
X54.528 Y128.741 I6.725 J0
X38.228 Y128.741 I-8.15 J0
X57.378 Y128.741 I9.575 J0
X35.378 Y128.741 I-11 J0
X57.378 Y128.741 I11 J0
X56.124 Y129.637 I-0.947 J0
G1 X51.867 Y128.179
G2 X51.05 Y128.277 I-0.307 J0.896
G1 X48.452 Y129.939
G3 X47.423 Y129.934 I-0.51 J-0.798
X48.983 Y127.548 Z-1.456 I0.78 J-1.193 F333.3
X47.423 Y129.934 Z-1.613 I-0.78 J1.193
X48.983 Y127.548 Z-1.769 I0.78 J-1.193
X47.423 Y129.934 Z-1.925 I-0.78 J1.193
X48.983 Y127.548 Z-2.082 I0.78 J-1.193
X47.423 Y129.934 Z-2.238 I-0.78 J1.193
X48.983 Y127.548 Z-2.394 I0.78 J-1.193
X47.423 Y129.934 Z-2.551 I-0.78 J1.193
X46.778 Y128.741 Z-2.6 I0.78 J-1.193
X48.828 Y128.741 I1.025 J0 F700
X43.928 Y128.741 I-2.45 J0
X51.678 Y128.741 I3.875 J0
X41.078 Y128.741 I-5.3 J0
X54.528 Y128.741 I6.725 J0
X38.228 Y128.741 I-8.15 J0
X57.378 Y128.741 I9.575 J0
X35.378 Y128.741 I-11 J0
X57.378 Y128.741 I11 J0
X56.124 Y129.637 I-0.947 J0
G1 X51.867 Y128.179
G2 X51.05 Y128.277 I-0.307 J0.896
G1 X48.452 Y129.939
G3 X47.423 Y129.934 I-0.51 J-0.798
X48.983 Y127.548 Z-2.756 I0.78 J-1.193 F333.3
X47.423 Y129.934 Z-2.913 I-0.78 J1.193
X48.983 Y127.548 Z-3.069 I0.78 J-1.193
X47.423 Y129.934 Z-3.225 I-0.78 J1.193
X48.983 Y127.548 Z-3.382 I0.78 J-1.193
X47.423 Y129.934 Z-3.538 I-0.78 J1.193
X48.983 Y127.548 Z-3.694 I0.78 J-1.193
X47.423 Y129.934 Z-3.851 I-0.78 J1.193
X46.778 Y128.741 Z-3.9 I0.78 J-1.193
X48.828 Y128.741 I1.025 J0 F700
X43.928 Y128.741 I-2.45 J0
X51.678 Y128.741 I3.875 J0
X41.078 Y128.741 I-5.3 J0
X54.528 Y128.741 I6.725 J0
X38.228 Y128.741 I-8.15 J0
X57.378 Y128.741 I9.575 J0
X35.378 Y128.741 I-11 J0
X57.378 Y128.741 I11 J0
X56.124 Y129.637 I-0.947 J0
G1 X51.867 Y128.179
G2 X51.05 Y128.277 I-0.307 J0.896
G1 X48.452 Y129.939
G3 X47.423 Y129.934 I-0.51 J-0.798
X48.983 Y127.548 Z-4.056 I0.78 J-1.193 F333.3
X47.423 Y129.934 Z-4.213 I-0.78 J1.193
X48.983 Y127.548 Z-4.369 I0.78 J-1.193
X47.423 Y129.934 Z-4.525 I-0.78 J1.193
X48.983 Y127.548 Z-4.682 I0.78 J-1.193
X47.423 Y129.934 Z-4.838 I-0.78 J1.193
X48.983 Y127.548 Z-4.994 I0.78 J-1.193
X47.423 Y129.934 Z-5.151 I-0.78 J1.193
X46.778 Y128.741 Z-5.2 I0.78 J-1.193
X48.828 Y128.741 I1.025 J0 F700
X43.928 Y128.741 I-2.45 J0
X51.678 Y128.741 I3.875 J0
X41.078 Y128.741 I-5.3 J0
X54.528 Y128.741 I6.725 J0
X38.228 Y128.741 I-8.15 J0
X57.378 Y128.741 I9.575 J0
X35.378 Y128.741 I-11 J0
X57.378 Y128.741 I11 J0
X56.124 Y129.637 I-0.947 J0
G1 X51.867 Y128.179
G2 X51.05 Y128.277 I-0.307 J0.896
G1 X48.452 Y129.939
G3 X47.423 Y129.934 I-0.51 J-0.798
X48.983 Y127.548 Z-5.356 I0.78 J-1.193 F333.3
X47.423 Y129.934 Z-5.513 I-0.78 J1.193
X48.983 Y127.548 Z-5.669 I0.78 J-1.193
X47.423 Y129.934 Z-5.825 I-0.78 J1.193
X48.983 Y127.548 Z-5.982 I0.78 J-1.193
X47.423 Y129.934 Z-6.138 I-0.78 J1.193
X48.983 Y127.548 Z-6.294 I0.78 J-1.193
X47.423 Y129.934 Z-6.451 I-0.78 J1.193
X46.778 Y128.741 Z-6.5 I0.78 J-1.193
X48.828 Y128.741 I1.025 J0 F700
X43.928 Y128.741 I-2.45 J0
X51.678 Y128.741 I3.875 J0
X41.078 Y128.741 I-5.3 J0
X54.528 Y128.741 I6.725 J0
X38.228 Y128.741 I-8.15 J0
X57.378 Y128.741 I9.575 J0
X35.378 Y128.741 I-11 J0
X57.378 Y128.741 I11 J0
X56.124 Y129.637 I-0.947 J0
G1 X51.867 Y128.179
G2 X51.05 Y128.277 I-0.307 J0.896
G1 X48.452 Y129.939
G3 X47.423 Y129.934 I-0.51 J-0.798
X48.983 Y127.548 Z-6.656 I0.78 J-1.193 F333.3
X47.423 Y129.934 Z-6.813 I-0.78 J1.193
X48.983 Y127.548 Z-6.969 I0.78 J-1.193
X47.423 Y129.934 Z-7.125 I-0.78 J1.193
X48.983 Y127.548 Z-7.282 I0.78 J-1.193
X47.423 Y129.934 Z-7.438 I-0.78 J1.193
X48.983 Y127.548 Z-7.594 I0.78 J-1.193
X47.423 Y129.934 Z-7.751 I-0.78 J1.193
X46.778 Y128.741 Z-7.8 I0.78 J-1.193
X48.828 Y128.741 I1.025 J0 F700
X43.928 Y128.741 I-2.45 J0
X51.678 Y128.741 I3.875 J0
X41.078 Y128.741 I-5.3 J0
X54.528 Y128.741 I6.725 J0
X38.228 Y128.741 I-8.15 J0
X57.378 Y128.741 I9.575 J0
X35.378 Y128.741 I-11 J0
X57.378 Y128.741 I11 J0
X56.124 Y129.637 I-0.947 J0
G1 X51.867 Y128.179
G2 X51.05 Y128.277 I-0.307 J0.896
G1 X48.452 Y129.939
G3 X47.423 Y129.934 I-0.51 J-0.798
X48.983 Y127.548 Z-7.956 I0.78 J-1.193 F333.3
X47.423 Y129.934 Z-8.113 I-0.78 J1.193
X48.983 Y127.548 Z-8.269 I0.78 J-1.193
X47.423 Y129.934 Z-8.425 I-0.78 J1.193
X48.983 Y127.548 Z-8.582 I0.78 J-1.193
X47.423 Y129.934 Z-8.738 I-0.78 J1.193
X48.983 Y127.548 Z-8.894 I0.78 J-1.193
X47.423 Y129.934 Z-9.051 I-0.78 J1.193
X46.778 Y128.741 Z-9.1 I0.78 J-1.193
X48.828 Y128.741 I1.025 J0 F700
X43.928 Y128.741 I-2.45 J0
X51.678 Y128.741 I3.875 J0
X41.078 Y128.741 I-5.3 J0
X54.528 Y128.741 I6.725 J0
X38.228 Y128.741 I-8.15 J0
X57.378 Y128.741 I9.575 J0
X35.378 Y128.741 I-11 J0
X57.378 Y128.741 I11 J0
X56.124 Y129.637 I-0.947 J0
G1 X51.867 Y128.179
G2 X51.05 Y128.277 I-0.307 J0.896
G1 X48.452 Y129.939
G3 X47.423 Y129.934 I-0.51 J-0.798
X48.983 Y127.548 Z-9.256 I0.78 J-1.193 F333.3
X47.423 Y129.934 Z-9.413 I-0.78 J1.193
X48.983 Y127.548 Z-9.569 I0.78 J-1.193
X47.423 Y129.934 Z-9.725 I-0.78 J1.193
X48.983 Y127.548 Z-9.882 I0.78 J-1.193
X47.423 Y129.934 Z-10.038 I-0.78 J1.193
X48.983 Y127.548 Z-10.194 I0.78 J-1.193
X47.423 Y129.934 Z-10.351 I-0.78 J1.193
X46.778 Y128.741 Z-10.4 I0.78 J-1.193
X48.828 Y128.741 I1.025 J0 F700
X43.928 Y128.741 I-2.45 J0
X51.678 Y128.741 I3.875 J0
X41.078 Y128.741 I-5.3 J0
X54.528 Y128.741 I6.725 J0
X38.228 Y128.741 I-8.15 J0
X57.378 Y128.741 I9.575 J0
X35.378 Y128.741 I-11 J0
X57.378 Y128.741 I11 J0
X55.927 Y130.002 I-1.273 J0
G1 X50.086 Y129.177
G2 X49.765 Y129.172 I-0.178 J1.261
G3 X49.477 Y126.642 I-0.144 J-1.265
X50.284 Y128.994 I0.144 J1.265
G1 X49.009 Y129.773
G3 X47.682 Y127.6 I-0.663 J-1.087
X49.533 Y128.228 I0.663 J1.087
X46.874 Y129.254 Z-10.556 I-1.329 J0.513 F333.3
X49.533 Y128.228 Z-10.713 I1.329 J-0.513
X46.874 Y129.254 Z-10.869 I-1.329 J0.513
X49.533 Y128.228 Z-11.025 I1.329 J-0.513
X46.874 Y129.254 Z-11.182 I-1.329 J0.513
X46.778 Y128.741 Z-11.2 I1.329 J-0.513
X48.828 Y128.741 I1.025 J0 F700
X43.928 Y128.741 I-2.45 J0
X51.678 Y128.741 I3.875 J0
X41.078 Y128.741 I-5.3 J0
X54.528 Y128.741 I6.725 J0
X38.228 Y128.741 I-8.15 J0
X57.378 Y128.741 I9.575 J0
X35.378 Y128.741 I-11 J0
X57.378 Y128.741 I11 J0
X55.927 Y130.002 I-1.273 J0
G1 X50.086 Y129.177
G2 X49.765 Y129.172 I-0.178 J1.261
G3 X49.477 Y126.642 I-0.144 J-1.265
X50.284 Y128.994 I0.144 J1.265
G1 X49.009 Y129.773
G3 X47.682 Y127.6 I-0.663 J-1.087
X49.533 Y128.228 I0.663 J1.087
X46.874 Y129.254 Z-11.356 I-1.329 J0.513 F333.3
X49.533 Y128.228 Z-11.513 I1.329 J-0.513
X46.874 Y129.254 Z-11.669 I-1.329 J0.513
X49.533 Y128.228 Z-11.825 I1.329 J-0.513
X46.874 Y129.254 Z-11.982 I-1.329 J0.513
X46.778 Y128.741 Z-12 I1.329 J-0.513
X48.828 Y128.741 I1.025 J0 F700
X43.928 Y128.741 I-2.45 J0
X51.678 Y128.741 I3.875 J0
X41.078 Y128.741 I-5.3 J0
X54.528 Y128.741 I6.725 J0
X38.228 Y128.741 I-8.15 J0
X57.378 Y128.741 I9.575 J0
X35.378 Y128.741 I-11 J0
X57.378 Y128.741 I11 J0
G0 Z7
X60.038 Y94.273
Z3
G1 Z1.8 F700
G3 X62.489 Y95.727 Z1.644 I1.226 J0.727 F333.3
X60.038 Y94.273 Z1.487 I-1.226 J-0.727
X62.489 Y95.727 Z1.331 I1.226 J0.727
X60.038 Y94.273 Z1.175 I-1.226 J-0.727
X62.489 Y95.727 Z1.018 I1.226 J0.727
X60.038 Y94.273 Z0.862 I-1.226 J-0.727
X62.489 Y95.727 Z0.706 I1.226 J0.727
X60.038 Y94.273 Z0.549 I-1.226 J-0.727
X62.489 Y95.727 Z0.393 I1.226 J0.727
X60.038 Y94.273 Z0.237 I-1.226 J-0.727
X62.489 Y95.727 Z0.08 I1.226 J0.727
X60.038 Y94.273 Z-0.076 I-1.226 J-0.727
X62.489 Y95.727 Z-0.232 I1.226 J0.727
X60.038 Y94.273 Z-0.389 I-1.226 J-0.727
X62.489 Y95.727 Z-0.545 I1.226 J0.727
X60.038 Y94.273 Z-0.701 I-1.226 J-0.727
X62.489 Y95.727 Z-0.858 I1.226 J0.727
X60.038 Y94.273 Z-1.014 I-1.226 J-0.727
X62.489 Y95.727 Z-1.17 I1.226 J0.727
X59.839 Y95 Z-1.3 I-1.226 J-0.727
X60.789 Y95 I0.475 J0 F700
X56.989 Y95 I-1.9 J0
X63.639 Y95 I3.325 J0
X54.139 Y95 I-4.75 J0
X63.639 Y95 I4.75 J0
G1 X63.633 Y95.049
X63.615 Y95.094
X63.587 Y95.134
X63.55 Y95.166
X63.507 Y95.188
X60.661 Y96.213
X60.616 Y96.224
X60.57
X60.525 Y96.213
X60.484 Y96.193
G3 X62.044 Y93.807 Z-1.456 I0.78 J-1.193 F333.3
X60.484 Y96.193 Z-1.613 I-0.78 J1.193
X62.044 Y93.807 Z-1.769 I0.78 J-1.193
X60.484 Y96.193 Z-1.925 I-0.78 J1.193
X62.044 Y93.807 Z-2.082 I0.78 J-1.193
X60.484 Y96.193 Z-2.238 I-0.78 J1.193
X62.044 Y93.807 Z-2.394 I0.78 J-1.193
X60.484 Y96.193 Z-2.551 I-0.78 J1.193
X59.839 Y95 Z-2.6 I0.78 J-1.193
X60.789 Y95 I0.475 J0 F700
X56.989 Y95 I-1.9 J0
X63.639 Y95 I3.325 J0
X54.139 Y95 I-4.75 J0
X63.639 Y95 I4.75 J0
G1 X63.633 Y95.049
X63.615 Y95.094
X63.587 Y95.134
X63.55 Y95.166
X63.507 Y95.188
X60.661 Y96.213
X60.616 Y96.224
X60.57
X60.525 Y96.213
X60.484 Y96.193
G3 X62.044 Y93.807 Z-2.756 I0.78 J-1.193 F333.3
X60.484 Y96.193 Z-2.913 I-0.78 J1.193
X62.044 Y93.807 Z-3.069 I0.78 J-1.193
X60.484 Y96.193 Z-3.225 I-0.78 J1.193
X62.044 Y93.807 Z-3.382 I0.78 J-1.193
X60.484 Y96.193 Z-3.538 I-0.78 J1.193
X62.044 Y93.807 Z-3.694 I0.78 J-1.193
X60.484 Y96.193 Z-3.851 I-0.78 J1.193
X59.839 Y95 Z-3.9 I0.78 J-1.193
X60.789 Y95 I0.475 J0 F700
X56.989 Y95 I-1.9 J0
X63.639 Y95 I3.325 J0
X54.139 Y95 I-4.75 J0
X63.639 Y95 I4.75 J0
G1 X63.633 Y95.049
X63.615 Y95.094
X63.587 Y95.134
X63.55 Y95.166
X63.507 Y95.188
X60.661 Y96.213
X60.616 Y96.224
X60.57
X60.525 Y96.213
X60.484 Y96.193
G3 X62.044 Y93.807 Z-4.056 I0.78 J-1.193 F333.3
X60.484 Y96.193 Z-4.213 I-0.78 J1.193
X62.044 Y93.807 Z-4.369 I0.78 J-1.193
X60.484 Y96.193 Z-4.525 I-0.78 J1.193
X62.044 Y93.807 Z-4.682 I0.78 J-1.193
X60.484 Y96.193 Z-4.838 I-0.78 J1.193
X62.044 Y93.807 Z-4.994 I0.78 J-1.193
X60.484 Y96.193 Z-5.151 I-0.78 J1.193
X59.839 Y95 Z-5.2 I0.78 J-1.193
X60.789 Y95 I0.475 J0 F700
X56.989 Y95 I-1.9 J0
X63.639 Y95 I3.325 J0
X54.139 Y95 I-4.75 J0
X63.639 Y95 I4.75 J0
G1 X63.633 Y95.049
X63.615 Y95.094
X63.587 Y95.134
X63.55 Y95.166
X63.507 Y95.188
X60.661 Y96.213
X60.616 Y96.224
X60.57
X60.525 Y96.213
X60.484 Y96.193
G3 X62.044 Y93.807 Z-5.356 I0.78 J-1.193 F333.3
X60.484 Y96.193 Z-5.513 I-0.78 J1.193
X62.044 Y93.807 Z-5.669 I0.78 J-1.193
X60.484 Y96.193 Z-5.825 I-0.78 J1.193
X62.044 Y93.807 Z-5.982 I0.78 J-1.193
X60.484 Y96.193 Z-6.138 I-0.78 J1.193
X62.044 Y93.807 Z-6.294 I0.78 J-1.193
X60.484 Y96.193 Z-6.451 I-0.78 J1.193
X59.839 Y95 Z-6.5 I0.78 J-1.193
X60.789 Y95 I0.475 J0 F700
X56.989 Y95 I-1.9 J0
X63.639 Y95 I3.325 J0
X54.139 Y95 I-4.75 J0
X63.639 Y95 I4.75 J0
G1 X63.633 Y95.049
X63.615 Y95.094
X63.587 Y95.134
X63.55 Y95.166
X63.507 Y95.188
X60.661 Y96.213
X60.616 Y96.224
X60.57
X60.525 Y96.213
X60.484 Y96.193
G3 X62.044 Y93.807 Z-6.656 I0.78 J-1.193 F333.3
X60.484 Y96.193 Z-6.813 I-0.78 J1.193
X62.044 Y93.807 Z-6.969 I0.78 J-1.193
X60.484 Y96.193 Z-7.125 I-0.78 J1.193
X62.044 Y93.807 Z-7.282 I0.78 J-1.193
X60.484 Y96.193 Z-7.438 I-0.78 J1.193
X62.044 Y93.807 Z-7.594 I0.78 J-1.193
X60.484 Y96.193 Z-7.751 I-0.78 J1.193
X59.839 Y95 Z-7.8 I0.78 J-1.193
X60.789 Y95 I0.475 J0 F700
X56.989 Y95 I-1.9 J0
X63.639 Y95 I3.325 J0
X54.139 Y95 I-4.75 J0
X63.639 Y95 I4.75 J0
G1 X63.633 Y95.049
X63.615 Y95.094
X63.587 Y95.134
X63.55 Y95.166
X63.507 Y95.188
X60.661 Y96.213
X60.616 Y96.224
X60.57
X60.525 Y96.213
X60.484 Y96.193
G3 X62.044 Y93.807 Z-7.956 I0.78 J-1.193 F333.3
X60.484 Y96.193 Z-8.113 I-0.78 J1.193
X62.044 Y93.807 Z-8.269 I0.78 J-1.193
X60.484 Y96.193 Z-8.425 I-0.78 J1.193
X62.044 Y93.807 Z-8.582 I0.78 J-1.193
X60.484 Y96.193 Z-8.738 I-0.78 J1.193
X62.044 Y93.807 Z-8.894 I0.78 J-1.193
X60.484 Y96.193 Z-9.051 I-0.78 J1.193
X59.839 Y95 Z-9.1 I0.78 J-1.193
X60.789 Y95 I0.475 J0 F700
X56.989 Y95 I-1.9 J0
X63.639 Y95 I3.325 J0
X54.139 Y95 I-4.75 J0
X63.639 Y95 I4.75 J0
G1 X63.633 Y95.049
X63.615 Y95.094
X63.587 Y95.134
X63.55 Y95.166
X63.507 Y95.188
X60.661 Y96.213
X60.616 Y96.224
X60.57
X60.525 Y96.213
X60.484 Y96.193
G3 X62.044 Y93.807 Z-9.256 I0.78 J-1.193 F333.3
X60.484 Y96.193 Z-9.413 I-0.78 J1.193
X62.044 Y93.807 Z-9.569 I0.78 J-1.193
X60.484 Y96.193 Z-9.725 I-0.78 J1.193
X62.044 Y93.807 Z-9.882 I0.78 J-1.193
X60.484 Y96.193 Z-10.038 I-0.78 J1.193
X62.044 Y93.807 Z-10.194 I0.78 J-1.193
X60.484 Y96.193 Z-10.351 I-0.78 J1.193
X59.839 Y95 Z-10.4 I0.78 J-1.193
X60.789 Y95 I0.475 J0 F700
X56.989 Y95 I-1.9 J0
X63.639 Y95 I3.325 J0
X54.139 Y95 I-4.75 J0
X63.639 Y95 I4.75 J0
G1 X63.633 Y95.049
X63.615 Y95.094
X63.587 Y95.134
X63.55 Y95.166
X63.507 Y95.188
X60.661 Y96.213
X60.616 Y96.224
X60.57
X60.525 Y96.213
X60.484 Y96.193
G3 X62.044 Y93.807 Z-10.556 I0.78 J-1.193 F333.3
X60.484 Y96.193 Z-10.713 I-0.78 J1.193
X62.044 Y93.807 Z-10.869 I0.78 J-1.193
X60.484 Y96.193 Z-11.025 I-0.78 J1.193
X62.044 Y93.807 Z-11.182 I0.78 J-1.193
X60.484 Y96.193 Z-11.338 I-0.78 J1.193
X62.044 Y93.807 Z-11.494 I0.78 J-1.193
X60.484 Y96.193 Z-11.651 I-0.78 J1.193
X59.839 Y95 Z-11.7 I0.78 J-1.193
X60.789 Y95 I0.475 J0 F700
X56.989 Y95 I-1.9 J0
X63.639 Y95 I3.325 J0
X54.139 Y95 I-4.75 J0
X63.639 Y95 I4.75 J0
G1 X63.633 Y95.049
X63.615 Y95.094
X63.587 Y95.134
X63.55 Y95.166
X63.507 Y95.188
X60.661 Y96.213
X60.616 Y96.224
X60.57
X60.525 Y96.213
X60.484 Y96.193
G3 X62.044 Y93.807 Z-11.856 I0.78 J-1.193 F333.3
X60.484 Y96.193 Z-12.013 I-0.78 J1.193
X62.044 Y93.807 Z-12.169 I0.78 J-1.193
X60.484 Y96.193 Z-12.325 I-0.78 J1.193
X62.044 Y93.807 Z-12.482 I0.78 J-1.193
X60.484 Y96.193 Z-12.638 I-0.78 J1.193
X62.044 Y93.807 Z-12.794 I0.78 J-1.193
X60.484 Y96.193 Z-12.951 I-0.78 J1.193
X59.839 Y95 Z-13 I0.78 J-1.193
X60.789 Y95 I0.475 J0 F700
X56.989 Y95 I-1.9 J0
X63.639 Y95 I3.325 J0
X54.139 Y95 I-4.75 J0
X63.639 Y95 I4.75 J0
G1 X63.633 Y95.049
X63.615 Y95.094
X63.587 Y95.134
X63.55 Y95.166
X63.507 Y95.188
X60.661 Y96.213
X60.616 Y96.224
X60.57
X60.525 Y96.213
X60.484 Y96.193
G3 X62.044 Y93.807 Z-13.156 I0.78 J-1.193 F333.3
X60.484 Y96.193 Z-13.313 I-0.78 J1.193
X62.044 Y93.807 Z-13.469 I0.78 J-1.193
X60.484 Y96.193 Z-13.625 I-0.78 J1.193
X62.044 Y93.807 Z-13.782 I0.78 J-1.193
X60.484 Y96.193 Z-13.938 I-0.78 J1.193
X62.044 Y93.807 Z-14.094 I0.78 J-1.193
X60.484 Y96.193 Z-14.251 I-0.78 J1.193
X59.839 Y95 Z-14.3 I0.78 J-1.193
X60.789 Y95 I0.475 J0 F700
X56.989 Y95 I-1.9 J0
X63.639 Y95 I3.325 J0
X54.139 Y95 I-4.75 J0
X63.639 Y95 I4.75 J0
G1 X63.632 Y95.053
X63.611 Y95.102
X63.577 Y95.144
X63.534 Y95.176
X61.273 Y96.398
X61.22 Y96.417
X61.164 Y96.421
G3 X61.364 Y93.579 Z-14.456 I0.1 J-1.421 F333.3
X61.164 Y96.421 Z-14.613 I-0.1 J1.421
X61.364 Y93.579 Z-14.769 I0.1 J-1.421
X61.164 Y96.421 Z-14.925 I-0.1 J1.421
X59.839 Y95 Z-15 I0.1 J-1.421
X60.789 Y95 I0.475 J0 F700
X56.989 Y95 I-1.9 J0
X63.639 Y95 I3.325 J0
X54.139 Y95 I-4.75 J0
X63.639 Y95 I4.75 J0
G0 Z7
X71.249 Y110.273
Z3
G1 Z1.8 F700
G3 X73.701 Y111.727 Z1.644 I1.226 J0.727 F333.3
X71.249 Y110.273 Z1.487 I-1.226 J-0.727
X73.701 Y111.727 Z1.331 I1.226 J0.727
X71.249 Y110.273 Z1.175 I-1.226 J-0.727
X73.701 Y111.727 Z1.018 I1.226 J0.727
X71.249 Y110.273 Z0.862 I-1.226 J-0.727
X73.701 Y111.727 Z0.706 I1.226 J0.727
X71.249 Y110.273 Z0.549 I-1.226 J-0.727
X73.701 Y111.727 Z0.393 I1.226 J0.727
X71.249 Y110.273 Z0.237 I-1.226 J-0.727
X73.701 Y111.727 Z0.08 I1.226 J0.727
X71.249 Y110.273 Z-0.076 I-1.226 J-0.727
X73.701 Y111.727 Z-0.232 I1.226 J0.727
X71.249 Y110.273 Z-0.389 I-1.226 J-0.727
X73.701 Y111.727 Z-0.545 I1.226 J0.727
X71.249 Y110.273 Z-0.701 I-1.226 J-0.727
X73.701 Y111.727 Z-0.858 I1.226 J0.727
X71.249 Y110.273 Z-1.014 I-1.226 J-0.727
X73.701 Y111.727 Z-1.17 I1.226 J0.727
X71.05 Y111 Z-1.3 I-1.226 J-0.727
X73.8 Y111 I1.375 J0 F700
X68.2 Y111 I-2.8 J0
X76.65 Y111 I4.225 J0
X65.35 Y111 I-5.65 J0
X79.5 Y111 I7.075 J0
X62.5 Y111 I-8.5 J0
X79.5 Y111 I8.5 J0
X78.548 Y111.706 I-0.738 J0
G1 X75.2 Y110.693
G2 X74.572 Y110.789 I-0.214 J0.706
G1 X72.513 Y112.186
G3 X71.695 Y112.193 I-0.414 J-0.611
X73.255 Y109.807 Z-1.456 I0.78 J-1.193 F333.3
X71.695 Y112.193 Z-1.613 I-0.78 J1.193
X73.255 Y109.807 Z-1.769 I0.78 J-1.193
X71.695 Y112.193 Z-1.925 I-0.78 J1.193
X73.255 Y109.807 Z-2.082 I0.78 J-1.193
X71.695 Y112.193 Z-2.238 I-0.78 J1.193
X73.255 Y109.807 Z-2.394 I0.78 J-1.193
X71.695 Y112.193 Z-2.551 I-0.78 J1.193
X71.05 Y111 Z-2.6 I0.78 J-1.193
X73.8 Y111 I1.375 J0 F700
X68.2 Y111 I-2.8 J0
X76.65 Y111 I4.225 J0
X65.35 Y111 I-5.65 J0
X79.5 Y111 I7.075 J0
X62.5 Y111 I-8.5 J0
X79.5 Y111 I8.5 J0
X78.548 Y111.706 I-0.738 J0
G1 X75.2 Y110.693
G2 X74.572 Y110.789 I-0.214 J0.706
G1 X72.513 Y112.186
G3 X71.695 Y112.193 I-0.414 J-0.611
X73.255 Y109.807 Z-2.756 I0.78 J-1.193 F333.3
X71.695 Y112.193 Z-2.913 I-0.78 J1.193
X73.255 Y109.807 Z-3.069 I0.78 J-1.193
X71.695 Y112.193 Z-3.225 I-0.78 J1.193
X73.255 Y109.807 Z-3.382 I0.78 J-1.193
X71.695 Y112.193 Z-3.538 I-0.78 J1.193
X73.255 Y109.807 Z-3.694 I0.78 J-1.193
X71.695 Y112.193 Z-3.851 I-0.78 J1.193
X71.05 Y111 Z-3.9 I0.78 J-1.193
X73.8 Y111 I1.375 J0 F700
X68.2 Y111 I-2.8 J0
X76.65 Y111 I4.225 J0
X65.35 Y111 I-5.65 J0
X79.5 Y111 I7.075 J0
X62.5 Y111 I-8.5 J0
X79.5 Y111 I8.5 J0
X78.548 Y111.706 I-0.738 J0
G1 X75.2 Y110.693
G2 X74.572 Y110.789 I-0.214 J0.706
G1 X72.513 Y112.186
G3 X71.695 Y112.193 I-0.414 J-0.611
X73.255 Y109.807 Z-4.056 I0.78 J-1.193 F333.3
X71.695 Y112.193 Z-4.213 I-0.78 J1.193
X73.255 Y109.807 Z-4.369 I0.78 J-1.193
X71.695 Y112.193 Z-4.525 I-0.78 J1.193
X73.255 Y109.807 Z-4.682 I0.78 J-1.193
X71.695 Y112.193 Z-4.838 I-0.78 J1.193
X73.255 Y109.807 Z-4.994 I0.78 J-1.193
X71.695 Y112.193 Z-5.151 I-0.78 J1.193
X71.05 Y111 Z-5.2 I0.78 J-1.193
X73.8 Y111 I1.375 J0 F700
X68.2 Y111 I-2.8 J0
X76.65 Y111 I4.225 J0
X65.35 Y111 I-5.65 J0
X79.5 Y111 I7.075 J0
X62.5 Y111 I-8.5 J0
X79.5 Y111 I8.5 J0
X78.548 Y111.706 I-0.738 J0
G1 X75.2 Y110.693
G2 X74.572 Y110.789 I-0.214 J0.706
G1 X72.513 Y112.186
G3 X71.695 Y112.193 I-0.414 J-0.611
X73.255 Y109.807 Z-5.356 I0.78 J-1.193 F333.3
X71.695 Y112.193 Z-5.513 I-0.78 J1.193
X73.255 Y109.807 Z-5.669 I0.78 J-1.193
X71.695 Y112.193 Z-5.825 I-0.78 J1.193
X73.255 Y109.807 Z-5.982 I0.78 J-1.193
X71.695 Y112.193 Z-6.138 I-0.78 J1.193
X73.255 Y109.807 Z-6.294 I0.78 J-1.193
X71.695 Y112.193 Z-6.451 I-0.78 J1.193
X71.05 Y111 Z-6.5 I0.78 J-1.193
X73.8 Y111 I1.375 J0 F700
X68.2 Y111 I-2.8 J0
X76.65 Y111 I4.225 J0
X65.35 Y111 I-5.65 J0
X79.5 Y111 I7.075 J0
X62.5 Y111 I-8.5 J0
X79.5 Y111 I8.5 J0
X78.548 Y111.706 I-0.738 J0
G1 X75.2 Y110.693
G2 X74.572 Y110.789 I-0.214 J0.706
G1 X72.513 Y112.186
G3 X71.695 Y112.193 I-0.414 J-0.611
X73.255 Y109.807 Z-6.656 I0.78 J-1.193 F333.3
X71.695 Y112.193 Z-6.813 I-0.78 J1.193
X73.255 Y109.807 Z-6.969 I0.78 J-1.193
X71.695 Y112.193 Z-7.125 I-0.78 J1.193
X73.255 Y109.807 Z-7.282 I0.78 J-1.193
X71.695 Y112.193 Z-7.438 I-0.78 J1.193
X73.255 Y109.807 Z-7.594 I0.78 J-1.193
X71.695 Y112.193 Z-7.751 I-0.78 J1.193
X71.05 Y111 Z-7.8 I0.78 J-1.193
X73.8 Y111 I1.375 J0 F700
X68.2 Y111 I-2.8 J0
X76.65 Y111 I4.225 J0
X65.35 Y111 I-5.65 J0
X79.5 Y111 I7.075 J0
X62.5 Y111 I-8.5 J0
X79.5 Y111 I8.5 J0
X78.548 Y111.706 I-0.738 J0
G1 X75.2 Y110.693
G2 X74.572 Y110.789 I-0.214 J0.706
G1 X72.513 Y112.186
G3 X71.695 Y112.193 I-0.414 J-0.611
X73.255 Y109.807 Z-7.956 I0.78 J-1.193 F333.3
X71.695 Y112.193 Z-8.113 I-0.78 J1.193
X73.255 Y109.807 Z-8.269 I0.78 J-1.193
X71.695 Y112.193 Z-8.425 I-0.78 J1.193
X73.255 Y109.807 Z-8.582 I0.78 J-1.193
X71.695 Y112.193 Z-8.738 I-0.78 J1.193
X73.255 Y109.807 Z-8.894 I0.78 J-1.193
X71.695 Y112.193 Z-9.051 I-0.78 J1.193
X71.05 Y111 Z-9.1 I0.78 J-1.193
X73.8 Y111 I1.375 J0 F700
X68.2 Y111 I-2.8 J0
X76.65 Y111 I4.225 J0
X65.35 Y111 I-5.65 J0
X79.5 Y111 I7.075 J0
X62.5 Y111 I-8.5 J0
X79.5 Y111 I8.5 J0
X78.548 Y111.706 I-0.738 J0
G1 X75.2 Y110.693
G2 X74.572 Y110.789 I-0.214 J0.706
G1 X72.513 Y112.186
G3 X71.695 Y112.193 I-0.414 J-0.611
X73.255 Y109.807 Z-9.256 I0.78 J-1.193 F333.3
X71.695 Y112.193 Z-9.413 I-0.78 J1.193
X73.255 Y109.807 Z-9.569 I0.78 J-1.193
X71.695 Y112.193 Z-9.725 I-0.78 J1.193
X73.255 Y109.807 Z-9.882 I0.78 J-1.193
X71.695 Y112.193 Z-10.038 I-0.78 J1.193
X73.255 Y109.807 Z-10.194 I0.78 J-1.193
X71.695 Y112.193 Z-10.351 I-0.78 J1.193
X71.05 Y111 Z-10.4 I0.78 J-1.193
X73.8 Y111 I1.375 J0 F700
X68.2 Y111 I-2.8 J0
X76.65 Y111 I4.225 J0
X65.35 Y111 I-5.65 J0
X79.5 Y111 I7.075 J0
X62.5 Y111 I-8.5 J0
X79.5 Y111 I8.5 J0
X78.548 Y111.706 I-0.738 J0
G1 X75.2 Y110.693
G2 X74.572 Y110.789 I-0.214 J0.706
G1 X72.513 Y112.186
G3 X71.695 Y112.193 I-0.414 J-0.611
X73.255 Y109.807 Z-10.556 I0.78 J-1.193 F333.3
X71.695 Y112.193 Z-10.713 I-0.78 J1.193
X73.255 Y109.807 Z-10.869 I0.78 J-1.193
X71.695 Y112.193 Z-11.025 I-0.78 J1.193
X73.255 Y109.807 Z-11.182 I0.78 J-1.193
X71.695 Y112.193 Z-11.338 I-0.78 J1.193
X73.255 Y109.807 Z-11.494 I0.78 J-1.193
X71.695 Y112.193 Z-11.651 I-0.78 J1.193
X71.05 Y111 Z-11.7 I0.78 J-1.193
X73.8 Y111 I1.375 J0 F700
X68.2 Y111 I-2.8 J0
X76.65 Y111 I4.225 J0
X65.35 Y111 I-5.65 J0
X79.5 Y111 I7.075 J0
X62.5 Y111 I-8.5 J0
X79.5 Y111 I8.5 J0
X78.548 Y111.706 I-0.738 J0
G1 X75.2 Y110.693
G2 X74.572 Y110.789 I-0.214 J0.706
G1 X72.513 Y112.186
G3 X71.695 Y112.193 I-0.414 J-0.611
X73.255 Y109.807 Z-11.856 I0.78 J-1.193 F333.3
X71.695 Y112.193 Z-12.013 I-0.78 J1.193
X73.255 Y109.807 Z-12.169 I0.78 J-1.193
X71.695 Y112.193 Z-12.325 I-0.78 J1.193
X73.255 Y109.807 Z-12.482 I0.78 J-1.193
X71.695 Y112.193 Z-12.638 I-0.78 J1.193
X73.255 Y109.807 Z-12.794 I0.78 J-1.193
X71.695 Y112.193 Z-12.951 I-0.78 J1.193
X71.05 Y111 Z-13 I0.78 J-1.193
X73.8 Y111 I1.375 J0 F700
X68.2 Y111 I-2.8 J0
X76.65 Y111 I4.225 J0
X65.35 Y111 I-5.65 J0
X79.5 Y111 I7.075 J0
X62.5 Y111 I-8.5 J0
X79.5 Y111 I8.5 J0
X78.548 Y111.706 I-0.738 J0
G1 X75.2 Y110.693
G2 X74.572 Y110.789 I-0.214 J0.706
G1 X72.513 Y112.186
G3 X71.695 Y112.193 I-0.414 J-0.611
X73.255 Y109.807 Z-13.156 I0.78 J-1.193 F333.3
X71.695 Y112.193 Z-13.313 I-0.78 J1.193
X73.255 Y109.807 Z-13.469 I0.78 J-1.193
X71.695 Y112.193 Z-13.625 I-0.78 J1.193
X73.255 Y109.807 Z-13.782 I0.78 J-1.193
X71.695 Y112.193 Z-13.938 I-0.78 J1.193
X73.255 Y109.807 Z-14.094 I0.78 J-1.193
X71.695 Y112.193 Z-14.251 I-0.78 J1.193
X71.05 Y111 Z-14.3 I0.78 J-1.193
X73.8 Y111 I1.375 J0 F700
X68.2 Y111 I-2.8 J0
X76.65 Y111 I4.225 J0
X65.35 Y111 I-5.65 J0
X79.5 Y111 I7.075 J0
X62.5 Y111 I-8.5 J0
X79.5 Y111 I8.5 J0
X78.468 Y111.743 I-0.784 J0
G1 X74.939 Y110.564
G2 X74.076 Y110.821 I-0.248 J0.743
G1 X73.045 Y112.126
G3 X72.375 Y112.421 I-0.615 J-0.486
X72.575 Y109.579 Z-14.456 I0.1 J-1.421 F333.3
X72.375 Y112.421 Z-14.613 I-0.1 J1.421
X72.575 Y109.579 Z-14.769 I0.1 J-1.421
X72.375 Y112.421 Z-14.925 I-0.1 J1.421
X71.05 Y111 Z-15 I0.1 J-1.421
X73.8 Y111 I1.375 J0 F700
X68.2 Y111 I-2.8 J0
X76.65 Y111 I4.225 J0
X65.35 Y111 I-5.65 J0
X79.5 Y111 I7.075 J0
X62.5 Y111 I-8.5 J0
X79.5 Y111 I8.5 J0
G0 Z7
X84.483 Y94.273
Z3
G1 Z1.8 F700
G3 X86.934 Y95.727 Z1.644 I1.226 J0.727 F333.3
X84.483 Y94.273 Z1.487 I-1.226 J-0.727
X86.934 Y95.727 Z1.331 I1.226 J0.727
X84.483 Y94.273 Z1.175 I-1.226 J-0.727
X86.934 Y95.727 Z1.018 I1.226 J0.727
X84.483 Y94.273 Z0.862 I-1.226 J-0.727
X86.934 Y95.727 Z0.706 I1.226 J0.727
X84.483 Y94.273 Z0.549 I-1.226 J-0.727
X86.934 Y95.727 Z0.393 I1.226 J0.727
X84.483 Y94.273 Z0.237 I-1.226 J-0.727
X86.934 Y95.727 Z0.08 I1.226 J0.727
X84.483 Y94.273 Z-0.076 I-1.226 J-0.727
X86.934 Y95.727 Z-0.232 I1.226 J0.727
X84.483 Y94.273 Z-0.389 I-1.226 J-0.727
X86.934 Y95.727 Z-0.545 I1.226 J0.727
X84.483 Y94.273 Z-0.701 I-1.226 J-0.727
X86.934 Y95.727 Z-0.858 I1.226 J0.727
X84.483 Y94.273 Z-1.014 I-1.226 J-0.727
X86.934 Y95.727 Z-1.17 I1.226 J0.727
X84.283 Y95 Z-1.3 I-1.226 J-0.727
X85.233 Y95 I0.475 J0 F700
X81.433 Y95 I-1.9 J0
X88.083 Y95 I3.325 J0
X78.583 Y95 I-4.75 J0
X88.083 Y95 I4.75 J0
G1 X88.077 Y95.049
X88.06 Y95.094
X88.032 Y95.134
X87.995 Y95.166
X87.951 Y95.188
X85.106 Y96.213
X85.061 Y96.224
X85.014
X84.97 Y96.213
X84.928 Y96.193
G3 X86.488 Y93.807 Z-1.456 I0.78 J-1.193 F333.3
X84.928 Y96.193 Z-1.613 I-0.78 J1.193
X86.488 Y93.807 Z-1.769 I0.78 J-1.193
X84.928 Y96.193 Z-1.925 I-0.78 J1.193
X86.488 Y93.807 Z-2.082 I0.78 J-1.193
X84.928 Y96.193 Z-2.238 I-0.78 J1.193
X86.488 Y93.807 Z-2.394 I0.78 J-1.193
X84.928 Y96.193 Z-2.551 I-0.78 J1.193
X84.283 Y95 Z-2.6 I0.78 J-1.193
X85.233 Y95 I0.475 J0 F700
X81.433 Y95 I-1.9 J0
X88.083 Y95 I3.325 J0
X78.583 Y95 I-4.75 J0
X88.083 Y95 I4.75 J0
G1 X88.077 Y95.049
X88.06 Y95.094
X88.032 Y95.134
X87.995 Y95.166
X87.951 Y95.188
X85.106 Y96.213
X85.061 Y96.224
X85.014
X84.97 Y96.213
X84.928 Y96.193
G3 X86.488 Y93.807 Z-2.756 I0.78 J-1.193 F333.3
X84.928 Y96.193 Z-2.913 I-0.78 J1.193
X86.488 Y93.807 Z-3.069 I0.78 J-1.193
X84.928 Y96.193 Z-3.225 I-0.78 J1.193
X86.488 Y93.807 Z-3.382 I0.78 J-1.193
X84.928 Y96.193 Z-3.538 I-0.78 J1.193
X86.488 Y93.807 Z-3.694 I0.78 J-1.193
X84.928 Y96.193 Z-3.851 I-0.78 J1.193
X84.283 Y95 Z-3.9 I0.78 J-1.193
X85.233 Y95 I0.475 J0 F700
X81.433 Y95 I-1.9 J0
X88.083 Y95 I3.325 J0
X78.583 Y95 I-4.75 J0
X88.083 Y95 I4.75 J0
G1 X88.077 Y95.049
X88.06 Y95.094
X88.032 Y95.134
X87.995 Y95.166
X87.951 Y95.188
X85.106 Y96.213
X85.061 Y96.224
X85.014
X84.97 Y96.213
X84.928 Y96.193
G3 X86.488 Y93.807 Z-4.056 I0.78 J-1.193 F333.3
X84.928 Y96.193 Z-4.213 I-0.78 J1.193
X86.488 Y93.807 Z-4.369 I0.78 J-1.193
X84.928 Y96.193 Z-4.525 I-0.78 J1.193
X86.488 Y93.807 Z-4.682 I0.78 J-1.193
X84.928 Y96.193 Z-4.838 I-0.78 J1.193
X86.488 Y93.807 Z-4.994 I0.78 J-1.193
X84.928 Y96.193 Z-5.151 I-0.78 J1.193
X84.283 Y95 Z-5.2 I0.78 J-1.193
X85.233 Y95 I0.475 J0 F700
X81.433 Y95 I-1.9 J0
X88.083 Y95 I3.325 J0
X78.583 Y95 I-4.75 J0
X88.083 Y95 I4.75 J0
G1 X88.077 Y95.049
X88.06 Y95.094
X88.032 Y95.134
X87.995 Y95.166
X87.951 Y95.188
X85.106 Y96.213
X85.061 Y96.224
X85.014
X84.97 Y96.213
X84.928 Y96.193
G3 X86.488 Y93.807 Z-5.356 I0.78 J-1.193 F333.3
X84.928 Y96.193 Z-5.513 I-0.78 J1.193
X86.488 Y93.807 Z-5.669 I0.78 J-1.193
X84.928 Y96.193 Z-5.825 I-0.78 J1.193
X86.488 Y93.807 Z-5.982 I0.78 J-1.193
X84.928 Y96.193 Z-6.138 I-0.78 J1.193
X86.488 Y93.807 Z-6.294 I0.78 J-1.193
X84.928 Y96.193 Z-6.451 I-0.78 J1.193
X84.283 Y95 Z-6.5 I0.78 J-1.193
X85.233 Y95 I0.475 J0 F700
X81.433 Y95 I-1.9 J0
X88.083 Y95 I3.325 J0
X78.583 Y95 I-4.75 J0
X88.083 Y95 I4.75 J0
G1 X88.077 Y95.049
X88.06 Y95.094
X88.032 Y95.134
X87.995 Y95.166
X87.951 Y95.188
X85.106 Y96.213
X85.061 Y96.224
X85.014
X84.97 Y96.213
X84.928 Y96.193
G3 X86.488 Y93.807 Z-6.656 I0.78 J-1.193 F333.3
X84.928 Y96.193 Z-6.813 I-0.78 J1.193
X86.488 Y93.807 Z-6.969 I0.78 J-1.193
X84.928 Y96.193 Z-7.125 I-0.78 J1.193
X86.488 Y93.807 Z-7.282 I0.78 J-1.193
X84.928 Y96.193 Z-7.438 I-0.78 J1.193
X86.488 Y93.807 Z-7.594 I0.78 J-1.193
X84.928 Y96.193 Z-7.751 I-0.78 J1.193
X84.283 Y95 Z-7.8 I0.78 J-1.193
X85.233 Y95 I0.475 J0 F700
X81.433 Y95 I-1.9 J0
X88.083 Y95 I3.325 J0
X78.583 Y95 I-4.75 J0
X88.083 Y95 I4.75 J0
G1 X88.077 Y95.049
X88.06 Y95.094
X88.032 Y95.134
X87.995 Y95.166
X87.951 Y95.188
X85.106 Y96.213
X85.061 Y96.224
X85.014
X84.97 Y96.213
X84.928 Y96.193
G3 X86.488 Y93.807 Z-7.956 I0.78 J-1.193 F333.3
X84.928 Y96.193 Z-8.113 I-0.78 J1.193
X86.488 Y93.807 Z-8.269 I0.78 J-1.193
X84.928 Y96.193 Z-8.425 I-0.78 J1.193
X86.488 Y93.807 Z-8.582 I0.78 J-1.193
X84.928 Y96.193 Z-8.738 I-0.78 J1.193
X86.488 Y93.807 Z-8.894 I0.78 J-1.193
X84.928 Y96.193 Z-9.051 I-0.78 J1.193
X84.283 Y95 Z-9.1 I0.78 J-1.193
X85.233 Y95 I0.475 J0 F700
X81.433 Y95 I-1.9 J0
X88.083 Y95 I3.325 J0
X78.583 Y95 I-4.75 J0
X88.083 Y95 I4.75 J0
G1 X88.077 Y95.049
X88.06 Y95.094
X88.032 Y95.134
X87.995 Y95.166
X87.951 Y95.188
X85.106 Y96.213
X85.061 Y96.224
X85.014
X84.97 Y96.213
X84.928 Y96.193
G3 X86.488 Y93.807 Z-9.256 I0.78 J-1.193 F333.3
X84.928 Y96.193 Z-9.413 I-0.78 J1.193
X86.488 Y93.807 Z-9.569 I0.78 J-1.193
X84.928 Y96.193 Z-9.725 I-0.78 J1.193
X86.488 Y93.807 Z-9.882 I0.78 J-1.193
X84.928 Y96.193 Z-10.038 I-0.78 J1.193
X86.488 Y93.807 Z-10.194 I0.78 J-1.193
X84.928 Y96.193 Z-10.351 I-0.78 J1.193
X84.283 Y95 Z-10.4 I0.78 J-1.193
X85.233 Y95 I0.475 J0 F700
X81.433 Y95 I-1.9 J0
X88.083 Y95 I3.325 J0
X78.583 Y95 I-4.75 J0
X88.083 Y95 I4.75 J0
G1 X88.077 Y95.049
X88.06 Y95.094
X88.032 Y95.134
X87.995 Y95.166
X87.951 Y95.188
X85.106 Y96.213
X85.061 Y96.224
X85.014
X84.97 Y96.213
X84.928 Y96.193
G3 X86.488 Y93.807 Z-10.556 I0.78 J-1.193 F333.3
X84.928 Y96.193 Z-10.713 I-0.78 J1.193
X86.488 Y93.807 Z-10.869 I0.78 J-1.193
X84.928 Y96.193 Z-11.025 I-0.78 J1.193
X86.488 Y93.807 Z-11.182 I0.78 J-1.193
X84.928 Y96.193 Z-11.338 I-0.78 J1.193
X86.488 Y93.807 Z-11.494 I0.78 J-1.193
X84.928 Y96.193 Z-11.651 I-0.78 J1.193
X84.283 Y95 Z-11.7 I0.78 J-1.193
X85.233 Y95 I0.475 J0 F700
X81.433 Y95 I-1.9 J0
X88.083 Y95 I3.325 J0
X78.583 Y95 I-4.75 J0
X88.083 Y95 I4.75 J0
G1 X88.077 Y95.049
X88.06 Y95.094
X88.032 Y95.134
X87.995 Y95.166
X87.951 Y95.188
X85.106 Y96.213
X85.061 Y96.224
X85.014
X84.97 Y96.213
X84.928 Y96.193
G3 X86.488 Y93.807 Z-11.856 I0.78 J-1.193 F333.3
X84.928 Y96.193 Z-12.013 I-0.78 J1.193
X86.488 Y93.807 Z-12.169 I0.78 J-1.193
X84.928 Y96.193 Z-12.325 I-0.78 J1.193
X86.488 Y93.807 Z-12.482 I0.78 J-1.193
X84.928 Y96.193 Z-12.638 I-0.78 J1.193
X86.488 Y93.807 Z-12.794 I0.78 J-1.193
X84.928 Y96.193 Z-12.951 I-0.78 J1.193
X84.283 Y95 Z-13 I0.78 J-1.193
X85.233 Y95 I0.475 J0 F700
X81.433 Y95 I-1.9 J0
X88.083 Y95 I3.325 J0
X78.583 Y95 I-4.75 J0
X88.083 Y95 I4.75 J0
G1 X88.077 Y95.049
X88.06 Y95.094
X88.032 Y95.134
X87.995 Y95.166
X87.951 Y95.188
X85.106 Y96.213
X85.061 Y96.224
X85.014
X84.97 Y96.213
X84.928 Y96.193
G3 X86.488 Y93.807 Z-13.156 I0.78 J-1.193 F333.3
X84.928 Y96.193 Z-13.313 I-0.78 J1.193
X86.488 Y93.807 Z-13.469 I0.78 J-1.193
X84.928 Y96.193 Z-13.625 I-0.78 J1.193
X86.488 Y93.807 Z-13.782 I0.78 J-1.193
X84.928 Y96.193 Z-13.938 I-0.78 J1.193
X86.488 Y93.807 Z-14.094 I0.78 J-1.193
X84.928 Y96.193 Z-14.251 I-0.78 J1.193
X84.283 Y95 Z-14.3 I0.78 J-1.193
X85.233 Y95 I0.475 J0 F700
X81.433 Y95 I-1.9 J0
X88.083 Y95 I3.325 J0
X78.583 Y95 I-4.75 J0
X88.083 Y95 I4.75 J0
G1 X88.076 Y95.053
X88.055 Y95.102
X88.022 Y95.144
X87.978 Y95.176
X85.717 Y96.398
X85.665 Y96.417
X85.608 Y96.421
G3 X85.808 Y93.579 Z-14.456 I0.1 J-1.421 F333.3
X85.608 Y96.421 Z-14.613 I-0.1 J1.421
X85.808 Y93.579 Z-14.769 I0.1 J-1.421
X85.608 Y96.421 Z-14.925 I-0.1 J1.421
X84.283 Y95 Z-15 I0.1 J-1.421
X85.233 Y95 I0.475 J0 F700
X81.433 Y95 I-1.9 J0
X88.083 Y95 I3.325 J0
X78.583 Y95 I-4.75 J0
X88.083 Y95 I4.75 J0
G0 Z7
X96.094 Y127.99
Z3
G1 Z1.8 F700
G3 X94.64 Y130.442 Z1.644 I-0.727 J1.226 F333.3
X96.094 Y127.99 Z1.487 I0.727 J-1.226
X94.64 Y130.442 Z1.331 I-0.727 J1.226
X96.094 Y127.99 Z1.175 I0.727 J-1.226
X94.64 Y130.442 Z1.018 I-0.727 J1.226
X96.094 Y127.99 Z0.862 I0.727 J-1.226
X94.64 Y130.442 Z0.706 I-0.727 J1.226
X96.094 Y127.99 Z0.549 I0.727 J-1.226
X94.64 Y130.442 Z0.393 I-0.727 J1.226
X96.094 Y127.99 Z0.237 I0.727 J-1.226
X94.64 Y130.442 Z0.08 I-0.727 J1.226
X96.094 Y127.99 Z-0.076 I0.727 J-1.226
X94.64 Y130.442 Z-0.232 I-0.727 J1.226
X96.094 Y127.99 Z-0.389 I0.727 J-1.226
X94.64 Y130.442 Z-0.545 I-0.727 J1.226
X96.094 Y127.99 Z-0.701 I0.727 J-1.226
X94.64 Y130.442 Z-0.858 I-0.727 J1.226
X96.094 Y127.99 Z-1.014 I0.727 J-1.226
X94.64 Y130.442 Z-1.17 I-0.727 J1.226
X95.367 Y127.791 Z-1.3 I0.727 J-1.226
X96.317 Y128.741 I0 J0.95 F700
X95.367 Y129.691 I-0.95 J0
X94.417 Y128.741 I0 J-0.95
X95.367 Y127.791 I0.95 J0
X97.597 Y127.809 I-0.041 J147.299
X98.974 Y129.562 I-0.022 J1.435
X95.367 Y132.441 I-3.608 J-0.821
X91.667 Y128.741 I0 J-3.7
X95.367 Y125.041 I3.7 J0
G1 X95.373 Y125.022
X95.389 Y125.009
X95.409 Y125.007
X95.427 Y125.017
X95.454 Y125.036
X95.486 Y125.043
G3 X98.974 Y129.562 I-0.119 J3.698
G2 X99.595 Y131.556 I2.028 J0.462
G3 X99.558 Y133.644 I-0.944 J1.027
X95.367 Y135.191 I-4.191 J-4.903
X88.917 Y128.741 I0 J-6.45
X95.367 Y122.291 I6.45 J0
X101.817 Y128.741 I0 J6.45
X99.558 Y133.644 I-6.45 J0
G2 X98.865 Y135.742 I1.386 J1.622
G3 X97.723 Y137.634 I-1.549 J0.355
X95.367 Y137.941 I-2.356 J-8.893
X86.167 Y128.741 I0 J-9.2
X104.567 Y128.741 I9.2 J0
X97.723 Y137.634 I-9.2 J0
G2 X96.133 Y139.314 I0.563 J2.124
G3 X94.276 Y140.691 I-1.7 J-0.351
X83.367 Y128.741 I1.091 J-11.951
X95.367 Y116.741 I12 J0
X107.367 Y128.741 I0 J12
X94.276 Y140.691 I-12 J0
X94.094 Y140.491 I0.018 J-0.199
G1 X94.142 Y128.545
X94.145 Y128.507
X94.156 Y128.47
X94.174 Y128.436
G3 X96.559 Y129.996 Z-1.456 I1.193 J0.78 F333.3
X94.174 Y128.436 Z-1.613 I-1.193 J-0.78
X96.559 Y129.996 Z-1.769 I1.193 J0.78
X94.174 Y128.436 Z-1.925 I-1.193 J-0.78
X96.559 Y129.996 Z-2.082 I1.193 J0.78
X94.174 Y128.436 Z-2.238 I-1.193 J-0.78
X96.559 Y129.996 Z-2.394 I1.193 J0.78
X94.174 Y128.436 Z-2.551 I-1.193 J-0.78
X95.367 Y127.791 Z-2.6 I1.193 J0.78
X96.317 Y128.741 I0 J0.95 F700
X95.367 Y129.691 I-0.95 J0
X94.417 Y128.741 I0 J-0.95
X95.367 Y127.791 I0.95 J0
X97.597 Y127.809 I-0.041 J147.299
X98.974 Y129.562 I-0.022 J1.435
X95.367 Y132.441 I-3.608 J-0.821
X91.667 Y128.741 I0 J-3.7
X95.367 Y125.041 I3.7 J0
G1 X95.373 Y125.022
X95.389 Y125.009
X95.409 Y125.007
X95.427 Y125.017
X95.454 Y125.036
X95.486 Y125.043
G3 X98.974 Y129.562 I-0.119 J3.698
G2 X99.595 Y131.556 I2.028 J0.462
G3 X99.558 Y133.644 I-0.944 J1.027
X95.367 Y135.191 I-4.191 J-4.903
X88.917 Y128.741 I0 J-6.45
X95.367 Y122.291 I6.45 J0
X101.817 Y128.741 I0 J6.45
X99.558 Y133.644 I-6.45 J0
G2 X98.865 Y135.742 I1.386 J1.622
G3 X97.723 Y137.634 I-1.549 J0.355
X95.367 Y137.941 I-2.356 J-8.893
X86.167 Y128.741 I0 J-9.2
X104.567 Y128.741 I9.2 J0
X97.723 Y137.634 I-9.2 J0
G2 X96.133 Y139.314 I0.563 J2.124
G3 X94.276 Y140.691 I-1.7 J-0.351
X83.367 Y128.741 I1.091 J-11.951
X95.367 Y116.741 I12 J0
X107.367 Y128.741 I0 J12
X94.276 Y140.691 I-12 J0
X94.094 Y140.491 I0.018 J-0.199
G1 X94.142 Y128.545
X94.145 Y128.507
X94.156 Y128.47
X94.174 Y128.436
G3 X96.559 Y129.996 Z-2.756 I1.193 J0.78 F333.3
X94.174 Y128.436 Z-2.913 I-1.193 J-0.78
X96.559 Y129.996 Z-3.069 I1.193 J0.78
X94.174 Y128.436 Z-3.225 I-1.193 J-0.78
X96.559 Y129.996 Z-3.382 I1.193 J0.78
X94.174 Y128.436 Z-3.538 I-1.193 J-0.78
X96.559 Y129.996 Z-3.694 I1.193 J0.78
X94.174 Y128.436 Z-3.851 I-1.193 J-0.78
X95.367 Y127.791 Z-3.9 I1.193 J0.78
X96.317 Y128.741 I0 J0.95 F700
X95.367 Y129.691 I-0.95 J0
X94.417 Y128.741 I0 J-0.95
X95.367 Y127.791 I0.95 J0
X97.597 Y127.809 I-0.041 J147.299
X98.974 Y129.562 I-0.022 J1.435
X95.367 Y132.441 I-3.608 J-0.821
X91.667 Y128.741 I0 J-3.7
X95.367 Y125.041 I3.7 J0
G1 X95.373 Y125.022
X95.389 Y125.009
X95.409 Y125.007
X95.427 Y125.017
X95.454 Y125.036
X95.486 Y125.043
G3 X98.974 Y129.562 I-0.119 J3.698
G2 X99.595 Y131.556 I2.028 J0.462
G3 X99.558 Y133.644 I-0.944 J1.027
X95.367 Y135.191 I-4.191 J-4.903
X88.917 Y128.741 I0 J-6.45
X95.367 Y122.291 I6.45 J0
X101.817 Y128.741 I0 J6.45
X99.558 Y133.644 I-6.45 J0
G2 X98.865 Y135.742 I1.386 J1.622
G3 X97.723 Y137.634 I-1.549 J0.355
X95.367 Y137.941 I-2.356 J-8.893
X86.167 Y128.741 I0 J-9.2
X104.567 Y128.741 I9.2 J0
X97.723 Y137.634 I-9.2 J0
G2 X96.133 Y139.314 I0.563 J2.124
G3 X94.276 Y140.691 I-1.7 J-0.351
X83.367 Y128.741 I1.091 J-11.951
X95.367 Y116.741 I12 J0
X107.367 Y128.741 I0 J12
X94.276 Y140.691 I-12 J0
X94.094 Y140.491 I0.018 J-0.199
G1 X94.142 Y128.545
X94.145 Y128.507
X94.156 Y128.47
X94.174 Y128.436
G3 X96.559 Y129.996 Z-4.056 I1.193 J0.78 F333.3
X94.174 Y128.436 Z-4.213 I-1.193 J-0.78
X96.559 Y129.996 Z-4.369 I1.193 J0.78
X94.174 Y128.436 Z-4.525 I-1.193 J-0.78
X96.559 Y129.996 Z-4.682 I1.193 J0.78
X94.174 Y128.436 Z-4.838 I-1.193 J-0.78
X96.559 Y129.996 Z-4.994 I1.193 J0.78
X94.174 Y128.436 Z-5.151 I-1.193 J-0.78
X95.367 Y127.791 Z-5.2 I1.193 J0.78
X96.317 Y128.741 I0 J0.95 F700
X95.367 Y129.691 I-0.95 J0
X94.417 Y128.741 I0 J-0.95
X95.367 Y127.791 I0.95 J0
X97.597 Y127.809 I-0.041 J147.299
X98.974 Y129.562 I-0.022 J1.435
X95.367 Y132.441 I-3.608 J-0.821
X91.667 Y128.741 I0 J-3.7
X95.367 Y125.041 I3.7 J0
G1 X95.373 Y125.022
X95.389 Y125.009
X95.409 Y125.007
X95.427 Y125.017
X95.454 Y125.036
X95.486 Y125.043
G3 X98.974 Y129.562 I-0.119 J3.698
G2 X99.595 Y131.556 I2.028 J0.462
G3 X99.558 Y133.644 I-0.944 J1.027
X95.367 Y135.191 I-4.191 J-4.903
X88.917 Y128.741 I0 J-6.45
X95.367 Y122.291 I6.45 J0
X101.817 Y128.741 I0 J6.45
X99.558 Y133.644 I-6.45 J0
G2 X98.865 Y135.742 I1.386 J1.622
G3 X97.723 Y137.634 I-1.549 J0.355
X95.367 Y137.941 I-2.356 J-8.893
X86.167 Y128.741 I0 J-9.2
X104.567 Y128.741 I9.2 J0
X97.723 Y137.634 I-9.2 J0
G2 X96.133 Y139.314 I0.563 J2.124
G3 X94.276 Y140.691 I-1.7 J-0.351
X83.367 Y128.741 I1.091 J-11.951
X95.367 Y116.741 I12 J0
X107.367 Y128.741 I0 J12
X94.276 Y140.691 I-12 J0
X94.094 Y140.491 I0.018 J-0.199
G1 X94.142 Y128.545
X94.145 Y128.507
X94.156 Y128.47
X94.174 Y128.436
G3 X96.559 Y129.996 Z-5.356 I1.193 J0.78 F333.3
X94.174 Y128.436 Z-5.513 I-1.193 J-0.78
X96.559 Y129.996 Z-5.669 I1.193 J0.78
X94.174 Y128.436 Z-5.825 I-1.193 J-0.78
X96.559 Y129.996 Z-5.982 I1.193 J0.78
X94.174 Y128.436 Z-6.138 I-1.193 J-0.78
X96.559 Y129.996 Z-6.294 I1.193 J0.78
X94.174 Y128.436 Z-6.451 I-1.193 J-0.78
X95.367 Y127.791 Z-6.5 I1.193 J0.78
X96.317 Y128.741 I0 J0.95 F700
X95.367 Y129.691 I-0.95 J0
X94.417 Y128.741 I0 J-0.95
X95.367 Y127.791 I0.95 J0
X97.597 Y127.809 I-0.041 J147.299
X98.974 Y129.562 I-0.022 J1.435
X95.367 Y132.441 I-3.608 J-0.821
X91.667 Y128.741 I0 J-3.7
X95.367 Y125.041 I3.7 J0
G1 X95.373 Y125.022
X95.389 Y125.009
X95.409 Y125.007
X95.427 Y125.017
X95.454 Y125.036
X95.486 Y125.043
G3 X98.974 Y129.562 I-0.119 J3.698
G2 X99.595 Y131.556 I2.028 J0.462
G3 X99.558 Y133.644 I-0.944 J1.027
X95.367 Y135.191 I-4.191 J-4.903
X88.917 Y128.741 I0 J-6.45
X95.367 Y122.291 I6.45 J0
X101.817 Y128.741 I0 J6.45
X99.558 Y133.644 I-6.45 J0
G2 X98.865 Y135.742 I1.386 J1.622
G3 X97.723 Y137.634 I-1.549 J0.355
X95.367 Y137.941 I-2.356 J-8.893
X86.167 Y128.741 I0 J-9.2
X104.567 Y128.741 I9.2 J0
X97.723 Y137.634 I-9.2 J0
G2 X96.133 Y139.314 I0.563 J2.124
G3 X94.276 Y140.691 I-1.7 J-0.351
X83.367 Y128.741 I1.091 J-11.951
X95.367 Y116.741 I12 J0
X107.367 Y128.741 I0 J12
X94.276 Y140.691 I-12 J0
X94.094 Y140.491 I0.018 J-0.199
G1 X94.142 Y128.545
X94.145 Y128.507
X94.156 Y128.47
X94.174 Y128.436
G3 X96.559 Y129.996 Z-6.656 I1.193 J0.78 F333.3
X94.174 Y128.436 Z-6.813 I-1.193 J-0.78
X96.559 Y129.996 Z-6.969 I1.193 J0.78
X94.174 Y128.436 Z-7.125 I-1.193 J-0.78
X96.559 Y129.996 Z-7.282 I1.193 J0.78
X94.174 Y128.436 Z-7.438 I-1.193 J-0.78
X96.559 Y129.996 Z-7.594 I1.193 J0.78
X94.174 Y128.436 Z-7.751 I-1.193 J-0.78
X95.367 Y127.791 Z-7.8 I1.193 J0.78
X96.317 Y128.741 I0 J0.95 F700
X95.367 Y129.691 I-0.95 J0
X94.417 Y128.741 I0 J-0.95
X95.367 Y127.791 I0.95 J0
X97.597 Y127.809 I-0.041 J147.299
X98.974 Y129.562 I-0.022 J1.435
X95.367 Y132.441 I-3.608 J-0.821
X91.667 Y128.741 I0 J-3.7
X95.367 Y125.041 I3.7 J0
G1 X95.373 Y125.022
X95.389 Y125.009
X95.409 Y125.007
X95.427 Y125.017
X95.454 Y125.036
X95.486 Y125.043
G3 X98.974 Y129.562 I-0.119 J3.698
G2 X99.595 Y131.556 I2.028 J0.462
G3 X99.558 Y133.644 I-0.944 J1.027
X95.367 Y135.191 I-4.191 J-4.903
X88.917 Y128.741 I0 J-6.45
X95.367 Y122.291 I6.45 J0
X101.817 Y128.741 I0 J6.45
X99.558 Y133.644 I-6.45 J0
G2 X98.865 Y135.742 I1.386 J1.622
G3 X97.723 Y137.634 I-1.549 J0.355
X95.367 Y137.941 I-2.356 J-8.893
X86.167 Y128.741 I0 J-9.2
X104.567 Y128.741 I9.2 J0
X97.723 Y137.634 I-9.2 J0
G2 X96.133 Y139.314 I0.563 J2.124
G3 X94.276 Y140.691 I-1.7 J-0.351
X83.367 Y128.741 I1.091 J-11.951
X95.367 Y116.741 I12 J0
X107.367 Y128.741 I0 J12
X94.276 Y140.691 I-12 J0
X94.094 Y140.491 I0.018 J-0.199
G1 X94.142 Y128.545
X94.145 Y128.507
X94.156 Y128.47
X94.174 Y128.436
G3 X96.559 Y129.996 Z-7.956 I1.193 J0.78 F333.3
X94.174 Y128.436 Z-8.113 I-1.193 J-0.78
X96.559 Y129.996 Z-8.269 I1.193 J0.78
X94.174 Y128.436 Z-8.425 I-1.193 J-0.78
X96.559 Y129.996 Z-8.582 I1.193 J0.78
X94.174 Y128.436 Z-8.738 I-1.193 J-0.78
X96.559 Y129.996 Z-8.894 I1.193 J0.78
X94.174 Y128.436 Z-9.051 I-1.193 J-0.78
X95.367 Y127.791 Z-9.1 I1.193 J0.78
X96.317 Y128.741 I0 J0.95 F700
X95.367 Y129.691 I-0.95 J0
X94.417 Y128.741 I0 J-0.95
X95.367 Y127.791 I0.95 J0
X97.597 Y127.809 I-0.041 J147.299
X98.974 Y129.562 I-0.022 J1.435
X95.367 Y132.441 I-3.608 J-0.821
X91.667 Y128.741 I0 J-3.7
X95.367 Y125.041 I3.7 J0
G1 X95.373 Y125.022
X95.389 Y125.009
X95.409 Y125.007
X95.427 Y125.017
X95.454 Y125.036
X95.486 Y125.043
G3 X98.974 Y129.562 I-0.119 J3.698
G2 X99.595 Y131.556 I2.028 J0.462
G3 X99.558 Y133.644 I-0.944 J1.027
X95.367 Y135.191 I-4.191 J-4.903
X88.917 Y128.741 I0 J-6.45
X95.367 Y122.291 I6.45 J0
X101.817 Y128.741 I0 J6.45
X99.558 Y133.644 I-6.45 J0
G2 X98.865 Y135.742 I1.386 J1.622
G3 X97.723 Y137.634 I-1.549 J0.355
X95.367 Y137.941 I-2.356 J-8.893
X86.167 Y128.741 I0 J-9.2
X104.567 Y128.741 I9.2 J0
X97.723 Y137.634 I-9.2 J0
G2 X96.133 Y139.314 I0.563 J2.124
G3 X94.276 Y140.691 I-1.7 J-0.351
X83.367 Y128.741 I1.091 J-11.951
X95.367 Y116.741 I12 J0
X107.367 Y128.741 I0 J12
X94.276 Y140.691 I-12 J0
X94.094 Y140.491 I0.018 J-0.199
G1 X94.142 Y128.545
X94.145 Y128.507
X94.156 Y128.47
X94.174 Y128.436
G3 X96.559 Y129.996 Z-9.256 I1.193 J0.78 F333.3
X94.174 Y128.436 Z-9.413 I-1.193 J-0.78
X96.559 Y129.996 Z-9.569 I1.193 J0.78
X94.174 Y128.436 Z-9.725 I-1.193 J-0.78
X96.559 Y129.996 Z-9.882 I1.193 J0.78
X94.174 Y128.436 Z-10.038 I-1.193 J-0.78
X96.559 Y129.996 Z-10.194 I1.193 J0.78
X94.174 Y128.436 Z-10.351 I-1.193 J-0.78
X95.367 Y127.791 Z-10.4 I1.193 J0.78
X96.317 Y128.741 I0 J0.95 F700
X95.367 Y129.691 I-0.95 J0
X94.417 Y128.741 I0 J-0.95
X95.367 Y127.791 I0.95 J0
X97.597 Y127.809 I-0.041 J147.299
X98.974 Y129.562 I-0.022 J1.435
X95.367 Y132.441 I-3.608 J-0.821
X91.667 Y128.741 I0 J-3.7
X95.367 Y125.041 I3.7 J0
G1 X95.373 Y125.022
X95.389 Y125.009
X95.409 Y125.007
X95.427 Y125.017
X95.454 Y125.036
X95.486 Y125.043
G3 X98.974 Y129.562 I-0.119 J3.698
G2 X99.595 Y131.556 I2.028 J0.462
G3 X99.558 Y133.644 I-0.944 J1.027
X95.367 Y135.191 I-4.191 J-4.903
X88.917 Y128.741 I0 J-6.45
X95.367 Y122.291 I6.45 J0
X101.817 Y128.741 I0 J6.45
X99.558 Y133.644 I-6.45 J0
G2 X98.865 Y135.742 I1.386 J1.622
G3 X97.723 Y137.634 I-1.549 J0.355
X95.367 Y137.941 I-2.356 J-8.893
X86.167 Y128.741 I0 J-9.2
X104.567 Y128.741 I9.2 J0
X97.723 Y137.634 I-9.2 J0
G2 X96.133 Y139.314 I0.563 J2.124
G3 X94.276 Y140.691 I-1.7 J-0.351
X83.367 Y128.741 I1.091 J-11.951
X95.367 Y116.741 I12 J0
X107.367 Y128.741 I0 J12
X94.276 Y140.691 I-12 J0
X94.098 Y140.451 I0.018 J-0.199
G1 X96.148 Y130.773
G2 X95.88 Y130.545 I-0.196 J-0.041
G3 X94.853 Y127.887 Z-10.556 I-0.513 J-1.329 F333.3
X95.88 Y130.545 Z-10.713 I0.513 J1.329
X94.853 Y127.887 Z-10.869 I-0.513 J-1.329
X95.88 Y130.545 Z-11.025 I0.513 J1.329
X94.853 Y127.887 Z-11.182 I-0.513 J-1.329
X95.367 Y127.791 Z-11.2 I0.513 J1.329
X96.317 Y128.741 I0 J0.95 F700
X95.367 Y129.691 I-0.95 J0
X94.417 Y128.741 I0 J-0.95
X95.367 Y127.791 I0.95 J0
X97.597 Y127.809 I-0.041 J147.299
X98.974 Y129.562 I-0.022 J1.435
X95.367 Y132.441 I-3.608 J-0.821
X91.667 Y128.741 I0 J-3.7
X95.367 Y125.041 I3.7 J0
G1 X95.373 Y125.022
X95.389 Y125.009
X95.409 Y125.007
X95.427 Y125.017
X95.454 Y125.036
X95.486 Y125.043
G3 X98.974 Y129.562 I-0.119 J3.698
G2 X99.595 Y131.556 I2.028 J0.462
G3 X99.558 Y133.644 I-0.944 J1.027
X95.367 Y135.191 I-4.191 J-4.903
X88.917 Y128.741 I0 J-6.45
X95.367 Y122.291 I6.45 J0
X101.817 Y128.741 I0 J6.45
X99.558 Y133.644 I-6.45 J0
G2 X98.865 Y135.742 I1.386 J1.622
G3 X97.723 Y137.634 I-1.549 J0.355
X95.367 Y137.941 I-2.356 J-8.893
X86.167 Y128.741 I0 J-9.2
X104.567 Y128.741 I9.2 J0
X97.723 Y137.634 I-9.2 J0
G2 X96.133 Y139.314 I0.563 J2.124
G3 X94.276 Y140.691 I-1.7 J-0.351
X83.367 Y128.741 I1.091 J-11.951
X95.367 Y116.741 I12 J0
X107.367 Y128.741 I0 J12
X94.276 Y140.691 I-12 J0
X94.098 Y140.451 I0.018 J-0.199
G1 X96.148 Y130.773
G2 X95.88 Y130.545 I-0.196 J-0.041
G3 X94.853 Y127.887 Z-11.356 I-0.513 J-1.329 F333.3
X95.88 Y130.545 Z-11.513 I0.513 J1.329
X94.853 Y127.887 Z-11.669 I-0.513 J-1.329
X95.88 Y130.545 Z-11.825 I0.513 J1.329
X94.853 Y127.887 Z-11.982 I-0.513 J-1.329
X95.367 Y127.791 Z-12 I0.513 J1.329
X96.317 Y128.741 I0 J0.95 F700
X95.367 Y129.691 I-0.95 J0
X94.417 Y128.741 I0 J-0.95
X95.367 Y127.791 I0.95 J0
X97.597 Y127.809 I-0.041 J147.299
X98.974 Y129.562 I-0.022 J1.435
X95.367 Y132.441 I-3.608 J-0.821
X91.667 Y128.741 I0 J-3.7
X95.367 Y125.041 I3.7 J0
G1 X95.373 Y125.022
X95.389 Y125.009
X95.409 Y125.007
X95.427 Y125.017
X95.454 Y125.036
X95.486 Y125.043
G3 X98.974 Y129.562 I-0.119 J3.698
G2 X99.595 Y131.556 I2.028 J0.462
G3 X99.558 Y133.644 I-0.944 J1.027
X95.367 Y135.191 I-4.191 J-4.903
X88.917 Y128.741 I0 J-6.45
X95.367 Y122.291 I6.45 J0
X101.817 Y128.741 I0 J6.45
X99.558 Y133.644 I-6.45 J0
G2 X98.865 Y135.742 I1.386 J1.622
G3 X97.723 Y137.634 I-1.549 J0.355
X95.367 Y137.941 I-2.356 J-8.893
X86.167 Y128.741 I0 J-9.2
X104.567 Y128.741 I9.2 J0
X97.723 Y137.634 I-9.2 J0
G2 X96.133 Y139.314 I0.563 J2.124
G3 X94.276 Y140.691 I-1.7 J-0.351
X83.367 Y128.741 I1.091 J-11.951
X95.367 Y116.741 I12 J0
X107.367 Y128.741 I0 J12
X94.276 Y140.691 I-12 J0
G0 Z7
X108.927 Y94.273
Z3
G1 Z1.8 F700
G3 X111.379 Y95.727 Z1.644 I1.226 J0.727 F333.3
X108.927 Y94.273 Z1.487 I-1.226 J-0.727
X111.379 Y95.727 Z1.331 I1.226 J0.727
X108.927 Y94.273 Z1.175 I-1.226 J-0.727
X111.379 Y95.727 Z1.018 I1.226 J0.727
X108.927 Y94.273 Z0.862 I-1.226 J-0.727
X111.379 Y95.727 Z0.706 I1.226 J0.727
X108.927 Y94.273 Z0.549 I-1.226 J-0.727
X111.379 Y95.727 Z0.393 I1.226 J0.727
X108.927 Y94.273 Z0.237 I-1.226 J-0.727
X111.379 Y95.727 Z0.08 I1.226 J0.727
X108.927 Y94.273 Z-0.076 I-1.226 J-0.727
X111.379 Y95.727 Z-0.232 I1.226 J0.727
X108.927 Y94.273 Z-0.389 I-1.226 J-0.727
X111.379 Y95.727 Z-0.545 I1.226 J0.727
X108.927 Y94.273 Z-0.701 I-1.226 J-0.727
X111.379 Y95.727 Z-0.858 I1.226 J0.727
X108.927 Y94.273 Z-1.014 I-1.226 J-0.727
X111.379 Y95.727 Z-1.17 I1.226 J0.727
X108.728 Y95 Z-1.3 I-1.226 J-0.727
X109.678 Y95 I0.475 J0 F700
X105.878 Y95 I-1.9 J0
X112.528 Y95 I3.325 J0
X103.028 Y95 I-4.75 J0
X112.528 Y95 I4.75 J0
G1 X112.522 Y95.049
X112.504 Y95.094
X112.476 Y95.134
X112.439 Y95.166
X112.396 Y95.188
X109.55 Y96.213
X109.505 Y96.224
X109.459
X109.414 Y96.213
X109.373 Y96.193
G3 X110.933 Y93.807 Z-1.456 I0.78 J-1.193 F333.3
X109.373 Y96.193 Z-1.613 I-0.78 J1.193
X110.933 Y93.807 Z-1.769 I0.78 J-1.193
X109.373 Y96.193 Z-1.925 I-0.78 J1.193
X110.933 Y93.807 Z-2.082 I0.78 J-1.193
X109.373 Y96.193 Z-2.238 I-0.78 J1.193
X110.933 Y93.807 Z-2.394 I0.78 J-1.193
X109.373 Y96.193 Z-2.551 I-0.78 J1.193
X108.728 Y95 Z-2.6 I0.78 J-1.193
X109.678 Y95 I0.475 J0 F700
X105.878 Y95 I-1.9 J0
X112.528 Y95 I3.325 J0
X103.028 Y95 I-4.75 J0
X112.528 Y95 I4.75 J0
G1 X112.522 Y95.049
X112.504 Y95.094
X112.476 Y95.134
X112.439 Y95.166
X112.396 Y95.188
X109.55 Y96.213
X109.505 Y96.224
X109.459
X109.414 Y96.213
X109.373 Y96.193
G3 X110.933 Y93.807 Z-2.756 I0.78 J-1.193 F333.3
X109.373 Y96.193 Z-2.913 I-0.78 J1.193
X110.933 Y93.807 Z-3.069 I0.78 J-1.193
X109.373 Y96.193 Z-3.225 I-0.78 J1.193
X110.933 Y93.807 Z-3.382 I0.78 J-1.193
X109.373 Y96.193 Z-3.538 I-0.78 J1.193
X110.933 Y93.807 Z-3.694 I0.78 J-1.193
X109.373 Y96.193 Z-3.851 I-0.78 J1.193
X108.728 Y95 Z-3.9 I0.78 J-1.193
X109.678 Y95 I0.475 J0 F700
X105.878 Y95 I-1.9 J0
X112.528 Y95 I3.325 J0
X103.028 Y95 I-4.75 J0
X112.528 Y95 I4.75 J0
G1 X112.522 Y95.049
X112.504 Y95.094
X112.476 Y95.134
X112.439 Y95.166
X112.396 Y95.188
X109.55 Y96.213
X109.505 Y96.224
X109.459
X109.414 Y96.213
X109.373 Y96.193
G3 X110.933 Y93.807 Z-4.056 I0.78 J-1.193 F333.3
X109.373 Y96.193 Z-4.213 I-0.78 J1.193
X110.933 Y93.807 Z-4.369 I0.78 J-1.193
X109.373 Y96.193 Z-4.525 I-0.78 J1.193
X110.933 Y93.807 Z-4.682 I0.78 J-1.193
X109.373 Y96.193 Z-4.838 I-0.78 J1.193
X110.933 Y93.807 Z-4.994 I0.78 J-1.193
X109.373 Y96.193 Z-5.151 I-0.78 J1.193
X108.728 Y95 Z-5.2 I0.78 J-1.193
X109.678 Y95 I0.475 J0 F700
X105.878 Y95 I-1.9 J0
X112.528 Y95 I3.325 J0
X103.028 Y95 I-4.75 J0
X112.528 Y95 I4.75 J0
G1 X112.522 Y95.049
X112.504 Y95.094
X112.476 Y95.134
X112.439 Y95.166
X112.396 Y95.188
X109.55 Y96.213
X109.505 Y96.224
X109.459
X109.414 Y96.213
X109.373 Y96.193
G3 X110.933 Y93.807 Z-5.356 I0.78 J-1.193 F333.3
X109.373 Y96.193 Z-5.513 I-0.78 J1.193
X110.933 Y93.807 Z-5.669 I0.78 J-1.193
X109.373 Y96.193 Z-5.825 I-0.78 J1.193
X110.933 Y93.807 Z-5.982 I0.78 J-1.193
X109.373 Y96.193 Z-6.138 I-0.78 J1.193
X110.933 Y93.807 Z-6.294 I0.78 J-1.193
X109.373 Y96.193 Z-6.451 I-0.78 J1.193
X108.728 Y95 Z-6.5 I0.78 J-1.193
X109.678 Y95 I0.475 J0 F700
X105.878 Y95 I-1.9 J0
X112.528 Y95 I3.325 J0
X103.028 Y95 I-4.75 J0
X112.528 Y95 I4.75 J0
G1 X112.522 Y95.049
X112.504 Y95.094
X112.476 Y95.134
X112.439 Y95.166
X112.396 Y95.188
X109.55 Y96.213
X109.505 Y96.224
X109.459
X109.414 Y96.213
X109.373 Y96.193
G3 X110.933 Y93.807 Z-6.656 I0.78 J-1.193 F333.3
X109.373 Y96.193 Z-6.813 I-0.78 J1.193
X110.933 Y93.807 Z-6.969 I0.78 J-1.193
X109.373 Y96.193 Z-7.125 I-0.78 J1.193
X110.933 Y93.807 Z-7.282 I0.78 J-1.193
X109.373 Y96.193 Z-7.438 I-0.78 J1.193
X110.933 Y93.807 Z-7.594 I0.78 J-1.193
X109.373 Y96.193 Z-7.751 I-0.78 J1.193
X108.728 Y95 Z-7.8 I0.78 J-1.193
X109.678 Y95 I0.475 J0 F700
X105.878 Y95 I-1.9 J0
X112.528 Y95 I3.325 J0
X103.028 Y95 I-4.75 J0
X112.528 Y95 I4.75 J0
G1 X112.522 Y95.049
X112.504 Y95.094
X112.476 Y95.134
X112.439 Y95.166
X112.396 Y95.188
X109.55 Y96.213
X109.505 Y96.224
X109.459
X109.414 Y96.213
X109.373 Y96.193
G3 X110.933 Y93.807 Z-7.956 I0.78 J-1.193 F333.3
X109.373 Y96.193 Z-8.113 I-0.78 J1.193
X110.933 Y93.807 Z-8.269 I0.78 J-1.193
X109.373 Y96.193 Z-8.425 I-0.78 J1.193
X110.933 Y93.807 Z-8.582 I0.78 J-1.193
X109.373 Y96.193 Z-8.738 I-0.78 J1.193
X110.933 Y93.807 Z-8.894 I0.78 J-1.193
X109.373 Y96.193 Z-9.051 I-0.78 J1.193
X108.728 Y95 Z-9.1 I0.78 J-1.193
X109.678 Y95 I0.475 J0 F700
X105.878 Y95 I-1.9 J0
X112.528 Y95 I3.325 J0
X103.028 Y95 I-4.75 J0
X112.528 Y95 I4.75 J0
G1 X112.522 Y95.049
X112.504 Y95.094
X112.476 Y95.134
X112.439 Y95.166
X112.396 Y95.188
X109.55 Y96.213
X109.505 Y96.224
X109.459
X109.414 Y96.213
X109.373 Y96.193
G3 X110.933 Y93.807 Z-9.256 I0.78 J-1.193 F333.3
X109.373 Y96.193 Z-9.413 I-0.78 J1.193
X110.933 Y93.807 Z-9.569 I0.78 J-1.193
X109.373 Y96.193 Z-9.725 I-0.78 J1.193
X110.933 Y93.807 Z-9.882 I0.78 J-1.193
X109.373 Y96.193 Z-10.038 I-0.78 J1.193
X110.933 Y93.807 Z-10.194 I0.78 J-1.193
X109.373 Y96.193 Z-10.351 I-0.78 J1.193
X108.728 Y95 Z-10.4 I0.78 J-1.193
X109.678 Y95 I0.475 J0 F700
X105.878 Y95 I-1.9 J0
X112.528 Y95 I3.325 J0
X103.028 Y95 I-4.75 J0
X112.528 Y95 I4.75 J0
G1 X112.522 Y95.049
X112.504 Y95.094
X112.476 Y95.134
X112.439 Y95.166
X112.396 Y95.188
X109.55 Y96.213
X109.505 Y96.224
X109.459
X109.414 Y96.213
X109.373 Y96.193
G3 X110.933 Y93.807 Z-10.556 I0.78 J-1.193 F333.3
X109.373 Y96.193 Z-10.713 I-0.78 J1.193
X110.933 Y93.807 Z-10.869 I0.78 J-1.193
X109.373 Y96.193 Z-11.025 I-0.78 J1.193
X110.933 Y93.807 Z-11.182 I0.78 J-1.193
X109.373 Y96.193 Z-11.338 I-0.78 J1.193
X110.933 Y93.807 Z-11.494 I0.78 J-1.193
X109.373 Y96.193 Z-11.651 I-0.78 J1.193
X108.728 Y95 Z-11.7 I0.78 J-1.193
X109.678 Y95 I0.475 J0 F700
X105.878 Y95 I-1.9 J0
X112.528 Y95 I3.325 J0
X103.028 Y95 I-4.75 J0
X112.528 Y95 I4.75 J0
G1 X112.522 Y95.049
X112.504 Y95.094
X112.476 Y95.134
X112.439 Y95.166
X112.396 Y95.188
X109.55 Y96.213
X109.505 Y96.224
X109.459
X109.414 Y96.213
X109.373 Y96.193
G3 X110.933 Y93.807 Z-11.856 I0.78 J-1.193 F333.3
X109.373 Y96.193 Z-12.013 I-0.78 J1.193
X110.933 Y93.807 Z-12.169 I0.78 J-1.193
X109.373 Y96.193 Z-12.325 I-0.78 J1.193
X110.933 Y93.807 Z-12.482 I0.78 J-1.193
X109.373 Y96.193 Z-12.638 I-0.78 J1.193
X110.933 Y93.807 Z-12.794 I0.78 J-1.193
X109.373 Y96.193 Z-12.951 I-0.78 J1.193
X108.728 Y95 Z-13 I0.78 J-1.193
X109.678 Y95 I0.475 J0 F700
X105.878 Y95 I-1.9 J0
X112.528 Y95 I3.325 J0
X103.028 Y95 I-4.75 J0
X112.528 Y95 I4.75 J0
G1 X112.522 Y95.049
X112.504 Y95.094
X112.476 Y95.134
X112.439 Y95.166
X112.396 Y95.188
X109.55 Y96.213
X109.505 Y96.224
X109.459
X109.414 Y96.213
X109.373 Y96.193
G3 X110.933 Y93.807 Z-13.156 I0.78 J-1.193 F333.3
X109.373 Y96.193 Z-13.313 I-0.78 J1.193
X110.933 Y93.807 Z-13.469 I0.78 J-1.193
X109.373 Y96.193 Z-13.625 I-0.78 J1.193
X110.933 Y93.807 Z-13.782 I0.78 J-1.193
X109.373 Y96.193 Z-13.938 I-0.78 J1.193
X110.933 Y93.807 Z-14.094 I0.78 J-1.193
X109.373 Y96.193 Z-14.251 I-0.78 J1.193
X108.728 Y95 Z-14.3 I0.78 J-1.193
X109.678 Y95 I0.475 J0 F700
X105.878 Y95 I-1.9 J0
X112.528 Y95 I3.325 J0
X103.028 Y95 I-4.75 J0
X112.528 Y95 I4.75 J0
G1 X112.521 Y95.053
X112.5 Y95.102
X112.466 Y95.144
X112.423 Y95.176
X110.162 Y96.398
X110.109 Y96.417
X110.053 Y96.421
G3 X110.253 Y93.579 Z-14.456 I0.1 J-1.421 F333.3
X110.053 Y96.421 Z-14.613 I-0.1 J1.421
X110.253 Y93.579 Z-14.769 I0.1 J-1.421
X110.053 Y96.421 Z-14.925 I-0.1 J1.421
X108.728 Y95 Z-15 I0.1 J-1.421
X109.678 Y95 I0.475 J0 F700
X105.878 Y95 I-1.9 J0
X112.528 Y95 I3.325 J0
X103.028 Y95 I-4.75 J0
X112.528 Y95 I4.75 J0
G0 Z7
X120.249 Y110.273
Z3
G1 Z1.8 F700
G3 X122.701 Y111.727 Z1.644 I1.226 J0.727 F333.3
X120.249 Y110.273 Z1.487 I-1.226 J-0.727
X122.701 Y111.727 Z1.331 I1.226 J0.727
X120.249 Y110.273 Z1.175 I-1.226 J-0.727
X122.701 Y111.727 Z1.018 I1.226 J0.727
X120.249 Y110.273 Z0.862 I-1.226 J-0.727
X122.701 Y111.727 Z0.706 I1.226 J0.727
X120.249 Y110.273 Z0.549 I-1.226 J-0.727
X122.701 Y111.727 Z0.393 I1.226 J0.727
X120.249 Y110.273 Z0.237 I-1.226 J-0.727
X122.701 Y111.727 Z0.08 I1.226 J0.727
X120.249 Y110.273 Z-0.076 I-1.226 J-0.727
X122.701 Y111.727 Z-0.232 I1.226 J0.727
X120.249 Y110.273 Z-0.389 I-1.226 J-0.727
X122.701 Y111.727 Z-0.545 I1.226 J0.727
X120.249 Y110.273 Z-0.701 I-1.226 J-0.727
X122.701 Y111.727 Z-0.858 I1.226 J0.727
X120.249 Y110.273 Z-1.014 I-1.226 J-0.727
X122.701 Y111.727 Z-1.17 I1.226 J0.727
X120.05 Y111 Z-1.3 I-1.226 J-0.727
X122.8 Y111 I1.375 J0 F700
X117.2 Y111 I-2.8 J0
X125.65 Y111 I4.225 J0
X114.35 Y111 I-5.65 J0
X128.5 Y111 I7.075 J0
X111.5 Y111 I-8.5 J0
X128.5 Y111 I8.5 J0
X127.548 Y111.706 I-0.738 J0
G1 X124.2 Y110.693
G2 X123.572 Y110.789 I-0.214 J0.706
G1 X121.513 Y112.186
G3 X120.695 Y112.193 I-0.414 J-0.611
X122.255 Y109.807 Z-1.456 I0.78 J-1.193 F333.3
X120.695 Y112.193 Z-1.613 I-0.78 J1.193
X122.255 Y109.807 Z-1.769 I0.78 J-1.193
X120.695 Y112.193 Z-1.925 I-0.78 J1.193
X122.255 Y109.807 Z-2.082 I0.78 J-1.193
X120.695 Y112.193 Z-2.238 I-0.78 J1.193
X122.255 Y109.807 Z-2.394 I0.78 J-1.193
X120.695 Y112.193 Z-2.551 I-0.78 J1.193
X120.05 Y111 Z-2.6 I0.78 J-1.193
X122.8 Y111 I1.375 J0 F700
X117.2 Y111 I-2.8 J0
X125.65 Y111 I4.225 J0
X114.35 Y111 I-5.65 J0
X128.5 Y111 I7.075 J0
X111.5 Y111 I-8.5 J0
X128.5 Y111 I8.5 J0
X127.548 Y111.706 I-0.738 J0
G1 X124.2 Y110.693
G2 X123.572 Y110.789 I-0.214 J0.706
G1 X121.513 Y112.186
G3 X120.695 Y112.193 I-0.414 J-0.611
X122.255 Y109.807 Z-2.756 I0.78 J-1.193 F333.3
X120.695 Y112.193 Z-2.913 I-0.78 J1.193
X122.255 Y109.807 Z-3.069 I0.78 J-1.193
X120.695 Y112.193 Z-3.225 I-0.78 J1.193
X122.255 Y109.807 Z-3.382 I0.78 J-1.193
X120.695 Y112.193 Z-3.538 I-0.78 J1.193
X122.255 Y109.807 Z-3.694 I0.78 J-1.193
X120.695 Y112.193 Z-3.851 I-0.78 J1.193
X120.05 Y111 Z-3.9 I0.78 J-1.193
X122.8 Y111 I1.375 J0 F700
X117.2 Y111 I-2.8 J0
X125.65 Y111 I4.225 J0
X114.35 Y111 I-5.65 J0
X128.5 Y111 I7.075 J0
X111.5 Y111 I-8.5 J0
X128.5 Y111 I8.5 J0
X127.548 Y111.706 I-0.738 J0
G1 X124.2 Y110.693
G2 X123.572 Y110.789 I-0.214 J0.706
G1 X121.513 Y112.186
G3 X120.695 Y112.193 I-0.414 J-0.611
X122.255 Y109.807 Z-4.056 I0.78 J-1.193 F333.3
X120.695 Y112.193 Z-4.213 I-0.78 J1.193
X122.255 Y109.807 Z-4.369 I0.78 J-1.193
X120.695 Y112.193 Z-4.525 I-0.78 J1.193
X122.255 Y109.807 Z-4.682 I0.78 J-1.193
X120.695 Y112.193 Z-4.838 I-0.78 J1.193
X122.255 Y109.807 Z-4.994 I0.78 J-1.193
X120.695 Y112.193 Z-5.151 I-0.78 J1.193
X120.05 Y111 Z-5.2 I0.78 J-1.193
X122.8 Y111 I1.375 J0 F700
X117.2 Y111 I-2.8 J0
X125.65 Y111 I4.225 J0
X114.35 Y111 I-5.65 J0
X128.5 Y111 I7.075 J0
X111.5 Y111 I-8.5 J0
X128.5 Y111 I8.5 J0
X127.548 Y111.706 I-0.738 J0
G1 X124.2 Y110.693
G2 X123.572 Y110.789 I-0.214 J0.706
G1 X121.513 Y112.186
G3 X120.695 Y112.193 I-0.414 J-0.611
X122.255 Y109.807 Z-5.356 I0.78 J-1.193 F333.3
X120.695 Y112.193 Z-5.513 I-0.78 J1.193
X122.255 Y109.807 Z-5.669 I0.78 J-1.193
X120.695 Y112.193 Z-5.825 I-0.78 J1.193
X122.255 Y109.807 Z-5.982 I0.78 J-1.193
X120.695 Y112.193 Z-6.138 I-0.78 J1.193
X122.255 Y109.807 Z-6.294 I0.78 J-1.193
X120.695 Y112.193 Z-6.451 I-0.78 J1.193
X120.05 Y111 Z-6.5 I0.78 J-1.193
X122.8 Y111 I1.375 J0 F700
X117.2 Y111 I-2.8 J0
X125.65 Y111 I4.225 J0
X114.35 Y111 I-5.65 J0
X128.5 Y111 I7.075 J0
X111.5 Y111 I-8.5 J0
X128.5 Y111 I8.5 J0
X127.548 Y111.706 I-0.738 J0
G1 X124.2 Y110.693
G2 X123.572 Y110.789 I-0.214 J0.706
G1 X121.513 Y112.186
G3 X120.695 Y112.193 I-0.414 J-0.611
X122.255 Y109.807 Z-6.656 I0.78 J-1.193 F333.3
X120.695 Y112.193 Z-6.813 I-0.78 J1.193
X122.255 Y109.807 Z-6.969 I0.78 J-1.193
X120.695 Y112.193 Z-7.125 I-0.78 J1.193
X122.255 Y109.807 Z-7.282 I0.78 J-1.193
X120.695 Y112.193 Z-7.438 I-0.78 J1.193
X122.255 Y109.807 Z-7.594 I0.78 J-1.193
X120.695 Y112.193 Z-7.751 I-0.78 J1.193
X120.05 Y111 Z-7.8 I0.78 J-1.193
X122.8 Y111 I1.375 J0 F700
X117.2 Y111 I-2.8 J0
X125.65 Y111 I4.225 J0
X114.35 Y111 I-5.65 J0
X128.5 Y111 I7.075 J0
X111.5 Y111 I-8.5 J0
X128.5 Y111 I8.5 J0
X127.548 Y111.706 I-0.738 J0
G1 X124.2 Y110.693
G2 X123.572 Y110.789 I-0.214 J0.706
G1 X121.513 Y112.186
G3 X120.695 Y112.193 I-0.414 J-0.611
X122.255 Y109.807 Z-7.956 I0.78 J-1.193 F333.3
X120.695 Y112.193 Z-8.113 I-0.78 J1.193
X122.255 Y109.807 Z-8.269 I0.78 J-1.193
X120.695 Y112.193 Z-8.425 I-0.78 J1.193
X122.255 Y109.807 Z-8.582 I0.78 J-1.193
X120.695 Y112.193 Z-8.738 I-0.78 J1.193
X122.255 Y109.807 Z-8.894 I0.78 J-1.193
X120.695 Y112.193 Z-9.051 I-0.78 J1.193
X120.05 Y111 Z-9.1 I0.78 J-1.193
X122.8 Y111 I1.375 J0 F700
X117.2 Y111 I-2.8 J0
X125.65 Y111 I4.225 J0
X114.35 Y111 I-5.65 J0
X128.5 Y111 I7.075 J0
X111.5 Y111 I-8.5 J0
X128.5 Y111 I8.5 J0
X127.548 Y111.706 I-0.738 J0
G1 X124.2 Y110.693
G2 X123.572 Y110.789 I-0.214 J0.706
G1 X121.513 Y112.186
G3 X120.695 Y112.193 I-0.414 J-0.611
X122.255 Y109.807 Z-9.256 I0.78 J-1.193 F333.3
X120.695 Y112.193 Z-9.413 I-0.78 J1.193
X122.255 Y109.807 Z-9.569 I0.78 J-1.193
X120.695 Y112.193 Z-9.725 I-0.78 J1.193
X122.255 Y109.807 Z-9.882 I0.78 J-1.193
X120.695 Y112.193 Z-10.038 I-0.78 J1.193
X122.255 Y109.807 Z-10.194 I0.78 J-1.193
X120.695 Y112.193 Z-10.351 I-0.78 J1.193
X120.05 Y111 Z-10.4 I0.78 J-1.193
X122.8 Y111 I1.375 J0 F700
X117.2 Y111 I-2.8 J0
X125.65 Y111 I4.225 J0
X114.35 Y111 I-5.65 J0
X128.5 Y111 I7.075 J0
X111.5 Y111 I-8.5 J0
X128.5 Y111 I8.5 J0
X127.548 Y111.706 I-0.738 J0
G1 X124.2 Y110.693
G2 X123.572 Y110.789 I-0.214 J0.706
G1 X121.513 Y112.186
G3 X120.695 Y112.193 I-0.414 J-0.611
X122.255 Y109.807 Z-10.556 I0.78 J-1.193 F333.3
X120.695 Y112.193 Z-10.713 I-0.78 J1.193
X122.255 Y109.807 Z-10.869 I0.78 J-1.193
X120.695 Y112.193 Z-11.025 I-0.78 J1.193
X122.255 Y109.807 Z-11.182 I0.78 J-1.193
X120.695 Y112.193 Z-11.338 I-0.78 J1.193
X122.255 Y109.807 Z-11.494 I0.78 J-1.193
X120.695 Y112.193 Z-11.651 I-0.78 J1.193
X120.05 Y111 Z-11.7 I0.78 J-1.193
X122.8 Y111 I1.375 J0 F700
X117.2 Y111 I-2.8 J0
X125.65 Y111 I4.225 J0
X114.35 Y111 I-5.65 J0
X128.5 Y111 I7.075 J0
X111.5 Y111 I-8.5 J0
X128.5 Y111 I8.5 J0
X127.548 Y111.706 I-0.738 J0
G1 X124.2 Y110.693
G2 X123.572 Y110.789 I-0.214 J0.706
G1 X121.513 Y112.186
G3 X120.695 Y112.193 I-0.414 J-0.611
X122.255 Y109.807 Z-11.856 I0.78 J-1.193 F333.3
X120.695 Y112.193 Z-12.013 I-0.78 J1.193
X122.255 Y109.807 Z-12.169 I0.78 J-1.193
X120.695 Y112.193 Z-12.325 I-0.78 J1.193
X122.255 Y109.807 Z-12.482 I0.78 J-1.193
X120.695 Y112.193 Z-12.638 I-0.78 J1.193
X122.255 Y109.807 Z-12.794 I0.78 J-1.193
X120.695 Y112.193 Z-12.951 I-0.78 J1.193
X120.05 Y111 Z-13 I0.78 J-1.193
X122.8 Y111 I1.375 J0 F700
X117.2 Y111 I-2.8 J0
X125.65 Y111 I4.225 J0
X114.35 Y111 I-5.65 J0
X128.5 Y111 I7.075 J0
X111.5 Y111 I-8.5 J0
X128.5 Y111 I8.5 J0
X127.548 Y111.706 I-0.738 J0
G1 X124.2 Y110.693
G2 X123.572 Y110.789 I-0.214 J0.706
G1 X121.513 Y112.186
G3 X120.695 Y112.193 I-0.414 J-0.611
X122.255 Y109.807 Z-13.156 I0.78 J-1.193 F333.3
X120.695 Y112.193 Z-13.313 I-0.78 J1.193
X122.255 Y109.807 Z-13.469 I0.78 J-1.193
X120.695 Y112.193 Z-13.625 I-0.78 J1.193
X122.255 Y109.807 Z-13.782 I0.78 J-1.193
X120.695 Y112.193 Z-13.938 I-0.78 J1.193
X122.255 Y109.807 Z-14.094 I0.78 J-1.193
X120.695 Y112.193 Z-14.251 I-0.78 J1.193
X120.05 Y111 Z-14.3 I0.78 J-1.193
X122.8 Y111 I1.375 J0 F700
X117.2 Y111 I-2.8 J0
X125.65 Y111 I4.225 J0
X114.35 Y111 I-5.65 J0
X128.5 Y111 I7.075 J0
X111.5 Y111 I-8.5 J0
X128.5 Y111 I8.5 J0
X127.468 Y111.743 I-0.784 J0
G1 X123.939 Y110.564
G2 X123.076 Y110.821 I-0.248 J0.743
G1 X122.045 Y112.126
G3 X121.375 Y112.421 I-0.615 J-0.486
X121.575 Y109.579 Z-14.456 I0.1 J-1.421 F333.3
X121.375 Y112.421 Z-14.613 I-0.1 J1.421
X121.575 Y109.579 Z-14.769 I0.1 J-1.421
X121.375 Y112.421 Z-14.925 I-0.1 J1.421
X120.05 Y111 Z-15 I0.1 J-1.421
X122.8 Y111 I1.375 J0 F700
X117.2 Y111 I-2.8 J0
X125.65 Y111 I4.225 J0
X114.35 Y111 I-5.65 J0
X128.5 Y111 I7.075 J0
X111.5 Y111 I-8.5 J0
X128.5 Y111 I8.5 J0
G0 Z7
X133.371 Y94.273
Z3
G1 Z1.8 F700
G3 X135.823 Y95.727 Z1.644 I1.226 J0.727 F333.3
X133.371 Y94.273 Z1.487 I-1.226 J-0.727
X135.823 Y95.727 Z1.331 I1.226 J0.727
X133.371 Y94.273 Z1.175 I-1.226 J-0.727
X135.823 Y95.727 Z1.018 I1.226 J0.727
X133.371 Y94.273 Z0.862 I-1.226 J-0.727
X135.823 Y95.727 Z0.706 I1.226 J0.727
X133.371 Y94.273 Z0.549 I-1.226 J-0.727
X135.823 Y95.727 Z0.393 I1.226 J0.727
X133.371 Y94.273 Z0.237 I-1.226 J-0.727
X135.823 Y95.727 Z0.08 I1.226 J0.727
X133.371 Y94.273 Z-0.076 I-1.226 J-0.727
X135.823 Y95.727 Z-0.232 I1.226 J0.727
X133.371 Y94.273 Z-0.389 I-1.226 J-0.727
X135.823 Y95.727 Z-0.545 I1.226 J0.727
X133.371 Y94.273 Z-0.701 I-1.226 J-0.727
X135.823 Y95.727 Z-0.858 I1.226 J0.727
X133.371 Y94.273 Z-1.014 I-1.226 J-0.727
X135.823 Y95.727 Z-1.17 I1.226 J0.727
X133.172 Y95 Z-1.3 I-1.226 J-0.727
X134.122 Y95 I0.475 J0 F700
X130.322 Y95 I-1.9 J0
X136.972 Y95 I3.325 J0
X127.472 Y95 I-4.75 J0
X136.972 Y95 I4.75 J0
G1 X136.966 Y95.049
X136.948 Y95.094
X136.92 Y95.134
X136.883 Y95.166
X136.84 Y95.188
X133.994 Y96.213
X133.949 Y96.224
X133.903
X133.858 Y96.213
X133.817 Y96.193
G3 X135.377 Y93.807 Z-1.456 I0.78 J-1.193 F333.3
X133.817 Y96.193 Z-1.613 I-0.78 J1.193
X135.377 Y93.807 Z-1.769 I0.78 J-1.193
X133.817 Y96.193 Z-1.925 I-0.78 J1.193
X135.377 Y93.807 Z-2.082 I0.78 J-1.193
X133.817 Y96.193 Z-2.238 I-0.78 J1.193
X135.377 Y93.807 Z-2.394 I0.78 J-1.193
X133.817 Y96.193 Z-2.551 I-0.78 J1.193
X133.172 Y95 Z-2.6 I0.78 J-1.193
X134.122 Y95 I0.475 J0 F700
X130.322 Y95 I-1.9 J0
X136.972 Y95 I3.325 J0
X127.472 Y95 I-4.75 J0
X136.972 Y95 I4.75 J0
G1 X136.966 Y95.049
X136.948 Y95.094
X136.92 Y95.134
X136.883 Y95.166
X136.84 Y95.188
X133.994 Y96.213
X133.949 Y96.224
X133.903
X133.858 Y96.213
X133.817 Y96.193
G3 X135.377 Y93.807 Z-2.756 I0.78 J-1.193 F333.3
X133.817 Y96.193 Z-2.913 I-0.78 J1.193
X135.377 Y93.807 Z-3.069 I0.78 J-1.193
X133.817 Y96.193 Z-3.225 I-0.78 J1.193
X135.377 Y93.807 Z-3.382 I0.78 J-1.193
X133.817 Y96.193 Z-3.538 I-0.78 J1.193
X135.377 Y93.807 Z-3.694 I0.78 J-1.193
X133.817 Y96.193 Z-3.851 I-0.78 J1.193
X133.172 Y95 Z-3.9 I0.78 J-1.193
X134.122 Y95 I0.475 J0 F700
X130.322 Y95 I-1.9 J0
X136.972 Y95 I3.325 J0
X127.472 Y95 I-4.75 J0
X136.972 Y95 I4.75 J0
G1 X136.966 Y95.049
X136.948 Y95.094
X136.92 Y95.134
X136.883 Y95.166
X136.84 Y95.188
X133.994 Y96.213
X133.949 Y96.224
X133.903
X133.858 Y96.213
X133.817 Y96.193
G3 X135.377 Y93.807 Z-4.056 I0.78 J-1.193 F333.3
X133.817 Y96.193 Z-4.213 I-0.78 J1.193
X135.377 Y93.807 Z-4.369 I0.78 J-1.193
X133.817 Y96.193 Z-4.525 I-0.78 J1.193
X135.377 Y93.807 Z-4.682 I0.78 J-1.193
X133.817 Y96.193 Z-4.838 I-0.78 J1.193
X135.377 Y93.807 Z-4.994 I0.78 J-1.193
X133.817 Y96.193 Z-5.151 I-0.78 J1.193
X133.172 Y95 Z-5.2 I0.78 J-1.193
X134.122 Y95 I0.475 J0 F700
X130.322 Y95 I-1.9 J0
X136.972 Y95 I3.325 J0
X127.472 Y95 I-4.75 J0
X136.972 Y95 I4.75 J0
G1 X136.966 Y95.049
X136.948 Y95.094
X136.92 Y95.134
X136.883 Y95.166
X136.84 Y95.188
X133.994 Y96.213
X133.949 Y96.224
X133.903
X133.858 Y96.213
X133.817 Y96.193
G3 X135.377 Y93.807 Z-5.356 I0.78 J-1.193 F333.3
X133.817 Y96.193 Z-5.513 I-0.78 J1.193
X135.377 Y93.807 Z-5.669 I0.78 J-1.193
X133.817 Y96.193 Z-5.825 I-0.78 J1.193
X135.377 Y93.807 Z-5.982 I0.78 J-1.193
X133.817 Y96.193 Z-6.138 I-0.78 J1.193
X135.377 Y93.807 Z-6.294 I0.78 J-1.193
X133.817 Y96.193 Z-6.451 I-0.78 J1.193
X133.172 Y95 Z-6.5 I0.78 J-1.193
X134.122 Y95 I0.475 J0 F700
X130.322 Y95 I-1.9 J0
X136.972 Y95 I3.325 J0
X127.472 Y95 I-4.75 J0
X136.972 Y95 I4.75 J0
G1 X136.966 Y95.049
X136.948 Y95.094
X136.92 Y95.134
X136.883 Y95.166
X136.84 Y95.188
X133.994 Y96.213
X133.949 Y96.224
X133.903
X133.858 Y96.213
X133.817 Y96.193
G3 X135.377 Y93.807 Z-6.656 I0.78 J-1.193 F333.3
X133.817 Y96.193 Z-6.813 I-0.78 J1.193
X135.377 Y93.807 Z-6.969 I0.78 J-1.193
X133.817 Y96.193 Z-7.125 I-0.78 J1.193
X135.377 Y93.807 Z-7.282 I0.78 J-1.193
X133.817 Y96.193 Z-7.438 I-0.78 J1.193
X135.377 Y93.807 Z-7.594 I0.78 J-1.193
X133.817 Y96.193 Z-7.751 I-0.78 J1.193
X133.172 Y95 Z-7.8 I0.78 J-1.193
X134.122 Y95 I0.475 J0 F700
X130.322 Y95 I-1.9 J0
X136.972 Y95 I3.325 J0
X127.472 Y95 I-4.75 J0
X136.972 Y95 I4.75 J0
G1 X136.966 Y95.049
X136.948 Y95.094
X136.92 Y95.134
X136.883 Y95.166
X136.84 Y95.188
X133.994 Y96.213
X133.949 Y96.224
X133.903
X133.858 Y96.213
X133.817 Y96.193
G3 X135.377 Y93.807 Z-7.956 I0.78 J-1.193 F333.3
X133.817 Y96.193 Z-8.113 I-0.78 J1.193
X135.377 Y93.807 Z-8.269 I0.78 J-1.193
X133.817 Y96.193 Z-8.425 I-0.78 J1.193
X135.377 Y93.807 Z-8.582 I0.78 J-1.193
X133.817 Y96.193 Z-8.738 I-0.78 J1.193
X135.377 Y93.807 Z-8.894 I0.78 J-1.193
X133.817 Y96.193 Z-9.051 I-0.78 J1.193
X133.172 Y95 Z-9.1 I0.78 J-1.193
X134.122 Y95 I0.475 J0 F700
X130.322 Y95 I-1.9 J0
X136.972 Y95 I3.325 J0
X127.472 Y95 I-4.75 J0
X136.972 Y95 I4.75 J0
G1 X136.966 Y95.049
X136.948 Y95.094
X136.92 Y95.134
X136.883 Y95.166
X136.84 Y95.188
X133.994 Y96.213
X133.949 Y96.224
X133.903
X133.858 Y96.213
X133.817 Y96.193
G3 X135.377 Y93.807 Z-9.256 I0.78 J-1.193 F333.3
X133.817 Y96.193 Z-9.413 I-0.78 J1.193
X135.377 Y93.807 Z-9.569 I0.78 J-1.193
X133.817 Y96.193 Z-9.725 I-0.78 J1.193
X135.377 Y93.807 Z-9.882 I0.78 J-1.193
X133.817 Y96.193 Z-10.038 I-0.78 J1.193
X135.377 Y93.807 Z-10.194 I0.78 J-1.193
X133.817 Y96.193 Z-10.351 I-0.78 J1.193
X133.172 Y95 Z-10.4 I0.78 J-1.193
X134.122 Y95 I0.475 J0 F700
X130.322 Y95 I-1.9 J0
X136.972 Y95 I3.325 J0
X127.472 Y95 I-4.75 J0
X136.972 Y95 I4.75 J0
G1 X136.966 Y95.049
X136.948 Y95.094
X136.92 Y95.134
X136.883 Y95.166
X136.84 Y95.188
X133.994 Y96.213
X133.949 Y96.224
X133.903
X133.858 Y96.213
X133.817 Y96.193
G3 X135.377 Y93.807 Z-10.556 I0.78 J-1.193 F333.3
X133.817 Y96.193 Z-10.713 I-0.78 J1.193
X135.377 Y93.807 Z-10.869 I0.78 J-1.193
X133.817 Y96.193 Z-11.025 I-0.78 J1.193
X135.377 Y93.807 Z-11.182 I0.78 J-1.193
X133.817 Y96.193 Z-11.338 I-0.78 J1.193
X135.377 Y93.807 Z-11.494 I0.78 J-1.193
X133.817 Y96.193 Z-11.651 I-0.78 J1.193
X133.172 Y95 Z-11.7 I0.78 J-1.193
X134.122 Y95 I0.475 J0 F700
X130.322 Y95 I-1.9 J0
X136.972 Y95 I3.325 J0
X127.472 Y95 I-4.75 J0
X136.972 Y95 I4.75 J0
G1 X136.966 Y95.049
X136.948 Y95.094
X136.92 Y95.134
X136.883 Y95.166
X136.84 Y95.188
X133.994 Y96.213
X133.949 Y96.224
X133.903
X133.858 Y96.213
X133.817 Y96.193
G3 X135.377 Y93.807 Z-11.856 I0.78 J-1.193 F333.3
X133.817 Y96.193 Z-12.013 I-0.78 J1.193
X135.377 Y93.807 Z-12.169 I0.78 J-1.193
X133.817 Y96.193 Z-12.325 I-0.78 J1.193
X135.377 Y93.807 Z-12.482 I0.78 J-1.193
X133.817 Y96.193 Z-12.638 I-0.78 J1.193
X135.377 Y93.807 Z-12.794 I0.78 J-1.193
X133.817 Y96.193 Z-12.951 I-0.78 J1.193
X133.172 Y95 Z-13 I0.78 J-1.193
X134.122 Y95 I0.475 J0 F700
X130.322 Y95 I-1.9 J0
X136.972 Y95 I3.325 J0
X127.472 Y95 I-4.75 J0
X136.972 Y95 I4.75 J0
G1 X136.966 Y95.049
X136.948 Y95.094
X136.92 Y95.134
X136.883 Y95.166
X136.84 Y95.188
X133.994 Y96.213
X133.949 Y96.224
X133.903
X133.858 Y96.213
X133.817 Y96.193
G3 X135.377 Y93.807 Z-13.156 I0.78 J-1.193 F333.3
X133.817 Y96.193 Z-13.313 I-0.78 J1.193
X135.377 Y93.807 Z-13.469 I0.78 J-1.193
X133.817 Y96.193 Z-13.625 I-0.78 J1.193
X135.377 Y93.807 Z-13.782 I0.78 J-1.193
X133.817 Y96.193 Z-13.938 I-0.78 J1.193
X135.377 Y93.807 Z-14.094 I0.78 J-1.193
X133.817 Y96.193 Z-14.251 I-0.78 J1.193
X133.172 Y95 Z-14.3 I0.78 J-1.193
X134.122 Y95 I0.475 J0 F700
X130.322 Y95 I-1.9 J0
X136.972 Y95 I3.325 J0
X127.472 Y95 I-4.75 J0
X136.972 Y95 I4.75 J0
G1 X136.965 Y95.053
X136.944 Y95.102
X136.91 Y95.144
X136.867 Y95.176
X134.606 Y96.398
X134.553 Y96.417
X134.497 Y96.421
G3 X134.697 Y93.579 Z-14.456 I0.1 J-1.421 F333.3
X134.497 Y96.421 Z-14.613 I-0.1 J1.421
X134.697 Y93.579 Z-14.769 I0.1 J-1.421
X134.497 Y96.421 Z-14.925 I-0.1 J1.421
X133.172 Y95 Z-15 I0.1 J-1.421
X134.122 Y95 I0.475 J0 F700
X130.322 Y95 I-1.9 J0
X136.972 Y95 I3.325 J0
X127.472 Y95 I-4.75 J0
X136.972 Y95 I4.75 J0
G0 Z7
X144.891 Y128.014
Z3
G1 Z1.8 F700
G3 X147.343 Y129.468 Z1.644 I1.226 J0.727 F333.3
X144.891 Y128.014 Z1.487 I-1.226 J-0.727
X147.343 Y129.468 Z1.331 I1.226 J0.727
X144.891 Y128.014 Z1.175 I-1.226 J-0.727
X147.343 Y129.468 Z1.018 I1.226 J0.727
X144.891 Y128.014 Z0.862 I-1.226 J-0.727
X147.343 Y129.468 Z0.706 I1.226 J0.727
X144.891 Y128.014 Z0.549 I-1.226 J-0.727
X147.343 Y129.468 Z0.393 I1.226 J0.727
X144.891 Y128.014 Z0.237 I-1.226 J-0.727
X147.343 Y129.468 Z0.08 I1.226 J0.727
X144.891 Y128.014 Z-0.076 I-1.226 J-0.727
X147.343 Y129.468 Z-0.232 I1.226 J0.727
X144.891 Y128.014 Z-0.389 I-1.226 J-0.727
X147.343 Y129.468 Z-0.545 I1.226 J0.727
X144.891 Y128.014 Z-0.701 I-1.226 J-0.727
X147.343 Y129.468 Z-0.858 I1.226 J0.727
X144.891 Y128.014 Z-1.014 I-1.226 J-0.727
X147.343 Y129.468 Z-1.17 I1.226 J0.727
X144.692 Y128.741 Z-1.3 I-1.226 J-0.727
X146.042 Y128.741 I0.675 J0 F700
X141.842 Y128.741 I-2.1 J0
X148.892 Y128.741 I3.525 J0
X138.992 Y128.741 I-4.95 J0
X151.742 Y128.741 I6.375 J0
X136.142 Y128.741 I-7.8 J0
X154.592 Y128.741 I9.225 J0
X133.292 Y128.741 I-10.65 J0
X157.442 Y128.741 I12.075 J0
X130.442 Y128.741 I-13.5 J0
X157.442 Y128.741 I13.5 J0
X155.883 Y129.827 I-1.158 J0
G1 X150.719 Y127.92
G2 X149.711 Y128.02 I-0.401 J1.086
G1 X146.578 Y129.95
G3 X145.337 Y129.934 I-0.607 J-0.986
X146.897 Y127.548 Z-1.456 I0.78 J-1.193 F333.3
X145.337 Y129.934 Z-1.613 I-0.78 J1.193
X146.897 Y127.548 Z-1.769 I0.78 J-1.193
X145.337 Y129.934 Z-1.925 I-0.78 J1.193
X146.897 Y127.548 Z-2.082 I0.78 J-1.193
X145.337 Y129.934 Z-2.238 I-0.78 J1.193
X146.897 Y127.548 Z-2.394 I0.78 J-1.193
X145.337 Y129.934 Z-2.551 I-0.78 J1.193
X144.692 Y128.741 Z-2.6 I0.78 J-1.193
X146.042 Y128.741 I0.675 J0 F700
X141.842 Y128.741 I-2.1 J0
X148.892 Y128.741 I3.525 J0
X138.992 Y128.741 I-4.95 J0
X151.742 Y128.741 I6.375 J0
X136.142 Y128.741 I-7.8 J0
X154.592 Y128.741 I9.225 J0
X133.292 Y128.741 I-10.65 J0
X157.442 Y128.741 I12.075 J0
X130.442 Y128.741 I-13.5 J0
X157.442 Y128.741 I13.5 J0
X155.883 Y129.827 I-1.158 J0
G1 X150.719 Y127.92
G2 X149.711 Y128.02 I-0.401 J1.086
G1 X146.578 Y129.95
G3 X145.337 Y129.934 I-0.607 J-0.986
X146.897 Y127.548 Z-2.756 I0.78 J-1.193 F333.3
X145.337 Y129.934 Z-2.913 I-0.78 J1.193
X146.897 Y127.548 Z-3.069 I0.78 J-1.193
X145.337 Y129.934 Z-3.225 I-0.78 J1.193
X146.897 Y127.548 Z-3.382 I0.78 J-1.193
X145.337 Y129.934 Z-3.538 I-0.78 J1.193
X146.897 Y127.548 Z-3.694 I0.78 J-1.193
X145.337 Y129.934 Z-3.851 I-0.78 J1.193
X144.692 Y128.741 Z-3.9 I0.78 J-1.193
X146.042 Y128.741 I0.675 J0 F700
X141.842 Y128.741 I-2.1 J0
X148.892 Y128.741 I3.525 J0
X138.992 Y128.741 I-4.95 J0
X151.742 Y128.741 I6.375 J0
X136.142 Y128.741 I-7.8 J0
X154.592 Y128.741 I9.225 J0
X133.292 Y128.741 I-10.65 J0
X157.442 Y128.741 I12.075 J0
X130.442 Y128.741 I-13.5 J0
X157.442 Y128.741 I13.5 J0
X155.883 Y129.827 I-1.158 J0
G1 X150.719 Y127.92
G2 X149.711 Y128.02 I-0.401 J1.086
G1 X146.578 Y129.95
G3 X145.337 Y129.934 I-0.607 J-0.986
X146.897 Y127.548 Z-4.056 I0.78 J-1.193 F333.3
X145.337 Y129.934 Z-4.213 I-0.78 J1.193
X146.897 Y127.548 Z-4.369 I0.78 J-1.193
X145.337 Y129.934 Z-4.525 I-0.78 J1.193
X146.897 Y127.548 Z-4.682 I0.78 J-1.193
X145.337 Y129.934 Z-4.838 I-0.78 J1.193
X146.897 Y127.548 Z-4.994 I0.78 J-1.193
X145.337 Y129.934 Z-5.151 I-0.78 J1.193
X144.692 Y128.741 Z-5.2 I0.78 J-1.193
X146.042 Y128.741 I0.675 J0 F700
X141.842 Y128.741 I-2.1 J0
X148.892 Y128.741 I3.525 J0
X138.992 Y128.741 I-4.95 J0
X151.742 Y128.741 I6.375 J0
X136.142 Y128.741 I-7.8 J0
X154.592 Y128.741 I9.225 J0
X133.292 Y128.741 I-10.65 J0
X157.442 Y128.741 I12.075 J0
X130.442 Y128.741 I-13.5 J0
X157.442 Y128.741 I13.5 J0
X155.883 Y129.827 I-1.158 J0
G1 X150.719 Y127.92
G2 X149.711 Y128.02 I-0.401 J1.086
G1 X146.578 Y129.95
G3 X145.337 Y129.934 I-0.607 J-0.986
X146.897 Y127.548 Z-5.356 I0.78 J-1.193 F333.3
X145.337 Y129.934 Z-5.513 I-0.78 J1.193
X146.897 Y127.548 Z-5.669 I0.78 J-1.193
X145.337 Y129.934 Z-5.825 I-0.78 J1.193
X146.897 Y127.548 Z-5.982 I0.78 J-1.193
X145.337 Y129.934 Z-6.138 I-0.78 J1.193
X146.897 Y127.548 Z-6.294 I0.78 J-1.193
X145.337 Y129.934 Z-6.451 I-0.78 J1.193
X144.692 Y128.741 Z-6.5 I0.78 J-1.193
X146.042 Y128.741 I0.675 J0 F700
X141.842 Y128.741 I-2.1 J0
X148.892 Y128.741 I3.525 J0
X138.992 Y128.741 I-4.95 J0
X151.742 Y128.741 I6.375 J0
X136.142 Y128.741 I-7.8 J0
X154.592 Y128.741 I9.225 J0
X133.292 Y128.741 I-10.65 J0
X157.442 Y128.741 I12.075 J0
X130.442 Y128.741 I-13.5 J0
X157.442 Y128.741 I13.5 J0
X155.883 Y129.827 I-1.158 J0
G1 X150.719 Y127.92
G2 X149.711 Y128.02 I-0.401 J1.086
G1 X146.578 Y129.95
G3 X145.337 Y129.934 I-0.607 J-0.986
X146.897 Y127.548 Z-6.656 I0.78 J-1.193 F333.3
X145.337 Y129.934 Z-6.813 I-0.78 J1.193
X146.897 Y127.548 Z-6.969 I0.78 J-1.193
X145.337 Y129.934 Z-7.125 I-0.78 J1.193
X146.897 Y127.548 Z-7.282 I0.78 J-1.193
X145.337 Y129.934 Z-7.438 I-0.78 J1.193
X146.897 Y127.548 Z-7.594 I0.78 J-1.193
X145.337 Y129.934 Z-7.751 I-0.78 J1.193
X144.692 Y128.741 Z-7.8 I0.78 J-1.193
X146.042 Y128.741 I0.675 J0 F700
X141.842 Y128.741 I-2.1 J0
X148.892 Y128.741 I3.525 J0
X138.992 Y128.741 I-4.95 J0
X151.742 Y128.741 I6.375 J0
X136.142 Y128.741 I-7.8 J0
X154.592 Y128.741 I9.225 J0
X133.292 Y128.741 I-10.65 J0
X157.442 Y128.741 I12.075 J0
X130.442 Y128.741 I-13.5 J0
X157.442 Y128.741 I13.5 J0
X155.883 Y129.827 I-1.158 J0
G1 X150.719 Y127.92
G2 X149.711 Y128.02 I-0.401 J1.086
G1 X146.578 Y129.95
G3 X145.337 Y129.934 I-0.607 J-0.986
X146.897 Y127.548 Z-7.956 I0.78 J-1.193 F333.3
X145.337 Y129.934 Z-8.113 I-0.78 J1.193
X146.897 Y127.548 Z-8.269 I0.78 J-1.193
X145.337 Y129.934 Z-8.425 I-0.78 J1.193
X146.897 Y127.548 Z-8.582 I0.78 J-1.193
X145.337 Y129.934 Z-8.738 I-0.78 J1.193
X146.897 Y127.548 Z-8.894 I0.78 J-1.193
X145.337 Y129.934 Z-9.051 I-0.78 J1.193
X144.692 Y128.741 Z-9.1 I0.78 J-1.193
X146.042 Y128.741 I0.675 J0 F700
X141.842 Y128.741 I-2.1 J0
X148.892 Y128.741 I3.525 J0
X138.992 Y128.741 I-4.95 J0
X151.742 Y128.741 I6.375 J0
X136.142 Y128.741 I-7.8 J0
X154.592 Y128.741 I9.225 J0
X133.292 Y128.741 I-10.65 J0
X157.442 Y128.741 I12.075 J0
X130.442 Y128.741 I-13.5 J0
X157.442 Y128.741 I13.5 J0
X155.883 Y129.827 I-1.158 J0
G1 X150.719 Y127.92
G2 X149.711 Y128.02 I-0.401 J1.086
G1 X146.578 Y129.95
G3 X145.337 Y129.934 I-0.607 J-0.986
X146.897 Y127.548 Z-9.256 I0.78 J-1.193 F333.3
X145.337 Y129.934 Z-9.413 I-0.78 J1.193
X146.897 Y127.548 Z-9.569 I0.78 J-1.193
X145.337 Y129.934 Z-9.725 I-0.78 J1.193
X146.897 Y127.548 Z-9.882 I0.78 J-1.193
X145.337 Y129.934 Z-10.038 I-0.78 J1.193
X146.897 Y127.548 Z-10.194 I0.78 J-1.193
X145.337 Y129.934 Z-10.351 I-0.78 J1.193
X144.692 Y128.741 Z-10.4 I0.78 J-1.193
X146.042 Y128.741 I0.675 J0 F700
X141.842 Y128.741 I-2.1 J0
X148.892 Y128.741 I3.525 J0
X138.992 Y128.741 I-4.95 J0
X151.742 Y128.741 I6.375 J0
X136.142 Y128.741 I-7.8 J0
X154.592 Y128.741 I9.225 J0
X133.292 Y128.741 I-10.65 J0
X157.442 Y128.741 I12.075 J0
X130.442 Y128.741 I-13.5 J0
X157.442 Y128.741 I13.5 J0
X155.822 Y130.195 I-1.462 J0
G1 X148.077 Y129.359
G2 X147.734 Y129.362 I-0.157 J1.454
G3 X147.361 Y126.461 I-0.186 J-1.451
X148.277 Y129.179 I0.186 J1.451
G1 X146.811 Y130.022
G3 X145.353 Y127.487 I-0.729 J-1.268
X147.446 Y128.228 I0.729 J1.268
X144.788 Y129.254 Z-10.556 I-1.329 J0.513 F333.3
X147.446 Y128.228 Z-10.713 I1.329 J-0.513
X144.788 Y129.254 Z-10.869 I-1.329 J0.513
X147.446 Y128.228 Z-11.025 I1.329 J-0.513
X144.788 Y129.254 Z-11.182 I-1.329 J0.513
X144.692 Y128.741 Z-11.2 I1.329 J-0.513
X146.042 Y128.741 I0.675 J0 F700
X141.842 Y128.741 I-2.1 J0
X148.892 Y128.741 I3.525 J0
X138.992 Y128.741 I-4.95 J0
X151.742 Y128.741 I6.375 J0
X136.142 Y128.741 I-7.8 J0
X154.592 Y128.741 I9.225 J0
X133.292 Y128.741 I-10.65 J0
X157.442 Y128.741 I12.075 J0
X130.442 Y128.741 I-13.5 J0
X157.442 Y128.741 I13.5 J0
X155.822 Y130.195 I-1.462 J0
G1 X148.077 Y129.359
G2 X147.734 Y129.362 I-0.157 J1.454
G3 X147.361 Y126.461 I-0.186 J-1.451
X148.277 Y129.179 I0.186 J1.451
G1 X146.811 Y130.022
G3 X145.353 Y127.487 I-0.729 J-1.268
X147.446 Y128.228 I0.729 J1.268
X144.788 Y129.254 Z-11.356 I-1.329 J0.513 F333.3
X147.446 Y128.228 Z-11.513 I1.329 J-0.513
X144.788 Y129.254 Z-11.669 I-1.329 J0.513
X147.446 Y128.228 Z-11.825 I1.329 J-0.513
X144.788 Y129.254 Z-11.982 I-1.329 J0.513
X144.692 Y128.741 Z-12 I1.329 J-0.513
X146.042 Y128.741 I0.675 J0 F700
X141.842 Y128.741 I-2.1 J0
X148.892 Y128.741 I3.525 J0
X138.992 Y128.741 I-4.95 J0
X151.742 Y128.741 I6.375 J0
X136.142 Y128.741 I-7.8 J0
X154.592 Y128.741 I9.225 J0
X133.292 Y128.741 I-10.65 J0
X157.442 Y128.741 I12.075 J0
