(1001)
(Machine)
(  vendor: Autodesk)
(  description: Generic 3-axis)
(T4  D=3 CR=0 - ZMIN=-16 - flat end mill)
G90 G94
G17
G21

(2D Pocket2)
T4
S15000 M3
G54
M8
G0 X255.148 Y10.978
Z6
Z2
G1 Z1.8 F700
Z-0.8
X255.159
X301.388
G3 X301.588 Y11.178 I0 J0.2
G1 X301.591 Y12.059
G3 X301.391 Y12.26 I-0.2 J0.001
G1 X255.162
G3 X254.962 Y12.06 I0 J-0.2
G1 X254.961 Y9.868
G3 X255.161 Y9.667 I0.2 J0
G1 X301.389
G3 X301.589 Y9.867 I0 J0.2
G1 Y13.371
G3 X301.389 Y13.571 I-0.2 J0
G1 X255.161
G3 X254.961 Y13.371 I0 J-0.2
G1 X254.954 Y7.471
G3 X255.154 Y7.271 I0.2 J0
G1 X301.399
G3 X301.599 Y7.471 I0 J0.2
G1 X301.596 Y15.768
G3 X301.396 Y15.968 I-0.2 J0
G1 X255.151
G3 X254.951 Y15.767 I0 J-0.2
G1 X254.959 Y5.069
G3 X255.159 Y4.869 I0.2 J0
G1 X301.397
G3 X301.597 Y5.069 I0 J0.2
G1 X301.591 Y18.169
G3 X301.391 Y18.369 I-0.2 J0
G1 X255.153
G3 X254.953 Y18.169 I0 J-0.2
G1 X254.948 Y11.179
G3 X255.148 Y10.978 I0.2 J0
G1 Z-1.6
X255.159
X301.388
G3 X301.588 Y11.178 I0 J0.2
G1 X301.591 Y12.059
G3 X301.391 Y12.26 I-0.2 J0.001
G1 X255.162
G3 X254.962 Y12.06 I0 J-0.2
G1 X254.961 Y9.868
G3 X255.161 Y9.667 I0.2 J0
G1 X301.389
G3 X301.589 Y9.867 I0 J0.2
G1 Y13.371
G3 X301.389 Y13.571 I-0.2 J0
G1 X255.161
G3 X254.961 Y13.371 I0 J-0.2
G1 X254.954 Y7.471
G3 X255.154 Y7.271 I0.2 J0
G1 X301.399
G3 X301.599 Y7.471 I0 J0.2
G1 X301.596 Y15.768
G3 X301.396 Y15.968 I-0.2 J0
G1 X255.151
G3 X254.951 Y15.767 I0 J-0.2
G1 X254.959 Y5.069
G3 X255.159 Y4.869 I0.2 J0
G1 X301.397
G3 X301.597 Y5.069 I0 J0.2
G1 X301.591 Y18.169
G3 X301.391 Y18.369 I-0.2 J0
G1 X255.153
G3 X254.953 Y18.169 I0 J-0.2
G1 X254.948 Y11.179
G3 X255.148 Y10.978 I0.2 J0
G1 Z-2.4
X255.159
X301.388
G3 X301.588 Y11.178 I0 J0.2
G1 X301.591 Y12.059
G3 X301.391 Y12.26 I-0.2 J0.001
G1 X255.162
G3 X254.962 Y12.06 I0 J-0.2
G1 X254.961 Y9.868
G3 X255.161 Y9.667 I0.2 J0
G1 X301.389
G3 X301.589 Y9.867 I0 J0.2
G1 Y13.371
G3 X301.389 Y13.571 I-0.2 J0
G1 X255.161
G3 X254.961 Y13.371 I0 J-0.2
G1 X254.954 Y7.471
G3 X255.154 Y7.271 I0.2 J0
G1 X301.399
G3 X301.599 Y7.471 I0 J0.2
G1 X301.596 Y15.768
G3 X301.396 Y15.968 I-0.2 J0
G1 X255.151
G3 X254.951 Y15.767 I0 J-0.2
G1 X254.959 Y5.069
G3 X255.159 Y4.869 I0.2 J0
G1 X301.397
G3 X301.597 Y5.069 I0 J0.2
G1 X301.591 Y18.169
G3 X301.391 Y18.369 I-0.2 J0
G1 X255.153
G3 X254.953 Y18.169 I0 J-0.2
G1 X254.948 Y11.179
G3 X255.148 Y10.978 I0.2 J0
G1 Z-3
X255.159
X301.388
G3 X301.588 Y11.178 I0 J0.2
G1 X301.591 Y12.059
G3 X301.391 Y12.26 I-0.2 J0.001
G1 X255.162
G3 X254.962 Y12.06 I0 J-0.2
G1 X254.961 Y9.868
G3 X255.161 Y9.667 I0.2 J0
G1 X301.389
G3 X301.589 Y9.867 I0 J0.2
G1 Y13.371
G3 X301.389 Y13.571 I-0.2 J0
G1 X255.161
G3 X254.961 Y13.371 I0 J-0.2
G1 X254.954 Y7.471
G3 X255.154 Y7.271 I0.2 J0
G1 X301.399
G3 X301.599 Y7.471 I0 J0.2
G1 X301.596 Y15.768
G3 X301.396 Y15.968 I-0.2 J0
G1 X255.151
G3 X254.951 Y15.767 I0 J-0.2
G1 X254.959 Y5.069
G3 X255.159 Y4.869 I0.2 J0
G1 X301.397
G3 X301.597 Y5.069 I0 J0.2
G1 X301.591 Y18.169
G3 X301.391 Y18.369 I-0.2 J0
G1 X255.153
G0 Z6
X255.05 Y12.25
Z2
G1 Z1.8 F700
Y18.369 Z1.586 F333.3
X254.95 Z1.583
Y4.869 Z1.111
X255.05 Z1.108
Y18.369 Z0.636
X254.95 Z0.633
Y4.869 Z0.162
X255.05 Z0.158
Y18.369 Z-0.313
X254.95 Z-0.317
Y4.869 Z-0.788
X255.05 Z-0.792
Y5.104 Z-0.8
Y18.369 F700
X254.95
Y4.869
X255.05
Y5.104
Y18.369 Z-1.263 F333.3
X254.95 Z-1.267
Y8.825 Z-1.6
Y4.869 F700
X255.05
Y18.369
X254.95
Y8.825
Y4.869 Z-1.738 F333.3
X255.05 Z-1.742
Y18.369 Z-2.213
X254.95 Z-2.217
Y13.116 Z-2.4
Y8.825 F700
Y4.869
X255.05
Y18.369
X254.95
Y13.116
Y4.869 Z-2.688 F333.3
X255.05 Z-2.691
Y18.369 Z-3.163
X254.95 Z-3.166
Y17.407 Z-3.2
Y4.869 F700
X255.05
Y18.369
X254.95
Y17.407
Y4.869 Z-3.638 F333.3
X255.05 Z-3.641
Y15.14 Z-4
Y18.369 F700
X254.95
Y4.869
X255.05
Y15.14
Y18.369 Z-4.113 F333.3
X254.95 Z-4.116
Y4.869 Z-4.588
X255.05 Z-4.591
Y10.849 Z-4.8
Y15.14 F700
Y18.369
X254.95
Y4.869
X255.05
Y10.849
Y18.369 Z-5.063 F333.3
X254.95 Z-5.066
Y4.869 Z-5.538
X255.05 Z-5.541
Y6.558 Z-5.6
Y18.369 F700
X254.95
Y4.869
X255.05
Y6.558
Y18.369 Z-6.012 F333.3
X254.95 Z-6.016
Y7.372 Z-6.4
Y4.869 F700
X255.05
Y18.369
X254.95
Y7.372
Y4.869 Z-6.487 F333.3
X255.05 Z-6.491
Y18.369 Z-6.962
X254.95 Z-6.966
Y11.663 Z-7.2
Y7.372 F700
Y4.869
X255.05
Y18.369
X254.95
Y11.663
Y4.869 Z-7.437 F333.3
X255.05 Z-7.441
Y18.369 Z-7.912
X254.95 Z-7.916
Y15.954 Z-8
Y4.869 F700
X255.05
Y18.369
X254.95
Y15.954
Y4.869 Z-8.387 F333.3
X255.05 Z-8.391
Y16.594 Z-8.8
Y18.369 F700
X254.95
Y4.869
X255.05
Y16.594
Y18.369 Z-8.862 F333.3
X254.95 Z-8.865
Y4.869 Z-9.337
X255.05 Z-9.34
Y12.302 Z-9.6
Y16.594 F700
Y18.369
X254.95
Y4.869
X255.05
Y12.302
Y18.369 Z-9.812 F333.3
X254.95 Z-9.815
Y4.869 Z-10.287
X255.05 Z-10.29
Y8.011 Z-10.4
Y18.369 F700
X254.95
Y4.869
X255.05
Y8.011
Y18.369 Z-10.762 F333.3
X254.95 Z-10.765
Y5.918 Z-11.2
Y4.869 F700
X255.05
Y18.369
X254.95
Y5.918
Y4.869 Z-11.237 F333.3
X255.05 Z-11.24
Y18.369 Z-11.712
X254.95 Z-11.715
Y10.209 Z-12
Y5.918 F700
Y4.869
X255.05
Y18.369
X254.95
Y10.209
Y4.869 Z-12.186 F333.3
X255.05 Z-12.19
Y18.369 Z-12.661
X254.95 Z-12.665
Y14.5 Z-12.8
Y4.869 F700
X255.05
Y18.369
X254.95
Y14.5
Y4.869 Z-13.136 F333.3
X255.05 Z-13.14
Y18.047 Z-13.6
Y18.369 F700
X254.95
Y4.869
X255.05
Y18.047
Y18.369 Z-13.611 F333.3
X254.95 Z-13.615
Y4.869 Z-14.086
X255.05 Z-14.09
Y13.756 Z-14.4
Y18.047 F700
Y18.369
X254.95
Y4.869
X255.05
Y13.756
Y18.369 Z-14.561 F333.3
X254.95 Z-14.565
Y4.869 Z-15.036
X255.05 Z-15.04
Y9.465 Z-15.2
Y18.369 F700
X254.95
Y4.869
X255.05
Y9.465
Y18.369 Z-15.511 F333.3
X254.95 Z-15.514
Y4.869 Z-15.986
X255.05 Z-15.989
Y5.174 Z-16
Y18.369 F700
X254.95
Y4.869
X255.05
Y5.174
G0 Z6
X255.162 Y24.37
Z2
G1 Z1.8 F700
Z-0.8
X255.185 Y24.369
X300
X301.397
G3 X301.597 Y24.579 I0 J0.2
G1 X301.592 Y24.679
G3 X301.392 Y24.869 I-0.2 J-0.01
G1 X255.184
G3 X254.985 Y24.683 I0 J-0.2
G1 X254.978 Y24.583
G3 X255.162 Y24.37 I0.2 J-0.013
G1 Z-1.6
X255.185 Y24.369
X300
X301.397
G3 X301.597 Y24.579 I0 J0.2
G1 X301.592 Y24.679
G3 X301.392 Y24.869 I-0.2 J-0.01
G1 X255.184
G3 X254.985 Y24.683 I0 J-0.2
G1 X254.978 Y24.583
G3 X255.162 Y24.37 I0.2 J-0.013
G1 Z-2.4
X255.185 Y24.369
X300
X301.397
G3 X301.597 Y24.579 I0 J0.2
G1 X301.592 Y24.679
G3 X301.392 Y24.869 I-0.2 J-0.01
G1 X255.184
G3 X254.985 Y24.683 I0 J-0.2
G1 X254.978 Y24.583
G3 X255.162 Y24.37 I0.2 J-0.013
G1 Z-3.2
X255.185 Y24.369
X300
X301.397
G3 X301.597 Y24.579 I0 J0.2
G1 X301.592 Y24.679
G3 X301.392 Y24.869 I-0.2 J-0.01
G1 X255.184
G3 X254.985 Y24.683 I0 J-0.2
G1 X254.978 Y24.583
G3 X255.162 Y24.37 I0.2 J-0.013
G1 Z-3.5
X255.185 Y24.369
X300
X301.397
G3 X301.597 Y24.579 I0 J0.2
G1 X301.592 Y24.679
G3 X301.392 Y24.869 I-0.2 J-0.01
G1 X255.184
G0 Z6
X254.85 Y24.419
Z2
G1 Z1.8 F700
Z-0.8 F333.3
G3 X255.15 Y24.819 I0.15 J0.2 F700
X254.85 Y24.419 I-0.15 J-0.2
X255.15 Y24.819 Z-0.827 I0.15 J0.2 F333.3
X254.85 Y24.419 Z-0.855 I-0.15 J-0.2
X255.15 Y24.819 Z-0.882 I0.15 J0.2
X254.85 Y24.419 Z-0.91 I-0.15 J-0.2
X255.15 Y24.819 Z-0.937 I0.15 J0.2
X254.85 Y24.419 Z-0.965 I-0.15 J-0.2
X255.15 Y24.819 Z-0.992 I0.15 J0.2
X254.85 Y24.419 Z-1.019 I-0.15 J-0.2
X255.15 Y24.819 Z-1.047 I0.15 J0.2
X254.85 Y24.419 Z-1.074 I-0.15 J-0.2
X255.15 Y24.819 Z-1.102 I0.15 J0.2
X254.85 Y24.419 Z-1.129 I-0.15 J-0.2
X255.15 Y24.819 Z-1.157 I0.15 J0.2
X254.85 Y24.419 Z-1.184 I-0.15 J-0.2
X255.15 Y24.819 Z-1.211 I0.15 J0.2
X254.85 Y24.419 Z-1.239 I-0.15 J-0.2
X255.15 Y24.819 Z-1.266 I0.15 J0.2
X254.85 Y24.419 Z-1.294 I-0.15 J-0.2
X255.15 Y24.819 Z-1.321 I0.15 J0.2
X254.85 Y24.419 Z-1.349 I-0.15 J-0.2
X255.15 Y24.819 Z-1.376 I0.15 J0.2
X254.85 Y24.419 Z-1.403 I-0.15 J-0.2
X255.15 Y24.819 Z-1.431 I0.15 J0.2
X254.85 Y24.419 Z-1.458 I-0.15 J-0.2
X255.15 Y24.819 Z-1.486 I0.15 J0.2
X254.85 Y24.419 Z-1.513 I-0.15 J-0.2
X255.15 Y24.819 Z-1.541 I0.15 J0.2
X254.85 Y24.419 Z-1.568 I-0.15 J-0.2
X255.15 Y24.819 Z-1.595 I0.15 J0.2
X255.028 Y24.868 Z-1.6 I-0.15 J-0.2
X254.972 Y24.371 I-0.028 J-0.248 F700
X255.028 Y24.868 I0.028 J0.248
X254.972 Y24.371 Z-1.627 I-0.028 J-0.248 F333.3
X255.028 Y24.868 Z-1.655 I0.028 J0.248
X254.972 Y24.371 Z-1.682 I-0.028 J-0.248
X255.028 Y24.868 Z-1.71 I0.028 J0.248
X254.972 Y24.371 Z-1.737 I-0.028 J-0.248
X255.028 Y24.868 Z-1.765 I0.028 J0.248
X254.972 Y24.371 Z-1.792 I-0.028 J-0.248
X255.028 Y24.868 Z-1.819 I0.028 J0.248
X254.972 Y24.371 Z-1.847 I-0.028 J-0.248
X255.028 Y24.868 Z-1.874 I0.028 J0.248
X254.972 Y24.371 Z-1.902 I-0.028 J-0.248
X255.028 Y24.868 Z-1.929 I0.028 J0.248
X254.972 Y24.371 Z-1.957 I-0.028 J-0.248
X255.028 Y24.868 Z-1.984 I0.028 J0.248
X254.972 Y24.371 Z-2.011 I-0.028 J-0.248
X255.028 Y24.868 Z-2.039 I0.028 J0.248
X254.972 Y24.371 Z-2.066 I-0.028 J-0.248
X255.028 Y24.868 Z-2.094 I0.028 J0.248
X254.972 Y24.371 Z-2.121 I-0.028 J-0.248
X255.028 Y24.868 Z-2.149 I0.028 J0.248
X254.972 Y24.371 Z-2.176 I-0.028 J-0.248
X255.028 Y24.868 Z-2.203 I0.028 J0.248
X254.972 Y24.371 Z-2.231 I-0.028 J-0.248
X255.028 Y24.868 Z-2.258 I0.028 J0.248
X254.972 Y24.371 Z-2.286 I-0.028 J-0.248
X255.028 Y24.868 Z-2.313 I0.028 J0.248
X254.972 Y24.371 Z-2.341 I-0.028 J-0.248
X255.028 Y24.868 Z-2.368 I0.028 J0.248
X254.972 Y24.371 Z-2.395 I-0.028 J-0.248
X255.101 Y24.391 Z-2.4 I0.028 J0.248
X254.899 Y24.848 I-0.101 J0.229 F700
X255.101 Y24.391 I0.101 J-0.229
X254.899 Y24.848 Z-2.427 I-0.101 J0.229 F333.3
X255.101 Y24.391 Z-2.455 I0.101 J-0.229
X254.899 Y24.848 Z-2.482 I-0.101 J0.229
X255.101 Y24.391 Z-2.51 I0.101 J-0.229
X254.899 Y24.848 Z-2.537 I-0.101 J0.229
X255.101 Y24.391 Z-2.565 I0.101 J-0.229
X254.899 Y24.848 Z-2.592 I-0.101 J0.229
X255.101 Y24.391 Z-2.619 I0.101 J-0.229
X254.899 Y24.848 Z-2.647 I-0.101 J0.229
X255.101 Y24.391 Z-2.674 I0.101 J-0.229
X254.899 Y24.848 Z-2.702 I-0.101 J0.229
X255.101 Y24.391 Z-2.729 I0.101 J-0.229
X254.899 Y24.848 Z-2.757 I-0.101 J0.229
X255.101 Y24.391 Z-2.784 I0.101 J-0.229
X254.899 Y24.848 Z-2.811 I-0.101 J0.229
X255.101 Y24.391 Z-2.839 I0.101 J-0.229
X254.899 Y24.848 Z-2.866 I-0.101 J0.229
X255.101 Y24.391 Z-2.894 I0.101 J-0.229
X254.899 Y24.848 Z-2.921 I-0.101 J0.229
X255.101 Y24.391 Z-2.949 I0.101 J-0.229
X254.899 Y24.848 Z-2.976 I-0.101 J0.229
X255.101 Y24.391 Z-3.003 I0.101 J-0.229
X254.899 Y24.848 Z-3.031 I-0.101 J0.229
X255.101 Y24.391 Z-3.058 I0.101 J-0.229
X254.899 Y24.848 Z-3.086 I-0.101 J0.229
X255.101 Y24.391 Z-3.113 I0.101 J-0.229
X254.899 Y24.848 Z-3.141 I-0.101 J0.229
X255.101 Y24.391 Z-3.168 I0.101 J-0.229
X254.899 Y24.848 Z-3.195 I-0.101 J0.229
X254.797 Y24.765 Z-3.2 I0.101 J-0.229
X255.203 Y24.473 I0.203 J-0.146 F700
X254.797 Y24.765 I-0.203 J0.146
X255.203 Y24.473 Z-3.227 I0.203 J-0.146 F333.3
X254.797 Y24.765 Z-3.255 I-0.203 J0.146
X255.203 Y24.473 Z-3.282 I0.203 J-0.146
X254.797 Y24.765 Z-3.31 I-0.203 J0.146
X255.203 Y24.473 Z-3.337 I0.203 J-0.146
X254.797 Y24.765 Z-3.365 I-0.203 J0.146
X255.203 Y24.473 Z-3.392 I0.203 J-0.146
X254.797 Y24.765 Z-3.419 I-0.203 J0.146
X255.203 Y24.473 Z-3.447 I0.203 J-0.146
X254.797 Y24.765 Z-3.474 I-0.203 J0.146
X255.203 Y24.473 Z-3.502 I0.203 J-0.146
X254.797 Y24.765 Z-3.529 I-0.203 J0.146
X255.203 Y24.473 Z-3.557 I0.203 J-0.146
X254.797 Y24.765 Z-3.584 I-0.203 J0.146
X255.203 Y24.473 Z-3.611 I0.203 J-0.146
X254.797 Y24.765 Z-3.639 I-0.203 J0.146
X255.203 Y24.473 Z-3.666 I0.203 J-0.146
X254.797 Y24.765 Z-3.694 I-0.203 J0.146
X255.203 Y24.473 Z-3.721 I0.203 J-0.146
X254.797 Y24.765 Z-3.749 I-0.203 J0.146
X255.203 Y24.473 Z-3.776 I0.203 J-0.146
X254.797 Y24.765 Z-3.803 I-0.203 J0.146
X255.203 Y24.473 Z-3.831 I0.203 J-0.146
X254.797 Y24.765 Z-3.858 I-0.203 J0.146
X255.203 Y24.473 Z-3.886 I0.203 J-0.146
X254.797 Y24.765 Z-3.913 I-0.203 J0.146
X255.203 Y24.473 Z-3.941 I0.203 J-0.146
X254.797 Y24.765 Z-3.968 I-0.203 J0.146
X255.203 Y24.473 Z-3.995 I0.203 J-0.146
X255.249 Y24.595 Z-4 I-0.203 J0.146
X254.751 Y24.643 I-0.249 J0.024 F700
X255.249 Y24.595 I0.249 J-0.024
X254.751 Y24.643 Z-4.027 I-0.249 J0.024 F333.3
X255.249 Y24.595 Z-4.055 I0.249 J-0.024
X254.751 Y24.643 Z-4.082 I-0.249 J0.024
X255.249 Y24.595 Z-4.11 I0.249 J-0.024
X254.751 Y24.643 Z-4.137 I-0.249 J0.024
X255.249 Y24.595 Z-4.165 I0.249 J-0.024
X254.751 Y24.643 Z-4.192 I-0.249 J0.024
X255.249 Y24.595 Z-4.219 I0.249 J-0.024
X254.751 Y24.643 Z-4.247 I-0.249 J0.024
X255.249 Y24.595 Z-4.274 I0.249 J-0.024
X254.751 Y24.643 Z-4.302 I-0.249 J0.024
X255.249 Y24.595 Z-4.329 I0.249 J-0.024
X254.751 Y24.643 Z-4.357 I-0.249 J0.024
X255.249 Y24.595 Z-4.384 I0.249 J-0.024
X254.751 Y24.643 Z-4.411 I-0.249 J0.024
X255.249 Y24.595 Z-4.439 I0.249 J-0.024
X254.751 Y24.643 Z-4.466 I-0.249 J0.024
X255.249 Y24.595 Z-4.494 I0.249 J-0.024
X254.751 Y24.643 Z-4.521 I-0.249 J0.024
X255.249 Y24.595 Z-4.549 I0.249 J-0.024
X254.751 Y24.643 Z-4.576 I-0.249 J0.024
X255.249 Y24.595 Z-4.603 I0.249 J-0.024
X254.751 Y24.643 Z-4.631 I-0.249 J0.024
X255.249 Y24.595 Z-4.658 I0.249 J-0.024
X254.751 Y24.643 Z-4.686 I-0.249 J0.024
X255.249 Y24.595 Z-4.713 I0.249 J-0.024
X254.751 Y24.643 Z-4.741 I-0.249 J0.024
X255.249 Y24.595 Z-4.768 I0.249 J-0.024
X254.751 Y24.643 Z-4.795 I-0.249 J0.024
X254.773 Y24.514 Z-4.8 I0.249 J-0.024
X255.227 Y24.725 I0.227 J0.105 F700
X254.773 Y24.514 I-0.227 J-0.105
X255.227 Y24.725 Z-4.827 I0.227 J0.105 F333.3
X254.773 Y24.514 Z-4.855 I-0.227 J-0.105
X255.227 Y24.725 Z-4.882 I0.227 J0.105
X254.773 Y24.514 Z-4.91 I-0.227 J-0.105
X255.227 Y24.725 Z-4.937 I0.227 J0.105
X254.773 Y24.514 Z-4.965 I-0.227 J-0.105
X255.227 Y24.725 Z-4.992 I0.227 J0.105
X254.773 Y24.514 Z-5.019 I-0.227 J-0.105
X255.227 Y24.725 Z-5.047 I0.227 J0.105
X254.773 Y24.514 Z-5.074 I-0.227 J-0.105
X255.227 Y24.725 Z-5.102 I0.227 J0.105
X254.773 Y24.514 Z-5.129 I-0.227 J-0.105
X255.227 Y24.725 Z-5.157 I0.227 J0.105
X254.773 Y24.514 Z-5.184 I-0.227 J-0.105
X255.227 Y24.725 Z-5.211 I0.227 J0.105
X254.773 Y24.514 Z-5.239 I-0.227 J-0.105
X255.227 Y24.725 Z-5.266 I0.227 J0.105
X254.773 Y24.514 Z-5.294 I-0.227 J-0.105
X255.227 Y24.725 Z-5.321 I0.227 J0.105
X254.773 Y24.514 Z-5.349 I-0.227 J-0.105
X255.227 Y24.725 Z-5.376 I0.227 J0.105
X254.773 Y24.514 Z-5.403 I-0.227 J-0.105
X255.227 Y24.725 Z-5.431 I0.227 J0.105
X254.773 Y24.514 Z-5.458 I-0.227 J-0.105
X255.227 Y24.725 Z-5.486 I0.227 J0.105
X254.773 Y24.514 Z-5.513 I-0.227 J-0.105
X255.227 Y24.725 Z-5.541 I0.227 J0.105
X254.773 Y24.514 Z-5.568 I-0.227 J-0.105
X255.227 Y24.725 Z-5.595 I0.227 J0.105
X255.142 Y24.825 Z-5.6 I-0.227 J-0.105
X254.858 Y24.414 I-0.142 J-0.205 F700
X255.142 Y24.825 I0.142 J0.205
X254.858 Y24.414 Z-5.627 I-0.142 J-0.205 F333.3
X255.142 Y24.825 Z-5.655 I0.142 J0.205
X254.858 Y24.414 Z-5.682 I-0.142 J-0.205
X255.142 Y24.825 Z-5.71 I0.142 J0.205
X254.858 Y24.414 Z-5.737 I-0.142 J-0.205
X255.142 Y24.825 Z-5.765 I0.142 J0.205
X254.858 Y24.414 Z-5.792 I-0.142 J-0.205
X255.142 Y24.825 Z-5.819 I0.142 J0.205
X254.858 Y24.414 Z-5.847 I-0.142 J-0.205
X255.142 Y24.825 Z-5.874 I0.142 J0.205
X254.858 Y24.414 Z-5.902 I-0.142 J-0.205
X255.142 Y24.825 Z-5.929 I0.142 J0.205
X254.858 Y24.414 Z-5.957 I-0.142 J-0.205
X255.142 Y24.825 Z-5.984 I0.142 J0.205
X254.858 Y24.414 Z-6.011 I-0.142 J-0.205
X255.142 Y24.825 Z-6.039 I0.142 J0.205
X254.858 Y24.414 Z-6.066 I-0.142 J-0.205
X255.142 Y24.825 Z-6.094 I0.142 J0.205
X254.858 Y24.414 Z-6.121 I-0.142 J-0.205
X255.142 Y24.825 Z-6.149 I0.142 J0.205
X254.858 Y24.414 Z-6.176 I-0.142 J-0.205
X255.142 Y24.825 Z-6.203 I0.142 J0.205
X254.858 Y24.414 Z-6.231 I-0.142 J-0.205
X255.142 Y24.825 Z-6.258 I0.142 J0.205
X254.858 Y24.414 Z-6.286 I-0.142 J-0.205
X255.142 Y24.825 Z-6.313 I0.142 J0.205
X254.858 Y24.414 Z-6.341 I-0.142 J-0.205
X255.142 Y24.825 Z-6.368 I0.142 J0.205
X254.858 Y24.414 Z-6.395 I-0.142 J-0.205
X254.981 Y24.37 Z-6.4 I0.142 J0.205
X255.019 Y24.868 I0.019 J0.249 F700
X254.981 Y24.37 I-0.019 J-0.249
X255.019 Y24.868 Z-6.427 I0.019 J0.249 F333.3
X254.981 Y24.37 Z-6.455 I-0.019 J-0.249
X255.019 Y24.868 Z-6.482 I0.019 J0.249
X254.981 Y24.37 Z-6.51 I-0.019 J-0.249
X255.019 Y24.868 Z-6.537 I0.019 J0.249
X254.981 Y24.37 Z-6.565 I-0.019 J-0.249
X255.019 Y24.868 Z-6.592 I0.019 J0.249
X254.981 Y24.37 Z-6.619 I-0.019 J-0.249
X255.019 Y24.868 Z-6.647 I0.019 J0.249
X254.981 Y24.37 Z-6.674 I-0.019 J-0.249
X255.019 Y24.868 Z-6.702 I0.019 J0.249
X254.981 Y24.37 Z-6.729 I-0.019 J-0.249
X255.019 Y24.868 Z-6.757 I0.019 J0.249
X254.981 Y24.37 Z-6.784 I-0.019 J-0.249
X255.019 Y24.868 Z-6.811 I0.019 J0.249
X254.981 Y24.37 Z-6.839 I-0.019 J-0.249
X255.019 Y24.868 Z-6.866 I0.019 J0.249
X254.981 Y24.37 Z-6.894 I-0.019 J-0.249
X255.019 Y24.868 Z-6.921 I0.019 J0.249
X254.981 Y24.37 Z-6.949 I-0.019 J-0.249
X255.019 Y24.868 Z-6.976 I0.019 J0.249
X254.981 Y24.37 Z-7.003 I-0.019 J-0.249
X255.019 Y24.868 Z-7.031 I0.019 J0.249
X254.981 Y24.37 Z-7.058 I-0.019 J-0.249
X255.019 Y24.868 Z-7.086 I0.019 J0.249
X254.981 Y24.37 Z-7.113 I-0.019 J-0.249
X255.019 Y24.868 Z-7.141 I0.019 J0.249
X254.981 Y24.37 Z-7.168 I-0.019 J-0.249
X255.019 Y24.868 Z-7.195 I0.019 J0.249
X254.89 Y24.844 Z-7.2 I-0.019 J-0.249
X255.11 Y24.394 I0.11 J-0.225 F700
X254.89 Y24.844 I-0.11 J0.225
X255.11 Y24.394 Z-7.227 I0.11 J-0.225 F333.3
X254.89 Y24.844 Z-7.255 I-0.11 J0.225
X255.11 Y24.394 Z-7.282 I0.11 J-0.225
X254.89 Y24.844 Z-7.31 I-0.11 J0.225
X255.11 Y24.394 Z-7.337 I0.11 J-0.225
X254.89 Y24.844 Z-7.365 I-0.11 J0.225
X255.11 Y24.394 Z-7.392 I0.11 J-0.225
X254.89 Y24.844 Z-7.419 I-0.11 J0.225
X255.11 Y24.394 Z-7.447 I0.11 J-0.225
X254.89 Y24.844 Z-7.474 I-0.11 J0.225
X255.11 Y24.394 Z-7.502 I0.11 J-0.225
X254.89 Y24.844 Z-7.529 I-0.11 J0.225
X255.11 Y24.394 Z-7.557 I0.11 J-0.225
X254.89 Y24.844 Z-7.584 I-0.11 J0.225
X255.11 Y24.394 Z-7.611 I0.11 J-0.225
X254.89 Y24.844 Z-7.639 I-0.11 J0.225
X255.11 Y24.394 Z-7.666 I0.11 J-0.225
X254.89 Y24.844 Z-7.694 I-0.11 J0.225
X255.11 Y24.394 Z-7.721 I0.11 J-0.225
X254.89 Y24.844 Z-7.749 I-0.11 J0.225
X255.11 Y24.394 Z-7.776 I0.11 J-0.225
X254.89 Y24.844 Z-7.803 I-0.11 J0.225
X255.11 Y24.394 Z-7.831 I0.11 J-0.225
X254.89 Y24.844 Z-7.858 I-0.11 J0.225
X255.11 Y24.394 Z-7.886 I0.11 J-0.225
X254.89 Y24.844 Z-7.913 I-0.11 J0.225
X255.11 Y24.394 Z-7.941 I0.11 J-0.225
X254.89 Y24.844 Z-7.968 I-0.11 J0.225
X255.11 Y24.394 Z-7.995 I0.11 J-0.225
X255.208 Y24.481 Z-8 I-0.11 J0.225
X254.792 Y24.758 I-0.208 J0.139 F700
X255.208 Y24.481 I0.208 J-0.139
X254.792 Y24.758 Z-8.027 I-0.208 J0.139 F333.3
X255.208 Y24.481 Z-8.055 I0.208 J-0.139
X254.792 Y24.758 Z-8.082 I-0.208 J0.139
X255.208 Y24.481 Z-8.11 I0.208 J-0.139
X254.792 Y24.758 Z-8.137 I-0.208 J0.139
X255.208 Y24.481 Z-8.165 I0.208 J-0.139
X254.792 Y24.758 Z-8.192 I-0.208 J0.139
X255.208 Y24.481 Z-8.219 I0.208 J-0.139
X254.792 Y24.758 Z-8.247 I-0.208 J0.139
X255.208 Y24.481 Z-8.274 I0.208 J-0.139
X254.792 Y24.758 Z-8.302 I-0.208 J0.139
X255.208 Y24.481 Z-8.329 I0.208 J-0.139
X254.792 Y24.758 Z-8.357 I-0.208 J0.139
X255.208 Y24.481 Z-8.384 I0.208 J-0.139
X254.792 Y24.758 Z-8.411 I-0.208 J0.139
X255.208 Y24.481 Z-8.439 I0.208 J-0.139
X254.792 Y24.758 Z-8.466 I-0.208 J0.139
X255.208 Y24.481 Z-8.494 I0.208 J-0.139
X254.792 Y24.758 Z-8.521 I-0.208 J0.139
X255.208 Y24.481 Z-8.549 I0.208 J-0.139
X254.792 Y24.758 Z-8.576 I-0.208 J0.139
X255.208 Y24.481 Z-8.603 I0.208 J-0.139
X254.792 Y24.758 Z-8.631 I-0.208 J0.139
X255.208 Y24.481 Z-8.658 I0.208 J-0.139
X254.792 Y24.758 Z-8.686 I-0.208 J0.139
X255.208 Y24.481 Z-8.713 I0.208 J-0.139
X254.792 Y24.758 Z-8.741 I-0.208 J0.139
X255.208 Y24.481 Z-8.768 I0.208 J-0.139
X254.792 Y24.758 Z-8.795 I-0.208 J0.139
X254.75 Y24.634 Z-8.8 I0.208 J-0.139
X255.25 Y24.605 I0.25 J-0.014 F700
X254.75 Y24.634 I-0.25 J0.014
X255.25 Y24.605 Z-8.827 I0.25 J-0.014 F333.3
X254.75 Y24.634 Z-8.855 I-0.25 J0.014
X255.25 Y24.605 Z-8.882 I0.25 J-0.014
X254.75 Y24.634 Z-8.91 I-0.25 J0.014
X255.25 Y24.605 Z-8.937 I0.25 J-0.014
X254.75 Y24.634 Z-8.965 I-0.25 J0.014
X255.25 Y24.605 Z-8.992 I0.25 J-0.014
X254.75 Y24.634 Z-9.019 I-0.25 J0.014
X255.25 Y24.605 Z-9.047 I0.25 J-0.014
X254.75 Y24.634 Z-9.074 I-0.25 J0.014
X255.25 Y24.605 Z-9.102 I0.25 J-0.014
X254.75 Y24.634 Z-9.129 I-0.25 J0.014
X255.25 Y24.605 Z-9.157 I0.25 J-0.014
X254.75 Y24.634 Z-9.184 I-0.25 J0.014
X255.25 Y24.605 Z-9.211 I0.25 J-0.014
X254.75 Y24.634 Z-9.239 I-0.25 J0.014
X255.25 Y24.605 Z-9.266 I0.25 J-0.014
X254.75 Y24.634 Z-9.294 I-0.25 J0.014
X255.25 Y24.605 Z-9.321 I0.25 J-0.014
X254.75 Y24.634 Z-9.349 I-0.25 J0.014
X255.25 Y24.605 Z-9.376 I0.25 J-0.014
X254.75 Y24.634 Z-9.403 I-0.25 J0.014
X255.25 Y24.605 Z-9.431 I0.25 J-0.014
X254.75 Y24.634 Z-9.458 I-0.25 J0.014
X255.25 Y24.605 Z-9.486 I0.25 J-0.014
X254.75 Y24.634 Z-9.513 I-0.25 J0.014
X255.25 Y24.605 Z-9.541 I0.25 J-0.014
X254.75 Y24.634 Z-9.568 I-0.25 J0.014
X255.25 Y24.605 Z-9.595 I0.25 J-0.014
X255.223 Y24.733 Z-9.6 I-0.25 J0.014
X254.777 Y24.505 I-0.223 J-0.114 F700
X255.223 Y24.733 I0.223 J0.114
X254.777 Y24.505 Z-9.627 I-0.223 J-0.114 F333.3
X255.223 Y24.733 Z-9.655 I0.223 J0.114
X254.777 Y24.505 Z-9.682 I-0.223 J-0.114
X255.223 Y24.733 Z-9.71 I0.223 J0.114
X254.777 Y24.505 Z-9.737 I-0.223 J-0.114
X255.223 Y24.733 Z-9.765 I0.223 J0.114
X254.777 Y24.505 Z-9.792 I-0.223 J-0.114
X255.223 Y24.733 Z-9.819 I0.223 J0.114
X254.777 Y24.505 Z-9.847 I-0.223 J-0.114
X255.223 Y24.733 Z-9.874 I0.223 J0.114
X254.777 Y24.505 Z-9.902 I-0.223 J-0.114
X255.223 Y24.733 Z-9.929 I0.223 J0.114
X254.777 Y24.505 Z-9.957 I-0.223 J-0.114
X255.223 Y24.733 Z-9.984 I0.223 J0.114
X254.777 Y24.505 Z-10.011 I-0.223 J-0.114
X255.223 Y24.733 Z-10.039 I0.223 J0.114
X254.777 Y24.505 Z-10.066 I-0.223 J-0.114
X255.223 Y24.733 Z-10.094 I0.223 J0.114
X254.777 Y24.505 Z-10.121 I-0.223 J-0.114
X255.223 Y24.733 Z-10.149 I0.223 J0.114
X254.777 Y24.505 Z-10.176 I-0.223 J-0.114
X255.223 Y24.733 Z-10.203 I0.223 J0.114
X254.777 Y24.505 Z-10.231 I-0.223 J-0.114
X255.223 Y24.733 Z-10.258 I0.223 J0.114
X254.777 Y24.505 Z-10.286 I-0.223 J-0.114
X255.223 Y24.733 Z-10.313 I0.223 J0.114
X254.777 Y24.505 Z-10.341 I-0.223 J-0.114
X255.223 Y24.733 Z-10.368 I0.223 J0.114
X254.777 Y24.505 Z-10.395 I-0.223 J-0.114
X254.865 Y24.409 Z-10.4 I0.223 J0.114
X255.135 Y24.83 I0.135 J0.211 F700
X254.865 Y24.409 I-0.135 J-0.211
X255.135 Y24.83 Z-10.427 I0.135 J0.211 F333.3
X254.865 Y24.409 Z-10.455 I-0.135 J-0.211
X255.135 Y24.83 Z-10.482 I0.135 J0.211
X254.865 Y24.409 Z-10.51 I-0.135 J-0.211
X255.135 Y24.83 Z-10.537 I0.135 J0.211
X254.865 Y24.409 Z-10.565 I-0.135 J-0.211
X255.135 Y24.83 Z-10.592 I0.135 J0.211
X254.865 Y24.409 Z-10.619 I-0.135 J-0.211
X255.135 Y24.83 Z-10.647 I0.135 J0.211
X254.865 Y24.409 Z-10.674 I-0.135 J-0.211
X255.135 Y24.83 Z-10.702 I0.135 J0.211
X254.865 Y24.409 Z-10.729 I-0.135 J-0.211
X255.135 Y24.83 Z-10.757 I0.135 J0.211
X254.865 Y24.409 Z-10.784 I-0.135 J-0.211
X255.135 Y24.83 Z-10.811 I0.135 J0.211
X254.865 Y24.409 Z-10.839 I-0.135 J-0.211
X255.135 Y24.83 Z-10.866 I0.135 J0.211
X254.865 Y24.409 Z-10.894 I-0.135 J-0.211
X255.135 Y24.83 Z-10.921 I0.135 J0.211
X254.865 Y24.409 Z-10.949 I-0.135 J-0.211
X255.135 Y24.83 Z-10.976 I0.135 J0.211
X254.865 Y24.409 Z-11.003 I-0.135 J-0.211
X255.135 Y24.83 Z-11.031 I0.135 J0.211
X254.865 Y24.409 Z-11.058 I-0.135 J-0.211
X255.135 Y24.83 Z-11.086 I0.135 J0.211
X254.865 Y24.409 Z-11.113 I-0.135 J-0.211
X255.135 Y24.83 Z-11.141 I0.135 J0.211
X254.865 Y24.409 Z-11.168 I-0.135 J-0.211
X255.135 Y24.83 Z-11.195 I0.135 J0.211
X255.01 Y24.869 Z-11.2 I-0.135 J-0.211
X254.99 Y24.369 I-0.01 J-0.25 F700
X255.01 Y24.869 I0.01 J0.25
X254.99 Y24.369 Z-11.227 I-0.01 J-0.25 F333.3
X255.01 Y24.869 Z-11.255 I0.01 J0.25
X254.99 Y24.369 Z-11.282 I-0.01 J-0.25
X255.01 Y24.869 Z-11.31 I0.01 J0.25
X254.99 Y24.369 Z-11.337 I-0.01 J-0.25
X255.01 Y24.869 Z-11.365 I0.01 J0.25
X254.99 Y24.369 Z-11.392 I-0.01 J-0.25
X255.01 Y24.869 Z-11.419 I0.01 J0.25
X254.99 Y24.369 Z-11.447 I-0.01 J-0.25
X255.01 Y24.869 Z-11.474 I0.01 J0.25
X254.99 Y24.369 Z-11.502 I-0.01 J-0.25
X255.01 Y24.869 Z-11.529 I0.01 J0.25
X254.99 Y24.369 Z-11.557 I-0.01 J-0.25
X255.01 Y24.869 Z-11.584 I0.01 J0.25
X254.99 Y24.369 Z-11.611 I-0.01 J-0.25
X255.01 Y24.869 Z-11.639 I0.01 J0.25
X254.99 Y24.369 Z-11.666 I-0.01 J-0.25
X255.01 Y24.869 Z-11.694 I0.01 J0.25
X254.99 Y24.369 Z-11.721 I-0.01 J-0.25
X255.01 Y24.869 Z-11.749 I0.01 J0.25
X254.99 Y24.369 Z-11.776 I-0.01 J-0.25
X255.01 Y24.869 Z-11.803 I0.01 J0.25
X254.99 Y24.369 Z-11.831 I-0.01 J-0.25
X255.01 Y24.869 Z-11.858 I0.01 J0.25
X254.99 Y24.369 Z-11.886 I-0.01 J-0.25
X255.01 Y24.869 Z-11.913 I0.01 J0.25
X254.99 Y24.369 Z-11.941 I-0.01 J-0.25
X255.01 Y24.869 Z-11.968 I0.01 J0.25
X254.99 Y24.369 Z-11.995 I-0.01 J-0.25
X255.118 Y24.399 Z-12 I0.01 J0.25
X254.882 Y24.84 I-0.118 J0.22 F700
X255.118 Y24.399 I0.118 J-0.22
X254.882 Y24.84 Z-12.027 I-0.118 J0.22 F333.3
X255.118 Y24.399 Z-12.055 I0.118 J-0.22
X254.882 Y24.84 Z-12.082 I-0.118 J0.22
X255.118 Y24.399 Z-12.11 I0.118 J-0.22
X254.882 Y24.84 Z-12.137 I-0.118 J0.22
X255.118 Y24.399 Z-12.165 I0.118 J-0.22
X254.882 Y24.84 Z-12.192 I-0.118 J0.22
X255.118 Y24.399 Z-12.219 I0.118 J-0.22
X254.882 Y24.84 Z-12.247 I-0.118 J0.22
X255.118 Y24.399 Z-12.274 I0.118 J-0.22
X254.882 Y24.84 Z-12.302 I-0.118 J0.22
X255.118 Y24.399 Z-12.329 I0.118 J-0.22
X254.882 Y24.84 Z-12.357 I-0.118 J0.22
X255.118 Y24.399 Z-12.384 I0.118 J-0.22
X254.882 Y24.84 Z-12.411 I-0.118 J0.22
X255.118 Y24.399 Z-12.439 I0.118 J-0.22
X254.882 Y24.84 Z-12.466 I-0.118 J0.22
X255.118 Y24.399 Z-12.494 I0.118 J-0.22
X254.882 Y24.84 Z-12.521 I-0.118 J0.22
X255.118 Y24.399 Z-12.549 I0.118 J-0.22
X254.882 Y24.84 Z-12.576 I-0.118 J0.22
X255.118 Y24.399 Z-12.603 I0.118 J-0.22
X254.882 Y24.84 Z-12.631 I-0.118 J0.22
X255.118 Y24.399 Z-12.658 I0.118 J-0.22
X254.882 Y24.84 Z-12.686 I-0.118 J0.22
X255.118 Y24.399 Z-12.713 I0.118 J-0.22
X254.882 Y24.84 Z-12.741 I-0.118 J0.22
X255.118 Y24.399 Z-12.768 I0.118 J-0.22
X254.882 Y24.84 Z-12.795 I-0.118 J0.22
X254.787 Y24.75 Z-12.8 I0.118 J-0.22
X255.213 Y24.489 I0.213 J-0.131 F700
X254.787 Y24.75 I-0.213 J0.131
X255.213 Y24.489 Z-12.827 I0.213 J-0.131 F333.3
X254.787 Y24.75 Z-12.855 I-0.213 J0.131
X255.213 Y24.489 Z-12.882 I0.213 J-0.131
X254.787 Y24.75 Z-12.91 I-0.213 J0.131
X255.213 Y24.489 Z-12.937 I0.213 J-0.131
X254.787 Y24.75 Z-12.965 I-0.213 J0.131
X255.213 Y24.489 Z-12.992 I0.213 J-0.131
X254.787 Y24.75 Z-13.019 I-0.213 J0.131
X255.213 Y24.489 Z-13.047 I0.213 J-0.131
X254.787 Y24.75 Z-13.074 I-0.213 J0.131
X255.213 Y24.489 Z-13.102 I0.213 J-0.131
X254.787 Y24.75 Z-13.129 I-0.213 J0.131
X255.213 Y24.489 Z-13.157 I0.213 J-0.131
X254.787 Y24.75 Z-13.184 I-0.213 J0.131
X255.213 Y24.489 Z-13.211 I0.213 J-0.131
X254.787 Y24.75 Z-13.239 I-0.213 J0.131
X255.213 Y24.489 Z-13.266 I0.213 J-0.131
X254.787 Y24.75 Z-13.294 I-0.213 J0.131
X255.213 Y24.489 Z-13.321 I0.213 J-0.131
X254.787 Y24.75 Z-13.349 I-0.213 J0.131
X255.213 Y24.489 Z-13.376 I0.213 J-0.131
X254.787 Y24.75 Z-13.403 I-0.213 J0.131
X255.213 Y24.489 Z-13.431 I0.213 J-0.131
X254.787 Y24.75 Z-13.458 I-0.213 J0.131
X255.213 Y24.488 Z-13.486 I0.213 J-0.131
X254.787 Y24.75 Z-13.513 I-0.213 J0.131
X255.213 Y24.488 Z-13.541 I0.213 J-0.131
X254.787 Y24.75 Z-13.568 I-0.213 J0.131
X255.213 Y24.488 Z-13.595 I0.213 J-0.131
X255.25 Y24.614 Z-13.6 I-0.213 J0.131
X254.75 Y24.624 I-0.25 J0.005 F700
X255.25 Y24.614 I0.25 J-0.005
G1 Y24.619 F333.3
G3 X254.75 Y24.619 Z-13.628 I-0.25 J0
X255.25 Y24.619 Z-13.655 I0.25 J0
X254.75 Y24.619 Z-13.682 I-0.25 J0
X255.25 Y24.619 Z-13.71 I0.25 J0
X254.75 Y24.619 Z-13.737 I-0.25 J0
X255.25 Y24.619 Z-13.765 I0.25 J0
X254.75 Y24.619 Z-13.792 I-0.25 J0
X255.25 Y24.619 Z-13.82 I0.25 J0
X254.75 Y24.619 Z-13.847 I-0.25 J0
X255.25 Y24.619 Z-13.874 I0.25 J0
X254.75 Y24.619 Z-13.902 I-0.25 J0
X255.25 Y24.619 Z-13.929 I0.25 J0
X254.75 Y24.619 Z-13.957 I-0.25 J0
X255.25 Y24.619 Z-13.984 I0.25 J0
X254.75 Y24.619 Z-14.012 I-0.25 J0
X255.25 Y24.619 Z-14.039 I0.25 J0
X254.75 Y24.619 Z-14.066 I-0.25 J0
X255.25 Y24.619 Z-14.094 I0.25 J0
X254.75 Y24.619 Z-14.121 I-0.25 J0
X255.25 Y24.619 Z-14.149 I0.25 J0
X254.75 Y24.619 Z-14.176 I-0.25 J0
X255.25 Y24.619 Z-14.204 I0.25 J0
X254.75 Y24.619 Z-14.231 I-0.25 J0
X255.25 Y24.619 Z-14.258 I0.25 J0
X254.75 Y24.619 Z-14.286 I-0.25 J0
X255.25 Y24.619 Z-14.313 I0.25 J0
X254.75 Y24.619 Z-14.341 I-0.25 J0
X255.25 Y24.619 Z-14.368 I0.25 J0
X254.75 Y24.619 Z-14.396 I-0.25 J0
X254.782 Y24.497 Z-14.4 I0.25 J0
X255.218 Y24.741 I0.218 J0.122 F700
X254.782 Y24.497 I-0.218 J-0.122
X255.218 Y24.741 Z-14.427 I0.218 J0.122 F333.3
X254.782 Y24.497 Z-14.455 I-0.218 J-0.122
X255.218 Y24.741 Z-14.482 I0.218 J0.122
X254.782 Y24.497 Z-14.51 I-0.218 J-0.122
X255.218 Y24.741 Z-14.537 I0.218 J0.122
X254.782 Y24.497 Z-14.565 I-0.218 J-0.122
X255.218 Y24.741 Z-14.592 I0.218 J0.122
X254.782 Y24.497 Z-14.619 I-0.218 J-0.122
X255.218 Y24.741 Z-14.647 I0.218 J0.122
X254.782 Y24.497 Z-14.674 I-0.218 J-0.122
X255.218 Y24.741 Z-14.702 I0.218 J0.122
X254.782 Y24.497 Z-14.729 I-0.218 J-0.122
X255.218 Y24.741 Z-14.757 I0.218 J0.122
X254.782 Y24.497 Z-14.784 I-0.218 J-0.122
X255.218 Y24.741 Z-14.811 I0.218 J0.122
X254.782 Y24.497 Z-14.839 I-0.218 J-0.122
X255.218 Y24.741 Z-14.866 I0.218 J0.122
X254.782 Y24.497 Z-14.894 I-0.218 J-0.122
X255.218 Y24.741 Z-14.921 I0.218 J0.122
X254.782 Y24.497 Z-14.949 I-0.218 J-0.122
X255.218 Y24.741 Z-14.976 I0.218 J0.122
X254.782 Y24.497 Z-15.003 I-0.218 J-0.122
X255.218 Y24.741 Z-15.031 I0.218 J0.122
X254.782 Y24.497 Z-15.058 I-0.218 J-0.122
X255.218 Y24.741 Z-15.086 I0.218 J0.122
X254.782 Y24.497 Z-15.113 I-0.218 J-0.122
X255.218 Y24.741 Z-15.141 I0.218 J0.122
X254.782 Y24.497 Z-15.168 I-0.218 J-0.122
X255.218 Y24.741 Z-15.195 I0.218 J0.122
X255.127 Y24.835 Z-15.2 I-0.218 J-0.122
X254.873 Y24.404 I-0.127 J-0.216 F700
X255.127 Y24.835 I0.127 J0.216
X254.873 Y24.404 Z-15.227 I-0.127 J-0.216 F333.3
X255.127 Y24.835 Z-15.255 I0.127 J0.216
X254.873 Y24.404 Z-15.282 I-0.127 J-0.216
X255.127 Y24.835 Z-15.31 I0.127 J0.216
X254.873 Y24.404 Z-15.337 I-0.127 J-0.216
X255.127 Y24.835 Z-15.365 I0.127 J0.216
X254.873 Y24.404 Z-15.392 I-0.127 J-0.216
X255.127 Y24.835 Z-15.419 I0.127 J0.216
X254.873 Y24.404 Z-15.447 I-0.127 J-0.216
X255.127 Y24.835 Z-15.474 I0.127 J0.216
X254.873 Y24.404 Z-15.502 I-0.127 J-0.216
X255.127 Y24.835 Z-15.529 I0.127 J0.216
X254.873 Y24.404 Z-15.557 I-0.127 J-0.216
X255.127 Y24.835 Z-15.584 I0.127 J0.216
X254.873 Y24.404 Z-15.611 I-0.127 J-0.216
X255.127 Y24.835 Z-15.639 I0.127 J0.216
X254.873 Y24.404 Z-15.666 I-0.127 J-0.216
X255.127 Y24.835 Z-15.694 I0.127 J0.216
X254.873 Y24.404 Z-15.721 I-0.127 J-0.216
X255.127 Y24.835 Z-15.749 I0.127 J0.216
X254.873 Y24.404 Z-15.776 I-0.127 J-0.216
X255.127 Y24.835 Z-15.803 I0.127 J0.216
X254.873 Y24.404 Z-15.831 I-0.127 J-0.216
X255.127 Y24.835 Z-15.858 I0.127 J0.216
X254.873 Y24.404 Z-15.886 I-0.127 J-0.216
X255.127 Y24.835 Z-15.913 I0.127 J0.216
X254.873 Y24.404 Z-15.941 I-0.127 J-0.216
X255.127 Y24.835 Z-15.968 I0.127 J0.216
X254.873 Y24.404 Z-15.995 I-0.127 J-0.216
X255 Y24.369 Z-16 I0.127 J0.216
X255 Y24.869 I0 J0.25 F700
X255 Y24.369 I0 J-0.25
G0 Z6
X254.7 Y30.969
Z2
G1 Z1.8 F700
Z-0.8 F333.3
G3 X255.3 Y31.769 I0.3 J0.4 F700
X254.7 Y30.969 I-0.3 J-0.4
X255.3 Y31.769 Z-0.855 I0.3 J0.4 F333.3
X254.7 Y30.969 Z-0.91 I-0.3 J-0.4
X255.3 Y31.769 Z-0.965 I0.3 J0.4
X254.7 Y30.969 Z-1.019 I-0.3 J-0.4
X255.3 Y31.769 Z-1.074 I0.3 J0.4
X254.7 Y30.969 Z-1.129 I-0.3 J-0.4
X255.3 Y31.769 Z-1.184 I0.3 J0.4
X254.7 Y30.969 Z-1.239 I-0.3 J-0.4
X255.3 Y31.769 Z-1.294 I0.3 J0.4
X254.7 Y30.969 Z-1.349 I-0.3 J-0.4
X255.3 Y31.769 Z-1.403 I0.3 J0.4
X254.7 Y30.969 Z-1.458 I-0.3 J-0.4
X255.3 Y31.769 Z-1.513 I0.3 J0.4
X254.7 Y30.969 Z-1.568 I-0.3 J-0.4
X255.465 Y31.184 Z-1.6 I0.3 J0.4
X254.535 Y31.554 I-0.465 J0.185 F700
X255.465 Y31.184 I0.465 J-0.185
X254.535 Y31.554 Z-1.655 I-0.465 J0.185 F333.3
X255.465 Y31.184 Z-1.71 I0.465 J-0.185
X254.535 Y31.554 Z-1.765 I-0.465 J0.185
X255.465 Y31.184 Z-1.819 I0.465 J-0.185
X254.535 Y31.554 Z-1.874 I-0.465 J0.185
X255.465 Y31.184 Z-1.929 I0.465 J-0.185
X254.535 Y31.554 Z-1.984 I-0.465 J0.185
X255.465 Y31.184 Z-2.039 I0.465 J-0.185
X254.535 Y31.554 Z-2.094 I-0.465 J0.185
X255.465 Y31.184 Z-2.149 I0.465 J-0.185
X254.535 Y31.554 Z-2.203 I-0.465 J0.185
X255.465 Y31.184 Z-2.258 I0.465 J-0.185
X254.535 Y31.554 Z-2.313 I-0.465 J0.185
X255.465 Y31.184 Z-2.368 I0.465 J-0.185
X255.057 Y31.866 Z-2.4 I-0.465 J0.185
X254.943 Y30.872 I-0.057 J-0.497 F700
X255.057 Y31.866 I0.057 J0.497
X254.943 Y30.872 Z-2.455 I-0.057 J-0.497 F333.3
X255.057 Y31.866 Z-2.51 I0.057 J0.497
X254.943 Y30.872 Z-2.565 I-0.057 J-0.497
X255.057 Y31.866 Z-2.619 I0.057 J0.497
X254.943 Y30.872 Z-2.674 I-0.057 J-0.497
X255.057 Y31.866 Z-2.729 I0.057 J0.497
X254.943 Y30.872 Z-2.784 I-0.057 J-0.497
X255.057 Y31.866 Z-2.839 I0.057 J0.497
X254.943 Y30.872 Z-2.894 I-0.057 J-0.497
X255.057 Y31.866 Z-2.949 I0.057 J0.497
X254.943 Y30.872 Z-3.003 I-0.057 J-0.497
X255.057 Y31.866 Z-3.058 I0.057 J0.497
X254.943 Y30.872 Z-3.113 I-0.057 J-0.497
X255.057 Y31.866 Z-3.168 I0.057 J0.497
X254.506 Y31.294 Z-3.2 I-0.057 J-0.497
X255.494 Y31.445 I0.494 J0.075 F700
X254.506 Y31.294 I-0.494 J-0.075
X255.494 Y31.445 Z-3.255 I0.494 J0.075 F333.3
X254.506 Y31.294 Z-3.31 I-0.494 J-0.075
X255.494 Y31.445 Z-3.365 I0.494 J0.075
X254.506 Y31.294 Z-3.419 I-0.494 J-0.075
X255.494 Y31.445 Z-3.474 I0.494 J0.075
X254.506 Y31.294 Z-3.529 I-0.494 J-0.075
X255.494 Y31.445 Z-3.584 I0.494 J0.075
X254.506 Y31.294 Z-3.639 I-0.494 J-0.075
X255.494 Y31.445 Z-3.694 I0.494 J0.075
X254.506 Y31.294 Z-3.749 I-0.494 J-0.075
X255.494 Y31.445 Z-3.803 I0.494 J0.075
X254.506 Y31.294 Z-3.858 I-0.494 J-0.075
X255.494 Y31.445 Z-3.913 I0.494 J0.075
X254.506 Y31.294 Z-3.968 I-0.494 J-0.075
X255.202 Y30.912 Z-4 I0.494 J0.075
X254.798 Y31.827 I-0.202 J0.457 F700
X255.202 Y30.912 I0.202 J-0.457
X254.798 Y31.827 Z-4.055 I-0.202 J0.457 F333.3
X255.202 Y30.912 Z-4.11 I0.202 J-0.457
X254.798 Y31.827 Z-4.165 I-0.202 J0.457
X255.202 Y30.912 Z-4.219 I0.202 J-0.457
X254.798 Y31.827 Z-4.274 I-0.202 J0.457
X255.202 Y30.912 Z-4.329 I0.202 J-0.457
X254.798 Y31.827 Z-4.384 I-0.202 J0.457
X255.202 Y30.912 Z-4.439 I0.202 J-0.457
X254.798 Y31.827 Z-4.494 I-0.202 J0.457
X255.202 Y30.912 Z-4.549 I0.202 J-0.457
X254.798 Y31.827 Z-4.603 I-0.202 J0.457
X255.202 Y30.912 Z-4.658 I0.202 J-0.457
X254.798 Y31.827 Z-4.713 I-0.202 J0.457
X255.202 Y30.912 Z-4.768 I0.202 J-0.457
X255.388 Y31.684 Z-4.8 I-0.202 J0.457
X254.612 Y31.054 I-0.388 J-0.315 F700
X255.388 Y31.684 I0.388 J0.315
X254.612 Y31.054 Z-4.855 I-0.388 J-0.315 F333.3
X255.388 Y31.684 Z-4.91 I0.388 J0.315
X254.612 Y31.054 Z-4.965 I-0.388 J-0.315
X255.388 Y31.684 Z-5.019 I0.388 J0.315
X254.612 Y31.054 Z-5.074 I-0.388 J-0.315
X255.388 Y31.684 Z-5.129 I0.388 J0.315
X254.612 Y31.054 Z-5.184 I-0.388 J-0.315
X255.388 Y31.684 Z-5.239 I0.388 J0.315
X254.612 Y31.054 Z-5.294 I-0.388 J-0.315
X255.388 Y31.684 Z-5.349 I0.388 J0.315
X254.612 Y31.054 Z-5.403 I-0.388 J-0.315
X255.388 Y31.684 Z-5.458 I0.388 J0.315
X254.612 Y31.054 Z-5.513 I-0.388 J-0.315
X255.388 Y31.684 Z-5.568 I0.388 J0.315
X254.594 Y31.662 Z-5.6 I-0.388 J-0.315
X255.406 Y31.077 I0.406 J-0.292 F700
X254.594 Y31.662 I-0.406 J0.292
X255.406 Y31.077 Z-5.655 I0.406 J-0.292 F333.3
X254.594 Y31.662 Z-5.71 I-0.406 J0.292
X255.406 Y31.077 Z-5.765 I0.406 J-0.292
X254.594 Y31.662 Z-5.819 I-0.406 J0.292
X255.406 Y31.077 Z-5.874 I0.406 J-0.292
X254.594 Y31.662 Z-5.929 I-0.406 J0.292
X255.406 Y31.077 Z-5.984 I0.406 J-0.292
X254.594 Y31.662 Z-6.039 I-0.406 J0.292
X255.406 Y31.077 Z-6.094 I0.406 J-0.292
X254.594 Y31.662 Z-6.149 I-0.406 J0.292
X255.406 Y31.077 Z-6.203 I0.406 J-0.292
X254.594 Y31.662 Z-6.258 I-0.406 J0.292
X255.406 Y31.077 Z-6.313 I0.406 J-0.292
X254.594 Y31.662 Z-6.368 I-0.406 J0.292
X254.824 Y30.901 Z-6.4 I0.406 J-0.292
X255.176 Y31.837 I0.176 J0.468 F700
X254.824 Y30.901 I-0.176 J-0.468
X255.176 Y31.837 Z-6.455 I0.176 J0.468 F333.3
X254.824 Y30.901 Z-6.51 I-0.176 J-0.468
X255.176 Y31.837 Z-6.565 I0.176 J0.468
X254.824 Y30.901 Z-6.619 I-0.176 J-0.468
X255.176 Y31.837 Z-6.674 I0.176 J0.468
X254.824 Y30.901 Z-6.729 I-0.176 J-0.468
X255.176 Y31.837 Z-6.784 I0.176 J0.468
X254.824 Y30.901 Z-6.839 I-0.176 J-0.468
X255.176 Y31.837 Z-6.894 I0.176 J0.468
X254.824 Y30.901 Z-6.949 I-0.176 J-0.468
X255.176 Y31.837 Z-7.003 I0.176 J0.468
X254.824 Y30.901 Z-7.058 I-0.176 J-0.468
X255.176 Y31.837 Z-7.113 I0.176 J0.468
X254.824 Y30.901 Z-7.168 I-0.176 J-0.468
X255.498 Y31.322 Z-7.2 I0.176 J0.468
X254.502 Y31.417 I-0.498 J0.047 F700
X255.498 Y31.322 I0.498 J-0.047
X254.502 Y31.417 Z-7.255 I-0.498 J0.047 F333.3
X255.498 Y31.322 Z-7.31 I0.498 J-0.047
X254.502 Y31.417 Z-7.365 I-0.498 J0.047
X255.498 Y31.322 Z-7.419 I0.498 J-0.047
X254.502 Y31.417 Z-7.474 I-0.498 J0.047
X255.498 Y31.322 Z-7.529 I0.498 J-0.047
X254.502 Y31.417 Z-7.584 I-0.498 J0.047
X255.498 Y31.322 Z-7.639 I0.498 J-0.047
X254.502 Y31.417 Z-7.694 I-0.498 J0.047
X255.498 Y31.322 Z-7.749 I0.498 J-0.047
X254.502 Y31.417 Z-7.803 I-0.498 J0.047
X255.498 Y31.322 Z-7.858 I0.498 J-0.047
X254.502 Y31.417 Z-7.913 I-0.498 J0.047
X255.498 Y31.322 Z-7.968 I0.498 J-0.047
X254.915 Y31.862 Z-8 I-0.498 J0.047
X255.085 Y30.876 I0.085 J-0.493 F700
X254.915 Y31.862 I-0.085 J0.493
X255.085 Y30.876 Z-8.055 I0.085 J-0.493 F333.3
X254.915 Y31.862 Z-8.11 I-0.085 J0.493
X255.085 Y30.876 Z-8.165 I0.085 J-0.493
X254.915 Y31.862 Z-8.219 I-0.085 J0.493
X255.085 Y30.876 Z-8.274 I0.085 J-0.493
X254.915 Y31.862 Z-8.329 I-0.085 J0.493
X255.085 Y30.876 Z-8.384 I0.085 J-0.493
X254.915 Y31.862 Z-8.439 I-0.085 J0.493
X255.085 Y30.876 Z-8.494 I0.085 J-0.493
X254.915 Y31.862 Z-8.549 I-0.085 J0.493
X255.085 Y30.876 Z-8.603 I0.085 J-0.493
X254.915 Y31.862 Z-8.658 I-0.085 J0.493
X255.085 Y30.876 Z-8.713 I0.085 J-0.493
X254.915 Y31.862 Z-8.768 I-0.085 J0.493
X254.547 Y31.159 Z-8.8 I0.085 J-0.493
X255.453 Y31.58 I0.453 J0.211 F700
X254.547 Y31.159 I-0.453 J-0.211
X255.453 Y31.58 Z-8.855 I0.453 J0.211 F333.3
X254.547 Y31.159 Z-8.91 I-0.453 J-0.211
X255.453 Y31.58 Z-8.965 I0.453 J0.211
X254.547 Y31.159 Z-9.019 I-0.453 J-0.211
X255.453 Y31.58 Z-9.074 I0.453 J0.211
X254.547 Y31.159 Z-9.129 I-0.453 J-0.211
X255.453 Y31.58 Z-9.184 I0.453 J0.211
X254.547 Y31.159 Z-9.239 I-0.453 J-0.211
X255.453 Y31.58 Z-9.294 I0.453 J0.211
X254.547 Y31.159 Z-9.349 I-0.453 J-0.211
X255.453 Y31.58 Z-9.403 I0.453 J0.211
X254.547 Y31.159 Z-9.458 I-0.453 J-0.211
X255.453 Y31.58 Z-9.513 I0.453 J0.211
X254.547 Y31.159 Z-9.568 I-0.453 J-0.211
X255.322 Y30.987 Z-9.6 I0.453 J0.211
X254.678 Y31.752 I-0.322 J0.383 F700
X255.322 Y30.987 I0.322 J-0.383
X254.678 Y31.752 Z-9.655 I-0.322 J0.383 F333.3
X255.322 Y30.987 Z-9.71 I0.322 J-0.383
X254.678 Y31.752 Z-9.765 I-0.322 J0.383
X255.322 Y30.987 Z-9.819 I0.322 J-0.383
X254.678 Y31.752 Z-9.874 I-0.322 J0.383
X255.322 Y30.987 Z-9.929 I0.322 J-0.383
X254.678 Y31.752 Z-9.984 I-0.322 J0.383
X255.322 Y30.987 Z-10.039 I0.322 J-0.383
X254.678 Y31.752 Z-10.094 I-0.322 J0.383
X255.322 Y30.987 Z-10.149 I0.322 J-0.383
X254.678 Y31.752 Z-10.203 I-0.322 J0.383
X255.322 Y30.987 Z-10.258 I0.322 J-0.383
X254.678 Y31.752 Z-10.313 I-0.322 J0.383
X255.322 Y30.987 Z-10.368 I0.322 J-0.383
X255.285 Y31.78 Z-10.4 I-0.322 J0.383
X254.715 Y30.958 I-0.285 J-0.411 F700
X255.285 Y31.78 I0.285 J0.411
X254.715 Y30.958 Z-10.455 I-0.285 J-0.411 F333.3
X255.285 Y31.78 Z-10.51 I0.285 J0.411
X254.715 Y30.958 Z-10.565 I-0.285 J-0.411
X255.285 Y31.78 Z-10.619 I0.285 J0.411
X254.715 Y30.958 Z-10.674 I-0.285 J-0.411
X255.285 Y31.78 Z-10.729 I0.285 J0.411
X254.715 Y30.958 Z-10.784 I-0.285 J-0.411
X255.285 Y31.78 Z-10.839 I0.285 J0.411
X254.715 Y30.958 Z-10.894 I-0.285 J-0.411
X255.285 Y31.78 Z-10.949 I0.285 J0.411
X254.715 Y30.958 Z-11.003 I-0.285 J-0.411
X255.285 Y31.78 Z-11.058 I0.285 J0.411
X254.715 Y30.958 Z-11.113 I-0.285 J-0.411
X255.285 Y31.78 Z-11.168 I0.285 J0.411
X254.529 Y31.537 Z-11.2 I-0.285 J-0.411
X255.471 Y31.202 I0.471 J-0.167 F700
X254.529 Y31.537 I-0.471 J0.167
X255.471 Y31.202 Z-11.255 I0.471 J-0.167 F333.3
X254.529 Y31.537 Z-11.31 I-0.471 J0.167
X255.471 Y31.202 Z-11.365 I0.471 J-0.167
X254.529 Y31.537 Z-11.419 I-0.471 J0.167
X255.471 Y31.202 Z-11.474 I0.471 J-0.167
X254.529 Y31.537 Z-11.529 I-0.471 J0.167
X255.471 Y31.202 Z-11.584 I0.471 J-0.167
X254.529 Y31.537 Z-11.639 I-0.471 J0.167
X255.471 Y31.202 Z-11.694 I0.471 J-0.167
X254.529 Y31.537 Z-11.749 I-0.471 J0.167
X255.471 Y31.202 Z-11.803 I0.471 J-0.167
X254.529 Y31.537 Z-11.858 I-0.471 J0.167
X255.471 Y31.202 Z-11.913 I0.471 J-0.167
X254.529 Y31.537 Z-11.968 I-0.471 J0.167
X254.962 Y30.871 Z-12 I0.471 J-0.167
X255.038 Y31.868 I0.038 J0.499 F700
X254.962 Y30.871 I-0.038 J-0.499
X255.038 Y31.868 Z-12.055 I0.038 J0.499 F333.3
X254.962 Y30.871 Z-12.11 I-0.038 J-0.499
X255.038 Y31.868 Z-12.165 I0.038 J0.499
X254.962 Y30.871 Z-12.219 I-0.038 J-0.499
X255.038 Y31.868 Z-12.274 I0.038 J0.499
X254.962 Y30.871 Z-12.329 I-0.038 J-0.499
X255.038 Y31.868 Z-12.384 I0.038 J0.499
X254.962 Y30.871 Z-12.439 I-0.038 J-0.499
X255.038 Y31.868 Z-12.494 I0.038 J0.499
X254.962 Y30.871 Z-12.549 I-0.038 J-0.499
X255.038 Y31.868 Z-12.603 I0.038 J0.499
X254.962 Y30.871 Z-12.658 I-0.038 J-0.499
X255.038 Y31.868 Z-12.713 I0.038 J0.499
X254.962 Y30.871 Z-12.768 I-0.038 J-0.499
X255.491 Y31.463 Z-12.8 I0.038 J0.499
X254.509 Y31.275 I-0.491 J-0.094 F700
X255.491 Y31.463 I0.491 J0.094
X254.509 Y31.275 Z-12.855 I-0.491 J-0.094 F333.3
X255.491 Y31.463 Z-12.91 I0.491 J0.094
X254.509 Y31.275 Z-12.965 I-0.491 J-0.094
X255.491 Y31.463 Z-13.019 I0.491 J0.094
X254.509 Y31.275 Z-13.074 I-0.491 J-0.094
X255.491 Y31.463 Z-13.129 I0.491 J0.094
X254.509 Y31.275 Z-13.184 I-0.491 J-0.094
X255.491 Y31.463 Z-13.239 I0.491 J0.094
X254.509 Y31.275 Z-13.294 I-0.491 J-0.094
X255.491 Y31.463 Z-13.349 I0.491 J0.094
X254.509 Y31.275 Z-13.403 I-0.491 J-0.094
X255.491 Y31.463 Z-13.458 I0.491 J0.094
X254.509 Y31.275 Z-13.513 I-0.491 J-0.094
X255.491 Y31.463 Z-13.568 I0.491 J0.094
X254.781 Y31.819 Z-13.6 I-0.491 J-0.094
X255.219 Y30.92 I0.219 J-0.449 F700
X254.781 Y31.819 I-0.219 J0.449
X255.219 Y30.92 Z-13.655 I0.219 J-0.449 F333.3
X254.781 Y31.819 Z-13.71 I-0.219 J0.449
X255.219 Y30.92 Z-13.765 I0.219 J-0.449
X254.781 Y31.819 Z-13.819 I-0.219 J0.449
X255.219 Y30.92 Z-13.874 I0.219 J-0.449
X254.781 Y31.819 Z-13.929 I-0.219 J0.449
X255.219 Y30.92 Z-13.984 I0.219 J-0.449
X254.781 Y31.819 Z-14.039 I-0.219 J0.449
X255.219 Y30.92 Z-14.094 I0.219 J-0.449
X254.781 Y31.819 Z-14.149 I-0.219 J0.449
X255.219 Y30.92 Z-14.203 I0.219 J-0.449
X254.781 Y31.819 Z-14.258 I-0.219 J0.449
X255.219 Y30.92 Z-14.313 I0.219 J-0.449
X254.781 Y31.819 Z-14.368 I-0.219 J0.449
X254.624 Y31.04 Z-14.4 I0.219 J-0.449
X255.376 Y31.698 I0.376 J0.329 F700
X254.624 Y31.04 I-0.376 J-0.329
X255.376 Y31.698 Z-14.455 I0.376 J0.329 F333.3
X254.624 Y31.04 Z-14.51 I-0.376 J-0.329
X255.376 Y31.698 Z-14.565 I0.376 J0.329
X254.624 Y31.04 Z-14.619 I-0.376 J-0.329
X255.376 Y31.698 Z-14.674 I0.376 J0.329
X254.624 Y31.04 Z-14.729 I-0.376 J-0.329
X255.376 Y31.698 Z-14.784 I0.376 J0.329
X254.624 Y31.04 Z-14.839 I-0.376 J-0.329
X255.376 Y31.698 Z-14.894 I0.376 J0.329
X254.624 Y31.04 Z-14.949 I-0.376 J-0.329
X255.376 Y31.698 Z-15.003 I0.376 J0.329
X254.624 Y31.04 Z-15.058 I-0.376 J-0.329
X255.376 Y31.698 Z-15.113 I0.376 J0.329
X254.624 Y31.04 Z-15.168 I-0.376 J-0.329
X255.416 Y31.092 Z-15.2 I0.376 J0.329
X254.584 Y31.646 I-0.416 J0.277 F700
X255.416 Y31.092 I0.416 J-0.277
X254.584 Y31.646 Z-15.255 I-0.416 J0.277 F333.3
X255.416 Y31.092 Z-15.31 I0.416 J-0.277
X254.584 Y31.646 Z-15.365 I-0.416 J0.277
X255.416 Y31.092 Z-15.419 I0.416 J-0.277
X254.584 Y31.646 Z-15.474 I-0.416 J0.277
X255.416 Y31.092 Z-15.529 I0.416 J-0.277
X254.584 Y31.646 Z-15.584 I-0.416 J0.277
X255.416 Y31.092 Z-15.639 I0.416 J-0.277
X254.584 Y31.646 Z-15.694 I-0.416 J0.277
X255.416 Y31.092 Z-15.749 I0.416 J-0.277
X254.584 Y31.646 Z-15.803 I-0.416 J0.277
X255.416 Y31.092 Z-15.858 I0.416 J-0.277
X254.584 Y31.646 Z-15.913 I-0.416 J0.277
X255.416 Y31.092 Z-15.968 I0.416 J-0.277
X255.159 Y31.843 Z-16 I-0.416 J0.277
X254.841 Y30.895 I-0.159 J-0.474 F700
X255.159 Y31.843 I0.159 J0.474
G0 Z6
X255.246 Y30.87
Z2
G1 Z1.8 F700
Z-0.8
X255.269 Y30.869
X300
X301.397
G3 X301.597 Y31.073 I0 J0.2
G1 X301.586 Y31.673
G3 X301.386 Y31.869 I-0.2 J-0.004
G1 X255.263
G3 X255.063 Y31.67 I0 J-0.2
G1 X255.062 Y31.07
G3 X255.246 Y30.87 I0.2 J0
G1 Z-1.6
X255.269 Y30.869
X300
X301.397
G3 X301.597 Y31.073 I0 J0.2
G1 X301.586 Y31.673
G3 X301.386 Y31.869 I-0.2 J-0.004
G1 X255.263
G3 X255.063 Y31.67 I0 J-0.2
G1 X255.062 Y31.07
G3 X255.246 Y30.87 I0.2 J0
G1 Z-2.4
X255.269 Y30.869
X300
X301.397
G3 X301.597 Y31.073 I0 J0.2
G1 X301.586 Y31.673
G3 X301.386 Y31.869 I-0.2 J-0.004
G1 X255.263
G3 X255.063 Y31.67 I0 J-0.2
G1 X255.062 Y31.07
G3 X255.246 Y30.87 I0.2 J0
G1 Z-3.2
X255.269 Y30.869
X300
X301.397
G3 X301.597 Y31.073 I0 J0.2
G1 X301.586 Y31.673
G3 X301.386 Y31.869 I-0.2 J-0.004
G1 X255.263
G3 X255.063 Y31.67 I0 J-0.2
G1 X255.062 Y31.07
G3 X255.246 Y30.87 I0.2 J0
G1 Z-4
X255.269 Y30.869
X300
X301.397
G3 X301.597 Y31.073 I0 J0.2
G1 X301.586 Y31.673
G3 X301.386 Y31.869 I-0.2 J-0.004
G1 X255.263
G0 Z6
X254.55 Y39.219
Z2
G1 Z1.8 F700
Z-0.8 F333.3
G3 X255.45 Y38.019 I0.45 J-0.6 F700
X254.55 Y39.219 I-0.45 J0.6
X255.45 Y38.019 Z-0.882 I0.45 J-0.6 F333.3
X254.55 Y39.219 Z-0.965 I-0.45 J0.6
X255.45 Y38.019 Z-1.047 I0.45 J-0.6
X254.55 Y39.219 Z-1.129 I-0.45 J0.6
X255.45 Y38.019 Z-1.211 I0.45 J-0.6
X254.55 Y39.219 Z-1.294 I-0.45 J0.6
X255.45 Y38.019 Z-1.376 I0.45 J-0.6
X254.55 Y39.219 Z-1.458 I-0.45 J0.6
X255.45 Y38.019 Z-1.541 I0.45 J-0.6
X255.169 Y39.35 Z-1.6 I-0.45 J0.6
X254.831 Y37.888 I-0.169 J-0.731 F700
X255.169 Y39.35 I0.169 J0.731
X254.831 Y37.888 Z-1.682 I-0.169 J-0.731 F333.3
X255.169 Y39.35 Z-1.765 I0.169 J0.731
X254.831 Y37.888 Z-1.847 I-0.169 J-0.731
X255.169 Y39.35 Z-1.929 I0.169 J0.731
X254.831 Y37.888 Z-2.011 I-0.169 J-0.731
X255.169 Y39.35 Z-2.094 I0.169 J0.731
X254.831 Y37.888 Z-2.176 I-0.169 J-0.731
X255.169 Y39.35 Z-2.258 I0.169 J0.731
X254.831 Y37.888 Z-2.341 I-0.169 J-0.731
X255.668 Y38.961 Z-2.4 I0.169 J0.731
X254.332 Y38.277 I-0.668 J-0.342 F700
X255.668 Y38.961 I0.668 J0.342
X254.332 Y38.277 Z-2.482 I-0.668 J-0.342 F333.3
X255.668 Y38.961 Z-2.565 I0.668 J0.342
X254.332 Y38.277 Z-2.647 I-0.668 J-0.342
X255.668 Y38.961 Z-2.729 I0.668 J0.342
X254.332 Y38.277 Z-2.811 I-0.668 J-0.342
X255.668 Y38.961 Z-2.894 I0.668 J0.342
X254.332 Y38.277 Z-2.976 I-0.668 J-0.342
X255.668 Y38.961 Z-3.058 I0.668 J0.342
X254.332 Y38.277 Z-3.141 I-0.668 J-0.342
X255.692 Y38.329 Z-3.2 I0.668 J0.342
X254.308 Y38.91 I-0.692 J0.29 F700
X255.692 Y38.329 I0.692 J-0.29
X254.308 Y38.91 Z-3.282 I-0.692 J0.29 F333.3
X255.692 Y38.329 Z-3.365 I0.692 J-0.29
X254.308 Y38.91 Z-3.447 I-0.692 J0.29
X255.692 Y38.329 Z-3.529 I0.692 J-0.29
X254.308 Y38.91 Z-3.611 I-0.692 J0.29
X255.692 Y38.329 Z-3.694 I0.692 J-0.29
X254.308 Y38.91 Z-3.776 I-0.692 J0.29
X255.692 Y38.329 Z-3.858 I0.692 J-0.29
X254.308 Y38.91 Z-3.941 I-0.692 J0.29
X255.224 Y37.903 Z-4 I0.692 J-0.29
X254.776 Y39.335 I-0.224 J0.716 F700
X255.224 Y37.903 I0.224 J-0.716
X254.776 Y39.335 Z-4.082 I-0.224 J0.716 F333.3
X255.224 Y37.903 Z-4.165 I0.224 J-0.716
X254.776 Y39.335 Z-4.247 I-0.224 J0.716
X255.224 Y37.903 Z-4.329 I0.224 J-0.716
X254.776 Y39.335 Z-4.411 I-0.224 J0.716
X255.224 Y37.903 Z-4.494 I0.224 J-0.716
X254.776 Y39.335 Z-4.576 I-0.224 J0.716
X255.224 Y37.903 Z-4.658 I0.224 J-0.716
X254.776 Y39.335 Z-4.741 I-0.224 J0.716
X254.597 Y37.987 Z-4.8 I0.224 J-0.716
X255.403 Y39.251 I0.403 J0.632 F700
X254.597 Y37.987 I-0.403 J-0.632
X255.403 Y39.251 Z-4.882 I0.403 J0.632 F333.3
X254.597 Y37.987 Z-4.965 I-0.403 J-0.632
X255.403 Y39.251 Z-5.047 I0.403 J0.632
X254.597 Y37.987 Z-5.129 I-0.403 J-0.632
X255.403 Y39.251 Z-5.211 I0.403 J0.632
X254.597 Y37.987 Z-5.294 I-0.403 J-0.632
X255.403 Y39.251 Z-5.376 I0.403 J0.632
X254.597 Y37.987 Z-5.458 I-0.403 J-0.632
X255.403 Y39.251 Z-5.541 I0.403 J0.632
X254.257 Y38.52 Z-5.6 I-0.403 J-0.632
X255.743 Y38.718 I0.743 J0.099 F700
X254.257 Y38.52 I-0.743 J-0.099
X255.743 Y38.718 Z-5.682 I0.743 J0.099 F333.3
X254.257 Y38.52 Z-5.765 I-0.743 J-0.099
X255.743 Y38.718 Z-5.847 I0.743 J0.099
X254.257 Y38.52 Z-5.929 I-0.743 J-0.099
X255.743 Y38.718 Z-6.011 I0.743 J0.099
X254.257 Y38.52 Z-6.094 I-0.743 J-0.099
X255.743 Y38.718 Z-6.176 I0.743 J0.099
X254.257 Y38.52 Z-6.258 I-0.743 J-0.099
X255.743 Y38.718 Z-6.341 I0.743 J0.099
X254.445 Y39.124 Z-6.4 I-0.743 J-0.099
X255.555 Y38.114 I0.555 J-0.505 F700
X254.445 Y39.124 I-0.555 J0.505
X255.555 Y38.114 Z-6.482 I0.555 J-0.505 F333.3
X254.445 Y39.124 Z-6.565 I-0.555 J0.505
X255.555 Y38.114 Z-6.647 I0.555 J-0.505
X254.445 Y39.124 Z-6.729 I-0.555 J0.505
X255.555 Y38.114 Z-6.811 I0.555 J-0.505
X254.445 Y39.124 Z-6.894 I-0.555 J0.505
X255.555 Y38.114 Z-6.976 I0.555 J-0.505
X254.445 Y39.124 Z-7.058 I-0.555 J0.505
X255.555 Y38.114 Z-7.141 I0.555 J-0.505
X255.029 Y39.369 Z-7.2 I-0.555 J0.505
X254.971 Y37.87 I-0.029 J-0.749 F700
X255.029 Y39.369 I0.029 J0.749
X254.971 Y37.87 Z-7.282 I-0.029 J-0.749 F333.3
X255.029 Y39.369 Z-7.365 I0.029 J0.749
X254.971 Y37.87 Z-7.447 I-0.029 J-0.749
X255.029 Y39.369 Z-7.529 I0.029 J0.749
X254.971 Y37.87 Z-7.611 I-0.029 J-0.749
X255.029 Y39.369 Z-7.694 I0.029 J0.749
X254.971 Y37.87 Z-7.776 I-0.029 J-0.749
X255.029 Y39.369 Z-7.858 I0.029 J0.749
X254.971 Y37.87 Z-7.941 I-0.029 J-0.749
X255.591 Y39.08 Z-8 I0.029 J0.749
X254.409 Y38.158 I-0.591 J-0.461 F700
X255.591 Y39.08 I0.591 J0.461
X254.409 Y38.158 Z-8.082 I-0.591 J-0.461 F333.3
X255.591 Y39.08 Z-8.165 I0.591 J0.461
X254.409 Y38.158 Z-8.247 I-0.591 J-0.461
X255.591 Y39.08 Z-8.329 I0.591 J0.461
X254.409 Y38.158 Z-8.411 I-0.591 J-0.461
X255.591 Y39.08 Z-8.494 I0.591 J0.461
X254.409 Y38.158 Z-8.576 I-0.591 J-0.461
X255.591 Y39.08 Z-8.658 I0.591 J0.461
X254.409 Y38.158 Z-8.741 I-0.591 J-0.461
X255.734 Y38.464 Z-8.8 I0.591 J0.461
X254.266 Y38.774 I-0.734 J0.155 F700
X255.734 Y38.464 I0.734 J-0.155
X254.266 Y38.774 Z-8.882 I-0.734 J0.155 F333.3
X255.734 Y38.464 Z-8.965 I0.734 J-0.155
X254.266 Y38.774 Z-9.047 I-0.734 J0.155
X255.734 Y38.464 Z-9.129 I0.734 J-0.155
X254.266 Y38.774 Z-9.211 I-0.734 J0.155
X255.734 Y38.464 Z-9.294 I0.734 J-0.155
X254.266 Y38.774 Z-9.376 I-0.734 J0.155
X255.734 Y38.464 Z-9.458 I0.734 J-0.155
X254.266 Y38.774 Z-9.541 I-0.734 J0.155
X255.354 Y37.958 Z-9.6 I0.734 J-0.155
X254.646 Y39.28 I-0.354 J0.661 F700
X255.354 Y37.958 I0.354 J-0.661
X254.646 Y39.28 Z-9.682 I-0.354 J0.661 F333.3
X255.354 Y37.958 Z-9.765 I0.354 J-0.661
X254.646 Y39.28 Z-9.847 I-0.354 J0.661
X255.354 Y37.958 Z-9.929 I0.354 J-0.661
X254.646 Y39.28 Z-10.011 I-0.354 J0.661
X255.354 Y37.958 Z-10.094 I0.354 J-0.661
X254.646 Y39.28 Z-10.176 I-0.354 J0.661
X255.354 Y37.958 Z-10.258 I0.354 J-0.661
X254.646 Y39.28 Z-10.341 I-0.354 J0.661
X254.723 Y37.922 Z-10.4 I0.354 J-0.661
X255.277 Y39.316 I0.277 J0.697 F700
X254.723 Y37.922 I-0.277 J-0.697
X255.277 Y39.316 Z-10.482 I0.277 J0.697 F333.3
X254.723 Y37.922 Z-10.565 I-0.277 J-0.697
X255.277 Y39.316 Z-10.647 I0.277 J0.697
X254.723 Y37.922 Z-10.729 I-0.277 J-0.697
X255.277 Y39.316 Z-10.811 I0.277 J0.697
X254.723 Y37.922 Z-10.894 I-0.277 J-0.697
X255.277 Y39.316 Z-10.976 I0.277 J0.697
X254.723 Y37.922 Z-11.058 I-0.277 J-0.697
X255.277 Y39.316 Z-11.141 I0.277 J0.697
X254.288 Y38.382 Z-11.2 I-0.277 J-0.697
X255.712 Y38.856 I0.712 J0.237 F700
X254.288 Y38.382 I-0.712 J-0.237
X255.712 Y38.856 Z-11.282 I0.712 J0.237 F333.3
X254.288 Y38.382 Z-11.365 I-0.712 J-0.237
X255.712 Y38.856 Z-11.447 I0.712 J0.237
X254.288 Y38.382 Z-11.529 I-0.712 J-0.237
X255.712 Y38.856 Z-11.611 I0.712 J0.237
X254.288 Y38.382 Z-11.694 I-0.712 J-0.237
X255.712 Y38.856 Z-11.776 I0.712 J0.237
X254.288 Y38.382 Z-11.858 I-0.712 J-0.237
X255.712 Y38.856 Z-11.941 I0.712 J0.237
X254.36 Y39.011 Z-12 I-0.712 J-0.237
X255.64 Y38.228 I0.64 J-0.391 F700
X254.36 Y39.011 I-0.64 J0.391
X255.64 Y38.228 Z-12.082 I0.64 J-0.391 F333.3
X254.36 Y39.011 Z-12.165 I-0.64 J0.391
X255.64 Y38.228 Z-12.247 I0.64 J-0.391
X254.36 Y39.011 Z-12.329 I-0.64 J0.391
X255.64 Y38.228 Z-12.411 I0.64 J-0.391
X254.36 Y39.011 Z-12.494 I-0.64 J0.391
X255.64 Y38.228 Z-12.576 I0.64 J-0.391
X254.36 Y39.011 Z-12.658 I-0.64 J0.391
X255.64 Y38.228 Z-12.741 I0.64 J-0.391
X254.887 Y39.361 Z-12.8 I-0.64 J0.391
X255.113 Y37.878 I0.113 J-0.741 F700
X254.887 Y39.361 I-0.113 J0.741
X255.113 Y37.878 Z-12.882 I0.113 J-0.741 F333.3
X254.887 Y39.361 Z-12.965 I-0.113 J0.741
X255.113 Y37.878 Z-13.047 I0.113 J-0.741
X254.887 Y39.361 Z-13.129 I-0.113 J0.741
X255.113 Y37.878 Z-13.211 I0.113 J-0.741
X254.887 Y39.361 Z-13.294 I-0.113 J0.741
X255.113 Y37.878 Z-13.376 I0.113 J-0.741
X254.887 Y39.361 Z-13.458 I-0.113 J0.741
X255.113 Y37.878 Z-13.541 I0.113 J-0.741
X255.494 Y39.183 Z-13.6 I-0.113 J0.741
X254.506 Y38.055 I-0.494 J-0.564 F700
X255.494 Y39.183 I0.494 J0.564
X254.506 Y38.055 Z-13.682 I-0.494 J-0.564 F333.3
X255.494 Y39.183 Z-13.765 I0.494 J0.564
X254.506 Y38.055 Z-13.847 I-0.494 J-0.564
X255.494 Y39.183 Z-13.929 I0.494 J0.564
X254.506 Y38.055 Z-14.011 I-0.494 J-0.564
X255.494 Y39.183 Z-14.094 I0.494 J0.564
X254.506 Y38.055 Z-14.176 I-0.494 J-0.564
X255.494 Y39.183 Z-14.258 I0.494 J0.564
X254.506 Y38.055 Z-14.341 I-0.494 J-0.564
X255.75 Y38.605 Z-14.4 I0.494 J0.564
X254.25 Y38.634 I-0.75 J0.015 F700
X255.75 Y38.605 I0.75 J-0.015
G1 Y38.619 Z-14.401 F333.3
G3 X254.25 Y38.619 Z-14.483 I-0.75 J0
X255.75 Y38.619 Z-14.565 I0.75 J0
X254.25 Y38.619 Z-14.647 I-0.75 J0
X255.75 Y38.619 Z-14.73 I0.75 J0
X254.25 Y38.619 Z-14.812 I-0.75 J0
X255.75 Y38.619 Z-14.894 I0.75 J0
X254.25 Y38.619 Z-14.976 I-0.75 J0
X255.75 Y38.619 Z-15.059 I0.75 J0
X254.25 Y38.619 Z-15.141 I-0.75 J0
X255.472 Y38.036 Z-15.2 I0.75 J0
X254.528 Y39.202 I-0.472 J0.583 F700
X255.472 Y38.036 I0.472 J-0.583
X254.528 Y39.202 Z-15.282 I-0.472 J0.583 F333.3
X255.472 Y38.036 Z-15.365 I0.472 J-0.583
X254.528 Y39.202 Z-15.447 I-0.472 J0.583
X255.472 Y38.036 Z-15.529 I0.472 J-0.583
X254.528 Y39.202 Z-15.611 I-0.472 J0.583
X255.472 Y38.036 Z-15.694 I0.472 J-0.583
X254.528 Y39.202 Z-15.776 I-0.472 J0.583
X255.472 Y38.036 Z-15.858 I0.472 J-0.583
X254.528 Y39.202 Z-15.941 I-0.472 J0.583
X254.859 Y37.883 Z-16 I0.472 J-0.583
X255.141 Y39.356 I0.141 J0.737 F700
X254.859 Y37.883 I-0.141 J-0.737
G0 Z6
X255.313 Y37.87
Z2
G1 Z1.8 F700
Z-0.8
X255.337 Y37.869
X300
X301.397
G3 X301.597 Y38.072 I0 J0.2
G1 X301.583 Y39.172
G3 X301.383 Y39.369 I-0.2 J-0.002
G1 X255.342
G3 X255.142 Y39.172 I0 J-0.2
G1 X255.129 Y38.072
G3 X255.313 Y37.87 I0.2 J-0.002
G1 Z-1.6
X255.337 Y37.869
X300
X301.397
G3 X301.597 Y38.072 I0 J0.2
G1 X301.583 Y39.172
G3 X301.383 Y39.369 I-0.2 J-0.002
G1 X255.342
G3 X255.142 Y39.172 I0 J-0.2
G1 X255.129 Y38.072
G3 X255.313 Y37.87 I0.2 J-0.002
G1 Z-2.4
X255.337 Y37.869
X300
X301.397
G3 X301.597 Y38.072 I0 J0.2
G1 X301.583 Y39.172
G3 X301.383 Y39.369 I-0.2 J-0.002
G1 X255.342
G3 X255.142 Y39.172 I0 J-0.2
G1 X255.129 Y38.072
G3 X255.313 Y37.87 I0.2 J-0.002
G1 Z-3.2
X255.337 Y37.869
X300
X301.397
G3 X301.597 Y38.072 I0 J0.2
G1 X301.583 Y39.172
G3 X301.383 Y39.369 I-0.2 J-0.002
G1 X255.342
G3 X255.142 Y39.172 I0 J-0.2
G1 X255.129 Y38.072
G3 X255.313 Y37.87 I0.2 J-0.002
G1 Z-4
X255.337 Y37.869
X300
X301.397
G3 X301.597 Y38.072 I0 J0.2
G1 X301.583 Y39.172
G3 X301.383 Y39.369 I-0.2 J-0.002
G1 X255.342
G3 X255.142 Y39.172 I0 J-0.2
G1 X255.129 Y38.072
G3 X255.313 Y37.87 I0.2 J-0.002
G1 Z-4.5
X255.337 Y37.869
X300
X301.397
G3 X301.597 Y38.072 I0 J0.2
G1 X301.583 Y39.172
G3 X301.383 Y39.369 I-0.2 J-0.002
G1 X255.342
G0 Z6
X254.4 Y45.569
Z2
G1 Z1.8 F700
Z-0.8 F333.3
G3 X255.6 Y47.169 I0.6 J0.8 F700
X254.4 Y45.569 I-0.6 J-0.8
X255.6 Y47.169 Z-0.91 I0.6 J0.8 F333.3
X254.4 Y45.569 Z-1.019 I-0.6 J-0.8
X255.6 Y47.169 Z-1.129 I0.6 J0.8
X254.4 Y45.569 Z-1.239 I-0.6 J-0.8
X255.6 Y47.169 Z-1.349 I0.6 J0.8
X254.4 Y45.569 Z-1.458 I-0.6 J-0.8
X255.6 Y47.169 Z-1.568 I0.6 J0.8
X254.729 Y47.332 Z-1.6 I-0.6 J-0.8
X255.271 Y45.407 I0.271 J-0.963 F700
X254.729 Y47.332 I-0.271 J0.963
X255.271 Y45.407 Z-1.71 I0.271 J-0.963 F333.3
X254.729 Y47.332 Z-1.819 I-0.271 J0.963
X255.271 Y45.407 Z-1.929 I0.271 J-0.963
X254.729 Y47.332 Z-2.039 I-0.271 J0.963
X255.271 Y45.407 Z-2.149 I0.271 J-0.963
X254.729 Y47.332 Z-2.258 I-0.271 J0.963
X255.271 Y45.407 Z-2.368 I0.271 J-0.963
X255.929 Y46 Z-2.4 I-0.271 J0.963
X254.071 Y46.739 I-0.929 J0.37 F700
X255.929 Y46 I0.929 J-0.37
X254.071 Y46.739 Z-2.51 I-0.929 J0.37 F333.3
X255.929 Y46 Z-2.619 I0.929 J-0.37
X254.071 Y46.739 Z-2.729 I-0.929 J0.37
X255.929 Y46 Z-2.839 I0.929 J-0.37
X254.071 Y46.739 Z-2.949 I-0.929 J0.37
X255.929 Y46 Z-3.058 I0.929 J-0.37
X254.071 Y46.739 Z-3.168 I-0.929 J0.37
X254.142 Y45.856 Z-3.2 I0.929 J-0.37
X255.858 Y46.883 I0.858 J0.514 F700
X254.142 Y45.856 I-0.858 J-0.514
X255.858 Y46.883 Z-3.31 I0.858 J0.514 F333.3
X254.142 Y45.856 Z-3.419 I-0.858 J-0.514
X255.858 Y46.883 Z-3.529 I0.858 J0.514
X254.142 Y45.856 Z-3.639 I-0.858 J-0.514
X255.858 Y46.883 Z-3.749 I0.858 J0.514
X254.142 Y45.856 Z-3.858 I-0.858 J-0.514
X255.858 Y46.883 Z-3.968 I0.858 J0.514
X255.113 Y47.363 Z-4 I-0.858 J-0.514
X254.887 Y45.376 I-0.113 J-0.994 F700
X255.113 Y47.363 I0.113 J0.994
X254.887 Y45.376 Z-4.11 I-0.113 J-0.994 F333.3
X255.113 Y47.363 Z-4.219 I0.113 J0.994
X254.887 Y45.376 Z-4.329 I-0.113 J-0.994
X255.113 Y47.363 Z-4.439 I0.113 J0.994
X254.887 Y45.376 Z-4.549 I-0.113 J-0.994
X255.113 Y47.363 Z-4.658 I0.113 J0.994
X254.887 Y45.376 Z-4.768 I-0.113 J-0.994
X255.72 Y45.675 Z-4.8 I0.113 J0.994
X254.28 Y47.063 I-0.72 J0.694 F700
X255.72 Y45.675 I0.72 J-0.694
X254.28 Y47.063 Z-4.91 I-0.72 J0.694 F333.3
X255.72 Y45.675 Z-5.019 I0.72 J-0.694
X254.28 Y47.063 Z-5.129 I-0.72 J0.694
X255.72 Y45.675 Z-5.239 I0.72 J-0.694
X254.28 Y47.063 Z-5.349 I-0.72 J0.694
X255.72 Y45.675 Z-5.458 I0.72 J-0.694
X254.28 Y47.063 Z-5.568 I-0.72 J0.694
X254.011 Y46.219 Z-5.6 I0.72 J-0.694
X255.989 Y46.52 I0.989 J0.151 F700
X254.011 Y46.219 I-0.989 J-0.151
X255.989 Y46.52 Z-5.71 I0.989 J0.151 F333.3
X254.011 Y46.219 Z-5.819 I-0.989 J-0.151
X255.989 Y46.52 Z-5.929 I0.989 J0.151
X254.011 Y46.219 Z-6.039 I-0.989 J-0.151
X255.989 Y46.52 Z-6.149 I0.989 J0.151
X254.011 Y46.219 Z-6.258 I-0.989 J-0.151
X255.989 Y46.52 Z-6.368 I0.989 J0.151
X255.481 Y47.246 Z-6.4 I-0.989 J-0.151
X254.519 Y45.492 I-0.481 J-0.877 F700
X255.481 Y47.246 I0.481 J0.877
X254.519 Y45.492 Z-6.51 I-0.481 J-0.877 F333.3
X255.481 Y47.246 Z-6.619 I0.481 J0.877
X254.519 Y45.492 Z-6.729 I-0.481 J-0.877
X255.481 Y47.246 Z-6.839 I0.481 J0.877
X254.519 Y45.492 Z-6.949 I-0.481 J-0.877
X255.481 Y47.246 Z-7.058 I0.481 J0.877
X254.519 Y45.492 Z-7.168 I-0.481 J-0.877
X255.404 Y45.455 Z-7.2 I0.481 J0.877
X254.596 Y47.284 I-0.404 J0.915 F700
X255.404 Y45.455 I0.404 J-0.915
X254.596 Y47.284 Z-7.31 I-0.404 J0.915 F333.3
X255.404 Y45.455 Z-7.419 I0.404 J-0.915
X254.596 Y47.284 Z-7.529 I-0.404 J0.915
X255.404 Y45.455 Z-7.639 I0.404 J-0.915
X254.596 Y47.284 Z-7.749 I-0.404 J0.915
X255.404 Y45.455 Z-7.858 I0.404 J-0.915
X254.596 Y47.284 Z-7.968 I-0.404 J0.915
X254.028 Y46.604 Z-8 I0.404 J-0.915
X255.972 Y46.135 I0.972 J-0.235 F700
X254.028 Y46.604 I-0.972 J0.235
X255.972 Y46.135 Z-8.11 I0.972 J-0.235 F333.3
X254.028 Y46.604 Z-8.219 I-0.972 J0.235
X255.972 Y46.135 Z-8.329 I0.972 J-0.235
X254.028 Y46.604 Z-8.439 I-0.972 J0.235
X255.972 Y46.135 Z-8.549 I0.972 J-0.235
X254.028 Y46.604 Z-8.658 I-0.972 J0.235
X255.972 Y46.135 Z-8.768 I0.972 J-0.235
X255.777 Y46.999 Z-8.8 I-0.972 J0.235
X254.223 Y45.74 I-0.777 J-0.63 F700
X255.777 Y46.999 I0.777 J0.63
X254.223 Y45.74 Z-8.91 I-0.777 J-0.63 F333.3
X255.777 Y46.999 Z-9.019 I0.777 J0.63
X254.223 Y45.74 Z-9.129 I-0.777 J-0.63
X255.777 Y46.999 Z-9.239 I0.777 J0.63
X254.223 Y45.74 Z-9.349 I-0.777 J-0.63
X255.777 Y46.999 Z-9.458 I0.777 J0.63
X254.223 Y45.74 Z-9.568 I-0.777 J-0.63
X255.028 Y45.37 Z-9.6 I0.777 J0.63
X254.972 Y47.369 I-0.028 J1 F700
X255.028 Y45.37 I0.028 J-1
X254.972 Y47.369 Z-9.71 I-0.028 J1 F333.3
X255.028 Y45.37 Z-9.819 I0.028 J-1
X254.972 Y47.369 Z-9.929 I-0.028 J1
X255.028 Y45.37 Z-10.039 I0.028 J-1
X254.972 Y47.369 Z-10.149 I-0.028 J1
X255.028 Y45.37 Z-10.258 I0.028 J-1
X254.972 Y47.369 Z-10.368 I-0.028 J1
X254.189 Y46.954 Z-10.4 I0.028 J-1
X255.811 Y45.784 I0.811 J-0.585 F700
X254.189 Y46.954 I-0.811 J0.585
X255.811 Y45.784 Z-10.51 I0.811 J-0.585 F333.3
X254.189 Y46.954 Z-10.619 I-0.811 J0.585
X255.811 Y45.784 Z-10.729 I0.811 J-0.585
X254.189 Y46.954 Z-10.839 I-0.811 J0.585
X255.811 Y45.784 Z-10.949 I0.811 J-0.585
X254.189 Y46.954 Z-11.058 I-0.811 J0.585
X255.811 Y45.784 Z-11.168 I0.811 J-0.585
X255.957 Y46.658 Z-11.2 I-0.811 J0.585
X254.043 Y46.08 I-0.957 J-0.289 F700
X255.957 Y46.658 I0.957 J0.289
X254.043 Y46.08 Z-11.31 I-0.957 J-0.289 F333.3
X255.957 Y46.658 Z-11.419 I0.957 J0.289
X254.043 Y46.08 Z-11.529 I-0.957 J-0.289
X255.957 Y46.658 Z-11.639 I0.957 J0.289
X254.043 Y46.08 Z-11.749 I-0.957 J-0.289
X255.957 Y46.658 Z-11.858 I0.957 J0.289
X254.043 Y46.08 Z-11.968 I-0.957 J-0.289
X254.648 Y45.433 Z-12 I0.957 J0.289
X255.352 Y47.305 I0.352 J0.936 F700
X254.648 Y45.433 I-0.352 J-0.936
X255.352 Y47.305 Z-12.11 I0.352 J0.936 F333.3
X254.648 Y45.433 Z-12.219 I-0.352 J-0.936
X255.352 Y47.305 Z-12.329 I0.352 J0.936
X254.648 Y45.433 Z-12.439 I-0.352 J-0.936
X255.352 Y47.305 Z-12.549 I0.352 J0.936
X254.648 Y45.433 Z-12.658 I-0.352 J-0.936
X255.352 Y47.305 Z-12.768 I0.352 J0.936
X254.471 Y47.218 Z-12.8 I-0.352 J-0.936
X255.529 Y45.521 I0.529 J-0.848 F700
X254.471 Y47.218 I-0.529 J0.848
X255.529 Y45.521 Z-12.91 I0.529 J-0.848 F333.3
X254.471 Y47.218 Z-13.019 I-0.529 J0.848
X255.529 Y45.521 Z-13.129 I0.529 J-0.848
X254.471 Y47.218 Z-13.239 I-0.529 J0.848
X255.529 Y45.521 Z-13.349 I0.529 J-0.848
X254.471 Y47.218 Z-13.458 I-0.529 J0.848
X255.529 Y45.521 Z-13.568 I0.529 J-0.848
X255.995 Y46.274 Z-13.6 I-0.529 J0.848
X254.005 Y46.464 I-0.995 J0.095 F700
X255.995 Y46.274 I0.995 J-0.095
G1 X256 Y46.369 Z-13.603 F333.3
G3 X254 Y46.369 Z-13.713 I-1 J0
X256 Y46.369 Z-13.823 I1 J0
X254 Y46.369 Z-13.932 I-1 J0
X256 Y46.369 Z-14.042 I1 J0
X254 Y46.369 Z-14.152 I-1 J0
X256 Y46.369 Z-14.262 I1 J0
X254 Y46.369 Z-14.371 I-1 J0
X254.32 Y45.636 Z-14.4 I1 J0
X255.68 Y47.102 I0.68 J0.733 F700
X254.32 Y45.636 I-0.68 J-0.733
G1 X254.4 Y45.569 Z-14.404 F333.3
G3 X255.6 Y47.169 Z-14.513 I0.6 J0.8
X254.4 Y45.569 Z-14.623 I-0.6 J-0.8
X255.6 Y47.169 Z-14.733 I0.6 J0.8
X254.4 Y45.569 Z-14.842 I-0.6 J-0.8
X255.6 Y47.169 Z-14.952 I0.6 J0.8
X254.4 Y45.569 Z-15.062 I-0.6 J-0.8
X255.6 Y47.169 Z-15.172 I0.6 J0.8
X254.831 Y47.355 Z-15.2 I-0.6 J-0.8
X255.169 Y45.384 I0.169 J-0.986 F700
X254.831 Y47.355 I-0.169 J0.986
X255.169 Y45.384 Z-15.31 I0.169 J-0.986 F333.3
X254.831 Y47.355 Z-15.419 I-0.169 J0.986
X255.169 Y45.384 Z-15.529 I0.169 J-0.986
X254.831 Y47.355 Z-15.639 I-0.169 J0.986
X255.169 Y45.384 Z-15.749 I0.169 J-0.986
X254.831 Y47.355 Z-15.858 I-0.169 J0.986
X255.169 Y45.384 Z-15.968 I0.169 J-0.986
X255.886 Y45.905 Z-16 I-0.169 J0.986
X254.114 Y46.834 I-0.886 J0.464 F700
X255.886 Y45.905 I0.886 J-0.464
G0 Z6
X255.347 Y45.37
Z2
G1 Z1.8 F700
Z-0.8
X255.37 Y45.369
X300
X301.397
G3 X301.597 Y45.57 I0 J0.2
G1 X301.587 Y47.17
G3 X301.387 Y47.369 I-0.2 J-0.001
G1 X255.368
G3 X255.168 Y47.17 I0 J-0.2
G1 X255.163 Y45.57
G3 X255.347 Y45.37 I0.2 J-0.001
G1 Z-1.6
X255.37 Y45.369
X300
X301.397
G3 X301.597 Y45.57 I0 J0.2
G1 X301.587 Y47.17
G3 X301.387 Y47.369 I-0.2 J-0.001
G1 X255.368
G3 X255.168 Y47.17 I0 J-0.2
G1 X255.163 Y45.57
G3 X255.347 Y45.37 I0.2 J-0.001
G1 Z-2.4
X255.37 Y45.369
X300
X301.397
G3 X301.597 Y45.57 I0 J0.2
G1 X301.587 Y47.17
G3 X301.387 Y47.369 I-0.2 J-0.001
G1 X255.368
G3 X255.168 Y47.17 I0 J-0.2
G1 X255.163 Y45.57
G3 X255.347 Y45.37 I0.2 J-0.001
G1 Z-3.2
X255.37 Y45.369
X300
X301.397
G3 X301.597 Y45.57 I0 J0.2
G1 X301.587 Y47.17
G3 X301.387 Y47.369 I-0.2 J-0.001
G1 X255.368
G3 X255.168 Y47.17 I0 J-0.2
G1 X255.163 Y45.57
G3 X255.347 Y45.37 I0.2 J-0.001
G1 Z-4
X255.37 Y45.369
X300
X301.397
G3 X301.597 Y45.57 I0 J0.2
G1 X301.587 Y47.17
G3 X301.387 Y47.369 I-0.2 J-0.001
G1 X255.368
G3 X255.168 Y47.17 I0 J-0.2
G1 X255.163 Y45.57
G3 X255.347 Y45.37 I0.2 J-0.001
G1 Z-4.8
X255.37 Y45.369
X300
X301.397
G3 X301.597 Y45.57 I0 J0.2
G1 X301.587 Y47.17
G3 X301.387 Y47.369 I-0.2 J-0.001
G1 X255.368
G3 X255.168 Y47.17 I0 J-0.2
G1 X255.163 Y45.57
G3 X255.347 Y45.37 I0.2 J-0.001
G1 Z-5
X255.37 Y45.369
X300
X301.397
G3 X301.597 Y45.57 I0 J0.2
G1 X301.587 Y47.17
G3 X301.387 Y47.369 I-0.2 J-0.001
G1 X255.368
G0 Z6
X301.41 Y55.368
Z2
G1 Z1.8 F700
Z-0.8
X301.386 Y55.369
X246.916
G3 X241.416 Y49.869 I0 J-5.5
G1 Y28.369
X243.416
Y49.869
G2 X246.916 Y53.369 I3.5 J0
G1 X300
X301.397
X246.916 Z-1.059 F333.3
G3 X243.416 Y49.869 Z-1.085 I0 J-3.5
G1 Y28.369 Z-1.188
X241.416 Z-1.197
Y49.869 Z-1.3
G2 X246.916 Y55.369 Z-1.341 I5.5 J0
G1 X301.386 Z-1.6
X246.916 F700
G3 X241.416 Y49.869 I0 J-5.5
G1 Y28.369
X243.416
Y49.869
G2 X246.916 Y53.369 I3.5 J0
G1 X300
X301.397
X246.916 Z-1.859 F333.3
G3 X243.416 Y49.869 Z-1.885 I0 J-3.5
G1 Y28.369 Z-1.988
X241.416 Z-1.997
Y49.869 Z-2.1
G2 X246.916 Y55.369 Z-2.141 I5.5 J0
G1 X301.386 Z-2.4
X246.916 F700
G3 X241.416 Y49.869 I0 J-5.5
G1 Y28.369
X243.416
Y49.869
G2 X246.916 Y53.369 I3.5 J0
G1 X300
X301.397
X246.916 Z-2.659 F333.3
G3 X243.416 Y49.869 Z-2.685 I0 J-3.5
G1 Y28.369 Z-2.788
X241.416 Z-2.797
Y49.869 Z-2.9
G2 X246.916 Y55.369 Z-2.941 I5.5 J0
G1 X301.386 Z-3.2
X246.916 F700
G3 X241.416 Y49.869 I0 J-5.5
G1 Y28.369
X243.416
Y49.869
G2 X246.916 Y53.369 I3.5 J0
G1 X300
X301.397
X246.916 Z-3.459 F333.3
G3 X243.416 Y49.869 Z-3.485 I0 J-3.5
G1 Y28.369 Z-3.588
X241.416 Z-3.597
Y49.869 Z-3.7
G2 X246.916 Y55.369 Z-3.741 I5.5 J0
G1 X301.386 Z-4
X246.916 F700
G3 X241.416 Y49.869 I0 J-5.5
G1 Y28.369
X243.416
Y49.869
G2 X246.916 Y53.369 I3.5 J0
G1 X300
X301.397
X246.916 Z-4.259 F333.3
G3 X243.416 Y49.869 Z-4.285 I0 J-3.5
G1 Y28.369 Z-4.388
X241.416 Z-4.397
Y49.869 Z-4.5
G2 X246.916 Y55.369 Z-4.541 I5.5 J0
G1 X301.386 Z-4.8
X246.916 F700
G3 X241.416 Y49.869 I0 J-5.5
G1 Y28.369
X243.416
Y49.869
G2 X246.916 Y53.369 I3.5 J0
G1 X300
X301.397
X246.916 Z-5.059 F333.3
G3 X243.416 Y49.869 Z-5.085 I0 J-3.5
G1 Y28.369 Z-5.188
X241.416 Z-5.197
Y49.869 Z-5.3
G2 X246.916 Y55.369 Z-5.341 I5.5 J0
G1 X301.386 Z-5.6
X246.916 F700
G3 X241.416 Y49.869 I0 J-5.5
G1 Y28.369
X243.416
Y49.869
G2 X246.916 Y53.369 I3.5 J0
G1 X300
X301.397
X246.916 Z-5.73 F333.3
G3 X243.416 Y49.869 Z-5.743 I0 J-3.5
G1 Y28.369 Z-5.794
X241.416 Z-5.799
Y49.869 Z-5.85
G2 X246.916 Y55.369 Z-5.87 I5.5 J0
G1 X301.386 Z-6
X246.916 F700
G3 X241.416 Y49.869 I0 J-5.5
G1 Y28.369
X243.416
Y49.869
G2 X246.916 Y53.369 I3.5 J0
G1 X300
X301.397
G0 Z6
X301.407 Y73.86
Z2
G1 Z1.8 F700
Z-0.8
X301.384
X263.884 Y73.843
G2 X259.165 Y76.665 I0 J5.356
X254.306 Y77.295 I0 J19.046
G3 X252.123 Y72.908 I-0.638 J-2.419
X252.579 Y73.489 I0.228 J0.29
X252.123 Y72.908 I-0.228 J-0.29
G2 X252.787 Y71.51 I-1.072 J-1.365
G3 X254.167 Y70.807 I0.86 J-0.017
X255.015 Y71.813 I-1.813 J2.391
G2 X255.375 Y72.405 I4.674 J-2.432
G1 X255.731 Y72.914
G3 X255.731 Y73.484 I-0.407 J0.285
G1 X255.375 Y73.992
G2 X255.015 Y74.585 I4.314 J3.024
G3 X249.352 Y73.199 I-2.662 J-1.385
X254.167 Y70.807 I3.001 J0
G2 X256.082 Y71.167 I1.317 J-1.737
G3 X257.939 Y71.757 I0.483 J1.696
G1 X258.093 Y71.941
G2 X259.205 Y73.013 I6.541 J-5.674
G3 X259.205 Y73.384 I-0.149 J0.186
G2 X258.093 Y74.456 I5.429 J6.746
X257.224 Y75.734 I4.981 J4.321
G3 X246.858 Y73.199 I-4.873 J-2.535
X257.224 Y70.664 I5.493 J0
G2 X257.939 Y71.757 I5.85 J-3.043
G1 X257.97 Y71.802
X258.583 Y72.8
G3 X257.848 Y73.251 I-0.367 J0.225
X258.224 Y72.595 I0.367 J-0.225
G1 X301.012 Y73.48
X301.425 Y73.619
X301.462 Y73.64
X301.49 Y73.673
X301.506 Y73.713
Y73.757
X301.491 Y73.797
X301.464 Y73.83
X301.426 Y73.852
X301.384 Y73.86
X263.884 Y73.843
G2 X259.133 Y76.727 I0 J5.356
G3 X244.707 Y73.199 I-6.781 J-3.528
X259.133 Y69.671 I7.644 J0
G2 X263.884 Y72.555 I4.751 J-2.472
G1 X301.395 Y72.538
G3 X301.595 Y72.738 I0 J0.2
G1 X301.596 Y75.069
G3 X301.396 Y75.269 I-0.2 J0
G1 X263.884 Y75.252
G2 X260.383 Y77.377 I0 J3.947
G3 X243.298 Y73.199 I-8.032 J-4.178
X260.383 Y69.02 I9.054 J0
G2 X263.884 Y71.145 I3.501 J-1.821
G1 X301.395 Y71.129
G3 X301.595 Y71.329 I0 J0.2
G1 X301.591 Y77.499
G3 X301.391 Y77.699 I-0.2 J0
G1 X263.884
G2 X262.553 Y78.506 I0 J1.5
G3 X240.851 Y73.199 I-10.202 J-5.308
X262.553 Y67.891 I11.5 J0
G2 X263.884 Y68.699 I1.331 J-0.692
G1 X300
X301.397
G3 X301.597 Y68.898 I0 J0.2
G1 X301.607 Y73.659
G3 X301.407 Y73.86 I-0.2 J0
G1 Z-1.6
X301.384
X263.884 Y73.843
G2 X259.165 Y76.665 I0 J5.356
X254.306 Y77.295 I0 J19.046
G3 X252.123 Y72.908 I-0.638 J-2.419
X252.579 Y73.489 I0.228 J0.29
X252.123 Y72.908 I-0.228 J-0.29
G2 X252.787 Y71.51 I-1.072 J-1.365
G3 X254.167 Y70.807 I0.86 J-0.017
X255.015 Y71.813 I-1.813 J2.391
G2 X255.375 Y72.405 I4.674 J-2.432
G1 X255.731 Y72.914
G3 X255.731 Y73.484 I-0.407 J0.285
G1 X255.375 Y73.992
G2 X255.015 Y74.585 I4.314 J3.024
G3 X249.352 Y73.199 I-2.662 J-1.385
X254.167 Y70.807 I3.001 J0
G2 X256.082 Y71.167 I1.317 J-1.737
G3 X257.939 Y71.757 I0.483 J1.696
G1 X258.093 Y71.941
G2 X259.205 Y73.013 I6.541 J-5.674
G3 X259.205 Y73.384 I-0.149 J0.186
G2 X258.093 Y74.456 I5.429 J6.746
X257.224 Y75.734 I4.981 J4.321
G3 X246.858 Y73.199 I-4.873 J-2.535
X257.224 Y70.664 I5.493 J0
G2 X257.939 Y71.757 I5.85 J-3.043
G1 X257.97 Y71.802
X258.583 Y72.8
G3 X257.848 Y73.251 I-0.367 J0.225
X258.224 Y72.595 I0.367 J-0.225
G1 X301.012 Y73.48
X301.425 Y73.619
X301.462 Y73.64
X301.49 Y73.673
X301.506 Y73.713
Y73.757
X301.491 Y73.797
X301.464 Y73.83
X301.426 Y73.852
X301.384 Y73.86
X263.884 Y73.843
G2 X259.133 Y76.727 I0 J5.356
G3 X244.707 Y73.199 I-6.781 J-3.528
X259.133 Y69.671 I7.644 J0
G2 X263.884 Y72.555 I4.751 J-2.472
G1 X301.395 Y72.538
G3 X301.595 Y72.738 I0 J0.2
G1 X301.596 Y75.069
G3 X301.396 Y75.269 I-0.2 J0
G1 X263.884 Y75.252
G2 X260.383 Y77.377 I0 J3.947
G3 X243.298 Y73.199 I-8.032 J-4.178
X260.383 Y69.02 I9.054 J0
G2 X263.884 Y71.145 I3.501 J-1.821
G1 X301.395 Y71.129
G3 X301.595 Y71.329 I0 J0.2
G1 X301.591 Y77.499
G3 X301.391 Y77.699 I-0.2 J0
G1 X263.884
G2 X262.553 Y78.506 I0 J1.5
G3 X240.851 Y73.199 I-10.202 J-5.308
X262.553 Y67.891 I11.5 J0
G2 X263.884 Y68.699 I1.331 J-0.692
G1 X300
X301.397
G3 X301.597 Y68.898 I0 J0.2
G1 X301.607 Y73.659
G3 X301.407 Y73.86 I-0.2 J0
G1 Z-2.4
X301.384
X263.884 Y73.843
G2 X259.165 Y76.665 I0 J5.356
X254.306 Y77.295 I0 J19.046
G3 X252.123 Y72.908 I-0.638 J-2.419
X252.579 Y73.489 I0.228 J0.29
X252.123 Y72.908 I-0.228 J-0.29
G2 X252.787 Y71.51 I-1.072 J-1.365
G3 X254.167 Y70.807 I0.86 J-0.017
X255.015 Y71.813 I-1.813 J2.391
G2 X255.375 Y72.405 I4.674 J-2.432
G1 X255.731 Y72.914
G3 X255.731 Y73.484 I-0.407 J0.285
G1 X255.375 Y73.992
G2 X255.015 Y74.585 I4.314 J3.024
G3 X249.352 Y73.199 I-2.662 J-1.385
X254.167 Y70.807 I3.001 J0
G2 X256.082 Y71.167 I1.317 J-1.737
G3 X257.939 Y71.757 I0.483 J1.696
G1 X258.093 Y71.941
G2 X259.205 Y73.013 I6.541 J-5.674
G3 X259.205 Y73.384 I-0.149 J0.186
G2 X258.093 Y74.456 I5.429 J6.746
X257.224 Y75.734 I4.981 J4.321
G3 X246.858 Y73.199 I-4.873 J-2.535
X257.224 Y70.664 I5.493 J0
G2 X257.939 Y71.757 I5.85 J-3.043
G1 X257.97 Y71.802
X258.583 Y72.8
G3 X257.848 Y73.251 I-0.367 J0.225
X258.224 Y72.595 I0.367 J-0.225
G1 X301.012 Y73.48
X301.425 Y73.619
X301.462 Y73.64
X301.49 Y73.673
X301.506 Y73.713
Y73.757
X301.491 Y73.797
X301.464 Y73.83
X301.426 Y73.852
X301.384 Y73.86
X263.884 Y73.843
G2 X259.133 Y76.727 I0 J5.356
G3 X244.707 Y73.199 I-6.781 J-3.528
X259.133 Y69.671 I7.644 J0
G2 X263.884 Y72.555 I4.751 J-2.472
G1 X301.395 Y72.538
G3 X301.595 Y72.738 I0 J0.2
G1 X301.596 Y75.069
G3 X301.396 Y75.269 I-0.2 J0
G1 X263.884 Y75.252
G2 X260.383 Y77.377 I0 J3.947
G3 X243.298 Y73.199 I-8.032 J-4.178
X260.383 Y69.02 I9.054 J0
G2 X263.884 Y71.145 I3.501 J-1.821
G1 X301.395 Y71.129
G3 X301.595 Y71.329 I0 J0.2
G1 X301.591 Y77.499
G3 X301.391 Y77.699 I-0.2 J0
G1 X263.884
G2 X262.553 Y78.506 I0 J1.5
G3 X240.851 Y73.199 I-10.202 J-5.308
X262.553 Y67.891 I11.5 J0
G2 X263.884 Y68.699 I1.331 J-0.692
G1 X300
X301.397
G3 X301.597 Y68.898 I0 J0.2
G1 X301.607 Y73.659
G3 X301.407 Y73.86 I-0.2 J0
G1 Z-3
X301.384
X263.884 Y73.843
G2 X259.165 Y76.665 I0 J5.356
X254.306 Y77.295 I0 J19.046
G3 X252.123 Y72.908 I-0.638 J-2.419
X252.579 Y73.489 I0.228 J0.29
X252.123 Y72.908 I-0.228 J-0.29
G2 X252.787 Y71.51 I-1.072 J-1.365
G3 X254.167 Y70.807 I0.86 J-0.017
X255.015 Y71.813 I-1.813 J2.391
G2 X255.375 Y72.405 I4.674 J-2.432
G1 X255.731 Y72.914
G3 X255.731 Y73.484 I-0.407 J0.285
G1 X255.375 Y73.992
G2 X255.015 Y74.585 I4.314 J3.024
G3 X249.352 Y73.199 I-2.662 J-1.385
X254.167 Y70.807 I3.001 J0
G2 X256.082 Y71.167 I1.317 J-1.737
G3 X257.939 Y71.757 I0.483 J1.696
G1 X258.093 Y71.941
G2 X259.205 Y73.013 I6.541 J-5.674
G3 X259.205 Y73.384 I-0.149 J0.186
G2 X258.093 Y74.456 I5.429 J6.746
X257.224 Y75.734 I4.981 J4.321
G3 X246.858 Y73.199 I-4.873 J-2.535
X257.224 Y70.664 I5.493 J0
G2 X257.939 Y71.757 I5.85 J-3.043
G1 X257.97 Y71.802
X258.583 Y72.8
G3 X257.848 Y73.251 I-0.367 J0.225
X258.224 Y72.595 I0.367 J-0.225
G1 X301.012 Y73.48
X301.425 Y73.619
X301.462 Y73.64
X301.49 Y73.673
X301.506 Y73.713
Y73.757
X301.491 Y73.797
X301.464 Y73.83
X301.426 Y73.852
X301.384 Y73.86
X263.884 Y73.843
G2 X259.133 Y76.727 I0 J5.356
G3 X244.707 Y73.199 I-6.781 J-3.528
X259.133 Y69.671 I7.644 J0
G2 X263.884 Y72.555 I4.751 J-2.472
G1 X301.395 Y72.538
G3 X301.595 Y72.738 I0 J0.2
G1 X301.596 Y75.069
G3 X301.396 Y75.269 I-0.2 J0
G1 X263.884 Y75.252
G2 X260.383 Y77.377 I0 J3.947
G3 X243.298 Y73.199 I-8.032 J-4.178
X260.383 Y69.02 I9.054 J0
G2 X263.884 Y71.145 I3.501 J-1.821
G1 X301.395 Y71.129
G3 X301.595 Y71.329 I0 J0.2
G1 X301.591 Y77.499
G3 X301.391 Y77.699 I-0.2 J0
G1 X263.884
G2 X262.553 Y78.506 I0 J1.5
G3 X240.851 Y73.199 I-10.202 J-5.308
X262.553 Y67.891 I11.5 J0
G2 X263.884 Y68.699 I1.331 J-0.692
G1 X300
X301.397
G0 Z6
X301.402 Y92.336
Z2
G1 Z1.8 F700
Z-0.8
X301.39
X282.292 Y92.322
G2 X277.992 Y94.485 I0 J5.356
G3 X274.878 Y94.061 I0 J-11.664
X272.28 Y92.294 I1.306 J-4.715
X272.073 Y91.678 I0.816 J-0.616
X272.795 Y90.7 I1.023 J0
X273.938 Y91.114 I0.297 J0.965
G1 X274.038 Y91.254
X274.139 Y91.393
G3 X274.139 Y91.963 I-0.407 J0.285
G1 X274.038 Y92.101
X273.938 Y92.242
G3 X272.795 Y92.656 I-0.846 J-0.55
X272.28 Y92.294 I0.301 J-0.978
G2 X270.803 Y91.604 I-1.39 J1.05
G3 X269.88 Y90.26 I-0.048 J-0.956
X276 Y89.773 I3.192 J1.418
G2 X276.738 Y90.696 I5.089 J-3.312
X277.613 Y91.492 I6.996 J-6.811
G3 X277.613 Y91.864 I-0.149 J0.186
G2 X276.738 Y92.659 I6.121 J7.607
X276 Y93.583 I4.351 J4.236
G3 X269.579 Y91.678 I-2.928 J-1.905
X269.88 Y90.26 I3.493 J0
X270.365 Y90.072 I0.337 J0.15
G1 X271.863 Y90.729
X271.927 Y90.751
X271.994 Y90.76
X301.182 Y92.118
X301.415 Y92.202
X301.441 Y92.22
X301.457 Y92.247
X301.459 Y92.279
X301.446 Y92.309
X301.421 Y92.329
X301.39 Y92.336
X282.292 Y92.322
G2 X277.803 Y94.757 I0 J5.356
G3 X267.428 Y91.678 I-4.731 J-3.079
X277.803 Y88.599 I5.644 J0
G2 X282.292 Y91.034 I4.489 J-2.921
G1 X301.392 Y91.019
G3 X301.593 Y91.22 I0 J0.2
G1 X301.586 Y93.546
G3 X301.386 Y93.745 I-0.2 J-0.001
G1 X282.292 Y93.731
G2 X278.984 Y95.525 I0 J3.947
G3 X266.019 Y91.678 I-5.912 J-3.847
X278.984 Y87.831 I7.054 J0
G2 X282.292 Y89.625 I3.308 J-2.153
G1 X301.392 Y89.61
G3 X301.593 Y89.81 I0 J0.2
G1 X301.597 Y95.978
G3 X301.397 Y96.178 I-0.2 J0
G1 X282.292
G2 X281.035 Y96.86 I0 J1.5
G3 X263.572 Y91.678 I-7.963 J-5.182
X281.035 Y86.496 I9.5 J0
G2 X282.292 Y87.178 I1.257 J-0.818
G1 X300
X301.397
G3 X301.553 Y90.019 Z-0.899 I0 J1.425 F333.3
G1 X273.654 Y93.094 Z-1.545
G3 X272.073 Y91.678 Z-1.6 I-0.156 J-1.416
X272.795 Y90.7 I1.023 J0 F700
X273.938 Y91.114 I0.297 J0.965
G1 X274.038 Y91.254
X274.139 Y91.393
G3 X274.139 Y91.963 I-0.407 J0.285
G1 X274.038 Y92.101
X273.938 Y92.242
G3 X272.795 Y92.656 I-0.846 J-0.55
X272.073 Y91.678 I0.301 J-0.978
G2 X271.315 Y90.238 I-1.747 J0
G3 X271.398 Y88.612 I0.541 J-0.787
X276 Y89.773 I1.674 J3.066
G2 X276.738 Y90.696 I5.089 J-3.312
X277.613 Y91.492 I6.996 J-6.811
G3 X277.613 Y91.864 I-0.149 J0.186
G2 X276.738 Y92.659 I6.121 J7.607
X276 Y93.583 I4.351 J4.236
G3 X269.579 Y91.678 I-2.928 J-1.905
X271.398 Y88.612 I3.493 J0
X272.395 Y88.724 I0.418 J0.766
G1 X274.722 Y90.778
G2 X275.272 Y90.996 I0.578 J-0.655
G1 X300.897 Y91.827
X300.923 Y91.829
X300.948 Y91.836
X301.446 Y92.017
G3 X301.39 Y92.336 I-0.056 J0.155
G1 X282.292 Y92.322
G2 X277.803 Y94.757 I0 J5.356
G3 X267.428 Y91.678 I-4.731 J-3.079
X277.803 Y88.599 I5.644 J0
G2 X282.292 Y91.034 I4.489 J-2.921
G1 X301.392 Y91.019
G3 X301.593 Y91.22 I0 J0.2
G1 X301.586 Y93.546
G3 X301.386 Y93.745 I-0.2 J-0.001
G1 X282.292 Y93.731
G2 X278.984 Y95.525 I0 J3.947
G3 X266.019 Y91.678 I-5.912 J-3.847
X278.984 Y87.831 I7.054 J0
G2 X282.292 Y89.625 I3.308 J-2.153
G1 X301.392 Y89.61
G3 X301.593 Y89.81 I0 J0.2
G1 X301.597 Y95.978
G3 X301.397 Y96.178 I-0.2 J0
G1 X282.292
G2 X281.035 Y96.86 I0 J1.5
G3 X263.572 Y91.678 I-7.963 J-5.182
X281.035 Y86.496 I9.5 J0
G2 X282.292 Y87.178 I1.257 J-0.818
G1 X300
X301.397
G3 X301.553 Y90.019 Z-1.699 I0 J1.425 F333.3
G1 X273.654 Y93.094 Z-2.345
G3 X272.073 Y91.678 Z-2.4 I-0.156 J-1.416
X272.795 Y90.7 I1.023 J0 F700
X273.938 Y91.114 I0.297 J0.965
G1 X274.038 Y91.254
X274.139 Y91.393
G3 X274.139 Y91.963 I-0.407 J0.285
G1 X274.038 Y92.101
X273.938 Y92.242
G3 X272.795 Y92.656 I-0.846 J-0.55
X272.073 Y91.678 I0.301 J-0.978
G2 X271.315 Y90.238 I-1.747 J0
G3 X271.398 Y88.612 I0.541 J-0.787
X276 Y89.773 I1.674 J3.066
G2 X276.738 Y90.696 I5.089 J-3.312
X277.613 Y91.492 I6.996 J-6.811
G3 X277.613 Y91.864 I-0.149 J0.186
G2 X276.738 Y92.659 I6.121 J7.607
X276 Y93.583 I4.351 J4.236
G3 X269.579 Y91.678 I-2.928 J-1.905
X271.398 Y88.612 I3.493 J0
X272.395 Y88.724 I0.418 J0.766
G1 X274.722 Y90.778
G2 X275.272 Y90.996 I0.578 J-0.655
G1 X300.897 Y91.827
X300.923 Y91.829
X300.948 Y91.836
X301.446 Y92.017
G3 X301.39 Y92.336 I-0.056 J0.155
G1 X282.292 Y92.322
G2 X277.803 Y94.757 I0 J5.356
G3 X267.428 Y91.678 I-4.731 J-3.079
X277.803 Y88.599 I5.644 J0
G2 X282.292 Y91.034 I4.489 J-2.921
G1 X301.392 Y91.019
G3 X301.593 Y91.22 I0 J0.2
G1 X301.586 Y93.546
G3 X301.386 Y93.745 I-0.2 J-0.001
G1 X282.292 Y93.731
G2 X278.984 Y95.525 I0 J3.947
G3 X266.019 Y91.678 I-5.912 J-3.847
X278.984 Y87.831 I7.054 J0
G2 X282.292 Y89.625 I3.308 J-2.153
G1 X301.392 Y89.61
G3 X301.593 Y89.81 I0 J0.2
G1 X301.597 Y95.978
G3 X301.397 Y96.178 I-0.2 J0
G1 X282.292
G2 X281.035 Y96.86 I0 J1.5
G3 X263.572 Y91.678 I-7.963 J-5.182
X281.035 Y86.496 I9.5 J0
G2 X282.292 Y87.178 I1.257 J-0.818
G1 X300
X301.397
G3 X301.553 Y90.019 Z-2.475 I0 J1.425 F333.3
G1 X273.654 Y93.094 Z-2.959
G3 X272.073 Y91.678 Z-3 I-0.156 J-1.416
X272.795 Y90.7 I1.023 J0 F700
X273.938 Y91.114 I0.297 J0.965
G1 X274.038 Y91.254
X274.139 Y91.393
G3 X274.139 Y91.963 I-0.407 J0.285
G1 X274.038 Y92.101
X273.938 Y92.242
G3 X272.795 Y92.656 I-0.846 J-0.55
X272.073 Y91.678 I0.301 J-0.978
G2 X271.315 Y90.238 I-1.747 J0
G3 X271.398 Y88.612 I0.541 J-0.787
X276 Y89.773 I1.674 J3.066
G2 X276.738 Y90.696 I5.089 J-3.312
X277.613 Y91.492 I6.996 J-6.811
G3 X277.613 Y91.864 I-0.149 J0.186
G2 X276.738 Y92.659 I6.121 J7.607
X276 Y93.583 I4.351 J4.236
G3 X269.579 Y91.678 I-2.928 J-1.905
X271.398 Y88.612 I3.493 J0
X272.395 Y88.724 I0.418 J0.766
G1 X274.722 Y90.778
G2 X275.272 Y90.996 I0.578 J-0.655
G1 X300.897 Y91.827
X300.923 Y91.829
X300.948 Y91.836
X301.446 Y92.017
G3 X301.39 Y92.336 I-0.056 J0.155
G1 X282.292 Y92.322
G2 X277.803 Y94.757 I0 J5.356
G3 X267.428 Y91.678 I-4.731 J-3.079
X277.803 Y88.599 I5.644 J0
G2 X282.292 Y91.034 I4.489 J-2.921
G1 X301.392 Y91.019
G3 X301.593 Y91.22 I0 J0.2
G1 X301.586 Y93.546
G3 X301.386 Y93.745 I-0.2 J-0.001
G1 X282.292 Y93.731
G2 X278.984 Y95.525 I0 J3.947
G3 X266.019 Y91.678 I-5.912 J-3.847
X278.984 Y87.831 I7.054 J0
G2 X282.292 Y89.625 I3.308 J-2.153
G1 X301.392 Y89.61
G3 X301.593 Y89.81 I0 J0.2
G1 X301.597 Y95.978
G3 X301.397 Y96.178 I-0.2 J0
G1 X282.292
G2 X281.035 Y96.86 I0 J1.5
G3 X263.572 Y91.678 I-7.963 J-5.182
X281.035 Y86.496 I9.5 J0
G2 X282.292 Y87.178 I1.257 J-0.818
G1 X300
X301.397
G0 Z6
X301.407 Y110.86
Z2
G1 Z1.8 F700
Z-0.8
X301.384
X263.884 Y110.843
G2 X259.165 Y113.665 I0 J5.356
X254.306 Y114.295 I0 J19.046
G3 X252.123 Y109.909 I-0.638 J-2.419
X252.579 Y110.489 I0.228 J0.29
X252.123 Y109.909 I-0.228 J-0.29
G2 X252.787 Y108.51 I-1.072 J-1.365
G3 X254.167 Y107.808 I0.86 J-0.017
X255.015 Y108.813 I-1.813 J2.391
G2 X255.375 Y109.406 I4.674 J-2.432
G1 X255.731 Y109.914
G3 X255.731 Y110.484 I-0.407 J0.285
G1 X255.375 Y110.992
G2 X255.015 Y111.585 I4.314 J3.024
G3 X249.352 Y110.199 I-2.662 J-1.385
X254.167 Y107.808 I3.001 J0
G2 X256.082 Y108.167 I1.317 J-1.737
G3 X257.939 Y108.757 I0.483 J1.696
G1 X258.093 Y108.941
G2 X259.205 Y110.013 I6.541 J-5.674
G3 X259.205 Y110.385 I-0.149 J0.186
G2 X258.093 Y111.457 I5.429 J6.746
X257.224 Y112.734 I4.981 J4.321
G3 X246.858 Y110.199 I-4.873 J-2.535
X257.224 Y107.664 I5.493 J0
G2 X257.939 Y108.757 I5.85 J-3.043
G1 X257.97 Y108.802
X258.583 Y109.8
G3 X257.848 Y110.251 I-0.367 J0.225
X258.224 Y109.595 I0.367 J-0.225
G1 X301.012 Y110.48
X301.425 Y110.619
X301.462 Y110.64
X301.49 Y110.673
X301.506 Y110.714
Y110.757
X301.491 Y110.798
X301.464 Y110.831
X301.426 Y110.852
X301.384 Y110.86
X263.884 Y110.843
G2 X259.133 Y113.727 I0 J5.356
G3 X244.707 Y110.199 I-6.781 J-3.528
X259.133 Y106.671 I7.644 J0
G2 X263.884 Y109.555 I4.751 J-2.472
G1 X301.395 Y109.538
G3 X301.595 Y109.738 I0 J0.2
G1 X301.596 Y112.069
G3 X301.396 Y112.269 I-0.2 J0
G1 X263.884 Y112.252
G2 X260.383 Y114.378 I0 J3.947
G3 X243.298 Y110.199 I-8.032 J-4.178
X260.383 Y106.02 I9.054 J0
G2 X263.884 Y108.146 I3.501 J-1.821
G1 X301.395 Y108.129
G3 X301.595 Y108.329 I0 J0.2
G1 X301.591 Y114.499
G3 X301.391 Y114.699 I-0.2 J0
G1 X263.884
G2 X262.553 Y115.507 I0 J1.5
G3 X240.851 Y110.199 I-10.202 J-5.308
X262.553 Y104.891 I11.5 J0
G2 X263.884 Y105.699 I1.331 J-0.692
G1 X300
X301.397
G3 X301.597 Y105.899 I0 J0.2
G1 X301.607 Y110.66
G3 X301.407 Y110.86 I-0.2 J0
G1 Z-1.6
X301.384
X263.884 Y110.843
G2 X259.165 Y113.665 I0 J5.356
X254.306 Y114.295 I0 J19.046
G3 X252.123 Y109.909 I-0.638 J-2.419
X252.579 Y110.489 I0.228 J0.29
X252.123 Y109.909 I-0.228 J-0.29
G2 X252.787 Y108.51 I-1.072 J-1.365
G3 X254.167 Y107.808 I0.86 J-0.017
X255.015 Y108.813 I-1.813 J2.391
G2 X255.375 Y109.406 I4.674 J-2.432
G1 X255.731 Y109.914
G3 X255.731 Y110.484 I-0.407 J0.285
G1 X255.375 Y110.992
G2 X255.015 Y111.585 I4.314 J3.024
G3 X249.352 Y110.199 I-2.662 J-1.385
X254.167 Y107.808 I3.001 J0
G2 X256.082 Y108.167 I1.317 J-1.737
G3 X257.939 Y108.757 I0.483 J1.696
G1 X258.093 Y108.941
G2 X259.205 Y110.013 I6.541 J-5.674
G3 X259.205 Y110.385 I-0.149 J0.186
G2 X258.093 Y111.457 I5.429 J6.746
X257.224 Y112.734 I4.981 J4.321
G3 X246.858 Y110.199 I-4.873 J-2.535
X257.224 Y107.664 I5.493 J0
G2 X257.939 Y108.757 I5.85 J-3.043
G1 X257.97 Y108.802
X258.583 Y109.8
G3 X257.848 Y110.251 I-0.367 J0.225
X258.224 Y109.595 I0.367 J-0.225
G1 X301.012 Y110.48
X301.425 Y110.619
X301.462 Y110.64
X301.49 Y110.673
X301.506 Y110.714
Y110.757
X301.491 Y110.798
X301.464 Y110.831
X301.426 Y110.852
X301.384 Y110.86
X263.884 Y110.843
G2 X259.133 Y113.727 I0 J5.356
G3 X244.707 Y110.199 I-6.781 J-3.528
X259.133 Y106.671 I7.644 J0
G2 X263.884 Y109.555 I4.751 J-2.472
G1 X301.395 Y109.538
G3 X301.595 Y109.738 I0 J0.2
G1 X301.596 Y112.069
G3 X301.396 Y112.269 I-0.2 J0
G1 X263.884 Y112.252
G2 X260.383 Y114.378 I0 J3.947
G3 X243.298 Y110.199 I-8.032 J-4.178
X260.383 Y106.02 I9.054 J0
G2 X263.884 Y108.146 I3.501 J-1.821
G1 X301.395 Y108.129
G3 X301.595 Y108.329 I0 J0.2
G1 X301.591 Y114.499
G3 X301.391 Y114.699 I-0.2 J0
G1 X263.884
G2 X262.553 Y115.507 I0 J1.5
G3 X240.851 Y110.199 I-10.202 J-5.308
X262.553 Y104.891 I11.5 J0
G2 X263.884 Y105.699 I1.331 J-0.692
G1 X300
X301.397
G3 X301.597 Y105.899 I0 J0.2
G1 X301.607 Y110.66
G3 X301.407 Y110.86 I-0.2 J0
G1 Z-2.4
X301.384
X263.884 Y110.843
G2 X259.165 Y113.665 I0 J5.356
X254.306 Y114.295 I0 J19.046
G3 X252.123 Y109.909 I-0.638 J-2.419
X252.579 Y110.489 I0.228 J0.29
X252.123 Y109.909 I-0.228 J-0.29
G2 X252.787 Y108.51 I-1.072 J-1.365
G3 X254.167 Y107.808 I0.86 J-0.017
X255.015 Y108.813 I-1.813 J2.391
G2 X255.375 Y109.406 I4.674 J-2.432
G1 X255.731 Y109.914
G3 X255.731 Y110.484 I-0.407 J0.285
G1 X255.375 Y110.992
G2 X255.015 Y111.585 I4.314 J3.024
G3 X249.352 Y110.199 I-2.662 J-1.385
X254.167 Y107.808 I3.001 J0
G2 X256.082 Y108.167 I1.317 J-1.737
G3 X257.939 Y108.757 I0.483 J1.696
G1 X258.093 Y108.941
G2 X259.205 Y110.013 I6.541 J-5.674
G3 X259.205 Y110.385 I-0.149 J0.186
G2 X258.093 Y111.457 I5.429 J6.746
X257.224 Y112.734 I4.981 J4.321
G3 X246.858 Y110.199 I-4.873 J-2.535
X257.224 Y107.664 I5.493 J0
G2 X257.939 Y108.757 I5.85 J-3.043
G1 X257.97 Y108.802
X258.583 Y109.8
G3 X257.848 Y110.251 I-0.367 J0.225
X258.224 Y109.595 I0.367 J-0.225
G1 X301.012 Y110.48
X301.425 Y110.619
X301.462 Y110.64
X301.49 Y110.673
X301.506 Y110.714
Y110.757
X301.491 Y110.798
X301.464 Y110.831
X301.426 Y110.852
X301.384 Y110.86
X263.884 Y110.843
G2 X259.133 Y113.727 I0 J5.356
G3 X244.707 Y110.199 I-6.781 J-3.528
X259.133 Y106.671 I7.644 J0
G2 X263.884 Y109.555 I4.751 J-2.472
G1 X301.395 Y109.538
G3 X301.595 Y109.738 I0 J0.2
G1 X301.596 Y112.069
G3 X301.396 Y112.269 I-0.2 J0
G1 X263.884 Y112.252
G2 X260.383 Y114.378 I0 J3.947
G3 X243.298 Y110.199 I-8.032 J-4.178
X260.383 Y106.02 I9.054 J0
G2 X263.884 Y108.146 I3.501 J-1.821
G1 X301.395 Y108.129
G3 X301.595 Y108.329 I0 J0.2
G1 X301.591 Y114.499
G3 X301.391 Y114.699 I-0.2 J0
G1 X263.884
G2 X262.553 Y115.507 I0 J1.5
G3 X240.851 Y110.199 I-10.202 J-5.308
X262.553 Y104.891 I11.5 J0
G2 X263.884 Y105.699 I1.331 J-0.692
G1 X300
X301.397
G3 X301.597 Y105.899 I0 J0.2
G1 X301.607 Y110.66
G3 X301.407 Y110.86 I-0.2 J0
G1 Z-3
X301.384
X263.884 Y110.843
G2 X259.165 Y113.665 I0 J5.356
X254.306 Y114.295 I0 J19.046
G3 X252.123 Y109.909 I-0.638 J-2.419
X252.579 Y110.489 I0.228 J0.29
X252.123 Y109.909 I-0.228 J-0.29
G2 X252.787 Y108.51 I-1.072 J-1.365
G3 X254.167 Y107.808 I0.86 J-0.017
X255.015 Y108.813 I-1.813 J2.391
G2 X255.375 Y109.406 I4.674 J-2.432
G1 X255.731 Y109.914
G3 X255.731 Y110.484 I-0.407 J0.285
G1 X255.375 Y110.992
G2 X255.015 Y111.585 I4.314 J3.024
G3 X249.352 Y110.199 I-2.662 J-1.385
X254.167 Y107.808 I3.001 J0
G2 X256.082 Y108.167 I1.317 J-1.737
G3 X257.939 Y108.757 I0.483 J1.696
G1 X258.093 Y108.941
G2 X259.205 Y110.013 I6.541 J-5.674
G3 X259.205 Y110.385 I-0.149 J0.186
G2 X258.093 Y111.457 I5.429 J6.746
X257.224 Y112.734 I4.981 J4.321
G3 X246.858 Y110.199 I-4.873 J-2.535
X257.224 Y107.664 I5.493 J0
G2 X257.939 Y108.757 I5.85 J-3.043
G1 X257.97 Y108.802
X258.583 Y109.8
G3 X257.848 Y110.251 I-0.367 J0.225
X258.224 Y109.595 I0.367 J-0.225
G1 X301.012 Y110.48
X301.425 Y110.619
X301.462 Y110.64
X301.49 Y110.673
X301.506 Y110.714
Y110.757
X301.491 Y110.798
X301.464 Y110.831
X301.426 Y110.852
X301.384 Y110.86
X263.884 Y110.843
G2 X259.133 Y113.727 I0 J5.356
G3 X244.707 Y110.199 I-6.781 J-3.528
X259.133 Y106.671 I7.644 J0
G2 X263.884 Y109.555 I4.751 J-2.472
G1 X301.395 Y109.538
G3 X301.595 Y109.738 I0 J0.2
G1 X301.596 Y112.069
G3 X301.396 Y112.269 I-0.2 J0
G1 X263.884 Y112.252
G2 X260.383 Y114.378 I0 J3.947
G3 X243.298 Y110.199 I-8.032 J-4.178
X260.383 Y106.02 I9.054 J0
G2 X263.884 Y108.146 I3.501 J-1.821
G1 X301.395 Y108.129
G3 X301.595 Y108.329 I0 J0.2
G1 X301.591 Y114.499
G3 X301.391 Y114.699 I-0.2 J0
G1 X263.884
G2 X262.553 Y115.507 I0 J1.5
G3 X240.851 Y110.199 I-10.202 J-5.308
X262.553 Y104.891 I11.5 J0
G2 X263.884 Y105.699 I1.331 J-0.692
G1 X300
X301.397
G0 Z6
X284.938 Y134.642
Z2
G1 Z1.8 F700
G3 X286.08 Y137.253 Z1.644 I0.571 J1.306 F333.3
X284.938 Y134.642 Z1.487 I-0.571 J-1.306
X286.08 Y137.253 Z1.331 I0.571 J1.306
X284.938 Y134.642 Z1.175 I-0.571 J-1.306
X286.08 Y137.253 Z1.018 I0.571 J1.306
X284.938 Y134.642 Z0.862 I-0.571 J-1.306
X286.08 Y137.253 Z0.706 I0.571 J1.306
X284.938 Y134.642 Z0.549 I-0.571 J-1.306
X286.08 Y137.253 Z0.393 I0.571 J1.306
X284.938 Y134.642 Z0.237 I-0.571 J-1.306
X286.08 Y137.253 Z0.08 I0.571 J1.306
X284.938 Y134.642 Z-0.076 I-0.571 J-1.306
X286.08 Y137.253 Z-0.232 I0.571 J1.306
X284.938 Y134.642 Z-0.389 I-0.571 J-1.306
X286.08 Y137.253 Z-0.545 I0.571 J1.306
X284.938 Y134.642 Z-0.701 I-0.571 J-1.306
X286.934 Y135.947 Z-0.8 I0.571 J1.306
G1 Y136.184 F700
G3 X286.614 Y136.504 I-0.319 J0
G1 X252.206
G3 X251.886 Y136.184 I0 J-0.319
G1 Y135.711
G3 X252.206 Y135.391 I0.319 J0
G1 X286.614
G3 X286.934 Y135.711 I0 J0.319
G1 Y135.947
G2 X287.755 Y137.337 I1.586 J0
G3 X287.353 Y138.9 I-0.402 J0.73
G1 X249.809
G3 X249.49 Y138.581 I0 J-0.319
G1 Y133.314
G3 X249.809 Y132.995 I0.319 J0
G1 X289.011
G3 X289.33 Y133.314 I0 J0.319
G1 Y138.581
G3 X289.011 Y138.9 I-0.319 J0
G1 X287.353
G2 X285.589 Y140.076 I0 J1.911
G3 X283.825 Y141.252 I-1.764 J-0.735
G1 X247.838
G3 X247.138 Y140.552 I0 J-0.7
G1 Y131.343
G3 X247.838 Y130.643 I0.7 J0
G1 X290.982
G3 X291.682 Y131.343 I0 J0.7
G1 Y140.552
G3 X290.982 Y141.252 I-0.7 J0
G1 X283.825
G2 X281.725 Y142.652 I0 J2.275
G3 X279.625 Y144.052 I-2.1 J-0.875
G1 X247.838
G3 X244.338 Y140.552 I0 J-3.5
G1 Y131.343
G3 X247.838 Y127.843 I3.5 J0
G1 X290.982
G3 X294.482 Y131.343 I0 J3.5
G1 Y140.552
G3 X290.982 Y144.052 I-3.5 J0
G1 X279.625
G3 X278.677 Y141.476 I0 J-1.463
G1 X283.966 Y136.971
G3 X285.862 Y139.197 I0.948 J1.113
X283.51 Y137.673 I-0.948 J-1.113
G1 X284.14 Y135.523
G3 X286.947 Y136.345 I1.404 J0.411
X284.179 Y136.461 I-1.404 J-0.411
X286.838 Y135.434 Z-0.956 I1.329 J-0.513 F333.3
X284.179 Y136.461 Z-1.113 I-1.329 J0.513
X286.838 Y135.434 Z-1.269 I1.329 J-0.513
X284.179 Y136.461 Z-1.425 I-1.329 J0.513
X286.838 Y135.434 Z-1.582 I1.329 J-0.513
X286.934 Y135.947 Z-1.6 I-1.329 J0.513
G1 Y136.184 F700
G3 X286.614 Y136.504 I-0.319 J0
G1 X252.206
G3 X251.886 Y136.184 I0 J-0.319
G1 Y135.711
G3 X252.206 Y135.391 I0.319 J0
G1 X286.614
G3 X286.934 Y135.711 I0 J0.319
G1 Y135.947
G2 X287.755 Y137.337 I1.586 J0
G3 X287.353 Y138.9 I-0.402 J0.73
G1 X249.809
G3 X249.49 Y138.581 I0 J-0.319
G1 Y133.314
G3 X249.809 Y132.995 I0.319 J0
G1 X289.011
G3 X289.33 Y133.314 I0 J0.319
G1 Y138.581
G3 X289.011 Y138.9 I-0.319 J0
G1 X287.353
G2 X285.589 Y140.076 I0 J1.911
G3 X283.825 Y141.252 I-1.764 J-0.735
G1 X247.838
G3 X247.138 Y140.552 I0 J-0.7
G1 Y131.343
G3 X247.838 Y130.643 I0.7 J0
G1 X290.982
G3 X291.682 Y131.343 I0 J0.7
G1 Y140.552
G3 X290.982 Y141.252 I-0.7 J0
G1 X283.825
G2 X281.725 Y142.652 I0 J2.275
G3 X279.625 Y144.052 I-2.1 J-0.875
G1 X247.838
G3 X244.338 Y140.552 I0 J-3.5
G1 Y131.343
G3 X247.838 Y127.843 I3.5 J0
G1 X290.982
G3 X294.482 Y131.343 I0 J3.5
G1 Y140.552
G3 X290.982 Y144.052 I-3.5 J0
G1 X279.625
G3 X278.677 Y141.476 I0 J-1.463
G1 X283.966 Y136.971
G3 X285.862 Y139.197 I0.948 J1.113
X283.51 Y137.673 I-0.948 J-1.113
G1 X284.14 Y135.523
G3 X286.947 Y136.345 I1.404 J0.411
X284.179 Y136.461 I-1.404 J-0.411
X286.838 Y135.434 Z-1.756 I1.329 J-0.513 F333.3
X284.179 Y136.461 Z-1.913 I-1.329 J0.513
X286.838 Y135.434 Z-2.069 I1.329 J-0.513
X284.179 Y136.461 Z-2.225 I-1.329 J0.513
X286.838 Y135.434 Z-2.382 I1.329 J-0.513
X286.934 Y135.947 Z-2.4 I-1.329 J0.513
G1 Y136.184 F700
G3 X286.614 Y136.504 I-0.319 J0
G1 X252.206
G3 X251.886 Y136.184 I0 J-0.319
G1 Y135.711
G3 X252.206 Y135.391 I0.319 J0
G1 X286.614
G3 X286.934 Y135.711 I0 J0.319
G1 Y135.947
G2 X287.755 Y137.337 I1.586 J0
G3 X287.353 Y138.9 I-0.402 J0.73
G1 X249.809
G3 X249.49 Y138.581 I0 J-0.319
G1 Y133.314
G3 X249.809 Y132.995 I0.319 J0
G1 X289.011
G3 X289.33 Y133.314 I0 J0.319
G1 Y138.581
G3 X289.011 Y138.9 I-0.319 J0
G1 X287.353
G2 X285.589 Y140.076 I0 J1.911
G3 X283.825 Y141.252 I-1.764 J-0.735
G1 X247.838
G3 X247.138 Y140.552 I0 J-0.7
G1 Y131.343
G3 X247.838 Y130.643 I0.7 J0
G1 X290.982
G3 X291.682 Y131.343 I0 J0.7
G1 Y140.552
G3 X290.982 Y141.252 I-0.7 J0
G1 X283.825
G2 X281.725 Y142.652 I0 J2.275
G3 X279.625 Y144.052 I-2.1 J-0.875
G1 X247.838
G3 X244.338 Y140.552 I0 J-3.5
G1 Y131.343
G3 X247.838 Y127.843 I3.5 J0
G1 X290.982
G3 X294.482 Y131.343 I0 J3.5
G1 Y140.552
G3 X290.982 Y144.052 I-3.5 J0
G1 X279.625
G3 X278.677 Y141.476 I0 J-1.463
G1 X283.966 Y136.971
G3 X285.862 Y139.197 I0.948 J1.113
X283.51 Y137.673 I-0.948 J-1.113
G1 X284.14 Y135.523
G3 X286.947 Y136.345 I1.404 J0.411
X284.179 Y136.461 I-1.404 J-0.411
X286.838 Y135.434 Z-2.556 I1.329 J-0.513 F333.3
X284.179 Y136.461 Z-2.713 I-1.329 J0.513
X286.838 Y135.434 Z-2.869 I1.329 J-0.513
X284.179 Y136.461 Z-3.025 I-1.329 J0.513
X286.838 Y135.434 Z-3.182 I1.329 J-0.513
X286.934 Y135.947 Z-3.2 I-1.329 J0.513
G1 Y136.184 F700
G3 X286.614 Y136.504 I-0.319 J0
G1 X252.206
G3 X251.886 Y136.184 I0 J-0.319
G1 Y135.711
G3 X252.206 Y135.391 I0.319 J0
G1 X286.614
G3 X286.934 Y135.711 I0 J0.319
G1 Y135.947
G2 X287.755 Y137.337 I1.586 J0
G3 X287.353 Y138.9 I-0.402 J0.73
G1 X249.809
G3 X249.49 Y138.581 I0 J-0.319
G1 Y133.314
G3 X249.809 Y132.995 I0.319 J0
G1 X289.011
G3 X289.33 Y133.314 I0 J0.319
G1 Y138.581
G3 X289.011 Y138.9 I-0.319 J0
G1 X287.353
G2 X285.589 Y140.076 I0 J1.911
G3 X283.825 Y141.252 I-1.764 J-0.735
G1 X247.838
G3 X247.138 Y140.552 I0 J-0.7
G1 Y131.343
G3 X247.838 Y130.643 I0.7 J0
G1 X290.982
G3 X291.682 Y131.343 I0 J0.7
G1 Y140.552
G3 X290.982 Y141.252 I-0.7 J0
G1 X283.825
G2 X281.725 Y142.652 I0 J2.275
G3 X279.625 Y144.052 I-2.1 J-0.875
G1 X247.838
G3 X244.338 Y140.552 I0 J-3.5
G1 Y131.343
G3 X247.838 Y127.843 I3.5 J0
G1 X290.982
G3 X294.482 Y131.343 I0 J3.5
G1 Y140.552
G3 X290.982 Y144.052 I-3.5 J0
G1 X279.625
G3 X278.677 Y141.476 I0 J-1.463
G1 X283.966 Y136.971
G3 X285.862 Y139.197 I0.948 J1.113
X283.51 Y137.673 I-0.948 J-1.113
G1 X284.14 Y135.523
G3 X286.947 Y136.345 I1.404 J0.411
X284.179 Y136.461 I-1.404 J-0.411
X286.838 Y135.434 Z-3.356 I1.329 J-0.513 F333.3
X284.179 Y136.461 Z-3.513 I-1.329 J0.513
X286.838 Y135.434 Z-3.669 I1.329 J-0.513
X284.179 Y136.461 Z-3.825 I-1.329 J0.513
X286.838 Y135.434 Z-3.982 I1.329 J-0.513
X286.934 Y135.947 Z-4 I-1.329 J0.513
G1 Y136.184 F700
G3 X286.614 Y136.504 I-0.319 J0
G1 X252.206
G3 X251.886 Y136.184 I0 J-0.319
G1 Y135.711
G3 X252.206 Y135.391 I0.319 J0
G1 X286.614
G3 X286.934 Y135.711 I0 J0.319
G1 Y135.947
G2 X287.755 Y137.337 I1.586 J0
G3 X287.353 Y138.9 I-0.402 J0.73
G1 X249.809
G3 X249.49 Y138.581 I0 J-0.319
G1 Y133.314
G3 X249.809 Y132.995 I0.319 J0
G1 X289.011
G3 X289.33 Y133.314 I0 J0.319
G1 Y138.581
G3 X289.011 Y138.9 I-0.319 J0
G1 X287.353
G2 X285.589 Y140.076 I0 J1.911
G3 X283.825 Y141.252 I-1.764 J-0.735
G1 X247.838
G3 X247.138 Y140.552 I0 J-0.7
G1 Y131.343
G3 X247.838 Y130.643 I0.7 J0
G1 X290.982
G3 X291.682 Y131.343 I0 J0.7
G1 Y140.552
G3 X290.982 Y141.252 I-0.7 J0
G1 X283.825
G2 X281.725 Y142.652 I0 J2.275
G3 X279.625 Y144.052 I-2.1 J-0.875
G1 X247.838
G3 X244.338 Y140.552 I0 J-3.5
G1 Y131.343
G3 X247.838 Y127.843 I3.5 J0
G1 X290.982
G3 X294.482 Y131.343 I0 J3.5
G1 Y140.552
G3 X290.982 Y144.052 I-3.5 J0
G1 X279.625
G3 X278.677 Y141.476 I0 J-1.463
G1 X283.966 Y136.971
G3 X285.862 Y139.197 I0.948 J1.113
X283.51 Y137.673 I-0.948 J-1.113
G1 X284.14 Y135.523
G3 X286.947 Y136.345 I1.404 J0.411
X284.179 Y136.461 I-1.404 J-0.411
X286.838 Y135.434 Z-4.156 I1.329 J-0.513 F333.3
X284.179 Y136.461 Z-4.313 I-1.329 J0.513
X286.838 Y135.434 Z-4.469 I1.329 J-0.513
X284.179 Y136.461 Z-4.625 I-1.329 J0.513
X286.838 Y135.434 Z-4.782 I1.329 J-0.513
X286.934 Y135.947 Z-4.8 I-1.329 J0.513
G1 Y136.184 F700
G3 X286.614 Y136.504 I-0.319 J0
G1 X252.206
G3 X251.886 Y136.184 I0 J-0.319
G1 Y135.711
G3 X252.206 Y135.391 I0.319 J0
G1 X286.614
G3 X286.934 Y135.711 I0 J0.319
G1 Y135.947
G2 X287.755 Y137.337 I1.586 J0
G3 X287.353 Y138.9 I-0.402 J0.73
G1 X249.809
G3 X249.49 Y138.581 I0 J-0.319
G1 Y133.314
G3 X249.809 Y132.995 I0.319 J0
G1 X289.011
G3 X289.33 Y133.314 I0 J0.319
G1 Y138.581
G3 X289.011 Y138.9 I-0.319 J0
G1 X287.353
G2 X285.589 Y140.076 I0 J1.911
G3 X283.825 Y141.252 I-1.764 J-0.735
G1 X247.838
G3 X247.138 Y140.552 I0 J-0.7
G1 Y131.343
G3 X247.838 Y130.643 I0.7 J0
G1 X290.982
G3 X291.682 Y131.343 I0 J0.7
G1 Y140.552
G3 X290.982 Y141.252 I-0.7 J0
G1 X283.825
G2 X281.725 Y142.652 I0 J2.275
G3 X279.625 Y144.052 I-2.1 J-0.875
G1 X247.838
G3 X244.338 Y140.552 I0 J-3.5
G1 Y131.343
G3 X247.838 Y127.843 I3.5 J0
G1 X290.982
G3 X294.482 Y131.343 I0 J3.5
G1 Y140.552
G3 X290.982 Y144.052 I-3.5 J0
G1 X279.625
G3 X278.677 Y141.476 I0 J-1.463
G1 X283.966 Y136.971
G3 X285.862 Y139.197 I0.948 J1.113
X283.51 Y137.673 I-0.948 J-1.113
G1 X284.14 Y135.523
G3 X286.947 Y136.345 I1.404 J0.411
X284.179 Y136.461 I-1.404 J-0.411
X286.838 Y135.434 Z-4.956 I1.329 J-0.513 F333.3
X284.179 Y136.461 Z-5.113 I-1.329 J0.513
X286.838 Y135.434 Z-5.269 I1.329 J-0.513
X284.179 Y136.461 Z-5.425 I-1.329 J0.513
X286.838 Y135.434 Z-5.582 I1.329 J-0.513
X286.934 Y135.947 Z-5.6 I-1.329 J0.513
G1 Y136.184 F700
G3 X286.614 Y136.504 I-0.319 J0
G1 X252.206
G3 X251.886 Y136.184 I0 J-0.319
G1 Y135.711
G3 X252.206 Y135.391 I0.319 J0
G1 X286.614
G3 X286.934 Y135.711 I0 J0.319
G1 Y135.947
G2 X287.755 Y137.337 I1.586 J0
G3 X287.353 Y138.9 I-0.402 J0.73
G1 X249.809
G3 X249.49 Y138.581 I0 J-0.319
G1 Y133.314
G3 X249.809 Y132.995 I0.319 J0
G1 X289.011
G3 X289.33 Y133.314 I0 J0.319
G1 Y138.581
G3 X289.011 Y138.9 I-0.319 J0
G1 X287.353
G2 X285.589 Y140.076 I0 J1.911
G3 X283.825 Y141.252 I-1.764 J-0.735
G1 X247.838
G3 X247.138 Y140.552 I0 J-0.7
G1 Y131.343
G3 X247.838 Y130.643 I0.7 J0
G1 X290.982
G3 X291.682 Y131.343 I0 J0.7
G1 Y140.552
G3 X290.982 Y141.252 I-0.7 J0
G1 X283.825
G2 X281.725 Y142.652 I0 J2.275
G3 X279.625 Y144.052 I-2.1 J-0.875
G1 X247.838
G3 X244.338 Y140.552 I0 J-3.5
G1 Y131.343
G3 X247.838 Y127.843 I3.5 J0
G1 X290.982
G3 X294.482 Y131.343 I0 J3.5
G1 Y140.552
G3 X290.982 Y144.052 I-3.5 J0
G1 X279.625
G3 X278.677 Y141.476 I0 J-1.463
G1 X283.966 Y136.971
G3 X285.862 Y139.197 I0.948 J1.113
X283.51 Y137.673 I-0.948 J-1.113
G1 X284.14 Y135.523
G3 X286.947 Y136.345 I1.404 J0.411
X284.179 Y136.461 I-1.404 J-0.411
X286.838 Y135.434 Z-5.756 I1.329 J-0.513 F333.3
X284.179 Y136.461 Z-5.913 I-1.329 J0.513
X286.838 Y135.434 Z-6.069 I1.329 J-0.513
X284.179 Y136.461 Z-6.225 I-1.329 J0.513
X286.838 Y135.434 Z-6.382 I1.329 J-0.513
X286.934 Y135.947 Z-6.4 I-1.329 J0.513
G1 Y136.184 F700
G3 X286.614 Y136.504 I-0.319 J0
G1 X252.206
G3 X251.886 Y136.184 I0 J-0.319
G1 Y135.711
G3 X252.206 Y135.391 I0.319 J0
G1 X286.614
G3 X286.934 Y135.711 I0 J0.319
G1 Y135.947
G2 X287.755 Y137.337 I1.586 J0
G3 X287.353 Y138.9 I-0.402 J0.73
G1 X249.809
G3 X249.49 Y138.581 I0 J-0.319
G1 Y133.314
G3 X249.809 Y132.995 I0.319 J0
G1 X289.011
G3 X289.33 Y133.314 I0 J0.319
G1 Y138.581
G3 X289.011 Y138.9 I-0.319 J0
G1 X287.353
G2 X285.589 Y140.076 I0 J1.911
G3 X283.825 Y141.252 I-1.764 J-0.735
G1 X247.838
G3 X247.138 Y140.552 I0 J-0.7
G1 Y131.343
G3 X247.838 Y130.643 I0.7 J0
G1 X290.982
G3 X291.682 Y131.343 I0 J0.7
G1 Y140.552
G3 X290.982 Y141.252 I-0.7 J0
G1 X283.825
G2 X281.725 Y142.652 I0 J2.275
G3 X279.625 Y144.052 I-2.1 J-0.875
G1 X247.838
G3 X244.338 Y140.552 I0 J-3.5
G1 Y131.343
G3 X247.838 Y127.843 I3.5 J0
G1 X290.982
G3 X294.482 Y131.343 I0 J3.5
G1 Y140.552
G3 X290.982 Y144.052 I-3.5 J0
G1 X279.625
G3 X278.677 Y141.476 I0 J-1.463
G1 X283.966 Y136.971
G3 X285.862 Y139.197 I0.948 J1.113
X283.51 Y137.673 I-0.948 J-1.113
G1 X284.14 Y135.523
G3 X286.947 Y136.345 I1.404 J0.411
X284.179 Y136.461 I-1.404 J-0.411
X286.838 Y135.434 Z-6.556 I1.329 J-0.513 F333.3
X284.179 Y136.461 Z-6.713 I-1.329 J0.513
X286.838 Y135.434 Z-6.869 I1.329 J-0.513
X284.179 Y136.461 Z-7.025 I-1.329 J0.513
X286.838 Y135.434 Z-7.182 I1.329 J-0.513
X286.934 Y135.947 Z-7.2 I-1.329 J0.513
G1 Y136.184 F700
G3 X286.614 Y136.504 I-0.319 J0
G1 X252.206
G3 X251.886 Y136.184 I0 J-0.319
G1 Y135.711
G3 X252.206 Y135.391 I0.319 J0
G1 X286.614
G3 X286.934 Y135.711 I0 J0.319
G1 Y135.947
G2 X287.755 Y137.337 I1.586 J0
G3 X287.353 Y138.9 I-0.402 J0.73
G1 X249.809
G3 X249.49 Y138.581 I0 J-0.319
G1 Y133.314
G3 X249.809 Y132.995 I0.319 J0
G1 X289.011
G3 X289.33 Y133.314 I0 J0.319
G1 Y138.581
G3 X289.011 Y138.9 I-0.319 J0
G1 X287.353
G2 X285.589 Y140.076 I0 J1.911
G3 X283.825 Y141.252 I-1.764 J-0.735
G1 X247.838
G3 X247.138 Y140.552 I0 J-0.7
G1 Y131.343
G3 X247.838 Y130.643 I0.7 J0
G1 X290.982
G3 X291.682 Y131.343 I0 J0.7
G1 Y140.552
G3 X290.982 Y141.252 I-0.7 J0
G1 X283.825
G2 X281.725 Y142.652 I0 J2.275
G3 X279.625 Y144.052 I-2.1 J-0.875
G1 X247.838
G3 X244.338 Y140.552 I0 J-3.5
G1 Y131.343
G3 X247.838 Y127.843 I3.5 J0
G1 X290.982
G3 X294.482 Y131.343 I0 J3.5
G1 Y140.552
G3 X290.982 Y144.052 I-3.5 J0
G1 X279.625
G3 X278.677 Y141.476 I0 J-1.463
G1 X283.966 Y136.971
G3 X285.862 Y139.197 I0.948 J1.113
X283.51 Y137.673 I-0.948 J-1.113
G1 X284.14 Y135.523
G3 X286.947 Y136.345 I1.404 J0.411
X284.179 Y136.461 I-1.404 J-0.411
X286.838 Y135.434 Z-7.356 I1.329 J-0.513 F333.3
X284.179 Y136.461 Z-7.513 I-1.329 J0.513
X286.838 Y135.434 Z-7.669 I1.329 J-0.513
X284.179 Y136.461 Z-7.825 I-1.329 J0.513
X286.838 Y135.434 Z-7.982 I1.329 J-0.513
X286.934 Y135.947 Z-8 I-1.329 J0.513
G1 Y136.184 F700
G3 X286.614 Y136.504 I-0.319 J0
G1 X252.206
G3 X251.886 Y136.184 I0 J-0.319
G1 Y135.711
G3 X252.206 Y135.391 I0.319 J0
G1 X286.614
G3 X286.934 Y135.711 I0 J0.319
G1 Y135.947
G2 X287.755 Y137.337 I1.586 J0
G3 X287.353 Y138.9 I-0.402 J0.73
G1 X249.809
G3 X249.49 Y138.581 I0 J-0.319
G1 Y133.314
G3 X249.809 Y132.995 I0.319 J0
G1 X289.011
G3 X289.33 Y133.314 I0 J0.319
G1 Y138.581
G3 X289.011 Y138.9 I-0.319 J0
G1 X287.353
G2 X285.589 Y140.076 I0 J1.911
G3 X283.825 Y141.252 I-1.764 J-0.735
G1 X247.838
G3 X247.138 Y140.552 I0 J-0.7
G1 Y131.343
G3 X247.838 Y130.643 I0.7 J0
G1 X290.982
