(1001)
(T4  D=3 CR=0 - ZMIN=-18 - flat end mill)
G90 G94
G17
G21

(2D Contour1)
T4
S15000 M3
G54
M8
G0 X110.005 Y5.001
Z7
Z2
G1 Z-1 F333.3
X110 Y5.006 F700
X109.995 Y5.001
X110 Y4.996
X110.005 Y5.001
Z-2 F333.3
X110 Y5.006 F700
X109.995 Y5.001
X110 Y4.996
X110.005 Y5.001
Z-3 F333.3
X110 Y5.006 F700
X109.995 Y5.001
X110 Y4.996
X110.005 Y5.001
Z-4 F333.3
X110 Y5.006 F700
X109.995 Y5.001
X110 Y4.996
X110.005 Y5.001
Z-5 F333.3
X110 Y5.006 F700
X109.995 Y5.001
X110 Y4.996
X110.005 Y5.001
Z-6 F333.3
X110 Y5.006 F700
X109.995 Y5.001
X110 Y4.996
X110.005 Y5.001
Z-7 F333.3
X110 Y5.006 F700
X109.995 Y5.001
X110 Y4.996
X110.005 Y5.001
Z-8 F333.3
X110 Y5.006 F700
X109.995 Y5.001
X110 Y4.996
X110.005 Y5.001
Z-9 F333.3
X110 Y5.006 F700
X109.995 Y5.001
X110 Y4.996
X110.005 Y5.001
Z-10 F333.3
X110 Y5.006 F700
X109.995 Y5.001
X110 Y4.996
X110.005 Y5.001
Z-11 F333.3
X110 Y5.006 F700
X109.995 Y5.001
X110 Y4.996
X110.005 Y5.001
Z-12 F333.3
X110 Y5.006 F700
X109.995 Y5.001
X110 Y4.996
X110.005 Y5.001
Z-13 F333.3
X110 Y5.006 F700
X109.995 Y5.001
X110 Y4.996
X110.005 Y5.001
Z-14 F333.3
X110 Y5.006 F700
X109.995 Y5.001
X110 Y4.996
X110.005 Y5.001
Z-15 F333.3
X110 Y5.006 F700
X109.995 Y5.001
X110 Y4.996
X110.005 Y5.001
Z-16 F333.3
X110 Y5.006 F700
X109.995 Y5.001
X110 Y4.996
X110.005 Y5.001
Z-17 F333.3
X110 Y5.006 F700
X109.995 Y5.001
X110 Y4.996
X110.005 Y5.001
Z-18 F333.3
X110 Y5.006 F700
X109.995 Y5.001
X110 Y4.996
X110.005 Y5.001
G0 Z4
X162.505
Z2
G1 Z-1 F333.3
X162.5 Y5.006 F700
X162.495 Y5.001
X162.5 Y4.996
X162.505 Y5.001
Z-2 F333.3
X162.5 Y5.006 F700
X162.495 Y5.001
X162.5 Y4.996
X162.505 Y5.001
Z-3 F333.3
X162.5 Y5.006 F700
X162.495 Y5.001
X162.5 Y4.996
X162.505 Y5.001
Z-4 F333.3
X162.5 Y5.006 F700
X162.495 Y5.001
X162.5 Y4.996
X162.505 Y5.001
Z-5 F333.3
X162.5 Y5.006 F700
X162.495 Y5.001
X162.5 Y4.996
X162.505 Y5.001
Z-6 F333.3
X162.5 Y5.006 F700
X162.495 Y5.001
X162.5 Y4.996
X162.505 Y5.001
Z-7 F333.3
X162.5 Y5.006 F700
X162.495 Y5.001
X162.5 Y4.996
X162.505 Y5.001
Z-8 F333.3
X162.5 Y5.006 F700
X162.495 Y5.001
X162.5 Y4.996
X162.505 Y5.001
Z-9 F333.3
X162.5 Y5.006 F700
X162.495 Y5.001
X162.5 Y4.996
X162.505 Y5.001
Z-10 F333.3
X162.5 Y5.006 F700
X162.495 Y5.001
X162.5 Y4.996
X162.505 Y5.001
Z-11 F333.3
X162.5 Y5.006 F700
X162.495 Y5.001
X162.5 Y4.996
X162.505 Y5.001
Z-12 F333.3
X162.5 Y5.006 F700
X162.495 Y5.001
X162.5 Y4.996
X162.505 Y5.001
Z-13 F333.3
X162.5 Y5.006 F700
X162.495 Y5.001
X162.5 Y4.996
X162.505 Y5.001
Z-14 F333.3
X162.5 Y5.006 F700
X162.495 Y5.001
X162.5 Y4.996
X162.505 Y5.001
Z-15 F333.3
X162.5 Y5.006 F700
X162.495 Y5.001
X162.5 Y4.996
X162.505 Y5.001
Z-16 F333.3
X162.5 Y5.006 F700
X162.495 Y5.001
X162.5 Y4.996
X162.505 Y5.001
Z-17 F333.3
X162.5 Y5.006 F700
X162.495 Y5.001
X162.5 Y4.996
X162.505 Y5.001
Z-18 F333.3
X162.5 Y5.006 F700
X162.495 Y5.001
X162.5 Y4.996
X162.505 Y5.001
G0 Z4
X215.005
Z2
G1 Z-1 F333.3
X215 Y5.006 F700
X214.995 Y5.001
X215 Y4.996
X215.005 Y5.001
Z-2 F333.3
X215 Y5.006 F700
X214.995 Y5.001
X215 Y4.996
X215.005 Y5.001
Z-3 F333.3
X215 Y5.006 F700
X214.995 Y5.001
X215 Y4.996
X215.005 Y5.001
Z-4 F333.3
X215 Y5.006 F700
X214.995 Y5.001
X215 Y4.996
X215.005 Y5.001
Z-5 F333.3
X215 Y5.006 F700
X214.995 Y5.001
X215 Y4.996
X215.005 Y5.001
Z-6 F333.3
X215 Y5.006 F700
X214.995 Y5.001
X215 Y4.996
X215.005 Y5.001
Z-7 F333.3
X215 Y5.006 F700
X214.995 Y5.001
X215 Y4.996
X215.005 Y5.001
Z-8 F333.3
X215 Y5.006 F700
X214.995 Y5.001
X215 Y4.996
X215.005 Y5.001
Z-9 F333.3
X215 Y5.006 F700
X214.995 Y5.001
X215 Y4.996
X215.005 Y5.001
Z-10 F333.3
X215 Y5.006 F700
X214.995 Y5.001
X215 Y4.996
X215.005 Y5.001
Z-11 F333.3
X215 Y5.006 F700
X214.995 Y5.001
X215 Y4.996
X215.005 Y5.001
Z-12 F333.3
X215 Y5.006 F700
X214.995 Y5.001
X215 Y4.996
X215.005 Y5.001
Z-13 F333.3
X215 Y5.006 F700
X214.995 Y5.001
X215 Y4.996
X215.005 Y5.001
Z-14 F333.3
X215 Y5.006 F700
X214.995 Y5.001
X215 Y4.996
X215.005 Y5.001
Z-15 F333.3
X215 Y5.006 F700
X214.995 Y5.001
X215 Y4.996
X215.005 Y5.001
Z-16 F333.3
X215 Y5.006 F700
X214.995 Y5.001
X215 Y4.996
X215.005 Y5.001
Z-17 F333.3
X215 Y5.006 F700
X214.995 Y5.001
X215 Y4.996
X215.005 Y5.001
Z-18 F333.3
X215 Y5.006 F700
X214.995 Y5.001
X215 Y4.996
X215.005 Y5.001
G0 Z4
X57.505
Z2
G1 Z-1 F333.3
X57.5 Y5.006 F700
X57.495 Y5.001
X57.5 Y4.996
X57.505 Y5.001
Z-2 F333.3
X57.5 Y5.006 F700
X57.495 Y5.001
X57.5 Y4.996
X57.505 Y5.001
Z-3 F333.3
X57.5 Y5.006 F700
X57.495 Y5.001
X57.5 Y4.996
X57.505 Y5.001
Z-4 F333.3
X57.5 Y5.006 F700
X57.495 Y5.001
X57.5 Y4.996
X57.505 Y5.001
Z-5 F333.3
X57.5 Y5.006 F700
X57.495 Y5.001
X57.5 Y4.996
X57.505 Y5.001
Z-6 F333.3
X57.5 Y5.006 F700
X57.495 Y5.001
X57.5 Y4.996
X57.505 Y5.001
Z-7 F333.3
X57.5 Y5.006 F700
X57.495 Y5.001
X57.5 Y4.996
X57.505 Y5.001
Z-8 F333.3
X57.5 Y5.006 F700
X57.495 Y5.001
X57.5 Y4.996
X57.505 Y5.001
Z-9 F333.3
X57.5 Y5.006 F700
X57.495 Y5.001
X57.5 Y4.996
X57.505 Y5.001
Z-10 F333.3
X57.5 Y5.006 F700
X57.495 Y5.001
X57.5 Y4.996
X57.505 Y5.001
Z-11 F333.3
X57.5 Y5.006 F700
X57.495 Y5.001
X57.5 Y4.996
X57.505 Y5.001
Z-12 F333.3
X57.5 Y5.006 F700
X57.495 Y5.001
X57.5 Y4.996
X57.505 Y5.001
Z-13 F333.3
X57.5 Y5.006 F700
X57.495 Y5.001
X57.5 Y4.996
X57.505 Y5.001
Z-14 F333.3
X57.5 Y5.006 F700
X57.495 Y5.001
X57.5 Y4.996
X57.505 Y5.001
Z-15 F333.3
X57.5 Y5.006 F700
X57.495 Y5.001
X57.5 Y4.996
X57.505 Y5.001
Z-16 F333.3
X57.5 Y5.006 F700
X57.495 Y5.001
X57.5 Y4.996
X57.505 Y5.001
Z-17 F333.3
X57.5 Y5.006 F700
X57.495 Y5.001
X57.5 Y4.996
X57.505 Y5.001
Z-18 F333.3
X57.5 Y5.006 F700
X57.495 Y5.001
X57.5 Y4.996
X57.505 Y5.001
G0 Z4
X5.005
Z2
G1 Z-1 F333.3
X5 Y5.006 F700
X4.995 Y5.001
X5 Y4.996
X5.005 Y5.001
Z-2 F333.3
X5 Y5.006 F700
X4.995 Y5.001
X5 Y4.996
X5.005 Y5.001
Z-3 F333.3
X5 Y5.006 F700
X4.995 Y5.001
X5 Y4.996
X5.005 Y5.001
Z-4 F333.3
X5 Y5.006 F700
X4.995 Y5.001
X5 Y4.996
X5.005 Y5.001
Z-5 F333.3
X5 Y5.006 F700
X4.995 Y5.001
X5 Y4.996
X5.005 Y5.001
Z-6 F333.3
X5 Y5.006 F700
X4.995 Y5.001
X5 Y4.996
X5.005 Y5.001
Z-7 F333.3
X5 Y5.006 F700
X4.995 Y5.001
X5 Y4.996
X5.005 Y5.001
Z-8 F333.3
X5 Y5.006 F700
X4.995 Y5.001
X5 Y4.996
X5.005 Y5.001
Z-9 F333.3
X5 Y5.006 F700
X4.995 Y5.001
X5 Y4.996
X5.005 Y5.001
Z-10 F333.3
X5 Y5.006 F700
X4.995 Y5.001
X5 Y4.996
X5.005 Y5.001
Z-11 F333.3
X5 Y5.006 F700
X4.995 Y5.001
X5 Y4.996
X5.005 Y5.001
Z-12 F333.3
X5 Y5.006 F700
X4.995 Y5.001
X5 Y4.996
X5.005 Y5.001
Z-13 F333.3
X5 Y5.006 F700
X4.995 Y5.001
X5 Y4.996
X5.005 Y5.001
Z-14 F333.3
X5 Y5.006 F700
X4.995 Y5.001
X5 Y4.996
X5.005 Y5.001
Z-15 F333.3
X5 Y5.006 F700
X4.995 Y5.001
X5 Y4.996
X5.005 Y5.001
Z-16 F333.3
X5 Y5.006 F700
X4.995 Y5.001
X5 Y4.996
X5.005 Y5.001
Z-17 F333.3
X5 Y5.006 F700
X4.995 Y5.001
X5 Y4.996
X5.005 Y5.001
Z-18 F333.3
X5 Y5.006 F700
X4.995 Y5.001
X5 Y4.996
X5.005 Y5.001
G0 Z7

(2D Contour1 2)
X134.85 Y36.259
Z7
Z2
G1 Z-1 F333.3
G2 X135.599 Y36.355 I0.559 J-1.392 F700
X144.883 Y29.049 I-1.46 J-11.407
G1 X150.588 Y14.101
G2 X140.393 Y-1.487 I-10.744 J-4.101
X140.012 Y-1.499 I-0.392 J6.488
X139.677 Y-1.499 I-0.167 J11.499
G1 X110
G2 X110 Y11.501 I0 J6.5
G1 X114.62
G3 X122.562 Y23.032 I0 J8.5
G1 X121.922 Y24.708
G2 X121.824 Y25.284 I1.401 J0.535
X124.683 Y32.845 I12.315 J-0.336
X127.222 Y32.451 I1.151 J-0.961
G1 X134.388 Y14.931
X140.964 Y17.324
X134.021 Y34.299
G2 X134.85 Y36.259 I1.388 J0.568
G0 Z4
X182.806 Y34.953
Z2
G1 Z-1 F333.3
G2 X183.588 Y35.218 I0.853 J-1.234 F700
X193.999 Y29.635 I0.542 J-11.487
G1 X202.213 Y15.904
G2 X192.893 Y-1.487 I-9.868 J-5.904
X192.512 Y-1.499 I-0.392 J6.488
X192.177 Y-1.499 I-0.167 J11.499
G1 X162.5
G2 X162.5 Y11.501 I0 J6.5
G1 X168.346
G3 X173.066 Y19.825 I0 J5.5
G1 X172.14 Y21.372
G2 X171.943 Y21.923 I1.287 J0.77
X173.446 Y29.865 I12.187 J1.807
X176.016 Y29.918 I1.301 J-0.747
G1 X186.114 Y13.909
X192.175 Y17.408
X182.39 Y32.919
G2 X182.806 Y34.953 I1.269 J0.8
G0 Z4
X245.34 Y-1.49
Z2
G1 Z-1 F333.3
G2 X245.012 Y-1.499 I-0.34 J6.491 F700
X244.677 Y-1.499 I-0.167 J11.499
G1 X215
G2 X215 Y11.501 I0 J6.5
G1 X220.672
G3 X223.317 Y17.292 I0 J3.5
G1 X222.972 Y17.692
G2 X222.683 Y18.199 I1.134 J0.981
X222.783 Y26.281 I11.688 J3.897
X225.304 Y26.78 I1.411 J-0.51
G1 X238.031 Y12.767
X243.391 Y17.265
X231.062 Y30.842
G2 X231.842 Y33.314 I1.11 J1.008
X243.064 Y29.623 I2.528 J-11.218
G1 X253.538 Y17.528
G2 X245.393 Y-1.487 I-8.693 J-7.528
G1 X245.34 Y-1.49
G0 Z4
X72.251 Y28.181
Z2
G1 Z-1 F333.3
G2 X76.38 Y35.131 I12.07 J-2.469 F700
X78.813 Y34.302 I0.967 J-1.147
G1 X82.827 Y15.804
X89.718 Y17.019
X85.829 Y34.941
G2 X87.741 Y36.692 I1.466 J0.318
X95.615 Y27.885 I-3.419 J-10.98
G1 X98.637 Y12.173
G2 X87.892 Y-1.487 I-11.293 J-2.173
X87.512 Y-1.499 I-0.392 J6.488
X87.178 Y-1.499 I-0.167 J11.499
G1 X57.5
G2 X57.5 Y11.501 I0 J6.5
G1 X59
G3 X72.257 Y27.552 I0 J13.5
G1 X72.248 Y27.597
G2 X72.251 Y28.181 I1.473 J0.284
G0 Z4
X35.34 Y-1.49
Z2
G1 Z-1 F333.3
G2 X35.012 Y-1.499 I-0.341 J6.491 F700
X34.678 Y-1.499 I-0.167 J11.499
G1 X5
G2 X5 Y11.501 I0 J6.5
G1 X9.608
G3 X23.107 Y25.211 I0 J13.5
G1 X23.033 Y29.951
G2 X23.138 Y30.526 I1.5 J0.023
X28.41 Y36.653 I11.458 J-4.528
X30.662 Y35.414 I0.753 J-1.297
G1 X31.404 Y16.5
X38.401
X37.683 Y34.826
G2 X39.87 Y36.217 I1.499 J0.059
X46.095 Y26.177 I-5.274 J-10.219
G1 X46.343 Y10.179
G2 X35.392 Y-1.487 I-11.499 J-0.179
G1 X35.34 Y-1.49
G0 Z4
X-1.483 Y5.471
Z2
G1 Z1 F333.3
Z-2
G2 X5 Y11.501 I6.483 J-0.47 F700
G1 X9.608
G3 X23.107 Y25.211 I0 J13.5
G1 X23.033 Y29.951
G2 X23.138 Y30.526 I1.5 J0.023
X28.41 Y36.653 I11.458 J-4.528
X30.662 Y35.414 I0.753 J-1.297
G1 X31.404 Y16.5
X38.401
X37.683 Y34.826
G2 X39.87 Y36.217 I1.499 J0.059
X46.095 Y26.177 I-5.274 J-10.219
G1 X46.343 Y10.179
G2 X35.392 Y-1.487 I-11.499 J-0.179
X35.012 Y-1.499 I-0.392 J6.488
X34.678 Y-1.499 I-0.167 J11.499
G1 X5
G2 X-1.483 Y5.471 I0 J6.5
G0 Z4
X72.251 Y28.181
Z2
G1 Z1 F333.3
Z-2
G2 X76.38 Y35.131 I12.07 J-2.469 F700
X78.813 Y34.302 I0.967 J-1.147
G1 X82.827 Y15.804
X89.718 Y17.019
X85.829 Y34.941
G2 X87.741 Y36.692 I1.466 J0.318
X95.615 Y27.885 I-3.419 J-10.98
G1 X98.637 Y12.173
G2 X87.892 Y-1.487 I-11.293 J-2.173
X87.512 Y-1.499 I-0.392 J6.488
X87.178 Y-1.499 I-0.167 J11.499
G1 X57.5
G2 X57.5 Y11.501 I0 J6.5
G1 X59
G3 X72.257 Y27.552 I0 J13.5
G1 X72.248 Y27.597
G2 X72.251 Y28.181 I1.473 J0.284
G0 Z4
X134.85 Y36.259
Z2
G1 Z1 F333.3
Z-2
G2 X135.599 Y36.355 I0.559 J-1.392 F700
X144.883 Y29.049 I-1.46 J-11.407
G1 X150.588 Y14.101
G2 X140.393 Y-1.487 I-10.744 J-4.101
X140.012 Y-1.499 I-0.392 J6.488
X139.677 Y-1.499 I-0.167 J11.499
G1 X110
G2 X110 Y11.501 I0 J6.5
G1 X114.62
G3 X122.562 Y23.032 I0 J8.5
G1 X121.922 Y24.708
G2 X121.824 Y25.284 I1.401 J0.535
X124.683 Y32.845 I12.315 J-0.336
X127.222 Y32.451 I1.151 J-0.961
G1 X134.388 Y14.931
X140.964 Y17.324
X134.021 Y34.299
G2 X134.85 Y36.259 I1.388 J0.568
G0 Z4
X182.806 Y34.953
Z2
G1 Z1 F333.3
Z-2
G2 X183.588 Y35.218 I0.853 J-1.234 F700
X193.999 Y29.635 I0.542 J-11.487
G1 X202.213 Y15.904
G2 X192.893 Y-1.487 I-9.868 J-5.904
X192.512 Y-1.499 I-0.392 J6.488
X192.177 Y-1.499 I-0.167 J11.499
G1 X162.5
G2 X162.5 Y11.501 I0 J6.5
G1 X168.346
G3 X173.066 Y19.825 I0 J5.5
G1 X172.14 Y21.372
G2 X171.943 Y21.923 I1.287 J0.77
X173.446 Y29.865 I12.187 J1.807
X176.016 Y29.918 I1.301 J-0.747
G1 X186.114 Y13.909
X192.175 Y17.408
X182.39 Y32.919
G2 X182.806 Y34.953 I1.269 J0.8
G0 Z4
X245.34 Y-1.49
Z2
G1 Z1 F333.3
Z-2
G2 X245.012 Y-1.499 I-0.34 J6.491 F700
X244.677 Y-1.499 I-0.167 J11.499
G1 X215
G2 X215 Y11.501 I0 J6.5
G1 X220.672
G3 X223.317 Y17.292 I0 J3.5
G1 X222.972 Y17.692
G2 X222.683 Y18.199 I1.134 J0.981
X222.783 Y26.281 I11.688 J3.897
X225.304 Y26.78 I1.411 J-0.51
G1 X238.031 Y12.767
X243.391 Y17.265
X231.062 Y30.842
G2 X231.842 Y33.314 I1.11 J1.008
X243.064 Y29.623 I2.528 J-11.218
G1 X253.538 Y17.528
G2 X245.393 Y-1.487 I-8.693 J-7.528
G1 X245.34 Y-1.49
Z-3 F333.3
G2 X245.012 Y-1.499 I-0.34 J6.491 F700
X244.677 Y-1.499 I-0.167 J11.499
G1 X215
G2 X215 Y11.501 I0 J6.5
G1 X220.672
G3 X223.317 Y17.292 I0 J3.5
G1 X222.972 Y17.692
G2 X222.683 Y18.199 I1.134 J0.981
X222.783 Y26.281 I11.688 J3.897
X225.304 Y26.78 I1.411 J-0.51
G1 X238.031 Y12.767
X243.391 Y17.265
X231.062 Y30.842
G2 X231.842 Y33.314 I1.11 J1.008
X243.064 Y29.623 I2.528 J-11.218
G1 X253.538 Y17.528
G2 X245.393 Y-1.487 I-8.693 J-7.528
G1 X245.34 Y-1.49
G0 Z4
X182.806 Y34.953
Z2
G1 Z0 F333.3
Z-3
G2 X183.588 Y35.218 I0.853 J-1.234 F700
X193.999 Y29.635 I0.542 J-11.487
G1 X202.213 Y15.904
G2 X192.893 Y-1.487 I-9.868 J-5.904
X192.512 Y-1.499 I-0.392 J6.488
X192.177 Y-1.499 I-0.167 J11.499
G1 X162.5
G2 X162.5 Y11.501 I0 J6.5
G1 X168.346
G3 X173.066 Y19.825 I0 J5.5
G1 X172.14 Y21.372
G2 X171.943 Y21.923 I1.287 J0.77
X173.446 Y29.865 I12.187 J1.807
X176.016 Y29.918 I1.301 J-0.747
G1 X186.114 Y13.909
X192.175 Y17.408
X182.39 Y32.919
G2 X182.806 Y34.953 I1.269 J0.8
G0 Z4
X134.85 Y36.259
Z2
G1 Z0 F333.3
Z-3
G2 X135.599 Y36.355 I0.559 J-1.392 F700
X144.883 Y29.049 I-1.46 J-11.407
G1 X150.588 Y14.101
G2 X140.393 Y-1.487 I-10.744 J-4.101
X140.012 Y-1.499 I-0.392 J6.488
X139.677 Y-1.499 I-0.167 J11.499
G1 X110
G2 X110 Y11.501 I0 J6.5
G1 X114.62
G3 X122.562 Y23.032 I0 J8.5
G1 X121.922 Y24.708
G2 X121.824 Y25.284 I1.401 J0.535
X124.683 Y32.845 I12.315 J-0.336
X127.222 Y32.451 I1.151 J-0.961
G1 X134.388 Y14.931
X140.964 Y17.324
X134.021 Y34.299
G2 X134.85 Y36.259 I1.388 J0.568
G0 Z4
X72.251 Y28.181
Z2
G1 Z0 F333.3
Z-3
G2 X76.38 Y35.131 I12.07 J-2.469 F700
X78.813 Y34.302 I0.967 J-1.147
G1 X82.827 Y15.804
X89.718 Y17.019
X85.829 Y34.941
G2 X87.741 Y36.692 I1.466 J0.318
X95.615 Y27.885 I-3.419 J-10.98
G1 X98.637 Y12.173
G2 X87.892 Y-1.487 I-11.293 J-2.173
X87.512 Y-1.499 I-0.392 J6.488
X87.178 Y-1.499 I-0.167 J11.499
G1 X57.5
G2 X57.5 Y11.501 I0 J6.5
G1 X59
G3 X72.257 Y27.552 I0 J13.5
G1 X72.248 Y27.597
G2 X72.251 Y28.181 I1.473 J0.284
G0 Z4
X35.34 Y-1.49
Z2
G1 Z0 F333.3
Z-3
G2 X35.012 Y-1.499 I-0.341 J6.491 F700
X34.678 Y-1.499 I-0.167 J11.499
G1 X5
G2 X5 Y11.501 I0 J6.5
G1 X9.608
G3 X23.107 Y25.211 I0 J13.5
G1 X23.033 Y29.951
G2 X23.138 Y30.526 I1.5 J0.023
X28.41 Y36.653 I11.458 J-4.528
X30.662 Y35.414 I0.753 J-1.297
G1 X31.404 Y16.5
X38.401
X37.683 Y34.826
G2 X39.87 Y36.217 I1.499 J0.059
X46.095 Y26.177 I-5.274 J-10.219
G1 X46.343 Y10.179
G2 X35.392 Y-1.487 I-11.499 J-0.179
G1 X35.34 Y-1.49
G0 Z4
X-1.483 Y5.471
Z2
G1 Z-1 F333.3
Z-4
G2 X5 Y11.501 I6.483 J-0.47 F700
G1 X9.608
G3 X23.107 Y25.211 I0 J13.5
G1 X23.033 Y29.951
G2 X23.138 Y30.526 I1.5 J0.023
X28.41 Y36.653 I11.458 J-4.528
X30.662 Y35.414 I0.753 J-1.297
G1 X31.404 Y16.5
X38.401
X37.683 Y34.826
G2 X39.87 Y36.217 I1.499 J0.059
X46.095 Y26.177 I-5.274 J-10.219
G1 X46.343 Y10.179
G2 X35.392 Y-1.487 I-11.499 J-0.179
X35.012 Y-1.499 I-0.392 J6.488
X34.678 Y-1.499 I-0.167 J11.499
G1 X5
G2 X-1.483 Y5.471 I0 J6.5
G0 Z4
X72.251 Y28.181
Z2
G1 Z-1 F333.3
Z-4
G2 X76.38 Y35.131 I12.07 J-2.469 F700
X78.813 Y34.302 I0.967 J-1.147
G1 X82.827 Y15.804
X89.718 Y17.019
X85.829 Y34.941
G2 X87.741 Y36.692 I1.466 J0.318
X95.615 Y27.885 I-3.419 J-10.98
G1 X98.637 Y12.173
G2 X87.892 Y-1.487 I-11.293 J-2.173
X87.512 Y-1.499 I-0.392 J6.488
X87.178 Y-1.499 I-0.167 J11.499
G1 X57.5
G2 X57.5 Y11.501 I0 J6.5
G1 X59
G3 X72.257 Y27.552 I0 J13.5
G1 X72.248 Y27.597
G2 X72.251 Y28.181 I1.473 J0.284
G0 Z4
X134.85 Y36.259
Z2
G1 Z-1 F333.3
Z-4
G2 X135.599 Y36.355 I0.559 J-1.392 F700
X144.883 Y29.049 I-1.46 J-11.407
G1 X150.588 Y14.101
G2 X140.393 Y-1.487 I-10.744 J-4.101
X140.012 Y-1.499 I-0.392 J6.488
X139.677 Y-1.499 I-0.167 J11.499
G1 X110
G2 X110 Y11.501 I0 J6.5
G1 X114.62
G3 X122.562 Y23.032 I0 J8.5
G1 X121.922 Y24.708
G2 X121.824 Y25.284 I1.401 J0.535
X124.683 Y32.845 I12.315 J-0.336
X127.222 Y32.451 I1.151 J-0.961
G1 X134.388 Y14.931
X140.964 Y17.324
X134.021 Y34.299
G2 X134.85 Y36.259 I1.388 J0.568
G0 Z4
X182.806 Y34.953
Z2
G1 Z-1 F333.3
Z-4
G2 X183.588 Y35.218 I0.853 J-1.234 F700
X193.999 Y29.635 I0.542 J-11.487
G1 X202.213 Y15.904
G2 X192.893 Y-1.487 I-9.868 J-5.904
X192.512 Y-1.499 I-0.392 J6.488
X192.177 Y-1.499 I-0.167 J11.499
G1 X162.5
G2 X162.5 Y11.501 I0 J6.5
G1 X168.346
G3 X173.066 Y19.825 I0 J5.5
G1 X172.14 Y21.372
G2 X171.943 Y21.923 I1.287 J0.77
X173.446 Y29.865 I12.187 J1.807
X176.016 Y29.918 I1.301 J-0.747
G1 X186.114 Y13.909
X192.175 Y17.408
X182.39 Y32.919
G2 X182.806 Y34.953 I1.269 J0.8
G0 Z4
X245.34 Y-1.49
Z2
G1 Z-1 F333.3
Z-4
G2 X245.012 Y-1.499 I-0.34 J6.491 F700
X244.677 Y-1.499 I-0.167 J11.499
G1 X215
G2 X215 Y11.501 I0 J6.5
G1 X220.672
G3 X223.317 Y17.292 I0 J3.5
G1 X222.972 Y17.692
G2 X222.683 Y18.199 I1.134 J0.981
X222.783 Y26.281 I11.688 J3.897
X225.304 Y26.78 I1.411 J-0.51
G1 X238.031 Y12.767
X243.391 Y17.265
X231.062 Y30.842
G2 X231.842 Y33.314 I1.11 J1.008
X243.064 Y29.623 I2.528 J-11.218
G1 X253.538 Y17.528
G2 X245.393 Y-1.487 I-8.693 J-7.528
G1 X245.34 Y-1.49
Z-5 F333.3
G2 X245.012 Y-1.499 I-0.34 J6.491 F700
X244.677 Y-1.499 I-0.167 J11.499
G1 X215
G2 X215 Y11.501 I0 J6.5
G1 X220.672
G3 X223.317 Y17.292 I0 J3.5
G1 X222.972 Y17.692
G2 X222.683 Y18.199 I1.134 J0.981
X222.783 Y26.281 I11.688 J3.897
X225.304 Y26.78 I1.411 J-0.51
G1 X238.031 Y12.767
X243.391 Y17.265
X231.062 Y30.842
G2 X231.842 Y33.314 I1.11 J1.008
X243.064 Y29.623 I2.528 J-11.218
G1 X253.538 Y17.528
G2 X245.393 Y-1.487 I-8.693 J-7.528
G1 X245.34 Y-1.49
G0 Z4
X182.806 Y34.953
Z2
G1 Z-2 F333.3
Z-5
G2 X183.588 Y35.218 I0.853 J-1.234 F700
X193.999 Y29.635 I0.542 J-11.487
G1 X202.213 Y15.904
G2 X192.893 Y-1.487 I-9.868 J-5.904
X192.512 Y-1.499 I-0.392 J6.488
X192.177 Y-1.499 I-0.167 J11.499
G1 X162.5
G2 X162.5 Y11.501 I0 J6.5
G1 X168.346
G3 X173.066 Y19.825 I0 J5.5
G1 X172.14 Y21.372
G2 X171.943 Y21.923 I1.287 J0.77
X173.446 Y29.865 I12.187 J1.807
X176.016 Y29.918 I1.301 J-0.747
G1 X186.114 Y13.909
X192.175 Y17.408
X182.39 Y32.919
G2 X182.806 Y34.953 I1.269 J0.8
G0 Z4
X134.85 Y36.259
Z2
G1 Z-2 F333.3
Z-5
G2 X135.599 Y36.355 I0.559 J-1.392 F700
X144.883 Y29.049 I-1.46 J-11.407
G1 X150.588 Y14.101
G2 X140.393 Y-1.487 I-10.744 J-4.101
X140.012 Y-1.499 I-0.392 J6.488
X139.677 Y-1.499 I-0.167 J11.499
G1 X110
G2 X110 Y11.501 I0 J6.5
G1 X114.62
G3 X122.562 Y23.032 I0 J8.5
G1 X121.922 Y24.708
G2 X121.824 Y25.284 I1.401 J0.535
X124.683 Y32.845 I12.315 J-0.336
X127.222 Y32.451 I1.151 J-0.961
G1 X134.388 Y14.931
X140.964 Y17.324
X134.021 Y34.299
G2 X134.85 Y36.259 I1.388 J0.568
G0 Z4
X72.251 Y28.181
Z2
G1 Z-2 F333.3
Z-5
G2 X76.38 Y35.131 I12.07 J-2.469 F700
X78.813 Y34.302 I0.967 J-1.147
G1 X82.827 Y15.804
X89.718 Y17.019
X85.829 Y34.941
G2 X87.741 Y36.692 I1.466 J0.318
X95.615 Y27.885 I-3.419 J-10.98
G1 X98.637 Y12.173
G2 X87.892 Y-1.487 I-11.293 J-2.173
X87.512 Y-1.499 I-0.392 J6.488
X87.178 Y-1.499 I-0.167 J11.499
G1 X57.5
G2 X57.5 Y11.501 I0 J6.5
G1 X59
G3 X72.257 Y27.552 I0 J13.5
G1 X72.248 Y27.597
G2 X72.251 Y28.181 I1.473 J0.284
G0 Z4
X35.34 Y-1.49
Z2
G1 Z-2 F333.3
Z-5
G2 X35.012 Y-1.499 I-0.341 J6.491 F700
X34.678 Y-1.499 I-0.167 J11.499
G1 X5
G2 X5 Y11.501 I0 J6.5
G1 X9.608
G3 X23.107 Y25.211 I0 J13.5
G1 X23.033 Y29.951
G2 X23.138 Y30.526 I1.5 J0.023
X28.41 Y36.653 I11.458 J-4.528
X30.662 Y35.414 I0.753 J-1.297
G1 X31.404 Y16.5
X38.401
X37.683 Y34.826
G2 X39.87 Y36.217 I1.499 J0.059
X46.095 Y26.177 I-5.274 J-10.219
G1 X46.343 Y10.179
G2 X35.392 Y-1.487 I-11.499 J-0.179
G1 X35.34 Y-1.49
G0 Z4
X-1.483 Y5.471
Z2
G1 Z-3 F333.3
Z-6
G2 X5 Y11.501 I6.483 J-0.47 F700
G1 X9.608
G3 X23.107 Y25.211 I0 J13.5
G1 X23.033 Y29.951
G2 X23.138 Y30.526 I1.5 J0.023
X28.41 Y36.653 I11.458 J-4.528
X30.662 Y35.414 I0.753 J-1.297
G1 X31.404 Y16.5
X38.401
X37.683 Y34.826
G2 X39.87 Y36.217 I1.499 J0.059
X46.095 Y26.177 I-5.274 J-10.219
G1 X46.343 Y10.179
G2 X35.392 Y-1.487 I-11.499 J-0.179
X35.012 Y-1.499 I-0.392 J6.488
X34.678 Y-1.499 I-0.167 J11.499
G1 X5
G2 X-1.483 Y5.471 I0 J6.5
G0 Z4
X72.251 Y28.181
Z2
G1 Z-3 F333.3
Z-6
G2 X76.38 Y35.131 I12.07 J-2.469 F700
X78.813 Y34.302 I0.967 J-1.147
G1 X82.827 Y15.804
X89.718 Y17.019
X85.829 Y34.941
G2 X87.741 Y36.692 I1.466 J0.318
X95.615 Y27.885 I-3.419 J-10.98
G1 X98.637 Y12.173
G2 X87.892 Y-1.487 I-11.293 J-2.173
X87.512 Y-1.499 I-0.392 J6.488
X87.178 Y-1.499 I-0.167 J11.499
G1 X57.5
G2 X57.5 Y11.501 I0 J6.5
G1 X59
G3 X72.257 Y27.552 I0 J13.5
G1 X72.248 Y27.597
G2 X72.251 Y28.181 I1.473 J0.284
G0 Z4
X134.85 Y36.259
Z2
G1 Z-3 F333.3
Z-6
G2 X135.599 Y36.355 I0.559 J-1.392 F700
X144.883 Y29.049 I-1.46 J-11.407
G1 X150.588 Y14.101
G2 X140.393 Y-1.487 I-10.744 J-4.101
X140.012 Y-1.499 I-0.392 J6.488
X139.677 Y-1.499 I-0.167 J11.499
G1 X110
G2 X110 Y11.501 I0 J6.5
G1 X114.62
G3 X122.562 Y23.032 I0 J8.5
G1 X121.922 Y24.708
G2 X121.824 Y25.284 I1.401 J0.535
X124.683 Y32.845 I12.315 J-0.336
X127.222 Y32.451 I1.151 J-0.961
G1 X134.388 Y14.931
X140.964 Y17.324
X134.021 Y34.299
G2 X134.85 Y36.259 I1.388 J0.568
G0 Z4
X182.806 Y34.953
Z2
G1 Z-3 F333.3
Z-6
G2 X183.588 Y35.218 I0.853 J-1.234 F700
X193.999 Y29.635 I0.542 J-11.487
G1 X202.213 Y15.904
G2 X192.893 Y-1.487 I-9.868 J-5.904
X192.512 Y-1.499 I-0.392 J6.488
X192.177 Y-1.499 I-0.167 J11.499
G1 X162.5
G2 X162.5 Y11.501 I0 J6.5
G1 X168.346
G3 X173.066 Y19.825 I0 J5.5
G1 X172.14 Y21.372
G2 X171.943 Y21.923 I1.287 J0.77
X173.446 Y29.865 I12.187 J1.807
X176.016 Y29.918 I1.301 J-0.747
G1 X186.114 Y13.909
X192.175 Y17.408
X182.39 Y32.919
G2 X182.806 Y34.953 I1.269 J0.8
G0 Z4
X245.34 Y-1.49
Z2
G1 Z-3 F333.3
Z-6
G2 X245.012 Y-1.499 I-0.34 J6.491 F700
X244.677 Y-1.499 I-0.167 J11.499
G1 X215
G2 X215 Y11.501 I0 J6.5
G1 X220.672
G3 X223.317 Y17.292 I0 J3.5
G1 X222.972 Y17.692
G2 X222.683 Y18.199 I1.134 J0.981
X222.783 Y26.281 I11.688 J3.897
X225.304 Y26.78 I1.411 J-0.51
G1 X238.031 Y12.767
X243.391 Y17.265
X231.062 Y30.842
G2 X231.842 Y33.314 I1.11 J1.008
X243.064 Y29.623 I2.528 J-11.218
G1 X253.538 Y17.528
G2 X245.393 Y-1.487 I-8.693 J-7.528
G1 X245.34 Y-1.49
Z-7 F333.3
G2 X245.012 Y-1.499 I-0.34 J6.491 F700
X244.677 Y-1.499 I-0.167 J11.499
G1 X215
G2 X215 Y11.501 I0 J6.5
G1 X220.672
G3 X223.317 Y17.292 I0 J3.5
G1 X222.972 Y17.692
G2 X222.683 Y18.199 I1.134 J0.981
X222.783 Y26.281 I11.688 J3.897
X225.304 Y26.78 I1.411 J-0.51
G1 X238.031 Y12.767
X243.391 Y17.265
X231.062 Y30.842
G2 X231.842 Y33.314 I1.11 J1.008
X243.064 Y29.623 I2.528 J-11.218
G1 X253.538 Y17.528
G2 X245.393 Y-1.487 I-8.693 J-7.528
G1 X245.34 Y-1.49
G0 Z4
X182.806 Y34.953
Z2
G1 Z-4 F333.3
Z-7
G2 X183.588 Y35.218 I0.853 J-1.234 F700
X193.999 Y29.635 I0.542 J-11.487
G1 X202.213 Y15.904
G2 X192.893 Y-1.487 I-9.868 J-5.904
X192.512 Y-1.499 I-0.392 J6.488
X192.177 Y-1.499 I-0.167 J11.499
G1 X162.5
G2 X162.5 Y11.501 I0 J6.5
G1 X168.346
G3 X173.066 Y19.825 I0 J5.5
G1 X172.14 Y21.372
G2 X171.943 Y21.923 I1.287 J0.77
X173.446 Y29.865 I12.187 J1.807
X176.016 Y29.918 I1.301 J-0.747
G1 X186.114 Y13.909
X192.175 Y17.408
X182.39 Y32.919
G2 X182.806 Y34.953 I1.269 J0.8
G0 Z4
X134.85 Y36.259
Z2
G1 Z-4 F333.3
Z-7
G2 X135.599 Y36.355 I0.559 J-1.392 F700
X144.883 Y29.049 I-1.46 J-11.407
G1 X150.588 Y14.101
G2 X140.393 Y-1.487 I-10.744 J-4.101
X140.012 Y-1.499 I-0.392 J6.488
X139.677 Y-1.499 I-0.167 J11.499
G1 X110
G2 X110 Y11.501 I0 J6.5
G1 X114.62
G3 X122.562 Y23.032 I0 J8.5
G1 X121.922 Y24.708
G2 X121.824 Y25.284 I1.401 J0.535
X124.683 Y32.845 I12.315 J-0.336
X127.222 Y32.451 I1.151 J-0.961
G1 X134.388 Y14.931
X140.964 Y17.324
X134.021 Y34.299
G2 X134.85 Y36.259 I1.388 J0.568
G0 Z4
X72.251 Y28.181
Z2
G1 Z-4 F333.3
Z-7
G2 X76.38 Y35.131 I12.07 J-2.469 F700
X78.813 Y34.302 I0.967 J-1.147
G1 X82.827 Y15.804
X89.718 Y17.019
X85.829 Y34.941
G2 X87.741 Y36.692 I1.466 J0.318
X95.615 Y27.885 I-3.419 J-10.98
G1 X98.637 Y12.173
G2 X87.892 Y-1.487 I-11.293 J-2.173
X87.512 Y-1.499 I-0.392 J6.488
X87.178 Y-1.499 I-0.167 J11.499
G1 X57.5
G2 X57.5 Y11.501 I0 J6.5
G1 X59
G3 X72.257 Y27.552 I0 J13.5
G1 X72.248 Y27.597
G2 X72.251 Y28.181 I1.473 J0.284
G0 Z4
X35.34 Y-1.49
Z2
G1 Z-4 F333.3
Z-7
G2 X35.012 Y-1.499 I-0.341 J6.491 F700
X34.678 Y-1.499 I-0.167 J11.499
G1 X5
G2 X5 Y11.501 I0 J6.5
G1 X9.608
G3 X23.107 Y25.211 I0 J13.5
G1 X23.033 Y29.951
G2 X23.138 Y30.526 I1.5 J0.023
X28.41 Y36.653 I11.458 J-4.528
X30.662 Y35.414 I0.753 J-1.297
G1 X31.404 Y16.5
X38.401
X37.683 Y34.826
G2 X39.87 Y36.217 I1.499 J0.059
X46.095 Y26.177 I-5.274 J-10.219
G1 X46.343 Y10.179
G2 X35.392 Y-1.487 I-11.499 J-0.179
G1 X35.34 Y-1.49
G0 Z4
X-1.483 Y5.471
Z2
G1 Z-5 F333.3
Z-8
G2 X5 Y11.501 I6.483 J-0.47 F700
G1 X9.608
G3 X23.107 Y25.211 I0 J13.5
G1 X23.033 Y29.951
G2 X23.138 Y30.526 I1.5 J0.023
X28.41 Y36.653 I11.458 J-4.528
X30.662 Y35.414 I0.753 J-1.297
G1 X31.404 Y16.5
X38.401
X37.683 Y34.826
G2 X39.87 Y36.217 I1.499 J0.059
X46.095 Y26.177 I-5.274 J-10.219
G1 X46.343 Y10.179
G2 X35.392 Y-1.487 I-11.499 J-0.179
X35.012 Y-1.499 I-0.392 J6.488
X34.678 Y-1.499 I-0.167 J11.499
G1 X5
G2 X-1.483 Y5.471 I0 J6.5
G0 Z4
X72.251 Y28.181
Z2
G1 Z-5 F333.3
Z-8
G2 X76.38 Y35.131 I12.07 J-2.469 F700
X78.813 Y34.302 I0.967 J-1.147
G1 X82.827 Y15.804
X89.718 Y17.019
X85.829 Y34.941
G2 X87.741 Y36.692 I1.466 J0.318
X95.615 Y27.885 I-3.419 J-10.98
G1 X98.637 Y12.173
G2 X87.892 Y-1.487 I-11.293 J-2.173
X87.512 Y-1.499 I-0.392 J6.488
X87.178 Y-1.499 I-0.167 J11.499
G1 X57.5
G2 X57.5 Y11.501 I0 J6.5
G1 X59
G3 X72.257 Y27.552 I0 J13.5
G1 X72.248 Y27.597
G2 X72.251 Y28.181 I1.473 J0.284
G0 Z4
X134.85 Y36.259
Z2
G1 Z-5 F333.3
Z-8
G2 X135.599 Y36.355 I0.559 J-1.392 F700
X144.883 Y29.049 I-1.46 J-11.407
G1 X150.588 Y14.101
G2 X140.393 Y-1.487 I-10.744 J-4.101
X140.012 Y-1.499 I-0.392 J6.488
X139.677 Y-1.499 I-0.167 J11.499
G1 X110
G2 X110 Y11.501 I0 J6.5
G1 X114.62
G3 X122.562 Y23.032 I0 J8.5
G1 X121.922 Y24.708
G2 X121.824 Y25.284 I1.401 J0.535
X124.683 Y32.845 I12.315 J-0.336
X127.222 Y32.451 I1.151 J-0.961
G1 X134.388 Y14.931
X140.964 Y17.324
X134.021 Y34.299
G2 X134.85 Y36.259 I1.388 J0.568
G0 Z4
X182.806 Y34.953
Z2
G1 Z-5 F333.3
Z-8
G2 X183.588 Y35.218 I0.853 J-1.234 F700
X193.999 Y29.635 I0.542 J-11.487
G1 X202.213 Y15.904
G2 X192.893 Y-1.487 I-9.868 J-5.904
X192.512 Y-1.499 I-0.392 J6.488
X192.177 Y-1.499 I-0.167 J11.499
G1 X162.5
G2 X162.5 Y11.501 I0 J6.5
G1 X168.346
G3 X173.066 Y19.825 I0 J5.5
G1 X172.14 Y21.372
G2 X171.943 Y21.923 I1.287 J0.77
X173.446 Y29.865 I12.187 J1.807
X176.016 Y29.918 I1.301 J-0.747
G1 X186.114 Y13.909
X192.175 Y17.408
X182.39 Y32.919
G2 X182.806 Y34.953 I1.269 J0.8
G0 Z4
X245.34 Y-1.49
Z2
G1 Z-5 F333.3
Z-8
G2 X245.012 Y-1.499 I-0.34 J6.491 F700
X244.677 Y-1.499 I-0.167 J11.499
G1 X215
G2 X215 Y11.501 I0 J6.5
G1 X220.672
G3 X223.317 Y17.292 I0 J3.5
G1 X222.972 Y17.692
G2 X222.683 Y18.199 I1.134 J0.981
X222.783 Y26.281 I11.688 J3.897
X225.304 Y26.78 I1.411 J-0.51
G1 X238.031 Y12.767
X243.391 Y17.265
X231.062 Y30.842
G2 X231.842 Y33.314 I1.11 J1.008
X243.064 Y29.623 I2.528 J-11.218
G1 X253.538 Y17.528
G2 X245.393 Y-1.487 I-8.693 J-7.528
G1 X245.34 Y-1.49
Z-9 F333.3
G2 X245.012 Y-1.499 I-0.34 J6.491 F700
X244.677 Y-1.499 I-0.167 J11.499
G1 X215
G2 X215 Y11.501 I0 J6.5
G1 X220.672
G3 X223.317 Y17.292 I0 J3.5
G1 X222.972 Y17.692
G2 X222.683 Y18.199 I1.134 J0.981
X222.783 Y26.281 I11.688 J3.897
X225.304 Y26.78 I1.411 J-0.51
G1 X238.031 Y12.767
X243.391 Y17.265
X231.062 Y30.842
G2 X231.842 Y33.314 I1.11 J1.008
X243.064 Y29.623 I2.528 J-11.218
G1 X253.538 Y17.528
G2 X245.393 Y-1.487 I-8.693 J-7.528
G1 X245.34 Y-1.49
G0 Z4
X182.806 Y34.953
Z2
G1 Z-6 F333.3
Z-9
G2 X183.588 Y35.218 I0.853 J-1.234 F700
X193.999 Y29.635 I0.542 J-11.487
G1 X202.213 Y15.904
G2 X192.893 Y-1.487 I-9.868 J-5.904
X192.512 Y-1.499 I-0.392 J6.488
X192.177 Y-1.499 I-0.167 J11.499
G1 X162.5
G2 X162.5 Y11.501 I0 J6.5
G1 X168.346
G3 X173.066 Y19.825 I0 J5.5
G1 X172.14 Y21.372
G2 X171.943 Y21.923 I1.287 J0.77
X173.446 Y29.865 I12.187 J1.807
X176.016 Y29.918 I1.301 J-0.747
G1 X186.114 Y13.909
X192.175 Y17.408
X182.39 Y32.919
G2 X182.806 Y34.953 I1.269 J0.8
G0 Z4
X134.85 Y36.259
Z2
G1 Z-6 F333.3
Z-9
G2 X135.599 Y36.355 I0.559 J-1.392 F700
X144.883 Y29.049 I-1.46 J-11.407
G1 X150.588 Y14.101
G2 X140.393 Y-1.487 I-10.744 J-4.101
X140.012 Y-1.499 I-0.392 J6.488
X139.677 Y-1.499 I-0.167 J11.499
G1 X110
G2 X110 Y11.501 I0 J6.5
G1 X114.62
G3 X122.562 Y23.032 I0 J8.5
G1 X121.922 Y24.708
G2 X121.824 Y25.284 I1.401 J0.535
X124.683 Y32.845 I12.315 J-0.336
X127.222 Y32.451 I1.151 J-0.961
G1 X134.388 Y14.931
X140.964 Y17.324
X134.021 Y34.299
G2 X134.85 Y36.259 I1.388 J0.568
G0 Z4
X72.251 Y28.181
Z2
G1 Z-6 F333.3
Z-9
G2 X76.38 Y35.131 I12.07 J-2.469 F700
X78.813 Y34.302 I0.967 J-1.147
G1 X82.827 Y15.804
X89.718 Y17.019
X85.829 Y34.941
G2 X87.741 Y36.692 I1.466 J0.318
X95.615 Y27.885 I-3.419 J-10.98
G1 X98.637 Y12.173
G2 X87.892 Y-1.487 I-11.293 J-2.173
X87.512 Y-1.499 I-0.392 J6.488
X87.178 Y-1.499 I-0.167 J11.499
G1 X57.5
G2 X57.5 Y11.501 I0 J6.5
G1 X59
G3 X72.257 Y27.552 I0 J13.5
G1 X72.248 Y27.597
G2 X72.251 Y28.181 I1.473 J0.284
G0 Z4
X35.34 Y-1.49
Z2
G1 Z-6 F333.3
Z-9
G2 X35.012 Y-1.499 I-0.341 J6.491 F700
X34.678 Y-1.499 I-0.167 J11.499
G1 X5
G2 X5 Y11.501 I0 J6.5
G1 X9.608
G3 X23.107 Y25.211 I0 J13.5
G1 X23.033 Y29.951
G2 X23.138 Y30.526 I1.5 J0.023
X28.41 Y36.653 I11.458 J-4.528
X30.662 Y35.414 I0.753 J-1.297
G1 X31.404 Y16.5
X38.401
X37.683 Y34.826
G2 X39.87 Y36.217 I1.499 J0.059
X46.095 Y26.177 I-5.274 J-10.219
G1 X46.343 Y10.179
G2 X35.392 Y-1.487 I-11.499 J-0.179
G1 X35.34 Y-1.49
G0 Z4
X-1.483 Y5.471
Z2
G1 Z-7 F333.3
Z-10
G2 X5 Y11.501 I6.483 J-0.47 F700
G1 X9.608
G3 X23.107 Y25.211 I0 J13.5
G1 X23.033 Y29.951
G2 X23.138 Y30.526 I1.5 J0.023
X28.41 Y36.653 I11.458 J-4.528
X30.662 Y35.414 I0.753 J-1.297
G1 X31.404 Y16.5
X38.401
X37.683 Y34.826
G2 X39.87 Y36.217 I1.499 J0.059
X46.095 Y26.177 I-5.274 J-10.219
G1 X46.343 Y10.179
G2 X35.392 Y-1.487 I-11.499 J-0.179
X35.012 Y-1.499 I-0.392 J6.488
X34.678 Y-1.499 I-0.167 J11.499
G1 X5
G2 X-1.483 Y5.471 I0 J6.5
G0 Z4
X72.251 Y28.181
Z2
G1 Z-7 F333.3
Z-10
G2 X76.38 Y35.131 I12.07 J-2.469 F700
X78.813 Y34.302 I0.967 J-1.147
G1 X82.827 Y15.804
X89.718 Y17.019
X85.829 Y34.941
G2 X87.741 Y36.692 I1.466 J0.318
X95.615 Y27.885 I-3.419 J-10.98
G1 X98.637 Y12.173
G2 X87.892 Y-1.487 I-11.293 J-2.173
X87.512 Y-1.499 I-0.392 J6.488
X87.178 Y-1.499 I-0.167 J11.499
G1 X57.5
G2 X57.5 Y11.501 I0 J6.5
G1 X59
G3 X72.257 Y27.552 I0 J13.5
G1 X72.248 Y27.597
G2 X72.251 Y28.181 I1.473 J0.284
G0 Z4
X134.85 Y36.259
Z2
G1 Z-7 F333.3
Z-10
G2 X135.599 Y36.355 I0.559 J-1.392 F700
X144.883 Y29.049 I-1.46 J-11.407
G1 X150.588 Y14.101
G2 X140.393 Y-1.487 I-10.744 J-4.101
X140.012 Y-1.499 I-0.392 J6.488
X139.677 Y-1.499 I-0.167 J11.499
G1 X110
G2 X110 Y11.501 I0 J6.5
G1 X114.62
G3 X122.562 Y23.032 I0 J8.5
G1 X121.922 Y24.708
G2 X121.824 Y25.284 I1.401 J0.535
X124.683 Y32.845 I12.315 J-0.336
X127.222 Y32.451 I1.151 J-0.961
G1 X134.388 Y14.931
X140.964 Y17.324
X134.021 Y34.299
G2 X134.85 Y36.259 I1.388 J0.568
G0 Z4
X182.806 Y34.953
Z2
G1 Z-7 F333.3
Z-10
G2 X183.588 Y35.218 I0.853 J-1.234 F700
X193.999 Y29.635 I0.542 J-11.487
G1 X202.213 Y15.904
G2 X192.893 Y-1.487 I-9.868 J-5.904
X192.512 Y-1.499 I-0.392 J6.488
X192.177 Y-1.499 I-0.167 J11.499
G1 X162.5
G2 X162.5 Y11.501 I0 J6.5
G1 X168.346
G3 X173.066 Y19.825 I0 J5.5
G1 X172.14 Y21.372
G2 X171.943 Y21.923 I1.287 J0.77
X173.446 Y29.865 I12.187 J1.807
X176.016 Y29.918 I1.301 J-0.747
G1 X186.114 Y13.909
X192.175 Y17.408
X182.39 Y32.919
G2 X182.806 Y34.953 I1.269 J0.8
G0 Z4
X245.34 Y-1.49
Z2
G1 Z-7 F333.3
Z-10
G2 X245.012 Y-1.499 I-0.34 J6.491 F700
X244.677 Y-1.499 I-0.167 J11.499
G1 X215
G2 X215 Y11.501 I0 J6.5
G1 X220.672
G3 X223.317 Y17.292 I0 J3.5
G1 X222.972 Y17.692
G2 X222.683 Y18.199 I1.134 J0.981
X222.783 Y26.281 I11.688 J3.897
X225.304 Y26.78 I1.411 J-0.51
G1 X238.031 Y12.767
X243.391 Y17.265
X231.062 Y30.842
G2 X231.842 Y33.314 I1.11 J1.008
X243.064 Y29.623 I2.528 J-11.218
G1 X253.538 Y17.528
G2 X245.393 Y-1.487 I-8.693 J-7.528
G1 X245.34 Y-1.49
Z-11 F333.3
G2 X245.012 Y-1.499 I-0.34 J6.491 F700
X244.677 Y-1.499 I-0.167 J11.499
G1 X215
G2 X215 Y11.501 I0 J6.5
G1 X220.672
G3 X223.317 Y17.292 I0 J3.5
G1 X222.972 Y17.692
G2 X222.683 Y18.199 I1.134 J0.981
X222.783 Y26.281 I11.688 J3.897
X225.304 Y26.78 I1.411 J-0.51
G1 X238.031 Y12.767
X243.391 Y17.265
X231.062 Y30.842
G2 X231.842 Y33.314 I1.11 J1.008
X243.064 Y29.623 I2.528 J-11.218
G1 X253.538 Y17.528
G2 X245.393 Y-1.487 I-8.693 J-7.528
G1 X245.34 Y-1.49
G0 Z4
X182.806 Y34.953
Z2
G1 Z-8 F333.3
Z-11
G2 X183.588 Y35.218 I0.853 J-1.234 F700
X193.999 Y29.635 I0.542 J-11.487
G1 X202.213 Y15.904
G2 X192.893 Y-1.487 I-9.868 J-5.904
X192.512 Y-1.499 I-0.392 J6.488
X192.177 Y-1.499 I-0.167 J11.499
G1 X162.5
G2 X162.5 Y11.501 I0 J6.5
G1 X168.346
G3 X173.066 Y19.825 I0 J5.5
G1 X172.14 Y21.372
G2 X171.943 Y21.923 I1.287 J0.77
X173.446 Y29.865 I12.187 J1.807
X176.016 Y29.918 I1.301 J-0.747
G1 X186.114 Y13.909
X192.175 Y17.408
X182.39 Y32.919
G2 X182.806 Y34.953 I1.269 J0.8
G0 Z4
X134.85 Y36.259
Z2
G1 Z-8 F333.3
Z-11
G2 X135.599 Y36.355 I0.559 J-1.392 F700
X144.883 Y29.049 I-1.46 J-11.407
G1 X150.588 Y14.101
G2 X140.393 Y-1.487 I-10.744 J-4.101
X140.012 Y-1.499 I-0.392 J6.488
X139.677 Y-1.499 I-0.167 J11.499
G1 X110
G2 X110 Y11.501 I0 J6.5
G1 X114.62
G3 X122.562 Y23.032 I0 J8.5
G1 X121.922 Y24.708
G2 X121.824 Y25.284 I1.401 J0.535
X124.683 Y32.845 I12.315 J-0.336
X127.222 Y32.451 I1.151 J-0.961
G1 X134.388 Y14.931
X140.964 Y17.324
X134.021 Y34.299
G2 X134.85 Y36.259 I1.388 J0.568
G0 Z4
X72.251 Y28.181
Z2
G1 Z-8 F333.3
Z-11
G2 X76.38 Y35.131 I12.07 J-2.469 F700
X78.813 Y34.302 I0.967 J-1.147
G1 X82.827 Y15.804
X89.718 Y17.019
X85.829 Y34.941
G2 X87.741 Y36.692 I1.466 J0.318
X95.615 Y27.885 I-3.419 J-10.98
G1 X98.637 Y12.173
G2 X87.892 Y-1.487 I-11.293 J-2.173
X87.512 Y-1.499 I-0.392 J6.488
X87.178 Y-1.499 I-0.167 J11.499
G1 X57.5
G2 X57.5 Y11.501 I0 J6.5
G1 X59
G3 X72.257 Y27.552 I0 J13.5
G1 X72.248 Y27.597
G2 X72.251 Y28.181 I1.473 J0.284
G0 Z4
X35.34 Y-1.49
Z2
G1 Z-8 F333.3
Z-11
G2 X35.012 Y-1.499 I-0.341 J6.491 F700
X34.678 Y-1.499 I-0.167 J11.499
G1 X5
G2 X5 Y11.501 I0 J6.5
G1 X9.608
G3 X23.107 Y25.211 I0 J13.5
G1 X23.033 Y29.951
G2 X23.138 Y30.526 I1.5 J0.023
X28.41 Y36.653 I11.458 J-4.528
X30.662 Y35.414 I0.753 J-1.297
G1 X31.404 Y16.5
X38.401
X37.683 Y34.826
G2 X39.87 Y36.217 I1.499 J0.059
X46.095 Y26.177 I-5.274 J-10.219
G1 X46.343 Y10.179
G2 X35.392 Y-1.487 I-11.499 J-0.179
G1 X35.34 Y-1.49
G0 Z4
X-1.483 Y5.471
Z2
G1 Z-9 F333.3
Z-12
G2 X5 Y11.501 I6.483 J-0.47 F700
G1 X9.608
G3 X23.107 Y25.211 I0 J13.5
G1 X23.033 Y29.951
G2 X23.138 Y30.526 I1.5 J0.023
X28.41 Y36.653 I11.458 J-4.528
X30.662 Y35.414 I0.753 J-1.297
G1 X31.404 Y16.5
X38.401
X37.683 Y34.826
G2 X39.87 Y36.217 I1.499 J0.059
X46.095 Y26.177 I-5.274 J-10.219
G1 X46.343 Y10.179
G2 X35.392 Y-1.487 I-11.499 J-0.179
X35.012 Y-1.499 I-0.392 J6.488
X34.678 Y-1.499 I-0.167 J11.499
G1 X5
G2 X-1.483 Y5.471 I0 J6.5
G0 Z4
X72.251 Y28.181
Z2
G1 Z-9 F333.3
Z-12
G2 X76.38 Y35.131 I12.07 J-2.469 F700
X78.813 Y34.302 I0.967 J-1.147
G1 X82.827 Y15.804
X89.718 Y17.019
X85.829 Y34.941
G2 X87.741 Y36.692 I1.466 J0.318
X95.615 Y27.885 I-3.419 J-10.98
G1 X98.637 Y12.173
G2 X87.892 Y-1.487 I-11.293 J-2.173
X87.512 Y-1.499 I-0.392 J6.488
X87.178 Y-1.499 I-0.167 J11.499
G1 X57.5
G2 X57.5 Y11.501 I0 J6.5
G1 X59
G3 X72.257 Y27.552 I0 J13.5
G1 X72.248 Y27.597
G2 X72.251 Y28.181 I1.473 J0.284
G0 Z4
X134.85 Y36.259
Z2
G1 Z-9 F333.3
Z-12
G2 X135.599 Y36.355 I0.559 J-1.392 F700
X144.883 Y29.049 I-1.46 J-11.407
G1 X150.588 Y14.101
G2 X140.393 Y-1.487 I-10.744 J-4.101
X140.012 Y-1.499 I-0.392 J6.488
X139.677 Y-1.499 I-0.167 J11.499
G1 X110
G2 X110 Y11.501 I0 J6.5
G1 X114.62
G3 X122.562 Y23.032 I0 J8.5
G1 X121.922 Y24.708
G2 X121.824 Y25.284 I1.401 J0.535
X124.683 Y32.845 I12.315 J-0.336
X127.222 Y32.451 I1.151 J-0.961
G1 X134.388 Y14.931
X140.964 Y17.324
X134.021 Y34.299
G2 X134.85 Y36.259 I1.388 J0.568
G0 Z4
X182.806 Y34.953
Z2
G1 Z-9 F333.3
Z-12
G2 X183.588 Y35.218 I0.853 J-1.234 F700
X193.999 Y29.635 I0.542 J-11.487
G1 X202.213 Y15.904
G2 X192.893 Y-1.487 I-9.868 J-5.904
X192.512 Y-1.499 I-0.392 J6.488
X192.177 Y-1.499 I-0.167 J11.499
G1 X162.5
G2 X162.5 Y11.501 I0 J6.5
G1 X168.346
G3 X173.066 Y19.825 I0 J5.5
G1 X172.14 Y21.372
G2 X171.943 Y21.923 I1.287 J0.77
X173.446 Y29.865 I12.187 J1.807
X176.016 Y29.918 I1.301 J-0.747
G1 X186.114 Y13.909
X192.175 Y17.408
X182.39 Y32.919
G2 X182.806 Y34.953 I1.269 J0.8
G0 Z4
X245.34 Y-1.49
Z2
G1 Z-9 F333.3
Z-12
G2 X245.012 Y-1.499 I-0.34 J6.491 F700
X244.677 Y-1.499 I-0.167 J11.499
G1 X215
G2 X215 Y11.501 I0 J6.5
G1 X220.672
G3 X223.317 Y17.292 I0 J3.5
G1 X222.972 Y17.692
G2 X222.683 Y18.199 I1.134 J0.981
X222.783 Y26.281 I11.688 J3.897
X225.304 Y26.78 I1.411 J-0.51
G1 X238.031 Y12.767
X243.391 Y17.265
X231.062 Y30.842
G2 X231.842 Y33.314 I1.11 J1.008
X243.064 Y29.623 I2.528 J-11.218
G1 X253.538 Y17.528
G2 X245.393 Y-1.487 I-8.693 J-7.528
G1 X245.34 Y-1.49
Z-13 F333.3
G2 X245.012 Y-1.499 I-0.34 J6.491 F700
X244.677 Y-1.499 I-0.167 J11.499
G1 X215
G2 X215 Y11.501 I0 J6.5
G1 X220.672
G3 X223.317 Y17.292 I0 J3.5
G1 X222.972 Y17.692
G2 X222.683 Y18.199 I1.134 J0.981
X222.783 Y26.281 I11.688 J3.897
X225.304 Y26.78 I1.411 J-0.51
G1 X238.031 Y12.767
X243.391 Y17.265
X231.062 Y30.842
G2 X231.842 Y33.314 I1.11 J1.008
X243.064 Y29.623 I2.528 J-11.218
G1 X253.538 Y17.528
G2 X245.393 Y-1.487 I-8.693 J-7.528
G1 X245.34 Y-1.49
G0 Z4
X182.806 Y34.953
Z2
G1 Z-10 F333.3
Z-13
G2 X183.588 Y35.218 I0.853 J-1.234 F700
X193.999 Y29.635 I0.542 J-11.487
G1 X202.213 Y15.904
G2 X192.893 Y-1.487 I-9.868 J-5.904
X192.512 Y-1.499 I-0.392 J6.488
X192.177 Y-1.499 I-0.167 J11.499
G1 X162.5
G2 X162.5 Y11.501 I0 J6.5
G1 X168.346
G3 X173.066 Y19.825 I0 J5.5
G1 X172.14 Y21.372
G2 X171.943 Y21.923 I1.287 J0.77
X173.446 Y29.865 I12.187 J1.807
X176.016 Y29.918 I1.301 J-0.747
G1 X186.114 Y13.909
X192.175 Y17.408
X182.39 Y32.919
G2 X182.806 Y34.953 I1.269 J0.8
G0 Z4
X134.85 Y36.259
Z2
G1 Z-10 F333.3
Z-13
G2 X135.599 Y36.355 I0.559 J-1.392 F700
X144.883 Y29.049 I-1.46 J-11.407
G1 X150.588 Y14.101
G2 X140.393 Y-1.487 I-10.744 J-4.101
X140.012 Y-1.499 I-0.392 J6.488
X139.677 Y-1.499 I-0.167 J11.499
G1 X110
G2 X110 Y11.501 I0 J6.5
G1 X114.62
G3 X122.562 Y23.032 I0 J8.5
G1 X121.922 Y24.708
G2 X121.824 Y25.284 I1.401 J0.535
X124.683 Y32.845 I12.315 J-0.336
X127.222 Y32.451 I1.151 J-0.961
G1 X134.388 Y14.931
X140.964 Y17.324
X134.021 Y34.299
G2 X134.85 Y36.259 I1.388 J0.568
G0 Z4
X72.251 Y28.181
Z2
G1 Z-10 F333.3
Z-13
G2 X76.38 Y35.131 I12.07 J-2.469 F700
X78.813 Y34.302 I0.967 J-1.147
G1 X82.827 Y15.804
X89.718 Y17.019
X85.829 Y34.941
G2 X87.741 Y36.692 I1.466 J0.318
X95.615 Y27.885 I-3.419 J-10.98
G1 X98.637 Y12.173
G2 X87.892 Y-1.487 I-11.293 J-2.173
X87.512 Y-1.499 I-0.392 J6.488
X87.178 Y-1.499 I-0.167 J11.499
G1 X57.5
G2 X57.5 Y11.501 I0 J6.5
G1 X59
G3 X72.257 Y27.552 I0 J13.5
G1 X72.248 Y27.597
G2 X72.251 Y28.181 I1.473 J0.284
G0 Z4
X35.34 Y-1.49
Z2
G1 Z-10 F333.3
Z-13
G2 X35.012 Y-1.499 I-0.341 J6.491 F700
X34.678 Y-1.499 I-0.167 J11.499
G1 X5
G2 X5 Y11.501 I0 J6.5
G1 X9.608
G3 X23.107 Y25.211 I0 J13.5
G1 X23.033 Y29.951
G2 X23.138 Y30.526 I1.5 J0.023
X28.41 Y36.653 I11.458 J-4.528
X30.662 Y35.414 I0.753 J-1.297
G1 X31.404 Y16.5
X38.401
X37.683 Y34.826
G2 X39.87 Y36.217 I1.499 J0.059
X46.095 Y26.177 I-5.274 J-10.219
G1 X46.343 Y10.179
G2 X35.392 Y-1.487 I-11.499 J-0.179
G1 X35.34 Y-1.49
G0 Z4
X-1.483 Y5.471
Z2
G1 Z-11 F333.3
Z-14
G2 X5 Y11.501 I6.483 J-0.47 F700
G1 X9.608
G3 X23.107 Y25.211 I0 J13.5
G1 X23.033 Y29.951
G2 X23.138 Y30.526 I1.5 J0.023
X28.41 Y36.653 I11.458 J-4.528
X30.662 Y35.414 I0.753 J-1.297
G1 X31.404 Y16.5
X38.401
X37.683 Y34.826
G2 X39.87 Y36.217 I1.499 J0.059
X46.095 Y26.177 I-5.274 J-10.219
G1 X46.343 Y10.179
G2 X35.392 Y-1.487 I-11.499 J-0.179
X35.012 Y-1.499 I-0.392 J6.488
X34.678 Y-1.499 I-0.167 J11.499
G1 X5
G2 X-1.483 Y5.471 I0 J6.5
G0 Z4
X72.251 Y28.181
Z2
G1 Z-11 F333.3
Z-14
G2 X76.38 Y35.131 I12.07 J-2.469 F700
X78.813 Y34.302 I0.967 J-1.147
G1 X82.827 Y15.804
X89.718 Y17.019
X85.829 Y34.941
G2 X87.741 Y36.692 I1.466 J0.318
X95.615 Y27.885 I-3.419 J-10.98
G1 X98.637 Y12.173
G2 X87.892 Y-1.487 I-11.293 J-2.173
X87.512 Y-1.499 I-0.392 J6.488
X87.178 Y-1.499 I-0.167 J11.499
G1 X57.5
G2 X57.5 Y11.501 I0 J6.5
G1 X59
G3 X72.257 Y27.552 I0 J13.5
G1 X72.248 Y27.597
G2 X72.251 Y28.181 I1.473 J0.284
G0 Z4
X134.85 Y36.259
Z2
G1 Z-11 F333.3
Z-14
G2 X135.599 Y36.355 I0.559 J-1.392 F700
X144.883 Y29.049 I-1.46 J-11.407
G1 X150.588 Y14.101
G2 X140.393 Y-1.487 I-10.744 J-4.101
X140.012 Y-1.499 I-0.392 J6.488
X139.677 Y-1.499 I-0.167 J11.499
G1 X110
G2 X110 Y11.501 I0 J6.5
G1 X114.62
G3 X122.562 Y23.032 I0 J8.5
G1 X121.922 Y24.708
G2 X121.824 Y25.284 I1.401 J0.535
X124.683 Y32.845 I12.315 J-0.336
X127.222 Y32.451 I1.151 J-0.961
G1 X134.388 Y14.931
X140.964 Y17.324
X134.021 Y34.299
G2 X134.85 Y36.259 I1.388 J0.568
G0 Z4
X182.806 Y34.953
Z2
G1 Z-11 F333.3
Z-14
G2 X183.588 Y35.218 I0.853 J-1.234 F700
X193.999 Y29.635 I0.542 J-11.487
G1 X202.213 Y15.904
G2 X192.893 Y-1.487 I-9.868 J-5.904
X192.512 Y-1.499 I-0.392 J6.488
X192.177 Y-1.499 I-0.167 J11.499
G1 X162.5
G2 X162.5 Y11.501 I0 J6.5
G1 X168.346
G3 X173.066 Y19.825 I0 J5.5
G1 X172.14 Y21.372
G2 X171.943 Y21.923 I1.287 J0.77
X173.446 Y29.865 I12.187 J1.807
X176.016 Y29.918 I1.301 J-0.747
G1 X186.114 Y13.909
X192.175 Y17.408
X182.39 Y32.919
G2 X182.806 Y34.953 I1.269 J0.8
G0 Z4
X245.34 Y-1.49
Z2
G1 Z-11 F333.3
Z-14
G2 X245.012 Y-1.499 I-0.34 J6.491 F700
X244.677 Y-1.499 I-0.167 J11.499
G1 X215
G2 X215 Y11.501 I0 J6.5
G1 X220.672
G3 X223.317 Y17.292 I0 J3.5
G1 X222.972 Y17.692
G2 X222.683 Y18.199 I1.134 J0.981
X222.783 Y26.281 I11.688 J3.897
X225.304 Y26.78 I1.411 J-0.51
G1 X238.031 Y12.767
X243.391 Y17.265
X231.062 Y30.842
G2 X231.842 Y33.314 I1.11 J1.008
X243.064 Y29.623 I2.528 J-11.218
G1 X253.538 Y17.528
G2 X245.393 Y-1.487 I-8.693 J-7.528
G1 X245.34 Y-1.49
Z-15 F333.3
G2 X245.012 Y-1.499 I-0.34 J6.491 F700
X244.677 Y-1.499 I-0.167 J11.499
G1 X215
G2 X215 Y11.501 I0 J6.5
G1 X220.672
G3 X223.317 Y17.292 I0 J3.5
G1 X222.972 Y17.692
G2 X222.683 Y18.199 I1.134 J0.981
X222.783 Y26.281 I11.688 J3.897
X225.304 Y26.78 I1.411 J-0.51
G1 X238.031 Y12.767
X243.391 Y17.265
X231.062 Y30.842
G2 X231.842 Y33.314 I1.11 J1.008
X243.064 Y29.623 I2.528 J-11.218
G1 X253.538 Y17.528
G2 X245.393 Y-1.487 I-8.693 J-7.528
G1 X245.34 Y-1.49
G0 Z4
X182.806 Y34.953
Z2
G1 Z-12 F333.3
Z-15
G2 X183.588 Y35.218 I0.853 J-1.234 F700
X193.999 Y29.635 I0.542 J-11.487
G1 X202.213 Y15.904
G2 X192.893 Y-1.487 I-9.868 J-5.904
X192.512 Y-1.499 I-0.392 J6.488
X192.177 Y-1.499 I-0.167 J11.499
G1 X162.5
G2 X162.5 Y11.501 I0 J6.5
G1 X168.346
G3 X173.066 Y19.825 I0 J5.5
G1 X172.14 Y21.372
G2 X171.943 Y21.923 I1.287 J0.77
X173.446 Y29.865 I12.187 J1.807
X176.016 Y29.918 I1.301 J-0.747
G1 X186.114 Y13.909
X192.175 Y17.408
X182.39 Y32.919
G2 X182.806 Y34.953 I1.269 J0.8
G0 Z4
X134.85 Y36.259
Z2
G1 Z-12 F333.3
Z-15
G2 X135.599 Y36.355 I0.559 J-1.392 F700
X144.883 Y29.049 I-1.46 J-11.407
G1 X150.588 Y14.101
G2 X140.393 Y-1.487 I-10.744 J-4.101
X140.012 Y-1.499 I-0.392 J6.488
X139.677 Y-1.499 I-0.167 J11.499
G1 X110
G2 X110 Y11.501 I0 J6.5
G1 X114.62
G3 X122.562 Y23.032 I0 J8.5
G1 X121.922 Y24.708
G2 X121.824 Y25.284 I1.401 J0.535
X124.683 Y32.845 I12.315 J-0.336
X127.222 Y32.451 I1.151 J-0.961
G1 X134.388 Y14.931
X140.964 Y17.324
X134.021 Y34.299
G2 X134.85 Y36.259 I1.388 J0.568
G0 Z4
X72.251 Y28.181
Z2
G1 Z-12 F333.3
Z-15
G2 X76.38 Y35.131 I12.07 J-2.469 F700
X78.813 Y34.302 I0.967 J-1.147
G1 X82.827 Y15.804
X89.718 Y17.019
X85.829 Y34.941
G2 X87.741 Y36.692 I1.466 J0.318
X95.615 Y27.885 I-3.419 J-10.98
G1 X98.637 Y12.173
G2 X87.892 Y-1.487 I-11.293 J-2.173
X87.512 Y-1.499 I-0.392 J6.488
X87.178 Y-1.499 I-0.167 J11.499
G1 X57.5
G2 X57.5 Y11.501 I0 J6.5
G1 X59
G3 X72.257 Y27.552 I0 J13.5
G1 X72.248 Y27.597
G2 X72.251 Y28.181 I1.473 J0.284
G0 Z4
X35.34 Y-1.49
Z2
G1 Z-12 F333.3
Z-15
G2 X35.012 Y-1.499 I-0.341 J6.491 F700
X34.678 Y-1.499 I-0.167 J11.499
G1 X5
G2 X5 Y11.501 I0 J6.5
G1 X9.608
G3 X23.107 Y25.211 I0 J13.5
G1 X23.033 Y29.951
G2 X23.138 Y30.526 I1.5 J0.023
X28.41 Y36.653 I11.458 J-4.528
X30.662 Y35.414 I0.753 J-1.297
G1 X31.404 Y16.5
X38.401
X37.683 Y34.826
G2 X39.87 Y36.217 I1.499 J0.059
X46.095 Y26.177 I-5.274 J-10.219
G1 X46.343 Y10.179
G2 X35.392 Y-1.487 I-11.499 J-0.179
G1 X35.34 Y-1.49
G0 Z4
X-1.483 Y5.471
Z2
G1 Z-13 F333.3
Z-16
G2 X5 Y11.501 I6.483 J-0.47 F700
G1 X9.608
G3 X23.107 Y25.211 I0 J13.5
G1 X23.033 Y29.951
G2 X23.138 Y30.526 I1.5 J0.023
X28.41 Y36.653 I11.458 J-4.528
X30.662 Y35.414 I0.753 J-1.297
G1 X31.404 Y16.5
X38.401
X37.683 Y34.826
G2 X39.87 Y36.217 I1.499 J0.059
X46.095 Y26.177 I-5.274 J-10.219
G1 X46.343 Y10.179
G2 X35.392 Y-1.487 I-11.499 J-0.179
X35.012 Y-1.499 I-0.392 J6.488
X34.678 Y-1.499 I-0.167 J11.499
G1 X5
G2 X-1.483 Y5.471 I0 J6.5
G0 Z4
X72.251 Y28.181
Z2
G1 Z-13 F333.3
Z-16
G2 X76.38 Y35.131 I12.07 J-2.469 F700
X78.813 Y34.302 I0.967 J-1.147
G1 X82.827 Y15.804
X89.718 Y17.019
X85.829 Y34.941
G2 X87.741 Y36.692 I1.466 J0.318
X95.615 Y27.885 I-3.419 J-10.98
G1 X98.637 Y12.173
G2 X87.892 Y-1.487 I-11.293 J-2.173
X87.512 Y-1.499 I-0.392 J6.488
X87.178 Y-1.499 I-0.167 J11.499
G1 X57.5
G2 X57.5 Y11.501 I0 J6.5
G1 X59
G3 X72.257 Y27.552 I0 J13.5
G1 X72.248 Y27.597
G2 X72.251 Y28.181 I1.473 J0.284
G0 Z4
X134.85 Y36.259
Z2
G1 Z-13 F333.3
Z-16
G2 X135.599 Y36.355 I0.559 J-1.392 F700
X144.883 Y29.049 I-1.46 J-11.407
G1 X150.588 Y14.101
G2 X140.393 Y-1.487 I-10.744 J-4.101
X140.012 Y-1.499 I-0.392 J6.488
X139.677 Y-1.499 I-0.167 J11.499
G1 X110
G2 X110 Y11.501 I0 J6.5
G1 X114.62
G3 X122.562 Y23.032 I0 J8.5
G1 X121.922 Y24.708
G2 X121.824 Y25.284 I1.401 J0.535
X124.683 Y32.845 I12.315 J-0.336
X127.222 Y32.451 I1.151 J-0.961
G1 X134.388 Y14.931
X140.964 Y17.324
X134.021 Y34.299
G2 X134.85 Y36.259 I1.388 J0.568
G0 Z4
X182.806 Y34.953
Z2
G1 Z-13 F333.3
Z-16
G2 X183.588 Y35.218 I0.853 J-1.234 F700
X193.999 Y29.635 I0.542 J-11.487
G1 X202.213 Y15.904
G2 X192.893 Y-1.487 I-9.868 J-5.904
X192.512 Y-1.499 I-0.392 J6.488
X192.177 Y-1.499 I-0.167 J11.499
G1 X162.5
G2 X162.5 Y11.501 I0 J6.5
G1 X168.346
G3 X173.066 Y19.825 I0 J5.5
G1 X172.14 Y21.372
G2 X171.943 Y21.923 I1.287 J0.77
X173.446 Y29.865 I12.187 J1.807
X176.016 Y29.918 I1.301 J-0.747
G1 X186.114 Y13.909
X192.175 Y17.408
X182.39 Y32.919
G2 X182.806 Y34.953 I1.269 J0.8
G0 Z4
X245.34 Y-1.49
Z2
G1 Z-13 F333.3
Z-16
G2 X245.012 Y-1.499 I-0.34 J6.491 F700
X244.677 Y-1.499 I-0.167 J11.499
G1 X215
G2 X215 Y11.501 I0 J6.5
G1 X220.672
G3 X223.317 Y17.292 I0 J3.5
G1 X222.972 Y17.692
G2 X222.683 Y18.199 I1.134 J0.981
X222.783 Y26.281 I11.688 J3.897
X225.304 Y26.78 I1.411 J-0.51
G1 X238.031 Y12.767
X243.391 Y17.265
X231.062 Y30.842
G2 X231.842 Y33.314 I1.11 J1.008
X243.064 Y29.623 I2.528 J-11.218
G1 X253.538 Y17.528
G2 X245.393 Y-1.487 I-8.693 J-7.528
G1 X245.34 Y-1.49
Z-17 F333.3
G2 X245.012 Y-1.499 I-0.34 J6.491 F700
X244.677 Y-1.499 I-0.167 J11.499
G1 X215
G2 X215 Y11.501 I0 J6.5
G1 X220.672
G3 X223.317 Y17.292 I0 J3.5
G1 X222.972 Y17.692
G2 X222.683 Y18.199 I1.134 J0.981
X222.783 Y26.281 I11.688 J3.897
X225.304 Y26.78 I1.411 J-0.51
G1 X238.031 Y12.767
X243.391 Y17.265
X231.062 Y30.842
G2 X231.842 Y33.314 I1.11 J1.008
X243.064 Y29.623 I2.528 J-11.218
G1 X253.538 Y17.528
G2 X245.393 Y-1.487 I-8.693 J-7.528
G1 X245.34 Y-1.49
G0 Z4
X182.806 Y34.953
Z2
G1 Z-14 F333.3
Z-17
G2 X183.588 Y35.218 I0.853 J-1.234 F700
X193.999 Y29.635 I0.542 J-11.487
G1 X202.213 Y15.904
G2 X192.893 Y-1.487 I-9.868 J-5.904
X192.512 Y-1.499 I-0.392 J6.488
X192.177 Y-1.499 I-0.167 J11.499
G1 X162.5
G2 X162.5 Y11.501 I0 J6.5
G1 X168.346
G3 X173.066 Y19.825 I0 J5.5
G1 X172.14 Y21.372
G2 X171.943 Y21.923 I1.287 J0.77
X173.446 Y29.865 I12.187 J1.807
X176.016 Y29.918 I1.301 J-0.747
G1 X186.114 Y13.909
X192.175 Y17.408
X182.39 Y32.919
G2 X182.806 Y34.953 I1.269 J0.8
G0 Z4
X134.85 Y36.259
Z2
G1 Z-14 F333.3
Z-17
G2 X135.599 Y36.355 I0.559 J-1.392 F700
X144.883 Y29.049 I-1.46 J-11.407
G1 X150.588 Y14.101
G2 X140.393 Y-1.487 I-10.744 J-4.101
X140.012 Y-1.499 I-0.392 J6.488
X139.677 Y-1.499 I-0.167 J11.499
G1 X110
G2 X110 Y11.501 I0 J6.5
G1 X114.62
G3 X122.562 Y23.032 I0 J8.5
G1 X121.922 Y24.708
G2 X121.824 Y25.284 I1.401 J0.535
X124.683 Y32.845 I12.315 J-0.336
X127.222 Y32.451 I1.151 J-0.961
G1 X134.388 Y14.931
X140.964 Y17.324
X134.021 Y34.299
G2 X134.85 Y36.259 I1.388 J0.568
G0 Z4
X72.251 Y28.181
Z2
G1 Z-14 F333.3
Z-17
G2 X76.38 Y35.131 I12.07 J-2.469 F700
X78.813 Y34.302 I0.967 J-1.147
G1 X82.827 Y15.804
X89.718 Y17.019
X85.829 Y34.941
G2 X87.741 Y36.692 I1.466 J0.318
X95.615 Y27.885 I-3.419 J-10.98
G1 X98.637 Y12.173
G2 X87.892 Y-1.487 I-11.293 J-2.173
X87.512 Y-1.499 I-0.392 J6.488
X87.178 Y-1.499 I-0.167 J11.499
G1 X57.5
G2 X57.5 Y11.501 I0 J6.5
G1 X59
G3 X72.257 Y27.552 I0 J13.5
G1 X72.248 Y27.597
G2 X72.251 Y28.181 I1.473 J0.284
G0 Z4
X35.34 Y-1.49
Z2
G1 Z-14 F333.3
Z-17
G2 X35.012 Y-1.499 I-0.341 J6.491 F700
X34.678 Y-1.499 I-0.167 J11.499
G1 X5
G2 X5 Y11.501 I0 J6.5
G1 X9.608
G3 X23.107 Y25.211 I0 J13.5
G1 X23.033 Y29.951
G2 X23.138 Y30.526 I1.5 J0.023
X28.41 Y36.653 I11.458 J-4.528
X30.662 Y35.414 I0.753 J-1.297
G1 X31.404 Y16.5
X38.401
X37.683 Y34.826
G2 X39.87 Y36.217 I1.499 J0.059
X46.095 Y26.177 I-5.274 J-10.219
G1 X46.343 Y10.179
G2 X35.392 Y-1.487 I-11.499 J-0.179
G1 X35.34 Y-1.49
G0 Z4
X-1.483 Y5.471
Z2
G1 Z-15 F333.3
Z-18
G2 X5 Y11.501 I6.483 J-0.47 F700
G1 X9.608
G3 X23.107 Y25.211 I0 J13.5
G1 X23.033 Y29.951
G2 X23.138 Y30.526 I1.5 J0.023
X28.41 Y36.653 I11.458 J-4.528
X30.662 Y35.414 I0.753 J-1.297
G1 X31.404 Y16.5
X38.401
X37.683 Y34.826
G2 X39.87 Y36.217 I1.499 J0.059
X46.095 Y26.177 I-5.274 J-10.219
G1 X46.343 Y10.179
G2 X35.392 Y-1.487 I-11.499 J-0.179
X35.012 Y-1.499 I-0.392 J6.488
X34.678 Y-1.499 I-0.167 J11.499
G1 X5
G2 X-1.483 Y5.471 I0 J6.5
G0 Z4
X72.251 Y28.181
Z2
G1 Z-15 F333.3
Z-18
G2 X76.38 Y35.131 I12.07 J-2.469 F700
X78.813 Y34.302 I0.967 J-1.147
G1 X82.827 Y15.804
X89.718 Y17.019
X85.829 Y34.941
G2 X87.741 Y36.692 I1.466 J0.318
X95.615 Y27.885 I-3.419 J-10.98
G1 X98.637 Y12.173
G2 X87.892 Y-1.487 I-11.293 J-2.173
X87.512 Y-1.499 I-0.392 J6.488
X87.178 Y-1.499 I-0.167 J11.499
G1 X57.5
G2 X57.5 Y11.501 I0 J6.5
G1 X59
G3 X72.257 Y27.552 I0 J13.5
G1 X72.248 Y27.597
G2 X72.251 Y28.181 I1.473 J0.284
G0 Z4
X134.85 Y36.259
Z2
G1 Z-15 F333.3
Z-18
G2 X135.599 Y36.355 I0.559 J-1.392 F700
X144.883 Y29.049 I-1.46 J-11.407
G1 X150.588 Y14.101
G2 X140.393 Y-1.487 I-10.744 J-4.101
X140.012 Y-1.499 I-0.392 J6.488
X139.677 Y-1.499 I-0.167 J11.499
G1 X110
G2 X110 Y11.501 I0 J6.5
G1 X114.62
G3 X122.562 Y23.032 I0 J8.5
G1 X121.922 Y24.708
G2 X121.824 Y25.284 I1.401 J0.535
X124.683 Y32.845 I12.315 J-0.336
X127.222 Y32.451 I1.151 J-0.961
G1 X134.388 Y14.931
X140.964 Y17.324
X134.021 Y34.299
G2 X134.85 Y36.259 I1.388 J0.568
G0 Z4
X182.806 Y34.953
Z2
G1 Z-15 F333.3
Z-18
G2 X183.588 Y35.218 I0.853 J-1.234 F700
X193.999 Y29.635 I0.542 J-11.487
G1 X202.213 Y15.904
G2 X192.893 Y-1.487 I-9.868 J-5.904
X192.512 Y-1.499 I-0.392 J6.488
X192.177 Y-1.499 I-0.167 J11.499
G1 X162.5
G2 X162.5 Y11.501 I0 J6.5
G1 X168.346
G3 X173.066 Y19.825 I0 J5.5
G1 X172.14 Y21.372
G2 X171.943 Y21.923 I1.287 J0.77
X173.446 Y29.865 I12.187 J1.807
X176.016 Y29.918 I1.301 J-0.747
G1 X186.114 Y13.909
X192.175 Y17.408
X182.39 Y32.919
G2 X182.806 Y34.953 I1.269 J0.8
G0 Z4
X245.34 Y-1.49
Z2
G1 Z-15 F333.3
Z-18
G2 X245.012 Y-1.499 I-0.34 J6.491 F700
X244.677 Y-1.499 I-0.167 J11.499
G1 X215
G2 X215 Y11.501 I0 J6.5
G1 X220.672
G3 X223.317 Y17.292 I0 J3.5
G1 X222.972 Y17.692
G2 X222.683 Y18.199 I1.134 J0.981
X222.783 Y26.281 I11.688 J3.897
X225.304 Y26.78 I1.411 J-0.51
G1 X238.031 Y12.767
X243.391 Y17.265
X231.062 Y30.842
G2 X231.842 Y33.314 I1.11 J1.008
X243.064 Y29.623 I2.528 J-11.218
G1 X253.538 Y17.528
G2 X245.393 Y-1.487 I-8.693 J-7.528
G1 X245.34 Y-1.49
G0 Z7
M9
M5
M30
