(1001)
(T4  D=3 CR=0 - ZMIN=-17 - flat end mill)
G90 G94
G17
G21

(Drill2)
T4
S15000 M3
G54
M8
G0 X10.275 Y23.778
Z6
Z4
Z2
G1 Z-2 F333.3
G0 Z2
Z0
G1 Z-4 F333.3
G0 Z2
Z-2
G1 Z-6 F333.3
G0 Z2
Z-4
G1 Z-8 F333.3
G0 Z2
Z-6
G1 Z-10 F333.3
G0 Z2
Z-8
G1 Z-12 F333.3
G0 Z2
Z-10
G1 Z-14 F333.3
G0 Z2
Z-12
G1 Z-16 F333.3
G0 Z2
Z-14
G1 Z-17 F333.3
G0 Z4
Y28.878
Z2
G1 Z-2 F333.3
G0 Z2
Z0
G1 Z-4 F333.3
G0 Z2
Z-2
G1 Z-6 F333.3
G0 Z2
Z-4
G1 Z-8 F333.3
G0 Z2
Z-6
G1 Z-10 F333.3
G0 Z2
Z-8
G1 Z-12 F333.3
G0 Z2
Z-10
G1 Z-14 F333.3
G0 Z2
Z-12
G1 Z-16 F333.3
G0 Z2
Z-14
G1 Z-17 F333.3
G0 Z4
X35.706
Z2
G1 Z-2 F333.3
G0 Z2
Z0
G1 Z-4 F333.3
G0 Z2
Z-2
G1 Z-6 F333.3
G0 Z2
Z-4
G1 Z-8 F333.3
G0 Z2
Z-6
G1 Z-10 F333.3
G0 Z2
Z-8
G1 Z-12 F333.3
G0 Z2
Z-10
G1 Z-14 F333.3
G0 Z2
Z-12
G1 Z-16 F333.3
G0 Z2
Z-14
G1 Z-17 F333.3
G0 Z4
Y23.778
Z2
G1 Z-2 F333.3
G0 Z2
Z0
G1 Z-4 F333.3
G0 Z2
Z-2
G1 Z-6 F333.3
G0 Z2
Z-4
G1 Z-8 F333.3
G0 Z2
Z-6
G1 Z-10 F333.3
G0 Z2
Z-8
G1 Z-12 F333.3
G0 Z2
Z-10
G1 Z-14 F333.3
G0 Z2
Z-12
G1 Z-16 F333.3
G0 Z2
Z-14
G1 Z-17 F333.3
G0 Z4
X25.177 Y4.55
Z2
G1 Z-2 F333.3
G0 Z2
Z0
G1 Z-4 F333.3
G0 Z2
Z-2
G1 Z-6 F333.3
G0 Z2
Z-4
G1 Z-8 F333.3
G0 Z2
Z-6
G1 Z-10 F333.3
G0 Z2
Z-8
G1 Z-12 F333.3
G0 Z2
Z-10
G1 Z-14 F333.3
G0 Z2
Z-12
G1 Z-16 F333.3
G0 Z2
Z-14
G1 Z-17 F333.3
G0 Z4
X60.8
Z2
G1 Z-2 F333.3
G0 Z2
Z0
G1 Z-4 F333.3
G0 Z2
Z-2
G1 Z-6 F333.3
G0 Z2
Z-4
G1 Z-8 F333.3
G0 Z2
Z-6
G1 Z-10 F333.3
G0 Z2
Z-8
G1 Z-12 F333.3
G0 Z2
Z-10
G1 Z-14 F333.3
G0 Z2
Z-12
G1 Z-16 F333.3
G0 Z2
Z-14
G1 Z-17 F333.3
G0 Z4
X66.694 Y63.693
Z2
G1 Z-2 F333.3
G0 Z2
Z0
G1 Z-4 F333.3
G0 Z2
Z-2
G1 Z-6 F333.3
G0 Z2
Z-4
G1 Z-8 F333.3
G0 Z2
Z-6
G1 Z-10 F333.3
G0 Z2
Z-8
G1 Z-12 F333.3
G0 Z2
Z-10
G1 Z-14 F333.3
G0 Z2
Z-12
G1 Z-16 F333.3
G0 Z2
Z-14
G1 Z-17 F333.3
G0 Z4
Y68.793
Z2
G1 Z-2 F333.3
G0 Z2
Z0
G1 Z-4 F333.3
G0 Z2
Z-2
G1 Z-6 F333.3
G0 Z2
Z-4
G1 Z-8 F333.3
G0 Z2
Z-6
G1 Z-10 F333.3
G0 Z2
Z-8
G1 Z-12 F333.3
G0 Z2
Z-10
G1 Z-14 F333.3
G0 Z2
Z-12
G1 Z-16 F333.3
G0 Z2
Z-14
G1 Z-17 F333.3
G0 Z4
X81.11 Y128.379
Z2
G1 Z-2 F333.3
G0 Z2
Z0
G1 Z-4 F333.3
G0 Z2
Z-2
G1 Z-6 F333.3
G0 Z2
Z-4
G1 Z-8 F333.3
G0 Z2
Z-6
G1 Z-10 F333.3
G0 Z2
Z-8
G1 Z-12 F333.3
G0 Z2
Z-10
G1 Z-14 F333.3
G0 Z2
Z-12
G1 Z-16 F333.3
G0 Z2
Z-14
G1 Z-17 F333.3
G0 Z4
X29.245
Z2
G1 Z-2 F333.3
G0 Z2
Z0
G1 Z-4 F333.3
G0 Z2
Z-2
G1 Z-6 F333.3
G0 Z2
Z-4
G1 Z-8 F333.3
G0 Z2
Z-6
G1 Z-10 F333.3
G0 Z2
Z-8
G1 Z-12 F333.3
G0 Z2
Z-10
G1 Z-14 F333.3
G0 Z2
Z-12
G1 Z-16 F333.3
G0 Z2
Z-14
G1 Z-17 F333.3
G0 Z4
X242.523 Y112.872
Z2
G1 Z-2 F333.3
G0 Z2
Z0
G1 Z-4 F333.3
G0 Z2
Z-2
G1 Z-6 F333.3
G0 Z2
Z-4
G1 Z-8 F333.3
G0 Z2
Z-6
G1 Z-10 F333.3
G0 Z2
Z-8
G1 Z-12 F333.3
G0 Z2
Z-10
G1 Z-14 F333.3
G0 Z2
Z-12
G1 Z-16 F333.3
G0 Z2
Z-14
G1 Z-17 F333.3
G0 Z4
X250.601 Y93.651
Z2
G1 Z-2 F333.3
G0 Z2
Z0
G1 Z-4 F333.3
G0 Z2
Z-2
G1 Z-6 F333.3
G0 Z2
Z-4
G1 Z-8 F333.3
G0 Z2
Z-6
G1 Z-10 F333.3
G0 Z2
Z-8
G1 Z-12 F333.3
G0 Z2
Z-10
G1 Z-14 F333.3
G0 Z2
Z-12
G1 Z-16 F333.3
G0 Z2
Z-14
G1 Z-17 F333.3
G0 Z4
X250.659 Y86.849
Z2
G1 Z-2 F333.3
G0 Z2
Z0
G1 Z-4 F333.3
G0 Z2
Z-2
G1 Z-6 F333.3
G0 Z2
Z-4
G1 Z-8 F333.3
G0 Z2
Z-6
G1 Z-10 F333.3
G0 Z2
Z-8
G1 Z-12 F333.3
G0 Z2
Z-10
G1 Z-14 F333.3
G0 Z2
Z-12
G1 Z-16 F333.3
G0 Z2
Z-14
G1 Z-17 F333.3
G0 Z4
X250.718 Y80.047
Z2
G1 Z-2 F333.3
G0 Z2
Z0
G1 Z-4 F333.3
G0 Z2
Z-2
G1 Z-6 F333.3
G0 Z2
Z-4
G1 Z-8 F333.3
G0 Z2
Z-6
G1 Z-10 F333.3
G0 Z2
Z-8
G1 Z-12 F333.3
G0 Z2
Z-10
G1 Z-14 F333.3
G0 Z2
Z-12
G1 Z-16 F333.3
G0 Z2
Z-14
G1 Z-17 F333.3
G0 Z4
X243.615 Y68.793
Z2
G1 Z-2 F333.3
G0 Z2
Z0
G1 Z-4 F333.3
G0 Z2
Z-2
G1 Z-6 F333.3
G0 Z2
Z-4
G1 Z-8 F333.3
G0 Z2
Z-6
G1 Z-10 F333.3
G0 Z2
Z-8
G1 Z-12 F333.3
G0 Z2
Z-10
G1 Z-14 F333.3
G0 Z2
Z-12
G1 Z-16 F333.3
G0 Z2
Z-14
G1 Z-17 F333.3
G0 Z4
Y63.693
Z2
G1 Z-2 F333.3
G0 Z2
Z0
G1 Z-4 F333.3
G0 Z2
Z-2
G1 Z-6 F333.3
G0 Z2
Z-4
G1 Z-8 F333.3
G0 Z2
Z-6
G1 Z-10 F333.3
G0 Z2
Z-8
G1 Z-12 F333.3
G0 Z2
Z-10
G1 Z-14 F333.3
G0 Z2
Z-12
G1 Z-16 F333.3
G0 Z2
Z-14
G1 Z-17 F333.3
G0 Z4
X228.988
Z2
G1 Z-2 F333.3
G0 Z2
Z0
G1 Z-4 F333.3
G0 Z2
Z-2
G1 Z-6 F333.3
G0 Z2
Z-4
G1 Z-8 F333.3
G0 Z2
Z-6
G1 Z-10 F333.3
G0 Z2
Z-8
G1 Z-12 F333.3
G0 Z2
Z-10
G1 Z-14 F333.3
G0 Z2
Z-12
G1 Z-16 F333.3
G0 Z2
Z-14
G1 Z-17 F333.3
G0 Z4
Y68.793
Z2
G1 Z-2 F333.3
G0 Z2
Z0
G1 Z-4 F333.3
G0 Z2
Z-2
G1 Z-6 F333.3
G0 Z2
Z-4
G1 Z-8 F333.3
G0 Z2
Z-6
G1 Z-10 F333.3
G0 Z2
Z-8
G1 Z-12 F333.3
G0 Z2
Z-10
G1 Z-14 F333.3
G0 Z2
Z-12
G1 Z-16 F333.3
G0 Z2
Z-14
G1 Z-17 F333.3
G0 Z4
X251.145 Y30.429
Z2
G1 Z-2 F333.3
G0 Z2
Z0
G1 Z-4 F333.3
G0 Z2
Z-2
G1 Z-6 F333.3
G0 Z2
Z-4
G1 Z-8 F333.3
G0 Z2
Z-6
G1 Z-10 F333.3
G0 Z2
Z-8
G1 Z-12 F333.3
G0 Z2
Z-10
G1 Z-14 F333.3
G0 Z2
Z-12
G1 Z-16 F333.3
G0 Z2
Z-14
G1 Z-17 F333.3
G0 Z4
X251.197 Y24.427
Z2
G1 Z-2 F333.3
G0 Z2
Z0
G1 Z-4 F333.3
G0 Z2
Z-2
G1 Z-6 F333.3
G0 Z2
Z-4
G1 Z-8 F333.3
G0 Z2
Z-6
G1 Z-10 F333.3
G0 Z2
Z-8
G1 Z-12 F333.3
G0 Z2
Z-10
G1 Z-14 F333.3
G0 Z2
Z-12
G1 Z-16 F333.3
G0 Z2
Z-14
G1 Z-17 F333.3
G0 Z4
X242.518 Y17.5
Z2
G1 Z-2 F333.3
G0 Z2
Z0
G1 Z-4 F333.3
G0 Z2
Z-2
G1 Z-6 F333.3
G0 Z2
Z-4
G1 Z-8 F333.3
G0 Z2
Z-6
G1 Z-10 F333.3
G0 Z2
Z-8
G1 Z-12 F333.3
G0 Z2
Z-10
G1 Z-14 F333.3
G0 Z2
Z-12
G1 Z-16 F333.3
G0 Z2
Z-14
G1 Z-17 F333.3
G0 Z4
X251.326 Y9.498
Z2
G1 Z-2 F333.3
G0 Z2
Z0
G1 Z-4 F333.3
G0 Z2
Z-2
G1 Z-6 F333.3
G0 Z2
Z-4
G1 Z-8 F333.3
G0 Z2
Z-6
G1 Z-10 F333.3
G0 Z2
Z-8
G1 Z-12 F333.3
G0 Z2
Z-10
G1 Z-14 F333.3
G0 Z2
Z-12
G1 Z-16 F333.3
G0 Z2
Z-14
G1 Z-17 F333.3
G0 Z4
Z6
M9
M5
M30
