(1001)
(T4  D=3 CR=0 - ZMIN=-7 - flat end mill)
G90 G94
G17
G21

(2D Pocket4)
T4
S15000 M3
G54
M8
G0 X9.58 Y25.288
Z6
Z2
G1 Z1.8 F700
Z-0.5 F333.3
X10.275 Y24.825 F700
X10.969 Y25.288
G3 X10.969 Y27.367 I-0.694 J1.039
G1 X10.275 Y27.831
X9.58 Y27.367
G3 X9.58 Y25.288 I0.694 J-1.039
G1 Z1.3
Z-1 F333.3
X10.275 Y24.825 F700
X10.969 Y25.288
G3 X10.969 Y27.367 I-0.694 J1.039
G1 X10.275 Y27.831
X9.58 Y27.367
G3 X9.58 Y25.288 I0.694 J-1.039
G1 Z0.8
Z-1.5 F333.3
X10.275 Y24.825 F700
X10.969 Y25.288
G3 X10.969 Y27.367 I-0.694 J1.039
G1 X10.275 Y27.831
X9.58 Y27.367
G3 X9.58 Y25.288 I0.694 J-1.039
G1 Z0.3
Z-2 F333.3
X10.275 Y24.825 F700
X10.969 Y25.288
G3 X10.969 Y27.367 I-0.694 J1.039
G1 X10.275 Y27.831
X9.58 Y27.367
G3 X9.58 Y25.288 I0.694 J-1.039
G1 Z-0.2
Z-2.5 F333.3
X10.275 Y24.825 F700
X10.969 Y25.288
G3 X10.969 Y27.367 I-0.694 J1.039
G1 X10.275 Y27.831
X9.58 Y27.367
G3 X9.58 Y25.288 I0.694 J-1.039
G1 Z-0.7
Z-3 F333.3
X10.275 Y24.825 F700
X10.969 Y25.288
G3 X10.969 Y27.367 I-0.694 J1.039
G1 X10.275 Y27.831
X9.58 Y27.367
G3 X9.58 Y25.288 I0.694 J-1.039
G1 Z-1.2
Z-3.5 F333.3
X10.275 Y24.825 F700
X10.969 Y25.288
G3 X10.969 Y27.367 I-0.694 J1.039
G1 X10.275 Y27.831
X9.58 Y27.367
G3 X9.58 Y25.288 I0.694 J-1.039
G1 Z-1.7
Z-4 F333.3
X10.275 Y24.825 F700
X10.969 Y25.288
G3 X10.969 Y27.367 I-0.694 J1.039
G1 X10.275 Y27.831
X9.58 Y27.367
G3 X9.58 Y25.288 I0.694 J-1.039
G1 Z-2.2
Z-4.5 F333.3
X10.275 Y24.825 F700
X10.969 Y25.288
G3 X10.969 Y27.367 I-0.694 J1.039
G1 X10.275 Y27.831
X9.58 Y27.367
G3 X9.58 Y25.288 I0.694 J-1.039
G1 Z-2.7
Z-5 F333.3
X10.275 Y24.825 F700
X10.969 Y25.288
G3 X10.969 Y27.367 I-0.694 J1.039
G1 X10.275 Y27.831
X9.58 Y27.367
G3 X9.58 Y25.288 I0.694 J-1.039
G1 Z-3.2
Z-5.5 F333.3
X10.275 Y24.825 F700
X10.969 Y25.288
G3 X10.969 Y27.367 I-0.694 J1.039
G1 X10.275 Y27.831
X9.58 Y27.367
G3 X9.58 Y25.288 I0.694 J-1.039
G1 Z-3.7
Z-6 F333.3
X10.275 Y24.825 F700
X10.969 Y25.288
G3 X10.969 Y27.367 I-0.694 J1.039
G1 X10.275 Y27.831
X9.58 Y27.367
G3 X9.58 Y25.288 I0.694 J-1.039
G1 Z-4.2
Z-6.5 F333.3
X10.275 Y24.825 F700
X10.969 Y25.288
G3 X10.969 Y27.367 I-0.694 J1.039
G1 X10.275 Y27.831
X9.58 Y27.367
G3 X9.58 Y25.288 I0.694 J-1.039
G1 Z-4.7
Z-7 F333.3
X10.275 Y24.825 F700
X10.969 Y25.288
G3 X10.969 Y27.367 I-0.694 J1.039
G1 X10.275 Y27.831
X9.58 Y27.367
G3 X9.58 Y25.288 I0.694 J-1.039
G0 Z6
X11.668 Y26.328
Z2
G1 Z1.8 F700
X7.952 Z1 F333.3
X12.597 Z0
X10.274 Z-0.5
G2 X9.473 Y27.007 I0 J0.812
G1 X9.288 Y28.118
G3 X7.89 Y28.536 I-0.801 J-0.134
X7.89 Y24.119 I2.384 J-2.209 F700
G2 X8.262 Y23.386 I-1.1 J-1.019
G3 X12.287 Y23.386 I2.012 J0.391
G2 X12.659 Y24.119 I1.472 J-0.286
G3 X12.659 Y28.536 I-2.384 J2.209
G2 X12.287 Y29.269 I1.1 J1.019
G3 X8.262 Y29.269 I-2.012 J-0.391
G2 X7.89 Y28.536 I-1.472 J0.286
G3 X7.99 Y27.613 I0.451 J-0.418
G1 X10.331 Y25.987
X10.392 Y25.938
X10.446 Y25.882
X10.489 Y25.838
X10.536 Y25.797
X11.271 Y25.227
G3 X12.025 Y26.199 I0.377 J0.486
X11.648 Y26.328 I-0.377 J-0.486
G1 X10.274 Z-1 F333.3
G2 X9.473 Y27.007 I0 J0.812
G1 X9.288 Y28.118
G3 X7.89 Y28.536 I-0.801 J-0.134
X7.89 Y24.119 I2.384 J-2.209 F700
G2 X8.262 Y23.386 I-1.1 J-1.019
G3 X12.287 Y23.386 I2.012 J0.391
G2 X12.659 Y24.119 I1.472 J-0.286
G3 X12.659 Y28.536 I-2.384 J2.209
G2 X12.287 Y29.269 I1.1 J1.019
G3 X8.262 Y29.269 I-2.012 J-0.391
G2 X7.89 Y28.536 I-1.472 J0.286
G3 X7.99 Y27.613 I0.451 J-0.418
G1 X10.331 Y25.987
X10.392 Y25.938
X10.446 Y25.882
X10.489 Y25.838
X10.536 Y25.797
X11.271 Y25.227
G3 X12.025 Y26.199 I0.377 J0.486
X11.648 Y26.328 I-0.377 J-0.486
G1 X10.274 Z-1.5 F333.3
G2 X9.473 Y27.007 I0 J0.812
G1 X9.288 Y28.118
G3 X7.89 Y28.536 I-0.801 J-0.134
X7.89 Y24.119 I2.384 J-2.209 F700
G2 X8.262 Y23.386 I-1.1 J-1.019
G3 X12.287 Y23.386 I2.012 J0.391
G2 X12.659 Y24.119 I1.472 J-0.286
G3 X12.659 Y28.536 I-2.384 J2.209
G2 X12.287 Y29.269 I1.1 J1.019
G3 X8.262 Y29.269 I-2.012 J-0.391
G2 X7.89 Y28.536 I-1.472 J0.286
G3 X7.99 Y27.613 I0.451 J-0.418
G1 X10.331 Y25.987
X10.392 Y25.938
X10.446 Y25.882
X10.489 Y25.838
X10.536 Y25.797
X11.271 Y25.227
G3 X12.025 Y26.199 I0.377 J0.486
X11.648 Y26.328 I-0.377 J-0.486
G1 X10.274 Z-2 F333.3
G2 X9.473 Y27.007 I0 J0.812
G1 X9.288 Y28.118
G3 X7.89 Y28.536 I-0.801 J-0.134
X7.89 Y24.119 I2.384 J-2.209 F700
G2 X8.262 Y23.386 I-1.1 J-1.019
G3 X12.287 Y23.386 I2.012 J0.391
G2 X12.659 Y24.119 I1.472 J-0.286
G3 X12.659 Y28.536 I-2.384 J2.209
G2 X12.287 Y29.269 I1.1 J1.019
G3 X8.262 Y29.269 I-2.012 J-0.391
G2 X7.89 Y28.536 I-1.472 J0.286
G0 Z6
X36.956 Y26.328
Z2
G1 Z1.8 F700
Z-0.5 F333.3
G3 X36.4 Y27.367 I-1.25 J0 F700
G1 X35.706 Y27.831
X35.011 Y27.367
G3 X35.011 Y25.288 I0.694 J-1.039
G1 X35.706 Y24.825
X36.4 Y25.288
G3 X36.956 Y26.328 I-0.694 J1.039
G1 Z1.3
Z-1 F333.3
G3 X36.4 Y27.367 I-1.25 J0 F700
G1 X35.706 Y27.831
X35.011 Y27.367
G3 X35.011 Y25.288 I0.694 J-1.039
G1 X35.706 Y24.825
X36.4 Y25.288
G3 X36.956 Y26.328 I-0.694 J1.039
G1 Z0.8
Z-1.5 F333.3
G3 X36.4 Y27.367 I-1.25 J0 F700
G1 X35.706 Y27.831
X35.011 Y27.367
G3 X35.011 Y25.288 I0.694 J-1.039
G1 X35.706 Y24.825
X36.4 Y25.288
G3 X36.956 Y26.328 I-0.694 J1.039
G1 Z0.3
Z-2 F333.3
G3 X36.4 Y27.367 I-1.25 J0 F700
G1 X35.706 Y27.831
X35.011 Y27.367
G3 X35.011 Y25.288 I0.694 J-1.039
G1 X35.706 Y24.825
X36.4 Y25.288
G3 X36.956 Y26.328 I-0.694 J1.039
G1 Z-0.2
Z-2.5 F333.3
G3 X36.4 Y27.367 I-1.25 J0 F700
G1 X35.706 Y27.831
X35.011 Y27.367
G3 X35.011 Y25.288 I0.694 J-1.039
G1 X35.706 Y24.825
X36.4 Y25.288
G3 X36.956 Y26.328 I-0.694 J1.039
G1 Z-0.7
Z-3 F333.3
G3 X36.4 Y27.367 I-1.25 J0 F700
G1 X35.706 Y27.831
X35.011 Y27.367
G3 X35.011 Y25.288 I0.694 J-1.039
G1 X35.706 Y24.825
X36.4 Y25.288
G3 X36.956 Y26.328 I-0.694 J1.039
G1 Z-1.2
Z-3.5 F333.3
G3 X36.4 Y27.367 I-1.25 J0 F700
G1 X35.706 Y27.831
X35.011 Y27.367
G3 X35.011 Y25.288 I0.694 J-1.039
G1 X35.706 Y24.825
X36.4 Y25.288
G3 X36.956 Y26.328 I-0.694 J1.039
G1 Z-1.7
Z-4 F333.3
G3 X36.4 Y27.367 I-1.25 J0 F700
G1 X35.706 Y27.831
X35.011 Y27.367
G3 X35.011 Y25.288 I0.694 J-1.039
G1 X35.706 Y24.825
X36.4 Y25.288
G3 X36.956 Y26.328 I-0.694 J1.039
G1 Z-2.2
Z-4.5 F333.3
G3 X36.4 Y27.367 I-1.25 J0 F700
G1 X35.706 Y27.831
X35.011 Y27.367
G3 X35.011 Y25.288 I0.694 J-1.039
G1 X35.706 Y24.825
X36.4 Y25.288
G3 X36.956 Y26.328 I-0.694 J1.039
G1 Z-2.7
Z-5 F333.3
G3 X36.4 Y27.367 I-1.25 J0 F700
G1 X35.706 Y27.831
X35.011 Y27.367
G3 X35.011 Y25.288 I0.694 J-1.039
G1 X35.706 Y24.825
X36.4 Y25.288
G3 X36.956 Y26.328 I-0.694 J1.039
G1 Z-3.2
Z-5.5 F333.3
G3 X36.4 Y27.367 I-1.25 J0 F700
G1 X35.706 Y27.831
X35.011 Y27.367
G3 X35.011 Y25.288 I0.694 J-1.039
G1 X35.706 Y24.825
X36.4 Y25.288
G3 X36.956 Y26.328 I-0.694 J1.039
G1 Z-3.7
Z-6 F333.3
G3 X36.4 Y27.367 I-1.25 J0 F700
G1 X35.706 Y27.831
X35.011 Y27.367
G3 X35.011 Y25.288 I0.694 J-1.039
G1 X35.706 Y24.825
X36.4 Y25.288
G3 X36.956 Y26.328 I-0.694 J1.039
G1 Z-4.2
Z-6.5 F333.3
G3 X36.4 Y27.367 I-1.25 J0 F700
G1 X35.706 Y27.831
X35.011 Y27.367
G3 X35.011 Y25.288 I0.694 J-1.039
G1 X35.706 Y24.825
X36.4 Y25.288
G3 X36.956 Y26.328 I-0.694 J1.039
G1 Z-4.7
Z-7 F333.3
G3 X36.4 Y27.367 I-1.25 J0 F700
G1 X35.706 Y27.831
X35.011 Y27.367
G3 X35.011 Y25.288 I0.694 J-1.039
G1 X35.706 Y24.825
X36.4 Y25.288
G3 X36.956 Y26.328 I-0.694 J1.039
G0 Z6
X37.099
Z2
G1 Z1.8 F700
X33.383 Z1 F333.3
X38.028 Z0
X35.706 Z-0.5
G2 X34.904 Y27.007 I0 J0.812
G1 X34.719 Y28.118
G3 X33.321 Y28.536 I-0.801 J-0.134
X33.321 Y24.119 I2.384 J-2.209 F700
G2 X33.693 Y23.386 I-1.1 J-1.019
G3 X37.718 Y23.386 I2.012 J0.391
G2 X38.09 Y24.119 I1.472 J-0.286
G3 X38.09 Y28.536 I-2.384 J2.209
G2 X37.718 Y29.269 I1.1 J1.019
G3 X33.693 Y29.269 I-2.012 J-0.391
G2 X33.321 Y28.536 I-1.472 J0.286
G3 X33.421 Y27.613 I0.451 J-0.418
G1 X35.762 Y25.987
X35.823 Y25.938
X35.877 Y25.882
X35.92 Y25.838
X35.967 Y25.797
X36.702 Y25.227
G3 X37.456 Y26.199 I0.377 J0.486
X37.079 Y26.328 I-0.377 J-0.486
G1 X35.706 Z-1 F333.3
G2 X34.904 Y27.007 I0 J0.812
G1 X34.719 Y28.118
G3 X33.321 Y28.536 I-0.801 J-0.134
X33.321 Y24.119 I2.384 J-2.209 F700
G2 X33.693 Y23.386 I-1.1 J-1.019
G3 X37.718 Y23.386 I2.012 J0.391
G2 X38.09 Y24.119 I1.472 J-0.286
G3 X38.09 Y28.536 I-2.384 J2.209
G2 X37.718 Y29.269 I1.1 J1.019
G3 X33.693 Y29.269 I-2.012 J-0.391
G2 X33.321 Y28.536 I-1.472 J0.286
G3 X33.421 Y27.613 I0.451 J-0.418
G1 X35.762 Y25.987
X35.823 Y25.938
X35.877 Y25.882
X35.92 Y25.838
X35.967 Y25.797
X36.702 Y25.227
G3 X37.456 Y26.199 I0.377 J0.486
X37.079 Y26.328 I-0.377 J-0.486
G1 X35.706 Z-1.5 F333.3
G2 X34.904 Y27.007 I0 J0.812
G1 X34.719 Y28.118
G3 X33.321 Y28.536 I-0.801 J-0.134
X33.321 Y24.119 I2.384 J-2.209 F700
G2 X33.693 Y23.386 I-1.1 J-1.019
G3 X37.718 Y23.386 I2.012 J0.391
G2 X38.09 Y24.119 I1.472 J-0.286
G3 X38.09 Y28.536 I-2.384 J2.209
G2 X37.718 Y29.269 I1.1 J1.019
G3 X33.693 Y29.269 I-2.012 J-0.391
G2 X33.321 Y28.536 I-1.472 J0.286
G3 X33.421 Y27.613 I0.451 J-0.418
G1 X35.762 Y25.987
X35.823 Y25.938
X35.877 Y25.882
X35.92 Y25.838
X35.967 Y25.797
X36.702 Y25.227
G3 X37.456 Y26.199 I0.377 J0.486
X37.079 Y26.328 I-0.377 J-0.486
G1 X35.706 Z-2 F333.3
G2 X34.904 Y27.007 I0 J0.812
G1 X34.719 Y28.118
G3 X33.321 Y28.536 I-0.801 J-0.134
X33.321 Y24.119 I2.384 J-2.209 F700
G2 X33.693 Y23.386 I-1.1 J-1.019
G3 X37.718 Y23.386 I2.012 J0.391
G2 X38.09 Y24.119 I1.472 J-0.286
G3 X38.09 Y28.536 I-2.384 J2.209
G2 X37.718 Y29.269 I1.1 J1.019
G3 X33.693 Y29.269 I-2.012 J-0.391
G2 X33.321 Y28.536 I-1.472 J0.286
G0 Z6
X138.973 Y-1.411
Z2
G1 Z1.5 F700
Z-0.5
Y-1.388
Y-1.221
G3 X138.654 Y-0.902 I-0.319 J0
G1 X65.078 Y-0.947
G2 X61.368 Y4.344 I0 J3.947
G3 X60.233 Y4.756 I-0.567 J0.206
X60.197 Y4.55 I0.567 J-0.206
G1 X60.194 Y-1.391
Y-1.402
G0 Z4
X141.374 Y-1.422
Z2
G1 Z1.5 F700
Z-0.5
X141.375 Y-1.398
Y1.5
X65.078
G2 X63.668 Y3.511 I0 J1.5
G3 X57.933 Y5.589 I-2.868 J1.039
X57.75 Y4.55 I2.868 J-1.039
G1 Y0
Y-1.397
G0 Z4
X138.973 Y-1.411
Z2
G1 Z1 F700
Z-1
Y-1.388
Y-1.221
G3 X138.654 Y-0.902 I-0.319 J0
G1 X65.078 Y-0.947
G2 X61.368 Y4.344 I0 J3.947
G3 X60.233 Y4.756 I-0.567 J0.206
X60.197 Y4.55 I0.567 J-0.206
G1 X60.194 Y-1.391
Y-1.402
G0 Z4
X141.374 Y-1.422
Z2
G1 Z1 F700
Z-1
X141.375 Y-1.398
Y1.5
X65.078
G2 X63.668 Y3.511 I0 J1.5
G3 X57.933 Y5.589 I-2.868 J1.039
X57.75 Y4.55 I2.868 J-1.039
G1 Y0
Y-1.397
G0 Z4
X138.973 Y-1.411
Z2
G1 Z0.5 F700
Z-1.5
Y-1.388
Y-1.221
G3 X138.654 Y-0.902 I-0.319 J0
G1 X65.078 Y-0.947
G2 X61.368 Y4.344 I0 J3.947
G3 X60.233 Y4.756 I-0.567 J0.206
X60.197 Y4.55 I0.567 J-0.206
G1 X60.194 Y-1.391
Y-1.402
G0 Z4
X141.374 Y-1.422
Z2
G1 Z0.5 F700
Z-1.5
X141.375 Y-1.398
Y1.5
X65.078
G2 X63.668 Y3.511 I0 J1.5
G3 X57.933 Y5.589 I-2.868 J1.039
X57.75 Y4.55 I2.868 J-1.039
G1 Y0
Y-1.397
G0 Z4
X138.973 Y-1.411
Z2
G1 Z0 F700
Z-2
Y-1.388
Y-1.221
G3 X138.654 Y-0.902 I-0.319 J0
G1 X65.078 Y-0.947
G2 X61.368 Y4.344 I0 J3.947
G3 X60.233 Y4.756 I-0.567 J0.206
X60.197 Y4.55 I0.567 J-0.206
G1 X60.194 Y-1.391
Y-1.402
G0 Z4
X141.374 Y-1.422
Z2
G1 Z0 F700
Z-2
X141.375 Y-1.398
Y1.5
X65.078
G2 X63.668 Y3.511 I0 J1.5
G3 X57.933 Y5.589 I-2.868 J1.039
X57.75 Y4.55 I2.868 J-1.039
G1 Y0
Y-1.397
G0 Z4
X138.973 Y-1.411
Z2
G1 Z-0.5 F700
Z-2.5
Y-1.388
Y-1.221
G3 X138.654 Y-0.902 I-0.319 J0
G1 X65.078 Y-0.947
G2 X61.368 Y4.344 I0 J3.947
G3 X60.233 Y4.756 I-0.567 J0.206
X60.197 Y4.55 I0.567 J-0.206
G1 X60.194 Y-1.391
Y-1.402
G0 Z4
X141.374 Y-1.422
Z2
G1 Z-0.5 F700
Z-2.5
X141.375 Y-1.398
Y1.5
X65.078
G2 X63.668 Y3.511 I0 J1.5
G3 X57.933 Y5.589 I-2.868 J1.039
X57.75 Y4.55 I2.868 J-1.039
G1 Y0
Y-1.397
G0 Z4
X138.973 Y-1.411
Z2
G1 Z-1 F700
Z-3
Y-1.388
Y-1.221
G3 X138.654 Y-0.902 I-0.319 J0
G1 X65.078 Y-0.947
G2 X61.368 Y4.344 I0 J3.947
G3 X60.233 Y4.756 I-0.567 J0.206
X60.197 Y4.55 I0.567 J-0.206
G1 X60.194 Y-1.391
Y-1.402
G0 Z4
X141.374 Y-1.422
Z2
G1 Z-1 F700
Z-3
X141.375 Y-1.398
Y1.5
X65.078
G2 X63.668 Y3.511 I0 J1.5
G3 X57.933 Y5.589 I-2.868 J1.039
X57.75 Y4.55 I2.868 J-1.039
G1 Y0
Y-1.397
G0 Z4
X138.973 Y-1.411
Z2
G1 Z-1.5 F700
Z-3.5
Y-1.388
Y-1.221
G3 X138.654 Y-0.902 I-0.319 J0
G1 X65.078 Y-0.947
G2 X61.368 Y4.344 I0 J3.947
G3 X60.233 Y4.756 I-0.567 J0.206
X60.197 Y4.55 I0.567 J-0.206
G1 X60.194 Y-1.391
Y-1.402
G0 Z4
X141.374 Y-1.422
Z2
G1 Z-1.5 F700
Z-3.5
X141.375 Y-1.398
Y1.5
X65.078
G2 X63.668 Y3.511 I0 J1.5
G3 X57.933 Y5.589 I-2.868 J1.039
X57.75 Y4.55 I2.868 J-1.039
G1 Y0
Y-1.397
G0 Z4
X138.973 Y-1.411
Z2
G1 Z-2 F700
Z-4
Y-1.388
Y-1.221
G3 X138.654 Y-0.902 I-0.319 J0
G1 X65.078 Y-0.947
G2 X61.368 Y4.344 I0 J3.947
G3 X60.233 Y4.756 I-0.567 J0.206
X60.197 Y4.55 I0.567 J-0.206
G1 X60.194 Y-1.391
Y-1.402
G0 Z4
X141.374 Y-1.422
Z2
G1 Z-2 F700
Z-4
X141.375 Y-1.398
Y1.5
X65.078
G2 X63.668 Y3.511 I0 J1.5
G3 X57.933 Y5.589 I-2.868 J1.039
X57.75 Y4.55 I2.868 J-1.039
G1 Y0
Y-1.397
G0 Z4
X138.973 Y-1.411
Z2
G1 Z-2.5 F700
Z-4.5
Y-1.388
Y-1.221
G3 X138.654 Y-0.902 I-0.319 J0
G1 X65.078 Y-0.947
G2 X61.368 Y4.344 I0 J3.947
G3 X60.233 Y4.756 I-0.567 J0.206
X60.197 Y4.55 I0.567 J-0.206
G1 X60.194 Y-1.391
Y-1.402
G0 Z4
X141.374 Y-1.422
Z2
G1 Z-2.5 F700
Z-4.5
X141.375 Y-1.398
Y1.5
X65.078
G2 X63.668 Y3.511 I0 J1.5
G3 X57.933 Y5.589 I-2.868 J1.039
X57.75 Y4.55 I2.868 J-1.039
G1 Y0
Y-1.397
G0 Z4
X138.973 Y-1.411
Z2
G1 Z-3 F700
Z-5
Y-1.388
Y-1.221
G3 X138.654 Y-0.902 I-0.319 J0
G1 X65.078 Y-0.947
G2 X61.368 Y4.344 I0 J3.947
G3 X60.233 Y4.756 I-0.567 J0.206
X60.197 Y4.55 I0.567 J-0.206
G1 X60.194 Y-1.391
Y-1.402
G0 Z4
X141.374 Y-1.422
Z2
G1 Z-3 F700
Z-5
X141.375 Y-1.398
Y1.5
X65.078
G2 X63.668 Y3.511 I0 J1.5
G3 X57.933 Y5.589 I-2.868 J1.039
X57.75 Y4.55 I2.868 J-1.039
G1 Y0
Y-1.397
G0 Z4
X138.973 Y-1.411
Z2
G1 Z-3.5 F700
Z-5.5
Y-1.388
Y-1.221
G3 X138.654 Y-0.902 I-0.319 J0
G1 X65.078 Y-0.947
G2 X61.368 Y4.344 I0 J3.947
G3 X60.233 Y4.756 I-0.567 J0.206
X60.197 Y4.55 I0.567 J-0.206
G1 X60.194 Y-1.391
Y-1.402
G0 Z4
X141.374 Y-1.422
Z2
G1 Z-3.5 F700
Z-5.5
X141.375 Y-1.398
Y1.5
X65.078
G2 X63.668 Y3.511 I0 J1.5
G3 X57.933 Y5.589 I-2.868 J1.039
X57.75 Y4.55 I2.868 J-1.039
G1 Y0
Y-1.397
G0 Z4
X138.973 Y-1.411
Z2
G1 Z-4 F700
Z-6
Y-1.388
Y-1.221
G3 X138.654 Y-0.902 I-0.319 J0
G1 X65.078 Y-0.947
G2 X61.368 Y4.344 I0 J3.947
G3 X60.233 Y4.756 I-0.567 J0.206
X60.197 Y4.55 I0.567 J-0.206
G1 X60.194 Y-1.391
Y-1.402
G0 Z4
X141.374 Y-1.422
Z2
G1 Z-4 F700
Z-6
X141.375 Y-1.398
Y1.5
X65.078
G2 X63.668 Y3.511 I0 J1.5
G3 X57.933 Y5.589 I-2.868 J1.039
X57.75 Y4.55 I2.868 J-1.039
G1 Y0
Y-1.397
G0 Z6
X66 Y65.203
Z2
G1 Z1.8 F700
Z-0.5 F333.3
X66.694 Y64.74 F700
X67.389 Y65.203
G3 X67.389 Y67.282 I-0.694 J1.039
G1 X66.694 Y67.746
X66 Y67.282
G3 X66 Y65.203 I0.694 J-1.039
G1 Z1.3
Z-1 F333.3
X66.694 Y64.74 F700
X67.389 Y65.203
G3 X67.389 Y67.282 I-0.694 J1.039
G1 X66.694 Y67.746
X66 Y67.282
G3 X66 Y65.203 I0.694 J-1.039
G1 Z0.8
Z-1.5 F333.3
X66.694 Y64.74 F700
X67.389 Y65.203
G3 X67.389 Y67.282 I-0.694 J1.039
G1 X66.694 Y67.746
X66 Y67.282
G3 X66 Y65.203 I0.694 J-1.039
G1 Z0.3
Z-2 F333.3
X66.694 Y64.74 F700
X67.389 Y65.203
G3 X67.389 Y67.282 I-0.694 J1.039
G1 X66.694 Y67.746
X66 Y67.282
G3 X66 Y65.203 I0.694 J-1.039
G1 Z-0.2
Z-2.5 F333.3
X66.694 Y64.74 F700
X67.389 Y65.203
G3 X67.389 Y67.282 I-0.694 J1.039
G1 X66.694 Y67.746
X66 Y67.282
G3 X66 Y65.203 I0.694 J-1.039
G1 Z-0.7
Z-3 F333.3
X66.694 Y64.74 F700
X67.389 Y65.203
G3 X67.389 Y67.282 I-0.694 J1.039
G1 X66.694 Y67.746
X66 Y67.282
G3 X66 Y65.203 I0.694 J-1.039
G1 Z-1.2
Z-3.5 F333.3
X66.694 Y64.74 F700
X67.389 Y65.203
G3 X67.389 Y67.282 I-0.694 J1.039
G1 X66.694 Y67.746
X66 Y67.282
G3 X66 Y65.203 I0.694 J-1.039
G1 Z-1.7
Z-4 F333.3
X66.694 Y64.74 F700
X67.389 Y65.203
G3 X67.389 Y67.282 I-0.694 J1.039
G1 X66.694 Y67.746
X66 Y67.282
G3 X66 Y65.203 I0.694 J-1.039
G1 Z-2.2
Z-4.5 F333.3
X66.694 Y64.74 F700
X67.389 Y65.203
G3 X67.389 Y67.282 I-0.694 J1.039
G1 X66.694 Y67.746
X66 Y67.282
G3 X66 Y65.203 I0.694 J-1.039
G1 Z-2.7
Z-5 F333.3
X66.694 Y64.74 F700
X67.389 Y65.203
G3 X67.389 Y67.282 I-0.694 J1.039
G1 X66.694 Y67.746
X66 Y67.282
G3 X66 Y65.203 I0.694 J-1.039
G1 Z-3.2
Z-5.5 F333.3
X66.694 Y64.74 F700
X67.389 Y65.203
G3 X67.389 Y67.282 I-0.694 J1.039
G1 X66.694 Y67.746
X66 Y67.282
G3 X66 Y65.203 I0.694 J-1.039
G1 Z-3.7
Z-6 F333.3
X66.694 Y64.74 F700
X67.389 Y65.203
G3 X67.389 Y67.282 I-0.694 J1.039
G1 X66.694 Y67.746
X66 Y67.282
G3 X66 Y65.203 I0.694 J-1.039
G1 Z-4.2
Z-6.5 F333.3
X66.694 Y64.74 F700
X67.389 Y65.203
G3 X67.389 Y67.282 I-0.694 J1.039
G1 X66.694 Y67.746
X66 Y67.282
G3 X66 Y65.203 I0.694 J-1.039
G1 Z-4.7
Z-7 F333.3
X66.694 Y64.74 F700
X67.389 Y65.203
G3 X67.389 Y67.282 I-0.694 J1.039
G1 X66.694 Y67.746
X66 Y67.282
G3 X66 Y65.203 I0.694 J-1.039
G0 Z6
X68.088 Y66.243
Z2
G1 Z1.8 F700
X64.372 Z1 F333.3
X69.017 Z0
X66.694 Z-0.5
G2 X65.893 Y66.922 I0 J0.812
G1 X65.708 Y68.033
G3 X64.31 Y68.451 I-0.801 J-0.134
X64.31 Y64.034 I2.384 J-2.209 F700
G2 X64.682 Y63.301 I-1.1 J-1.019
G3 X68.707 Y63.301 I2.012 J0.391
G2 X69.079 Y64.034 I1.472 J-0.286
G3 X69.079 Y68.451 I-2.384 J2.209
G2 X68.707 Y69.184 I1.1 J1.019
G3 X64.682 Y69.184 I-2.012 J-0.392
G2 X64.31 Y68.451 I-1.472 J0.286
G3 X64.41 Y67.528 I0.451 J-0.418
G1 X66.75 Y65.902
X66.811 Y65.853
X66.866 Y65.797
X66.909 Y65.753
X66.956 Y65.712
X67.691 Y65.142
G3 X68.445 Y66.114 I0.377 J0.486
X68.068 Y66.243 I-0.377 J-0.486
G1 X66.694 Z-1 F333.3
G2 X65.893 Y66.922 I0 J0.812
G1 X65.708 Y68.033
G3 X64.31 Y68.451 I-0.801 J-0.134
X64.31 Y64.034 I2.384 J-2.209 F700
G2 X64.682 Y63.301 I-1.1 J-1.019
G3 X68.707 Y63.301 I2.012 J0.391
G2 X69.079 Y64.034 I1.472 J-0.286
G3 X69.079 Y68.451 I-2.384 J2.209
G2 X68.707 Y69.184 I1.1 J1.019
G3 X64.682 Y69.184 I-2.012 J-0.392
G2 X64.31 Y68.451 I-1.472 J0.286
G3 X64.41 Y67.528 I0.451 J-0.418
G1 X66.75 Y65.902
X66.811 Y65.853
X66.866 Y65.797
X66.909 Y65.753
X66.956 Y65.712
X67.691 Y65.142
G3 X68.445 Y66.114 I0.377 J0.486
X68.068 Y66.243 I-0.377 J-0.486
G1 X66.694 Z-1.5 F333.3
G2 X65.893 Y66.922 I0 J0.812
G1 X65.708 Y68.033
G3 X64.31 Y68.451 I-0.801 J-0.134
X64.31 Y64.034 I2.384 J-2.209 F700
G2 X64.682 Y63.301 I-1.1 J-1.019
G3 X68.707 Y63.301 I2.012 J0.391
G2 X69.079 Y64.034 I1.472 J-0.286
G3 X69.079 Y68.451 I-2.384 J2.209
G2 X68.707 Y69.184 I1.1 J1.019
G3 X64.682 Y69.184 I-2.012 J-0.392
G2 X64.31 Y68.451 I-1.472 J0.286
G3 X64.41 Y67.528 I0.451 J-0.418
G1 X66.75 Y65.902
X66.811 Y65.853
X66.866 Y65.797
X66.909 Y65.753
X66.956 Y65.712
X67.691 Y65.142
G3 X68.445 Y66.114 I0.377 J0.486
X68.068 Y66.243 I-0.377 J-0.486
G1 X66.694 Z-2 F333.3
G2 X65.893 Y66.922 I0 J0.812
G1 X65.708 Y68.033
G3 X64.31 Y68.451 I-0.801 J-0.134
X64.31 Y64.034 I2.384 J-2.209 F700
G2 X64.682 Y63.301 I-1.1 J-1.019
G3 X68.707 Y63.301 I2.012 J0.391
G2 X69.079 Y64.034 I1.472 J-0.286
G3 X69.079 Y68.451 I-2.384 J2.209
G2 X68.707 Y69.184 I1.1 J1.019
G3 X64.682 Y69.184 I-2.012 J-0.392
G2 X64.31 Y68.451 I-1.472 J0.286
G0 Z6
X-1.402 Y107.773
Z2
G1 Z1.5 F700
Z-0.5
X-1.391
X-1.221
G3 X-0.902 Y108.092 I0 J0.319
G1 X-0.947 Y117.929
G2 X15 Y133.876 I15.947 J0
G1 X24.967
G2 X28.677 Y128.585 I0 J-3.947
G3 X29.812 Y128.173 I0.567 J-0.206
X29.848 Y128.379 I-0.567 J0.206
G1 X29.854 Y134.32
Y134.331
G0 Z4
X-1.418 Y105.372
Z2
G1 Z1.5 F700
Z-0.5
X-1.394 Y105.371
X1.5
Y117.929
G2 X15 Y131.429 I13.5 J0
G1 X24.967
G2 X26.377 Y129.418 I0 J-1.5
G3 X32.112 Y127.34 I2.868 J-1.039
X32.295 Y128.379 I-2.868 J1.039
G1 Y132.929
Y134.326
G0 Z4
X-1.402 Y107.773
Z2
G1 Z1 F700
Z-1
X-1.391
X-1.221
G3 X-0.902 Y108.092 I0 J0.319
G1 X-0.947 Y117.929
G2 X15 Y133.876 I15.947 J0
G1 X24.967
G2 X28.677 Y128.585 I0 J-3.947
G3 X29.812 Y128.173 I0.567 J-0.206
X29.848 Y128.379 I-0.567 J0.206
G1 X29.854 Y134.32
Y134.331
G0 Z4
X-1.418 Y105.372
Z2
G1 Z1 F700
Z-1
X-1.394 Y105.371
X1.5
Y117.929
G2 X15 Y131.429 I13.5 J0
G1 X24.967
G2 X26.377 Y129.418 I0 J-1.5
G3 X32.112 Y127.34 I2.868 J-1.039
X32.295 Y128.379 I-2.868 J1.039
G1 Y132.929
Y134.326
G0 Z4
X-1.402 Y107.773
Z2
G1 Z0.5 F700
Z-1.5
X-1.391
X-1.221
G3 X-0.902 Y108.092 I0 J0.319
G1 X-0.947 Y117.929
G2 X15 Y133.876 I15.947 J0
G1 X24.967
G2 X28.677 Y128.585 I0 J-3.947
G3 X29.812 Y128.173 I0.567 J-0.206
X29.848 Y128.379 I-0.567 J0.206
G1 X29.854 Y134.32
Y134.331
G0 Z4
X-1.418 Y105.372
Z2
G1 Z0.5 F700
Z-1.5
X-1.394 Y105.371
X1.5
Y117.929
G2 X15 Y131.429 I13.5 J0
G1 X24.967
G2 X26.377 Y129.418 I0 J-1.5
G3 X32.112 Y127.34 I2.868 J-1.039
X32.295 Y128.379 I-2.868 J1.039
G1 Y132.929
Y134.326
G0 Z4
X-1.402 Y107.773
Z2
G1 Z0 F700
Z-2
X-1.391
X-1.221
G3 X-0.902 Y108.092 I0 J0.319
G1 X-0.947 Y117.929
G2 X15 Y133.876 I15.947 J0
G1 X24.967
G2 X28.677 Y128.585 I0 J-3.947
G3 X29.812 Y128.173 I0.567 J-0.206
X29.848 Y128.379 I-0.567 J0.206
G1 X29.854 Y134.32
Y134.331
G0 Z4
X-1.418 Y105.372
Z2
G1 Z0 F700
Z-2
X-1.394 Y105.371
X1.5
Y117.929
G2 X15 Y131.429 I13.5 J0
G1 X24.967
G2 X26.377 Y129.418 I0 J-1.5
G3 X32.112 Y127.34 I2.868 J-1.039
X32.295 Y128.379 I-2.868 J1.039
G1 Y132.929
Y134.326
G0 Z4
X-1.402 Y107.773
Z2
G1 Z-0.5 F700
Z-2.5
X-1.391
X-1.221
G3 X-0.902 Y108.092 I0 J0.319
G1 X-0.947 Y117.929
G2 X15 Y133.876 I15.947 J0
G1 X24.967
G2 X28.677 Y128.585 I0 J-3.947
G3 X29.812 Y128.173 I0.567 J-0.206
X29.848 Y128.379 I-0.567 J0.206
G1 X29.854 Y134.32
Y134.331
G0 Z4
X-1.418 Y105.372
Z2
G1 Z-0.5 F700
Z-2.5
X-1.394 Y105.371
X1.5
Y117.929
G2 X15 Y131.429 I13.5 J0
G1 X24.967
G2 X26.377 Y129.418 I0 J-1.5
G3 X32.112 Y127.34 I2.868 J-1.039
X32.295 Y128.379 I-2.868 J1.039
G1 Y132.929
Y134.326
G0 Z4
X-1.402 Y107.773
Z2
G1 Z-1 F700
Z-3
X-1.391
X-1.221
G3 X-0.902 Y108.092 I0 J0.319
G1 X-0.947 Y117.929
G2 X15 Y133.876 I15.947 J0
G1 X24.967
G2 X28.677 Y128.585 I0 J-3.947
G3 X29.812 Y128.173 I0.567 J-0.206
X29.848 Y128.379 I-0.567 J0.206
G1 X29.854 Y134.32
Y134.331
G0 Z4
X-1.418 Y105.372
Z2
G1 Z-1 F700
Z-3
X-1.394 Y105.371
X1.5
Y117.929
G2 X15 Y131.429 I13.5 J0
G1 X24.967
G2 X26.377 Y129.418 I0 J-1.5
G3 X32.112 Y127.34 I2.868 J-1.039
X32.295 Y128.379 I-2.868 J1.039
G1 Y132.929
Y134.326
G0 Z4
X-1.402 Y107.773
Z2
G1 Z-1.5 F700
Z-3.5
X-1.391
X-1.221
G3 X-0.902 Y108.092 I0 J0.319
G1 X-0.947 Y117.929
G2 X15 Y133.876 I15.947 J0
G1 X24.967
G2 X28.677 Y128.585 I0 J-3.947
G3 X29.812 Y128.173 I0.567 J-0.206
X29.848 Y128.379 I-0.567 J0.206
G1 X29.854 Y134.32
Y134.331
G0 Z4
X-1.418 Y105.372
Z2
G1 Z-1.5 F700
Z-3.5
X-1.394 Y105.371
X1.5
Y117.929
G2 X15 Y131.429 I13.5 J0
G1 X24.967
G2 X26.377 Y129.418 I0 J-1.5
G3 X32.112 Y127.34 I2.868 J-1.039
X32.295 Y128.379 I-2.868 J1.039
G1 Y132.929
Y134.326
G0 Z4
X-1.402 Y107.773
Z2
G1 Z-2 F700
Z-4
X-1.391
X-1.221
G3 X-0.902 Y108.092 I0 J0.319
G1 X-0.947 Y117.929
G2 X15 Y133.876 I15.947 J0
G1 X24.967
G2 X28.677 Y128.585 I0 J-3.947
G3 X29.812 Y128.173 I0.567 J-0.206
X29.848 Y128.379 I-0.567 J0.206
G1 X29.854 Y134.32
Y134.331
G0 Z4
X-1.418 Y105.372
Z2
G1 Z-2 F700
Z-4
X-1.394 Y105.371
X1.5
Y117.929
G2 X15 Y131.429 I13.5 J0
G1 X24.967
G2 X26.377 Y129.418 I0 J-1.5
G3 X32.112 Y127.34 I2.868 J-1.039
X32.295 Y128.379 I-2.868 J1.039
G1 Y132.929
Y134.326
G0 Z4
X-1.402 Y107.773
Z2
G1 Z-2.5 F700
Z-4.5
X-1.391
X-1.221
G3 X-0.902 Y108.092 I0 J0.319
G1 X-0.947 Y117.929
G2 X15 Y133.876 I15.947 J0
G1 X24.967
G2 X28.677 Y128.585 I0 J-3.947
G3 X29.812 Y128.173 I0.567 J-0.206
X29.848 Y128.379 I-0.567 J0.206
G1 X29.854 Y134.32
Y134.331
G0 Z4
X-1.418 Y105.372
Z2
G1 Z-2.5 F700
Z-4.5
X-1.394 Y105.371
X1.5
Y117.929
G2 X15 Y131.429 I13.5 J0
G1 X24.967
G2 X26.377 Y129.418 I0 J-1.5
G3 X32.112 Y127.34 I2.868 J-1.039
X32.295 Y128.379 I-2.868 J1.039
G1 Y132.929
Y134.326
G0 Z4
X-1.402 Y107.773
Z2
G1 Z-3 F700
Z-5
X-1.391
X-1.221
G3 X-0.902 Y108.092 I0 J0.319
G1 X-0.947 Y117.929
G2 X15 Y133.876 I15.947 J0
G1 X24.967
G2 X28.677 Y128.585 I0 J-3.947
G3 X29.812 Y128.173 I0.567 J-0.206
X29.848 Y128.379 I-0.567 J0.206
G1 X29.854 Y134.32
Y134.331
G0 Z4
X-1.418 Y105.372
Z2
G1 Z-3 F700
Z-5
X-1.394 Y105.371
X1.5
Y117.929
G2 X15 Y131.429 I13.5 J0
G1 X24.967
G2 X26.377 Y129.418 I0 J-1.5
G3 X32.112 Y127.34 I2.868 J-1.039
X32.295 Y128.379 I-2.868 J1.039
G1 Y132.929
Y134.326
G0 Z4
X-1.402 Y107.773
Z2
G1 Z-3.5 F700
Z-5.5
X-1.391
X-1.221
G3 X-0.902 Y108.092 I0 J0.319
G1 X-0.947 Y117.929
G2 X15 Y133.876 I15.947 J0
G1 X24.967
G2 X28.677 Y128.585 I0 J-3.947
G3 X29.812 Y128.173 I0.567 J-0.206
X29.848 Y128.379 I-0.567 J0.206
G1 X29.854 Y134.32
Y134.331
G0 Z4
X-1.418 Y105.372
Z2
G1 Z-3.5 F700
Z-5.5
X-1.394 Y105.371
X1.5
Y117.929
G2 X15 Y131.429 I13.5 J0
G1 X24.967
G2 X26.377 Y129.418 I0 J-1.5
G3 X32.112 Y127.34 I2.868 J-1.039
X32.295 Y128.379 I-2.868 J1.039
G1 Y132.929
Y134.326
G0 Z4
X-1.402 Y107.773
Z2
G1 Z-4 F700
Z-6
X-1.391
X-1.221
G3 X-0.902 Y108.092 I0 J0.319
G1 X-0.947 Y117.929
G2 X15 Y133.876 I15.947 J0
G1 X24.967
G2 X28.677 Y128.585 I0 J-3.947
G3 X29.812 Y128.173 I0.567 J-0.206
X29.848 Y128.379 I-0.567 J0.206
G1 X29.854 Y134.32
Y134.331
G0 Z4
X-1.418 Y105.372
Z2
G1 Z-4 F700
Z-6
X-1.394 Y105.371
X1.5
Y117.929
G2 X15 Y131.429 I13.5 J0
G1 X24.967
G2 X26.377 Y129.418 I0 J-1.5
G3 X32.112 Y127.34 I2.868 J-1.039
X32.295 Y128.379 I-2.868 J1.039
G1 Y132.929
Y134.326
G0 Z6
X45.012 Y134.34
Z2
G1 Z1.5 F700
Z-0.5
Y134.328
Y134.15
G3 X45.331 Y133.831 I0.319 J0
G1 X76.56 Y133.876
G2 X80.507 Y129.929 I0 J-3.947
G1 Y128.379
G3 X81.713 Y128.379 I0.603 J0
X81.677 Y128.585 I-0.603 J0
G2 X85.388 Y133.876 I3.711 J1.344
G1 X160.266 Y133.831
G3 X160.585 Y134.15 I0 J0.319
G1 Y134.318
Y134.33
G0 Z4
X42.611 Y134.343
Z2
G1 Z1.5 F700
Z-0.5
X42.61 Y134.32
Y131.429
X76.56
G2 X78.06 Y129.929 I0 J-1.5
G1 Y128.379
G3 X84.16 Y128.379 I3.05 J0
X83.978 Y129.418 I-3.05 J0
G2 X85.388 Y131.429 I1.41 J0.511
G1 X162.987
Y132.929
Y134.326
G0 Z4
X45.012 Y134.34
Z2
G1 Z1 F700
Z-1
Y134.328
Y134.15
G3 X45.331 Y133.831 I0.319 J0
G1 X76.56 Y133.876
G2 X80.507 Y129.929 I0 J-3.947
G1 Y128.379
G3 X81.713 Y128.379 I0.603 J0
X81.677 Y128.585 I-0.603 J0
G2 X85.388 Y133.876 I3.711 J1.344
G1 X160.266 Y133.831
G3 X160.585 Y134.15 I0 J0.319
G1 Y134.318
Y134.33
G0 Z4
X42.611 Y134.343
Z2
G1 Z1 F700
Z-1
X42.61 Y134.32
Y131.429
X76.56
G2 X78.06 Y129.929 I0 J-1.5
G1 Y128.379
G3 X84.16 Y128.379 I3.05 J0
X83.978 Y129.418 I-3.05 J0
G2 X85.388 Y131.429 I1.41 J0.511
G1 X162.987
Y132.929
Y134.326
G0 Z4
X45.012 Y134.34
Z2
G1 Z0.5 F700
Z-1.5
Y134.328
Y134.15
G3 X45.331 Y133.831 I0.319 J0
G1 X76.56 Y133.876
G2 X80.507 Y129.929 I0 J-3.947
G1 Y128.379
G3 X81.713 Y128.379 I0.603 J0
X81.677 Y128.585 I-0.603 J0
G2 X85.388 Y133.876 I3.711 J1.344
G1 X160.266 Y133.831
G3 X160.585 Y134.15 I0 J0.319
G1 Y134.318
Y134.33
G0 Z4
X42.611 Y134.343
Z2
G1 Z0.5 F700
Z-1.5
X42.61 Y134.32
Y131.429
X76.56
G2 X78.06 Y129.929 I0 J-1.5
G1 Y128.379
G3 X84.16 Y128.379 I3.05 J0
X83.978 Y129.418 I-3.05 J0
G2 X85.388 Y131.429 I1.41 J0.511
G1 X162.987
Y132.929
Y134.326
G0 Z4
X45.012 Y134.34
Z2
G1 Z0 F700
Z-2
Y134.328
Y134.15
G3 X45.331 Y133.831 I0.319 J0
G1 X76.56 Y133.876
G2 X80.507 Y129.929 I0 J-3.947
G1 Y128.379
G3 X81.713 Y128.379 I0.603 J0
X81.677 Y128.585 I-0.603 J0
G2 X85.388 Y133.876 I3.711 J1.344
G1 X160.266 Y133.831
G3 X160.585 Y134.15 I0 J0.319
G1 Y134.318
Y134.33
G0 Z4
X42.611 Y134.343
Z2
G1 Z0 F700
Z-2
X42.61 Y134.32
Y131.429
X76.56
G2 X78.06 Y129.929 I0 J-1.5
G1 Y128.379
G3 X84.16 Y128.379 I3.05 J0
X83.978 Y129.418 I-3.05 J0
G2 X85.388 Y131.429 I1.41 J0.511
G1 X162.987
Y132.929
Y134.326
G0 Z4
X45.012 Y134.34
Z2
G1 Z-0.5 F700
Z-2.5
Y134.328
Y134.15
G3 X45.331 Y133.831 I0.319 J0
G1 X76.56 Y133.876
G2 X80.507 Y129.929 I0 J-3.947
G1 Y128.379
G3 X81.713 Y128.379 I0.603 J0
X81.677 Y128.585 I-0.603 J0
G2 X85.388 Y133.876 I3.711 J1.344
G1 X160.266 Y133.831
G3 X160.585 Y134.15 I0 J0.319
G1 Y134.318
Y134.33
G0 Z4
X42.611 Y134.343
Z2
G1 Z-0.5 F700
Z-2.5
X42.61 Y134.32
Y131.429
X76.56
G2 X78.06 Y129.929 I0 J-1.5
G1 Y128.379
G3 X84.16 Y128.379 I3.05 J0
X83.978 Y129.418 I-3.05 J0
G2 X85.388 Y131.429 I1.41 J0.511
G1 X162.987
Y132.929
Y134.326
G0 Z4
X45.012 Y134.34
Z2
G1 Z-1 F700
Z-3
Y134.328
Y134.15
G3 X45.331 Y133.831 I0.319 J0
G1 X76.56 Y133.876
G2 X80.507 Y129.929 I0 J-3.947
G1 Y128.379
G3 X81.713 Y128.379 I0.603 J0
X81.677 Y128.585 I-0.603 J0
G2 X85.388 Y133.876 I3.711 J1.344
G1 X160.266 Y133.831
G3 X160.585 Y134.15 I0 J0.319
G1 Y134.318
Y134.33
G0 Z4
X42.611 Y134.343
Z2
G1 Z-1 F700
Z-3
X42.61 Y134.32
Y131.429
X76.56
G2 X78.06 Y129.929 I0 J-1.5
G1 Y128.379
G3 X84.16 Y128.379 I3.05 J0
X83.978 Y129.418 I-3.05 J0
G2 X85.388 Y131.429 I1.41 J0.511
G1 X162.987
Y132.929
Y134.326
G0 Z4
X45.012 Y134.34
Z2
G1 Z-1.5 F700
Z-3.5
Y134.328
Y134.15
G3 X45.331 Y133.831 I0.319 J0
G1 X76.56 Y133.876
G2 X80.507 Y129.929 I0 J-3.947
G1 Y128.379
G3 X81.713 Y128.379 I0.603 J0
X81.677 Y128.585 I-0.603 J0
G2 X85.388 Y133.876 I3.711 J1.344
G1 X160.266 Y133.831
G3 X160.585 Y134.15 I0 J0.319
G1 Y134.318
Y134.33
G0 Z4
X42.611 Y134.343
Z2
G1 Z-1.5 F700
Z-3.5
X42.61 Y134.32
Y131.429
X76.56
G2 X78.06 Y129.929 I0 J-1.5
G1 Y128.379
G3 X84.16 Y128.379 I3.05 J0
X83.978 Y129.418 I-3.05 J0
G2 X85.388 Y131.429 I1.41 J0.511
G1 X162.987
Y132.929
Y134.326
G0 Z4
X45.012 Y134.34
Z2
G1 Z-2 F700
Z-4
Y134.328
Y134.15
G3 X45.331 Y133.831 I0.319 J0
G1 X76.56 Y133.876
G2 X80.507 Y129.929 I0 J-3.947
G1 Y128.379
G3 X81.713 Y128.379 I0.603 J0
X81.677 Y128.585 I-0.603 J0
G2 X85.388 Y133.876 I3.711 J1.344
G1 X160.266 Y133.831
G3 X160.585 Y134.15 I0 J0.319
G1 Y134.318
Y134.33
G0 Z4
X42.611 Y134.343
Z2
G1 Z-2 F700
Z-4
X42.61 Y134.32
Y131.429
X76.56
G2 X78.06 Y129.929 I0 J-1.5
G1 Y128.379
G3 X84.16 Y128.379 I3.05 J0
X83.978 Y129.418 I-3.05 J0
G2 X85.388 Y131.429 I1.41 J0.511
G1 X162.987
Y132.929
Y134.326
G0 Z4
X45.012 Y134.34
Z2
G1 Z-2.5 F700
Z-4.5
Y134.328
Y134.15
G3 X45.331 Y133.831 I0.319 J0
G1 X76.56 Y133.876
G2 X80.507 Y129.929 I0 J-3.947
G1 Y128.379
G3 X81.713 Y128.379 I0.603 J0
X81.677 Y128.585 I-0.603 J0
G2 X85.388 Y133.876 I3.711 J1.344
G1 X160.266 Y133.831
G3 X160.585 Y134.15 I0 J0.319
G1 Y134.318
Y134.33
G0 Z4
X42.611 Y134.343
Z2
G1 Z-2.5 F700
Z-4.5
X42.61 Y134.32
Y131.429
X76.56
G2 X78.06 Y129.929 I0 J-1.5
G1 Y128.379
G3 X84.16 Y128.379 I3.05 J0
X83.978 Y129.418 I-3.05 J0
G2 X85.388 Y131.429 I1.41 J0.511
G1 X162.987
Y132.929
Y134.326
G0 Z4
X45.012 Y134.34
Z2
G1 Z-3 F700
Z-5
Y134.328
Y134.15
G3 X45.331 Y133.831 I0.319 J0
G1 X76.56 Y133.876
G2 X80.507 Y129.929 I0 J-3.947
G1 Y128.379
G3 X81.713 Y128.379 I0.603 J0
X81.677 Y128.585 I-0.603 J0
G2 X85.388 Y133.876 I3.711 J1.344
G1 X160.266 Y133.831
G3 X160.585 Y134.15 I0 J0.319
G1 Y134.318
Y134.33
G0 Z4
X42.611 Y134.343
Z2
G1 Z-3 F700
Z-5
X42.61 Y134.32
Y131.429
X76.56
G2 X78.06 Y129.929 I0 J-1.5
G1 Y128.379
G3 X84.16 Y128.379 I3.05 J0
X83.978 Y129.418 I-3.05 J0
G2 X85.388 Y131.429 I1.41 J0.511
G1 X162.987
Y132.929
Y134.326
G0 Z4
X45.012 Y134.34
Z2
G1 Z-3.5 F700
Z-5.5
Y134.328
Y134.15
G3 X45.331 Y133.831 I0.319 J0
G1 X76.56 Y133.876
G2 X80.507 Y129.929 I0 J-3.947
G1 Y128.379
G3 X81.713 Y128.379 I0.603 J0
X81.677 Y128.585 I-0.603 J0
G2 X85.388 Y133.876 I3.711 J1.344
G1 X160.266 Y133.831
G3 X160.585 Y134.15 I0 J0.319
G1 Y134.318
Y134.33
G0 Z4
X42.611 Y134.343
Z2
G1 Z-3.5 F700
Z-5.5
X42.61 Y134.32
Y131.429
X76.56
G2 X78.06 Y129.929 I0 J-1.5
G1 Y128.379
G3 X84.16 Y128.379 I3.05 J0
X83.978 Y129.418 I-3.05 J0
G2 X85.388 Y131.429 I1.41 J0.511
G1 X162.987
Y132.929
Y134.326
G0 Z4
X45.012 Y134.34
Z2
G1 Z-4 F700
Z-6
Y134.328
Y134.15
G3 X45.331 Y133.831 I0.319 J0
G1 X76.56 Y133.876
G2 X80.507 Y129.929 I0 J-3.947
G1 Y128.379
G3 X81.713 Y128.379 I0.603 J0
X81.677 Y128.585 I-0.603 J0
G2 X85.388 Y133.876 I3.711 J1.344
G1 X160.266 Y133.831
G3 X160.585 Y134.15 I0 J0.319
G1 Y134.318
Y134.33
G0 Z4
X42.611 Y134.343
Z2
G1 Z-4 F700
Z-6
X42.61 Y134.32
Y131.429
X76.56
G2 X78.06 Y129.929 I0 J-1.5
G1 Y128.379
G3 X84.16 Y128.379 I3.05 J0
X83.978 Y129.418 I-3.05 J0
G2 X85.388 Y131.429 I1.41 J0.511
G1 X162.987
Y132.929
Y134.326
G0 Z6
X227.595 Y66.243
Z2
G1 Z1.8 F700
X231.311 Z1 F333.3
X226.666 Z0
X228.988 Z-0.5
G2 X229.277 Y66.19 I0 J-0.812
G1 X231.137 Y65.483
G3 X232.238 Y66.243 I0.288 J0.76
X231.373 Y68.451 I-3.25 J0 F700
G2 X231.001 Y69.184 I1.1 J1.019
G3 X226.976 Y69.184 I-2.012 J-0.392
G2 X226.604 Y68.451 I-1.472 J0.286
G3 X226.604 Y64.034 I2.384 J-2.208
G2 X226.976 Y63.301 I-1.1 J-1.019
G3 X231.001 Y63.301 I2.012 J0.391
G2 X231.373 Y64.034 I1.472 J-0.286
G3 X232.238 Y66.243 I-2.385 J2.209
X232.047 Y66.443 I-0.2 J0
G1 X227.624 Y66.643
G3 X227.415 Y66.447 I-0.009 J-0.2
X227.615 Y66.243 I0.2 J-0.005
G1 X228.988 Z-1 F333.3
G2 X229.277 Y66.19 I0 J-0.812
G1 X231.137 Y65.483
G3 X232.238 Y66.243 I0.288 J0.76
X231.373 Y68.451 I-3.25 J0 F700
G2 X231.001 Y69.184 I1.1 J1.019
G3 X226.976 Y69.184 I-2.012 J-0.392
G2 X226.604 Y68.451 I-1.472 J0.286
G3 X226.604 Y64.034 I2.384 J-2.208
G2 X226.976 Y63.301 I-1.1 J-1.019
G3 X231.001 Y63.301 I2.012 J0.391
G2 X231.373 Y64.034 I1.472 J-0.286
G3 X232.238 Y66.243 I-2.385 J2.209
X232.047 Y66.443 I-0.2 J0
G1 X227.624 Y66.643
G3 X227.415 Y66.447 I-0.009 J-0.2
X227.615 Y66.243 I0.2 J-0.005
G1 X228.988 Z-1.5 F333.3
G2 X229.277 Y66.19 I0 J-0.812
G1 X231.137 Y65.483
G3 X232.238 Y66.243 I0.288 J0.76
X231.373 Y68.451 I-3.25 J0 F700
G2 X231.001 Y69.184 I1.1 J1.019
G3 X226.976 Y69.184 I-2.012 J-0.392
G2 X226.604 Y68.451 I-1.472 J0.286
G3 X226.604 Y64.034 I2.384 J-2.208
G2 X226.976 Y63.301 I-1.1 J-1.019
G3 X231.001 Y63.301 I2.012 J0.391
G2 X231.373 Y64.034 I1.472 J-0.286
G3 X232.238 Y66.243 I-2.385 J2.209
X232.047 Y66.443 I-0.2 J0
G1 X227.624 Y66.643
G3 X227.415 Y66.447 I-0.009 J-0.2
X227.615 Y66.243 I0.2 J-0.005
G1 X228.988 Z-2 F333.3
G2 X229.277 Y66.19 I0 J-0.812
G1 X231.137 Y65.483
G3 X232.238 Y66.243 I0.288 J0.76
X231.373 Y68.451 I-3.25 J0 F700
G2 X231.001 Y69.184 I1.1 J1.019
G3 X226.976 Y69.184 I-2.012 J-0.392
G2 X226.604 Y68.451 I-1.472 J0.286
G3 X226.604 Y64.034 I2.384 J-2.208
G2 X226.976 Y63.301 I-1.1 J-1.019
G3 X231.001 Y63.301 I2.012 J0.391
G2 X231.373 Y64.034 I1.472 J-0.286
G3 X232.238 Y66.243 I-2.385 J2.209
G0 Z6
X228.294 Y65.203
Z2
G1 Z1.8 F700
Z-0.5 F333.3
X228.988 Y64.74 F700
X229.683 Y65.203
G3 X229.683 Y67.282 I-0.695 J1.039
G1 X228.988 Y67.746
X228.294 Y67.282
G3 X228.294 Y65.203 I0.694 J-1.04
G1 Z1.3
Z-1 F333.3
X228.988 Y64.74 F700
X229.683 Y65.203
G3 X229.683 Y67.282 I-0.695 J1.039
G1 X228.988 Y67.746
X228.294 Y67.282
G3 X228.294 Y65.203 I0.694 J-1.04
G1 Z0.8
Z-1.5 F333.3
X228.988 Y64.74 F700
X229.683 Y65.203
G3 X229.683 Y67.282 I-0.695 J1.039
G1 X228.988 Y67.746
X228.294 Y67.282
G3 X228.294 Y65.203 I0.694 J-1.04
G1 Z0.3
Z-2 F333.3
X228.988 Y64.74 F700
X229.683 Y65.203
G3 X229.683 Y67.282 I-0.695 J1.039
G1 X228.988 Y67.746
X228.294 Y67.282
G3 X228.294 Y65.203 I0.694 J-1.04
G1 Z-0.2
Z-2.5 F333.3
X228.988 Y64.74 F700
X229.683 Y65.203
G3 X229.683 Y67.282 I-0.695 J1.039
G1 X228.988 Y67.746
X228.294 Y67.282
G3 X228.294 Y65.203 I0.694 J-1.04
G1 Z-0.7
Z-3 F333.3
X228.988 Y64.74 F700
X229.683 Y65.203
G3 X229.683 Y67.282 I-0.695 J1.039
G1 X228.988 Y67.746
X228.294 Y67.282
G3 X228.294 Y65.203 I0.694 J-1.04
G1 Z-1.2
Z-3.5 F333.3
X228.988 Y64.74 F700
X229.683 Y65.203
G3 X229.683 Y67.282 I-0.695 J1.039
G1 X228.988 Y67.746
X228.294 Y67.282
G3 X228.294 Y65.203 I0.694 J-1.04
G1 Z-1.7
Z-4 F333.3
X228.988 Y64.74 F700
X229.683 Y65.203
G3 X229.683 Y67.282 I-0.695 J1.039
G1 X228.988 Y67.746
X228.294 Y67.282
G3 X228.294 Y65.203 I0.694 J-1.04
G1 Z-2.2
Z-4.5 F333.3
X228.988 Y64.74 F700
X229.683 Y65.203
G3 X229.683 Y67.282 I-0.695 J1.039
G1 X228.988 Y67.746
X228.294 Y67.282
G3 X228.294 Y65.203 I0.694 J-1.04
G1 Z-2.7
Z-5 F333.3
X228.988 Y64.74 F700
X229.683 Y65.203
G3 X229.683 Y67.282 I-0.695 J1.039
G1 X228.988 Y67.746
X228.294 Y67.282
G3 X228.294 Y65.203 I0.694 J-1.04
G1 Z-3.2
Z-5.5 F333.3
X228.988 Y64.74 F700
X229.683 Y65.203
G3 X229.683 Y67.282 I-0.695 J1.039
G1 X228.988 Y67.746
X228.294 Y67.282
G3 X228.294 Y65.203 I0.694 J-1.04
G1 Z-3.7
Z-6 F333.3
X228.988 Y64.74 F700
X229.683 Y65.203
G3 X229.683 Y67.282 I-0.695 J1.039
G1 X228.988 Y67.746
X228.294 Y67.282
G3 X228.294 Y65.203 I0.694 J-1.04
G1 Z-4.2
Z-6.5 F333.3
X228.988 Y64.74 F700
X229.683 Y65.203
G3 X229.683 Y67.282 I-0.695 J1.039
G1 X228.988 Y67.746
X228.294 Y67.282
G3 X228.294 Y65.203 I0.694 J-1.04
G1 Z-4.7
Z-7 F333.3
X228.988 Y64.74 F700
X229.683 Y65.203
G3 X229.683 Y67.282 I-0.695 J1.039
G1 X228.988 Y67.746
X228.294 Y67.282
G3 X228.294 Y65.203 I0.694 J-1.04
G0 Z6
X244.309 Y67.282
Z2
G1 Z1.8 F700
Z-0.5 F333.3
X243.615 Y67.746 F700
X242.92 Y67.282
G3 X242.92 Y65.203 I0.695 J-1.039
G1 X243.615 Y64.74
X244.309 Y65.203
G3 X244.309 Y67.282 I-0.694 J1.04
G1 Z1.3
Z-1 F333.3
X243.615 Y67.746 F700
X242.92 Y67.282
G3 X242.92 Y65.203 I0.695 J-1.039
G1 X243.615 Y64.74
X244.309 Y65.203
G3 X244.309 Y67.282 I-0.694 J1.04
G1 Z0.8
Z-1.5 F333.3
X243.615 Y67.746 F700
X242.92 Y67.282
G3 X242.92 Y65.203 I0.695 J-1.039
G1 X243.615 Y64.74
X244.309 Y65.203
G3 X244.309 Y67.282 I-0.694 J1.04
G1 Z0.3
Z-2 F333.3
X243.615 Y67.746 F700
X242.92 Y67.282
G3 X242.92 Y65.203 I0.695 J-1.039
G1 X243.615 Y64.74
X244.309 Y65.203
G3 X244.309 Y67.282 I-0.694 J1.04
G1 Z-0.2
Z-2.5 F333.3
X243.615 Y67.746 F700
X242.92 Y67.282
G3 X242.92 Y65.203 I0.695 J-1.039
G1 X243.615 Y64.74
X244.309 Y65.203
G3 X244.309 Y67.282 I-0.694 J1.04
G1 Z-0.7
Z-3 F333.3
X243.615 Y67.746 F700
X242.92 Y67.282
G3 X242.92 Y65.203 I0.695 J-1.039
G1 X243.615 Y64.74
X244.309 Y65.203
G3 X244.309 Y67.282 I-0.694 J1.04
G1 Z-1.2
Z-3.5 F333.3
X243.615 Y67.746 F700
X242.92 Y67.282
G3 X242.92 Y65.203 I0.695 J-1.039
G1 X243.615 Y64.74
X244.309 Y65.203
G3 X244.309 Y67.282 I-0.694 J1.04
G1 Z-1.7
Z-4 F333.3
X243.615 Y67.746 F700
X242.92 Y67.282
G3 X242.92 Y65.203 I0.695 J-1.039
G1 X243.615 Y64.74
X244.309 Y65.203
G3 X244.309 Y67.282 I-0.694 J1.04
G1 Z-2.2
Z-4.5 F333.3
X243.615 Y67.746 F700
X242.92 Y67.282
G3 X242.92 Y65.203 I0.695 J-1.039
G1 X243.615 Y64.74
X244.309 Y65.203
G3 X244.309 Y67.282 I-0.694 J1.04
G1 Z-2.7
Z-5 F333.3
X243.615 Y67.746 F700
X242.92 Y67.282
G3 X242.92 Y65.203 I0.695 J-1.039
G1 X243.615 Y64.74
X244.309 Y65.203
G3 X244.309 Y67.282 I-0.694 J1.04
G1 Z-3.2
Z-5.5 F333.3
X243.615 Y67.746 F700
X242.92 Y67.282
G3 X242.92 Y65.203 I0.695 J-1.039
G1 X243.615 Y64.74
X244.309 Y65.203
G3 X244.309 Y67.282 I-0.694 J1.04
G1 Z-3.7
Z-6 F333.3
X243.615 Y67.746 F700
X242.92 Y67.282
G3 X242.92 Y65.203 I0.695 J-1.039
G1 X243.615 Y64.74
X244.309 Y65.203
G3 X244.309 Y67.282 I-0.694 J1.04
G1 Z-4.2
Z-6.5 F333.3
X243.615 Y67.746 F700
X242.92 Y67.282
G3 X242.92 Y65.203 I0.695 J-1.039
G1 X243.615 Y64.74
X244.309 Y65.203
G3 X244.309 Y67.282 I-0.694 J1.04
G1 Z-4.7
Z-7 F333.3
X243.615 Y67.746 F700
X242.92 Y67.282
G3 X242.92 Y65.203 I0.695 J-1.039
G1 X243.615 Y64.74
X244.309 Y65.203
G3 X244.309 Y67.282 I-0.694 J1.04
G0 Z6
X245.009 Y66.243
Z2
G1 Z1.8 F700
X241.292 Z1 F333.3
X245.938 Z0
X243.615 Z-0.5
G2 X242.931 Y66.857 I0 J0.688
G1 X242.834 Y67.768
G3 X241.662 Y68.179 I-0.684 J-0.073
X241.662 Y64.306 I1.953 J-1.936 F700
G2 X242.081 Y63.468 I-1.065 J-1.056
G3 X245.149 Y63.468 I1.534 J0.225
G2 X245.568 Y64.306 I1.484 J-0.218
G3 X245.568 Y68.179 I-1.953 J1.936
G2 X245.149 Y69.018 I1.065 J1.056
G3 X242.081 Y69.018 I-1.534 J-0.225
G2 X241.662 Y68.179 I-1.484 J0.218
G3 X241.826 Y66.757 I0.651 J-0.645
G1 X245.191 Y64.649
X245.274 Y64.59
X245.349 Y64.523
G3 X245.765 Y64.803 I0.18 J0.181
G1 X245.224 Y66.086
G3 X244.989 Y66.243 I-0.235 J-0.099
G1 X243.615 Z-1 F333.3
G2 X242.931 Y66.857 I0 J0.688
G1 X242.834 Y67.768
G3 X241.662 Y68.179 I-0.684 J-0.073
X241.662 Y64.306 I1.953 J-1.936 F700
G2 X242.081 Y63.468 I-1.065 J-1.056
G3 X245.149 Y63.468 I1.534 J0.225
G2 X245.568 Y64.306 I1.484 J-0.218
G3 X245.568 Y68.179 I-1.953 J1.936
G2 X245.149 Y69.018 I1.065 J1.056
G3 X242.081 Y69.018 I-1.534 J-0.225
G2 X241.662 Y68.179 I-1.484 J0.218
G3 X241.826 Y66.757 I0.651 J-0.645
G1 X245.191 Y64.649
X245.274 Y64.59
X245.349 Y64.523
G3 X245.765 Y64.803 I0.18 J0.181
G1 X245.224 Y66.086
G3 X244.989 Y66.243 I-0.235 J-0.099
G1 X243.615 Z-1.5 F333.3
G2 X242.931 Y66.857 I0 J0.688
G1 X242.834 Y67.768
G3 X241.662 Y68.179 I-0.684 J-0.073
X241.662 Y64.306 I1.953 J-1.936 F700
G2 X242.081 Y63.468 I-1.065 J-1.056
G3 X245.149 Y63.468 I1.534 J0.225
G2 X245.568 Y64.306 I1.484 J-0.218
G3 X245.568 Y68.179 I-1.953 J1.936
G2 X245.149 Y69.018 I1.065 J1.056
G3 X242.081 Y69.018 I-1.534 J-0.225
G2 X241.662 Y68.179 I-1.484 J0.218
G3 X241.826 Y66.757 I0.651 J-0.645
G1 X245.191 Y64.649
X245.274 Y64.59
X245.349 Y64.523
G3 X245.765 Y64.803 I0.18 J0.181
G1 X245.224 Y66.086
G3 X244.989 Y66.243 I-0.235 J-0.099
G1 X243.615 Z-2 F333.3
G2 X242.931 Y66.857 I0 J0.688
G1 X242.834 Y67.768
G3 X241.662 Y68.179 I-0.684 J-0.073
X241.662 Y64.306 I1.953 J-1.936 F700
G2 X242.081 Y63.468 I-1.065 J-1.056
G3 X245.149 Y63.468 I1.534 J0.225
G2 X245.568 Y64.306 I1.484 J-0.218
G3 X245.568 Y68.179 I-1.953 J1.936
G2 X245.149 Y69.018 I1.065 J1.056
G3 X242.081 Y69.018 I-1.534 J-0.225
G2 X241.662 Y68.179 I-1.484 J0.218
G0 Z6
X243.823 Y112.872
Z2
G1 Z1.8 F700
Z-0.5 F333.3
G3 X244.073 Y112.872 I0.125 J0 F700
X240.973 Y112.872 I-1.55 J0
X244.073 Y112.872 I1.55 J0
G1 Z1.3
X243.823
Z-1 F333.3
G3 X244.073 Y112.872 I0.125 J0 F700
X240.973 Y112.872 I-1.55 J0
X244.073 Y112.872 I1.55 J0
G1 Z0.8
X243.823
Z-1.5 F333.3
G3 X244.073 Y112.872 I0.125 J0 F700
X240.973 Y112.872 I-1.55 J0
X244.073 Y112.872 I1.55 J0
G1 Z0.3
X243.823
Z-2 F333.3
G3 X244.073 Y112.872 I0.125 J0 F700
X240.973 Y112.872 I-1.55 J0
X244.073 Y112.872 I1.55 J0
G1 Z-0.2
X243.823
Z-2.5 F333.3
G3 X244.073 Y112.872 I0.125 J0 F700
X240.973 Y112.872 I-1.55 J0
X244.073 Y112.872 I1.55 J0
G1 Z-0.7
X243.823
Z-3 F333.3
G3 X244.073 Y112.872 I0.125 J0 F700
X240.973 Y112.872 I-1.55 J0
X244.073 Y112.872 I1.55 J0
G1 Z-1.2
X243.823
Z-3.5 F333.3
G3 X244.073 Y112.872 I0.125 J0 F700
X240.973 Y112.872 I-1.55 J0
X244.073 Y112.872 I1.55 J0
G1 Z-1.7
X243.823
Z-4 F333.3
G3 X244.073 Y112.872 I0.125 J0 F700
X240.973 Y112.872 I-1.55 J0
X244.073 Y112.872 I1.55 J0
G1 Z-2.2
X243.823
Z-4.5 F333.3
G3 X244.073 Y112.872 I0.125 J0 F700
X240.973 Y112.872 I-1.55 J0
X244.073 Y112.872 I1.55 J0
G1 Z-2.7
X243.823
Z-5 F333.3
G3 X244.073 Y112.872 I0.125 J0 F700
X240.973 Y112.872 I-1.55 J0
X244.073 Y112.872 I1.55 J0
G1 Z-3.2
X243.823
Z-5.5 F333.3
G3 X244.073 Y112.872 I0.125 J0 F700
X240.973 Y112.872 I-1.55 J0
X244.073 Y112.872 I1.55 J0
G1 Z-3.7
X243.823
Z-6 F333.3
G3 X244.073 Y112.872 I0.125 J0 F700
X240.973 Y112.872 I-1.55 J0
X244.073 Y112.872 I1.55 J0
G0 Z6
X2.988 Y-1.406
Z2
G1 Z1.5 F700
Z-0.5
X2.969 Y-1.392
G2 X-1.393 Y2.97 I12.031 J16.392
G3 X-2.223 Y3.084 I-0.47 J-0.345
X-2.309 Y2.25 I0.36 J-0.458
G1 X-0.354 Y-0.074
X-0.309 Y-0.123
X-0.258 Y-0.165
X-0.203 Y-0.202
X2.624 Y-1.862
X2.694 Y-1.897
X2.768 Y-1.922
X2.845 Y-1.938
X7.257 Y-2.505
G3 X7.572 Y-1.395 I0.074 J0.578
G2 X-1.395 Y7.57 I7.428 J16.395
G3 X-2.114 Y7.806 I-0.468 J-0.212
X-2.286 Y7.069 I0.252 J-0.448
G1 X1.382 Y1.699
X1.429 Y1.64
X1.485 Y1.588
X1.547 Y1.545
X7.36 Y-1.863
G3 X7.62 Y-1.934 I0.26 J0.443
G1 X25.268 Y-1.909
G3 X25.781 Y-1.395 I-0.001 J0.514
G1 X25.78 Y4.55
G3 X24.573 Y4.55 I-0.603 J0
X24.609 Y4.344 I0.603 J0
G2 X20.899 Y-0.947 I-3.711 J-1.344
G1 X15
G2 X-0.947 Y15 I0 J15.947
X-0.924 Y18.225 I231.072 J0
G3 X-0.902 Y21.449 I-231.05 J3.225
X-1.221 Y21.768 I-0.319 J0
G1 X-1.389
X-1.401
G0 Z4
X28.226 Y-1.414
Z2
G1 Z1.5 F700
Z-0.5
Y-1.39
Y4.55
G3 X22.127 Y4.55 I-3.05 J0
X22.309 Y3.511 I3.05 J0
G2 X20.899 Y1.5 I-1.41 J-0.511
G1 X15
G2 X1.5 Y15 I0 J13.5
G1 Y24.17
X0
X-1.397
G3 X-1.593 Y23.932 I0 J-0.2
G1 X3.303 Y-1.206
G2 X2.988 Y-1.406 I-0.196 J-0.038
G1 Z-1
X2.969 Y-1.392
G2 X-1.393 Y2.97 I12.031 J16.392
G3 X-2.223 Y3.084 I-0.47 J-0.345
X-2.309 Y2.25 I0.36 J-0.458
G1 X-0.354 Y-0.074
X-0.309 Y-0.123
X-0.258 Y-0.165
X-0.203 Y-0.202
X2.624 Y-1.862
X2.694 Y-1.897
X2.768 Y-1.922
X2.845 Y-1.938
X7.257 Y-2.505
G3 X7.572 Y-1.395 I0.074 J0.578
G2 X-1.395 Y7.57 I7.428 J16.395
G3 X-2.114 Y7.806 I-0.468 J-0.212
X-2.286 Y7.069 I0.252 J-0.448
G1 X1.382 Y1.699
X1.429 Y1.64
X1.485 Y1.588
X1.547 Y1.545
X7.36 Y-1.863
G3 X7.62 Y-1.934 I0.26 J0.443
G1 X25.268 Y-1.909
G3 X25.781 Y-1.395 I-0.001 J0.514
G1 X25.78 Y4.55
G3 X24.573 Y4.55 I-0.603 J0
X24.609 Y4.344 I0.603 J0
G2 X20.899 Y-0.947 I-3.711 J-1.344
G1 X15
G2 X-0.947 Y15 I0 J15.947
X-0.924 Y18.225 I231.072 J0
G3 X-0.902 Y21.449 I-231.05 J3.225
X-1.221 Y21.768 I-0.319 J0
G1 X-1.389
X-1.401
G0 Z4
X28.226 Y-1.414
Z2
G1 Z1 F700
Z-1
Y-1.39
Y4.55
G3 X22.127 Y4.55 I-3.05 J0
X22.309 Y3.511 I3.05 J0
G2 X20.899 Y1.5 I-1.41 J-0.511
G1 X15
G2 X1.5 Y15 I0 J13.5
G1 Y24.17
X0
X-1.397
G3 X-1.593 Y23.932 I0 J-0.2
G1 X3.303 Y-1.206
G2 X2.988 Y-1.406 I-0.196 J-0.038
G1 Z-1.5
X2.969 Y-1.392
G2 X-1.393 Y2.97 I12.031 J16.392
G3 X-2.223 Y3.084 I-0.47 J-0.345
X-2.309 Y2.25 I0.36 J-0.458
G1 X-0.354 Y-0.074
X-0.309 Y-0.123
X-0.258 Y-0.165
X-0.203 Y-0.202
X2.624 Y-1.862
X2.694 Y-1.897
X2.768 Y-1.922
X2.845 Y-1.938
X7.257 Y-2.505
G3 X7.572 Y-1.395 I0.074 J0.578
G2 X-1.395 Y7.57 I7.428 J16.395
G3 X-2.114 Y7.806 I-0.468 J-0.212
X-2.286 Y7.069 I0.252 J-0.448
G1 X1.382 Y1.699
X1.429 Y1.64
X1.485 Y1.588
X1.547 Y1.545
X7.36 Y-1.863
G3 X7.62 Y-1.934 I0.26 J0.443
G1 X25.268 Y-1.909
G3 X25.781 Y-1.395 I-0.001 J0.514
G1 X25.78 Y4.55
G3 X24.573 Y4.55 I-0.603 J0
X24.609 Y4.344 I0.603 J0
G2 X20.899 Y-0.947 I-3.711 J-1.344
G1 X15
G2 X-0.947 Y15 I0 J15.947
X-0.924 Y18.225 I231.072 J0
G3 X-0.902 Y21.449 I-231.05 J3.225
X-1.221 Y21.768 I-0.319 J0
G1 X-1.389
X-1.401
G0 Z4
X28.226 Y-1.414
Z2
G1 Z0.5 F700
Z-1.5
Y-1.39
Y4.55
G3 X22.127 Y4.55 I-3.05 J0
X22.309 Y3.511 I3.05 J0
G2 X20.899 Y1.5 I-1.41 J-0.511
G1 X15
G2 X1.5 Y15 I0 J13.5
G1 Y24.17
X0
X-1.397
G3 X-1.593 Y23.932 I0 J-0.2
G1 X3.303 Y-1.206
G2 X2.988 Y-1.406 I-0.196 J-0.038
G1 Z-2
X2.969 Y-1.392
G2 X-1.393 Y2.97 I12.031 J16.392
G3 X-2.223 Y3.084 I-0.47 J-0.345
X-2.309 Y2.25 I0.36 J-0.458
G1 X-0.354 Y-0.074
X-0.309 Y-0.123
X-0.258 Y-0.165
X-0.203 Y-0.202
X2.624 Y-1.862
X2.694 Y-1.897
X2.768 Y-1.922
X2.845 Y-1.938
X7.257 Y-2.505
G3 X7.572 Y-1.395 I0.074 J0.578
G2 X-1.395 Y7.57 I7.428 J16.395
G3 X-2.114 Y7.806 I-0.468 J-0.212
X-2.286 Y7.069 I0.252 J-0.448
G1 X1.382 Y1.699
X1.429 Y1.64
X1.485 Y1.588
X1.547 Y1.545
X7.36 Y-1.863
G3 X7.62 Y-1.934 I0.26 J0.443
G1 X25.268 Y-1.909
G3 X25.781 Y-1.395 I-0.001 J0.514
G1 X25.78 Y4.55
G3 X24.573 Y4.55 I-0.603 J0
X24.609 Y4.344 I0.603 J0
G2 X20.899 Y-0.947 I-3.711 J-1.344
G1 X15
G2 X-0.947 Y15 I0 J15.947
X-0.924 Y18.225 I231.072 J0
G3 X-0.902 Y21.449 I-231.05 J3.225
X-1.221 Y21.768 I-0.319 J0
G1 X-1.389
X-1.401
G0 Z4
X28.226 Y-1.414
Z2
G1 Z0 F700
Z-2
Y-1.39
Y4.55
G3 X22.127 Y4.55 I-3.05 J0
X22.309 Y3.511 I3.05 J0
G2 X20.899 Y1.5 I-1.41 J-0.511
G1 X15
G2 X1.5 Y15 I0 J13.5
G1 Y24.17
X0
X-1.397
G3 X-1.593 Y23.932 I0 J-0.2
G1 X3.303 Y-1.206
G2 X2.988 Y-1.406 I-0.196 J-0.038
G1 Z-2.5
X2.969 Y-1.392
G2 X-1.393 Y2.97 I12.031 J16.392
G3 X-2.223 Y3.084 I-0.47 J-0.345
X-2.309 Y2.25 I0.36 J-0.458
G1 X-0.354 Y-0.074
X-0.309 Y-0.123
X-0.258 Y-0.165
X-0.203 Y-0.202
X2.624 Y-1.862
X2.694 Y-1.897
X2.768 Y-1.922
X2.845 Y-1.938
X7.257 Y-2.505
G3 X7.572 Y-1.395 I0.074 J0.578
G2 X-1.395 Y7.57 I7.428 J16.395
G3 X-2.114 Y7.806 I-0.468 J-0.212
X-2.286 Y7.069 I0.252 J-0.448
G1 X1.382 Y1.699
X1.429 Y1.64
X1.485 Y1.588
X1.547 Y1.545
X7.36 Y-1.863
G3 X7.62 Y-1.934 I0.26 J0.443
G1 X25.268 Y-1.909
G3 X25.781 Y-1.395 I-0.001 J0.514
G1 X25.78 Y4.55
G3 X24.573 Y4.55 I-0.603 J0
X24.609 Y4.344 I0.603 J0
G2 X20.899 Y-0.947 I-3.711 J-1.344
G1 X15
G2 X-0.947 Y15 I0 J15.947
X-0.924 Y18.225 I231.072 J0
G3 X-0.902 Y21.449 I-231.05 J3.225
X-1.221 Y21.768 I-0.319 J0
G1 X-1.389
X-1.401
G0 Z4
X28.226 Y-1.414
Z2
G1 Z-0.5 F700
Z-2.5
Y-1.39
Y4.55
G3 X22.127 Y4.55 I-3.05 J0
X22.309 Y3.511 I3.05 J0
G2 X20.899 Y1.5 I-1.41 J-0.511
G1 X15
G2 X1.5 Y15 I0 J13.5
G1 Y24.17
X0
X-1.397
G3 X-1.593 Y23.932 I0 J-0.2
G1 X3.303 Y-1.206
G2 X2.988 Y-1.406 I-0.196 J-0.038
G1 Z-3
X2.969 Y-1.392
G2 X-1.393 Y2.97 I12.031 J16.392
G3 X-2.223 Y3.084 I-0.47 J-0.345
X-2.309 Y2.25 I0.36 J-0.458
G1 X-0.354 Y-0.074
X-0.309 Y-0.123
X-0.258 Y-0.165
X-0.203 Y-0.202
X2.624 Y-1.862
X2.694 Y-1.897
X2.768 Y-1.922
X2.845 Y-1.938
X7.257 Y-2.505
G3 X7.572 Y-1.395 I0.074 J0.578
G2 X-1.395 Y7.57 I7.428 J16.395
G3 X-2.114 Y7.806 I-0.468 J-0.212
X-2.286 Y7.069 I0.252 J-0.448
G1 X1.382 Y1.699
X1.429 Y1.64
X1.485 Y1.588
X1.547 Y1.545
X7.36 Y-1.863
G3 X7.62 Y-1.934 I0.26 J0.443
G1 X25.268 Y-1.909
G3 X25.781 Y-1.395 I-0.001 J0.514
G1 X25.78 Y4.55
G3 X24.573 Y4.55 I-0.603 J0
X24.609 Y4.344 I0.603 J0
G2 X20.899 Y-0.947 I-3.711 J-1.344
G1 X15
G2 X-0.947 Y15 I0 J15.947
X-0.924 Y18.225 I231.072 J0
G3 X-0.902 Y21.449 I-231.05 J3.225
X-1.221 Y21.768 I-0.319 J0
G1 X-1.389
X-1.401
G0 Z4
X28.226 Y-1.414
Z2
G1 Z-1 F700
Z-3
Y-1.39
Y4.55
G3 X22.127 Y4.55 I-3.05 J0
X22.309 Y3.511 I3.05 J0
G2 X20.899 Y1.5 I-1.41 J-0.511
G1 X15
G2 X1.5 Y15 I0 J13.5
G1 Y24.17
X0
X-1.397
G3 X-1.593 Y23.932 I0 J-0.2
G1 X3.303 Y-1.206
G2 X2.988 Y-1.406 I-0.196 J-0.038
G1 Z-3.5
X2.969 Y-1.392
G2 X-1.393 Y2.97 I12.031 J16.392
G3 X-2.223 Y3.084 I-0.47 J-0.345
X-2.309 Y2.25 I0.36 J-0.458
G1 X-0.354 Y-0.074
X-0.309 Y-0.123
X-0.258 Y-0.165
X-0.203 Y-0.202
X2.624 Y-1.862
X2.694 Y-1.897
X2.768 Y-1.922
X2.845 Y-1.938
X7.257 Y-2.505
G3 X7.572 Y-1.395 I0.074 J0.578
G2 X-1.395 Y7.57 I7.428 J16.395
G3 X-2.114 Y7.806 I-0.468 J-0.212
X-2.286 Y7.069 I0.252 J-0.448
G1 X1.382 Y1.699
X1.429 Y1.64
X1.485 Y1.588
X1.547 Y1.545
X7.36 Y-1.863
G3 X7.62 Y-1.934 I0.26 J0.443
G1 X25.268 Y-1.909
G3 X25.781 Y-1.395 I-0.001 J0.514
G1 X25.78 Y4.55
G3 X24.573 Y4.55 I-0.603 J0
X24.609 Y4.344 I0.603 J0
G2 X20.899 Y-0.947 I-3.711 J-1.344
G1 X15
G2 X-0.947 Y15 I0 J15.947
X-0.924 Y18.225 I231.072 J0
G3 X-0.902 Y21.449 I-231.05 J3.225
X-1.221 Y21.768 I-0.319 J0
G1 X-1.389
X-1.401
G0 Z4
X28.226 Y-1.414
Z2
G1 Z-1.5 F700
Z-3.5
Y-1.39
Y4.55
G3 X22.127 Y4.55 I-3.05 J0
X22.309 Y3.511 I3.05 J0
G2 X20.899 Y1.5 I-1.41 J-0.511
G1 X15
G2 X1.5 Y15 I0 J13.5
G1 Y24.17
X0
X-1.397
G3 X-1.593 Y23.932 I0 J-0.2
G1 X3.303 Y-1.206
G2 X2.988 Y-1.406 I-0.196 J-0.038
G1 Z-4
X2.969 Y-1.392
G2 X-1.393 Y2.97 I12.031 J16.392
G3 X-2.223 Y3.084 I-0.47 J-0.345
X-2.309 Y2.25 I0.36 J-0.458
G1 X-0.354 Y-0.074
X-0.309 Y-0.123
X-0.258 Y-0.165
X-0.203 Y-0.202
X2.624 Y-1.862
X2.694 Y-1.897
X2.768 Y-1.922
X2.845 Y-1.938
X7.257 Y-2.505
G3 X7.572 Y-1.395 I0.074 J0.578
G2 X-1.395 Y7.57 I7.428 J16.395
G3 X-2.114 Y7.806 I-0.468 J-0.212
X-2.286 Y7.069 I0.252 J-0.448
G1 X1.382 Y1.699
X1.429 Y1.64
X1.485 Y1.588
X1.547 Y1.545
X7.36 Y-1.863
G3 X7.62 Y-1.934 I0.26 J0.443
G1 X25.268 Y-1.909
G3 X25.781 Y-1.395 I-0.001 J0.514
G1 X25.78 Y4.55
G3 X24.573 Y4.55 I-0.603 J0
X24.609 Y4.344 I0.603 J0
G2 X20.899 Y-0.947 I-3.711 J-1.344
G1 X15
G2 X-0.947 Y15 I0 J15.947
X-0.924 Y18.225 I231.072 J0
G3 X-0.902 Y21.449 I-231.05 J3.225
X-1.221 Y21.768 I-0.319 J0
G1 X-1.389
X-1.401
G0 Z4
X28.226 Y-1.414
Z2
G1 Z-2 F700
Z-4
Y-1.39
Y4.55
G3 X22.127 Y4.55 I-3.05 J0
X22.309 Y3.511 I3.05 J0
G2 X20.899 Y1.5 I-1.41 J-0.511
G1 X15
G2 X1.5 Y15 I0 J13.5
G1 Y24.17
X0
X-1.397
G3 X-1.593 Y23.932 I0 J-0.2
G1 X3.303 Y-1.206
G2 X2.988 Y-1.406 I-0.196 J-0.038
G1 Z-4.5
X2.969 Y-1.392
G2 X-1.393 Y2.97 I12.031 J16.392
G3 X-2.223 Y3.084 I-0.47 J-0.345
X-2.309 Y2.25 I0.36 J-0.458
G1 X-0.354 Y-0.074
X-0.309 Y-0.123
X-0.258 Y-0.165
X-0.203 Y-0.202
X2.624 Y-1.862
X2.694 Y-1.897
X2.768 Y-1.922
X2.845 Y-1.938
X7.257 Y-2.505
G3 X7.572 Y-1.395 I0.074 J0.578
G2 X-1.395 Y7.57 I7.428 J16.395
G3 X-2.114 Y7.806 I-0.468 J-0.212
X-2.286 Y7.069 I0.252 J-0.448
G1 X1.382 Y1.699
X1.429 Y1.64
X1.485 Y1.588
X1.547 Y1.545
X7.36 Y-1.863
G3 X7.62 Y-1.934 I0.26 J0.443
G1 X25.268 Y-1.909
G3 X25.781 Y-1.395 I-0.001 J0.514
G1 X25.78 Y4.55
G3 X24.573 Y4.55 I-0.603 J0
X24.609 Y4.344 I0.603 J0
G2 X20.899 Y-0.947 I-3.711 J-1.344
G1 X15
G2 X-0.947 Y15 I0 J15.947
X-0.924 Y18.225 I231.072 J0
G3 X-0.902 Y21.449 I-231.05 J3.225
X-1.221 Y21.768 I-0.319 J0
G1 X-1.389
X-1.401
G0 Z4
X28.226 Y-1.414
Z2
G1 Z-2.5 F700
Z-4.5
Y-1.39
Y4.55
G3 X22.127 Y4.55 I-3.05 J0
X22.309 Y3.511 I3.05 J0
G2 X20.899 Y1.5 I-1.41 J-0.511
G1 X15
G2 X1.5 Y15 I0 J13.5
G1 Y24.17
X0
X-1.397
G3 X-1.593 Y23.932 I0 J-0.2
G1 X3.303 Y-1.206
G2 X2.988 Y-1.406 I-0.196 J-0.038
G1 Z-5
X2.969 Y-1.392
G2 X-1.393 Y2.97 I12.031 J16.392
G3 X-2.223 Y3.084 I-0.47 J-0.345
X-2.309 Y2.25 I0.36 J-0.458
G1 X-0.354 Y-0.074
X-0.309 Y-0.123
X-0.258 Y-0.165
X-0.203 Y-0.202
X2.624 Y-1.862
X2.694 Y-1.897
X2.768 Y-1.922
X2.845 Y-1.938
X7.257 Y-2.505
G3 X7.572 Y-1.395 I0.074 J0.578
G2 X-1.395 Y7.57 I7.428 J16.395
G3 X-2.114 Y7.806 I-0.468 J-0.212
X-2.286 Y7.069 I0.252 J-0.448
G1 X1.382 Y1.699
X1.429 Y1.64
X1.485 Y1.588
X1.547 Y1.545
X7.36 Y-1.863
G3 X7.62 Y-1.934 I0.26 J0.443
G1 X25.268 Y-1.909
G3 X25.781 Y-1.395 I-0.001 J0.514
G1 X25.78 Y4.55
G3 X24.573 Y4.55 I-0.603 J0
X24.609 Y4.344 I0.603 J0
G2 X20.899 Y-0.947 I-3.711 J-1.344
G1 X15
G2 X-0.947 Y15 I0 J15.947
X-0.924 Y18.225 I231.072 J0
G3 X-0.902 Y21.449 I-231.05 J3.225
X-1.221 Y21.768 I-0.319 J0
G1 X-1.389
X-1.401
G0 Z4
X28.226 Y-1.414
Z2
G1 Z-3 F700
Z-5
Y-1.39
Y4.55
G3 X22.127 Y4.55 I-3.05 J0
X22.309 Y3.511 I3.05 J0
G2 X20.899 Y1.5 I-1.41 J-0.511
G1 X15
G2 X1.5 Y15 I0 J13.5
G1 Y24.17
X0
X-1.397
G3 X-1.593 Y23.932 I0 J-0.2
G1 X3.303 Y-1.206
G2 X2.988 Y-1.406 I-0.196 J-0.038
G1 Z-5.5
X2.969 Y-1.392
G2 X-1.393 Y2.97 I12.031 J16.392
G3 X-2.223 Y3.084 I-0.47 J-0.345
X-2.309 Y2.25 I0.36 J-0.458
G1 X-0.354 Y-0.074
X-0.309 Y-0.123
X-0.258 Y-0.165
X-0.203 Y-0.202
X2.624 Y-1.862
X2.694 Y-1.897
X2.768 Y-1.922
X2.845 Y-1.938
X7.257 Y-2.505
G3 X7.572 Y-1.395 I0.074 J0.578
G2 X-1.395 Y7.57 I7.428 J16.395
G3 X-2.114 Y7.806 I-0.468 J-0.212
X-2.286 Y7.069 I0.252 J-0.448
G1 X1.382 Y1.699
X1.429 Y1.64
X1.485 Y1.588
X1.547 Y1.545
X7.36 Y-1.863
G3 X7.62 Y-1.934 I0.26 J0.443
G1 X25.268 Y-1.909
G3 X25.781 Y-1.395 I-0.001 J0.514
G1 X25.78 Y4.55
G3 X24.573 Y4.55 I-0.603 J0
X24.609 Y4.344 I0.603 J0
G2 X20.899 Y-0.947 I-3.711 J-1.344
G1 X15
G2 X-0.947 Y15 I0 J15.947
X-0.924 Y18.225 I231.072 J0
G3 X-0.902 Y21.449 I-231.05 J3.225
X-1.221 Y21.768 I-0.319 J0
G1 X-1.389
X-1.401
G0 Z4
X28.226 Y-1.414
Z2
G1 Z-3.5 F700
Z-5.5
Y-1.39
Y4.55
G3 X22.127 Y4.55 I-3.05 J0
X22.309 Y3.511 I3.05 J0
G2 X20.899 Y1.5 I-1.41 J-0.511
G1 X15
G2 X1.5 Y15 I0 J13.5
G1 Y24.17
X0
X-1.397
G3 X-1.593 Y23.932 I0 J-0.2
G1 X3.303 Y-1.206
G2 X2.988 Y-1.406 I-0.196 J-0.038
G1 Z-6
X2.969 Y-1.392
G2 X-1.393 Y2.97 I12.031 J16.392
G3 X-2.223 Y3.084 I-0.47 J-0.345
X-2.309 Y2.25 I0.36 J-0.458
G1 X-0.354 Y-0.074
X-0.309 Y-0.123
X-0.258 Y-0.165
X-0.203 Y-0.202
X2.624 Y-1.862
X2.694 Y-1.897
X2.768 Y-1.922
X2.845 Y-1.938
X7.257 Y-2.505
G3 X7.572 Y-1.395 I0.074 J0.578
G2 X-1.395 Y7.57 I7.428 J16.395
G3 X-2.114 Y7.806 I-0.468 J-0.212
X-2.286 Y7.069 I0.252 J-0.448
G1 X1.382 Y1.699
X1.429 Y1.64
X1.485 Y1.588
X1.547 Y1.545
X7.36 Y-1.863
G3 X7.62 Y-1.934 I0.26 J0.443
G1 X25.268 Y-1.909
G3 X25.781 Y-1.395 I-0.001 J0.514
G1 X25.78 Y4.55
G3 X24.573 Y4.55 I-0.603 J0
X24.609 Y4.344 I0.603 J0
G2 X20.899 Y-0.947 I-3.711 J-1.344
G1 X15
G2 X-0.947 Y15 I0 J15.947
X-0.924 Y18.225 I231.072 J0
G3 X-0.902 Y21.449 I-231.05 J3.225
X-1.221 Y21.768 I-0.319 J0
G1 X-1.389
X-1.401
G0 Z4
X28.226 Y-1.414
Z2
G1 Z-4 F700
Z-6
Y-1.39
Y4.55
G3 X22.127 Y4.55 I-3.05 J0
X22.309 Y3.511 I3.05 J0
G2 X20.899 Y1.5 I-1.41 J-0.511
G1 X15
G2 X1.5 Y15 I0 J13.5
G1 Y24.17
X0
X-1.397
G0 Z4
X242.241 Y17.869
Z2
G1 Z1.8 F700
Z-0.5 F333.3
G3 X242.795 Y17.131 I0.277 J-0.369 F700
X242.241 Y17.869 I-0.277 J0.369
G2 X241.535 Y17.757 I-0.459 J0.612
G3 X240.98 Y17.305 I-0.136 J-0.399
X244.056 Y17.695 I1.538 J0.195
X240.98 Y17.305 I-1.538 J-0.195
G1 Z1.3
X242.241 Y17.869
Z-1 F333.3
G3 X242.795 Y17.131 I0.277 J-0.369 F700
X242.241 Y17.869 I-0.277 J0.369
G2 X241.535 Y17.757 I-0.459 J0.612
G3 X240.98 Y17.305 I-0.136 J-0.399
X244.056 Y17.695 I1.538 J0.195
X240.98 Y17.305 I-1.538 J-0.195
G1 Z0.8
X242.241 Y17.869
Z-1.5 F333.3
G3 X242.795 Y17.131 I0.277 J-0.369 F700
X242.241 Y17.869 I-0.277 J0.369
G2 X241.535 Y17.757 I-0.459 J0.612
G3 X240.98 Y17.305 I-0.136 J-0.399
X244.056 Y17.695 I1.538 J0.195
X240.98 Y17.305 I-1.538 J-0.195
G1 Z0.3
X242.241 Y17.869
Z-2 F333.3
G3 X242.795 Y17.131 I0.277 J-0.369 F700
X242.241 Y17.869 I-0.277 J0.369
G2 X241.535 Y17.757 I-0.459 J0.612
G3 X240.98 Y17.305 I-0.136 J-0.399
X244.056 Y17.695 I1.538 J0.195
X240.98 Y17.305 I-1.538 J-0.195
G1 Z-0.2
X242.241 Y17.869
Z-2.5 F333.3
G3 X242.795 Y17.131 I0.277 J-0.369 F700
X242.241 Y17.869 I-0.277 J0.369
G2 X241.535 Y17.757 I-0.459 J0.612
G3 X240.98 Y17.305 I-0.136 J-0.399
X244.056 Y17.695 I1.538 J0.195
X240.98 Y17.305 I-1.538 J-0.195
G1 Z-0.7
X242.241 Y17.869
Z-3 F333.3
G3 X242.795 Y17.131 I0.277 J-0.369 F700
X242.241 Y17.869 I-0.277 J0.369
G2 X241.535 Y17.757 I-0.459 J0.612
G3 X240.98 Y17.305 I-0.136 J-0.399
X244.056 Y17.695 I1.538 J0.195
X240.98 Y17.305 I-1.538 J-0.195
G1 Z-1.2
X242.241 Y17.869
Z-3.5 F333.3
G3 X242.795 Y17.131 I0.277 J-0.369 F700
X242.241 Y17.869 I-0.277 J0.369
G2 X241.535 Y17.757 I-0.459 J0.612
G3 X240.98 Y17.305 I-0.136 J-0.399
X244.056 Y17.695 I1.538 J0.195
X240.98 Y17.305 I-1.538 J-0.195
G1 Z-1.7
X242.241 Y17.869
Z-4 F333.3
G3 X242.795 Y17.131 I0.277 J-0.369 F700
X242.241 Y17.869 I-0.277 J0.369
G2 X241.535 Y17.757 I-0.459 J0.612
G3 X240.98 Y17.305 I-0.136 J-0.399
X244.056 Y17.695 I1.538 J0.195
X240.98 Y17.305 I-1.538 J-0.195
G1 Z-2.2
X242.241 Y17.869
Z-4.5 F333.3
G3 X242.795 Y17.131 I0.277 J-0.369 F700
X242.241 Y17.869 I-0.277 J0.369
G2 X241.535 Y17.757 I-0.459 J0.612
G3 X240.98 Y17.305 I-0.136 J-0.399
X244.056 Y17.695 I1.538 J0.195
X240.98 Y17.305 I-1.538 J-0.195
G1 Z-2.7
X242.241 Y17.869
Z-5 F333.3
G3 X242.795 Y17.131 I0.277 J-0.369 F700
X242.241 Y17.869 I-0.277 J0.369
G2 X241.535 Y17.757 I-0.459 J0.612
G3 X240.98 Y17.305 I-0.136 J-0.399
X244.056 Y17.695 I1.538 J0.195
X240.98 Y17.305 I-1.538 J-0.195
G1 Z-3.2
X242.241 Y17.869
Z-5.5 F333.3
G3 X242.795 Y17.131 I0.277 J-0.369 F700
X242.241 Y17.869 I-0.277 J0.369
G2 X241.535 Y17.757 I-0.459 J0.612
G3 X240.98 Y17.305 I-0.136 J-0.399
X244.056 Y17.695 I1.538 J0.195
X240.98 Y17.305 I-1.538 J-0.195
G1 Z-3.7
X242.241 Y17.869
Z-6 F333.3
G3 X242.795 Y17.131 I0.277 J-0.369 F700
X242.241 Y17.869 I-0.277 J0.369
G2 X241.535 Y17.757 I-0.459 J0.612
G3 X240.98 Y17.305 I-0.136 J-0.399
X244.056 Y17.695 I1.538 J0.195
X240.98 Y17.305 I-1.538 J-0.195
G0 Z6

(2D Pocket4 2)
X236.32 Y73
Z6
Z2
G1 Z1.8 F700
Y74.484 Z1.5 F333.3
Y69.538 Z0.5
Y74.484 Z-0.5
X236.37
X236.363 Y74.509 F700
X236.345 Y74.527
X236.32 Y74.534
X236.295 Y74.527
X236.277 Y74.509
X236.27 Y74.484
Y58.002
X236.277 Y57.977
X236.295 Y57.959
X236.32 Y57.952
X236.345 Y57.959
X236.363 Y57.977
X236.37 Y58.002
Y74.484
X236.32 Y74.434
Y73.11
Y74.484 Z-1 F333.3
X236.37
X236.363 Y74.509 F700
X236.345 Y74.527
X236.32 Y74.534
X236.295 Y74.527
X236.277 Y74.509
X236.27 Y74.484
Y58.002
X236.277 Y57.977
X236.295 Y57.959
X236.32 Y57.952
X236.345 Y57.959
X236.363 Y57.977
X236.37 Y58.002
Y74.484
X236.32 Y74.434
Y73.11
Y74.484 Z-1.5 F333.3
X236.37
X236.363 Y74.509 F700
X236.345 Y74.527
X236.32 Y74.534
X236.295 Y74.527
X236.277 Y74.509
X236.27 Y74.484
Y58.002
X236.277 Y57.977
X236.295 Y57.959
X236.32 Y57.952
X236.345 Y57.959
X236.363 Y57.977
X236.37 Y58.002
Y74.484
X236.32 Y74.434
Y73.11
Y74.484 Z-2 F333.3
X236.37
X236.363 Y74.509 F700
X236.345 Y74.527
X236.32 Y74.534
X236.295 Y74.527
X236.277 Y74.509
X236.27 Y74.484
Y58.002
X236.277 Y57.977
X236.295 Y57.959
X236.32 Y57.952
X236.345 Y57.959
X236.363 Y57.977
X236.37 Y58.002
Y74.484
G0 Z6
X221.675 Y59.485
Z2
G1 Z1.8 F700
Y58.002 Z1.5 F333.3
Y62.947 Z0.5
Y58.002 Z-0.5
X221.625
X221.632 Y57.977 F700
X221.65 Y57.958
X221.675 Y57.952
X221.7 Y57.958
X221.718 Y57.977
X221.725 Y58.002
Y74.484
X221.718 Y74.509
X221.7 Y74.527
X221.675 Y74.534
X221.65 Y74.527
X221.632 Y74.509
X221.625 Y74.484
Y58.002
X221.675 Y58.052
Y59.376
Y58.002 Z-1 F333.3
X221.625
X221.632 Y57.977 F700
X221.65 Y57.958
X221.675 Y57.952
X221.7 Y57.958
X221.718 Y57.977
X221.725 Y58.002
Y74.484
X221.718 Y74.509
X221.7 Y74.527
X221.675 Y74.534
X221.65 Y74.527
X221.632 Y74.509
X221.625 Y74.484
Y58.002
X221.675 Y58.052
Y59.376
Y58.002 Z-1.5 F333.3
X221.625
X221.632 Y57.977 F700
X221.65 Y57.958
X221.675 Y57.952
X221.7 Y57.958
X221.718 Y57.977
X221.725 Y58.002
Y74.484
X221.718 Y74.509
X221.7 Y74.527
X221.675 Y74.534
X221.65 Y74.527
X221.632 Y74.509
X221.625 Y74.484
Y58.002
X221.675 Y58.052
Y59.376
Y58.002 Z-2 F333.3
X221.625
X221.632 Y57.977 F700
X221.65 Y57.958
X221.675 Y57.952
X221.7 Y57.958
X221.718 Y57.977
X221.725 Y58.002
Y74.484
X221.718 Y74.509
X221.7 Y74.527
X221.675 Y74.534
X221.65 Y74.527
X221.632 Y74.509
X221.625 Y74.484
Y58.002
G0 Z6
X242.689 Y19.09
Z2
G1 Z1.5 F700
Z-0.5
Y19.102
G3 X239.629 Y20.323 I-1.771 J0.005
G2 X236.57 Y21.544 I-1.286 J1.221
G1 Y21.636
G3 X236.251 Y21.955 I-0.319 J0
G1 X235.57
G3 X235.251 Y21.636 I0 J-0.319
G1 Y15.364
G3 X235.57 Y15.045 I0.319 J0
G1 X236.251
G3 X236.57 Y15.364 I0 J0.319
G1 Y21.544
G2 X237.076 Y22.363 I0.915 J0
G3 X236.844 Y23.296 I-0.22 J0.441
X236.403 Y23.283 I0.756 J-31.862
G2 X235.206 Y23.26 I-1.197 J31.848
G3 X233.946 Y22 I0 J-1.26
G1 X233.901 Y14.014
G3 X234.22 Y13.695 I0.319 J0
G1 X237.601
G3 X237.92 Y14.014 I0 J0.319
G1 Y22.986
G3 X237.601 Y23.305 I-0.319 J0
X236.844 Y23.296 I0 J-31.871
G2 X235.205 Y24.445 I-0.04 J1.688
G3 X233.326 Y25.136 I-1.218 J-0.41
X231.549 Y22 I1.88 J-3.136
G1 X231.504 Y11.618
G3 X231.824 Y11.298 I0.319 J0
X235.719 Y11.321 I0 J337.263
G2 X239.615 Y11.343 I3.896 J-337.241
G3 X240.272 Y12 I0 J0.657
G1 X240.317 Y25.382
G3 X239.997 Y25.702 I-0.319 J0
X237.602 Y25.679 I0 J-127.551
G2 X235.206 Y25.657 I-2.396 J127.528
G3 X233.326 Y25.136 I0 J-3.657
X233.32 Y24.797 I0.103 J-0.172
G1 X242.38 Y18.934
G3 X242.689 Y19.102 I0.109 J0.168
G1 X242.713 Y27.779
G3 X242.394 Y28.098 I-0.319 J0
G1 X235.206 Y28.053
G3 X229.153 Y22 I0 J-6.053
G1 X229.108 Y9.221
G3 X229.427 Y8.902 I0.319 J0
G1 X239.615 Y8.947
G3 X242.668 Y12 I0 J3.053
G1 X242.679 Y15.887
G2 X243.897 Y17.711 I1.982 J-0.006
G3 X245.115 Y19.534 I-0.756 J1.823
G1 Y30.5
X235.206
G3 X226.706 Y22 I0 J-8.5
G1 Y6.5
X239.615
G3 X245.115 Y12 I0 J5.5
G1 Y19.534
G3 X244.835 Y19.717 I-0.2 J0
G1 X242.968 Y18.906
G2 X242.689 Y19.09 I-0.08 J0.183
G1 Z-1
Y19.102
G3 X239.629 Y20.323 I-1.771 J0.005
G2 X236.57 Y21.544 I-1.286 J1.221
G1 Y21.636
G3 X236.251 Y21.955 I-0.319 J0
G1 X235.57
G3 X235.251 Y21.636 I0 J-0.319
G1 Y15.364
G3 X235.57 Y15.045 I0.319 J0
G1 X236.251
G3 X236.57 Y15.364 I0 J0.319
G1 Y21.544
G2 X237.076 Y22.363 I0.915 J0
G3 X236.844 Y23.296 I-0.22 J0.441
X236.403 Y23.283 I0.756 J-31.862
G2 X235.206 Y23.26 I-1.197 J31.848
G3 X233.946 Y22 I0 J-1.26
G1 X233.901 Y14.014
G3 X234.22 Y13.695 I0.319 J0
G1 X237.601
G3 X237.92 Y14.014 I0 J0.319
G1 Y22.986
G3 X237.601 Y23.305 I-0.319 J0
X236.844 Y23.296 I0 J-31.871
G2 X235.205 Y24.445 I-0.04 J1.688
G3 X233.326 Y25.136 I-1.218 J-0.41
X231.549 Y22 I1.88 J-3.136
G1 X231.504 Y11.618
G3 X231.824 Y11.298 I0.319 J0
X235.719 Y11.321 I0 J337.263
G2 X239.615 Y11.343 I3.896 J-337.241
G3 X240.272 Y12 I0 J0.657
G1 X240.317 Y25.382
G3 X239.997 Y25.702 I-0.319 J0
X237.602 Y25.679 I0 J-127.551
G2 X235.206 Y25.657 I-2.396 J127.528
G3 X233.326 Y25.136 I0 J-3.657
X233.32 Y24.797 I0.103 J-0.172
G1 X242.38 Y18.934
G3 X242.689 Y19.102 I0.109 J0.168
G1 X242.713 Y27.779
G3 X242.394 Y28.098 I-0.319 J0
G1 X235.206 Y28.053
G3 X229.153 Y22 I0 J-6.053
G1 X229.108 Y9.221
G3 X229.427 Y8.902 I0.319 J0
G1 X239.615 Y8.947
G3 X242.668 Y12 I0 J3.053
G1 X242.679 Y15.887
G2 X243.897 Y17.711 I1.982 J-0.006
G3 X245.115 Y19.534 I-0.756 J1.823
G1 Y30.5
X235.206
G3 X226.706 Y22 I0 J-8.5
G1 Y6.5
X239.615
G3 X245.115 Y12 I0 J5.5
G1 Y19.534
G3 X244.835 Y19.717 I-0.2 J0
G1 X242.968 Y18.906
G2 X242.689 Y19.09 I-0.08 J0.183
G1 Z-1.5
Y19.102
G3 X239.629 Y20.323 I-1.771 J0.005
G2 X236.57 Y21.544 I-1.286 J1.221
G1 Y21.636
G3 X236.251 Y21.955 I-0.319 J0
G1 X235.57
G3 X235.251 Y21.636 I0 J-0.319
G1 Y15.364
G3 X235.57 Y15.045 I0.319 J0
G1 X236.251
G3 X236.57 Y15.364 I0 J0.319
G1 Y21.544
G2 X237.076 Y22.363 I0.915 J0
G3 X236.844 Y23.296 I-0.22 J0.441
X236.403 Y23.283 I0.756 J-31.862
G2 X235.206 Y23.26 I-1.197 J31.848
G3 X233.946 Y22 I0 J-1.26
G1 X233.901 Y14.014
G3 X234.22 Y13.695 I0.319 J0
G1 X237.601
G3 X237.92 Y14.014 I0 J0.319
G1 Y22.986
G3 X237.601 Y23.305 I-0.319 J0
X236.844 Y23.296 I0 J-31.871
G2 X235.205 Y24.445 I-0.04 J1.688
G3 X233.326 Y25.136 I-1.218 J-0.41
X231.549 Y22 I1.88 J-3.136
G1 X231.504 Y11.618
G3 X231.824 Y11.298 I0.319 J0
X235.719 Y11.321 I0 J337.263
G2 X239.615 Y11.343 I3.896 J-337.241
G3 X240.272 Y12 I0 J0.657
G1 X240.317 Y25.382
G3 X239.997 Y25.702 I-0.319 J0
X237.602 Y25.679 I0 J-127.551
G2 X235.206 Y25.657 I-2.396 J127.528
G3 X233.326 Y25.136 I0 J-3.657
X233.32 Y24.797 I0.103 J-0.172
G1 X242.38 Y18.934
G3 X242.689 Y19.102 I0.109 J0.168
G1 X242.713 Y27.779
G3 X242.394 Y28.098 I-0.319 J0
G1 X235.206 Y28.053
G3 X229.153 Y22 I0 J-6.053
G1 X229.108 Y9.221
G3 X229.427 Y8.902 I0.319 J0
G1 X239.615 Y8.947
G3 X242.668 Y12 I0 J3.053
G1 X242.679 Y15.887
G2 X243.897 Y17.711 I1.982 J-0.006
G3 X245.115 Y19.534 I-0.756 J1.823
G1 Y30.5
X235.206
G3 X226.706 Y22 I0 J-8.5
G1 Y6.5
X239.615
G3 X245.115 Y12 I0 J5.5
G1 Y19.534
G3 X244.835 Y19.717 I-0.2 J0
G1 X242.968 Y18.906
G2 X242.689 Y19.09 I-0.08 J0.183
G1 Z-2
Y19.102
G3 X239.629 Y20.323 I-1.771 J0.005
G2 X236.57 Y21.544 I-1.286 J1.221
G1 Y21.636
G3 X236.251 Y21.955 I-0.319 J0
G1 X235.57
G3 X235.251 Y21.636 I0 J-0.319
G1 Y15.364
G3 X235.57 Y15.045 I0.319 J0
G1 X236.251
G3 X236.57 Y15.364 I0 J0.319
G1 Y21.544
G2 X237.076 Y22.363 I0.915 J0
G3 X236.844 Y23.296 I-0.22 J0.441
X236.403 Y23.283 I0.756 J-31.862
G2 X235.206 Y23.26 I-1.197 J31.848
G3 X233.946 Y22 I0 J-1.26
G1 X233.901 Y14.014
G3 X234.22 Y13.695 I0.319 J0
G1 X237.601
G3 X237.92 Y14.014 I0 J0.319
G1 Y22.986
G3 X237.601 Y23.305 I-0.319 J0
X236.844 Y23.296 I0 J-31.871
G2 X235.205 Y24.445 I-0.04 J1.688
G3 X233.326 Y25.136 I-1.218 J-0.41
X231.549 Y22 I1.88 J-3.136
G1 X231.504 Y11.618
G3 X231.824 Y11.298 I0.319 J0
X235.719 Y11.321 I0 J337.263
G2 X239.615 Y11.343 I3.896 J-337.241
G3 X240.272 Y12 I0 J0.657
G1 X240.317 Y25.382
G3 X239.997 Y25.702 I-0.319 J0
X237.602 Y25.679 I0 J-127.551
G2 X235.206 Y25.657 I-2.396 J127.528
G3 X233.326 Y25.136 I0 J-3.657
X233.32 Y24.797 I0.103 J-0.172
G1 X242.38 Y18.934
G3 X242.689 Y19.102 I0.109 J0.168
G1 X242.713 Y27.779
G3 X242.394 Y28.098 I-0.319 J0
G1 X235.206 Y28.053
G3 X229.153 Y22 I0 J-6.053
G1 X229.108 Y9.221
G3 X229.427 Y8.902 I0.319 J0
G1 X239.615 Y8.947
G3 X242.668 Y12 I0 J3.053
G1 X242.679 Y15.887
G2 X243.897 Y17.711 I1.982 J-0.006
G3 X245.115 Y19.534 I-0.756 J1.823
G1 Y30.5
X235.206
G3 X226.706 Y22 I0 J-8.5
G1 Y6.5
X239.615
G3 X245.115 Y12 I0 J5.5
G1 Y19.534
G3 X244.835 Y19.717 I-0.2 J0
G1 X242.968 Y18.906
G2 X242.689 Y19.09 I-0.08 J0.183
G1 Z-2.5
Y19.102
G3 X239.629 Y20.323 I-1.771 J0.005
G2 X236.57 Y21.544 I-1.286 J1.221
G1 Y21.636
G3 X236.251 Y21.955 I-0.319 J0
G1 X235.57
G3 X235.251 Y21.636 I0 J-0.319
G1 Y15.364
G3 X235.57 Y15.045 I0.319 J0
G1 X236.251
G3 X236.57 Y15.364 I0 J0.319
G1 Y21.544
G2 X237.076 Y22.363 I0.915 J0
G3 X236.844 Y23.296 I-0.22 J0.441
X236.403 Y23.283 I0.756 J-31.862
G2 X235.206 Y23.26 I-1.197 J31.848
G3 X233.946 Y22 I0 J-1.26
G1 X233.901 Y14.014
G3 X234.22 Y13.695 I0.319 J0
G1 X237.601
G3 X237.92 Y14.014 I0 J0.319
G1 Y22.986
G3 X237.601 Y23.305 I-0.319 J0
X236.844 Y23.296 I0 J-31.871
G2 X235.205 Y24.445 I-0.04 J1.688
G3 X233.326 Y25.136 I-1.218 J-0.41
X231.549 Y22 I1.88 J-3.136
G1 X231.504 Y11.618
G3 X231.824 Y11.298 I0.319 J0
X235.719 Y11.321 I0 J337.263
G2 X239.615 Y11.343 I3.896 J-337.241
G3 X240.272 Y12 I0 J0.657
G1 X240.317 Y25.382
G3 X239.997 Y25.702 I-0.319 J0
X237.602 Y25.679 I0 J-127.551
G2 X235.206 Y25.657 I-2.396 J127.528
G3 X233.326 Y25.136 I0 J-3.657
X233.32 Y24.797 I0.103 J-0.172
G1 X242.38 Y18.934
G3 X242.689 Y19.102 I0.109 J0.168
G1 X242.713 Y27.779
G3 X242.394 Y28.098 I-0.319 J0
G1 X235.206 Y28.053
G3 X229.153 Y22 I0 J-6.053
G1 X229.108 Y9.221
G3 X229.427 Y8.902 I0.319 J0
G1 X239.615 Y8.947
G3 X242.668 Y12 I0 J3.053
G1 X242.679 Y15.887
G2 X243.897 Y17.711 I1.982 J-0.006
G3 X245.115 Y19.534 I-0.756 J1.823
G1 Y30.5
X235.206
G3 X226.706 Y22 I0 J-8.5
G1 Y6.5
X239.615
G3 X245.115 Y12 I0 J5.5
G1 Y19.534
G3 X244.835 Y19.717 I-0.2 J0
G1 X242.968 Y18.906
G2 X242.689 Y19.09 I-0.08 J0.183
G1 Z-3
Y19.102
G3 X239.629 Y20.323 I-1.771 J0.005
G2 X236.57 Y21.544 I-1.286 J1.221
G1 Y21.636
G3 X236.251 Y21.955 I-0.319 J0
G1 X235.57
G3 X235.251 Y21.636 I0 J-0.319
G1 Y15.364
G3 X235.57 Y15.045 I0.319 J0
G1 X236.251
G3 X236.57 Y15.364 I0 J0.319
G1 Y21.544
G2 X237.076 Y22.363 I0.915 J0
G3 X236.844 Y23.296 I-0.22 J0.441
X236.403 Y23.283 I0.756 J-31.862
G2 X235.206 Y23.26 I-1.197 J31.848
G3 X233.946 Y22 I0 J-1.26
G1 X233.901 Y14.014
G3 X234.22 Y13.695 I0.319 J0
G1 X237.601
G3 X237.92 Y14.014 I0 J0.319
G1 Y22.986
G3 X237.601 Y23.305 I-0.319 J0
X236.844 Y23.296 I0 J-31.871
G2 X235.205 Y24.445 I-0.04 J1.688
G3 X233.326 Y25.136 I-1.218 J-0.41
X231.549 Y22 I1.88 J-3.136
G1 X231.504 Y11.618
G3 X231.824 Y11.298 I0.319 J0
X235.719 Y11.321 I0 J337.263
G2 X239.615 Y11.343 I3.896 J-337.241
G3 X240.272 Y12 I0 J0.657
G1 X240.317 Y25.382
G3 X239.997 Y25.702 I-0.319 J0
X237.602 Y25.679 I0 J-127.551
G2 X235.206 Y25.657 I-2.396 J127.528
G3 X233.326 Y25.136 I0 J-3.657
X233.32 Y24.797 I0.103 J-0.172
G1 X242.38 Y18.934
G3 X242.689 Y19.102 I0.109 J0.168
G1 X242.713 Y27.779
G3 X242.394 Y28.098 I-0.319 J0
G1 X235.206 Y28.053
G3 X229.153 Y22 I0 J-6.053
G1 X229.108 Y9.221
G3 X229.427 Y8.902 I0.319 J0
G1 X239.615 Y8.947
G3 X242.668 Y12 I0 J3.053
G1 X242.679 Y15.887
G2 X243.897 Y17.711 I1.982 J-0.006
G3 X245.115 Y19.534 I-0.756 J1.823
G1 Y30.5
X235.206
G3 X226.706 Y22 I0 J-8.5
G1 Y6.5
X239.615
G3 X245.115 Y12 I0 J5.5
G1 Y19.534
G0 Z6
X242.682 Y114.464
Z2
G1 Z1.5 F700
Z-0.5
Y114.489
G3 X239.611 Y115.268 I-1.635 J-0.004
G2 X236.54 Y116.047 I-1.437 J0.779
G1 Y117.535
G3 X236.221 Y117.854 I-0.319 J0
G1 X235.511
G3 X235.192 Y117.535 I0 J-0.319
G1 Y106.209
G3 X235.511 Y105.89 I0.319 J0
G1 X236.221
G3 X236.54 Y106.209 I0 J0.319
G1 Y116.047
G2 X237.23 Y117.082 I1.121 J0
G3 X237.92 Y118.117 I-0.431 J1.035
G1 Y118.915
G3 X237.601 Y119.234 I-0.319 J0
G1 X234.131
G3 X233.812 Y118.915 I0 J-0.319
G1 X233.857 Y105.815
G3 X235.117 Y104.555 I1.26 J0
G2 X236.359 Y104.533 I0 J-34.283
G3 X237.601 Y104.51 I1.242 J34.26
X237.92 Y104.83 I0 J0.319
G1 Y118.117
G2 X239.048 Y119.682 I1.65 J0
G3 X238.742 Y121.587 I-0.309 J0.927
G2 X235.675 Y121.608 I0.873 J345.011
G3 X231.735 Y121.631 I-3.94 J-344.989
X231.415 Y121.311 I0 J-0.319
G1 X231.46 Y105.815
G3 X235.117 Y102.159 I3.656 J0
G2 X237.557 Y102.136 I0 J-132.333
G3 X239.997 Y102.114 I2.44 J132.311
X240.317 Y102.433 I0 J0.319
G1 X240.272 Y120.929
G3 X239.615 Y121.586 I-0.657 J0
G2 X238.742 Y121.587 I0 J345.012
G3 X238.565 Y121.292 I-0.001 J-0.2
G1 X242.306 Y114.38
G3 X242.682 Y114.475 I0.176 J0.095
G1 X242.668 Y120.929
G3 X239.615 Y123.982 I-3.053 J0
G1 X229.338 Y124.027
G3 X229.019 Y123.708 I0 J-0.319
G1 X229.064 Y105.815
G3 X235.117 Y99.762 I6.053 J0
G1 X242.394 Y99.717
G3 X242.713 Y100.036 I0 J0.319
G1 X242.689 Y111.261
G2 X243.902 Y113.083 I1.969 J0.004
G3 X245.115 Y114.905 I-0.762 J1.822
G1 Y120.929
G3 X239.615 Y126.429 I-5.5 J0
G1 X226.617
Y105.815
G3 X235.117 Y97.315 I8.5 J0
G1 X245.115
Y114.905
G3 X244.836 Y115.089 I-0.2 J0
G1 X242.961 Y114.28
G2 X242.682 Y114.464 I-0.079 J0.184
G1 Z-1
Y114.489
G3 X239.611 Y115.268 I-1.635 J-0.004
G2 X236.54 Y116.047 I-1.437 J0.779
G1 Y117.535
G3 X236.221 Y117.854 I-0.319 J0
G1 X235.511
G3 X235.192 Y117.535 I0 J-0.319
G1 Y106.209
G3 X235.511 Y105.89 I0.319 J0
G1 X236.221
G3 X236.54 Y106.209 I0 J0.319
G1 Y116.047
G2 X237.23 Y117.082 I1.121 J0
G3 X237.92 Y118.117 I-0.431 J1.035
G1 Y118.915
G3 X237.601 Y119.234 I-0.319 J0
G1 X234.131
G3 X233.812 Y118.915 I0 J-0.319
G1 X233.857 Y105.815
G3 X235.117 Y104.555 I1.26 J0
G2 X236.359 Y104.533 I0 J-34.283
G3 X237.601 Y104.51 I1.242 J34.26
X237.92 Y104.83 I0 J0.319
G1 Y118.117
G2 X239.048 Y119.682 I1.65 J0
G3 X238.742 Y121.587 I-0.309 J0.927
G2 X235.675 Y121.608 I0.873 J345.011
G3 X231.735 Y121.631 I-3.94 J-344.989
X231.415 Y121.311 I0 J-0.319
G1 X231.46 Y105.815
G3 X235.117 Y102.159 I3.656 J0
G2 X237.557 Y102.136 I0 J-132.333
G3 X239.997 Y102.114 I2.44 J132.311
X240.317 Y102.433 I0 J0.319
G1 X240.272 Y120.929
G3 X239.615 Y121.586 I-0.657 J0
G2 X238.742 Y121.587 I0 J345.012
G3 X238.565 Y121.292 I-0.001 J-0.2
G1 X242.306 Y114.38
G3 X242.682 Y114.475 I0.176 J0.095
G1 X242.668 Y120.929
G3 X239.615 Y123.982 I-3.053 J0
G1 X229.338 Y124.027
G3 X229.019 Y123.708 I0 J-0.319
G1 X229.064 Y105.815
G3 X235.117 Y99.762 I6.053 J0
G1 X242.394 Y99.717
G3 X242.713 Y100.036 I0 J0.319
G1 X242.689 Y111.261
G2 X243.902 Y113.083 I1.969 J0.004
G3 X245.115 Y114.905 I-0.762 J1.822
G1 Y120.929
G3 X239.615 Y126.429 I-5.5 J0
G1 X226.617
Y105.815
G3 X235.117 Y97.315 I8.5 J0
G1 X245.115
Y114.905
G3 X244.836 Y115.089 I-0.2 J0
G1 X242.961 Y114.28
G2 X242.682 Y114.464 I-0.079 J0.184
G1 Z-1.5
Y114.489
G3 X239.611 Y115.268 I-1.635 J-0.004
G2 X236.54 Y116.047 I-1.437 J0.779
G1 Y117.535
G3 X236.221 Y117.854 I-0.319 J0
G1 X235.511
G3 X235.192 Y117.535 I0 J-0.319
G1 Y106.209
G3 X235.511 Y105.89 I0.319 J0
G1 X236.221
G3 X236.54 Y106.209 I0 J0.319
G1 Y116.047
G2 X237.23 Y117.082 I1.121 J0
G3 X237.92 Y118.117 I-0.431 J1.035
G1 Y118.915
G3 X237.601 Y119.234 I-0.319 J0
G1 X234.131
G3 X233.812 Y118.915 I0 J-0.319
G1 X233.857 Y105.815
G3 X235.117 Y104.555 I1.26 J0
G2 X236.359 Y104.533 I0 J-34.283
G3 X237.601 Y104.51 I1.242 J34.26
X237.92 Y104.83 I0 J0.319
G1 Y118.117
G2 X239.048 Y119.682 I1.65 J0
G3 X238.742 Y121.587 I-0.309 J0.927
G2 X235.675 Y121.608 I0.873 J345.011
G3 X231.735 Y121.631 I-3.94 J-344.989
X231.415 Y121.311 I0 J-0.319
G1 X231.46 Y105.815
G3 X235.117 Y102.159 I3.656 J0
G2 X237.557 Y102.136 I0 J-132.333
G3 X239.997 Y102.114 I2.44 J132.311
X240.317 Y102.433 I0 J0.319
G1 X240.272 Y120.929
G3 X239.615 Y121.586 I-0.657 J0
G2 X238.742 Y121.587 I0 J345.012
G3 X238.565 Y121.292 I-0.001 J-0.2
G1 X242.306 Y114.38
G3 X242.682 Y114.475 I0.176 J0.095
G1 X242.668 Y120.929
G3 X239.615 Y123.982 I-3.053 J0
G1 X229.338 Y124.027
G3 X229.019 Y123.708 I0 J-0.319
G1 X229.064 Y105.815
G3 X235.117 Y99.762 I6.053 J0
G1 X242.394 Y99.717
G3 X242.713 Y100.036 I0 J0.319
G1 X242.689 Y111.261
G2 X243.902 Y113.083 I1.969 J0.004
G3 X245.115 Y114.905 I-0.762 J1.822
G1 Y120.929
G3 X239.615 Y126.429 I-5.5 J0
G1 X226.617
Y105.815
G3 X235.117 Y97.315 I8.5 J0
G1 X245.115
Y114.905
G3 X244.836 Y115.089 I-0.2 J0
G1 X242.961 Y114.28
G2 X242.682 Y114.464 I-0.079 J0.184
G1 Z-2
Y114.489
G3 X239.611 Y115.268 I-1.635 J-0.004
G2 X236.54 Y116.047 I-1.437 J0.779
G1 Y117.535
G3 X236.221 Y117.854 I-0.319 J0
G1 X235.511
G3 X235.192 Y117.535 I0 J-0.319
G1 Y106.209
G3 X235.511 Y105.89 I0.319 J0
G1 X236.221
G3 X236.54 Y106.209 I0 J0.319
G1 Y116.047
G2 X237.23 Y117.082 I1.121 J0
G3 X237.92 Y118.117 I-0.431 J1.035
G1 Y118.915
G3 X237.601 Y119.234 I-0.319 J0
G1 X234.131
G3 X233.812 Y118.915 I0 J-0.319
G1 X233.857 Y105.815
G3 X235.117 Y104.555 I1.26 J0
G2 X236.359 Y104.533 I0 J-34.283
G3 X237.601 Y104.51 I1.242 J34.26
X237.92 Y104.83 I0 J0.319
G1 Y118.117
G2 X239.048 Y119.682 I1.65 J0
G3 X238.742 Y121.587 I-0.309 J0.927
G2 X235.675 Y121.608 I0.873 J345.011
G3 X231.735 Y121.631 I-3.94 J-344.989
X231.415 Y121.311 I0 J-0.319
G1 X231.46 Y105.815
G3 X235.117 Y102.159 I3.656 J0
G2 X237.557 Y102.136 I0 J-132.333
G3 X239.997 Y102.114 I2.44 J132.311
X240.317 Y102.433 I0 J0.319
G1 X240.272 Y120.929
G3 X239.615 Y121.586 I-0.657 J0
G2 X238.742 Y121.587 I0 J345.012
G3 X238.565 Y121.292 I-0.001 J-0.2
G1 X242.306 Y114.38
G3 X242.682 Y114.475 I0.176 J0.095
G1 X242.668 Y120.929
G3 X239.615 Y123.982 I-3.053 J0
G1 X229.338 Y124.027
G3 X229.019 Y123.708 I0 J-0.319
G1 X229.064 Y105.815
G3 X235.117 Y99.762 I6.053 J0
G1 X242.394 Y99.717
G3 X242.713 Y100.036 I0 J0.319
G1 X242.689 Y111.261
G2 X243.902 Y113.083 I1.969 J0.004
G3 X245.115 Y114.905 I-0.762 J1.822
G1 Y120.929
G3 X239.615 Y126.429 I-5.5 J0
G1 X226.617
Y105.815
G3 X235.117 Y97.315 I8.5 J0
G1 X245.115
Y114.905
G3 X244.836 Y115.089 I-0.2 J0
G1 X242.961 Y114.28
G2 X242.682 Y114.464 I-0.079 J0.184
G1 Z-2.5
Y114.489
G3 X239.611 Y115.268 I-1.635 J-0.004
G2 X236.54 Y116.047 I-1.437 J0.779
G1 Y117.535
G3 X236.221 Y117.854 I-0.319 J0
G1 X235.511
G3 X235.192 Y117.535 I0 J-0.319
G1 Y106.209
G3 X235.511 Y105.89 I0.319 J0
G1 X236.221
G3 X236.54 Y106.209 I0 J0.319
G1 Y116.047
G2 X237.23 Y117.082 I1.121 J0
G3 X237.92 Y118.117 I-0.431 J1.035
G1 Y118.915
G3 X237.601 Y119.234 I-0.319 J0
G1 X234.131
G3 X233.812 Y118.915 I0 J-0.319
G1 X233.857 Y105.815
G3 X235.117 Y104.555 I1.26 J0
G2 X236.359 Y104.533 I0 J-34.283
G3 X237.601 Y104.51 I1.242 J34.26
X237.92 Y104.83 I0 J0.319
G1 Y118.117
G2 X239.048 Y119.682 I1.65 J0
G3 X238.742 Y121.587 I-0.309 J0.927
G2 X235.675 Y121.608 I0.873 J345.011
G3 X231.735 Y121.631 I-3.94 J-344.989
X231.415 Y121.311 I0 J-0.319
G1 X231.46 Y105.815
G3 X235.117 Y102.159 I3.656 J0
G2 X237.557 Y102.136 I0 J-132.333
G3 X239.997 Y102.114 I2.44 J132.311
X240.317 Y102.433 I0 J0.319
G1 X240.272 Y120.929
G3 X239.615 Y121.586 I-0.657 J0
G2 X238.742 Y121.587 I0 J345.012
G3 X238.565 Y121.292 I-0.001 J-0.2
G1 X242.306 Y114.38
G3 X242.682 Y114.475 I0.176 J0.095
G1 X242.668 Y120.929
G3 X239.615 Y123.982 I-3.053 J0
G1 X229.338 Y124.027
G3 X229.019 Y123.708 I0 J-0.319
G1 X229.064 Y105.815
G3 X235.117 Y99.762 I6.053 J0
G1 X242.394 Y99.717
G3 X242.713 Y100.036 I0 J0.319
G1 X242.689 Y111.261
G2 X243.902 Y113.083 I1.969 J0.004
G3 X245.115 Y114.905 I-0.762 J1.822
G1 Y120.929
G3 X239.615 Y126.429 I-5.5 J0
G1 X226.617
Y105.815
G3 X235.117 Y97.315 I8.5 J0
G1 X245.115
Y114.905
G3 X244.836 Y115.089 I-0.2 J0
G1 X242.961 Y114.28
G2 X242.682 Y114.464 I-0.079 J0.184
G1 Z-3
Y114.489
G3 X239.611 Y115.268 I-1.635 J-0.004
G2 X236.54 Y116.047 I-1.437 J0.779
G1 Y117.535
G3 X236.221 Y117.854 I-0.319 J0
G1 X235.511
G3 X235.192 Y117.535 I0 J-0.319
G1 Y106.209
G3 X235.511 Y105.89 I0.319 J0
G1 X236.221
G3 X236.54 Y106.209 I0 J0.319
G1 Y116.047
G2 X237.23 Y117.082 I1.121 J0
G3 X237.92 Y118.117 I-0.431 J1.035
G1 Y118.915
G3 X237.601 Y119.234 I-0.319 J0
G1 X234.131
G3 X233.812 Y118.915 I0 J-0.319
G1 X233.857 Y105.815
G3 X235.117 Y104.555 I1.26 J0
G2 X236.359 Y104.533 I0 J-34.283
G3 X237.601 Y104.51 I1.242 J34.26
X237.92 Y104.83 I0 J0.319
G1 Y118.117
G2 X239.048 Y119.682 I1.65 J0
G3 X238.742 Y121.587 I-0.309 J0.927
G2 X235.675 Y121.608 I0.873 J345.011
G3 X231.735 Y121.631 I-3.94 J-344.989
X231.415 Y121.311 I0 J-0.319
G1 X231.46 Y105.815
G3 X235.117 Y102.159 I3.656 J0
G2 X237.557 Y102.136 I0 J-132.333
G3 X239.997 Y102.114 I2.44 J132.311
X240.317 Y102.433 I0 J0.319
G1 X240.272 Y120.929
G3 X239.615 Y121.586 I-0.657 J0
G2 X238.742 Y121.587 I0 J345.012
G3 X238.565 Y121.292 I-0.001 J-0.2
G1 X242.306 Y114.38
G3 X242.682 Y114.475 I0.176 J0.095
G1 X242.668 Y120.929
G3 X239.615 Y123.982 I-3.053 J0
G1 X229.338 Y124.027
G3 X229.019 Y123.708 I0 J-0.319
G1 X229.064 Y105.815
G3 X235.117 Y99.762 I6.053 J0
G1 X242.394 Y99.717
G3 X242.713 Y100.036 I0 J0.319
G1 X242.689 Y111.261
G2 X243.902 Y113.083 I1.969 J0.004
G3 X245.115 Y114.905 I-0.762 J1.822
G1 Y120.929
G3 X239.615 Y126.429 I-5.5 J0
G1 X226.617
Y105.815
G3 X235.117 Y97.315 I8.5 J0
G1 X245.115
Y114.905
G0 Z6
X258.293 Y66.512
Z2
G1 Z1.8 F700
Z-0.5 F333.3
X252.416 Y66.348 F700
G2 X250.874 Y67.835 I-0.042 J1.499
G1 X250.77 Y79.945
X250.72 Y79.936
X250.67 Y79.927
X251.095 Y30.539
X251.145 Y30.543
X251.195 Y30.547
X250.901 Y64.735
G2 X252.359 Y66.247 I1.5 J0.013
G1 X258.113 Y66.407
X258.27 Y66.412
Z1.3
X258.293 Y66.512
Z-1 F333.3
X252.416 Y66.348 F700
G2 X250.874 Y67.835 I-0.042 J1.499
G1 X250.77 Y79.945
X250.72 Y79.936
X250.67 Y79.927
X251.095 Y30.539
X251.145 Y30.543
X251.195 Y30.547
X250.901 Y64.735
G2 X252.359 Y66.247 I1.5 J0.013
G1 X258.113 Y66.407
X258.27 Y66.412
Z0.8
X258.293 Y66.512
Z-1.5 F333.3
X252.416 Y66.348 F700
G2 X250.874 Y67.835 I-0.042 J1.499
G1 X250.77 Y79.945
X250.72 Y79.936
X250.67 Y79.927
X251.095 Y30.539
X251.145 Y30.543
X251.195 Y30.547
X250.901 Y64.735
G2 X252.359 Y66.247 I1.5 J0.013
G1 X258.113 Y66.407
X258.27 Y66.412
Z0.3
X258.293 Y66.512
Z-2 F333.3
X252.416 Y66.348 F700
G2 X250.874 Y67.835 I-0.042 J1.499
G1 X250.77 Y79.945
X250.72 Y79.936
X250.67 Y79.927
X251.095 Y30.539
X251.145 Y30.543
X251.195 Y30.547
X250.901 Y64.735
G2 X252.359 Y66.247 I1.5 J0.013
G1 X258.113 Y66.407
X258.27 Y66.412
Z-0.2
X258.293 Y66.512
Z-2.5 F333.3
X252.416 Y66.348 F700
G2 X250.874 Y67.835 I-0.042 J1.499
G1 X250.77 Y79.945
X250.72 Y79.936
X250.67 Y79.927
X251.095 Y30.539
X251.145 Y30.543
X251.195 Y30.547
X250.901 Y64.735
G2 X252.359 Y66.247 I1.5 J0.013
G1 X258.113 Y66.407
X258.27 Y66.412
Z-0.7
X258.293 Y66.512
Z-3 F333.3
X252.416 Y66.348 F700
G2 X250.874 Y67.835 I-0.042 J1.499
G1 X250.77 Y79.945
X250.72 Y79.936
X250.67 Y79.927
X251.095 Y30.539
X251.145 Y30.543
X251.195 Y30.547
X250.901 Y64.735
G2 X252.359 Y66.247 I1.5 J0.013
G1 X258.113 Y66.407
X258.27 Y66.412
Z-1.2
X258.293 Y66.512
Z-3.5 F333.3
X252.416 Y66.348 F700
G2 X250.874 Y67.835 I-0.042 J1.499
G1 X250.77 Y79.945
X250.72 Y79.936
X250.67 Y79.927
X251.095 Y30.539
X251.145 Y30.543
X251.195 Y30.547
X250.901 Y64.735
G2 X252.359 Y66.247 I1.5 J0.013
G1 X258.113 Y66.407
X258.27 Y66.412
Z-1.7
X258.293 Y66.512
Z-4 F333.3
X252.416 Y66.348 F700
G2 X250.874 Y67.835 I-0.042 J1.499
G1 X250.77 Y79.945
X250.72 Y79.936
X250.67 Y79.927
X251.095 Y30.539
X251.145 Y30.543
X251.195 Y30.547
X250.901 Y64.735
G2 X252.359 Y66.247 I1.5 J0.013
G1 X258.113 Y66.407
X258.27 Y66.412
Z-2.2
X258.293 Y66.512
Z-4.5 F333.3
X252.416 Y66.348 F700
G2 X250.874 Y67.835 I-0.042 J1.499
G1 X250.77 Y79.945
X250.72 Y79.936
X250.67 Y79.927
X251.095 Y30.539
X251.145 Y30.543
X251.195 Y30.547
X250.901 Y64.735
G2 X252.359 Y66.247 I1.5 J0.013
G1 X258.113 Y66.407
X258.27 Y66.412
Z-2.7
X258.293 Y66.512
Z-5 F333.3
X252.416 Y66.348 F700
G2 X250.874 Y67.835 I-0.042 J1.499
G1 X250.77 Y79.945
X250.72 Y79.936
X250.67 Y79.927
X251.095 Y30.539
X251.145 Y30.543
X251.195 Y30.547
X250.901 Y64.735
G2 X252.359 Y66.247 I1.5 J0.013
G1 X258.113 Y66.407
X258.27 Y66.412
G0 Z6
X251.098 Y30.339
Z2
G1 Z1.5 F700
Z-0.5
X251.097 Y30.315
X251.147 Y24.534
X251.197 Y24.54
X251.247 Y24.545
X251.197 Y30.314
X251.189 Y30.34
X251.169 Y30.359
X251.143 Y30.364
X251.117 Y30.355
X251.099 Y30.334
X251.098 Y30.339
Z-1
X251.097 Y30.315
X251.147 Y24.534
X251.197 Y24.54
X251.247 Y24.545
X251.197 Y30.314
X251.189 Y30.34
X251.169 Y30.359
X251.143 Y30.364
X251.117 Y30.355
X251.099 Y30.334
X251.098 Y30.339
Z-1.5
X251.097 Y30.315
X251.147 Y24.534
X251.197 Y24.54
X251.247 Y24.545
X251.197 Y30.314
X251.189 Y30.34
X251.169 Y30.359
X251.143 Y30.364
X251.117 Y30.355
X251.099 Y30.334
X251.098 Y30.339
Z-2
X251.097 Y30.315
X251.147 Y24.534
X251.197 Y24.54
X251.247 Y24.545
X251.197 Y30.314
X251.189 Y30.34
X251.169 Y30.359
X251.143 Y30.364
X251.117 Y30.355
X251.099 Y30.334
X251.098 Y30.339
Z-2.5
X251.097 Y30.315
X251.147 Y24.534
X251.197 Y24.54
X251.247 Y24.545
X251.197 Y30.314
X251.189 Y30.34
X251.169 Y30.359
X251.143 Y30.364
X251.117 Y30.355
X251.099 Y30.334
X251.098 Y30.339
Z-3
X251.097 Y30.315
X251.147 Y24.534
X251.197 Y24.54
X251.247 Y24.545
X251.197 Y30.314
X251.189 Y30.34
X251.169 Y30.359
X251.143 Y30.364
X251.117 Y30.355
X251.099 Y30.334
X251.098 Y30.339
Z-3.5
X251.097 Y30.315
X251.147 Y24.534
X251.197 Y24.54
X251.247 Y24.545
X251.197 Y30.314
X251.189 Y30.34
X251.169 Y30.359
X251.143 Y30.364
X251.117 Y30.355
X251.099 Y30.334
X251.098 Y30.339
Z-4
X251.097 Y30.315
X251.147 Y24.534
X251.197 Y24.54
X251.247 Y24.545
X251.197 Y30.314
X251.189 Y30.34
X251.169 Y30.359
X251.143 Y30.364
X251.117 Y30.355
X251.099 Y30.334
X251.098 Y30.339
Z-4.5
X251.097 Y30.315
X251.147 Y24.534
X251.197 Y24.54
X251.247 Y24.545
X251.197 Y30.314
X251.189 Y30.34
X251.169 Y30.359
X251.143 Y30.364
X251.117 Y30.355
X251.099 Y30.334
X251.098 Y30.339
Z-5
X251.097 Y30.315
X251.147 Y24.534
X251.197 Y24.54
X251.247 Y24.545
X251.197 Y30.314
G0 Z6
X251.149 Y24.338
Z2
G1 Z1.5 F700
Z-0.5
X251.148 Y24.315
X251.275 Y9.604
Y9.6
X251.281 Y9.575
X251.3 Y9.556
X251.325 Y9.549
X251.35 Y9.556
X251.369 Y9.575
X251.375 Y9.6
X251.249 Y24.326
X251.243 Y24.349
X251.227 Y24.367
X251.205 Y24.376
X251.181 Y24.373
X251.161 Y24.359
X251.15 Y24.338
X251.149
Z-1
X251.148 Y24.315
X251.275 Y9.604
Y9.6
X251.281 Y9.575
X251.3 Y9.556
X251.325 Y9.549
X251.35 Y9.556
X251.369 Y9.575
X251.375 Y9.6
X251.249 Y24.326
X251.243 Y24.349
X251.227 Y24.367
X251.205 Y24.376
X251.181 Y24.373
X251.161 Y24.359
X251.15 Y24.338
X251.149
Z-1.5
X251.148 Y24.315
X251.275 Y9.604
Y9.6
X251.281 Y9.575
X251.3 Y9.556
X251.325 Y9.549
X251.35 Y9.556
X251.369 Y9.575
X251.375 Y9.6
X251.249 Y24.326
X251.243 Y24.349
X251.227 Y24.367
X251.205 Y24.376
X251.181 Y24.373
X251.161 Y24.359
X251.15 Y24.338
X251.149
Z-2
X251.148 Y24.315
X251.275 Y9.604
Y9.6
X251.281 Y9.575
X251.3 Y9.556
X251.325 Y9.549
X251.35 Y9.556
X251.369 Y9.575
X251.375 Y9.6
X251.249 Y24.326
X251.243 Y24.349
X251.227 Y24.367
X251.205 Y24.376
X251.181 Y24.373
X251.161 Y24.359
X251.15 Y24.338
X251.149
Z-2.5
X251.148 Y24.315
X251.275 Y9.604
Y9.6
X251.281 Y9.575
X251.3 Y9.556
X251.325 Y9.549
X251.35 Y9.556
X251.369 Y9.575
X251.375 Y9.6
X251.249 Y24.326
X251.243 Y24.349
X251.227 Y24.367
X251.205 Y24.376
X251.181 Y24.373
X251.161 Y24.359
X251.15 Y24.338
X251.149
Z-3
X251.148 Y24.315
X251.275 Y9.604
Y9.6
X251.281 Y9.575
X251.3 Y9.556
X251.325 Y9.549
X251.35 Y9.556
X251.369 Y9.575
X251.375 Y9.6
X251.249 Y24.326
X251.243 Y24.349
X251.227 Y24.367
X251.205 Y24.376
X251.181 Y24.373
X251.161 Y24.359
X251.15 Y24.338
X251.149
Z-3.5
X251.148 Y24.315
X251.275 Y9.604
Y9.6
X251.281 Y9.575
X251.3 Y9.556
X251.325 Y9.549
X251.35 Y9.556
X251.369 Y9.575
X251.375 Y9.6
X251.249 Y24.326
X251.243 Y24.349
X251.227 Y24.367
X251.205 Y24.376
X251.181 Y24.373
X251.161 Y24.359
X251.15 Y24.338
X251.149
Z-4
X251.148 Y24.315
X251.275 Y9.604
Y9.6
X251.281 Y9.575
X251.3 Y9.556
X251.325 Y9.549
X251.35 Y9.556
X251.369 Y9.575
X251.375 Y9.6
X251.249 Y24.326
X251.243 Y24.349
X251.227 Y24.367
X251.205 Y24.376
X251.181 Y24.373
X251.161 Y24.359
X251.15 Y24.338
X251.149
Z-4.5
X251.148 Y24.315
X251.275 Y9.604
Y9.6
X251.281 Y9.575
X251.3 Y9.556
X251.325 Y9.549
X251.35 Y9.556
X251.369 Y9.575
X251.375 Y9.6
X251.249 Y24.326
X251.243 Y24.349
X251.227 Y24.367
X251.205 Y24.376
X251.181 Y24.373
X251.161 Y24.359
X251.15 Y24.338
X251.149
Z-5
X251.148 Y24.315
X251.275 Y9.604
Y9.6
X251.281 Y9.575
X251.3 Y9.556
X251.325 Y9.549
X251.35 Y9.556
X251.369 Y9.575
X251.375 Y9.6
X251.249 Y24.326
G0 Z6
X250.612 Y86.769
Z2
G1 Z1.5 F700
Z-0.5
X250.611 Y86.745
X250.668 Y80.153
X250.718 Y80.159
X250.768 Y80.165
X250.711 Y86.743
X250.703 Y86.769
X250.683 Y86.788
X250.657 Y86.794
X250.631 Y86.785
X250.613 Y86.764
X250.612 Y86.769
Z-1
X250.611 Y86.745
X250.668 Y80.153
X250.718 Y80.159
X250.768 Y80.165
X250.711 Y86.743
X250.703 Y86.769
X250.683 Y86.788
X250.657 Y86.794
X250.631 Y86.785
X250.613 Y86.764
X250.612 Y86.769
Z-1.5
X250.611 Y86.745
X250.668 Y80.153
X250.718 Y80.159
X250.768 Y80.165
X250.711 Y86.743
X250.703 Y86.769
X250.683 Y86.788
X250.657 Y86.794
X250.631 Y86.785
X250.613 Y86.764
X250.612 Y86.769
Z-2
X250.611 Y86.745
X250.668 Y80.153
X250.718 Y80.159
X250.768 Y80.165
X250.711 Y86.743
X250.703 Y86.769
X250.683 Y86.788
X250.657 Y86.794
X250.631 Y86.785
X250.613 Y86.764
X250.612 Y86.769
Z-2.5
X250.611 Y86.745
X250.668 Y80.153
X250.718 Y80.159
X250.768 Y80.165
X250.711 Y86.743
X250.703 Y86.769
X250.683 Y86.788
X250.657 Y86.794
X250.631 Y86.785
X250.613 Y86.764
X250.612 Y86.769
Z-3
X250.611 Y86.745
X250.668 Y80.153
X250.718 Y80.159
X250.768 Y80.165
X250.711 Y86.743
X250.703 Y86.769
X250.683 Y86.788
X250.657 Y86.794
X250.631 Y86.785
X250.613 Y86.764
X250.612 Y86.769
Z-3.5
X250.611 Y86.745
X250.668 Y80.153
X250.718 Y80.159
X250.768 Y80.165
X250.711 Y86.743
X250.703 Y86.769
X250.683 Y86.788
X250.657 Y86.794
X250.631 Y86.785
X250.613 Y86.764
X250.612 Y86.769
Z-4
X250.611 Y86.745
X250.668 Y80.153
X250.718 Y80.159
X250.768 Y80.165
X250.711 Y86.743
X250.703 Y86.769
X250.683 Y86.788
X250.657 Y86.794
X250.631 Y86.785
X250.613 Y86.764
X250.612 Y86.769
Z-4.5
X250.611 Y86.745
X250.668 Y80.153
X250.718 Y80.159
X250.768 Y80.165
X250.711 Y86.743
X250.703 Y86.769
X250.683 Y86.788
X250.657 Y86.794
X250.631 Y86.785
X250.613 Y86.764
X250.612 Y86.769
Z-5
X250.611 Y86.745
X250.668 Y80.153
X250.718 Y80.159
X250.768 Y80.165
X250.711 Y86.743
G0 Z6
X250.554 Y93.57
Z2
G1 Z1.5 F700
Z-0.5
X250.553 Y93.547
X250.61 Y86.956
X250.659 Y86.962
X250.709 Y86.967
X250.653 Y93.545
X250.645 Y93.571
X250.625 Y93.59
X250.598 Y93.596
X250.573 Y93.587
X250.555 Y93.565
X250.554 Y93.57
Z-1
X250.553 Y93.547
X250.61 Y86.956
X250.659 Y86.962
X250.709 Y86.967
X250.653 Y93.545
X250.645 Y93.571
X250.625 Y93.59
X250.598 Y93.596
X250.573 Y93.587
X250.555 Y93.565
X250.554 Y93.57
Z-1.5
X250.553 Y93.547
X250.61 Y86.956
X250.659 Y86.962
X250.709 Y86.967
X250.653 Y93.545
X250.645 Y93.571
X250.625 Y93.59
X250.598 Y93.596
X250.573 Y93.587
X250.555 Y93.565
X250.554 Y93.57
Z-2
X250.553 Y93.547
X250.61 Y86.956
X250.659 Y86.962
X250.709 Y86.967
X250.653 Y93.545
X250.645 Y93.571
X250.625 Y93.59
X250.598 Y93.596
X250.573 Y93.587
X250.555 Y93.565
X250.554 Y93.57
Z-2.5
X250.553 Y93.547
X250.61 Y86.956
X250.659 Y86.962
X250.709 Y86.967
X250.653 Y93.545
X250.645 Y93.571
X250.625 Y93.59
X250.598 Y93.596
X250.573 Y93.587
X250.555 Y93.565
X250.554 Y93.57
Z-3
X250.553 Y93.547
X250.61 Y86.956
X250.659 Y86.962
X250.709 Y86.967
X250.653 Y93.545
X250.645 Y93.571
X250.625 Y93.59
X250.598 Y93.596
X250.573 Y93.587
X250.555 Y93.565
X250.554 Y93.57
Z-3.5
X250.553 Y93.547
X250.61 Y86.956
X250.659 Y86.962
X250.709 Y86.967
X250.653 Y93.545
X250.645 Y93.571
X250.625 Y93.59
X250.598 Y93.596
X250.573 Y93.587
X250.555 Y93.565
X250.554 Y93.57
Z-4
X250.553 Y93.547
X250.61 Y86.956
X250.659 Y86.962
X250.709 Y86.967
X250.653 Y93.545
X250.645 Y93.571
X250.625 Y93.59
X250.598 Y93.596
X250.573 Y93.587
X250.555 Y93.565
X250.554 Y93.57
Z-4.5
X250.553 Y93.547
X250.61 Y86.956
X250.659 Y86.962
X250.709 Y86.967
X250.653 Y93.545
X250.645 Y93.571
X250.625 Y93.59
X250.598 Y93.596
X250.573 Y93.587
X250.555 Y93.565
X250.554 Y93.57
Z-5
X250.553 Y93.547
X250.61 Y86.956
X250.659 Y86.962
X250.709 Y86.967
X250.653 Y93.545
G0 Z6
X264.341 Y18.49
Z2
G1 Z1.5 F700
Z-0.5
X264.317
X262.929 Y18.491
X258.377 Y18.492
X258.351 Y18.486
X258.333 Y18.468
X258.326 Y18.442
X258.333 Y18.417
X258.351 Y18.399
X258.376 Y18.392
X262.928 Y18.391
X264.326
X264.335 Y18.441
X264.341 Y18.49
Z-1
X264.317
X262.929 Y18.491
X258.377 Y18.492
X258.351 Y18.486
X258.333 Y18.468
X258.326 Y18.442
X258.333 Y18.417
X258.351 Y18.399
X258.376 Y18.392
X262.928 Y18.391
X264.326
X264.335 Y18.441
X264.341 Y18.49
Z-1.5
X264.317
X262.929 Y18.491
X258.377 Y18.492
X258.351 Y18.486
X258.333 Y18.468
X258.326 Y18.442
X258.333 Y18.417
X258.351 Y18.399
X258.376 Y18.392
X262.928 Y18.391
X264.326
X264.335 Y18.441
X264.341 Y18.49
Z-2
X264.317
X262.929 Y18.491
X258.377 Y18.492
X258.351 Y18.486
X258.333 Y18.468
X258.326 Y18.442
X258.333 Y18.417
X258.351 Y18.399
X258.376 Y18.392
X262.928 Y18.391
X264.326
X264.335 Y18.441
X264.341 Y18.49
Z-2.5
X264.317
X262.929 Y18.491
X258.377 Y18.492
X258.351 Y18.486
X258.333 Y18.468
X258.326 Y18.442
X258.333 Y18.417
X258.351 Y18.399
X258.376 Y18.392
X262.928 Y18.391
X264.326
X264.335 Y18.441
X264.341 Y18.49
Z-3
X264.317
X262.929 Y18.491
X258.377 Y18.492
X258.351 Y18.486
X258.333 Y18.468
X258.326 Y18.442
X258.333 Y18.417
X258.351 Y18.399
X258.376 Y18.392
X262.928 Y18.391
X264.326
X264.335 Y18.441
X264.341 Y18.49
Z-3.5
X264.317
X262.929 Y18.491
X258.377 Y18.492
X258.351 Y18.486
X258.333 Y18.468
X258.326 Y18.442
X258.333 Y18.417
X258.351 Y18.399
X258.376 Y18.392
X262.928 Y18.391
X264.326
X264.335 Y18.441
X264.341 Y18.49
Z-4
X264.317
X262.929 Y18.491
X258.377 Y18.492
X258.351 Y18.486
X258.333 Y18.468
X258.326 Y18.442
X258.333 Y18.417
X258.351 Y18.399
X258.376 Y18.392
X262.928 Y18.391
X264.326
X264.335 Y18.441
X264.341 Y18.49
Z-4.5
X264.317
X262.929 Y18.491
X258.377 Y18.492
X258.351 Y18.486
X258.333 Y18.468
X258.326 Y18.442
X258.333 Y18.417
X258.351 Y18.399
X258.376 Y18.392
X262.928 Y18.391
X264.326
X264.335 Y18.441
X264.341 Y18.49
Z-5
X264.317
X262.929 Y18.491
X258.377 Y18.492
X258.351 Y18.486
X258.333 Y18.468
X258.326 Y18.442
X258.333 Y18.417
X258.351 Y18.399
X258.376 Y18.392
X262.928 Y18.391
X264.326
X264.335 Y18.441
X264.341 Y18.49
Z-5.5
X264.317
X262.929 Y18.491
X258.377 Y18.492
X258.351 Y18.486
X258.333 Y18.468
X258.326 Y18.442
X258.333 Y18.417
X258.351 Y18.399
X258.376 Y18.392
X262.928 Y18.391
X264.326
X264.335 Y18.441
X264.341 Y18.49
Z-6
X264.317
X262.929 Y18.491
X258.377 Y18.492
X258.351 Y18.486
X258.333 Y18.468
X258.326 Y18.442
X258.333 Y18.417
X258.351 Y18.399
X258.376 Y18.392
X262.928 Y18.391
X264.326
X264.335 Y18.441
X264.341 Y18.49
Z-6.5
X264.317
X262.929 Y18.491
X258.377 Y18.492
X258.351 Y18.486
X258.333 Y18.468
X258.326 Y18.442
X258.333 Y18.417
X258.351 Y18.399
X258.376 Y18.392
X262.928 Y18.391
X264.326
G0 Z6
X264.341 Y24.49
Z2
G1 Z1.5 F700
Z-0.5
X264.317
X262.929 Y24.491
X258.377 Y24.492
X258.351 Y24.486
X258.333 Y24.468
X258.326 Y24.442
X258.333 Y24.417
X258.351 Y24.399
X258.376 Y24.392
X262.928 Y24.391
X264.326
X264.335 Y24.441
X264.341 Y24.49
Z-1
X264.317
X262.929 Y24.491
X258.377 Y24.492
X258.351 Y24.486
X258.333 Y24.468
X258.326 Y24.442
X258.333 Y24.417
X258.351 Y24.399
X258.376 Y24.392
X262.928 Y24.391
X264.326
X264.335 Y24.441
X264.341 Y24.49
Z-1.5
X264.317
X262.929 Y24.491
X258.377 Y24.492
X258.351 Y24.486
X258.333 Y24.468
X258.326 Y24.442
X258.333 Y24.417
X258.351 Y24.399
X258.376 Y24.392
X262.928 Y24.391
X264.326
X264.335 Y24.441
X264.341 Y24.49
Z-2
X264.317
X262.929 Y24.491
X258.377 Y24.492
X258.351 Y24.486
X258.333 Y24.468
X258.326 Y24.442
X258.333 Y24.417
X258.351 Y24.399
X258.376 Y24.392
X262.928 Y24.391
X264.326
X264.335 Y24.441
X264.341 Y24.49
Z-2.5
X264.317
X262.929 Y24.491
X258.377 Y24.492
X258.351 Y24.486
X258.333 Y24.468
X258.326 Y24.442
X258.333 Y24.417
X258.351 Y24.399
X258.376 Y24.392
X262.928 Y24.391
X264.326
X264.335 Y24.441
X264.341 Y24.49
Z-3
X264.317
X262.929 Y24.491
X258.377 Y24.492
X258.351 Y24.486
X258.333 Y24.468
X258.326 Y24.442
X258.333 Y24.417
X258.351 Y24.399
X258.376 Y24.392
X262.928 Y24.391
X264.326
X264.335 Y24.441
X264.341 Y24.49
Z-3.5
X264.317
X262.929 Y24.491
X258.377 Y24.492
X258.351 Y24.486
X258.333 Y24.468
X258.326 Y24.442
X258.333 Y24.417
X258.351 Y24.399
X258.376 Y24.392
X262.928 Y24.391
X264.326
X264.335 Y24.441
X264.341 Y24.49
Z-4
X264.317
X262.929 Y24.491
X258.377 Y24.492
X258.351 Y24.486
X258.333 Y24.468
X258.326 Y24.442
X258.333 Y24.417
X258.351 Y24.399
X258.376 Y24.392
X262.928 Y24.391
X264.326
X264.335 Y24.441
X264.341 Y24.49
Z-4.5
X264.317
X262.929 Y24.491
X258.377 Y24.492
X258.351 Y24.486
X258.333 Y24.468
X258.326 Y24.442
X258.333 Y24.417
X258.351 Y24.399
X258.376 Y24.392
X262.928 Y24.391
X264.326
X264.335 Y24.441
X264.341 Y24.49
Z-5
X264.317
X262.929 Y24.491
X258.377 Y24.492
X258.351 Y24.486
X258.333 Y24.468
X258.326 Y24.442
X258.333 Y24.417
X258.351 Y24.399
X258.376 Y24.392
X262.928 Y24.391
X264.326
X264.335 Y24.441
X264.341 Y24.49
Z-5.5
X264.317
X262.929 Y24.491
X258.377 Y24.492
X258.351 Y24.486
X258.333 Y24.468
X258.326 Y24.442
X258.333 Y24.417
X258.351 Y24.399
X258.376 Y24.392
X262.928 Y24.391
X264.326
X264.335 Y24.441
X264.341 Y24.49
Z-6
X264.317
X262.929 Y24.491
X258.377 Y24.492
X258.351 Y24.486
X258.333 Y24.468
X258.326 Y24.442
X258.333 Y24.417
X258.351 Y24.399
X258.376 Y24.392
X262.928 Y24.391
X264.326
X264.335 Y24.441
X264.341 Y24.49
Z-6.5
X264.317
X262.929 Y24.491
X258.377 Y24.492
X258.351 Y24.486
X258.333 Y24.468
X258.326 Y24.442
X258.333 Y24.417
X258.351 Y24.399
X258.376 Y24.392
X262.928 Y24.391
X264.326
G0 Z6
X264.341 Y30.49
Z2
G1 Z1.5 F700
Z-0.5
X264.317
X262.929 Y30.491
X258.377 Y30.492
X258.351 Y30.486
X258.333 Y30.468
X258.326 Y30.442
X258.333 Y30.417
X258.351 Y30.399
X258.376 Y30.392
X262.928 Y30.391
X264.326
X264.335 Y30.441
X264.341 Y30.49
Z-1
X264.317
X262.929 Y30.491
X258.377 Y30.492
X258.351 Y30.486
X258.333 Y30.468
X258.326 Y30.442
X258.333 Y30.417
X258.351 Y30.399
X258.376 Y30.392
X262.928 Y30.391
X264.326
X264.335 Y30.441
X264.341 Y30.49
Z-1.5
X264.317
X262.929 Y30.491
X258.377 Y30.492
X258.351 Y30.486
X258.333 Y30.468
X258.326 Y30.442
X258.333 Y30.417
X258.351 Y30.399
X258.376 Y30.392
X262.928 Y30.391
X264.326
X264.335 Y30.441
X264.341 Y30.49
Z-2
X264.317
X262.929 Y30.491
X258.377 Y30.492
X258.351 Y30.486
X258.333 Y30.468
X258.326 Y30.442
X258.333 Y30.417
X258.351 Y30.399
X258.376 Y30.392
X262.928 Y30.391
X264.326
X264.335 Y30.441
X264.341 Y30.49
Z-2.5
X264.317
X262.929 Y30.491
X258.377 Y30.492
X258.351 Y30.486
X258.333 Y30.468
X258.326 Y30.442
X258.333 Y30.417
X258.351 Y30.399
X258.376 Y30.392
X262.928 Y30.391
X264.326
X264.335 Y30.441
X264.341 Y30.49
Z-3
X264.317
X262.929 Y30.491
X258.377 Y30.492
X258.351 Y30.486
X258.333 Y30.468
X258.326 Y30.442
X258.333 Y30.417
X258.351 Y30.399
X258.376 Y30.392
X262.928 Y30.391
X264.326
X264.335 Y30.441
X264.341 Y30.49
Z-3.5
X264.317
X262.929 Y30.491
X258.377 Y30.492
X258.351 Y30.486
X258.333 Y30.468
X258.326 Y30.442
X258.333 Y30.417
X258.351 Y30.399
X258.376 Y30.392
X262.928 Y30.391
X264.326
X264.335 Y30.441
X264.341 Y30.49
Z-4
X264.317
X262.929 Y30.491
X258.377 Y30.492
X258.351 Y30.486
X258.333 Y30.468
X258.326 Y30.442
X258.333 Y30.417
X258.351 Y30.399
X258.376 Y30.392
X262.928 Y30.391
X264.326
X264.335 Y30.441
X264.341 Y30.49
Z-4.5
X264.317
X262.929 Y30.491
X258.377 Y30.492
X258.351 Y30.486
X258.333 Y30.468
X258.326 Y30.442
X258.333 Y30.417
X258.351 Y30.399
X258.376 Y30.392
X262.928 Y30.391
X264.326
X264.335 Y30.441
X264.341 Y30.49
Z-5
X264.317
X262.929 Y30.491
X258.377 Y30.492
X258.351 Y30.486
X258.333 Y30.468
X258.326 Y30.442
X258.333 Y30.417
X258.351 Y30.399
X258.376 Y30.392
X262.928 Y30.391
X264.326
X264.335 Y30.441
X264.341 Y30.49
Z-5.5
X264.317
X262.929 Y30.491
X258.377 Y30.492
X258.351 Y30.486
X258.333 Y30.468
X258.326 Y30.442
X258.333 Y30.417
X258.351 Y30.399
X258.376 Y30.392
X262.928 Y30.391
X264.326
X264.335 Y30.441
X264.341 Y30.49
Z-6
X264.317
X262.929 Y30.491
X258.377 Y30.492
X258.351 Y30.486
X258.333 Y30.468
X258.326 Y30.442
X258.333 Y30.417
X258.351 Y30.399
X258.376 Y30.392
X262.928 Y30.391
X264.326
X264.335 Y30.441
X264.341 Y30.49
Z-6.5
X264.317
X262.929 Y30.491
X258.377 Y30.492
X258.351 Y30.486
X258.333 Y30.468
X258.326 Y30.442
X258.333 Y30.417
X258.351 Y30.399
X258.376 Y30.392
X262.928 Y30.391
X264.326
G0 Z6
X264.341 Y36.49
Z2
G1 Z1.5 F700
Z-0.5
X264.317
X262.929 Y36.491
X258.377 Y36.492
X258.351 Y36.486
X258.333 Y36.468
X258.326 Y36.442
X258.333 Y36.417
X258.351 Y36.399
X258.376 Y36.392
X262.928 Y36.391
X264.326
X264.335 Y36.441
X264.341 Y36.49
Z-1
X264.317
X262.929 Y36.491
X258.377 Y36.492
X258.351 Y36.486
X258.333 Y36.468
X258.326 Y36.442
X258.333 Y36.417
X258.351 Y36.399
X258.376 Y36.392
X262.928 Y36.391
X264.326
X264.335 Y36.441
X264.341 Y36.49
Z-1.5
X264.317
X262.929 Y36.491
X258.377 Y36.492
X258.351 Y36.486
X258.333 Y36.468
X258.326 Y36.442
X258.333 Y36.417
X258.351 Y36.399
X258.376 Y36.392
X262.928 Y36.391
X264.326
X264.335 Y36.441
X264.341 Y36.49
Z-2
X264.317
X262.929 Y36.491
X258.377 Y36.492
X258.351 Y36.486
X258.333 Y36.468
X258.326 Y36.442
X258.333 Y36.417
X258.351 Y36.399
X258.376 Y36.392
X262.928 Y36.391
X264.326
X264.335 Y36.441
X264.341 Y36.49
Z-2.5
X264.317
X262.929 Y36.491
X258.377 Y36.492
X258.351 Y36.486
X258.333 Y36.468
X258.326 Y36.442
X258.333 Y36.417
X258.351 Y36.399
X258.376 Y36.392
X262.928 Y36.391
X264.326
X264.335 Y36.441
X264.341 Y36.49
Z-3
X264.317
X262.929 Y36.491
X258.377 Y36.492
X258.351 Y36.486
X258.333 Y36.468
X258.326 Y36.442
X258.333 Y36.417
X258.351 Y36.399
X258.376 Y36.392
X262.928 Y36.391
X264.326
X264.335 Y36.441
X264.341 Y36.49
Z-3.5
X264.317
X262.929 Y36.491
X258.377 Y36.492
X258.351 Y36.486
X258.333 Y36.468
X258.326 Y36.442
X258.333 Y36.417
X258.351 Y36.399
X258.376 Y36.392
X262.928 Y36.391
X264.326
X264.335 Y36.441
X264.341 Y36.49
Z-4
X264.317
X262.929 Y36.491
X258.377 Y36.492
X258.351 Y36.486
X258.333 Y36.468
X258.326 Y36.442
X258.333 Y36.417
X258.351 Y36.399
X258.376 Y36.392
X262.928 Y36.391
X264.326
X264.335 Y36.441
X264.341 Y36.49
Z-4.5
X264.317
X262.929 Y36.491
X258.377 Y36.492
X258.351 Y36.486
X258.333 Y36.468
X258.326 Y36.442
X258.333 Y36.417
X258.351 Y36.399
X258.376 Y36.392
X262.928 Y36.391
X264.326
X264.335 Y36.441
X264.341 Y36.49
Z-5
X264.317
X262.929 Y36.491
X258.377 Y36.492
X258.351 Y36.486
X258.333 Y36.468
X258.326 Y36.442
X258.333 Y36.417
X258.351 Y36.399
X258.376 Y36.392
X262.928 Y36.391
X264.326
X264.335 Y36.441
X264.341 Y36.49
Z-5.5
X264.317
X262.929 Y36.491
X258.377 Y36.492
X258.351 Y36.486
X258.333 Y36.468
X258.326 Y36.442
X258.333 Y36.417
X258.351 Y36.399
X258.376 Y36.392
X262.928 Y36.391
X264.326
X264.335 Y36.441
X264.341 Y36.49
Z-6
X264.317
X262.929 Y36.491
X258.377 Y36.492
X258.351 Y36.486
X258.333 Y36.468
X258.326 Y36.442
X258.333 Y36.417
X258.351 Y36.399
X258.376 Y36.392
X262.928 Y36.391
X264.326
X264.335 Y36.441
X264.341 Y36.49
Z-6.5
X264.317
X262.929 Y36.491
X258.377 Y36.492
X258.351 Y36.486
X258.333 Y36.468
X258.326 Y36.442
X258.333 Y36.417
X258.351 Y36.399
X258.376 Y36.392
X262.928 Y36.391
X264.326
G0 Z6
X264.341 Y42.49
Z2
G1 Z1.5 F700
Z-0.5
X264.317
X262.929 Y42.491
X258.377 Y42.492
X258.351 Y42.486
X258.333 Y42.468
X258.326 Y42.442
X258.333 Y42.417
X258.351 Y42.399
X258.376 Y42.392
X262.928 Y42.391
X264.326
X264.335 Y42.441
X264.341 Y42.49
Z-1
X264.317
X262.929 Y42.491
X258.377 Y42.492
X258.351 Y42.486
X258.333 Y42.468
X258.326 Y42.442
X258.333 Y42.417
X258.351 Y42.399
X258.376 Y42.392
X262.928 Y42.391
X264.326
X264.335 Y42.441
X264.341 Y42.49
Z-1.5
X264.317
X262.929 Y42.491
X258.377 Y42.492
X258.351 Y42.486
X258.333 Y42.468
X258.326 Y42.442
X258.333 Y42.417
X258.351 Y42.399
X258.376 Y42.392
X262.928 Y42.391
X264.326
X264.335 Y42.441
X264.341 Y42.49
Z-2
X264.317
X262.929 Y42.491
X258.377 Y42.492
X258.351 Y42.486
X258.333 Y42.468
X258.326 Y42.442
X258.333 Y42.417
