(1001)
(T4  D=3 CR=0 - ZMIN=-17 - flat end mill)
G90 G94
G17
G21

(Pocket5)
T4
S15000 M3
G54
M8
G0 X-207.545 Y83.556
Z6
Z2
G1 Z-0.9 F333.3
X-207.555 Y83.565 Z-0.95
X-207.588 Y83.582 Z-0.987
X-207.612 Y83.586 Z-0.993
X-207.637 Y83.584 Z-1
X-207.731 Y83.564 F700
X-207.808 Y83.552
X-207.886 Y83.548
X-231.17 Y83.547
X-231.242 Y83.55
X-231.314 Y83.561
X-231.476 Y83.593
X-231.56 Y83.614
X-231.641 Y83.645
X-231.803 Y83.718
X-231.868 Y83.751
X-231.929 Y83.79
X-232.238 Y84.008
X-232.251 Y84.011
X-232.257 Y84.01
X-232.584 Y83.78
X-232.65 Y83.739
X-232.721 Y83.704
X-232.748 Y83.692
Y83.444
X-208.808 Y83.442
X-208.737 Y83.439
X-208.667 Y83.429
X-208.504 Y83.397
X-208.426 Y83.378
X-208.351 Y83.351
X-208.21 Y83.29
X-208.137 Y83.255
X-208.069 Y83.212
X-207.933 Y83.115
X-207.872 Y83.067
X-207.817 Y83.013
X-207.722 Y82.91
X-207.678 Y82.859
X-207.64 Y82.804
X-207.57 Y82.695
X-207.533 Y82.63
X-207.502 Y82.56
X-207.44 Y82.398
X-207.414 Y82.317
X-207.398 Y82.234
X-207.375 Y82.071
X-207.368 Y81.967
X-207.367 Y44.029
X-0.391 Y44.026
X-0.316 Y44.023
X-0.241 Y44.011
X-0.079 Y43.978
X0 Y43.958
X0.076 Y43.929
X0.221 Y43.865
X0.286 Y43.832
X0.348 Y43.793
X0.456 Y43.717
X0.516 Y43.67
X0.571 Y43.618
X0.687 Y43.495
X0.742 Y43.429
X0.79 Y43.358
X0.877 Y43.208
X0.916 Y43.131
X0.946 Y43.051
X0.996 Y42.888
X1.016 Y42.808
X1.027 Y42.726
X1.04 Y42.564
X1.042 Y42.505
Y39.558
X15.493
X15.908 Y39.579
X15.946 Y39.58
X20.406
Y39.685
X20.311 Y39.682
X20.288 Y39.681
X15.965 Y39.68
X15.55 Y39.659
X15.512 Y39.658
X2.594 Y39.659
X2.529 Y39.662
X2.464 Y39.671
X2.301 Y39.699
X2.218 Y39.719
X2.137 Y39.748
X1.975 Y39.817
X1.905 Y39.851
X1.839 Y39.892
X1.731 Y39.968
X1.674 Y40.012
X1.621 Y40.062
X1.512 Y40.174
X1.461 Y40.232
X1.417 Y40.295
X1.336 Y40.425
X1.296 Y40.496
X1.264 Y40.571
X1.206 Y40.734
X1.185 Y40.801
X1.171 Y40.87
X1.154 Y40.979
X1.147 Y41.037
X1.145 Y41.095
X1.142 Y44.129
X-205.823 Y44.132
X-205.891 Y44.135
X-205.957 Y44.144
X-206.113 Y44.172
X-206.188 Y44.19
X-206.261 Y44.215
X-206.401 Y44.272
X-206.474 Y44.306
X-206.542 Y44.348
X-206.682 Y44.444
X-206.747 Y44.494
X-206.806 Y44.551
X-206.914 Y44.665
X-206.965 Y44.726
X-207.009 Y44.792
X-207.091 Y44.928
X-207.126 Y44.995
X-207.155 Y45.065
X-207.203 Y45.201
X-207.224 Y45.271
X-207.238 Y45.342
X-207.259 Y45.487
X-207.267 Y45.595
Y82.888
X-207.264 Y82.947
X-207.258 Y83.004
X-207.232 Y83.167
X-207.214 Y83.25
X-207.187 Y83.331
X-207.121 Y83.493
X-207.089 Y83.564
X-207.049 Y83.631
X-206.811 Y83.985
X-206.81 Y83.999
X-206.817 Y84.004
X-207.163 Y83.773
X-207.218 Y83.739
X-207.275 Y83.711
X-207.416 Y83.648
X-207.491 Y83.619
X-207.569 Y83.598
X-207.637 Y83.584
X-207.661 Y83.576 Z-0.993
X-207.681 Y83.562 Z-0.987
X-207.704 Y83.534 Z-0.95
X-207.71 Y83.521 Z-0.9
G0 Z4
X-207.545 Y83.556
Z1
G1 Z-1.9 F333.3
X-207.555 Y83.565 Z-1.95
X-207.588 Y83.582 Z-1.987
X-207.612 Y83.586 Z-1.993
X-207.637 Y83.584 Z-2
X-207.731 Y83.564 F700
X-207.808 Y83.552
X-207.886 Y83.548
X-231.17 Y83.547
X-231.242 Y83.55
X-231.314 Y83.561
X-231.476 Y83.593
X-231.56 Y83.614
X-231.641 Y83.645
X-231.803 Y83.718
X-231.868 Y83.751
X-231.929 Y83.79
X-232.238 Y84.008
X-232.251 Y84.011
X-232.257 Y84.01
X-232.584 Y83.78
X-232.65 Y83.739
X-232.721 Y83.704
X-232.748 Y83.692
Y83.444
X-208.808 Y83.442
X-208.737 Y83.439
X-208.667 Y83.429
X-208.504 Y83.397
X-208.426 Y83.378
X-208.351 Y83.351
X-208.21 Y83.29
X-208.137 Y83.255
X-208.069 Y83.212
X-207.933 Y83.115
X-207.872 Y83.067
X-207.817 Y83.013
X-207.722 Y82.91
X-207.678 Y82.859
X-207.64 Y82.804
X-207.57 Y82.695
X-207.533 Y82.63
X-207.502 Y82.56
X-207.44 Y82.398
X-207.414 Y82.317
X-207.398 Y82.234
X-207.375 Y82.071
X-207.368 Y81.967
X-207.367 Y44.029
X-0.391 Y44.026
X-0.316 Y44.023
X-0.241 Y44.011
X-0.079 Y43.978
X0 Y43.958
X0.076 Y43.929
X0.221 Y43.865
X0.286 Y43.832
X0.348 Y43.793
X0.456 Y43.717
X0.516 Y43.67
X0.571 Y43.618
X0.687 Y43.495
X0.742 Y43.429
X0.79 Y43.358
X0.877 Y43.208
X0.916 Y43.131
X0.946 Y43.051
X0.996 Y42.888
X1.016 Y42.808
X1.027 Y42.726
X1.04 Y42.564
X1.042 Y42.505
Y39.558
X15.493
X15.908 Y39.579
X15.946 Y39.58
X20.406
Y39.685
X20.311 Y39.682
X20.288 Y39.681
X15.965 Y39.68
X15.55 Y39.659
X15.512 Y39.658
X2.594 Y39.659
X2.529 Y39.662
X2.464 Y39.671
X2.301 Y39.699
X2.218 Y39.719
X2.137 Y39.748
X1.975 Y39.817
X1.905 Y39.851
X1.839 Y39.892
X1.731 Y39.968
X1.674 Y40.012
X1.621 Y40.062
X1.512 Y40.174
X1.461 Y40.232
X1.417 Y40.295
X1.336 Y40.425
X1.296 Y40.496
X1.264 Y40.571
X1.206 Y40.734
X1.185 Y40.801
X1.171 Y40.87
X1.154 Y40.979
X1.147 Y41.037
X1.145 Y41.095
X1.142 Y44.129
X-205.823 Y44.132
X-205.891 Y44.135
X-205.957 Y44.144
X-206.113 Y44.172
X-206.188 Y44.19
X-206.261 Y44.215
X-206.401 Y44.272
X-206.474 Y44.306
X-206.542 Y44.348
X-206.682 Y44.444
X-206.747 Y44.494
X-206.806 Y44.551
X-206.914 Y44.665
X-206.965 Y44.726
X-207.009 Y44.792
X-207.091 Y44.928
X-207.126 Y44.995
X-207.155 Y45.065
X-207.203 Y45.201
X-207.224 Y45.271
X-207.238 Y45.342
X-207.259 Y45.487
X-207.267 Y45.595
Y82.888
X-207.264 Y82.947
X-207.258 Y83.004
X-207.232 Y83.167
X-207.214 Y83.25
X-207.187 Y83.331
X-207.121 Y83.493
X-207.089 Y83.564
X-207.049 Y83.631
X-206.811 Y83.985
X-206.81 Y83.999
X-206.817 Y84.004
X-207.163 Y83.773
X-207.218 Y83.739
X-207.275 Y83.711
X-207.416 Y83.648
X-207.491 Y83.619
X-207.569 Y83.598
X-207.637 Y83.584
X-207.661 Y83.576 Z-1.993
X-207.681 Y83.562 Z-1.987
X-207.704 Y83.534 Z-1.95
X-207.71 Y83.521 Z-1.9
G0 Z4
X-207.545 Y83.556
Z0
G1 Z-2.9 F333.3
X-207.555 Y83.565 Z-2.95
X-207.588 Y83.582 Z-2.987
X-207.612 Y83.586 Z-2.993
X-207.637 Y83.584 Z-3
X-207.731 Y83.564 F700
X-207.808 Y83.552
X-207.886 Y83.548
X-231.17 Y83.547
X-231.242 Y83.55
X-231.314 Y83.561
X-231.476 Y83.593
X-231.56 Y83.614
X-231.641 Y83.645
X-231.803 Y83.718
X-231.868 Y83.751
X-231.929 Y83.79
X-232.234 Y84.006
X-232.253 Y84.01
X-232.258 Y84.009
X-232.584 Y83.78
X-232.65 Y83.739
X-232.721 Y83.704
X-232.748 Y83.692
Y83.444
X-208.808 Y83.442
X-208.737 Y83.439
X-208.667 Y83.429
X-208.504 Y83.397
X-208.426 Y83.378
X-208.351 Y83.351
X-208.21 Y83.29
X-208.137 Y83.255
X-208.069 Y83.212
X-207.933 Y83.115
X-207.872 Y83.067
X-207.817 Y83.013
X-207.722 Y82.91
X-207.678 Y82.859
X-207.64 Y82.804
X-207.57 Y82.695
X-207.533 Y82.63
X-207.502 Y82.56
X-207.44 Y82.398
X-207.414 Y82.317
X-207.398 Y82.234
X-207.375 Y82.071
X-207.368 Y81.967
X-207.367 Y44.029
X-0.391 Y44.026
X-0.316 Y44.023
X-0.241 Y44.011
X-0.079 Y43.978
X0 Y43.958
X0.076 Y43.929
X0.221 Y43.865
X0.286 Y43.832
X0.348 Y43.793
X0.456 Y43.717
X0.516 Y43.67
X0.571 Y43.618
X0.687 Y43.495
X0.742 Y43.429
X0.79 Y43.358
X0.877 Y43.208
X0.916 Y43.131
X0.946 Y43.051
X0.996 Y42.888
X1.016 Y42.808
X1.027 Y42.726
X1.04 Y42.564
X1.042 Y42.505
Y39.558
X15.493
X15.908 Y39.579
X15.946 Y39.58
X20.406
Y39.685
X20.311 Y39.682
X20.288 Y39.681
X15.965 Y39.68
X15.55 Y39.659
X15.512 Y39.658
X2.594 Y39.659
X2.529 Y39.662
X2.464 Y39.671
X2.301 Y39.699
X2.218 Y39.719
X2.137 Y39.748
X1.975 Y39.817
X1.905 Y39.851
X1.839 Y39.892
X1.731 Y39.968
X1.674 Y40.012
X1.621 Y40.062
X1.512 Y40.174
X1.461 Y40.232
X1.417 Y40.295
X1.336 Y40.425
X1.296 Y40.496
X1.264 Y40.571
X1.206 Y40.734
X1.185 Y40.801
X1.171 Y40.87
X1.154 Y40.979
X1.147 Y41.037
X1.145 Y41.095
X1.142 Y44.129
X-205.823 Y44.132
X-205.891 Y44.135
X-205.957 Y44.144
X-206.113 Y44.172
X-206.188 Y44.19
X-206.261 Y44.215
X-206.401 Y44.272
X-206.474 Y44.306
X-206.542 Y44.348
X-206.682 Y44.444
X-206.747 Y44.494
X-206.806 Y44.551
X-206.914 Y44.665
X-206.965 Y44.726
X-207.009 Y44.792
X-207.091 Y44.928
X-207.126 Y44.995
X-207.155 Y45.065
X-207.203 Y45.201
X-207.224 Y45.271
X-207.238 Y45.342
X-207.259 Y45.487
X-207.267 Y45.595
Y82.888
X-207.264 Y82.947
X-207.258 Y83.004
X-207.232 Y83.167
X-207.214 Y83.25
X-207.187 Y83.331
X-207.121 Y83.493
X-207.089 Y83.564
X-207.049 Y83.631
X-206.811 Y83.985
X-206.81 Y83.999
X-206.817 Y84.004
X-207.163 Y83.773
X-207.218 Y83.739
X-207.275 Y83.711
X-207.416 Y83.648
X-207.491 Y83.619
X-207.569 Y83.598
X-207.637 Y83.584
X-207.661 Y83.576 Z-2.993
X-207.681 Y83.562 Z-2.987
X-207.704 Y83.534 Z-2.95
X-207.71 Y83.521 Z-2.9
G0 Z4
X-207.545 Y83.556
Z2
G1 Z-1 F333.3
Z-3.9
X-207.555 Y83.565 Z-3.95
X-207.588 Y83.582 Z-3.987
X-207.612 Y83.586 Z-3.993
X-207.637 Y83.584 Z-4
X-207.731 Y83.564 F700
X-207.808 Y83.552
X-207.886 Y83.548
X-231.17 Y83.547
X-231.242 Y83.55
X-231.314 Y83.561
X-231.476 Y83.593
X-231.56 Y83.614
X-231.641 Y83.645
X-231.803 Y83.718
X-231.868 Y83.751
X-231.929 Y83.79
X-232.23 Y84.003
X-232.256 Y84.009
X-232.584 Y83.78
X-232.65 Y83.739
X-232.721 Y83.704
X-232.748 Y83.692
Y83.444
X-208.808 Y83.442
X-208.737 Y83.439
X-208.667 Y83.429
X-208.504 Y83.397
X-208.426 Y83.378
X-208.351 Y83.351
X-208.21 Y83.29
X-208.137 Y83.255
X-208.069 Y83.212
X-207.933 Y83.115
X-207.872 Y83.067
X-207.817 Y83.013
X-207.722 Y82.91
X-207.678 Y82.859
X-207.64 Y82.804
X-207.57 Y82.695
X-207.533 Y82.63
X-207.502 Y82.56
X-207.44 Y82.398
X-207.414 Y82.317
X-207.398 Y82.234
X-207.375 Y82.071
X-207.368 Y81.967
X-207.367 Y44.029
X-0.391 Y44.026
X-0.316 Y44.023
X-0.241 Y44.011
X-0.079 Y43.978
X0 Y43.958
X0.076 Y43.929
X0.221 Y43.865
X0.286 Y43.832
X0.348 Y43.793
X0.456 Y43.717
X0.516 Y43.67
X0.571 Y43.618
X0.687 Y43.495
X0.742 Y43.429
X0.79 Y43.358
X0.877 Y43.208
X0.916 Y43.131
X0.946 Y43.051
X0.996 Y42.888
X1.016 Y42.808
X1.027 Y42.726
X1.04 Y42.564
X1.042 Y42.505
Y39.558
X15.493
X15.908 Y39.579
X15.946 Y39.58
X20.406
Y39.685
X20.311 Y39.682
X20.288 Y39.681
X15.965 Y39.68
X15.55 Y39.659
X15.512 Y39.658
X2.594 Y39.659
X2.529 Y39.662
X2.464 Y39.671
X2.301 Y39.699
X2.218 Y39.719
X2.137 Y39.748
X1.975 Y39.817
X1.905 Y39.851
X1.839 Y39.892
X1.731 Y39.968
X1.674 Y40.012
X1.621 Y40.062
X1.512 Y40.174
X1.461 Y40.232
X1.417 Y40.295
X1.336 Y40.425
X1.296 Y40.496
X1.264 Y40.571
X1.206 Y40.734
X1.185 Y40.801
X1.171 Y40.87
X1.154 Y40.979
X1.147 Y41.037
X1.145 Y41.095
X1.142 Y44.129
X-205.823 Y44.132
X-205.891 Y44.135
X-205.957 Y44.144
X-206.113 Y44.172
X-206.188 Y44.19
X-206.261 Y44.215
X-206.401 Y44.272
X-206.474 Y44.306
X-206.542 Y44.348
X-206.682 Y44.444
X-206.747 Y44.494
X-206.806 Y44.551
X-206.914 Y44.665
X-206.965 Y44.726
X-207.009 Y44.792
X-207.091 Y44.928
X-207.126 Y44.995
X-207.155 Y45.065
X-207.203 Y45.201
X-207.224 Y45.271
X-207.238 Y45.342
X-207.259 Y45.487
X-207.267 Y45.595
Y82.888
X-207.264 Y82.947
X-207.258 Y83.004
X-207.232 Y83.167
X-207.214 Y83.25
X-207.187 Y83.331
X-207.121 Y83.493
X-207.089 Y83.564
X-207.049 Y83.631
X-206.811 Y83.985
X-206.81 Y83.999
X-206.817 Y84.004
X-207.163 Y83.773
X-207.218 Y83.739
X-207.275 Y83.711
X-207.416 Y83.648
X-207.491 Y83.619
X-207.569 Y83.598
X-207.637 Y83.584
X-207.661 Y83.576 Z-3.993
X-207.681 Y83.562 Z-3.987
X-207.704 Y83.534 Z-3.95
X-207.71 Y83.521 Z-3.9
G0 Z4
X-207.545 Y83.556
G1 Z-2 F333.3
Z-4.9
X-207.555 Y83.565 Z-4.95
X-207.588 Y83.582 Z-4.987
X-207.612 Y83.586 Z-4.993
X-207.637 Y83.584 Z-5
X-207.731 Y83.564 F700
X-207.808 Y83.552
X-207.886 Y83.548
X-231.17 Y83.547
X-231.242 Y83.55
X-231.314 Y83.561
X-231.476 Y83.593
X-231.56 Y83.614
X-231.641 Y83.645
X-231.803 Y83.718
X-231.868 Y83.751
X-231.929 Y83.79
X-232.23 Y84.003
X-232.254 Y84.008
X-232.262 Y84.006
X-232.584 Y83.78
X-232.65 Y83.739
X-232.721 Y83.704
X-232.748 Y83.692
Y83.444
X-208.808 Y83.442
X-208.737 Y83.439
X-208.667 Y83.429
X-208.504 Y83.397
X-208.426 Y83.378
X-208.351 Y83.351
X-208.21 Y83.29
X-208.137 Y83.255
X-208.069 Y83.212
X-207.933 Y83.115
X-207.872 Y83.067
X-207.817 Y83.013
X-207.722 Y82.91
X-207.678 Y82.859
X-207.64 Y82.804
X-207.57 Y82.695
X-207.533 Y82.63
X-207.502 Y82.56
X-207.44 Y82.398
X-207.414 Y82.317
X-207.398 Y82.234
X-207.375 Y82.071
X-207.368 Y81.967
X-207.367 Y44.029
X-0.391 Y44.026
X-0.316 Y44.023
X-0.241 Y44.011
X-0.079 Y43.978
X0 Y43.958
X0.076 Y43.929
X0.221 Y43.865
X0.286 Y43.832
X0.348 Y43.793
X0.456 Y43.717
X0.516 Y43.67
X0.571 Y43.618
X0.687 Y43.495
X0.742 Y43.429
X0.79 Y43.358
X0.877 Y43.208
X0.916 Y43.131
X0.946 Y43.051
X0.996 Y42.888
X1.016 Y42.808
X1.027 Y42.726
X1.04 Y42.564
X1.042 Y42.505
Y39.558
X15.493
X15.908 Y39.579
X15.946 Y39.58
X20.406
Y39.685
X20.311 Y39.682
X20.288 Y39.681
X15.965 Y39.68
X15.55 Y39.659
X15.512 Y39.658
X2.594 Y39.659
X2.529 Y39.662
X2.464 Y39.671
X2.301 Y39.699
X2.218 Y39.719
X2.137 Y39.748
X1.975 Y39.817
X1.905 Y39.851
X1.839 Y39.892
X1.731 Y39.968
X1.674 Y40.012
X1.621 Y40.062
X1.512 Y40.174
X1.461 Y40.232
X1.417 Y40.295
X1.336 Y40.425
X1.296 Y40.496
X1.264 Y40.571
X1.206 Y40.734
X1.185 Y40.801
X1.171 Y40.87
X1.154 Y40.979
X1.147 Y41.037
X1.145 Y41.095
X1.142 Y44.129
X-205.823 Y44.132
X-205.891 Y44.135
X-205.957 Y44.144
X-206.113 Y44.172
X-206.188 Y44.19
X-206.261 Y44.215
X-206.401 Y44.272
X-206.474 Y44.306
X-206.542 Y44.348
X-206.682 Y44.444
X-206.747 Y44.494
X-206.806 Y44.551
X-206.914 Y44.665
X-206.965 Y44.726
X-207.009 Y44.792
X-207.091 Y44.928
X-207.126 Y44.995
X-207.155 Y45.065
X-207.203 Y45.201
X-207.224 Y45.271
X-207.238 Y45.342
X-207.259 Y45.487
X-207.267 Y45.595
Y82.888
X-207.264 Y82.947
X-207.258 Y83.004
X-207.232 Y83.167
X-207.214 Y83.25
X-207.187 Y83.331
X-207.121 Y83.493
X-207.089 Y83.564
X-207.049 Y83.63
X-206.811 Y83.987
X-206.81 Y83.999
X-206.817 Y84.004
X-207.163 Y83.773
X-207.218 Y83.739
X-207.275 Y83.711
X-207.416 Y83.648
X-207.491 Y83.619
X-207.569 Y83.598
X-207.637 Y83.584
X-207.661 Y83.576 Z-4.993
X-207.681 Y83.562 Z-4.987
X-207.704 Y83.534 Z-4.95
X-207.71 Y83.521 Z-4.9
G0 Z4
X-206.823 Y83.999
G1 Z-3 F333.3
Z-6
X-206.83 Y83.995 F700
X-206.829 Y83.987
X-206.825 Y83.983
X-206.815
X-206.811 Y83.989
X-206.81 Y83.996
X-206.816 Y84.002
X-206.823 Y83.999
Z-5.9
G0 Z4
X-206.82 Y84
G1 Z-4 F333.3
Z-6.5
X-206.824 F700
X-206.83 Y83.995
X-206.829 Y83.987
X-206.825 Y83.983
X-206.815
X-206.811 Y83.99
X-206.81 Y83.995
X-206.812 Y84
X-206.82
X-206.824
X-206.83 Y83.995 Z-6.498
X-206.829 Y83.987 Z-6.493
X-206.825 Y83.983 Z-6.486
X-206.82 Z-6.469
G0 Z4
X-206.819 Y83.999
G1 Z-4.5 F333.3
Z-7.5
X-206.823 Y84 F700
X-206.83 Y83.995
X-206.829 Y83.987
X-206.825 Y83.983
X-206.815
X-206.811 Y83.989
X-206.813 Y83.998
X-206.819 Y83.999
Z-7.4
G0 Z4
X-206.825 Y83.991
G1 Z-5.5 F333.3
Z-8.5
Y83.983 F700
X-206.816 Y83.984
X-206.811 Y83.99
X-206.815 Y84
X-206.826 Y83.998
X-206.825 Y83.991
Z-8.4
G0 Z4
X-206.823 Y83.99
G1 Z-6.5 F333.3
Z-9.5
X-206.819 Y83.983 F700
X-206.813 Y83.989
X-206.817 Y84
X-206.827 Y83.996
X-206.823 Y83.99
Z-9.4
G0 Z4
X-206.817 Y83.989
G1 Z-7.5 F333.3
Z-10.5
X-206.818 Y83.999 F700
X-206.826 Y83.993
X-206.824 Y83.984
X-206.817
Y83.989
Z-10.4
G0 Z4
X-206.814 Y83.99
G1 Z-8.5 F333.3
Z-11.5
X-206.82 Y83.984 F700
X-206.814 Y83.99
X-206.82 Y83.984 Z-11.495
X-206.819 Y83.985 Z-11.491
G0 Z4
X-206.815 Y83.995
G1 Z-10.5 F333.3
Z-13.5
Y83.996 F700
X-206.818 Y83.988
X-206.815 Y83.995
Z-13.4
G0 Z4
X-206.816 Y83.997
G1 Z-12.5 F333.3
Z-15.5
X-206.818 Y83.999 F700
X-206.819
X-206.818 Y83.995
X-206.816 Y83.996
Y83.997
Z-15.4
G0 Z4
Y83.998
G1 Z-13.5 F333.3
Z-16.5
X-206.818 Y83.999 F700
X-206.819
X-206.818 Y83.995
X-206.816 Y83.996
Y83.997
Y83.998
Z-16.4
G0 Z4
Y83.997
G1 Z-14.5 F333.3
Z-17
X-206.818 Y83.999 F700
X-206.819
X-206.818 Y83.995
X-206.816 Y83.996
Y83.997
Z-16.9
G0 Z4
X-232.245 Y83.991
G1 Z-3 F333.3
Z-6
X-232.241 Y83.994 F700
X-232.242 Y84
X-232.245 Y84.006
X-232.251 Y84.008
X-232.255 Y84.001
Y83.994
X-232.252 Y83.986
X-232.245 Y83.991
Z-5.9
Z-4
Z-6.5 F333.3
X-232.241 Y83.994 F700
X-232.242 Y84
X-232.245 Y84.006
X-232.251 Y84.007
X-232.255 Y84.001
Y83.994
X-232.252 Y83.986
X-232.245 Y83.991
Z-6.4
Z-4.5
Z-7.5 F333.3
X-232.241 Y83.994 F700
X-232.242 Y84
X-232.253 Y84.004
X-232.255 Y83.994
X-232.252 Y83.986
X-232.245 Y83.991
Z-7.4
G0 Z4
Y83.993
G1 Z-5.5 F333.3
Z-8.5
X-232.24 Y83.998 F700
X-232.243 Y84.003
X-232.25 Y84.004
X-232.255 Y83.996
X-232.251 Y83.986
X-232.245 Y83.993
Z-8.4
G0 Z4
X-232.249 Y83.994
G1 Z-6.5 F333.3
Z-9.5
X-232.244 Y84.001 F700
X-232.252 Y84.003
X-232.254 Y83.988
X-232.249 Y83.994
Z-9.4
G0 Z4
X-232.248 Y83.993
G1 Z-7.5 F333.3
Z-10.5
X-232.244 Y84 F700
X-232.254 Y83.996
X-232.252 Y83.987
X-232.248 Y83.993
Z-10.4
G0 Z4
X-232.247 Y83.997
G1 Z-8.5 F333.3
Z-11.5
X-232.252 Y83.998 F700
X-232.253 Y83.992
X-232.243 Y83.988
Y83.997
X-232.247
Z-11.4
G0 Z4
X-232.248 Y83.996
G1 Z-9.5 F333.3
Z-12.5
X-232.251 Y83.986 F700
X-232.247 Y84.001
X-232.248 Y83.996
Z-12.4
G0 Z4
X-232.249 Y83.998
G1 Z-10.5 F333.3
Z-13.5
X-232.25 Y83.988 F700
X-232.249 Y84.001
Y83.998
Z-13.4
G0 Z4
G1 Z-11.5 F333.3
Z-14.5
X-232.251 Y83.994 F700
X-232.249 Y84.001
Y83.998
Z-14.4
G0 Z4
X-175.829 Y44.089
G1 Z-3 F333.3
Z-6
X-175.833 Y44.09 F700
X-175.837 Y44.087
X-175.84 Y44.082
X-175.835 Y44.07
X-175.829 Y44.068
X-175.824 Y44.069
X-175.818 Y44.078
X-175.823 Y44.089
X-175.829
Z-5.9
G0 Z4
X-175.831 Y44.088
G1 Z-4 F333.3
Z-6.5
X-175.837 Y44.087 F700
X-175.84 Y44.082
X-175.835 Y44.07
X-175.829 Y44.068
X-175.824 Y44.069
X-175.818 Y44.078
X-175.823 Y44.089
X-175.831 Y44.088
Z-6.4
G0 Z4
X-175.836 Y44.077
G1 Z-4.5 F333.3
Z-7.5
X-175.835 Y44.07 F700
X-175.829 Y44.068
X-175.824 Y44.069
X-175.818 Y44.078
X-175.822 Y44.087
X-175.838 Y44.085
X-175.836 Y44.077
Z-7.4
G0 Z4
X-175.821 Y44.073
G1 Z-5.5 F333.3
Z-8.5
X-175.819 Y44.077 F700
X-175.823 Y44.088
X-175.835 Y44.086
X-175.838 Y44.079
Y44.073
X-175.833 Y44.069
X-175.829 Y44.068
X-175.824 Y44.069
X-175.821 Y44.073
X-175.819 Y44.077
X-175.823 Y44.088 Z-8.495
X-175.835 Y44.086 Z-8.482
X-175.836 Y44.083 Z-8.469
G0 Z4
X-175.824 Y44.075
G1 Z-6.5 F333.3
Z-9.5
X-175.821 Y44.079 F700
X-175.824 Y44.087
X-175.835 Y44.082
X-175.834 Y44.07
X-175.829 Y44.068
X-175.824 Y44.075
Z-9.4
G0 Z4
X-175.835 Y44.078
G1 Z-7.5 F333.3
Z-10.5
Y44.073 F700
X-175.831 Y44.069
X-175.824 Y44.071
X-175.822 Y44.08
X-175.828 Y44.086
X-175.834 Y44.082
X-175.835 Y44.078
Z-10.4
G0 Z4
X-175.83 Y44.081
G1 Z-8.5 F333.3
Z-11.5
X-175.831 Y44.072 F700
X-175.824 Y44.071
Y44.082
X-175.828 Y44.086
X-175.83 Y44.081
Z-11.4
G0 Z4
X-175.826
G1 Z-9.5 F333.3
Z-12.5
X-175.831 Y44.07 F700
X-175.825 Y44.084
X-175.826 Y44.081
Z-12.4
G0 Z4
X-175.827 Y44.083
G1 Z-10.5 F333.3
Z-13.5
Y44.085 F700
X-175.83 Y44.071
X-175.827 Y44.083
Z-13.4
G0 Z4
X-175.828
G1 Z-11.5 F333.3
Z-14.5
X-175.827 Y44.085 F700
X-175.831 Y44.076
X-175.828 Y44.083
Z-14.4
G0 Z4
X-175.827
G1 Z-12.5 F333.3
Z-15.5
Y44.085 F700
X-175.828 Y44.086
X-175.831 Y44.084
Y44.08
X-175.828 Y44.081
X-175.827 Y44.083
Z-15.4
G0 Z4
X-175.831
G1 Z-13.5 F333.3
Z-16.5
Y44.08 F700
X-175.828 Y44.081
X-175.827 Y44.083
Y44.085
X-175.828 Y44.086
X-175.831 Y44.084
Y44.083
Z-16.4
G0 Z4
X-175.827
G1 Z-14.5 F333.3
Z-17
Y44.085 F700
X-175.828 Y44.086
X-175.831 Y44.084
Y44.08
X-175.828 Y44.081
X-175.827 Y44.083
Z-16.9
G0 Z4
X-13.529 Y44.073
G1 Z-3 F333.3
Z-6
X-13.525 Y44.078 F700
X-13.529 Y44.088
X-13.54
X-13.544 Y44.078
X-13.541 Y44.071
X-13.534 Y44.068
X-13.529 Y44.073
Z-5.9
Z-4
Z-6.5 F333.3
X-13.525 Y44.078 F700
X-13.529 Y44.088
X-13.54
X-13.544 Y44.078
X-13.541 Y44.071
X-13.534 Y44.068
X-13.529 Y44.073
Z-6.4
G0 Z4
X-13.541 Y44.078
G1 Z-4.5 F333.3
Z-7.5
Y44.071 F700
X-13.534 Y44.068
X-13.524 Y44.079
X-13.527 Y44.085
X-13.532 Y44.089
X-13.542 Y44.087
X-13.541 Y44.078
Z-7.4
G0 Z4
X-13.539 Y44.081
G1 Z-5.5 F333.3
Z-8.5
X-13.544 Y44.075 F700
X-13.539 Y44.069
X-13.534 Y44.068
X-13.526 Y44.072
X-13.525 Y44.08
X-13.533 Y44.088
X-13.539 Y44.081
Z-8.4
G0 Z4
X-13.534 Y44.085
G1 Z-6.5 F333.3
Z-9.5
X-13.54 F700
Y44.07
X-13.534 Y44.069
X-13.529 Y44.07
X-13.528 Y44.084
X-13.534 Y44.085
Z-9.4
G0 Z4
X-13.541 Y44.08
G1 Z-7.5 F333.3
Z-10.5
Y44.073 F700
X-13.529 Y44.07
X-13.528 Y44.081
X-13.53 Y44.086
X-13.54 Y44.085
X-13.541 Y44.08
Z-10.4
G0 Z4
X-13.533 Y44.082
G1 Z-8.5 F333.3
Z-11.5
X-13.532 Y44.086 F700
X-13.538 Y44.085
X-13.537 Y44.07
X-13.533 Y44.082
Z-11.4
G0 Z4
G1 Z-9.5 F333.3
Z-12.5
X-13.532 Y44.086 F700
X-13.538 Y44.085
X-13.537 Y44.07
X-13.533 Y44.082
Z-12.4
G0 Z4
Y44.083
G1 Z-10.5 F333.3
Z-13.5
X-13.536 Y44.072 F700
X-13.533 Y44.086
Y44.083
Z-13.4
G0 Z4
X-13.534
G1 Z-11.5 F333.3
Z-14.5
X-13.533 Y44.086 F700
X-13.536 Y44.075
X-13.534 Y44.083
Z-14.4
G0 Z4
X-13.533
G1 Z-12.5 F333.3
Z-15.5
Y44.086 F700
X-13.537 Y44.085
Y44.081
X-13.535 Y44.08
X-13.533 Y44.082
Y44.083
Z-15.4
Z-13.5
Z-16.5 F333.3
Y44.086 F700
X-13.537 Y44.085
Y44.081
X-13.535 Y44.08
X-13.533 Y44.082
Y44.083
Z-16.4
Z-14.5
Z-17 F333.3
Y44.086 F700
X-13.537 Y44.085
Y44.081
X-13.535 Y44.08
X-13.533 Y44.082
Y44.083
Z-16.9
G0 Z4
X1.089 Y44.077
G1 Z-3 F333.3
Z-6
X1.093 Y44.074 F700
X1.1 Y44.082
X1.102 Y44.089
X1.093 Y44.087
X1.085 Y44.08
X1.089 Y44.077
Z-5.9
G0 Z4
G1 Z-4 F333.3
Z-6.5
X1.093 Y44.074 F700
X1.1 Y44.082
X1.102 Y44.089
X1.093 Y44.087
X1.085 Y44.081
X1.089 Y44.077
Z-6.4
G0 Z4
X1.09 Y44.074
G1 Z-4.5 F333.3
Z-7.5
X1.093 F700
X1.1 Y44.082
X1.102 Y44.089
X1.093 Y44.087
X1.086 Y44.081
Y44.075
X1.09 Y44.074
Z-7.4
G0 Z4
X1.095 Y44.076
G1 Z-5.5 F333.3
Z-8.5
X1.1 Y44.082 F700
X1.102 Y44.089
X1.093 Y44.087
X1.086 Y44.081
X1.087 Y44.074
X1.093
X1.095 Y44.076
Z-8.4
G0 Z4
X1.092 Y44.082
G1 Z-6.5 F333.3
Z-9.5
X1.087 F700
Y44.075
X1.094 Y44.074
X1.1 Y44.082
X1.092
Z-9.4
G0 Z4
Y44.081
G1 Z-7.5 F333.3
Z-10.5
X1.087 Y44.082 F700
X1.088 Y44.075
X1.097 Y44.079
X1.092 Y44.081
Z-10.4
G0 Z4
Y44.082
G1 Z-8.5 F333.3
Z-11.5
X1.088 F700
Y44.076
X1.098 Y44.082
X1.092
Z-11.4
G0 Z4
X1.091 Y44.08
G1 Z-9.5 F333.3
Z-12.5
X1.088 Y44.083 F700
X1.089 Y44.077
X1.094
X1.091 Y44.08
Z-12.4
G0 Z4
X1.092 Y44.081
G1 Z-10.5 F333.3
Z-13.5
X1.096 Y44.078 F700
X1.095 Y44.087
X1.089 Y44.083
X1.092 Y44.081
Z-13.4
G0 Z4
X1.09 Y44.084
G1 Z-11.5 F333.3
Z-14.5
X1.089 F700
X1.094 Y44.087
X1.09 Y44.084
Z-14.4
G0 Z4
X20.355 Y39.58
G1 Z-3 F333.3
Z-6
X20.406 F700
Y39.685
X20.311 Y39.682
X20.288 Y39.681
X15.978 Y39.68
X15.951 Y39.675
X15.851 Y39.631
X16.041 Y39.58
X20.355
X20.381 Z-5.996
X20.406 Z-5.986
Y39.606 Z-5.963
Y39.623 Z-5.934
Y39.629 Z-5.9
G0 Z4
X20.355 Y39.58
G1 Z-4 F333.3
Z-6.5
X20.406 F700
Y39.685
X20.311 Y39.682
X20.288 Y39.681
X16.034 Y39.68
X15.875 Y39.643
X15.857 Y39.634
X15.853 Y39.63
X16.039 Y39.58
X20.355
X20.381 Z-6.496
X20.406 Z-6.486
Y39.606 Z-6.463
Y39.623 Z-6.434
Y39.629 Z-6.4
G0 Z4
X-200.64 Y88.701
Z2
G1 Z-0.9 F333.3
X-200.642 Y88.688 Z-0.95
X-200.639 Y88.652 Z-0.987
X-200.63 Y88.629 Z-0.993
X-200.615 Y88.609 Z-1
X-200.591 Y88.583 F700
X-200.499 Y88.478
X-200.457 Y88.426
X-200.42 Y88.37
X-200.355 Y88.262
X-200.32 Y88.196
X-200.291 Y88.126
X-200.234 Y87.964
X-200.213 Y87.896
X-200.199 Y87.827
X-200.182 Y87.719
X-200.176 Y87.662
X-200.173 Y87.604
X-200.171 Y71.851
X15.497 Y70.36
X15.912 Y70.379
X15.946 Y70.38
X20.406
Y70.481
X20.397
X15.963 Y70.48
X15.546 Y70.461
X15.507 Y70.46
X-198.664 Y71.945
X-198.747 Y71.95
X-198.829 Y71.965
X-198.992 Y72.003
X-199.061 Y72.022
X-199.127 Y72.048
X-199.236 Y72.097
X-199.294 Y72.126
X-199.349 Y72.16
X-199.466 Y72.238
X-199.525 Y72.282
X-199.579 Y72.332
X-199.686 Y72.44
X-199.734 Y72.493
X-199.776 Y72.55
X-199.849 Y72.658
X-199.889 Y72.724
X-199.922 Y72.793
X-199.988 Y72.956
X-200.016 Y73.037
X-200.034 Y73.12
X-200.06 Y73.282
X-200.068 Y73.342
X-200.07 Y73.402
X-200.071 Y89.144
X-206.661 Y89.141
X-206.822 Y89.105
X-206.826 Y89.102
X-206.828 Y89.097
Y89.092
X-206.826 Y89.087
X-206.822 Y89.084
X-206.661 Y89.047
X-201.589 Y89.04
X-201.507 Y89.035
X-201.426 Y89.022
X-201.263 Y88.985
X-201.179 Y88.961
X-201.099 Y88.928
X-200.936 Y88.849
X-200.866 Y88.81
X-200.801 Y88.764
X-200.692 Y88.679
X-200.615 Y88.609
X-200.595 Y88.593 Z-0.993
X-200.573 Y88.583 Z-0.987
X-200.537 Y88.578 Z-0.95
X-200.523 Y88.58 Z-0.9
G0 Z4
X-200.64 Y88.701
Z1
G1 Z-1.9 F333.3
X-200.642 Y88.688 Z-1.95
X-200.639 Y88.652 Z-1.987
X-200.63 Y88.629 Z-1.993
X-200.615 Y88.609 Z-2
X-200.591 Y88.583 F700
X-200.499 Y88.478
X-200.457 Y88.426
X-200.42 Y88.37
X-200.355 Y88.262
X-200.32 Y88.196
X-200.291 Y88.126
X-200.234 Y87.964
X-200.213 Y87.896
X-200.199 Y87.827
X-200.182 Y87.719
X-200.176 Y87.662
X-200.173 Y87.604
X-200.171 Y71.851
X15.497 Y70.36
X15.912 Y70.379
X15.946 Y70.38
X20.406
Y70.481
X20.397
X15.963 Y70.48
X15.546 Y70.461
X15.507 Y70.46
X-198.664 Y71.945
X-198.747 Y71.95
X-198.829 Y71.965
X-198.992 Y72.003
X-199.061 Y72.022
X-199.127 Y72.048
X-199.236 Y72.097
X-199.294 Y72.126
X-199.349 Y72.16
X-199.466 Y72.238
X-199.525 Y72.282
X-199.579 Y72.332
X-199.686 Y72.44
X-199.734 Y72.493
X-199.776 Y72.55
X-199.849 Y72.658
X-199.889 Y72.724
X-199.922 Y72.793
X-199.988 Y72.956
X-200.016 Y73.037
X-200.034 Y73.12
X-200.06 Y73.282
X-200.068 Y73.342
X-200.07 Y73.402
X-200.071 Y89.144
X-206.661 Y89.141
X-206.822 Y89.105
X-206.826 Y89.102
X-206.828 Y89.097
Y89.092
X-206.826 Y89.087
X-206.822 Y89.084
X-206.661 Y89.047
X-201.589 Y89.04
X-201.507 Y89.035
X-201.426 Y89.022
X-201.263 Y88.985
X-201.179 Y88.961
X-201.099 Y88.928
X-200.936 Y88.849
X-200.866 Y88.81
X-200.801 Y88.764
X-200.692 Y88.679
X-200.615 Y88.609
X-200.595 Y88.593 Z-1.993
X-200.573 Y88.583 Z-1.987
X-200.537 Y88.578 Z-1.95
X-200.523 Y88.58 Z-1.9
G0 Z4
X-200.64 Y88.701
Z0
G1 Z-2.9 F333.3
X-200.642 Y88.688 Z-2.95
X-200.639 Y88.652 Z-2.987
X-200.63 Y88.629 Z-2.993
X-200.615 Y88.609 Z-3
X-200.591 Y88.583 F700
X-200.499 Y88.478
X-200.457 Y88.426
X-200.42 Y88.37
X-200.355 Y88.262
X-200.32 Y88.196
X-200.291 Y88.126
X-200.234 Y87.964
X-200.213 Y87.896
X-200.199 Y87.827
X-200.182 Y87.719
X-200.176 Y87.662
X-200.173 Y87.604
X-200.171 Y71.851
X15.497 Y70.36
X15.912 Y70.379
X15.946 Y70.38
X20.406
Y70.481
X20.397
X15.963 Y70.48
X15.546 Y70.461
X15.507 Y70.46
X-198.664 Y71.945
X-198.747 Y71.95
X-198.829 Y71.965
X-198.992 Y72.003
X-199.061 Y72.022
X-199.127 Y72.048
X-199.236 Y72.097
X-199.294 Y72.126
X-199.349 Y72.16
X-199.466 Y72.238
X-199.525 Y72.282
X-199.579 Y72.332
X-199.686 Y72.44
X-199.734 Y72.493
X-199.776 Y72.55
X-199.849 Y72.658
X-199.889 Y72.724
X-199.922 Y72.793
X-199.988 Y72.956
X-200.016 Y73.037
X-200.034 Y73.12
X-200.06 Y73.282
X-200.068 Y73.342
X-200.07 Y73.402
X-200.071 Y89.144
X-206.661 Y89.141
X-206.822 Y89.105
X-206.826 Y89.102
X-206.828 Y89.097
Y89.092
X-206.826 Y89.087
X-206.661 Y89.047
X-201.589 Y89.04
X-201.507 Y89.035
X-201.426 Y89.022
X-201.263 Y88.985
X-201.179 Y88.961
X-201.099 Y88.928
X-200.936 Y88.849
X-200.866 Y88.81
X-200.801 Y88.764
X-200.692 Y88.679
X-200.615 Y88.609
X-200.595 Y88.593 Z-2.993
X-200.573 Y88.583 Z-2.987
X-200.537 Y88.578 Z-2.95
X-200.523 Y88.58 Z-2.9
G0 Z4
X-200.64 Y88.701
Z2
G1 Z-1 F333.3
Z-3.9
X-200.642 Y88.688 Z-3.95
X-200.639 Y88.652 Z-3.987
X-200.63 Y88.629 Z-3.993
X-200.615 Y88.609 Z-4
X-200.591 Y88.583 F700
X-200.499 Y88.478
X-200.457 Y88.426
X-200.42 Y88.37
X-200.355 Y88.262
X-200.32 Y88.196
X-200.291 Y88.126
X-200.234 Y87.964
X-200.213 Y87.896
X-200.199 Y87.827
X-200.182 Y87.719
X-200.176 Y87.662
X-200.173 Y87.604
X-200.171 Y71.851
X15.497 Y70.36
X15.912 Y70.379
X15.946 Y70.38
X20.406
Y70.481
X20.397
X15.963 Y70.48
X15.546 Y70.461
X15.507 Y70.46
X-198.664 Y71.945
X-198.747 Y71.95
X-198.829 Y71.965
X-198.992 Y72.003
X-199.061 Y72.022
X-199.127 Y72.048
X-199.236 Y72.097
X-199.294 Y72.126
X-199.349 Y72.16
X-199.466 Y72.238
X-199.525 Y72.282
X-199.579 Y72.332
X-199.686 Y72.44
X-199.734 Y72.493
X-199.776 Y72.55
X-199.849 Y72.658
X-199.889 Y72.724
X-199.922 Y72.793
X-199.988 Y72.956
X-200.016 Y73.037
X-200.034 Y73.12
X-200.06 Y73.282
X-200.068 Y73.342
X-200.07 Y73.402
X-200.071 Y89.144
X-206.661 Y89.141
X-206.822 Y89.105
X-206.826 Y89.102
X-206.828 Y89.097
Y89.092
X-206.826 Y89.087
X-206.66 Y89.047
X-201.589 Y89.04
X-201.507 Y89.035
X-201.426 Y89.022
X-201.263 Y88.985
X-201.179 Y88.961
X-201.099 Y88.928
X-200.936 Y88.849
X-200.866 Y88.81
X-200.801 Y88.764
X-200.692 Y88.679
X-200.615 Y88.609
X-200.595 Y88.593 Z-3.993
X-200.573 Y88.583 Z-3.987
X-200.537 Y88.578 Z-3.95
X-200.523 Y88.58 Z-3.9
G0 Z4
X-200.64 Y88.701
G1 Z-2 F333.3
Z-4.9
X-200.642 Y88.688 Z-4.95
X-200.639 Y88.652 Z-4.987
X-200.63 Y88.629 Z-4.993
X-200.615 Y88.609 Z-5
X-200.591 Y88.583 F700
X-200.499 Y88.478
X-200.457 Y88.426
X-200.42 Y88.37
X-200.355 Y88.262
X-200.32 Y88.196
X-200.291 Y88.126
X-200.234 Y87.964
X-200.213 Y87.896
X-200.199 Y87.827
X-200.182 Y87.719
X-200.176 Y87.662
X-200.173 Y87.604
X-200.171 Y71.851
X15.497 Y70.36
X15.912 Y70.379
X15.946 Y70.38
X20.406
Y70.481
X20.397
X15.963 Y70.48
X15.546 Y70.461
X15.507 Y70.46
X-198.664 Y71.945
X-198.747 Y71.95
X-198.829 Y71.965
X-198.992 Y72.003
X-199.061 Y72.022
X-199.127 Y72.048
X-199.236 Y72.097
X-199.294 Y72.126
X-199.349 Y72.16
X-199.466 Y72.238
X-199.525 Y72.282
X-199.579 Y72.332
X-199.686 Y72.44
X-199.734 Y72.493
X-199.776 Y72.55
X-199.849 Y72.658
X-199.889 Y72.724
X-199.922 Y72.793
X-199.988 Y72.956
X-200.016 Y73.037
X-200.034 Y73.12
X-200.06 Y73.282
X-200.068 Y73.342
X-200.07 Y73.402
X-200.071 Y89.144
X-206.661 Y89.141
X-206.822 Y89.105
X-206.826 Y89.102
X-206.828 Y89.097
X-206.826 Y89.087
X-206.66 Y89.047
X-201.589 Y89.04
X-201.507 Y89.035
X-201.426 Y89.022
X-201.263 Y88.985
X-201.179 Y88.961
X-201.099 Y88.928
X-200.936 Y88.849
X-200.866 Y88.81
X-200.801 Y88.764
X-200.692 Y88.679
X-200.615 Y88.609
X-200.595 Y88.593 Z-4.993
X-200.573 Y88.583 Z-4.987
X-200.537 Y88.578 Z-4.95
X-200.523 Y88.58 Z-4.9
G0 Z4
X-206.812 Y89.096
G1 Z-3 F333.3
Z-6
X-206.819 Y89.105 F700
X-206.825 Y89.088
X-206.815 Y89.083
X-206.807 Y89.089
X-206.812 Y89.096
Z-5.9
G0 Z4
G1 Z-4 F333.3
Z-6.5
X-206.819 Y89.105 F700
X-206.825 Y89.089
X-206.815 Y89.084
X-206.807 Y89.089
X-206.812 Y89.096
Z-6.4
G0 Z4
Y89.097
G1 Z-4.5 F333.3
Z-7.5
X-206.819 Y89.105 F700
X-206.825 Y89.09
X-206.815 Y89.084
X-206.807 Y89.09
X-206.812 Y89.097
Z-7.4
G0 Z4
X-206.813
G1 Z-5.5 F333.3
Z-8.5
X-206.818 Y89.105 F700
X-206.824 Y89.103
X-206.825 Y89.092
X-206.817 Y89.085
X-206.809 Y89.092
X-206.813 Y89.097
Z-8.4
G0 Z4
X-206.811 Y89.094
G1 Z-6.5 F333.3
Z-9.5
X-206.808 Y89.098 F700
X-206.814 Y89.105
X-206.822 Y89.103
X-206.823 Y89.092
X-206.816 Y89.086
X-206.811 Y89.094
Z-9.4
G0 Z4
X-206.818 Y89.1
G1 Z-7.5 F333.3
Z-10.5
X-206.821 Y89.095 F700
X-206.818 Y89.088
X-206.811 Y89.1
X-206.816 Y89.104
X-206.818 Y89.1
Z-10.4
G0 Z4
X-206.815 Y89.097
G1 Z-8.5 F333.3
Z-11.5
X-206.811 Y89.1 F700
X-206.818 Y89.106
X-206.82 Y89.093
X-206.815 Y89.097
Z-11.4
G0 Z4
X-206.813 Y89.098
G1 Z-9.5 F333.3
Z-12.5
X-206.811 Y89.099 F700
X-206.819 Y89.09
X-206.813 Y89.098
Z-12.4
G0 Z4
X-206.817 Y89.093
G1 Z-10.5 F333.3
Z-13.5
X-206.819 Y89.089 F700
X-206.814 Y89.093
Y89.099
X-206.817 Y89.093
Z-13.4
G0 Z4
X-206.818 Y89.09
G1 Z-11.5 F333.3
Z-14.5
X-206.816 Y89.098 F700
X-206.819 Y89.089
X-206.818 Y89.09
Z-14.4
G0 Z4
X-206.819 Y89.089
G1 Z-12.5 F333.3
Z-15.5
X-206.817 Y89.095 F700
X-206.819 Y89.089
Z-15.4
Z-13.5
Z-16.5 F333.3
X-206.817 Y89.095 F700
X-206.819 Y89.089
Z-16.4
Z-14.5
Z-17 F333.3
X-206.817 Y89.095 F700
X-206.819 Y89.089
Z-16.9
G0 Z4
X20.355 Y70.38
G1 Z-3 F333.3
Z-6
X20.406 F700
Y70.481
X20.397
X15.981 Y70.48
X15.941 Y70.471
X15.858 Y70.435
X15.853 Y70.428
X16.04 Y70.38
X20.355
X20.382 Z-5.996
X20.406 Z-5.986
Y70.406 Z-5.964
Y70.423 Z-5.934
Y70.429 Z-5.9
G0 Z4
X20.355 Y70.38
G1 Z-4 F333.3
Z-6.5
X20.406 F700
Y70.481
X20.397
X16.028 Y70.48
X15.899 Y70.452
X15.854 Y70.431
X16.04 Y70.38
X20.355
X20.382 Z-6.496
X20.406 Z-6.486
Y70.406 Z-6.464
Y70.423 Z-6.434
Y70.429 Z-6.4
G0 Z4
X-194.897 Y95.376
Z2
G1 Z-0.9 F333.3
X-194.905 Y95.387 Z-0.95
X-194.934 Y95.41 Z-0.987
X-194.957 Y95.419 Z-0.993
X-194.981 Y95.422 Z-1
X-232.298 F700
Y89.261
X-232.26 Y89.095
X-232.252 Y89.085
X-232.241
X-232.199 Y89.264
X-232.195 Y93.893
X-232.191 Y93.969
X-232.179 Y94.044
X-232.146 Y94.207
X-232.126 Y94.284
X-232.097 Y94.358
X-232.036 Y94.496
X-232 Y94.567
X-231.958 Y94.633
X-231.861 Y94.766
X-231.815 Y94.823
X-231.764 Y94.876
X-231.671 Y94.962
X-231.613 Y95.011
X-231.55 Y95.054
X-231.401 Y95.144
X-231.325 Y95.185
X-231.245 Y95.216
X-231.085 Y95.269
X-231.003 Y95.291
X-230.919 Y95.303
X-230.75 Y95.319
X-230.681 Y95.322
X-196.217 Y95.321
X-196.153 Y95.318
X-196.089 Y95.31
X-195.927 Y95.281
X-195.85 Y95.264
X-195.774 Y95.238
X-195.632 Y95.18
X-195.562 Y95.148
X-195.496 Y95.108
X-195.369 Y95.023
X-195.311 Y94.98
X-195.257 Y94.932
X-195.162 Y94.837
X-195.11 Y94.78
X-195.064 Y94.717
X-194.967 Y94.57
X-194.924 Y94.495
X-194.89 Y94.417
X-194.832 Y94.259
X-194.808 Y94.18
X-194.792 Y94.098
X-194.771 Y93.936
X-194.764 Y93.838
X-194.761 Y89.044
X-24.055 Y89.039
X-23.971 Y89.035
X-23.888 Y89.021
X-23.727 Y88.984
X-23.645 Y88.96
X-23.566 Y88.927
X-23.407 Y88.85
X-23.339 Y88.812
X-23.275 Y88.767
X-23.169 Y88.685
X-23.113 Y88.637
X-23.063 Y88.584
X-22.96 Y88.465
X-22.908 Y88.399
X-22.864 Y88.327
X-22.78 Y88.168
X-22.744 Y88.09
X-22.717 Y88.008
X-22.675 Y87.85
X-22.654 Y87.743
X-22.648 Y87.691
X-22.643 Y87.604
X-22.641 Y76.358
X15.493
X15.908 Y76.379
X15.946 Y76.38
X20.406
Y76.483
X15.965 Y76.48
X15.55 Y76.459
X15.512 Y76.458
X-21.124 Y76.462
X-21.208 Y76.467
X-21.29 Y76.481
X-21.453 Y76.518
X-21.536 Y76.542
X-21.616 Y76.575
X-21.777 Y76.654
X-21.845 Y76.692
X-21.909 Y76.736
X-22.014 Y76.818
X-22.064 Y76.861
X-22.11 Y76.907
X-22.196 Y77.003
X-22.24 Y77.056
X-22.279 Y77.113
X-22.355 Y77.239
X-22.393 Y77.309
X-22.424 Y77.383
X-22.48 Y77.545
X-22.504 Y77.626
X-22.518 Y77.709
X-22.536 Y77.872
X-22.541 Y77.956
Y89.144
X-193.231 Y89.147
X-193.306 Y89.151
X-193.381 Y89.162
X-193.543 Y89.195
X-193.627 Y89.217
X-193.707 Y89.249
X-193.869 Y89.324
X-193.939 Y89.36
X-194.004 Y89.404
X-194.113 Y89.484
X-194.17 Y89.532
X-194.223 Y89.585
X-194.332 Y89.707
X-194.378 Y89.763
X-194.418 Y89.824
X-194.483 Y89.932
X-194.518 Y89.997
X-194.546 Y90.066
X-194.603 Y90.228
X-194.626 Y90.309
X-194.641 Y90.392
X-194.659 Y90.554
X-194.664 Y90.64
Y95.422
X-194.981
X-195.006 Y95.419 Z-0.993
X-195.029 Y95.41 Z-0.987
X-195.058 Y95.387 Z-0.95
X-195.066 Y95.376 Z-0.9
G0 Z4
X-194.897
Z1
G1 Z-1.9 F333.3
X-194.905 Y95.387 Z-1.95
X-194.934 Y95.41 Z-1.987
X-194.957 Y95.419 Z-1.993
X-194.981 Y95.422 Z-2
X-232.298 F700
Y89.261
X-232.26 Y89.095
X-232.252 Y89.085
X-232.241
X-232.199 Y89.264
X-232.195 Y93.893
X-232.191 Y93.969
X-232.179 Y94.044
X-232.146 Y94.207
X-232.126 Y94.284
X-232.097 Y94.358
X-232.036 Y94.496
X-232 Y94.567
X-231.958 Y94.633
X-231.861 Y94.766
X-231.815 Y94.823
X-231.764 Y94.876
X-231.671 Y94.962
X-231.613 Y95.011
X-231.55 Y95.054
X-231.401 Y95.144
X-231.325 Y95.185
X-231.245 Y95.216
X-231.085 Y95.269
X-231.003 Y95.291
X-230.919 Y95.303
X-230.75 Y95.319
X-230.681 Y95.322
X-196.217 Y95.321
X-196.153 Y95.318
X-196.089 Y95.31
X-195.927 Y95.281
X-195.85 Y95.264
X-195.774 Y95.238
X-195.632 Y95.18
X-195.562 Y95.148
X-195.496 Y95.108
X-195.369 Y95.023
X-195.311 Y94.98
X-195.257 Y94.932
X-195.162 Y94.837
X-195.11 Y94.78
X-195.064 Y94.717
X-194.967 Y94.57
X-194.924 Y94.495
X-194.89 Y94.417
X-194.832 Y94.259
X-194.808 Y94.18
X-194.792 Y94.098
X-194.771 Y93.936
X-194.764 Y93.838
X-194.761 Y89.044
X-24.055 Y89.039
X-23.971 Y89.035
X-23.888 Y89.021
X-23.727 Y88.984
X-23.645 Y88.96
X-23.566 Y88.927
X-23.407 Y88.85
X-23.339 Y88.812
X-23.275 Y88.767
X-23.169 Y88.685
X-23.113 Y88.637
X-23.063 Y88.584
X-22.96 Y88.465
X-22.908 Y88.399
X-22.864 Y88.327
X-22.78 Y88.168
X-22.744 Y88.09
X-22.717 Y88.008
X-22.675 Y87.85
X-22.654 Y87.743
X-22.648 Y87.691
X-22.643 Y87.604
X-22.641 Y76.358
X15.493
X15.908 Y76.379
X15.946 Y76.38
X20.406
Y76.483
X15.965 Y76.48
X15.55 Y76.459
X15.512 Y76.458
X-21.124 Y76.462
X-21.208 Y76.467
X-21.29 Y76.481
X-21.453 Y76.518
X-21.536 Y76.542
X-21.616 Y76.575
X-21.777 Y76.654
X-21.845 Y76.692
X-21.909 Y76.736
X-22.014 Y76.818
X-22.064 Y76.861
X-22.11 Y76.907
X-22.196 Y77.003
X-22.24 Y77.056
X-22.279 Y77.113
X-22.355 Y77.239
X-22.393 Y77.309
X-22.424 Y77.383
X-22.48 Y77.545
X-22.504 Y77.626
X-22.518 Y77.709
X-22.536 Y77.872
X-22.541 Y77.956
Y89.144
X-193.231 Y89.147
X-193.306 Y89.151
X-193.381 Y89.162
X-193.543 Y89.195
X-193.627 Y89.217
X-193.707 Y89.249
X-193.869 Y89.324
X-193.939 Y89.36
X-194.004 Y89.404
X-194.113 Y89.484
X-194.17 Y89.532
X-194.223 Y89.585
X-194.332 Y89.707
X-194.378 Y89.763
X-194.418 Y89.824
X-194.483 Y89.932
X-194.518 Y89.997
X-194.546 Y90.066
X-194.603 Y90.228
X-194.626 Y90.309
X-194.641 Y90.392
X-194.659 Y90.554
X-194.664 Y90.64
Y95.422
X-194.981
X-195.006 Y95.419 Z-1.993
X-195.029 Y95.41 Z-1.987
X-195.058 Y95.387 Z-1.95
X-195.066 Y95.376 Z-1.9
G0 Z4
X-194.897
Z0
G1 Z-2.9 F333.3
X-194.905 Y95.387 Z-2.95
X-194.934 Y95.41 Z-2.987
X-194.957 Y95.419 Z-2.993
X-194.981 Y95.422 Z-3
X-232.298 F700
Y89.261
X-232.26 Y89.095
X-232.252 Y89.085
X-232.241
X-232.199 Y89.264
X-232.195 Y93.893
X-232.191 Y93.969
X-232.179 Y94.044
X-232.146 Y94.207
X-232.126 Y94.284
X-232.097 Y94.358
X-232.036 Y94.496
X-232 Y94.567
X-231.958 Y94.633
X-231.861 Y94.766
X-231.815 Y94.823
X-231.764 Y94.876
X-231.671 Y94.962
X-231.613 Y95.011
X-231.55 Y95.054
X-231.401 Y95.144
X-231.325 Y95.185
X-231.245 Y95.216
X-231.085 Y95.269
X-231.003 Y95.291
X-230.919 Y95.303
X-230.75 Y95.319
X-230.681 Y95.322
X-196.217 Y95.321
X-196.153 Y95.318
X-196.089 Y95.31
X-195.927 Y95.281
X-195.85 Y95.264
X-195.774 Y95.238
X-195.632 Y95.18
X-195.562 Y95.148
X-195.496 Y95.108
X-195.369 Y95.023
X-195.311 Y94.98
X-195.257 Y94.932
X-195.162 Y94.837
X-195.11 Y94.78
X-195.064 Y94.717
X-194.967 Y94.57
X-194.924 Y94.495
X-194.89 Y94.417
X-194.832 Y94.259
X-194.808 Y94.18
X-194.792 Y94.098
X-194.771 Y93.936
X-194.764 Y93.838
X-194.761 Y89.044
X-24.055 Y89.039
X-23.971 Y89.035
X-23.888 Y89.021
X-23.727 Y88.984
X-23.645 Y88.96
X-23.566 Y88.927
X-23.407 Y88.85
X-23.339 Y88.812
X-23.275 Y88.767
X-23.169 Y88.685
X-23.113 Y88.637
X-23.063 Y88.584
X-22.96 Y88.465
X-22.908 Y88.399
X-22.864 Y88.327
X-22.78 Y88.168
X-22.744 Y88.09
X-22.717 Y88.008
X-22.675 Y87.85
X-22.654 Y87.743
X-22.648 Y87.691
X-22.643 Y87.604
X-22.641 Y76.358
X15.493
X15.908 Y76.379
X15.946 Y76.38
X20.406
Y76.483
X15.965 Y76.48
X15.55 Y76.459
X15.512 Y76.458
X-21.124 Y76.462
X-21.208 Y76.467
X-21.29 Y76.481
X-21.453 Y76.518
X-21.536 Y76.542
X-21.616 Y76.575
X-21.777 Y76.654
X-21.845 Y76.692
X-21.909 Y76.736
X-22.014 Y76.818
X-22.064 Y76.861
X-22.11 Y76.907
X-22.196 Y77.003
X-22.24 Y77.056
X-22.279 Y77.113
X-22.355 Y77.239
X-22.393 Y77.309
X-22.424 Y77.383
X-22.48 Y77.545
X-22.504 Y77.626
X-22.518 Y77.709
X-22.536 Y77.872
X-22.541 Y77.956
Y89.144
X-193.231 Y89.147
X-193.306 Y89.151
X-193.381 Y89.162
X-193.543 Y89.195
X-193.627 Y89.217
X-193.707 Y89.249
X-193.869 Y89.324
X-193.939 Y89.36
X-194.004 Y89.404
X-194.113 Y89.484
X-194.17 Y89.532
X-194.223 Y89.585
X-194.332 Y89.707
X-194.378 Y89.763
X-194.418 Y89.824
X-194.483 Y89.932
X-194.518 Y89.997
X-194.546 Y90.066
X-194.603 Y90.228
X-194.626 Y90.309
X-194.641 Y90.392
X-194.659 Y90.554
X-194.664 Y90.64
Y95.422
X-194.981
X-195.006 Y95.419 Z-2.993
X-195.029 Y95.41 Z-2.987
X-195.058 Y95.387 Z-2.95
X-195.066 Y95.376 Z-2.9
G0 Z4
X-194.897
Z2
G1 Z-1 F333.3
Z-3.9
X-194.905 Y95.387 Z-3.95
X-194.934 Y95.41 Z-3.987
X-194.957 Y95.419 Z-3.993
X-194.981 Y95.422 Z-4
X-232.298 F700
Y89.261
X-232.26 Y89.095
X-232.252 Y89.085
X-232.241
X-232.199 Y89.264
X-232.195 Y93.893
X-232.191 Y93.969
X-232.179 Y94.044
X-232.146 Y94.207
X-232.126 Y94.284
X-232.097 Y94.358
X-232.036 Y94.496
X-232 Y94.567
X-231.958 Y94.633
X-231.861 Y94.766
X-231.815 Y94.823
X-231.764 Y94.876
X-231.671 Y94.962
X-231.613 Y95.011
X-231.55 Y95.054
X-231.401 Y95.144
X-231.325 Y95.185
X-231.245 Y95.216
X-231.085 Y95.269
X-231.003 Y95.291
X-230.919 Y95.303
X-230.75 Y95.319
X-230.681 Y95.322
X-196.217 Y95.321
X-196.153 Y95.318
X-196.089 Y95.31
X-195.927 Y95.281
X-195.85 Y95.264
X-195.774 Y95.238
X-195.632 Y95.18
X-195.562 Y95.148
X-195.496 Y95.108
X-195.369 Y95.023
X-195.311 Y94.98
X-195.257 Y94.932
X-195.162 Y94.837
X-195.11 Y94.78
X-195.064 Y94.717
X-194.967 Y94.57
X-194.924 Y94.495
X-194.89 Y94.417
X-194.832 Y94.259
X-194.808 Y94.18
X-194.792 Y94.098
X-194.771 Y93.936
X-194.764 Y93.838
X-194.761 Y89.044
X-24.055 Y89.039
X-23.971 Y89.035
X-23.888 Y89.021
X-23.727 Y88.984
X-23.645 Y88.96
X-23.566 Y88.927
X-23.407 Y88.85
X-23.339 Y88.812
X-23.275 Y88.767
X-23.169 Y88.685
X-23.113 Y88.637
X-23.063 Y88.584
X-22.96 Y88.465
X-22.908 Y88.399
X-22.864 Y88.327
X-22.78 Y88.168
X-22.744 Y88.09
X-22.717 Y88.008
X-22.675 Y87.85
X-22.654 Y87.743
X-22.648 Y87.691
X-22.643 Y87.604
X-22.641 Y76.358
X15.493
X15.908 Y76.379
X15.946 Y76.38
X20.406
Y76.483
X15.965 Y76.48
X15.55 Y76.459
X15.512 Y76.458
X-21.124 Y76.462
X-21.208 Y76.467
X-21.29 Y76.481
X-21.453 Y76.518
X-21.536 Y76.542
X-21.616 Y76.575
X-21.777 Y76.654
X-21.845 Y76.692
X-21.909 Y76.736
X-22.014 Y76.818
X-22.064 Y76.861
X-22.11 Y76.907
X-22.196 Y77.003
X-22.24 Y77.056
X-22.279 Y77.113
X-22.355 Y77.239
X-22.393 Y77.309
X-22.424 Y77.383
X-22.48 Y77.545
X-22.504 Y77.626
X-22.518 Y77.709
X-22.536 Y77.872
X-22.541 Y77.956
Y89.144
X-193.231 Y89.147
X-193.306 Y89.151
X-193.381 Y89.162
X-193.543 Y89.195
X-193.627 Y89.217
X-193.707 Y89.249
X-193.869 Y89.324
X-193.939 Y89.36
X-194.004 Y89.404
X-194.113 Y89.484
X-194.17 Y89.532
X-194.223 Y89.585
X-194.332 Y89.707
X-194.378 Y89.763
X-194.418 Y89.824
X-194.483 Y89.932
X-194.518 Y89.997
X-194.546 Y90.066
X-194.603 Y90.228
X-194.626 Y90.309
X-194.641 Y90.392
X-194.659 Y90.554
X-194.664 Y90.64
Y95.422
X-194.981
X-195.006 Y95.419 Z-3.993
X-195.029 Y95.41 Z-3.987
X-195.058 Y95.387 Z-3.95
X-195.066 Y95.376 Z-3.9
G0 Z4
X-194.897
G1 Z-2 F333.3
Z-4.9
X-194.905 Y95.387 Z-4.95
X-194.934 Y95.41 Z-4.987
X-194.957 Y95.419 Z-4.993
X-194.981 Y95.422 Z-5
X-232.298 F700
Y89.261
X-232.26 Y89.095
X-232.252 Y89.085
X-232.199 Y89.264
X-232.195 Y93.893
X-232.191 Y93.969
X-232.179 Y94.044
X-232.146 Y94.207
X-232.126 Y94.284
X-232.097 Y94.358
X-232.036 Y94.496
X-232 Y94.567
X-231.958 Y94.633
X-231.861 Y94.766
X-231.815 Y94.823
X-231.764 Y94.876
X-231.671 Y94.962
X-231.613 Y95.011
X-231.55 Y95.054
X-231.401 Y95.144
X-231.325 Y95.185
X-231.245 Y95.216
X-231.085 Y95.269
X-231.003 Y95.291
X-230.919 Y95.303
X-230.75 Y95.319
X-230.681 Y95.322
X-196.217 Y95.321
X-196.153 Y95.318
X-196.089 Y95.31
X-195.927 Y95.281
X-195.85 Y95.264
X-195.774 Y95.238
X-195.632 Y95.18
X-195.562 Y95.148
X-195.496 Y95.108
X-195.369 Y95.023
X-195.311 Y94.98
X-195.257 Y94.932
X-195.162 Y94.837
X-195.11 Y94.78
X-195.064 Y94.717
X-194.967 Y94.57
X-194.924 Y94.495
X-194.89 Y94.417
X-194.832 Y94.259
X-194.808 Y94.18
X-194.792 Y94.098
X-194.771 Y93.936
X-194.764 Y93.838
X-194.761 Y89.044
X-24.055 Y89.039
X-23.971 Y89.035
X-23.888 Y89.021
X-23.727 Y88.984
X-23.645 Y88.96
X-23.566 Y88.927
X-23.407 Y88.85
X-23.339 Y88.812
X-23.275 Y88.767
X-23.169 Y88.685
X-23.113 Y88.637
X-23.063 Y88.584
X-22.96 Y88.465
X-22.908 Y88.399
X-22.864 Y88.327
X-22.78 Y88.168
X-22.744 Y88.09
X-22.717 Y88.008
X-22.675 Y87.85
X-22.654 Y87.743
X-22.648 Y87.691
X-22.643 Y87.604
X-22.641 Y76.358
X15.493
X15.908 Y76.379
X15.946 Y76.38
X20.406
Y76.483
X15.965 Y76.48
X15.55 Y76.459
X15.512 Y76.458
X-21.124 Y76.462
X-21.208 Y76.467
X-21.29 Y76.481
X-21.453 Y76.518
X-21.536 Y76.542
X-21.616 Y76.575
X-21.777 Y76.654
X-21.845 Y76.692
X-21.909 Y76.736
X-22.014 Y76.818
X-22.064 Y76.861
X-22.11 Y76.907
X-22.196 Y77.003
X-22.24 Y77.056
X-22.279 Y77.113
X-22.355 Y77.239
X-22.393 Y77.309
X-22.424 Y77.383
X-22.48 Y77.545
X-22.504 Y77.626
X-22.518 Y77.709
X-22.536 Y77.872
X-22.541 Y77.956
Y89.144
X-193.231 Y89.147
X-193.306 Y89.151
X-193.381 Y89.162
X-193.543 Y89.195
X-193.627 Y89.217
X-193.707 Y89.249
X-193.869 Y89.324
X-193.939 Y89.36
X-194.004 Y89.404
X-194.113 Y89.484
X-194.17 Y89.532
X-194.223 Y89.585
X-194.332 Y89.707
X-194.378 Y89.763
X-194.418 Y89.824
X-194.483 Y89.932
X-194.518 Y89.997
X-194.546 Y90.066
X-194.603 Y90.228
X-194.626 Y90.309
X-194.641 Y90.392
X-194.659 Y90.554
X-194.664 Y90.64
Y95.422
X-194.981
X-195.006 Y95.419 Z-4.993
X-195.029 Y95.41 Z-4.987
X-195.058 Y95.387 Z-4.95
X-195.066 Y95.376 Z-4.9
G0 Z4
X-232.252 Y89.1
G1 Z-3 F333.3
Z-6
X-232.258 Y89.096 F700
X-232.256 Y89.086
X-232.244 Y89.084
X-232.238 Y89.089
X-232.239 Y89.098
X-232.245 Y89.105
X-232.252 Y89.1
Z-5.9
G0 Z4
X-232.241 Y89.092
G1 Z-4 F333.3
Z-6.5
X-232.239 Y89.098 F700
X-232.245 Y89.104
X-232.25
X-232.26 Y89.094
X-232.255 Y89.086
X-232.243 Y89.085
X-232.241 Y89.092
Z-6.4
G0 Z4
X-232.254 Y89.1
G1 Z-4.5 F333.3
Z-7.5
X-232.258 Y89.096 F700
X-232.257 Y89.089
X-232.25 Y89.085
X-232.24 Y89.089
X-232.239 Y89.098
X-232.244 Y89.103
X-232.251
X-232.254 Y89.1
X-232.258 Y89.096 Z-7.499
X-232.257 Y89.089 Z-7.497
X-232.25 Y89.085 Z-7.491
X-232.244 Y89.088 Z-7.482
X-232.243 Z-7.471
G0 Z4
X-232.248 Y89.089
G1 Z-5.5 F333.3
Z-8.5
X-232.238 Y89.09 F700
X-232.239 Y89.097
X-232.243 Y89.102
X-232.252
X-232.259 Y89.095
X-232.258 Y89.088
X-232.248 Y89.089
Z-8.4
G0 Z4
X-232.25 Y89.087
G1 Z-6.5 F333.3
Z-9.5
X-232.246 Y89.086 F700
X-232.239 Y89.094
X-232.24 Y89.101
X-232.25 Y89.102
X-232.257 Y89.098
X-232.255 Y89.088
X-232.25 Y89.087
Z-9.4
G0 Z4
Y89.092
G1 Z-7.5 F333.3
Z-10.5
X-232.241 Y89.095 F700
X-232.256 Y89.101
Y89.091
X-232.25 Y89.092
Z-10.4
G0 Z4
X-232.251 Y89.095
G1 Z-8.5 F333.3
Z-11.5
X-232.241 F700
X-232.254 Y89.1
X-232.257 Y89.095
X-232.251
Z-11.4
G0 Z4
X-232.252 Y89.094
G1 Z-9.5 F333.3
Z-12.5
Y89.089 F700
X-232.241 Y89.095
X-232.251 Y89.099
X-232.252 Y89.094
Z-12.4
G0 Z4
X-232.25 Y89.091
G1 Z-10.5 F333.3
Z-13.5
X-232.243 Y89.093 F700
X-232.253 Y89.098
X-232.255 Y89.09
X-232.25 Y89.091
Z-13.4
G0 Z4
X-232.247 Y89.089
G1 Z-12.5 F333.3
Z-15.5
Y89.09 F700
Y89.091
X-232.249 Y89.095
X-232.25 Y89.088
X-232.249
X-232.247 Y89.089
Z-15.4
Z-14.5
Z-17 F333.3
Y89.09 F700
Y89.091
X-232.249 Y89.095
X-232.25 Y89.088
X-232.249
X-232.247 Y89.089
Z-16.9
G0 Z4
X20.355 Y76.38
G1 Z-3 F333.3
Z-6
X20.406 F700
Y76.483
X15.973 Y76.48
X15.966 Y76.479
X15.851 Y76.429
X16.039 Y76.38
X20.355
X20.381 Z-5.996
X20.406 Z-5.986
Y76.406 Z-5.963
Y76.423 Z-5.934
Y76.429 Z-5.9
G0 Z4
X20.355 Y76.38
G1 Z-4 F333.3
Z-6.5
X20.406 F700
Y76.483
X16.029 Y76.48
X15.889 Y76.448
X15.854 Y76.433
X16.039 Y76.38
X20.355
X20.381 Z-6.496
X20.406 Z-6.486
Y76.406 Z-6.463
Y76.423 Z-6.434
Y76.429 Z-6.4
G0 Z4
X-189.372 Y107.923
Z2
G1 Z-0.9 F333.3
X-189.374 Y107.91 Z-0.95
X-189.37 Y107.874 Z-0.987
X-189.361 Y107.851 Z-0.993
X-189.345 Y107.831 Z-1
X-189.294 Y107.78 F700
X-189.245 Y107.726
X-189.202 Y107.666
X-189.113 Y107.533
X-189.071 Y107.461
X-189.037 Y107.385
X-188.975 Y107.222
X-188.949 Y107.142
X-188.933 Y107.059
X-188.911 Y106.896
X-188.904 Y106.793
X-188.903 Y96.472
X-13.526 Y96.471
X-13.464 Y96.469
X-13.402 Y96.461
X-13.239 Y96.434
X-13.156 Y96.415
X-13.075 Y96.387
X-12.913 Y96.319
X-12.845 Y96.287
X-12.781 Y96.249
X-12.68 Y96.181
X-12.628 Y96.142
X-12.579 Y96.099
X-12.481 Y96.005
X-12.434 Y95.956
X-12.392 Y95.903
X-12.314 Y95.795
X-12.272 Y95.729
X-12.236 Y95.66
X-12.164 Y95.497
X-12.134 Y95.417
X-12.113 Y95.333
X-12.082 Y95.171
X-12.072 Y95.101
X-12.069 Y95.031
X-12.067 Y82.358
X15.493
X15.908 Y82.379
X15.946 Y82.38
X20.406
Y82.487
X19.862 Y82.481
X19.854
X15.965 Y82.48
X15.55 Y82.459
X15.512 Y82.458
X8.999
X8.946 Y82.46
X8.564 Y82.486
X8.183 Y82.46
X8.13 Y82.458
X-10.541 Y82.461
X-10.62 Y82.466
X-10.698 Y82.478
X-10.863 Y82.513
X-10.947 Y82.537
X-11.028 Y82.57
X-11.19 Y82.647
X-11.259 Y82.684
X-11.324 Y82.729
X-11.431 Y82.811
X-11.485 Y82.856
X-11.535 Y82.907
X-11.633 Y83.018
X-11.683 Y83.08
X-11.726 Y83.147
X-11.81 Y83.295
X-11.846 Y83.367
X-11.873 Y83.443
X-11.918 Y83.588
X-11.935 Y83.651
X-11.946 Y83.716
X-11.96 Y83.824
X-11.966 Y83.918
X-11.967 Y96.572
X-187.37 Y96.575
X-187.444 Y96.579
X-187.518 Y96.59
X-187.681 Y96.623
X-187.765 Y96.645
X-187.845 Y96.677
X-188.008 Y96.751
X-188.084 Y96.791
X-188.154 Y96.84
X-188.284 Y96.94
X-188.34 Y96.988
X-188.391 Y97.041
X-188.477 Y97.141
X-188.517 Y97.191
X-188.553 Y97.245
X-188.618 Y97.354
X-188.654 Y97.42
X-188.682 Y97.489
X-188.74 Y97.651
X-188.761 Y97.719
X-188.775 Y97.788
X-188.792 Y97.897
X-188.799 Y97.954
X-188.801 Y98.012
X-188.803 Y108.372
X-217.388
X-217.923 Y105.327
X-217.824 Y105.309
X-217.514 Y107.072
X-217.489 Y107.171
X-217.452 Y107.289
X-217.43 Y107.348
X-217.403 Y107.406
X-217.343 Y107.521
X-217.309 Y107.579
X-217.27 Y107.635
X-217.182 Y107.747
X-217.137 Y107.801
X-217.086 Y107.849
X-216.983 Y107.941
X-216.925 Y107.987
X-216.864 Y108.027
X-216.729 Y108.105
X-216.657 Y108.142
X-216.58 Y108.171
X-216.418 Y108.223
X-216.337 Y108.243
X-216.255 Y108.255
X-216.092 Y108.269
X-216.027 Y108.272
X-190.355 Y108.271
X-190.289 Y108.268
X-190.224 Y108.259
X-190.061 Y108.23
X-189.978 Y108.211
X-189.897 Y108.181
X-189.734 Y108.112
X-189.665 Y108.078
X-189.599 Y108.037
X-189.49 Y107.961
X-189.438 Y107.92
X-189.389 Y107.875
X-189.345 Y107.831
X-189.326 Y107.816 Z-0.993
X-189.303 Y107.806 Z-0.987
X-189.267 Y107.802 Z-0.95
X-189.253 Y107.804 Z-0.9
G0 Z4
X-189.036 Y108.326
Z1
G1 Z-1.9 F333.3
X-189.044 Y108.337 Z-1.95
X-189.072 Y108.36 Z-1.987
X-189.096 Y108.369 Z-1.993
X-189.12 Y108.372 Z-2
X-217.388 F700
X-217.923 Y105.327
X-217.824 Y105.309
X-217.514 Y107.072
X-217.489 Y107.171
X-217.452 Y107.289
X-217.43 Y107.348
X-217.403 Y107.406
X-217.343 Y107.521
X-217.309 Y107.579
X-217.27 Y107.635
X-217.182 Y107.747
X-217.137 Y107.801
X-217.086 Y107.849
X-216.983 Y107.941
X-216.925 Y107.987
X-216.864 Y108.027
X-216.729 Y108.105
X-216.657 Y108.142
X-216.58 Y108.171
X-216.418 Y108.223
X-216.337 Y108.243
X-216.255 Y108.255
X-216.092 Y108.269
X-216.027 Y108.272
X-190.355 Y108.271
X-190.289 Y108.268
X-190.224 Y108.259
X-190.061 Y108.23
X-189.978 Y108.211
X-189.897 Y108.181
X-189.734 Y108.112
X-189.665 Y108.078
X-189.599 Y108.037
X-189.49 Y107.961
X-189.438 Y107.92
X-189.389 Y107.875
X-189.294 Y107.78
X-189.245 Y107.726
X-189.202 Y107.666
X-189.113 Y107.533
X-189.071 Y107.461
X-189.037 Y107.385
X-188.975 Y107.222
X-188.949 Y107.142
X-188.933 Y107.059
X-188.911 Y106.896
X-188.904 Y106.793
X-188.903 Y96.472
X-13.526 Y96.471
X-13.464 Y96.469
X-13.402 Y96.461
X-13.239 Y96.434
X-13.156 Y96.415
X-13.075 Y96.387
X-12.913 Y96.319
X-12.845 Y96.287
X-12.781 Y96.249
X-12.68 Y96.181
X-12.628 Y96.142
X-12.579 Y96.099
X-12.481 Y96.005
X-12.434 Y95.956
X-12.392 Y95.903
X-12.314 Y95.795
X-12.272 Y95.729
X-12.236 Y95.66
X-12.164 Y95.497
X-12.134 Y95.417
X-12.113 Y95.333
X-12.082 Y95.171
X-12.072 Y95.101
X-12.069 Y95.031
X-12.067 Y82.358
X15.493
X15.908 Y82.379
X15.946 Y82.38
X20.406
Y82.487
X19.862 Y82.481
X19.854
X15.965 Y82.48
X15.55 Y82.459
X15.512 Y82.458
X8.999
X8.949 Y82.459
X8.564 Y82.485
X8.18 Y82.459
X8.13 Y82.458
X-10.541 Y82.461
X-10.62 Y82.466
X-10.698 Y82.478
X-10.863 Y82.513
X-10.947 Y82.537
X-11.028 Y82.57
X-11.19 Y82.647
X-11.259 Y82.684
X-11.324 Y82.729
X-11.431 Y82.811
X-11.485 Y82.856
X-11.535 Y82.907
X-11.633 Y83.018
X-11.683 Y83.08
X-11.726 Y83.147
X-11.81 Y83.295
X-11.846 Y83.367
X-11.873 Y83.443
X-11.918 Y83.588
X-11.935 Y83.651
X-11.946 Y83.716
X-11.96 Y83.824
X-11.966 Y83.918
X-11.967 Y96.572
X-187.37 Y96.575
X-187.444 Y96.579
X-187.518 Y96.59
X-187.681 Y96.623
X-187.765 Y96.645
X-187.845 Y96.677
X-188.008 Y96.751
X-188.084 Y96.791
X-188.154 Y96.84
X-188.284 Y96.94
X-188.34 Y96.988
X-188.391 Y97.041
X-188.477 Y97.141
X-188.517 Y97.191
X-188.553 Y97.245
X-188.618 Y97.354
X-188.654 Y97.42
X-188.682 Y97.489
X-188.74 Y97.651
X-188.761 Y97.719
X-188.775 Y97.788
X-188.792 Y97.897
X-188.799 Y97.954
X-188.801 Y98.012
X-188.803 Y108.372
X-189.12
X-189.145 Y108.369 Z-1.993
X-189.168 Y108.36 Z-1.987
X-189.196 Y108.337 Z-1.95
X-189.204 Y108.326 Z-1.9
G0 Z4
X-189.372 Y107.923
Z0
G1 Z-2.9 F333.3
X-189.374 Y107.91 Z-2.95
X-189.37 Y107.874 Z-2.987
X-189.361 Y107.851 Z-2.993
X-189.345 Y107.831 Z-3
X-189.294 Y107.78 F700
X-189.245 Y107.726
X-189.202 Y107.666
X-189.113 Y107.533
X-189.071 Y107.461
X-189.037 Y107.385
X-188.975 Y107.222
X-188.949 Y107.142
X-188.933 Y107.059
X-188.911 Y106.896
X-188.904 Y106.793
X-188.903 Y96.472
X-13.526 Y96.471
X-13.464 Y96.469
X-13.402 Y96.461
X-13.239 Y96.434
X-13.156 Y96.415
X-13.075 Y96.387
X-12.913 Y96.319
X-12.845 Y96.287
X-12.781 Y96.249
X-12.68 Y96.181
X-12.628 Y96.142
X-12.579 Y96.099
X-12.481 Y96.005
X-12.434 Y95.956
X-12.392 Y95.903
X-12.314 Y95.795
X-12.272 Y95.729
X-12.236 Y95.66
X-12.164 Y95.497
X-12.134 Y95.417
X-12.113 Y95.333
X-12.082 Y95.171
X-12.072 Y95.101
X-12.069 Y95.031
X-12.067 Y82.358
X15.493
X15.908 Y82.379
X15.946 Y82.38
X20.406
Y82.487
X19.862 Y82.481
X19.854
X15.965 Y82.48
X15.55 Y82.459
X15.512 Y82.458
X8.999
X8.953 Y82.459
X8.564 Y82.483
X8.176 Y82.459
X8.13 Y82.458
X-10.541 Y82.461
X-10.62 Y82.466
X-10.698 Y82.478
X-10.863 Y82.513
X-10.947 Y82.537
X-11.028 Y82.57
X-11.19 Y82.647
X-11.259 Y82.684
X-11.324 Y82.729
X-11.431 Y82.811
X-11.485 Y82.856
X-11.535 Y82.907
X-11.633 Y83.018
X-11.683 Y83.08
X-11.726 Y83.147
X-11.81 Y83.295
X-11.846 Y83.367
X-11.873 Y83.443
X-11.918 Y83.588
X-11.935 Y83.651
X-11.946 Y83.716
X-11.96 Y83.824
X-11.966 Y83.918
X-11.967 Y96.572
X-187.37 Y96.575
X-187.444 Y96.579
X-187.518 Y96.59
X-187.681 Y96.623
X-187.765 Y96.645
X-187.845 Y96.677
X-188.008 Y96.751
X-188.084 Y96.791
X-188.154 Y96.84
X-188.284 Y96.94
X-188.34 Y96.988
X-188.391 Y97.041
X-188.477 Y97.141
X-188.517 Y97.191
X-188.553 Y97.245
X-188.618 Y97.354
X-188.654 Y97.42
X-188.682 Y97.489
X-188.74 Y97.651
X-188.761 Y97.719
X-188.775 Y97.788
X-188.792 Y97.897
X-188.799 Y97.954
X-188.801 Y98.012
X-188.803 Y108.372
X-217.388
X-217.923 Y105.327
X-217.824 Y105.309
X-217.514 Y107.072
X-217.489 Y107.171
X-217.452 Y107.289
X-217.43 Y107.348
X-217.403 Y107.406
X-217.343 Y107.521
X-217.309 Y107.579
X-217.27 Y107.635
X-217.182 Y107.747
X-217.137 Y107.801
X-217.086 Y107.849
X-216.983 Y107.941
X-216.925 Y107.987
X-216.864 Y108.027
X-216.729 Y108.105
X-216.657 Y108.142
X-216.58 Y108.171
X-216.418 Y108.223
X-216.337 Y108.243
X-216.255 Y108.255
X-216.092 Y108.269
X-216.027 Y108.272
X-190.355 Y108.271
X-190.289 Y108.268
X-190.224 Y108.259
X-190.061 Y108.23
X-189.978 Y108.211
X-189.897 Y108.181
X-189.734 Y108.112
X-189.665 Y108.078
X-189.599 Y108.037
X-189.49 Y107.961
X-189.438 Y107.92
X-189.389 Y107.875
X-189.345 Y107.831
X-189.326 Y107.816 Z-2.993
X-189.303 Y107.806 Z-2.987
X-189.267 Y107.802 Z-2.95
X-189.253 Y107.804 Z-2.9
G0 Z4
X-189.036 Y108.326
Z2
G1 Z-1 F333.3
Z-3.9
X-189.044 Y108.337 Z-3.95
X-189.072 Y108.36 Z-3.987
X-189.096 Y108.369 Z-3.993
X-189.12 Y108.372 Z-4
X-217.388 F700
X-217.923 Y105.327
X-217.824 Y105.309
X-217.514 Y107.072
X-217.489 Y107.171
X-217.452 Y107.289
X-217.43 Y107.348
X-217.403 Y107.406
X-217.343 Y107.521
X-217.309 Y107.579
X-217.27 Y107.635
X-217.182 Y107.747
X-217.137 Y107.801
X-217.086 Y107.849
X-216.983 Y107.941
X-216.925 Y107.987
X-216.864 Y108.027
X-216.729 Y108.105
X-216.657 Y108.142
X-216.58 Y108.171
X-216.418 Y108.223
X-216.337 Y108.243
X-216.255 Y108.255
X-216.092 Y108.269
X-216.027 Y108.272
X-190.355 Y108.271
X-190.289 Y108.268
X-190.224 Y108.259
X-190.061 Y108.23
X-189.978 Y108.211
X-189.897 Y108.181
X-189.734 Y108.112
X-189.665 Y108.078
X-189.599 Y108.037
X-189.49 Y107.961
X-189.438 Y107.92
X-189.389 Y107.875
X-189.294 Y107.78
X-189.245 Y107.726
X-189.202 Y107.666
X-189.113 Y107.533
X-189.071 Y107.461
X-189.037 Y107.385
X-188.975 Y107.222
X-188.949 Y107.142
X-188.933 Y107.059
X-188.911 Y106.896
X-188.904 Y106.793
X-188.903 Y96.472
X-13.526 Y96.471
X-13.464 Y96.469
X-13.402 Y96.461
X-13.239 Y96.434
X-13.156 Y96.415
X-13.075 Y96.387
X-12.913 Y96.319
X-12.845 Y96.287
X-12.781 Y96.249
X-12.68 Y96.181
X-12.628 Y96.142
X-12.579 Y96.099
X-12.481 Y96.005
X-12.434 Y95.956
X-12.392 Y95.903
X-12.314 Y95.795
X-12.272 Y95.729
X-12.236 Y95.66
X-12.164 Y95.497
X-12.134 Y95.417
X-12.113 Y95.333
X-12.082 Y95.171
X-12.072 Y95.101
X-12.069 Y95.031
X-12.067 Y82.358
X15.493
X15.908 Y82.379
X15.946 Y82.38
X20.406
Y82.487
X19.862 Y82.481
X19.854
X15.965 Y82.48
X15.55 Y82.459
X15.512 Y82.458
X8.999
X8.956 Y82.459
X8.564 Y82.481
X8.173 Y82.459
X8.13 Y82.458
X-10.541 Y82.461
X-10.62 Y82.466
X-10.698 Y82.478
X-10.863 Y82.513
X-10.947 Y82.537
X-11.028 Y82.57
X-11.19 Y82.647
X-11.259 Y82.684
X-11.324 Y82.729
X-11.431 Y82.811
X-11.485 Y82.856
X-11.535 Y82.907
X-11.633 Y83.018
X-11.683 Y83.08
X-11.726 Y83.147
X-11.81 Y83.295
X-11.846 Y83.367
X-11.873 Y83.443
X-11.918 Y83.588
X-11.935 Y83.651
X-11.946 Y83.716
X-11.96 Y83.824
X-11.966 Y83.918
X-11.967 Y96.572
X-187.37 Y96.575
X-187.444 Y96.579
X-187.518 Y96.59
X-187.681 Y96.623
X-187.765 Y96.645
X-187.845 Y96.677
X-188.008 Y96.751
X-188.084 Y96.791
X-188.154 Y96.84
X-188.284 Y96.94
X-188.34 Y96.988
X-188.391 Y97.041
X-188.477 Y97.141
X-188.517 Y97.191
X-188.553 Y97.245
X-188.618 Y97.354
X-188.654 Y97.42
X-188.682 Y97.489
X-188.74 Y97.651
X-188.761 Y97.719
X-188.775 Y97.788
X-188.792 Y97.897
X-188.799 Y97.954
X-188.801 Y98.012
X-188.803 Y108.372
X-189.12
X-189.145 Y108.369 Z-3.993
X-189.168 Y108.36 Z-3.987
X-189.196 Y108.337 Z-3.95
X-189.204 Y108.326 Z-3.9
G0 Z4
X-189.036
G1 Z-2 F333.3
Z-4.9
X-189.044 Y108.337 Z-4.95
X-189.072 Y108.36 Z-4.987
X-189.096 Y108.369 Z-4.993
X-189.12 Y108.372 Z-5
X-217.388 F700
X-217.923 Y105.327
X-217.824 Y105.309
X-217.514 Y107.072
X-217.489 Y107.171
X-217.452 Y107.289
X-217.43 Y107.348
X-217.403 Y107.406
X-217.343 Y107.521
X-217.309 Y107.579
X-217.27 Y107.635
X-217.182 Y107.747
X-217.137 Y107.801
X-217.086 Y107.849
X-216.983 Y107.941
X-216.925 Y107.987
X-216.864 Y108.027
X-216.729 Y108.105
X-216.657 Y108.142
X-216.58 Y108.171
X-216.418 Y108.223
X-216.337 Y108.243
X-216.255 Y108.255
X-216.092 Y108.269
X-216.027 Y108.272
X-190.355 Y108.271
X-190.289 Y108.268
X-190.224 Y108.259
X-190.061 Y108.23
X-189.978 Y108.211
X-189.897 Y108.181
X-189.734 Y108.112
X-189.665 Y108.078
X-189.599 Y108.037
X-189.49 Y107.961
X-189.438 Y107.92
X-189.389 Y107.875
X-189.294 Y107.78
X-189.245 Y107.726
X-189.202 Y107.666
X-189.113 Y107.533
X-189.071 Y107.461
X-189.037 Y107.385
X-188.975 Y107.222
X-188.949 Y107.142
X-188.933 Y107.059
X-188.911 Y106.896
X-188.904 Y106.793
X-188.903 Y96.472
X-13.526 Y96.471
X-13.464 Y96.469
X-13.402 Y96.461
X-13.239 Y96.434
X-13.156 Y96.415
X-13.075 Y96.387
X-12.913 Y96.319
X-12.845 Y96.287
X-12.781 Y96.249
X-12.68 Y96.181
X-12.628 Y96.142
X-12.579 Y96.099
X-12.481 Y96.005
X-12.434 Y95.956
X-12.392 Y95.903
X-12.314 Y95.795
X-12.272 Y95.729
X-12.236 Y95.66
X-12.164 Y95.497
X-12.134 Y95.417
X-12.113 Y95.333
X-12.082 Y95.171
X-12.072 Y95.101
X-12.069 Y95.031
X-12.067 Y82.358
X8.13
X15.493
X15.908 Y82.379
X15.946 Y82.38
X20.406
Y82.487
X19.862 Y82.481
X19.854
X15.965 Y82.48
X15.55 Y82.459
X15.512 Y82.458
X8.999
X8.961 Y82.459
X8.564 Y82.479
X8.168 Y82.459
X8.13 Y82.458
X-10.541 Y82.461
X-10.62 Y82.466
X-10.698 Y82.478
X-10.863 Y82.513
X-10.947 Y82.537
X-11.028 Y82.57
X-11.19 Y82.647
X-11.259 Y82.684
X-11.324 Y82.729
X-11.431 Y82.811
X-11.485 Y82.856
X-11.535 Y82.907
X-11.633 Y83.018
X-11.683 Y83.08
X-11.726 Y83.147
X-11.81 Y83.295
X-11.846 Y83.367
X-11.873 Y83.443
X-11.918 Y83.588
X-11.935 Y83.651
X-11.946 Y83.716
X-11.96 Y83.824
X-11.966 Y83.918
X-11.967 Y96.572
X-187.37 Y96.575
X-187.444 Y96.579
X-187.518 Y96.59
X-187.681 Y96.623
X-187.765 Y96.645
X-187.845 Y96.677
X-188.008 Y96.751
X-188.084 Y96.791
X-188.154 Y96.84
X-188.284 Y96.94
X-188.34 Y96.988
X-188.391 Y97.041
X-188.477 Y97.141
X-188.517 Y97.191
X-188.553 Y97.245
X-188.618 Y97.354
X-188.654 Y97.42
X-188.682 Y97.489
X-188.74 Y97.651
X-188.761 Y97.719
X-188.775 Y97.788
X-188.792 Y97.897
X-188.799 Y97.954
X-188.801 Y98.012
X-188.803 Y108.372
X-189.12
X-189.145 Y108.369 Z-4.993
X-189.168 Y108.36 Z-4.987
X-189.196 Y108.337 Z-4.95
X-189.204 Y108.326 Z-4.9
G0 Z4
X-217.349 Y108.323
G1 Z-3 F333.3
Z-6
Y108.319 F700
X-217.35 Y108.327
X-217.349 Y108.323
Z-5.9
Z-4
Z-6.5 F333.3
Y108.319 F700
X-217.35 Y108.327
X-217.349 Y108.323
Z-6.4
Z-4.5
Z-7.5 F333.3
X-217.35 Y108.327 F700
X-217.349 Y108.319
Y108.323
X-217.35 Y108.327 Z-7.499
X-217.349 Y108.323 Z-7.492
G0 Z4
X-217.348
G1 Z-6.5 F333.3
Z-9.5
X-217.347 Y108.321 F700
X-217.35 Y108.327
X-217.348 Y108.323
Z-9.4
G0 Z4
X-217.344 Y108.325
G1 Z-7.5 F333.3
Z-10.5
X-217.345 Y108.326 F700
X-217.346
X-217.348 Y108.324
X-217.346 Y108.321
X-217.345
X-217.343 Y108.323
X-217.344 Y108.325
Z-10.4
G0 Z4
X-217.345 Y108.323
G1 Z-12.5 F333.3
Z-15.5
X-217.344 F700
X-217.343
X-217.344 Y108.325
X-217.345 Y108.326
X-217.346
X-217.349 Y108.323
X-217.345
Z-15.4
Z-14.5
Z-17 F333.3
X-217.344 F700
X-217.343
X-217.344 Y108.325
X-217.345 Y108.326
X-217.346
X-217.349 Y108.323
X-217.345
Z-16.9
G0 Z4
X8.622 Y82.443
G1 Z-3 F333.3
Z-6
X8.623 Y82.448 F700
X8.617 Y82.442
X8.621 Y82.438
X8.622 Y82.443
Z-5.9
G0 Z4
G1 Z-4 F333.3
Z-6.5
X8.624 Y82.448 F700
X8.617 Y82.442
X8.621 Y82.438
X8.622 Y82.443
Z-6.4
G0 Z4
G1 Z-4.5 F333.3
Z-7.5
X8.623 Y82.448 F700
X8.617 Y82.442
X8.621 Y82.438
X8.622 Y82.443
Z-7.4
Z-5.5
Z-8.5 F333.3
X8.623 Y82.448 F700
X8.617 Y82.442
X8.621 Y82.438
X8.622 Y82.443
Z-8.4
G0 Z4
X8.625 Y82.444
G1 Z-6.5 F333.3
Z-9.5
X8.624 Y82.448 F700
X8.617 Y82.442
X8.621 Y82.438
X8.626 Y82.44
X8.625 Y82.444
Z-9.4
G0 Z4
X8.624 Y82.442
G1 Z-8.5 F333.3
Z-11.5
X8.626 Y82.443 F700
X8.621 Y82.44
X8.624 Y82.442
Z-11.4
G0 Z4
X8.623 Y82.439
G1 Z-9.5 F333.3
Z-12.5
X8.625 Y82.44 F700
X8.626
Y82.442
X8.623 Y82.446
X8.621 Y82.447
X8.618 Y82.443
X8.619 Y82.44
X8.621 Y82.439
X8.623
Z-12.4
Z-10.5
Z-13.5 F333.3
X8.625 Y82.44 F700
X8.626
Y82.442
X8.623 Y82.446
X8.621 Y82.447
X8.618 Y82.443
X8.619 Y82.44
X8.621 Y82.439
X8.623
Z-13.4
Z-11.5
Z-14.5 F333.3
X8.625 Y82.44 F700
X8.626
Y82.442
X8.623 Y82.446
X8.621 Y82.447
X8.618 Y82.443
X8.619 Y82.44
X8.621 Y82.439
X8.623
Z-14.4
Z-12.5
Z-15.5 F333.3
X8.625 Y82.44 F700
X8.626
Y82.442
X8.623 Y82.446
X8.621 Y82.447
X8.618 Y82.443
X8.619 Y82.44
X8.621 Y82.439
X8.623
Z-15.4
Z-13.5
Z-16.5 F333.3
X8.625 Y82.44 F700
X8.626
Y82.442
X8.623 Y82.446
X8.621 Y82.447
X8.618 Y82.443
X8.619 Y82.44
X8.621 Y82.439
X8.623
Z-16.4
Z-14.5
Z-17 F333.3
X8.625 Y82.44 F700
X8.626
Y82.442
X8.623 Y82.446
X8.621 Y82.447
X8.618 Y82.443
X8.619 Y82.44
X8.621 Y82.439
X8.623
Z-16.9
G0 Z4
X20.406 Y82.433
G1 Z-3 F333.3
Z-6
Y82.487 F700
X19.862 Y82.481
X19.854
X15.972 Y82.48
X15.959 Y82.477
X15.851 Y82.43
X16.042 Y82.38
X20.406
Y82.433
Y82.461 Z-5.996
Y82.487 Z-5.984
X20.381 Z-5.962
X20.365 Y82.486 Z-5.933
X20.36 Z-5.9
G0 Z4
X20.406 Y82.433
G1 Z-4 F333.3
Z-6.5
Y82.487 F700
X19.862 Y82.481
X19.854
X16.028 Y82.48
X15.904 Y82.453
X15.854 Y82.431
X16.039 Y82.38
X20.406
Y82.433
Y82.461 Z-6.496
Y82.487 Z-6.484
X20.381 Z-6.462
X20.365 Y82.486 Z-6.433
X20.36 Z-6.4
G0 Z4
X-181.205 Y104.176
Z2
G1 Z-0.9 F333.3
X-181.203 Y104.189 Z-0.95
X-181.207 Y104.225 Z-0.987
X-181.217 Y104.248 Z-0.993
X-181.233 Y104.267 Z-1
X-181.272 Y104.305 F700
X-181.32 Y104.357
X-181.363 Y104.413
X-181.439 Y104.521
X-181.479 Y104.587
X-181.513 Y104.656
X-181.583 Y104.819
X-181.611 Y104.9
X-181.631 Y104.983
X-181.66 Y105.145
X-181.668 Y105.209
X-181.671 Y105.274
X-181.677 Y108.171
X-181.712 Y108.326
X-181.724 Y108.332
X-181.732 Y108.328
X-181.771 Y108.162
X-181.772 Y103.722
X-7.936 Y103.832
X7.695 Y103.856
X7.774 Y103.852
X7.853 Y103.839
X8.016 Y103.804
X8.1 Y103.781
X8.18 Y103.749
X8.343 Y103.672
X8.413 Y103.634
X8.478 Y103.589
X8.587 Y103.506
X8.642 Y103.459
X8.693 Y103.406
X8.807 Y103.277
X8.833 Y103.246
X15.679 Y94.551
X15.809 Y94.426
X15.831 Y94.406
X15.839 Y94.402
X15.997 Y94.38
X20.406
Y94.481
X20.396
X16.543 Y94.482
X16.478 Y94.485
X16.413 Y94.493
X16.25 Y94.522
X16.174 Y94.539
X16.099 Y94.565
X15.961 Y94.621
X15.889 Y94.654
X15.821 Y94.695
X15.683 Y94.789
X15.625 Y94.833
X15.571 Y94.882
X15.483 Y94.97
X15.427 Y95.034
X9.145 Y103.014
X9.11 Y103.062
X9.079 Y103.113
X9.007 Y103.242
X8.973 Y103.31
X8.947 Y103.382
X8.899 Y103.533
X8.882 Y103.598
X8.871 Y103.664
X8.857 Y103.772
X8.851 Y103.864
Y103.962
X-17.487 Y103.922
X-180.205 Y103.824
X-180.263 Y103.826
X-180.32 Y103.833
X-180.483 Y103.858
X-180.566 Y103.876
X-180.647 Y103.903
X-180.81 Y103.968
X-180.879 Y104
X-180.945 Y104.039
X-181.054 Y104.111
X-181.11 Y104.153
X-181.163 Y104.199
X-181.233 Y104.267
X-181.253 Y104.282 Z-0.993
X-181.276 Y104.292 Z-0.987
X-181.312 Y104.295 Z-0.95
X-181.325 Y104.293 Z-0.9
G0 Z4
X-181.205 Y104.176
Z1
G1 Z-1.9 F333.3
X-181.203 Y104.189 Z-1.95
X-181.207 Y104.225 Z-1.987
X-181.217 Y104.248 Z-1.993
X-181.233 Y104.267 Z-2
X-181.272 Y104.305 F700
X-181.32 Y104.357
X-181.363 Y104.413
X-181.439 Y104.521
X-181.479 Y104.587
X-181.513 Y104.656
X-181.583 Y104.819
X-181.611 Y104.9
X-181.631 Y104.983
X-181.66 Y105.145
X-181.668 Y105.209
X-181.671 Y105.274
X-181.677 Y108.171
X-181.712 Y108.326
X-181.724 Y108.332
X-181.732 Y108.328
X-181.771 Y108.162
X-181.772 Y103.722
X-7.936 Y103.832
X7.695 Y103.856
X7.774 Y103.852
X7.853 Y103.839
X8.016 Y103.804
X8.1 Y103.781
X8.18 Y103.749
X8.343 Y103.672
X8.413 Y103.634
X8.478 Y103.589
X8.587 Y103.506
X8.642 Y103.459
X8.693 Y103.406
X8.807 Y103.277
X8.833 Y103.246
X15.679 Y94.551
X15.8 Y94.435
X15.836 Y94.404
X15.841 Y94.401
X15.967 Y94.38
X20.406
Y94.481
X20.396
X16.543 Y94.482
X16.478 Y94.485
X16.413 Y94.493
X16.25 Y94.522
X16.174 Y94.539
X16.099 Y94.565
X15.961 Y94.621
X15.889 Y94.654
X15.821 Y94.695
X15.683 Y94.789
X15.625 Y94.833
X15.571 Y94.882
X15.483 Y94.97
X15.427 Y95.034
X9.145 Y103.014
X9.11 Y103.062
X9.079 Y103.113
X9.007 Y103.242
X8.973 Y103.31
X8.947 Y103.382
X8.899 Y103.533
X8.882 Y103.598
X8.871 Y103.664
X8.857 Y103.772
X8.851 Y103.864
Y103.962
X-17.487 Y103.922
X-180.205 Y103.824
X-180.263 Y103.826
X-180.32 Y103.833
X-180.483 Y103.858
X-180.566 Y103.876
X-180.647 Y103.903
X-180.81 Y103.968
X-180.879 Y104
X-180.945 Y104.039
X-181.054 Y104.111
X-181.11 Y104.153
X-181.163 Y104.199
X-181.233 Y104.267
X-181.253 Y104.282 Z-1.993
X-181.276 Y104.292 Z-1.987
X-181.312 Y104.295 Z-1.95
X-181.325 Y104.293 Z-1.9
G0 Z4
X-181.205 Y104.176
Z0
G1 Z-2.9 F333.3
X-181.203 Y104.189 Z-2.95
X-181.207 Y104.225 Z-2.987
X-181.217 Y104.248 Z-2.993
X-181.233 Y104.267 Z-3
X-181.272 Y104.305 F700
X-181.32 Y104.357
X-181.363 Y104.413
X-181.439 Y104.521
X-181.479 Y104.587
X-181.513 Y104.656
X-181.583 Y104.819
X-181.611 Y104.9
X-181.631 Y104.983
X-181.66 Y105.145
X-181.668 Y105.209
X-181.671 Y105.274
X-181.677 Y108.171
X-181.712 Y108.326
X-181.724 Y108.332
X-181.732 Y108.328
X-181.771 Y108.162
X-181.772 Y103.722
X-7.936 Y103.832
X7.695 Y103.856
X7.774 Y103.852
X7.853 Y103.839
X8.016 Y103.804
X8.1 Y103.781
X8.18 Y103.749
X8.343 Y103.672
X8.413 Y103.634
X8.478 Y103.589
X8.587 Y103.506
X8.642 Y103.459
X8.693 Y103.406
X8.807 Y103.277
X8.833 Y103.246
X15.677 Y94.554
X15.789 Y94.447
X15.84 Y94.406
X15.98 Y94.38
X20.406
Y94.481
X20.396
X16.543 Y94.482
X16.478 Y94.485
X16.413 Y94.493
X16.25 Y94.522
X16.174 Y94.539
X16.099 Y94.565
X15.961 Y94.621
X15.889 Y94.654
X15.821 Y94.695
X15.683 Y94.789
X15.625 Y94.833
X15.571 Y94.882
X15.483 Y94.97
X15.427 Y95.034
X9.145 Y103.014
X9.11 Y103.062
X9.079 Y103.113
X9.007 Y103.242
X8.973 Y103.31
X8.947 Y103.382
X8.899 Y103.533
X8.882 Y103.598
X8.871 Y103.664
X8.857 Y103.772
X8.851 Y103.864
Y103.962
X-17.487 Y103.922
X-180.205 Y103.824
X-180.263 Y103.826
X-180.32 Y103.833
X-180.483 Y103.858
X-180.566 Y103.876
X-180.647 Y103.903
X-180.81 Y103.968
X-180.879 Y104
X-180.945 Y104.039
X-181.054 Y104.111
X-181.11 Y104.153
X-181.163 Y104.199
X-181.233 Y104.267
X-181.253 Y104.282 Z-2.993
X-181.276 Y104.292 Z-2.987
X-181.312 Y104.295 Z-2.95
X-181.325 Y104.293 Z-2.9
G0 Z4
X-181.205 Y104.176
Z2
G1 Z-1 F333.3
Z-3.9
X-181.203 Y104.189 Z-3.95
X-181.207 Y104.225 Z-3.987
X-181.217 Y104.248 Z-3.993
X-181.233 Y104.267 Z-4
X-181.272 Y104.305 F700
X-181.32 Y104.357
X-181.363 Y104.413
X-181.439 Y104.521
X-181.479 Y104.587
X-181.513 Y104.656
X-181.583 Y104.819
X-181.611 Y104.9
X-181.631 Y104.983
X-181.66 Y105.145
X-181.668 Y105.209
X-181.671 Y105.274
X-181.677 Y108.171
X-181.712 Y108.326
X-181.724 Y108.332
X-181.732 Y108.328
X-181.771 Y108.162
X-181.772 Y103.722
X-7.936 Y103.832
X7.695 Y103.856
X7.774 Y103.852
X7.853 Y103.839
X8.016 Y103.804
X8.1 Y103.781
X8.18 Y103.749
X8.343 Y103.672
X8.413 Y103.634
X8.478 Y103.589
X8.587 Y103.506
X8.642 Y103.459
X8.693 Y103.406
X8.807 Y103.277
X8.833 Y103.246
X15.693 Y94.537
X15.846 Y94.409
X15.96 Y94.384
X20.406 Y94.38
Y94.481
X20.396
X16.543 Y94.482
X16.478 Y94.485
X16.413 Y94.493
X16.25 Y94.522
X16.174 Y94.539
X16.099 Y94.565
X15.961 Y94.621
X15.889 Y94.654
X15.821 Y94.695
X15.683 Y94.789
X15.625 Y94.833
X15.571 Y94.882
X15.483 Y94.97
X15.427 Y95.034
X9.145 Y103.014
X9.11 Y103.062
X9.079 Y103.113
X9.007 Y103.242
X8.973 Y103.31
X8.947 Y103.382
X8.899 Y103.533
X8.882 Y103.598
X8.871 Y103.664
X8.857 Y103.772
X8.851 Y103.864
Y103.962
X-17.487 Y103.922
X-180.205 Y103.824
X-180.263 Y103.826
X-180.32 Y103.833
X-180.483 Y103.858
X-180.566 Y103.876
X-180.647 Y103.903
X-180.81 Y103.968
X-180.879 Y104
X-180.945 Y104.039
X-181.054 Y104.111
X-181.11 Y104.153
X-181.163 Y104.199
X-181.233 Y104.267
X-181.253 Y104.282 Z-3.993
X-181.276 Y104.292 Z-3.987
X-181.312 Y104.295 Z-3.95
X-181.325 Y104.293 Z-3.9
G0 Z4
X-181.205 Y104.176
G1 Z-2 F333.3
Z-4.9
X-181.203 Y104.189 Z-4.95
X-181.207 Y104.225 Z-4.987
X-181.217 Y104.248 Z-4.993
X-181.233 Y104.267 Z-5
X-181.272 Y104.305 F700
X-181.32 Y104.357
X-181.363 Y104.413
X-181.439 Y104.521
X-181.479 Y104.587
X-181.513 Y104.656
X-181.583 Y104.819
X-181.611 Y104.9
X-181.631 Y104.983
X-181.66 Y105.145
X-181.668 Y105.209
X-181.671 Y105.274
X-181.677 Y108.171
X-181.712 Y108.326
X-181.716 Y108.331
X-181.721 Y108.333
X-181.732 Y108.328
X-181.771 Y108.162
X-181.772 Y103.722
X-7.936 Y103.832
X7.695 Y103.856
X7.774 Y103.852
X7.853 Y103.839
X8.016 Y103.804
X8.1 Y103.781
X8.18 Y103.749
X8.343 Y103.672
X8.413 Y103.634
X8.478 Y103.589
X8.587 Y103.506
X8.642 Y103.459
X8.693 Y103.406
X8.807 Y103.277
X8.833 Y103.246
X15.691 Y94.542
X15.855 Y94.411
X15.882 Y94.404
X15.97 Y94.384
X20.406 Y94.38
Y94.481
X20.396
X16.543 Y94.482
X16.478 Y94.485
X16.413 Y94.493
X16.25 Y94.522
X16.174 Y94.539
X16.099 Y94.565
X15.961 Y94.621
X15.889 Y94.654
X15.821 Y94.695
X15.683 Y94.789
X15.625 Y94.833
X15.571 Y94.882
X15.483 Y94.97
X15.427 Y95.034
X9.145 Y103.014
X9.11 Y103.062
X9.079 Y103.113
X9.007 Y103.242
X8.973 Y103.31
X8.947 Y103.382
X8.899 Y103.533
X8.882 Y103.598
X8.871 Y103.664
X8.857 Y103.772
X8.851 Y103.864
Y103.962
X-17.487 Y103.922
X-180.205 Y103.824
X-180.263 Y103.826
X-180.32 Y103.833
X-180.483 Y103.858
X-180.566 Y103.876
X-180.647 Y103.903
X-180.81 Y103.968
X-180.879 Y104
X-180.945 Y104.039
X-181.054 Y104.111
X-181.11 Y104.153
X-181.163 Y104.199
X-181.233 Y104.267
X-181.253 Y104.282 Z-4.993
X-181.276 Y104.292 Z-4.987
X-181.312 Y104.295 Z-4.95
X-181.325 Y104.293 Z-4.9
G0 Z4
X-181.727 Y108.316
G1 Z-3 F333.3
Z-6
X-181.722 Y108.312 F700
X-181.713 Y108.317
X-181.716 Y108.328
X-181.72 Y108.331
X-181.729
X-181.732 Y108.326
X-181.734 Y108.32
X-181.727 Y108.316
Z-5.9
G0 Z4
X-181.729 Y108.318
G1 Z-4 F333.3
Z-6.5
X-181.723 Y108.313 F700
X-181.717
Y108.328
X-181.729 Y108.332
X-181.733 Y108.327
X-181.734 Y108.322
X-181.729 Y108.318
Z-6.4
G0 Z4
X-181.726 Y108.332
G1 Z-4.5 F333.3
Z-7.5
X-181.73 Y108.33 F700
X-181.734 Y108.322
X-181.729 Y108.314
X-181.717
X-181.712 Y108.319
X-181.715 Y108.33
X-181.722 Y108.333
X-181.726 Y108.332
X-181.73 Y108.33
X-181.734 Y108.322 Z-7.497
X-181.729 Y108.314 Z-7.491
X-181.722 Z-7.48
X-181.719 Z-7.467
G0 Z4
X-181.727 Y108.323
G1 Z-5.5 F333.3
Z-8.5
X-181.728 Y108.315 F700
X-181.72
X-181.713 Y108.323
X-181.726 Y108.333
X-181.727 Y108.323
Z-8.4
G0 Z4
X-181.721 Y108.327
G1 Z-6.5 F333.3
Z-9.5
X-181.727 Y108.329 F700
X-181.731 Y108.325
X-181.726 Y108.316
X-181.718
X-181.715 Y108.32
X-181.716 Y108.326
X-181.721 Y108.327
Z-9.4
G0 Z4
X-181.722 Y108.321
G1 Z-7.5 F333.3
Z-10.5
Y108.317 F700
X-181.716 Y108.322
X-181.722 Y108.327
Y108.321
Z-10.4
G0 Z4
X-181.724 Y108.325
G1 Z-11.5 F333.3
Z-14.5
X-181.725 Y108.324 F700
Y108.322
X-181.723 Y108.319
X-181.718 Y108.325
X-181.719 Y108.326
X-181.722
X-181.724 Y108.325
Z-14.4
Z-12.5
Z-15.5 F333.3
X-181.725 Y108.324 F700
Y108.322
X-181.723 Y108.319
X-181.718 Y108.325
X-181.719 Y108.326
X-181.722
X-181.724 Y108.325
Z-15.4
Z-13.5
Z-16.5 F333.3
X-181.725 Y108.324 F700
Y108.322
X-181.723 Y108.319
X-181.718 Y108.325
X-181.719 Y108.326
X-181.722
X-181.724 Y108.325
Z-16.4
Z-14.5
Z-17 F333.3
X-181.725 Y108.324 F700
Y108.322
X-181.723 Y108.319
X-181.718 Y108.325
X-181.719 Y108.326
X-181.722
X-181.724 Y108.325
Z-16.9
G0 Z4
X8.797 Y103.396
G1 Z-3 F333.3
Z-5.9
X8.796 Z-5.915
X8.784 Y103.388 Z-5.955
X8.778 Y103.375 Z-5.969
X8.782 Y103.36 Z-5.984
X8.795 Y103.349 Z-5.99
X8.813 Y103.351 Z-5.995
X8.825 Y103.364 Z-6
X8.828 Y103.372 F700
X8.829 Y103.385
X8.822 Y103.395
X8.807 Y103.399
X8.795
X8.785 Y103.394
X8.776 Y103.376
X8.779 Y103.36
X8.788 Y103.345
X8.82 Y103.351
X8.825 Y103.364
X8.828 Y103.372
X8.829 Y103.385 Z-5.997
X8.822 Y103.395 Z-5.993
X8.807 Y103.399 Z-5.984
X8.795 Z-5.974
X8.785 Y103.394 Z-5.96
X8.781 Y103.385 Z-5.938
X8.779 Y103.382 Z-5.914
G0 Z4
X8.787 Y103.358
G1 Z-4 F333.3
Z-6.4
X8.793 Y103.354 Z-6.438
X8.809 Y103.352 Z-6.466
X8.82 Y103.358 Z-6.476
X8.826 Y103.369 Z-6.486
X8.823 Y103.385 Z-6.491
X8.811 Y103.395 Z-6.495
X8.794 Y103.394 Z-6.5
X8.783 Y103.39 F700
X8.778 Y103.379
X8.781 Y103.357
X8.788 Y103.346
X8.82 Y103.352
X8.828 Y103.372
X8.829 Y103.385
X8.821 Y103.395
X8.807 Y103.399
X8.794 Y103.394
X8.783 Y103.39 Z-6.499
X8.778 Y103.379 Z-6.496
X8.781 Y103.357 Z-6.486
X8.788 Y103.346 Z-6.475
X8.806 Y103.349 Z-6.448
X8.812 Y103.35 Z-6.416
G0 Z4
X8.786 Y103.369
G1 Z-4.5 F333.3
Z-7.4
X8.796 Y103.358 Z-7.452
X8.808 Y103.356 Z-7.464
X8.82 Y103.361 Z-7.476
X8.826 Y103.372 Z-7.489
X8.824 Y103.387 Z-7.492
X8.812 Y103.397 Z-7.496
X8.797 Y103.396 Z-7.5
X8.783 Y103.39 F700
X8.78 Y103.385
X8.788 Y103.346
X8.792 Y103.344
X8.798 Y103.345
X8.822 Y103.357
X8.826 Y103.362
X8.828 Y103.384
X8.82 Y103.396
X8.807 Y103.399
X8.797 Y103.396
X8.783 Y103.39 Z-7.499
X8.78 Y103.385 Z-7.497
X8.784 Y103.364 Z-7.488
X8.788 Y103.346 Z-7.473
X8.792 Y103.344 Z-7.467
X8.798 Y103.345 Z-7.458
X8.805 Y103.348 Z-7.438
X8.808 Y103.35 Z-7.417
G0 Z4
X8.798 Y103.359
G1 Z-5.5 F333.3
Z-8.4
X8.803 Y103.358 Z-8.434
X8.818 Y103.364 Z-8.463
X8.823 Y103.374 Z-8.473
X8.821 Y103.386 Z-8.482
X8.813 Y103.394 Z-8.491
X8.799 Y103.395 Z-8.494
X8.788 Y103.386 Z-8.497
X8.786 Y103.373 Z-8.5
X8.788 Y103.352 F700
X8.791 Y103.347
X8.802
X8.814 Y103.353
X8.829 Y103.372
Y103.378
X8.814 Y103.397
X8.807 Y103.399
X8.783 Y103.391
X8.786 Y103.373
X8.788 Y103.352 Z-8.497
X8.791 Y103.347 Z-8.495
X8.802 Z-8.49
X8.814 Y103.353 Z-8.482
X8.823 Y103.364 Z-8.465
X8.829 Y103.372 Z-8.445
Y103.375 Z-8.422
G0 Z4
X8.819 Y103.387
G1 Z-6.5 F333.3
Z-9.4
X8.812 Y103.391 Z-9.441
X8.8 Y103.389 Z-9.458
X8.792 Y103.38 Z-9.475
X8.795 Y103.365 Z-9.484
X8.808 Y103.359 Z-9.493
X8.819 Y103.364 Z-9.496
X8.824 Y103.374 Z-9.498
X8.821 Y103.385 Z-9.5
X8.814 Y103.396 F700
X8.806 Y103.399
X8.782 Y103.39
X8.789 Y103.355
X8.802 Y103.35
X8.815 Y103.357
X8.829 Y103.373
X8.821 Y103.385
X8.814 Y103.396 Z-9.499
X8.806 Y103.399 Z-9.497
X8.782 Y103.39 Z-9.483
X8.786 Y103.371 Z-9.458
X8.788 Y103.364 Z-9.427
G0 Z4
X8.789 Y103.374
G1 Z-7.5 F333.3
Z-10.5
X8.792 Y103.357 F700
X8.798 Y103.355
X8.803
X8.813 Y103.359
X8.821 Y103.369
X8.824 Y103.382
X8.812 Y103.398
X8.804
X8.785 Y103.389
X8.789 Y103.374
X8.792 Y103.357 Z-10.498
X8.798 Y103.355 Z-10.496
X8.803 Z-10.493
X8.813 Y103.359 Z-10.487
X8.821 Y103.369 Z-10.474
X8.823 Y103.378 Z-10.456
X8.824 Y103.381 Z-10.435
G0 Z4
X8.79 Y103.377
G1 Z-8.5 F333.3
Z-11.5
X8.792 Y103.366 F700
X8.807 Y103.361
X8.816 Y103.369
X8.82 Y103.385
X8.811 Y103.397
X8.805
X8.787 Y103.389
X8.79 Y103.377
X8.792 Y103.366 Z-11.499
X8.807 Y103.361 Z-11.493
X8.816 Y103.369 Z-11.482
X8.819 Y103.38 Z-11.465
X8.82 Y103.383 Z-11.445
G0 Z4
X8.793 Y103.385
G1 Z-9.5 F333.3
Z-12.4
X8.794 Y103.374 Z-12.447
X8.812 Y103.378 Z-12.476
X8.798 Y103.39 Z-12.491
X8.794 Y103.374 Z-12.497
X8.812 Y103.378 Z-12.5
X8.816 Y103.39 F700
X8.811 Y103.396
X8.806
X8.789 Y103.388
X8.793 Y103.369
X8.796 Y103.365
X8.807 Y103.363
X8.812 Y103.378
X8.816 Y103.39 Z-12.498
X8.811 Y103.396 Z-12.496
X8.806 Z-12.493
X8.796 Y103.391 Z-12.483
X8.789 Y103.388 Z-12.471
Y103.384 Z-12.452
G0 Z4
X8.795 Y103.386
G1 Z-10.5 F333.3
Z-13.4
X8.794 Y103.372 Z-13.452
X8.812 Y103.377 Z-13.477
X8.798 Y103.388 Z-13.491
X8.794 Y103.372 Z-13.497
X8.812 Y103.377 Z-13.5
X8.816 Y103.388 F700
X8.812 Y103.392
X8.801
X8.789 Y103.387
X8.793 Y103.369
X8.796 Y103.365
X8.807 Y103.363
X8.812 Y103.377
X8.816 Y103.388 Z-13.499
X8.812 Y103.392 Z-13.497
X8.801 Z-13.49
X8.789 Y103.387 Z-13.473
X8.79 Y103.383 Z-13.455
G0 Z4
X8.811 Y103.373
G1 Z-11.5 F333.3
Z-14.5
X8.815 Y103.385 F700
X8.81 Y103.392
X8.79 Y103.382
X8.793 Y103.369
X8.796 Y103.365
X8.807 Y103.363
X8.811 Y103.373
X8.815 Y103.385 Z-14.498
X8.81 Y103.392 Z-14.494
X8.796 Y103.385 Z-14.479
X8.791 Y103.383 Z-14.458
G0 Z4
X8.793 Y103.376
G1 Z-12.5 F333.3
Z-15.5
Y103.369 F700
X8.796 Y103.365
X8.807 Y103.363
X8.814 Y103.382
X8.804 Y103.389
X8.793 Y103.383
Y103.376
Z-15.4
G0 Z4
X8.81 Y103.371
G1 Z-13.5 F333.3
Z-16.5
X8.814 Y103.38 F700
X8.806 Y103.386
X8.797 Y103.384
X8.793 Y103.379
X8.792 Y103.374
X8.793 Y103.369
X8.796 Y103.365
X8.807 Y103.363
X8.81 Y103.371
X8.814 Y103.38 Z-16.499
X8.806 Y103.386 Z-16.494
X8.797 Y103.384 Z-16.485
X8.793 Y103.379 Z-16.469
Z-16.465
G0 Z4
X8.794 Y103.371
G1 Z-14.5 F333.3
Z-17
X8.796 Y103.365 F700
X8.807 Y103.363
X8.813 Y103.379
X8.806 Y103.385
X8.801
X8.793 Y103.378
X8.794 Y103.371
Z-16.9
G0 Z4
X20.406 Y94.431
G1 Z-3 F333.3
Z-6
Y94.481 F700
X20.397
X16.03 Y94.48
X15.849 Y94.439
X15.843 Y94.426
X15.845 Y94.421
X16.029 Y94.38
X20.349
X20.406
Y94.431
Y94.457 Z-5.996
Y94.481 Z-5.986
X20.397 Z-5.98
X20.375 Z-5.958
X20.362 Z-5.93
X20.357 Z-5.9
G0 Z4
X20.406 Y94.431
G1 Z-4 F333.3
Z-6.5
Y94.481 F700
X20.397
X16.03 Y94.48
X15.849 Y94.439
X15.843 Y94.426
X16.03 Y94.38
X20.406
Y94.431
Y94.457 Z-6.496
Y94.481 Z-6.486
X20.397 Z-6.48
X20.375 Z-6.458
X20.362 Z-6.43
X20.357 Z-6.4
G0 Z4
X-175.833 Y64.226
Z2
G1 Z-0.9 F333.3
X-175.843 Y64.218 Z-0.95
X-175.866 Y64.189 Z-0.987
X-175.875 Y64.166 Z-0.993
X-175.879 Y64.142 Z-1
Y49.362 F700
X-175.837 Y49.175
X-175.831 Y49.17
X-175.821 Y49.173
X-175.778 Y49.362
X-175.774 Y62.941
X-175.769 Y63.024
X-175.756 Y63.106
X-175.719 Y63.268
X-175.695 Y63.352
X-175.661 Y63.432
X-175.582 Y63.595
X-175.543 Y63.664
X-175.498 Y63.729
X-175.414 Y63.836
X-175.369 Y63.888
X-175.319 Y63.936
X-175.214 Y64.028
X-175.151 Y64.078
X-175.083 Y64.12
X-174.925 Y64.208
X-174.845 Y64.246
X-174.762 Y64.275
X-174.6 Y64.32
X-174.521 Y64.338
X-174.442 Y64.347
X-174.279 Y64.356
X-174.235 Y64.358
X15.493
X15.908 Y64.379
X15.946 Y64.38
X20.405
Y64.481
X20.397
X15.965 Y64.48
X15.55 Y64.459
X15.512 Y64.458
X-175.879
Y64.142
X-175.875 Y64.117 Z-0.993
X-175.866 Y64.094 Z-0.987
X-175.843 Y64.065 Z-0.95
X-175.833 Y64.057 Z-0.9
G0 Z4
Y64.226
Z1
G1 Z-1.9 F333.3
X-175.843 Y64.218 Z-1.95
X-175.866 Y64.189 Z-1.987
X-175.875 Y64.166 Z-1.993
X-175.879 Y64.142 Z-2
Y49.362 F700
X-175.837 Y49.175
X-175.831 Y49.17
X-175.821 Y49.173
X-175.778 Y49.362
X-175.774 Y62.941
X-175.769 Y63.024
X-175.756 Y63.106
X-175.719 Y63.268
X-175.695 Y63.352
X-175.661 Y63.432
X-175.582 Y63.595
X-175.543 Y63.664
X-175.498 Y63.729
X-175.414 Y63.836
X-175.369 Y63.888
X-175.319 Y63.936
X-175.214 Y64.028
X-175.151 Y64.078
X-175.083 Y64.12
X-174.925 Y64.208
X-174.845 Y64.246
X-174.762 Y64.275
X-174.6 Y64.32
X-174.521 Y64.338
X-174.442 Y64.347
X-174.279 Y64.356
X-174.235 Y64.358
X15.493
X15.908 Y64.379
X15.946 Y64.38
X20.405
Y64.481
X20.397
X15.965 Y64.48
X15.55 Y64.459
X15.512 Y64.458
X-175.879
Y64.142
X-175.875 Y64.117 Z-1.993
X-175.866 Y64.094 Z-1.987
X-175.843 Y64.065 Z-1.95
X-175.833 Y64.057 Z-1.9
G0 Z4
Y64.226
Z0
G1 Z-2.9 F333.3
X-175.843 Y64.218 Z-2.95
X-175.866 Y64.189 Z-2.987
X-175.875 Y64.166 Z-2.993
X-175.879 Y64.142 Z-3
Y49.362 F700
X-175.837 Y49.175
X-175.831 Y49.17
X-175.821 Y49.173
X-175.778 Y49.362
X-175.774 Y62.941
X-175.769 Y63.024
X-175.756 Y63.106
X-175.719 Y63.268
X-175.695 Y63.352
X-175.661 Y63.432
X-175.582 Y63.595
X-175.543 Y63.664
X-175.498 Y63.729
X-175.414 Y63.836
X-175.369 Y63.888
X-175.319 Y63.936
X-175.214 Y64.028
X-175.151 Y64.078
X-175.083 Y64.12
X-174.925 Y64.208
X-174.845 Y64.246
X-174.762 Y64.275
X-174.6 Y64.32
X-174.521 Y64.338
X-174.442 Y64.347
X-174.279 Y64.356
X-174.235 Y64.358
X15.493
X15.908 Y64.379
X15.946 Y64.38
X20.405
Y64.481
X20.397
X15.965 Y64.48
X15.55 Y64.459
X15.512 Y64.458
X-175.879
Y64.142
X-175.875 Y64.117 Z-2.993
X-175.866 Y64.094 Z-2.987
X-175.843 Y64.065 Z-2.95
X-175.833 Y64.057 Z-2.9
G0 Z4
Y64.226
Z2
G1 Z-1 F333.3
Z-3.9
X-175.843 Y64.218 Z-3.95
X-175.866 Y64.189 Z-3.987
X-175.875 Y64.166 Z-3.993
X-175.879 Y64.142 Z-4
Y49.362 F700
X-175.837 Y49.175
X-175.831 Y49.17
X-175.821 Y49.173
X-175.778 Y49.362
X-175.774 Y62.941
X-175.769 Y63.024
X-175.756 Y63.106
X-175.719 Y63.268
X-175.695 Y63.352
X-175.661 Y63.432
X-175.582 Y63.595
X-175.543 Y63.664
X-175.498 Y63.729
X-175.414 Y63.836
X-175.369 Y63.888
X-175.319 Y63.936
X-175.214 Y64.028
X-175.151 Y64.078
X-175.083 Y64.12
X-174.925 Y64.208
X-174.845 Y64.246
X-174.762 Y64.275
X-174.6 Y64.32
X-174.521 Y64.338
X-174.442 Y64.347
X-174.279 Y64.356
X-174.235 Y64.358
X15.493
X15.908 Y64.379
X15.946 Y64.38
X20.405
Y64.481
X20.397
X15.965 Y64.48
X15.55 Y64.459
X15.512 Y64.458
X-175.879
Y64.142
X-175.875 Y64.117 Z-3.993
X-175.866 Y64.094 Z-3.987
X-175.843 Y64.065 Z-3.95
X-175.833 Y64.057 Z-3.9
G0 Z4
Y64.226
G1 Z-2 F333.3
Z-4.9
X-175.843 Y64.218 Z-4.95
X-175.866 Y64.189 Z-4.987
X-175.875 Y64.166 Z-4.993
X-175.879 Y64.142 Z-5
Y49.363 F700
X-175.837 Y49.175
X-175.831 Y49.17
X-175.778 Y49.363
X-175.774 Y62.941
X-175.769 Y63.024
X-175.756 Y63.106
X-175.719 Y63.268
X-175.695 Y63.352
X-175.661 Y63.432
X-175.582 Y63.595
X-175.543 Y63.664
X-175.498 Y63.729
X-175.414 Y63.836
X-175.369 Y63.888
X-175.319 Y63.936
X-175.214 Y64.028
X-175.151 Y64.078
X-175.083 Y64.12
X-174.925 Y64.208
X-174.845 Y64.246
X-174.762 Y64.275
X-174.6 Y64.32
X-174.521 Y64.338
X-174.442 Y64.347
X-174.279 Y64.356
X-174.235 Y64.358
X15.493
X15.908 Y64.379
X15.946 Y64.38
X20.405
Y64.481
X20.397
X15.965 Y64.48
X15.55 Y64.459
X15.512 Y64.458
X-175.879
Y64.142
X-175.875 Y64.117 Z-4.993
X-175.866 Y64.094 Z-4.987
X-175.843 Y64.065 Z-4.95
X-175.833 Y64.057 Z-4.9
G0 Z4
X-175.835 Y49.178
G1 Z-3 F333.3
Z-6
X-175.836 Y49.173 F700
X-175.829 Y49.169
X-175.824 Y49.171
X-175.818 Y49.185
X-175.835 Y49.186
Y49.178
Z-5.9
G0 Z4
X-175.823 Y49.172
G1 Z-4 F333.3
Z-6.5
X-175.818 Y49.175 F700
X-175.817 Y49.179
X-175.818 Y49.184
X-175.835 Y49.186
X-175.839 Y49.176
X-175.828 Y49.169
X-175.823 Y49.172
Z-6.4
G0 Z4
X-175.835 Y49.178
G1 Z-4.5 F333.3
Z-7.5
X-175.836 Y49.171 F700
X-175.824 Y49.169
X-175.818 Y49.175
X-175.817 Y49.179
X-175.818 Y49.184
X-175.835 Y49.186
Y49.178
Z-7.4
G0 Z4
X-175.828 Y49.184
G1 Z-5.5 F333.3
Z-8.5
X-175.835 Y49.186 F700
X-175.838 Y49.182
X-175.839 Y49.176
X-175.832 Y49.171
X-175.826
X-175.818 Y49.181
X-175.828 Y49.184
Z-8.4
G0 Z4
X-175.832 Y49.177
G1 Z-6.5 F333.3
Z-9.5
X-175.829 Y49.171 F700
X-175.823 Y49.174
X-175.819 Y49.184
X-175.837 Y49.186
X-175.832 Y49.177
Z-9.4
G0 Z4
X-175.829 Y49.18
G1 Z-7.5 F333.3
Z-10.5
X-175.822 Y49.185 F700
X-175.835 Y49.186
X-175.833 Y49.177
X-175.829 Y49.18
Z-10.4
G0 Z4
X-175.831 Y49.179
G1 Z-8.5 F333.3
Z-11.5
X-175.83 Y49.174 F700
X-175.822 Y49.184
X-175.833 Y49.185
X-175.831 Y49.179
Z-11.4
G0 Z4
X-175.83
G1 Z-9.5 F333.3
Z-12.5
Y49.174 F700
X-175.823 Y49.183
X-175.831 Y49.184
X-175.83 Y49.179
Z-12.4
G0 Z4
X-175.829 Y49.18
G1 Z-10.5 F333.3
Z-13.5
X-175.834 Y49.179 F700
X-175.824 Y49.181
X-175.829 Y49.18
Z-13.4
G0 Z4
X-175.831 Y49.178
G1 Z-11.5 F333.3
Z-14.5
X-175.832 Y49.176 F700
X-175.83 Y49.174
X-175.826 Y49.175
Y49.179
X-175.829 Y49.18
X-175.83 Y49.179
X-175.831 Y49.178
Z-14.4
G0 Z4
X-175.828 Y49.177
G1 Z-12.5 F333.3
Z-15.5
X-175.829 Y49.179 F700
X-175.83
X-175.831 Y49.177
Y49.175
X-175.83 Y49.174
X-175.827
Y49.176
X-175.828 Y49.177
Z-15.4
Z-13.5
Z-16.5 F333.3
X-175.829 Y49.179 F700
X-175.83
X-175.831 Y49.177
Y49.175
X-175.83 Y49.174
X-175.827
Y49.176
X-175.828 Y49.177
Z-16.4
Z-14.5
Z-17 F333.3
X-175.829 Y49.179 F700
X-175.83
X-175.831 Y49.177
Y49.175
X-175.83 Y49.174
X-175.827
Y49.176
X-175.828 Y49.177
Z-16.9
G0 Z4
X20.405 Y64.431
G1 Z-3 F333.3
Z-6
Y64.481 F700
X20.397
X15.972 Y64.48
X15.962 Y64.478
X15.854 Y64.43
X16.043 Y64.38
X20.405
Y64.431
Y64.457 Z-5.996
Y64.481 Z-5.986
X20.397 Z-5.981
X20.375 Z-5.959
X20.36 Z-5.931
X20.356 Z-5.9
G0 Z4
X20.405 Y64.431
G1 Z-4 F333.3
Z-6.5
Y64.481 F700
X20.397
X16.028 Y64.48
X15.91 Y64.454
X15.853 Y64.429
X16.039 Y64.38
X20.405
Y64.431
Y64.457 Z-6.496
Y64.481 Z-6.486
X20.397 Z-6.481
X20.375 Z-6.459
X20.36 Z-6.431
X20.356 Z-6.4
G0 Z4
X-28.904 Y14.964
Z2
G1 Z-0.9 F333.3
X-28.893 Y14.972 Z-0.95
X-28.87 Y15 Z-0.987
X-28.861 Y15.023 Z-0.993
X-28.858 Y15.048 Z-1
X-28.854 Y31.339 F700
X-28.849 Y31.421
X-28.836 Y31.502
X-28.8 Y31.664
X-28.776 Y31.748
X-28.742 Y31.828
X-28.664 Y31.991
X-28.626 Y32.059
X-28.581 Y32.123
X-28.501 Y32.227
X-28.457 Y32.279
X-28.407 Y32.327
X-28.299 Y32.424
X-28.246 Y32.467
X-28.189 Y32.505
X-28.081 Y32.571
X-28.014 Y32.606
X-27.945 Y32.635
X-27.782 Y32.694
X-27.701 Y32.718
X-27.618 Y32.733
X-27.455 Y32.752
X-27.366 Y32.758
X15.493
X15.908 Y32.779
X15.946 Y32.78
X20.406
Y32.881
X20.397
X15.965 Y32.88
X15.55 Y32.859
X15.512 Y32.858
X8.564
X8.541
X8.13 Y32.871
X7.72 Y32.858
X7.696
X-28.958
X-28.961 Y16.269
X-28.964 Y16.197
X-28.974 Y16.125
X-29.006 Y15.963
X-29.026 Y15.884
X-29.055 Y15.807
X-29.118 Y15.661
X-29.148 Y15.6
X-29.183 Y15.542
X-29.245 Y15.45
X-29.284 Y15.397
X-29.328 Y15.347
X-29.434 Y15.238
X-29.493 Y15.183
X-29.558 Y15.134
X-29.699 Y15.04
X-29.769 Y14.998
X-29.843 Y14.965
X-29.986 Y14.909
X-30.058 Y14.885
X-30.132 Y14.869
X-30.278 Y14.844
X-30.341 Y14.835
X-30.405 Y14.833
X-213.328 Y14.831
X-213.324 Y-15.357
X-213.288 Y-15.512
X-213.285 Y-15.516
X-213.275
X-213.267 Y-15.506
X-213.232 Y-15.357
X-213.226 Y13.288
X-213.223 Y13.358
X-213.213 Y13.428
X-213.182 Y13.592
X-213.161 Y13.675
X-213.13 Y13.756
X-213.058 Y13.918
X-213.021 Y13.991
X-212.976 Y14.059
X-212.888 Y14.179
X-212.837 Y14.241
X-212.78 Y14.297
X-212.652 Y14.409
X-212.586 Y14.461
X-212.514 Y14.506
X-212.368 Y14.585
X-212.292 Y14.621
X-212.213 Y14.648
X-212.05 Y14.693
X-211.972 Y14.711
X-211.892 Y14.72
X-211.729 Y14.729
X-211.685 Y14.731
X-28.858
Y15.048
X-28.861 Y15.073 Z-0.993
X-28.87 Y15.096 Z-0.987
X-28.893 Y15.124 Z-0.95
X-28.904 Y15.132 Z-0.9
G0 Z4
Y14.964
Z1
G1 Z-1.9 F333.3
X-28.893 Y14.972 Z-1.95
X-28.87 Y15 Z-1.987
X-28.861 Y15.023 Z-1.993
X-28.858 Y15.048 Z-2
X-28.854 Y31.339 F700
X-28.849 Y31.421
X-28.836 Y31.502
X-28.8 Y31.664
X-28.776 Y31.748
X-28.742 Y31.828
X-28.664 Y31.991
X-28.626 Y32.059
X-28.581 Y32.123
X-28.501 Y32.227
X-28.457 Y32.279
X-28.407 Y32.327
X-28.299 Y32.424
X-28.246 Y32.467
X-28.189 Y32.505
X-28.081 Y32.571
X-28.014 Y32.606
X-27.945 Y32.635
X-27.782 Y32.694
X-27.701 Y32.718
X-27.618 Y32.733
X-27.455 Y32.752
X-27.366 Y32.758
X15.493
X15.908 Y32.779
X15.946 Y32.78
X20.406
Y32.881
X20.397
X15.965 Y32.88
X15.55 Y32.859
X15.512 Y32.858
X8.564
X8.544
X8.13 Y32.869
X7.716 Y32.858
X7.696
X-28.958
X-28.961 Y16.269
X-28.964 Y16.197
X-28.974 Y16.125
X-29.006 Y15.963
X-29.026 Y15.884
X-29.055 Y15.807
X-29.118 Y15.661
X-29.148 Y15.6
X-29.183 Y15.542
X-29.245 Y15.45
X-29.284 Y15.397
X-29.328 Y15.347
X-29.434 Y15.238
X-29.493 Y15.183
X-29.558 Y15.134
X-29.699 Y15.04
X-29.769 Y14.998
X-29.843 Y14.965
X-29.986 Y14.909
X-30.058 Y14.885
X-30.132 Y14.869
X-30.278 Y14.844
X-30.341 Y14.835
X-30.405 Y14.833
X-213.328 Y14.831
X-213.324 Y-15.357
X-213.288 Y-15.512
X-213.285 Y-15.516
X-213.275
X-213.267 Y-15.506
X-213.232 Y-15.357
X-213.226 Y13.288
X-213.223 Y13.358
X-213.213 Y13.428
X-213.182 Y13.592
X-213.161 Y13.675
X-213.13 Y13.756
X-213.058 Y13.918
X-213.021 Y13.991
X-212.976 Y14.059
X-212.888 Y14.179
X-212.837 Y14.241
X-212.78 Y14.297
X-212.652 Y14.409
X-212.586 Y14.461
X-212.514 Y14.506
X-212.368 Y14.585
X-212.292 Y14.621
X-212.213 Y14.648
X-212.05 Y14.693
X-211.972 Y14.711
X-211.892 Y14.72
X-211.729 Y14.729
X-211.685 Y14.731
X-28.858
Y15.048
X-28.861 Y15.073 Z-1.993
X-28.87 Y15.096 Z-1.987
X-28.893 Y15.124 Z-1.95
X-28.904 Y15.132 Z-1.9
G0 Z4
X-28.543 Y32.758
Z2
G1 Z-0.95 F333.3
X-23.377 Z-1.421
X-23.352 Y32.764
X-23.334 Y32.783
X-23.327 Y32.808
X-23.334 Y32.833
X-23.352 Y32.851
X-23.377 Y32.858
X-28.71 Z-1.906
X-28.735 Y32.851
X-28.753 Y32.833
X-28.76 Y32.808
X-28.753 Y32.783
X-28.735 Y32.764
X-28.71 Y32.758
X-23.377 Z-2.392
X-23.352 Y32.764
X-23.334 Y32.783
X-23.327 Y32.808
X-23.334 Y32.833
X-23.352 Y32.851
X-23.377 Y32.858
X-28.71 Z-2.878
X-28.735 Y32.851
X-28.753 Y32.833
X-28.76 Y32.808
X-28.753 Y32.783
X-28.735 Y32.764
X-28.71 Y32.758
X-27.366 Z-3
X-27.341 Y32.764
X-27.322 Y32.783
X-27.316 Y32.808
X-27.322 Y32.833
X-27.341 Y32.851
X-27.366 Y32.858
X-28.958 F700
X-28.961 Y16.269
X-28.964 Y16.197
X-28.974 Y16.125
X-29.006 Y15.963
X-29.026 Y15.884
X-29.055 Y15.807
X-29.118 Y15.661
X-29.148 Y15.6
X-29.183 Y15.542
X-29.245 Y15.45
X-29.284 Y15.397
X-29.328 Y15.347
X-29.434 Y15.238
X-29.493 Y15.183
X-29.558 Y15.134
X-29.699 Y15.04
X-29.769 Y14.998
X-29.843 Y14.965
X-29.986 Y14.909
X-30.058 Y14.885
X-30.132 Y14.869
X-30.278 Y14.844
X-30.341 Y14.835
X-30.405 Y14.833
X-211.685 Y14.831
X-213.328
X-213.324 Y-15.357
X-213.288 Y-15.512
X-213.285 Y-15.516
X-213.275
X-213.267 Y-15.506
X-213.232 Y-15.357
X-213.226 Y13.288
X-213.223 Y13.358
X-213.213 Y13.428
X-213.182 Y13.592
X-213.161 Y13.675
X-213.13 Y13.756
X-213.058 Y13.918
X-213.021 Y13.991
X-212.976 Y14.059
X-212.888 Y14.179
X-212.837 Y14.241
X-212.78 Y14.297
X-212.652 Y14.409
X-212.586 Y14.461
X-212.514 Y14.506
X-212.368 Y14.585
X-212.292 Y14.621
X-212.213 Y14.648
X-212.05 Y14.693
X-211.972 Y14.711
X-211.892 Y14.72
X-211.729 Y14.729
X-211.685 Y14.731
X-28.858
X-28.854 Y31.339
X-28.849 Y31.421
X-28.836 Y31.502
X-28.8 Y31.664
X-28.776 Y31.748
X-28.742 Y31.828
X-28.664 Y31.991
X-28.626 Y32.059
X-28.581 Y32.123
X-28.501 Y32.227
X-28.457 Y32.279
X-28.407 Y32.327
X-28.299 Y32.424
X-28.246 Y32.467
X-28.189 Y32.505
X-28.081 Y32.571
X-28.014 Y32.606
X-27.945 Y32.635
X-27.782 Y32.694
X-27.701 Y32.718
X-27.618 Y32.733
X-27.455 Y32.752
X-27.366 Y32.758
X15.493
X15.908 Y32.779
X15.946 Y32.78
X20.406
Y32.881
X20.397
X15.965 Y32.88
X15.55 Y32.859
X15.512 Y32.858
X8.564
X8.548
X8.126 Y32.867
X7.27 Y32.858
X7.262
X-27.366
X-27.404 Z-2.992
X-27.437 Z-2.971
X-27.458 Z-2.938
X-27.466 Z-2.9
G0 Z4
X-28.912 Y32.626
Z2
G1 Z-1 F333.3
Z-3.9
X-28.923 Y32.618 Z-3.95
X-28.946 Y32.589 Z-3.987
X-28.955 Y32.566 Z-3.993
X-28.958 Y32.541 Z-4
X-28.961 Y16.269 F700
X-28.964 Y16.197
X-28.974 Y16.125
X-29.006 Y15.963
X-29.026 Y15.884
X-29.055 Y15.807
X-29.118 Y15.661
X-29.148 Y15.6
X-29.183 Y15.542
X-29.245 Y15.45
X-29.284 Y15.397
X-29.328 Y15.347
X-29.434 Y15.238
X-29.493 Y15.183
X-29.558 Y15.134
X-29.699 Y15.04
X-29.769 Y14.998
X-29.843 Y14.965
X-29.986 Y14.909
X-30.058 Y14.885
X-30.132 Y14.869
X-30.278 Y14.844
X-30.341 Y14.835
X-30.405 Y14.833
X-213.328 Y14.831
X-213.324 Y-15.357
X-213.288 Y-15.512
X-213.285 Y-15.516
X-213.275
X-213.267 Y-15.506
X-213.232 Y-15.357
X-213.226 Y13.288
X-213.223 Y13.358
X-213.213 Y13.428
X-213.182 Y13.592
X-213.161 Y13.675
X-213.13 Y13.756
X-213.058 Y13.918
X-213.021 Y13.991
X-212.976 Y14.059
X-212.888 Y14.179
X-212.837 Y14.241
X-212.78 Y14.297
X-212.652 Y14.409
X-212.586 Y14.461
X-212.514 Y14.506
X-212.368 Y14.585
X-212.292 Y14.621
X-212.213 Y14.648
X-212.05 Y14.693
X-211.972 Y14.711
X-211.892 Y14.72
X-211.729 Y14.729
X-211.685 Y14.731
X-28.858
X-28.854 Y31.339
X-28.849 Y31.421
X-28.836 Y31.502
X-28.8 Y31.664
X-28.776 Y31.748
X-28.742 Y31.828
X-28.664 Y31.991
X-28.626 Y32.059
X-28.581 Y32.123
X-28.501 Y32.227
X-28.457 Y32.279
X-28.407 Y32.327
X-28.299 Y32.424
X-28.246 Y32.467
X-28.189 Y32.505
X-28.081 Y32.571
X-28.014 Y32.606
X-27.945 Y32.635
X-27.782 Y32.694
X-27.701 Y32.718
X-27.618 Y32.733
X-27.455 Y32.752
X-27.366 Y32.758
X15.493
X15.908 Y32.779
X15.946 Y32.78
X20.406
Y32.881
X20.397
X15.965 Y32.88
X15.55 Y32.859
X15.512 Y32.858
X8.564
X8.552
X8.126 Y32.865
X6.832 Y32.858
X-28.958
Y32.541
X-28.955 Y32.517 Z-3.993
X-28.946 Y32.493 Z-3.987
X-28.923 Y32.465 Z-3.95
X-28.912 Y32.457 Z-3.9
G0 Z4
Y32.626
G1 Z-2 F333.3
Z-4.9
X-28.923 Y32.618 Z-4.95
X-28.946 Y32.589 Z-4.987
X-28.955 Y32.566 Z-4.993
X-28.958 Y32.541 Z-5
X-28.961 Y16.269 F700
X-28.964 Y16.197
X-28.974 Y16.125
X-29.006 Y15.963
X-29.026 Y15.884
X-29.055 Y15.807
X-29.118 Y15.661
X-29.148 Y15.6
X-29.183 Y15.542
X-29.245 Y15.45
X-29.284 Y15.397
X-29.328 Y15.347
X-29.434 Y15.238
X-29.493 Y15.183
X-29.558 Y15.134
X-29.699 Y15.04
X-29.769 Y14.998
X-29.843 Y14.965
X-29.986 Y14.909
X-30.058 Y14.885
X-30.132 Y14.869
X-30.278 Y14.844
X-30.341 Y14.835
X-30.405 Y14.833
X-213.328 Y14.831
X-213.324 Y-15.357
X-213.288 Y-15.512
X-213.285 Y-15.516
X-213.275
X-213.267 Y-15.506
X-213.232 Y-15.357
X-213.226 Y13.288
X-213.223 Y13.358
X-213.213 Y13.428
X-213.182 Y13.592
X-213.161 Y13.675
X-213.13 Y13.756
X-213.058 Y13.918
X-213.021 Y13.991
X-212.976 Y14.059
X-212.888 Y14.179
X-212.837 Y14.241
X-212.78 Y14.297
X-212.652 Y14.409
X-212.586 Y14.461
X-212.514 Y14.506
X-212.368 Y14.585
X-212.292 Y14.621
X-212.213 Y14.648
X-212.05 Y14.693
X-211.972 Y14.711
X-211.892 Y14.72
X-211.729 Y14.729
X-211.685 Y14.731
X-28.858
X-28.854 Y31.339
X-28.849 Y31.421
X-28.836 Y31.502
X-28.8 Y31.664
X-28.776 Y31.748
X-28.742 Y31.828
X-28.664 Y31.991
X-28.626 Y32.059
X-28.581 Y32.123
X-28.501 Y32.227
X-28.457 Y32.279
X-28.407 Y32.327
X-28.299 Y32.424
X-28.246 Y32.467
X-28.189 Y32.505
X-28.081 Y32.571
X-28.014 Y32.606
X-27.945 Y32.635
X-27.782 Y32.694
X-27.701 Y32.718
X-27.618 Y32.733
X-27.455 Y32.752
X-27.366 Y32.758
X15.493
X15.908 Y32.779
X15.946 Y32.78
X20.406
Y32.881
X20.397
X15.965 Y32.88
X15.55 Y32.859
X15.512 Y32.858
X-27.366
X-28.958
Y32.541
X-28.955 Y32.517 Z-4.993
X-28.946 Y32.493 Z-4.987
X-28.923 Y32.465 Z-4.95
X-28.912 Y32.457 Z-4.9
G0 Z4
X8.194 Y32.824
G1 Z-5.5 F333.3
Z-8.5
X8.195 Y32.822 F700
X8.193 Y32.828
X8.194 Y32.824
Z-8.4
G0 Z4
X8.196 Y32.825
G1 Z-7.5 F333.3
Z-10.5
X8.198 Y32.827 F700
X8.197
X8.195 Y32.829
X8.193 Y32.828
X8.194 Y32.824
X8.195
X8.196 Y32.825
Z-10.4
G0 Z4
X8.194 Y32.826
G1 Z-9.5 F333.3
Z-12.5
Y32.824 F700
X8.195 Y32.823
X8.197 Y32.824
Y32.827
X8.194 Y32.828
Y32.826
Z-12.4
Z-10.5
Z-13.5 F333.3
Y32.824 F700
X8.195 Y32.823
X8.197 Y32.824
Y32.827
X8.194 Y32.828
Y32.826
Z-13.4
Z-11.5
Z-14.5 F333.3
Y32.824 F700
X8.195 Y32.823
X8.197 Y32.824
Y32.827
X8.194 Y32.828
Y32.826
Z-14.4
Z-12.5
Z-15.5 F333.3
Y32.824 F700
X8.195 Y32.823
X8.197 Y32.824
Y32.827
X8.194 Y32.828
Y32.826
Z-15.4
Z-13.5
Z-16.5 F333.3
Y32.824 F700
X8.195 Y32.823
X8.197 Y32.824
Y32.827
X8.194 Y32.828
Y32.826
Z-16.4
Z-14.5
Z-17 F333.3
Y32.824 F700
X8.195 Y32.823
X8.197 Y32.824
Y32.827
X8.194 Y32.828
Y32.826
Z-16.9
G0 Z4
X20.355 Y32.881
G1 Z-3 F333.3
Z-6
X15.972 Y32.88 F700
X15.959 Y32.877
X15.854 Y32.831
X16.039 Y32.78
X20.406
Y32.881
X20.397
X20.355
X20.317 Z-5.992
X20.285 Z-5.971
X20.263 Z-5.938
X20.255 Z-5.9
G0 Z4
X20.355 Y32.78
G1 Z-4 F333.3
Z-6.5
X20.406 F700
Y32.881
X20.397
X16.028 Y32.88
X15.905 Y32.853
X15.855 Y32.832
X16.039 Y32.78
X20.355
X20.382 Z-6.496
X20.406 Z-6.486
Y32.806 Z-6.464
Y32.823 Z-6.434
Y32.829 Z-6.4
G0 Z4
X-213.285 Y-15.506
G1 Z-3 F333.3
Z-6
X-213.284 Y-15.516 F700
X-213.271 Y-15.513
X-213.269 Y-15.501
X-213.285 Y-15.498
Y-15.506
Z-5.9
G0 Z4
X-213.276 Y-15.5
G1 Z-4 F333.3
Z-6.5
X-213.285 Y-15.498 F700
X-213.284 Y-15.514
X-213.269 Y-15.51
X-213.268 Y-15.503
X-213.276 Y-15.5
Z-6.4
G0 Z4
X-213.281 Y-15.514
G1 Z-4.5 F333.3
Z-7.5
X-213.275 Y-15.518 F700
X-213.27 Y-15.512
X-213.268 Y-15.503
X-213.271 Y-15.499
X-213.285
X-213.287 Y-15.51
X-213.281 Y-15.514
Z-7.4
G0 Z4
X-213.28
G1 Z-5.5 F333.3
Z-8.5
X-213.272 Y-15.516 F700
X-213.268 Y-15.511
X-213.274 Y-15.499
X-213.283
X-213.286 Y-15.504
Y-15.513
X-213.28 Y-15.514
Z-8.4
G0 Z4
X-213.277 Y-15.503
G1 Z-6.5 F333.3
Z-9.5
X-213.284 Y-15.504 F700
Y-15.513
X-213.27 Y-15.51
X-213.273 Y-15.502
X-213.277 Y-15.503
Z-9.4
G0 Z4
X-213.281 Y-15.509
G1 Z-7.5 F333.3
Z-10.5
X-213.278 Y-15.512 F700
X-213.283 Y-15.507
X-213.281 Y-15.509
Z-10.4
G0 Z4
Y-15.505
G1 Z-8.5 F333.3
Z-11.5
X-213.279 Y-15.503 F700
X-213.283 Y-15.508
X-213.281 Y-15.505
Z-11.4
Z-9.5
Z-12.5 F333.3
X-213.283 Y-15.508 F700
X-213.279 Y-15.503
X-213.281 Y-15.505
Z-12.4
Z-10.5
Z-13.5 F333.3
X-213.283 Y-15.508 F700
X-213.279 Y-15.503
X-213.281 Y-15.505
Z-13.4
Z-11.5
Z-14.5 F333.3
X-213.283 Y-15.508 F700
X-213.279 Y-15.503
X-213.281 Y-15.505
Z-14.4
Z-12.5
Z-15.5 F333.3
X-213.279 Y-15.503 F700
X-213.283 Y-15.508
X-213.281 Y-15.505
Z-15.4
Z-13.5
Z-16.5 F333.3
X-213.279 Y-15.503 F700
X-213.283 Y-15.508
X-213.281 Y-15.505
Z-16.4
Z-14.5
Z-17 F333.3
X-213.279 Y-15.503 F700
X-213.283 Y-15.508
X-213.281 Y-15.505
Z-16.9
G0 Z4
X8.126 Y19.015
Z2
G1 Z-0.9 F333.3
X8.116 Y19.006 Z-0.95
X8.093 Y18.978 Z-0.987
X8.085 Y18.954 Z-0.993
X8.082 Y18.929 Z-1
X8.088 Y18.674 F700
Y18.654
X8.084 Y-9.479
X8.081 Y-9.554
X8.069 Y-9.629
X8.037 Y-9.785
X8.016 Y-9.865
X7.986 Y-9.943
X7.914 Y-10.102
X7.877 Y-10.173
X7.833 Y-10.24
X7.748 Y-10.355
X7.699 Y-10.415
X7.644 Y-10.469
X7.521 Y-10.578
X7.46 Y-10.627
X7.394 Y-10.67
X7.264 Y-10.744
X7.203 Y-10.775
X7.139 Y-10.801
X7.019 Y-10.842
X6.95 Y-10.862
X6.878 Y-10.876
X6.715 Y-10.899
X6.611 Y-10.906
X-161.462 Y-10.907
X-161.459 Y-15.356
X-161.423 Y-15.512
X-161.42 Y-15.516
X-161.409 Y-15.517
X-161.367 Y-15.356
X-161.361 Y-12.458
X-161.359 Y-12.394
X-161.35 Y-12.331
X-161.322 Y-12.168
X-161.302 Y-12.085
X-161.274 Y-12.004
X-161.205 Y-11.842
X-161.172 Y-11.774
X-161.132 Y-11.71
X-161.061 Y-11.606
X-161.02 Y-11.552
X-160.975 Y-11.502
X-160.872 Y-11.399
X-160.821 Y-11.352
X-160.765 Y-11.31
X-160.657 Y-11.236
X-160.591 Y-11.195
X-160.521 Y-11.162
X-160.359 Y-11.094
X-160.278 Y-11.065
X-160.194 Y-11.046
X-160.032 Y-11.019
X-159.969 Y-11.011
X-159.906 Y-11.008
X8.188 Y-11.007
X8.192 Y17.733
X8.195 Y17.805
X8.206 Y17.877
X8.233 Y18.015
X8.251 Y18.088
X8.277 Y18.16
X8.339 Y18.31
X8.375 Y18.383
X8.418 Y18.453
X8.512 Y18.586
X8.564 Y18.652
X8.623 Y18.711
X8.75 Y18.825
X8.81 Y18.874
X8.876 Y18.917
X8.996 Y18.987
X9.066 Y19.023
X9.14 Y19.051
X9.309 Y19.106
X9.378 Y19.125
X9.449 Y19.138
X9.558 Y19.151
X9.65 Y19.157
X15.492 Y19.158
X15.908 Y19.179
X15.946 Y19.18
X20.406
Y19.285
X20.311 Y19.282
X20.288 Y19.281
X15.965 Y19.28
X15.55 Y19.259
X15.512 Y19.258
X8.335 Y19.253
X8.077 Y19.225
X8.082 Y18.929
X8.086 Y18.905 Z-0.993
X8.096 Y18.882 Z-0.987
X8.12 Y18.854 Z-0.95
X8.131 Y18.846 Z-0.9
G0 Z4
X8.126 Y19.015
Z1
G1 Z-1.9 F333.3
X8.116 Y19.006 Z-1.95
X8.093 Y18.978 Z-1.987
X8.085 Y18.954 Z-1.993
X8.082 Y18.929 Z-2
X8.088 Y18.674 F700
Y18.654
X8.084 Y-9.479
X8.081 Y-9.554
X8.069 Y-9.629
X8.037 Y-9.785
X8.016 Y-9.865
X7.986 Y-9.943
X7.914 Y-10.102
X7.877 Y-10.173
X7.833 Y-10.24
X7.748 Y-10.355
X7.699 Y-10.415
X7.644 Y-10.469
X7.521 Y-10.578
X7.46 Y-10.627
X7.394 Y-10.67
X7.264 Y-10.744
X7.203 Y-10.775
X7.139 Y-10.801
X7.019 Y-10.842
X6.95 Y-10.862
X6.878 Y-10.876
X6.715 Y-10.899
X6.611 Y-10.906
X-161.462 Y-10.907
X-161.459 Y-15.356
X-161.423 Y-15.512
X-161.42 Y-15.516
X-161.409 Y-15.517
X-161.367 Y-15.356
X-161.361 Y-12.458
X-161.359 Y-12.394
X-161.35 Y-12.331
X-161.322 Y-12.168
X-161.302 Y-12.085
X-161.274 Y-12.004
X-161.205 Y-11.842
X-161.172 Y-11.774
X-161.132 Y-11.71
X-161.061 Y-11.606
X-161.02 Y-11.552
X-160.975 Y-11.502
X-160.872 Y-11.399
X-160.821 Y-11.352
X-160.765 Y-11.31
X-160.657 Y-11.236
X-160.591 Y-11.195
X-160.521 Y-11.162
X-160.359 Y-11.094
X-160.278 Y-11.065
X-160.194 Y-11.046
X-160.032 Y-11.019
X-159.969 Y-11.011
X-159.906 Y-11.008
X8.188 Y-11.007
X8.192 Y17.733
X8.195 Y17.805
X8.206 Y17.877
X8.233 Y18.015
X8.251 Y18.088
X8.277 Y18.16
X8.339 Y18.31
X8.375 Y18.383
X8.418 Y18.453
X8.512 Y18.586
X8.564 Y18.652
X8.623 Y18.711
X8.75 Y18.825
X8.81 Y18.874
X8.876 Y18.917
X8.996 Y18.987
X9.066 Y19.023
X9.14 Y19.051
X9.309 Y19.106
X9.378 Y19.125
X9.449 Y19.138
X9.558 Y19.151
X9.65 Y19.157
X15.492 Y19.158
X15.908 Y19.179
X15.946 Y19.18
X20.406
Y19.285
X20.311 Y19.282
X20.288 Y19.281
X15.965 Y19.28
X15.55 Y19.259
X15.512 Y19.258
X8.335 Y19.253
X8.077 Y19.225
X8.082 Y18.929
X8.086 Y18.905 Z-1.993
X8.096 Y18.882 Z-1.987
X8.12 Y18.854 Z-1.95
X8.131 Y18.846 Z-1.9
G0 Z4
X8.126 Y19.015
Z0
G1 Z-2.9 F333.3
X8.116 Y19.006 Z-2.95
X8.093 Y18.978 Z-2.987
X8.085 Y18.954 Z-2.993
X8.082 Y18.929 Z-3
X8.088 Y18.674 F700
Y18.654
X8.084 Y-9.479
X8.081 Y-9.554
X8.069 Y-9.629
X8.037 Y-9.785
X8.016 Y-9.865
X7.986 Y-9.943
X7.914 Y-10.102
X7.877 Y-10.173
X7.833 Y-10.24
X7.748 Y-10.355
X7.699 Y-10.415
X7.644 Y-10.469
X7.521 Y-10.578
X7.46 Y-10.627
X7.394 Y-10.67
X7.264 Y-10.744
X7.203 Y-10.775
X7.139 Y-10.801
X7.019 Y-10.842
X6.95 Y-10.862
X6.878 Y-10.876
X6.715 Y-10.899
X6.611 Y-10.906
X-161.462 Y-10.907
X-161.459 Y-15.356
X-161.423 Y-15.512
X-161.42 Y-15.516
X-161.409 Y-15.517
X-161.367 Y-15.356
X-161.361 Y-12.458
X-161.359 Y-12.394
X-161.35 Y-12.331
X-161.322 Y-12.168
X-161.302 Y-12.085
X-161.274 Y-12.004
X-161.205 Y-11.842
X-161.172 Y-11.774
X-161.132 Y-11.71
X-161.061 Y-11.606
X-161.02 Y-11.552
X-160.975 Y-11.502
X-160.872 Y-11.399
X-160.821 Y-11.352
X-160.765 Y-11.31
X-160.657 Y-11.236
X-160.591 Y-11.195
X-160.521 Y-11.162
X-160.359 Y-11.094
X-160.278 Y-11.065
X-160.194 Y-11.046
X-160.032 Y-11.019
X-159.969 Y-11.011
X-159.906 Y-11.008
X8.188 Y-11.007
X8.192 Y17.733
X8.195 Y17.805
X8.206 Y17.877
X8.233 Y18.015
X8.251 Y18.088
X8.277 Y18.16
X8.339 Y18.31
X8.375 Y18.383
X8.418 Y18.453
X8.512 Y18.586
X8.564 Y18.652
X8.623 Y18.711
X8.75 Y18.825
X8.81 Y18.874
X8.876 Y18.917
X8.996 Y18.987
X9.066 Y19.023
X9.14 Y19.051
X9.309 Y19.106
X9.378 Y19.125
X9.449 Y19.138
X9.558 Y19.151
X9.65 Y19.157
X15.492 Y19.158
X15.908 Y19.179
X15.946 Y19.18
X20.406
Y19.285
X20.311 Y19.282
X20.288 Y19.281
X15.965 Y19.28
X15.55 Y19.259
X15.512 Y19.258
X8.335 Y19.253
X8.077 Y19.225
X8.082 Y18.929
X8.086 Y18.905 Z-2.993
X8.096 Y18.882 Z-2.987
X8.12 Y18.854 Z-2.95
X8.131 Y18.846 Z-2.9
G0 Z4
X8.126 Y19.015
Z2
G1 Z-1 F333.3
Z-3.9
X8.116 Y19.006 Z-3.95
X8.093 Y18.978 Z-3.987
