(1001)
(T4  D=3 CR=0 - ZMIN=-17 - flat end mill)
G90 G94
G17
G21

(2D Contour1 2)
T4
S15000 M3
G54
M8
G0 X-227.523 Y-72.699
Z6
Z2
G1 Z1.4 F333.3
Z-0.4
X5.406 F700
G2 X21.906 Y-89.199 I0 J-16.5
G1 Y-192.128
G2 X5.406 Y-208.628 I-16.5 J0
G1 X-227.523
G2 X-244.023 Y-192.128 I0 J16.5
G1 Y-89.199
G2 X-227.523 Y-72.699 I16.5 J0
G1 Z-0.8 F333.3
X5.406 F700
G2 X21.906 Y-89.199 I0 J-16.5
G1 Y-192.128
G2 X5.406 Y-208.628 I-16.5 J0
G1 X-227.523
G2 X-244.023 Y-192.128 I0 J16.5
G1 Y-89.199
G2 X-227.523 Y-72.699 I16.5 J0
G1 Z-1.2 F333.3
X5.406 F700
G2 X21.906 Y-89.199 I0 J-16.5
G1 Y-192.128
G2 X5.406 Y-208.628 I-16.5 J0
G1 X-227.523
G2 X-244.023 Y-192.128 I0 J16.5
G1 Y-89.199
G2 X-227.523 Y-72.699 I16.5 J0
G1 Z-1.6 F333.3
X5.406 F700
G2 X21.906 Y-89.199 I0 J-16.5
G1 Y-192.128
G2 X5.406 Y-208.628 I-16.5 J0
G1 X-227.523
G2 X-244.023 Y-192.128 I0 J16.5
G1 Y-89.199
G2 X-227.523 Y-72.699 I16.5 J0
G1 Z-2 F333.3
X5.406 F700
G2 X21.906 Y-89.199 I0 J-16.5
G1 Y-192.128
G2 X5.406 Y-208.628 I-16.5 J0
G1 X-227.523
G2 X-244.023 Y-192.128 I0 J16.5
G1 Y-89.199
G2 X-227.523 Y-72.699 I16.5 J0
G1 Z-2.4 F333.3
X5.406 F700
G2 X21.906 Y-89.199 I0 J-16.5
G1 Y-192.128
G2 X5.406 Y-208.628 I-16.5 J0
G1 X-227.523
G2 X-244.023 Y-192.128 I0 J16.5
G1 Y-89.199
G2 X-227.523 Y-72.699 I16.5 J0
G1 Z-2.8 F333.3
X5.406 F700
G2 X21.906 Y-89.199 I0 J-16.5
G1 Y-192.128
G2 X5.406 Y-208.628 I-16.5 J0
G1 X-227.523
G2 X-244.023 Y-192.128 I0 J16.5
G1 Y-89.199
G2 X-227.523 Y-72.699 I16.5 J0
G1 Z-3.2 F333.3
X5.406 F700
G2 X21.906 Y-89.199 I0 J-16.5
G1 Y-192.128
G2 X5.406 Y-208.628 I-16.5 J0
G1 X-227.523
G2 X-244.023 Y-192.128 I0 J16.5
G1 Y-89.199
G2 X-227.523 Y-72.699 I16.5 J0
G1 Z-3.6 F333.3
X5.406 F700
G2 X21.906 Y-89.199 I0 J-16.5
G1 Y-192.128
G2 X5.406 Y-208.628 I-16.5 J0
G1 X-227.523
G2 X-244.023 Y-192.128 I0 J16.5
G1 Y-89.199
G2 X-227.523 Y-72.699 I16.5 J0
G1 Z-4 F333.3
X5.406 F700
G2 X21.906 Y-89.199 I0 J-16.5
G1 Y-192.128
G2 X5.406 Y-208.628 I-16.5 J0
G1 X-227.523
G2 X-244.023 Y-192.128 I0 J16.5
G1 Y-89.199
G2 X-227.523 Y-72.699 I16.5 J0
G1 Z-4.4 F333.3
X5.406 F700
G2 X21.906 Y-89.199 I0 J-16.5
G1 Y-192.128
G2 X5.406 Y-208.628 I-16.5 J0
G1 X-227.523
G2 X-244.023 Y-192.128 I0 J16.5
G1 Y-89.199
G2 X-227.523 Y-72.699 I16.5 J0
G1 Z-4.8 F333.3
X5.406 F700
G2 X21.906 Y-89.199 I0 J-16.5
G1 Y-192.128
G2 X5.406 Y-208.628 I-16.5 J0
G1 X-227.523
G2 X-244.023 Y-192.128 I0 J16.5
G1 Y-89.199
G2 X-227.523 Y-72.699 I16.5 J0
G1 Z-5.2 F333.3
X5.406 F700
G2 X21.906 Y-89.199 I0 J-16.5
G1 Y-192.128
G2 X5.406 Y-208.628 I-16.5 J0
G1 X-227.523
G2 X-244.023 Y-192.128 I0 J16.5
G1 Y-89.199
G2 X-227.523 Y-72.699 I16.5 J0
G1 Z-5.6 F333.3
X5.406 F700
G2 X21.906 Y-89.199 I0 J-16.5
G1 Y-192.128
G2 X5.406 Y-208.628 I-16.5 J0
G1 X-227.523
G2 X-244.023 Y-192.128 I0 J16.5
G1 Y-89.199
G2 X-227.523 Y-72.699 I16.5 J0
G1 Z-6 F333.3
X5.406 F700
G2 X21.906 Y-89.199 I0 J-16.5
G1 Y-192.128
G2 X5.406 Y-208.628 I-16.5 J0
G1 X-227.523
G2 X-244.023 Y-192.128 I0 J16.5
G1 Y-89.199
G2 X-227.523 Y-72.699 I16.5 J0
G1 Z-6.4 F333.3
X5.406 F700
G2 X21.906 Y-89.199 I0 J-16.5
G1 Y-192.128
G2 X5.406 Y-208.628 I-16.5 J0
G1 X-227.523
G2 X-244.023 Y-192.128 I0 J16.5
G1 Y-89.199
G2 X-227.523 Y-72.699 I16.5 J0
G1 Z-6.8 F333.3
X5.406 F700
G2 X21.906 Y-89.199 I0 J-16.5
G1 Y-192.128
G2 X5.406 Y-208.628 I-16.5 J0
G1 X-227.523
G2 X-244.023 Y-192.128 I0 J16.5
G1 Y-89.199
G2 X-227.523 Y-72.699 I16.5 J0
G1 Z-7.2 F333.3
X5.406 F700
G2 X21.906 Y-89.199 I0 J-16.5
G1 Y-192.128
G2 X5.406 Y-208.628 I-16.5 J0
G1 X-227.523
G2 X-244.023 Y-192.128 I0 J16.5
G1 Y-89.199
G2 X-227.523 Y-72.699 I16.5 J0
G1 Z-7.6 F333.3
X5.406 F700
G2 X21.906 Y-89.199 I0 J-16.5
G1 Y-192.128
G2 X5.406 Y-208.628 I-16.5 J0
G1 X-227.523
G2 X-244.023 Y-192.128 I0 J16.5
G1 Y-89.199
G2 X-227.523 Y-72.699 I16.5 J0
G1 Z-8 F333.3
X5.406 F700
G2 X21.906 Y-89.199 I0 J-16.5
G1 Y-192.128
G2 X5.406 Y-208.628 I-16.5 J0
G1 X-227.523
G2 X-244.023 Y-192.128 I0 J16.5
G1 Y-89.199
G2 X-227.523 Y-72.699 I16.5 J0
G1 Z-8.4 F333.3
X5.406 F700
G2 X21.906 Y-89.199 I0 J-16.5
G1 Y-192.128
G2 X5.406 Y-208.628 I-16.5 J0
G1 X-227.523
G2 X-244.023 Y-192.128 I0 J16.5
G1 Y-89.199
G2 X-227.523 Y-72.699 I16.5 J0
G1 Z-8.8 F333.3
X5.406 F700
G2 X21.906 Y-89.199 I0 J-16.5
G1 Y-192.128
G2 X5.406 Y-208.628 I-16.5 J0
G1 X-227.523
G2 X-244.023 Y-192.128 I0 J16.5
G1 Y-89.199
G2 X-227.523 Y-72.699 I16.5 J0
G1 Z-9.2 F333.3
X5.406 F700
G2 X21.906 Y-89.199 I0 J-16.5
G1 Y-192.128
G2 X5.406 Y-208.628 I-16.5 J0
G1 X-227.523
G2 X-244.023 Y-192.128 I0 J16.5
G1 Y-89.199
G2 X-227.523 Y-72.699 I16.5 J0
G1 Z-9.6 F333.3
X5.406 F700
G2 X21.906 Y-89.199 I0 J-16.5
G1 Y-192.128
G2 X5.406 Y-208.628 I-16.5 J0
G1 X-227.523
G2 X-244.023 Y-192.128 I0 J16.5
G1 Y-89.199
G2 X-227.523 Y-72.699 I16.5 J0
G1 Z-10 F333.3
X5.406 F700
G2 X21.906 Y-89.199 I0 J-16.5
G1 Y-192.128
G2 X5.406 Y-208.628 I-16.5 J0
G1 X-227.523
G2 X-244.023 Y-192.128 I0 J16.5
G1 Y-89.199
G2 X-227.523 Y-72.699 I16.5 J0
G1 Z-10.4 F333.3
X5.406 F700
G2 X21.906 Y-89.199 I0 J-16.5
G1 Y-192.128
G2 X5.406 Y-208.628 I-16.5 J0
G1 X-227.523
G2 X-244.023 Y-192.128 I0 J16.5
G1 Y-89.199
G2 X-227.523 Y-72.699 I16.5 J0
G1 Z-10.8 F333.3
X5.406 F700
G2 X21.906 Y-89.199 I0 J-16.5
G1 Y-192.128
G2 X5.406 Y-208.628 I-16.5 J0
G1 X-227.523
G2 X-244.023 Y-192.128 I0 J16.5
G1 Y-89.199
G2 X-227.523 Y-72.699 I16.5 J0
G1 Z-11.2 F333.3
X5.406 F700
G2 X21.906 Y-89.199 I0 J-16.5
G1 Y-192.128
G2 X5.406 Y-208.628 I-16.5 J0
G1 X-227.523
G2 X-244.023 Y-192.128 I0 J16.5
G1 Y-89.199
G2 X-227.523 Y-72.699 I16.5 J0
G1 Z-11.6 F333.3
X5.406 F700
G2 X21.906 Y-89.199 I0 J-16.5
G1 Y-192.128
G2 X5.406 Y-208.628 I-16.5 J0
G1 X-227.523
G2 X-244.023 Y-192.128 I0 J16.5
G1 Y-89.199
G2 X-227.523 Y-72.699 I16.5 J0
G1 Z-12 F333.3
X5.406 F700
G2 X21.906 Y-89.199 I0 J-16.5
G1 Y-192.128
G2 X5.406 Y-208.628 I-16.5 J0
G1 X-227.523
G2 X-244.023 Y-192.128 I0 J16.5
G1 Y-89.199
G2 X-227.523 Y-72.699 I16.5 J0
G1 Z-12.4 F333.3
X5.406 F700
G2 X21.906 Y-89.199 I0 J-16.5
G1 Y-192.128
G2 X5.406 Y-208.628 I-16.5 J0
G1 X-227.523
G2 X-244.023 Y-192.128 I0 J16.5
G1 Y-89.199
G2 X-227.523 Y-72.699 I16.5 J0
G1 Z-12.8 F333.3
X5.406 F700
G2 X21.906 Y-89.199 I0 J-16.5
G1 Y-192.128
G2 X5.406 Y-208.628 I-16.5 J0
G1 X-227.523
G2 X-244.023 Y-192.128 I0 J16.5
G1 Y-89.199
G2 X-227.523 Y-72.699 I16.5 J0
G1 Z-13.2 F333.3
X5.406 F700
G2 X21.906 Y-89.199 I0 J-16.5
G1 Y-192.128
G2 X5.406 Y-208.628 I-16.5 J0
G1 X-227.523
G2 X-244.023 Y-192.128 I0 J16.5
G1 Y-89.199
G2 X-227.523 Y-72.699 I16.5 J0
G1 Z-13.6 F333.3
X5.406 F700
G2 X21.906 Y-89.199 I0 J-16.5
G1 Y-192.128
G2 X5.406 Y-208.628 I-16.5 J0
G1 X-227.523
G2 X-244.023 Y-192.128 I0 J16.5
G1 Y-89.199
G2 X-227.523 Y-72.699 I16.5 J0
G1 Z-14 F333.3
X5.406 F700
G2 X21.906 Y-89.199 I0 J-16.5
G1 Y-192.128
G2 X5.406 Y-208.628 I-16.5 J0
G1 X-227.523
G2 X-244.023 Y-192.128 I0 J16.5
G1 Y-89.199
G2 X-227.523 Y-72.699 I16.5 J0
G1 Z-14.4 F333.3
X5.406 F700
G2 X21.906 Y-89.199 I0 J-16.5
G1 Y-192.128
G2 X5.406 Y-208.628 I-16.5 J0
G1 X-227.523
G2 X-244.023 Y-192.128 I0 J16.5
G1 Y-89.199
G2 X-227.523 Y-72.699 I16.5 J0
G1 Z-14.8 F333.3
X5.406 F700
G2 X21.906 Y-89.199 I0 J-16.5
G1 Y-192.128
G2 X5.406 Y-208.628 I-16.5 J0
G1 X-227.523
G2 X-244.023 Y-192.128 I0 J16.5
G1 Y-89.199
G2 X-227.523 Y-72.699 I16.5 J0
G1 Z-15.2 F333.3
X5.406 F700
G2 X21.906 Y-89.199 I0 J-16.5
G1 Y-192.128
G2 X5.406 Y-208.628 I-16.5 J0
G1 X-227.523
G2 X-244.023 Y-192.128 I0 J16.5
G1 Y-89.199
G2 X-227.523 Y-72.699 I16.5 J0
G1 Z-15.6 F333.3
X5.406 F700
G2 X21.906 Y-89.199 I0 J-16.5
G1 Y-192.128
G2 X5.406 Y-208.628 I-16.5 J0
G1 X-227.523
G2 X-244.023 Y-192.128 I0 J16.5
G1 Y-89.199
G2 X-227.523 Y-72.699 I16.5 J0
G1 Z-16 F333.3
X5.406 F700
G2 X21.906 Y-89.199 I0 J-16.5
G1 Y-192.128
G2 X5.406 Y-208.628 I-16.5 J0
G1 X-227.523
G2 X-244.023 Y-192.128 I0 J16.5
G1 Y-89.199
G2 X-227.523 Y-72.699 I16.5 J0
G1 Z-16.4 F333.3
X-217.582 F700
Z-16.25
X-211.582
Z-16.4 F333.3
X-191.701 F700
Z-16.25
X-185.701
Z-16.4 F333.3
X-165.82 F700
Z-16.25
X-159.82
Z-16.4 F333.3
X-139.939 F700
Z-16.25
X-133.939
Z-16.4 F333.3
X-114.058 F700
Z-16.25
X-108.058
Z-16.4 F333.3
X-88.177 F700
Z-16.25
X-82.177
Z-16.4 F333.3
X-62.296 F700
Z-16.25
X-56.296
Z-16.4 F333.3
X-36.415 F700
Z-16.25
X-30.415
Z-16.4 F333.3
X-10.534 F700
Z-16.25
X-4.534
Z-16.4 F333.3
X5.406 F700
G2 X21.906 Y-89.199 I0 J-16.5
G1 Y-99.065
Z-16.25
Y-105.065
Z-16.4 F333.3
Y-124.797 F700
Z-16.25
Y-130.797
Z-16.4 F333.3
Y-150.529 F700
Z-16.25
Y-156.529
Z-16.4 F333.3
Y-176.262 F700
Z-16.25
Y-182.262
Z-16.4 F333.3
Y-192.128 F700
G2 X5.406 Y-208.628 I-16.5 J0
G1 X-4.534
Z-16.25
X-10.534
Z-16.4 F333.3
X-30.415 F700
Z-16.25
X-36.415
Z-16.4 F333.3
X-56.296 F700
Z-16.25
X-62.296
Z-16.4 F333.3
X-82.177 F700
Z-16.25
X-88.177
Z-16.4 F333.3
X-108.058 F700
Z-16.25
X-114.058
Z-16.4 F333.3
X-133.939 F700
Z-16.25
X-139.939
Z-16.4 F333.3
X-159.82 F700
Z-16.25
X-165.82
Z-16.4 F333.3
X-185.701 F700
Z-16.25
X-191.701
Z-16.4 F333.3
X-211.582 F700
Z-16.25
X-217.582
Z-16.4 F333.3
X-227.523 F700
G2 X-244.023 Y-192.128 I0 J16.5
G1 Y-182.262
Z-16.25
Y-176.262
Z-16.4 F333.3
Y-156.529 F700
Z-16.25
Y-150.529
Z-16.4 F333.3
Y-130.797 F700
Z-16.25
Y-124.797
Z-16.4 F333.3
Y-105.065 F700
Z-16.25
Y-99.065
Z-16.4 F333.3
Y-89.199 F700
G2 X-227.523 Y-72.699 I16.5 J0
G1 Z-16.8 F333.3
X-217.582 F700
Z-16.25
X-211.582
Z-16.8 F333.3
X-191.701 F700
Z-16.25
X-185.701
Z-16.8 F333.3
X-165.82 F700
Z-16.25
X-159.82
Z-16.8 F333.3
X-139.939 F700
Z-16.25
X-133.939
Z-16.8 F333.3
X-114.058 F700
Z-16.25
X-108.058
Z-16.8 F333.3
X-88.177 F700
Z-16.25
X-82.177
Z-16.8 F333.3
X-62.296 F700
Z-16.25
X-56.296
Z-16.8 F333.3
X-36.415 F700
Z-16.25
X-30.415
Z-16.8 F333.3
X-10.534 F700
Z-16.25
X-4.534
Z-16.8 F333.3
X5.406 F700
G2 X21.906 Y-89.199 I0 J-16.5
G1 Y-99.065
Z-16.25
Y-105.065
Z-16.8 F333.3
Y-124.797 F700
Z-16.25
Y-130.797
Z-16.8 F333.3
Y-150.529 F700
Z-16.25
Y-156.529
Z-16.8 F333.3
Y-176.262 F700
Z-16.25
Y-182.262
Z-16.8 F333.3
Y-192.128 F700
G2 X5.406 Y-208.628 I-16.5 J0
G1 X-4.534
Z-16.25
X-10.534
Z-16.8 F333.3
X-30.415 F700
Z-16.25
X-36.415
Z-16.8 F333.3
X-56.296 F700
Z-16.25
X-62.296
Z-16.8 F333.3
X-82.177 F700
Z-16.25
X-88.177
Z-16.8 F333.3
X-108.058 F700
Z-16.25
X-114.058
Z-16.8 F333.3
X-133.939 F700
Z-16.25
X-139.939
Z-16.8 F333.3
X-159.82 F700
Z-16.25
X-165.82
Z-16.8 F333.3
X-185.701 F700
Z-16.25
X-191.701
Z-16.8 F333.3
X-211.582 F700
Z-16.25
X-217.582
Z-16.8 F333.3
X-227.523 F700
G2 X-244.023 Y-192.128 I0 J16.5
G1 Y-182.262
Z-16.25
Y-176.262
Z-16.8 F333.3
Y-156.529 F700
Z-16.25
Y-150.529
Z-16.8 F333.3
Y-130.797 F700
Z-16.25
Y-124.797
Z-16.8 F333.3
Y-105.065 F700
Z-16.25
Y-99.065
Z-16.8 F333.3
Y-89.199 F700
G2 X-227.523 Y-72.699 I16.5 J0
G1 Z-17 F333.3
X-217.582 F700
Z-16.25
X-211.582
Z-17 F333.3
X-191.701 F700
Z-16.25
X-185.701
Z-17 F333.3
X-165.82 F700
Z-16.25
X-159.82
Z-17 F333.3
X-139.939 F700
Z-16.25
X-133.939
Z-17 F333.3
X-114.058 F700
Z-16.25
X-108.058
Z-17 F333.3
X-88.177 F700
Z-16.25
X-82.177
Z-17 F333.3
X-62.296 F700
Z-16.25
X-56.296
Z-17 F333.3
X-36.415 F700
Z-16.25
X-30.415
Z-17 F333.3
X-10.534 F700
Z-16.25
X-4.534
Z-17 F333.3
X5.406 F700
G2 X21.906 Y-89.199 I0 J-16.5
G1 Y-99.065
Z-16.25
Y-105.065
Z-17 F333.3
Y-124.797 F700
Z-16.25
Y-130.797
Z-17 F333.3
Y-150.529 F700
Z-16.25
Y-156.529
Z-17 F333.3
Y-176.262 F700
Z-16.25
Y-182.262
Z-17 F333.3
Y-192.128 F700
G2 X5.406 Y-208.628 I-16.5 J0
G1 X-4.534
Z-16.25
X-10.534
Z-17 F333.3
X-30.415 F700
Z-16.25
X-36.415
Z-17 F333.3
X-56.296 F700
Z-16.25
X-62.296
Z-17 F333.3
X-82.177 F700
Z-16.25
X-88.177
Z-17 F333.3
X-108.058 F700
Z-16.25
X-114.058
Z-17 F333.3
X-133.939 F700
Z-16.25
X-139.939
Z-17 F333.3
X-159.82 F700
Z-16.25
X-165.82
Z-17 F333.3
X-185.701 F700
Z-16.25
X-191.701
Z-17 F333.3
X-211.582 F700
Z-16.25
X-217.582
Z-17 F333.3
X-227.523 F700
G2 X-244.023 Y-192.128 I0 J16.5
G1 Y-182.262
Z-16.25
Y-176.262
Z-17 F333.3
Y-156.529 F700
Z-16.25
Y-150.529
Z-17 F333.3
Y-130.797 F700
Z-16.25
Y-124.797
Z-17 F333.3
Y-105.065 F700
Z-16.25
Y-99.065
Z-17 F333.3
Y-89.199 F700
G2 X-227.523 Y-72.699 I16.5 J0
G0 Z4
X-230.535 Y-21.279
Z2
G1 Z1.4 F333.3
Z-0.4
G2 X-244.023 Y-5.057 I3.012 J16.223 F700
G1 Y97.872
G2 X-227.523 Y114.372 I16.5 J0
G1 X5.406
G2 X21.906 Y97.872 I0 J-16.5
G1 Y-5.057
G2 X5.406 Y-21.557 I-16.5 J0
G1 X-227.523
G2 X-230.535 Y-21.279 I0 J16.5
G1 Z-0.8 F333.3
G2 X-244.023 Y-5.057 I3.012 J16.223 F700
G1 Y97.872
G2 X-227.523 Y114.372 I16.5 J0
G1 X5.406
G2 X21.906 Y97.872 I0 J-16.5
G1 Y-5.057
G2 X5.406 Y-21.557 I-16.5 J0
G1 X-227.523
G2 X-230.535 Y-21.279 I0 J16.5
G1 Z-1.2 F333.3
G2 X-244.023 Y-5.057 I3.012 J16.223 F700
G1 Y97.872
G2 X-227.523 Y114.372 I16.5 J0
G1 X5.406
G2 X21.906 Y97.872 I0 J-16.5
G1 Y-5.057
G2 X5.406 Y-21.557 I-16.5 J0
G1 X-227.523
G2 X-230.535 Y-21.279 I0 J16.5
G1 Z-1.6 F333.3
G2 X-244.023 Y-5.057 I3.012 J16.223 F700
G1 Y97.872
G2 X-227.523 Y114.372 I16.5 J0
G1 X5.406
G2 X21.906 Y97.872 I0 J-16.5
G1 Y-5.057
G2 X5.406 Y-21.557 I-16.5 J0
G1 X-227.523
G2 X-230.535 Y-21.279 I0 J16.5
G1 Z-2 F333.3
G2 X-244.023 Y-5.057 I3.012 J16.223 F700
G1 Y97.872
G2 X-227.523 Y114.372 I16.5 J0
G1 X5.406
G2 X21.906 Y97.872 I0 J-16.5
G1 Y-5.057
G2 X5.406 Y-21.557 I-16.5 J0
G1 X-227.523
G2 X-230.535 Y-21.279 I0 J16.5
G1 Z-2.4 F333.3
G2 X-244.023 Y-5.057 I3.012 J16.223 F700
G1 Y97.872
G2 X-227.523 Y114.372 I16.5 J0
G1 X5.406
G2 X21.906 Y97.872 I0 J-16.5
G1 Y-5.057
G2 X5.406 Y-21.557 I-16.5 J0
G1 X-227.523
G2 X-230.535 Y-21.279 I0 J16.5
G1 Z-2.8 F333.3
G2 X-244.023 Y-5.057 I3.012 J16.223 F700
G1 Y97.872
G2 X-227.523 Y114.372 I16.5 J0
G1 X5.406
G2 X21.906 Y97.872 I0 J-16.5
G1 Y-5.057
G2 X5.406 Y-21.557 I-16.5 J0
G1 X-227.523
G2 X-230.535 Y-21.279 I0 J16.5
G1 Z-3.2 F333.3
G2 X-244.023 Y-5.057 I3.012 J16.223 F700
G1 Y97.872
G2 X-227.523 Y114.372 I16.5 J0
G1 X5.406
G2 X21.906 Y97.872 I0 J-16.5
G1 Y-5.057
G2 X5.406 Y-21.557 I-16.5 J0
G1 X-227.523
G2 X-230.535 Y-21.279 I0 J16.5
G1 Z-3.6 F333.3
G2 X-244.023 Y-5.057 I3.012 J16.223 F700
G1 Y97.872
G2 X-227.523 Y114.372 I16.5 J0
G1 X5.406
G2 X21.906 Y97.872 I0 J-16.5
G1 Y-5.057
G2 X5.406 Y-21.557 I-16.5 J0
G1 X-227.523
G2 X-230.535 Y-21.279 I0 J16.5
G1 Z-4 F333.3
G2 X-244.023 Y-5.057 I3.012 J16.223 F700
G1 Y97.872
G2 X-227.523 Y114.372 I16.5 J0
G1 X5.406
G2 X21.906 Y97.872 I0 J-16.5
G1 Y-5.057
G2 X5.406 Y-21.557 I-16.5 J0
G1 X-227.523
G2 X-230.535 Y-21.279 I0 J16.5
G1 Z-4.4 F333.3
G2 X-244.023 Y-5.057 I3.012 J16.223 F700
G1 Y97.872
G2 X-227.523 Y114.372 I16.5 J0
G1 X5.406
G2 X21.906 Y97.872 I0 J-16.5
G1 Y-5.057
G2 X5.406 Y-21.557 I-16.5 J0
G1 X-227.523
G2 X-230.535 Y-21.279 I0 J16.5
G1 Z-4.8 F333.3
G2 X-244.023 Y-5.057 I3.012 J16.223 F700
G1 Y97.872
G2 X-227.523 Y114.372 I16.5 J0
G1 X5.406
G2 X21.906 Y97.872 I0 J-16.5
G1 Y-5.057
G2 X5.406 Y-21.557 I-16.5 J0
G1 X-227.523
G2 X-230.535 Y-21.279 I0 J16.5
G1 Z-5.2 F333.3
G2 X-244.023 Y-5.057 I3.012 J16.223 F700
G1 Y97.872
G2 X-227.523 Y114.372 I16.5 J0
G1 X5.406
G2 X21.906 Y97.872 I0 J-16.5
G1 Y-5.057
G2 X5.406 Y-21.557 I-16.5 J0
G1 X-227.523
G2 X-230.535 Y-21.279 I0 J16.5
G1 Z-5.6 F333.3
G2 X-244.023 Y-5.057 I3.012 J16.223 F700
G1 Y97.872
G2 X-227.523 Y114.372 I16.5 J0
G1 X5.406
G2 X21.906 Y97.872 I0 J-16.5
G1 Y-5.057
G2 X5.406 Y-21.557 I-16.5 J0
G1 X-227.523
G2 X-230.535 Y-21.279 I0 J16.5
G1 Z-6 F333.3
G2 X-244.023 Y-5.057 I3.012 J16.223 F700
G1 Y97.872
G2 X-227.523 Y114.372 I16.5 J0
G1 X5.406
G2 X21.906 Y97.872 I0 J-16.5
G1 Y-5.057
G2 X5.406 Y-21.557 I-16.5 J0
G1 X-227.523
G2 X-230.535 Y-21.279 I0 J16.5
G1 Z-6.4 F333.3
G2 X-244.023 Y-5.057 I3.012 J16.223 F700
G1 Y97.872
G2 X-227.523 Y114.372 I16.5 J0
G1 X5.406
G2 X21.906 Y97.872 I0 J-16.5
G1 Y-5.057
G2 X5.406 Y-21.557 I-16.5 J0
G1 X-227.523
G2 X-230.535 Y-21.279 I0 J16.5
G1 Z-6.8 F333.3
G2 X-244.023 Y-5.057 I3.012 J16.223 F700
G1 Y97.872
G2 X-227.523 Y114.372 I16.5 J0
G1 X5.406
G2 X21.906 Y97.872 I0 J-16.5
G1 Y-5.057
G2 X5.406 Y-21.557 I-16.5 J0
G1 X-227.523
G2 X-230.535 Y-21.279 I0 J16.5
G1 Z-7.2 F333.3
G2 X-244.023 Y-5.057 I3.012 J16.223 F700
G1 Y97.872
G2 X-227.523 Y114.372 I16.5 J0
G1 X5.406
G2 X21.906 Y97.872 I0 J-16.5
G1 Y-5.057
G2 X5.406 Y-21.557 I-16.5 J0
G1 X-227.523
G2 X-230.535 Y-21.279 I0 J16.5
G1 Z-7.6 F333.3
G2 X-244.023 Y-5.057 I3.012 J16.223 F700
G1 Y97.872
G2 X-227.523 Y114.372 I16.5 J0
G1 X5.406
G2 X21.906 Y97.872 I0 J-16.5
G1 Y-5.057
G2 X5.406 Y-21.557 I-16.5 J0
G1 X-227.523
G2 X-230.535 Y-21.279 I0 J16.5
G1 Z-8 F333.3
G2 X-244.023 Y-5.057 I3.012 J16.223 F700
G1 Y97.872
G2 X-227.523 Y114.372 I16.5 J0
G1 X5.406
G2 X21.906 Y97.872 I0 J-16.5
G1 Y-5.057
G2 X5.406 Y-21.557 I-16.5 J0
G1 X-227.523
G2 X-230.535 Y-21.279 I0 J16.5
G1 Z-8.4 F333.3
G2 X-244.023 Y-5.057 I3.012 J16.223 F700
G1 Y97.872
G2 X-227.523 Y114.372 I16.5 J0
G1 X5.406
G2 X21.906 Y97.872 I0 J-16.5
G1 Y-5.057
G2 X5.406 Y-21.557 I-16.5 J0
G1 X-227.523
G2 X-230.535 Y-21.279 I0 J16.5
G1 Z-8.8 F333.3
G2 X-244.023 Y-5.057 I3.012 J16.223 F700
G1 Y97.872
G2 X-227.523 Y114.372 I16.5 J0
G1 X5.406
G2 X21.906 Y97.872 I0 J-16.5
G1 Y-5.057
G2 X5.406 Y-21.557 I-16.5 J0
G1 X-227.523
G2 X-230.535 Y-21.279 I0 J16.5
G1 Z-9.2 F333.3
G2 X-244.023 Y-5.057 I3.012 J16.223 F700
G1 Y97.872
G2 X-227.523 Y114.372 I16.5 J0
G1 X5.406
G2 X21.906 Y97.872 I0 J-16.5
G1 Y-5.057
G2 X5.406 Y-21.557 I-16.5 J0
G1 X-227.523
G2 X-230.535 Y-21.279 I0 J16.5
G1 Z-9.6 F333.3
G2 X-244.023 Y-5.057 I3.012 J16.223 F700
G1 Y97.872
G2 X-227.523 Y114.372 I16.5 J0
G1 X5.406
G2 X21.906 Y97.872 I0 J-16.5
G1 Y-5.057
G2 X5.406 Y-21.557 I-16.5 J0
G1 X-227.523
G2 X-230.535 Y-21.279 I0 J16.5
G1 Z-10 F333.3
G2 X-244.023 Y-5.057 I3.012 J16.223 F700
G1 Y97.872
G2 X-227.523 Y114.372 I16.5 J0
G1 X5.406
G2 X21.906 Y97.872 I0 J-16.5
G1 Y-5.057
G2 X5.406 Y-21.557 I-16.5 J0
G1 X-227.523
G2 X-230.535 Y-21.279 I0 J16.5
G1 Z-10.4 F333.3
G2 X-244.023 Y-5.057 I3.012 J16.223 F700
G1 Y97.872
G2 X-227.523 Y114.372 I16.5 J0
G1 X5.406
G2 X21.906 Y97.872 I0 J-16.5
G1 Y-5.057
G2 X5.406 Y-21.557 I-16.5 J0
G1 X-227.523
G2 X-230.535 Y-21.279 I0 J16.5
G1 Z-10.8 F333.3
G2 X-244.023 Y-5.057 I3.012 J16.223 F700
G1 Y97.872
G2 X-227.523 Y114.372 I16.5 J0
G1 X5.406
G2 X21.906 Y97.872 I0 J-16.5
G1 Y-5.057
G2 X5.406 Y-21.557 I-16.5 J0
G1 X-227.523
G2 X-230.535 Y-21.279 I0 J16.5
G1 Z-11.2 F333.3
G2 X-244.023 Y-5.057 I3.012 J16.223 F700
G1 Y97.872
G2 X-227.523 Y114.372 I16.5 J0
G1 X5.406
G2 X21.906 Y97.872 I0 J-16.5
G1 Y-5.057
G2 X5.406 Y-21.557 I-16.5 J0
G1 X-227.523
G2 X-230.535 Y-21.279 I0 J16.5
G1 Z-11.6 F333.3
G2 X-244.023 Y-5.057 I3.012 J16.223 F700
G1 Y97.872
G2 X-227.523 Y114.372 I16.5 J0
G1 X5.406
G2 X21.906 Y97.872 I0 J-16.5
G1 Y-5.057
G2 X5.406 Y-21.557 I-16.5 J0
G1 X-227.523
G2 X-230.535 Y-21.279 I0 J16.5
G1 Z-12 F333.3
G2 X-244.023 Y-5.057 I3.012 J16.223 F700
G1 Y97.872
G2 X-227.523 Y114.372 I16.5 J0
G1 X5.406
G2 X21.906 Y97.872 I0 J-16.5
G1 Y-5.057
G2 X5.406 Y-21.557 I-16.5 J0
G1 X-227.523
G2 X-230.535 Y-21.279 I0 J16.5
G1 Z-12.4 F333.3
G2 X-244.023 Y-5.057 I3.012 J16.223 F700
G1 Y97.872
G2 X-227.523 Y114.372 I16.5 J0
G1 X5.406
G2 X21.906 Y97.872 I0 J-16.5
G1 Y-5.057
G2 X5.406 Y-21.557 I-16.5 J0
G1 X-227.523
G2 X-230.535 Y-21.279 I0 J16.5
G1 Z-12.8 F333.3
G2 X-244.023 Y-5.057 I3.012 J16.223 F700
G1 Y97.872
G2 X-227.523 Y114.372 I16.5 J0
G1 X5.406
G2 X21.906 Y97.872 I0 J-16.5
G1 Y-5.057
G2 X5.406 Y-21.557 I-16.5 J0
G1 X-227.523
G2 X-230.535 Y-21.279 I0 J16.5
G1 Z-13.2 F333.3
G2 X-244.023 Y-5.057 I3.012 J16.223 F700
G1 Y97.872
G2 X-227.523 Y114.372 I16.5 J0
G1 X5.406
G2 X21.906 Y97.872 I0 J-16.5
G1 Y-5.057
G2 X5.406 Y-21.557 I-16.5 J0
G1 X-227.523
G2 X-230.535 Y-21.279 I0 J16.5
G1 Z-13.6 F333.3
G2 X-244.023 Y-5.057 I3.012 J16.223 F700
G1 Y97.872
G2 X-227.523 Y114.372 I16.5 J0
G1 X5.406
G2 X21.906 Y97.872 I0 J-16.5
G1 Y-5.057
G2 X5.406 Y-21.557 I-16.5 J0
G1 X-227.523
G2 X-230.535 Y-21.279 I0 J16.5
G1 Z-14 F333.3
G2 X-244.023 Y-5.057 I3.012 J16.223 F700
G1 Y97.872
G2 X-227.523 Y114.372 I16.5 J0
G1 X5.406
G2 X21.906 Y97.872 I0 J-16.5
G1 Y-5.057
G2 X5.406 Y-21.557 I-16.5 J0
G1 X-227.523
G2 X-230.535 Y-21.279 I0 J16.5
G1 Z-14.4 F333.3
G2 X-244.023 Y-5.057 I3.012 J16.223 F700
G1 Y97.872
G2 X-227.523 Y114.372 I16.5 J0
G1 X5.406
G2 X21.906 Y97.872 I0 J-16.5
G1 Y-5.057
G2 X5.406 Y-21.557 I-16.5 J0
G1 X-227.523
G2 X-230.535 Y-21.279 I0 J16.5
G1 Z-14.8 F333.3
G2 X-244.023 Y-5.057 I3.012 J16.223 F700
G1 Y97.872
G2 X-227.523 Y114.372 I16.5 J0
G1 X5.406
G2 X21.906 Y97.872 I0 J-16.5
G1 Y-5.057
G2 X5.406 Y-21.557 I-16.5 J0
G1 X-227.523
G2 X-230.535 Y-21.279 I0 J16.5
G1 Z-15.2 F333.3
G2 X-244.023 Y-5.057 I3.012 J16.223 F700
G1 Y97.872
G2 X-227.523 Y114.372 I16.5 J0
G1 X5.406
G2 X21.906 Y97.872 I0 J-16.5
G1 Y-5.057
G2 X5.406 Y-21.557 I-16.5 J0
G1 X-227.523
G2 X-230.535 Y-21.279 I0 J16.5
G1 Z-15.6 F333.3
G2 X-244.023 Y-5.057 I3.012 J16.223 F700
G1 Y97.872
G2 X-227.523 Y114.372 I16.5 J0
G1 X5.406
G2 X21.906 Y97.872 I0 J-16.5
G1 Y-5.057
G2 X5.406 Y-21.557 I-16.5 J0
G1 X-227.523
G2 X-230.535 Y-21.279 I0 J16.5
G1 Z-16 F333.3
G2 X-244.023 Y-5.057 I3.012 J16.223 F700
G1 Y97.872
G2 X-227.523 Y114.372 I16.5 J0
G1 X5.406
G2 X21.906 Y97.872 I0 J-16.5
G1 Y-5.057
G2 X5.406 Y-21.557 I-16.5 J0
G1 X-227.523
G2 X-230.535 Y-21.279 I0 J16.5
G1 Z-16.4 F333.3
G2 X-244.023 Y-5.057 I3.012 J16.223 F700
G1 Y4.809
Z-16.25
Y10.809
Z-16.4 F333.3
Y30.542 F700
Z-16.25
Y36.542
Z-16.4 F333.3
Y56.274 F700
Z-16.25
Y62.274
Z-16.4 F333.3
Y82.006 F700
Z-16.25
Y88.006
Z-16.4 F333.3
Y97.872 F700
G2 X-227.523 Y114.372 I16.5 J0
G1 X-217.582
Z-16.25
X-211.582
Z-16.4 F333.3
X-191.701 F700
Z-16.25
X-185.701
Z-16.4 F333.3
X-165.82 F700
Z-16.25
X-159.82
Z-16.4 F333.3
X-139.939 F700
Z-16.25
X-133.939
Z-16.4 F333.3
X-114.058 F700
Z-16.25
X-108.058
Z-16.4 F333.3
X-88.177 F700
Z-16.25
X-82.177
Z-16.4 F333.3
X-62.296 F700
Z-16.25
X-56.296
Z-16.4 F333.3
X-36.415 F700
Z-16.25
X-30.415
Z-16.4 F333.3
X-10.534 F700
Z-16.25
X-4.534
Z-16.4 F333.3
X5.406 F700
G2 X21.906 Y97.872 I0 J-16.5
G1 Y88.006
Z-16.25
Y82.006
Z-16.4 F333.3
Y62.274 F700
Z-16.25
Y56.274
Z-16.4 F333.3
Y36.542 F700
Z-16.25
Y30.542
Z-16.4 F333.3
Y10.809 F700
Z-16.25
Y4.809
Z-16.4 F333.3
Y-5.057 F700
G2 X5.406 Y-21.557 I-16.5 J0
G1 X-4.534
Z-16.25
X-10.534
Z-16.4 F333.3
X-30.415 F700
Z-16.25
X-36.415
Z-16.4 F333.3
X-56.296 F700
Z-16.25
X-62.296
Z-16.4 F333.3
X-82.177 F700
Z-16.25
X-88.177
Z-16.4 F333.3
X-108.058 F700
Z-16.25
X-114.058
Z-16.4 F333.3
X-133.939 F700
Z-16.25
X-139.939
Z-16.4 F333.3
X-159.82 F700
Z-16.25
X-165.82
Z-16.4 F333.3
X-185.701 F700
Z-16.25
X-191.701
Z-16.4 F333.3
X-211.582 F700
Z-16.25
X-217.582
Z-16.4 F333.3
X-227.523 F700
G2 X-230.535 Y-21.279 I0 J16.5
G1 Z-16.8 F333.3
G2 X-244.023 Y-5.057 I3.012 J16.223 F700
G1 Y4.809
Z-16.25
Y10.809
Z-16.8 F333.3
Y30.542 F700
Z-16.25
Y36.542
Z-16.8 F333.3
Y56.274 F700
Z-16.25
Y62.274
Z-16.8 F333.3
Y82.006 F700
Z-16.25
Y88.006
Z-16.8 F333.3
Y97.872 F700
G2 X-227.523 Y114.372 I16.5 J0
G1 X-217.582
Z-16.25
X-211.582
Z-16.8 F333.3
X-191.701 F700
Z-16.25
X-185.701
Z-16.8 F333.3
X-165.82 F700
Z-16.25
X-159.82
Z-16.8 F333.3
X-139.939 F700
Z-16.25
X-133.939
Z-16.8 F333.3
X-114.058 F700
Z-16.25
X-108.058
Z-16.8 F333.3
X-88.177 F700
Z-16.25
X-82.177
Z-16.8 F333.3
X-62.296 F700
Z-16.25
X-56.296
Z-16.8 F333.3
X-36.415 F700
Z-16.25
X-30.415
Z-16.8 F333.3
X-10.534 F700
Z-16.25
X-4.534
Z-16.8 F333.3
X5.406 F700
G2 X21.906 Y97.872 I0 J-16.5
G1 Y88.006
Z-16.25
Y82.006
Z-16.8 F333.3
Y62.274 F700
Z-16.25
Y56.274
Z-16.8 F333.3
Y36.542 F700
Z-16.25
Y30.542
Z-16.8 F333.3
Y10.809 F700
Z-16.25
Y4.809
Z-16.8 F333.3
Y-5.057 F700
G2 X5.406 Y-21.557 I-16.5 J0
G1 X-4.534
Z-16.25
X-10.534
Z-16.8 F333.3
X-30.415 F700
Z-16.25
X-36.415
Z-16.8 F333.3
X-56.296 F700
Z-16.25
X-62.296
Z-16.8 F333.3
X-82.177 F700
Z-16.25
X-88.177
Z-16.8 F333.3
X-108.058 F700
Z-16.25
X-114.058
Z-16.8 F333.3
X-133.939 F700
Z-16.25
X-139.939
Z-16.8 F333.3
X-159.82 F700
Z-16.25
X-165.82
Z-16.8 F333.3
X-185.701 F700
Z-16.25
X-191.701
Z-16.8 F333.3
X-211.582 F700
Z-16.25
X-217.582
Z-16.8 F333.3
X-227.523 F700
G2 X-230.535 Y-21.279 I0 J16.5
G1 Z-17 F333.3
G2 X-244.023 Y-5.057 I3.012 J16.223 F700
G1 Y4.809
Z-16.25
Y10.809
Z-17 F333.3
Y30.542 F700
Z-16.25
Y36.542
Z-17 F333.3
Y56.274 F700
Z-16.25
Y62.274
Z-17 F333.3
Y82.006 F700
Z-16.25
Y88.006
Z-17 F333.3
Y97.872 F700
G2 X-227.523 Y114.372 I16.5 J0
G1 X-217.582
Z-16.25
X-211.582
Z-17 F333.3
X-191.701 F700
Z-16.25
X-185.701
Z-17 F333.3
X-165.82 F700
Z-16.25
X-159.82
Z-17 F333.3
X-139.939 F700
Z-16.25
X-133.939
Z-17 F333.3
X-114.058 F700
Z-16.25
X-108.058
Z-17 F333.3
X-88.177 F700
Z-16.25
X-82.177
Z-17 F333.3
X-62.296 F700
Z-16.25
X-56.296
Z-17 F333.3
X-36.415 F700
Z-16.25
X-30.415
Z-17 F333.3
X-10.534 F700
Z-16.25
X-4.534
Z-17 F333.3
X5.406 F700
G2 X21.906 Y97.872 I0 J-16.5
G1 Y88.006
Z-16.25
Y82.006
Z-17 F333.3
Y62.274 F700
Z-16.25
Y56.274
Z-17 F333.3
Y36.542 F700
Z-16.25
Y30.542
Z-17 F333.3
Y10.809 F700
Z-16.25
Y4.809
Z-17 F333.3
Y-5.057 F700
G2 X5.406 Y-21.557 I-16.5 J0
G1 X-4.534
Z-16.25
X-10.534
Z-17 F333.3
X-30.415 F700
Z-16.25
X-36.415
Z-17 F333.3
X-56.296 F700
Z-16.25
X-62.296
Z-17 F333.3
X-82.177 F700
Z-16.25
X-88.177
Z-17 F333.3
X-108.058 F700
Z-16.25
X-114.058
Z-17 F333.3
X-133.939 F700
Z-16.25
X-139.939
Z-17 F333.3
X-159.82 F700
Z-16.25
X-165.82
Z-17 F333.3
X-185.701 F700
Z-16.25
X-191.701
Z-17 F333.3
X-211.582 F700
Z-16.25
X-217.582
Z-17 F333.3
X-227.523 F700
G2 X-230.535 Y-21.279 I0 J16.5
G0 Z6
M9
M5
M30
