(1001)
(T5  D=1.5 CR=0 - ZMIN=-5.7 - flat end mill)
G90 G94
G17
G21

(2D Pocket1)
T5
S5000 M3
G54
M8
G0 X11.85 Y6.692
Z7
Z2
G1 Z1.5 F1000
Z-0.5
X11.847 Y6.681
G3 X12.353 Y4.067 I2.53 J-0.866
G2 X12.858 Y1.453 I-2.025 J-1.748
G1 X11.086 Y-3.727
G2 X10.355 Y-5.493 I-37.871 J14.635
X10.145 Y-5.871 I-2.191 J0.967
G1 X9.199 Y-7.265
G2 X8.925 Y-7.599 I-1.981 J1.345
G1 X7.744 Y-8.8
G2 X7.414 Y-9.079 I-1.707 J1.68
G1 X6.036 Y-10.048
G2 X5.662 Y-10.264 I-1.378 J1.959
G1 X4.132 Y-10.969
G2 X3.725 Y-11.114 I-1.003 J2.175
G1 X2.094 Y-11.533
G2 X1.667 Y-11.603 I-0.596 J2.32
G1 X-0.013 Y-11.722
G2 X-0.445 Y-11.713 I-0.169 J2.389
G1 X-2.119 Y-11.529
G2 X-2.543 Y-11.443 I0.263 J2.381
G1 X-4.156 Y-10.96
G2 X-4.558 Y-10.799 I0.686 J2.295
G1 X-6.058 Y-10.035
G2 X-6.424 Y-9.805 I1.087 J2.134
G1 X-7.763 Y-8.783
G2 X-8.082 Y-8.49 I1.453 J1.904
G1 X-9.215 Y-7.245
G2 X-9.476 Y-6.9 I1.772 J1.612
G1 X-10.367 Y-5.471
G2 X-10.561 Y-5.085 I2.032 J1.267
G1 X-11.181 Y-3.519
G2 X-11.303 Y-3.104 I2.227 J0.881
G1 X-11.632 Y-1.452
G2 X-11.677 Y-1.022 I2.349 J0.467
G1 X-11.703 Y0.662
G2 X-11.671 Y1.093 I2.395 J0.037
G1 X-11.394 Y2.754
G2 X-11.284 Y3.173 I2.362 J-0.394
G1 X-10.713 Y4.757
G2 X-10.53 Y5.149 I2.253 J-0.812
G1 X-9.684 Y6.605
G2 X-9.434 Y6.957 I2.07 J-1.204
G1 X-8.339 Y8.238
G2 X-8.03 Y8.539 I1.82 J-1.556
G1 X-6.723 Y9.602
G2 X-6.365 Y9.843 I1.511 J-1.858
G1 X-4.888 Y10.654
G2 X-4.492 Y10.827 I1.153 J-2.099
G1 X-2.894 Y11.359
G2 X-2.473 Y11.458 I0.757 J-2.272
G1 X-0.806 Y11.694
G2 X-0.374 Y11.716 I0.336 J-2.371
X1.534 Y11.594 I-1.853 J-44.166
G1 X12.153 Y10.248
G2 X12.566 Y10.156 I-0.311 J-2.375
G1 X12.895 Y10.052
G2 X13.64 Y9.661 I-0.724 J-2.283
G1 X13.724 Y9.595
G2 X14.288 Y8.97 I-1.469 J-1.892
G1 X14.344 Y8.88
G2 X14.657 Y8.099 I-2.032 J-1.267
G1 X14.679 Y7.994
G2 X14.702 Y7.153 I-2.345 J-0.486
G1 X14.651 Y6.812
G2 X14.552 Y6.401 I-2.368 J0.355
G1 X12.858 Y1.453
G2 X11.91 Y0.728 I-1.019 J0.349
G3 X10.961 Y0.002 I0.07 J-1.074
G1 X9.849 Y-3.247
G2 X9.529 Y-4.051 I-51.196 J19.897
X9.191 Y-4.848 I-27.284 J11.102
X8.982 Y-5.226 I-2.191 J0.967
G1 X8.17 Y-6.421
G2 X7.896 Y-6.755 I-1.981 J1.345
G1 X6.883 Y-7.785
G2 X6.554 Y-8.064 I-1.707 J1.68
G1 X5.372 Y-8.895
G2 X4.998 Y-9.111 I-1.378 J1.959
G1 X3.686 Y-9.716
G2 X3.279 Y-9.861 I-1.003 J2.175
G1 X1.88 Y-10.22
G2 X1.454 Y-10.289 I-0.596 J2.32
G1 X0.013 Y-10.392
G2 X-0.419 Y-10.383 I-0.169 J2.389
G1 X-1.855 Y-10.225
G2 X-2.278 Y-10.139 I0.263 J2.381
G1 X-3.662 Y-9.725
G2 X-4.063 Y-9.564 I0.686 J2.295
G1 X-5.35 Y-8.909
G2 X-5.716 Y-8.678 I1.087 J2.134
G1 X-6.864 Y-7.802
G2 X-7.182 Y-7.51 I1.453 J1.904
G1 X-8.154 Y-6.442
G2 X-8.415 Y-6.097 I1.772 J1.612
G1 X-9.179 Y-4.871
G2 X-9.374 Y-4.486 I2.032 J1.267
G1 X-9.905 Y-3.143
G2 X-10.027 Y-2.728 I2.227 J0.881
G1 X-10.309 Y-1.312
G2 X-10.354 Y-0.882 I2.349 J0.467
G1 X-10.376 Y0.562
G2 X-10.344 Y0.993 I2.395 J0.037
G1 X-10.106 Y2.418
G2 X-9.997 Y2.836 I2.362 J-0.394
G1 X-9.507 Y4.195
G2 X-9.325 Y4.586 I2.253 J-0.812
G1 X-8.599 Y5.835
G2 X-8.349 Y6.187 I2.07 J-1.204
G1 X-7.41 Y7.285
G2 X-7.101 Y7.587 I1.82 J-1.556
G1 X-5.98 Y8.498
G2 X-5.622 Y8.74 I1.511 J-1.858
G1 X-4.356 Y9.435
G2 X-3.96 Y9.608 I1.153 J-2.099
G1 X-2.589 Y10.064
G2 X-2.169 Y10.163 I0.757 J-2.272
G1 X-0.739 Y10.365
G2 X-0.307 Y10.387 I0.336 J-2.371
X0.558 Y10.34 I-1.178 J-29.438
X1.421 Y10.273 I-3.807 J-54.768
G1 X11.957 Y8.937
X12.074 Y8.917
X12.189 Y8.886
X12.448 Y8.804
G2 X12.866 Y8.584 I-0.406 J-1.282
X13.189 Y8.228 I-0.818 J-1.068
X13.37 Y7.782 I-1.137 J-0.719
X13.384 Y7.301 I-1.315 J-0.281
G1 X13.344 Y7.032
X13.321 Y6.916
X13.288 Y6.802
X10.961 Y0.002
G2 X10.578 Y0.116 I-0.189 J0.065
G1 X12.23 Y6.566
G3 X11.847 Y6.681 I-0.194 J0.05
G1 X8.613 Y-2.766
G2 X8.328 Y-3.488 I-74.265 J28.863
X8.028 Y-4.203 I-20.341 J8.134
X7.818 Y-4.581 I-2.191 J0.967
G1 X7.142 Y-5.578
G2 X6.868 Y-5.912 I-1.981 J1.345
G1 X6.023 Y-6.77
G2 X5.693 Y-7.05 I-1.707 J1.68
G1 X4.708 Y-7.742
G2 X4.334 Y-7.958 I-1.378 J1.959
G1 X3.24 Y-8.462
G2 X2.833 Y-8.607 I-1.003 J2.175
G1 X1.667 Y-8.907
G2 X1.24 Y-8.976 I-0.596 J2.32
G1 X0.039 Y-9.061
G2 X-0.393 Y-9.053 I-0.169 J2.389
G1 X-1.59 Y-8.921
G2 X-2.014 Y-8.835 I0.263 J2.381
G1 X-3.167 Y-8.49
G2 X-3.568 Y-8.329 I0.686 J2.295
G1 X-4.641 Y-7.783
G2 X-5.007 Y-7.552 I1.087 J2.134
G1 X-5.964 Y-6.822
G2 X-6.283 Y-6.53 I1.453 J1.904
G1 X-7.093 Y-5.639
G2 X-7.354 Y-5.294 I1.772 J1.612
G1 X-7.991 Y-4.272
G2 X-8.186 Y-3.886 I2.032 J1.267
G1 X-8.629 Y-2.767
G2 X-8.751 Y-2.352 I2.227 J0.881
G1 X-8.986 Y-1.171
G2 X-9.031 Y-0.741 I2.349 J0.467
G1 X-9.05 Y0.463
G2 X-9.017 Y0.894 I2.395 J0.037
G1 X-8.819 Y2.082
G2 X-8.71 Y2.5 I2.362 J-0.394
G1 X-8.302 Y3.632
G2 X-8.119 Y4.024 I2.253 J-0.812
G1 X-7.514 Y5.065
G2 X-7.264 Y5.418 I2.07 J-1.204
G1 X-6.481 Y6.333
G2 X-6.172 Y6.635 I1.82 J-1.556
G1 X-5.237 Y7.395
G2 X-4.879 Y7.636 I1.511 J-1.858
G1 X-3.823 Y8.215
G2 X-3.427 Y8.388 I1.153 J-2.099
G1 X-2.285 Y8.769
G2 X-1.864 Y8.868 I0.757 J-2.272
G1 X-0.672 Y9.037
G2 X-0.24 Y9.058 I0.336 J-2.371
X0.535 Y9.014 I-0.876 J-21.893
X1.308 Y8.951 I-5.999 J-79.38
G1 X11.238 Y7.693
G2 X11.327 Y6.003 I-0.108 J-0.853
G3 X10.073 Y4.867 I0.402 J-1.704
G1 X7.592 Y-2.369
G2 X7.336 Y-3.023 I-126.623 J49.212
X7.066 Y-3.67 I-16.318 J6.439
X6.856 Y-4.048 I-2.191 J0.967
X5.568 Y-5.626 I-9.569 J6.498
X3.959 Y-6.875 I-5.311 J5.18
X-5.54 Y5.678 I-3.959 J6.875
X-3.258 Y7.201 I5.214 J-5.344
X-0.616 Y7.938 I4.109 J-9.622
X-0.185 Y7.96 I0.336 J-2.371
X0.516 Y7.918 I-0.702 J-17.531
X1.215 Y7.86 I-10.844 J-135.261
G1 X10.379 Y6.703
G2 X10.587 Y6.368 I-0.033 J-0.253
G1 X10.073 Y4.867
G2 X9.292 Y4.271 I-0.837 J0.287
G3 X8.511 Y3.675 I0.057 J-0.884
G1 X6.569 Y-1.972
G2 X6.295 Y-2.653 I-30.306 J11.778
X5.976 Y-3.313 I-6.003 J2.49
X2.291 Y-6.438 I-5.976 J3.313
X-3.815 Y5.669 I-2.291 J6.438
X-1.441 Y6.64 I3.529 J-5.244
X1.122 Y6.766 I1.748 J-9.409
G1 X8.915 Y5.79
G2 X9.123 Y5.455 I-0.033 J-0.253
G1 X8.511 Y3.675
G2 X7.73 Y3.08 I-0.836 J0.287
G3 X6.949 Y2.486 I0.056 J-0.884
G1 X5.547 Y-1.574
G2 X5.301 Y-2.186 I-27.232 J10.584
X5.014 Y-2.78 I-5.394 J2.238
X1.922 Y-5.402 I-5.014 J2.78
X-3.201 Y4.756 I-1.922 J5.402
X-1.165 Y5.577 I2.947 J-4.378
X1.028 Y5.673 I1.469 J-8.386
G1 X7.45 Y4.877
G2 X7.659 Y4.542 I-0.033 J-0.253
G1 X6.949 Y2.486
G2 X6.179 Y1.894 I-0.833 J0.288
G3 X5.409 Y1.303 I0.057 J-0.87
G1 X5.204 Y0.696
G2 X4.525 Y-1.177 I-41.816 J14.114
X4.307 Y-1.72 I-24.158 J9.389
X4.052 Y-2.247 I-4.785 J1.985
X1.553 Y-4.365 I-4.052 J2.247
X-2.587 Y3.844 I-1.553 J4.365
X-0.889 Y4.514 I2.369 J-3.52
X0.935 Y4.581 I1.186 J-7.403
X2.916 Y4.366 I-3.754 J-43.965
G1 X5.986 Y3.964
G2 X6.194 Y3.63 I-0.033 J-0.253
G1 X5.409 Y1.303
G2 X4.625 Y0.697 I-0.847 J0.286
G3 X3.834 Y0.1 I0.064 J-0.908
G2 X3.502 Y-0.78 I-41.467 J15.107
X3.312 Y-1.254 I-21.084 J8.194
X3.09 Y-1.713 I-4.176 J1.733
X1.184 Y-3.329 I-3.09 J1.713
X-1.973 Y2.931 I-1.184 J3.329
X-0.613 Y3.45 I1.8 J-2.674
X0.842 Y3.488 I0.897 J-6.503
X2.823 Y3.274 I-3.754 J-43.965
G1 X4.522 Y3.051
G2 X4.73 Y2.717 I-0.033 J-0.253
G1 X4.182 Y1.094
G2 X3.834 Y0.1 I-41.816 J14.114
X3.032 Y-0.501 I-0.862 J0.314
G3 X2.196 Y-1.053 I0.066 J-1.01
G1 X2.128 Y-1.18
G2 X0.816 Y-2.293 I-2.128 J1.18
X-1.359 Y2.019 I-0.816 J2.293
X-0.337 Y2.387 I1.244 J-1.849
X0.748 Y2.396 I0.587 J-5.836
X1.904 Y2.28 I-3.407 J-39.904
X3.057 Y2.138 I-8.19 J-71.416
X3.266 Y1.804 I-0.033 J-0.253
X2.885 Y0.706 I-68.109 J22.988
X2.48 Y-0.383 I-37.742 J13.422
X2.318 Y-0.787 I-18.01 J6.999
X2.196 Y-1.053 I-3.568 J1.48
X1.084 Y-1.543 I-0.855 J0.433
G3 X-0.111 Y-1.329 I-1.736 J-6.244
G1 X-0.189 Y-1.32
X-0.265 Y-1.307
G2 X-0.067 Y1.332 I0.265 J1.307
X0.765 Y1.316 I0.303 J-6.013
X1.593 Y1.225 I-1.733 J-19.625
X1.801 Y0.891 I-0.033 J-0.253
X1.642 Y0.448 I-11.148 J3.763
X1.473 Y0.009 I-85.193 J32.605
X1.286 Y-0.436 I-8.249 J3.206
X1.031 Y-0.846 I-1.684 J0.763
X-0.111 Y-1.329 I-1.031 J0.846
X-0.389 Y-0.721 I0.032 J0.382
G3 X-0.273 Y-0.062 I-0.615 J0.448
G1 X-0.282 Y-0.018
X-0.283 Y0.028
X-0.275 Y0.072
G2 X-0.106 Y0.257 I0.26 J-0.068
X0.141 Y0.295 I0.221 J-0.616
X0.327 Y-0.003 I-0.008 J-0.212
X-0.009 Y-0.243 I-0.371 J0.164
X-0.273 Y-0.062 I-0.022 J0.251
G1 X-0.29 Y0.01 Z-0.503 F333.3
X-0.299 Y0.084 Z-0.506
X-0.301 Y0.158 Z-0.509
X0.039 Y10.962 Z-0.953
G2 X0.799 Y11.651 Z-1 I0.712 J-0.022
X1.534 Y11.594 I-3.026 J-44.102 F1000
G1 X12.153 Y10.248
G2 X12.566 Y10.156 I-0.311 J-2.375
G1 X12.895 Y10.052
G2 X13.64 Y9.661 I-0.724 J-2.283
G1 X13.724 Y9.595
G2 X14.288 Y8.97 I-1.469 J-1.892
G1 X14.344 Y8.88
G2 X14.657 Y8.099 I-2.032 J-1.267
G1 X14.679 Y7.994
G2 X14.702 Y7.153 I-2.345 J-0.486
G1 X14.651 Y6.812
G2 X14.552 Y6.401 I-2.368 J0.355
G1 X11.086 Y-3.727
G2 X10.355 Y-5.493 I-37.871 J14.635
X10.145 Y-5.871 I-2.191 J0.967
G1 X9.199 Y-7.265
G2 X8.925 Y-7.599 I-1.981 J1.345
G1 X7.744 Y-8.8
G2 X7.414 Y-9.079 I-1.707 J1.68
G1 X6.036 Y-10.048
G2 X5.662 Y-10.264 I-1.378 J1.959
G1 X4.132 Y-10.969
G2 X3.725 Y-11.114 I-1.003 J2.175
G1 X2.094 Y-11.533
G2 X1.667 Y-11.603 I-0.596 J2.32
G1 X-0.013 Y-11.722
G2 X-0.445 Y-11.713 I-0.169 J2.389
G1 X-2.119 Y-11.529
G2 X-2.543 Y-11.443 I0.263 J2.381
G1 X-4.156 Y-10.96
G2 X-4.558 Y-10.799 I0.686 J2.295
G1 X-6.058 Y-10.035
G2 X-6.424 Y-9.805 I1.087 J2.134
G1 X-7.763 Y-8.783
G2 X-8.082 Y-8.49 I1.453 J1.904
G1 X-9.215 Y-7.245
G2 X-9.476 Y-6.9 I1.772 J1.612
G1 X-10.367 Y-5.471
G2 X-10.561 Y-5.085 I2.032 J1.267
G1 X-11.181 Y-3.519
G2 X-11.303 Y-3.104 I2.227 J0.881
G1 X-11.632 Y-1.452
G2 X-11.677 Y-1.022 I2.349 J0.467
G1 X-11.703 Y0.662
G2 X-11.671 Y1.093 I2.395 J0.037
G1 X-11.394 Y2.754
G2 X-11.284 Y3.173 I2.362 J-0.394
G1 X-10.713 Y4.757
G2 X-10.53 Y5.149 I2.253 J-0.812
G1 X-9.684 Y6.605
G2 X-9.434 Y6.957 I2.07 J-1.204
G1 X-8.339 Y8.238
G2 X-8.03 Y8.539 I1.82 J-1.556
G1 X-6.723 Y9.602
G2 X-6.365 Y9.843 I1.511 J-1.858
G1 X-4.888 Y10.654
G2 X-4.492 Y10.827 I1.153 J-2.099
G1 X-2.894 Y11.359
G2 X-2.473 Y11.458 I0.757 J-2.272
G1 X-0.806 Y11.694
G2 X-0.374 Y11.716 I0.336 J-2.371
X0.799 Y11.651 I-1.853 J-44.166
X1.753 Y10.895 I-0.074 J-1.072
G3 X2.684 Y10.113 I1.072 J0.331
G1 X11.957 Y8.937
X12.074 Y8.917
X12.189 Y8.886
X12.448 Y8.804
G2 X12.866 Y8.584 I-0.406 J-1.282
X13.189 Y8.228 I-0.818 J-1.068
X13.37 Y7.782 I-1.137 J-0.719
X13.384 Y7.301 I-1.315 J-0.281
G1 X13.344 Y7.032
X13.321 Y6.916
X13.288 Y6.802
X9.849 Y-3.247
G2 X9.529 Y-4.051 I-51.196 J19.897
X9.191 Y-4.848 I-27.284 J11.102
X8.982 Y-5.226 I-2.191 J0.967
G1 X8.17 Y-6.421
G2 X7.896 Y-6.755 I-1.981 J1.345
G1 X6.883 Y-7.785
G2 X6.554 Y-8.064 I-1.707 J1.68
G1 X5.372 Y-8.895
G2 X4.998 Y-9.111 I-1.378 J1.959
G1 X3.686 Y-9.716
G2 X3.279 Y-9.861 I-1.003 J2.175
G1 X1.88 Y-10.22
G2 X1.454 Y-10.289 I-0.596 J2.32
G1 X0.013 Y-10.392
G2 X-0.419 Y-10.383 I-0.169 J2.389
G1 X-1.855 Y-10.225
G2 X-2.278 Y-10.139 I0.263 J2.381
G1 X-3.662 Y-9.725
G2 X-4.063 Y-9.564 I0.686 J2.295
G1 X-5.35 Y-8.909
G2 X-5.716 Y-8.678 I1.087 J2.134
G1 X-6.864 Y-7.802
G2 X-7.182 Y-7.51 I1.453 J1.904
G1 X-8.154 Y-6.442
G2 X-8.415 Y-6.097 I1.772 J1.612
G1 X-9.179 Y-4.871
G2 X-9.374 Y-4.486 I2.032 J1.267
G1 X-9.905 Y-3.143
G2 X-10.027 Y-2.728 I2.227 J0.881
G1 X-10.309 Y-1.312
G2 X-10.354 Y-0.882 I2.349 J0.467
G1 X-10.376 Y0.562
G2 X-10.344 Y0.993 I2.395 J0.037
G1 X-10.106 Y2.418
G2 X-9.997 Y2.836 I2.362 J-0.394
G1 X-9.507 Y4.195
G2 X-9.325 Y4.586 I2.253 J-0.812
G1 X-8.599 Y5.835
G2 X-8.349 Y6.187 I2.07 J-1.204
G1 X-7.41 Y7.285
G2 X-7.101 Y7.587 I1.82 J-1.556
G1 X-5.98 Y8.498
G2 X-5.622 Y8.74 I1.511 J-1.858
G1 X-4.356 Y9.435
G2 X-3.96 Y9.608 I1.153 J-2.099
G1 X-2.589 Y10.064
G2 X-2.169 Y10.163 I0.757 J-2.272
G1 X-0.739 Y10.365
G2 X-0.307 Y10.387 I0.336 J-2.371
X0.558 Y10.34 I-1.178 J-29.438
X1.421 Y10.273 I-3.807 J-54.768
G1 X2.684 Y10.113
G2 X3.029 Y9.974 I-0.092 J-0.725
G1 X8.537 Y5.87
G3 X9.361 Y5.836 I0.437 J0.586
G1 X10.462 Y6.522
X11.496 Y6.998
G2 X11.847 Y6.681 I0.107 J-0.234
G1 X8.613 Y-2.766
G2 X8.328 Y-3.488 I-74.265 J28.863
X8.028 Y-4.203 I-20.341 J8.134
X7.818 Y-4.581 I-2.191 J0.967
G1 X7.142 Y-5.578
G2 X6.868 Y-5.912 I-1.981 J1.345
G1 X6.023 Y-6.77
G2 X5.693 Y-7.05 I-1.707 J1.68
G1 X4.708 Y-7.742
G2 X4.334 Y-7.958 I-1.378 J1.959
G1 X3.24 Y-8.462
G2 X2.833 Y-8.607 I-1.003 J2.175
G1 X1.667 Y-8.907
G2 X1.24 Y-8.976 I-0.596 J2.32
G1 X0.039 Y-9.061
G2 X-0.393 Y-9.053 I-0.169 J2.389
G1 X-1.59 Y-8.921
G2 X-2.014 Y-8.835 I0.263 J2.381
G1 X-3.167 Y-8.49
G2 X-3.568 Y-8.329 I0.686 J2.295
G1 X-4.641 Y-7.783
G2 X-5.007 Y-7.552 I1.087 J2.134
G1 X-5.964 Y-6.822
G2 X-6.283 Y-6.53 I1.453 J1.904
G1 X-7.093 Y-5.639
G2 X-7.354 Y-5.294 I1.772 J1.612
G1 X-7.991 Y-4.272
G2 X-8.186 Y-3.886 I2.032 J1.267
G1 X-8.629 Y-2.767
G2 X-8.751 Y-2.352 I2.227 J0.881
G1 X-8.986 Y-1.171
G2 X-9.031 Y-0.741 I2.349 J0.467
G1 X-9.05 Y0.463
G2 X-9.017 Y0.894 I2.395 J0.037
G1 X-8.819 Y2.082
G2 X-8.71 Y2.5 I2.362 J-0.394
G1 X-8.302 Y3.632
G2 X-8.119 Y4.024 I2.253 J-0.812
G1 X-7.514 Y5.065
G2 X-7.264 Y5.418 I2.07 J-1.204
G1 X-6.481 Y6.333
G2 X-6.172 Y6.635 I1.82 J-1.556
G1 X-5.237 Y7.395
G2 X-4.879 Y7.636 I1.511 J-1.858
G1 X-3.823 Y8.215
G2 X-3.427 Y8.388 I1.153 J-2.099
G1 X-2.285 Y8.769
G2 X-1.864 Y8.868 I0.757 J-2.272
G1 X-0.672 Y9.037
G2 X-0.24 Y9.058 I0.336 J-2.371
X0.535 Y9.014 I-0.876 J-21.893
X1.308 Y8.951 I-5.999 J-79.38
G1 X11.238 Y7.693
G2 X11.327 Y6.003 I-0.108 J-0.853
G3 X10.073 Y4.867 I0.402 J-1.704
G1 X7.592 Y-2.369
G2 X7.336 Y-3.023 I-126.623 J49.212
X7.066 Y-3.67 I-16.318 J6.439
X6.856 Y-4.048 I-2.191 J0.967
X5.568 Y-5.626 I-9.569 J6.498
X3.959 Y-6.875 I-5.311 J5.18
X-5.54 Y5.678 I-3.959 J6.875
X-3.258 Y7.201 I5.214 J-5.344
X-0.616 Y7.938 I4.109 J-9.622
X-0.185 Y7.96 I0.336 J-2.371
X0.516 Y7.918 I-0.702 J-17.531
X1.215 Y7.86 I-10.844 J-135.261
G1 X10.379 Y6.703
G2 X10.587 Y6.368 I-0.033 J-0.253
G1 X10.073 Y4.867
G2 X9.292 Y4.271 I-0.837 J0.287
G3 X8.511 Y3.675 I0.057 J-0.884
G1 X6.569 Y-1.972
G2 X6.295 Y-2.653 I-30.306 J11.778
X5.976 Y-3.313 I-6.003 J2.49
X2.291 Y-6.438 I-5.976 J3.313
X-3.815 Y5.669 I-2.291 J6.438
X-1.441 Y6.64 I3.529 J-5.244
X1.122 Y6.766 I1.748 J-9.409
G1 X8.915 Y5.79
G2 X9.123 Y5.455 I-0.033 J-0.253
G1 X8.511 Y3.675
G2 X7.73 Y3.08 I-0.836 J0.287
G3 X6.949 Y2.486 I0.056 J-0.884
G1 X5.547 Y-1.574
G2 X5.301 Y-2.186 I-27.232 J10.584
X5.014 Y-2.78 I-5.394 J2.238
X1.922 Y-5.402 I-5.014 J2.78
X-3.201 Y4.756 I-1.922 J5.402
X-1.165 Y5.577 I2.947 J-4.378
X1.028 Y5.673 I1.469 J-8.386
G1 X7.45 Y4.877
G2 X7.659 Y4.542 I-0.033 J-0.253
G1 X6.949 Y2.486
G2 X6.179 Y1.894 I-0.833 J0.288
G3 X5.409 Y1.303 I0.057 J-0.87
G1 X5.204 Y0.696
G2 X4.525 Y-1.177 I-41.816 J14.114
X4.307 Y-1.72 I-24.158 J9.389
X4.052 Y-2.247 I-4.785 J1.985
X1.553 Y-4.365 I-4.052 J2.247
X-2.587 Y3.844 I-1.553 J4.365
X-0.889 Y4.514 I2.369 J-3.52
X0.935 Y4.581 I1.186 J-7.403
X2.916 Y4.366 I-3.754 J-43.965
G1 X5.986 Y3.964
G2 X6.194 Y3.63 I-0.033 J-0.253
G1 X5.409 Y1.303
G2 X4.625 Y0.697 I-0.847 J0.286
G3 X3.834 Y0.1 I0.064 J-0.908
G2 X3.502 Y-0.78 I-41.467 J15.107
X3.312 Y-1.254 I-21.084 J8.194
X3.09 Y-1.713 I-4.176 J1.733
X1.184 Y-3.329 I-3.09 J1.713
X-1.973 Y2.931 I-1.184 J3.329
X-0.613 Y3.45 I1.8 J-2.674
X0.842 Y3.488 I0.897 J-6.503
X2.823 Y3.274 I-3.754 J-43.965
G1 X4.522 Y3.051
G2 X4.73 Y2.717 I-0.033 J-0.253
G1 X4.182 Y1.094
G2 X3.834 Y0.1 I-41.816 J14.114
X3.032 Y-0.501 I-0.862 J0.314
G3 X2.196 Y-1.053 I0.066 J-1.01
G1 X2.128 Y-1.18
G2 X0.816 Y-2.293 I-2.128 J1.18
X-1.359 Y2.019 I-0.816 J2.293
X-0.337 Y2.387 I1.244 J-1.849
X0.748 Y2.396 I0.587 J-5.836
X1.904 Y2.28 I-3.407 J-39.904
X3.057 Y2.138 I-8.19 J-71.416
X3.266 Y1.804 I-0.033 J-0.253
X2.885 Y0.706 I-68.109 J22.988
X2.48 Y-0.383 I-37.742 J13.422
X2.318 Y-0.787 I-18.01 J6.999
X2.196 Y-1.053 I-3.568 J1.48
X1.084 Y-1.543 I-0.855 J0.433
G3 X-0.111 Y-1.329 I-1.736 J-6.244
G1 X-0.189 Y-1.32
X-0.265 Y-1.307
G2 X-0.067 Y1.332 I0.265 J1.307
X0.765 Y1.316 I0.303 J-6.013
X1.593 Y1.225 I-1.733 J-19.625
X1.801 Y0.891 I-0.033 J-0.253
X1.642 Y0.448 I-11.148 J3.763
X1.473 Y0.009 I-85.193 J32.605
X1.286 Y-0.436 I-8.249 J3.206
X1.031 Y-0.846 I-1.684 J0.763
X-0.111 Y-1.329 I-1.031 J0.846
X-0.389 Y-0.721 I0.032 J0.382
G3 X-0.273 Y-0.062 I-0.615 J0.448
G1 X-0.282 Y-0.018
X-0.283 Y0.028
X-0.275 Y0.072
G2 X-0.106 Y0.257 I0.26 J-0.068
X0.141 Y0.295 I0.221 J-0.616
X0.327 Y-0.003 I-0.008 J-0.212
X-0.009 Y-0.243 I-0.371 J0.164
X-0.273 Y-0.062 I-0.022 J0.251
G1 X-0.29 Y0.01 Z-1.003 F333.3
X-0.299 Y0.084 Z-1.006
X-0.301 Y0.158 Z-1.009
X0.039 Y10.962 Z-1.453
G2 X0.799 Y11.651 Z-1.5 I0.712 J-0.022
X1.534 Y11.594 I-3.026 J-44.102 F1000
G1 X12.153 Y10.248
G2 X12.566 Y10.156 I-0.311 J-2.375
G1 X12.895 Y10.052
G2 X13.64 Y9.661 I-0.724 J-2.283
G1 X13.724 Y9.595
G2 X14.288 Y8.97 I-1.469 J-1.892
G1 X14.344 Y8.88
G2 X14.657 Y8.099 I-2.032 J-1.267
G1 X14.679 Y7.994
G2 X14.702 Y7.153 I-2.345 J-0.486
G1 X14.651 Y6.812
G2 X14.552 Y6.401 I-2.368 J0.355
G1 X11.086 Y-3.727
G2 X10.355 Y-5.493 I-37.871 J14.635
X10.145 Y-5.871 I-2.191 J0.967
G1 X9.199 Y-7.265
G2 X8.925 Y-7.599 I-1.981 J1.345
G1 X7.744 Y-8.8
G2 X7.414 Y-9.079 I-1.707 J1.68
G1 X6.036 Y-10.048
G2 X5.662 Y-10.264 I-1.378 J1.959
G1 X4.132 Y-10.969
G2 X3.725 Y-11.114 I-1.003 J2.175
G1 X2.094 Y-11.533
G2 X1.667 Y-11.603 I-0.596 J2.32
G1 X-0.013 Y-11.722
G2 X-0.445 Y-11.713 I-0.169 J2.389
G1 X-2.119 Y-11.529
G2 X-2.543 Y-11.443 I0.263 J2.381
G1 X-4.156 Y-10.96
G2 X-4.558 Y-10.799 I0.686 J2.295
G1 X-6.058 Y-10.035
G2 X-6.424 Y-9.805 I1.087 J2.134
G1 X-7.763 Y-8.783
G2 X-8.082 Y-8.49 I1.453 J1.904
G1 X-9.215 Y-7.245
G2 X-9.476 Y-6.9 I1.772 J1.612
G1 X-10.367 Y-5.471
G2 X-10.561 Y-5.085 I2.032 J1.267
G1 X-11.181 Y-3.519
G2 X-11.303 Y-3.104 I2.227 J0.881
G1 X-11.632 Y-1.452
G2 X-11.677 Y-1.022 I2.349 J0.467
G1 X-11.703 Y0.662
G2 X-11.671 Y1.093 I2.395 J0.037
G1 X-11.394 Y2.754
G2 X-11.284 Y3.173 I2.362 J-0.394
G1 X-10.713 Y4.757
G2 X-10.53 Y5.149 I2.253 J-0.812
G1 X-9.684 Y6.605
G2 X-9.434 Y6.957 I2.07 J-1.204
G1 X-8.339 Y8.238
G2 X-8.03 Y8.539 I1.82 J-1.556
G1 X-6.723 Y9.602
G2 X-6.365 Y9.843 I1.511 J-1.858
G1 X-4.888 Y10.654
G2 X-4.492 Y10.827 I1.153 J-2.099
G1 X-2.894 Y11.359
G2 X-2.473 Y11.458 I0.757 J-2.272
G1 X-0.806 Y11.694
G2 X-0.374 Y11.716 I0.336 J-2.371
X0.799 Y11.651 I-1.853 J-44.166
X1.753 Y10.895 I-0.074 J-1.072
G3 X2.684 Y10.113 I1.072 J0.331
G1 X11.957 Y8.937
X12.074 Y8.917
X12.189 Y8.886
X12.448 Y8.804
G2 X12.866 Y8.584 I-0.406 J-1.282
X13.189 Y8.228 I-0.818 J-1.068
X13.37 Y7.782 I-1.137 J-0.719
X13.384 Y7.301 I-1.315 J-0.281
G1 X13.344 Y7.032
X13.321 Y6.916
X13.288 Y6.802
X9.849 Y-3.247
G2 X9.529 Y-4.051 I-51.196 J19.897
X9.191 Y-4.848 I-27.284 J11.102
X8.982 Y-5.226 I-2.191 J0.967
G1 X8.17 Y-6.421
G2 X7.896 Y-6.755 I-1.981 J1.345
G1 X6.883 Y-7.785
G2 X6.554 Y-8.064 I-1.707 J1.68
G1 X5.372 Y-8.895
G2 X4.998 Y-9.111 I-1.378 J1.959
G1 X3.686 Y-9.716
G2 X3.279 Y-9.861 I-1.003 J2.175
G1 X1.88 Y-10.22
G2 X1.454 Y-10.289 I-0.596 J2.32
G1 X0.013 Y-10.392
G2 X-0.419 Y-10.383 I-0.169 J2.389
G1 X-1.855 Y-10.225
G2 X-2.278 Y-10.139 I0.263 J2.381
G1 X-3.662 Y-9.725
G2 X-4.063 Y-9.564 I0.686 J2.295
G1 X-5.35 Y-8.909
G2 X-5.716 Y-8.678 I1.087 J2.134
G1 X-6.864 Y-7.802
G2 X-7.182 Y-7.51 I1.453 J1.904
G1 X-8.154 Y-6.442
G2 X-8.415 Y-6.097 I1.772 J1.612
G1 X-9.179 Y-4.871
G2 X-9.374 Y-4.486 I2.032 J1.267
G1 X-9.905 Y-3.143
G2 X-10.027 Y-2.728 I2.227 J0.881
G1 X-10.309 Y-1.312
G2 X-10.354 Y-0.882 I2.349 J0.467
G1 X-10.376 Y0.562
G2 X-10.344 Y0.993 I2.395 J0.037
G1 X-10.106 Y2.418
G2 X-9.997 Y2.836 I2.362 J-0.394
G1 X-9.507 Y4.195
G2 X-9.325 Y4.586 I2.253 J-0.812
G1 X-8.599 Y5.835
G2 X-8.349 Y6.187 I2.07 J-1.204
G1 X-7.41 Y7.285
G2 X-7.101 Y7.587 I1.82 J-1.556
G1 X-5.98 Y8.498
G2 X-5.622 Y8.74 I1.511 J-1.858
G1 X-4.356 Y9.435
G2 X-3.96 Y9.608 I1.153 J-2.099
G1 X-2.589 Y10.064
G2 X-2.169 Y10.163 I0.757 J-2.272
G1 X-0.739 Y10.365
G2 X-0.307 Y10.387 I0.336 J-2.371
X0.558 Y10.34 I-1.178 J-29.438
X1.421 Y10.273 I-3.807 J-54.768
G1 X2.684 Y10.113
G2 X3.029 Y9.974 I-0.092 J-0.725
G1 X8.537 Y5.87
G3 X9.361 Y5.836 I0.437 J0.586
G1 X10.462 Y6.522
X11.496 Y6.998
G2 X11.847 Y6.681 I0.107 J-0.234
G1 X8.613 Y-2.766
G2 X8.328 Y-3.488 I-74.265 J28.863
X8.028 Y-4.203 I-20.341 J8.134
X7.818 Y-4.581 I-2.191 J0.967
G1 X7.142 Y-5.578
G2 X6.868 Y-5.912 I-1.981 J1.345
G1 X6.023 Y-6.77
G2 X5.693 Y-7.05 I-1.707 J1.68
G1 X4.708 Y-7.742
G2 X4.334 Y-7.958 I-1.378 J1.959
G1 X3.24 Y-8.462
G2 X2.833 Y-8.607 I-1.003 J2.175
G1 X1.667 Y-8.907
G2 X1.24 Y-8.976 I-0.596 J2.32
G1 X0.039 Y-9.061
G2 X-0.393 Y-9.053 I-0.169 J2.389
G1 X-1.59 Y-8.921
G2 X-2.014 Y-8.835 I0.263 J2.381
G1 X-3.167 Y-8.49
G2 X-3.568 Y-8.329 I0.686 J2.295
G1 X-4.641 Y-7.783
G2 X-5.007 Y-7.552 I1.087 J2.134
G1 X-5.964 Y-6.822
G2 X-6.283 Y-6.53 I1.453 J1.904
G1 X-7.093 Y-5.639
G2 X-7.354 Y-5.294 I1.772 J1.612
G1 X-7.991 Y-4.272
G2 X-8.186 Y-3.886 I2.032 J1.267
G1 X-8.629 Y-2.767
G2 X-8.751 Y-2.352 I2.227 J0.881
G1 X-8.986 Y-1.171
G2 X-9.031 Y-0.741 I2.349 J0.467
G1 X-9.05 Y0.463
G2 X-9.017 Y0.894 I2.395 J0.037
G1 X-8.819 Y2.082
G2 X-8.71 Y2.5 I2.362 J-0.394
G1 X-8.302 Y3.632
G2 X-8.119 Y4.024 I2.253 J-0.812
G1 X-7.514 Y5.065
G2 X-7.264 Y5.418 I2.07 J-1.204
G1 X-6.481 Y6.333
G2 X-6.172 Y6.635 I1.82 J-1.556
G1 X-5.237 Y7.395
G2 X-4.879 Y7.636 I1.511 J-1.858
G1 X-3.823 Y8.215
G2 X-3.427 Y8.388 I1.153 J-2.099
G1 X-2.285 Y8.769
G2 X-1.864 Y8.868 I0.757 J-2.272
G1 X-0.672 Y9.037
G2 X-0.24 Y9.058 I0.336 J-2.371
X0.535 Y9.014 I-0.876 J-21.893
X1.308 Y8.951 I-5.999 J-79.38
G1 X11.238 Y7.693
G2 X11.327 Y6.003 I-0.108 J-0.853
G3 X10.073 Y4.867 I0.402 J-1.704
G1 X7.592 Y-2.369
G2 X7.336 Y-3.023 I-126.623 J49.212
X7.066 Y-3.67 I-16.318 J6.439
X6.856 Y-4.048 I-2.191 J0.967
X5.568 Y-5.626 I-9.569 J6.498
X3.959 Y-6.875 I-5.311 J5.18
X-5.54 Y5.678 I-3.959 J6.875
X-3.258 Y7.201 I5.214 J-5.344
X-0.616 Y7.938 I4.109 J-9.622
X-0.185 Y7.96 I0.336 J-2.371
X0.516 Y7.918 I-0.702 J-17.531
X1.215 Y7.86 I-10.844 J-135.261
G1 X10.379 Y6.703
G2 X10.587 Y6.368 I-0.033 J-0.253
G1 X10.073 Y4.867
G2 X9.292 Y4.271 I-0.837 J0.287
G3 X8.511 Y3.675 I0.057 J-0.884
G1 X6.569 Y-1.972
G2 X6.295 Y-2.653 I-30.306 J11.778
X5.976 Y-3.313 I-6.003 J2.49
X2.291 Y-6.438 I-5.976 J3.313
X-3.815 Y5.669 I-2.291 J6.438
X-1.441 Y6.64 I3.529 J-5.244
X1.122 Y6.766 I1.748 J-9.409
G1 X8.915 Y5.79
G2 X9.123 Y5.455 I-0.033 J-0.253
G1 X8.511 Y3.675
G2 X7.73 Y3.08 I-0.836 J0.287
G3 X6.949 Y2.486 I0.056 J-0.884
G1 X5.547 Y-1.574
G2 X5.301 Y-2.186 I-27.232 J10.584
X5.014 Y-2.78 I-5.394 J2.238
X1.922 Y-5.402 I-5.014 J2.78
X-3.201 Y4.756 I-1.922 J5.402
X-1.165 Y5.577 I2.947 J-4.378
X1.028 Y5.673 I1.469 J-8.386
G1 X7.45 Y4.877
G2 X7.659 Y4.542 I-0.033 J-0.253
G1 X6.949 Y2.486
G2 X6.179 Y1.894 I-0.833 J0.288
G3 X5.409 Y1.303 I0.057 J-0.87
G1 X5.204 Y0.696
G2 X4.525 Y-1.177 I-41.816 J14.114
X4.307 Y-1.72 I-24.158 J9.389
X4.052 Y-2.247 I-4.785 J1.985
X1.553 Y-4.365 I-4.052 J2.247
X-2.587 Y3.844 I-1.553 J4.365
X-0.889 Y4.514 I2.369 J-3.52
X0.935 Y4.581 I1.186 J-7.403
X2.916 Y4.366 I-3.754 J-43.965
G1 X5.986 Y3.964
G2 X6.194 Y3.63 I-0.033 J-0.253
G1 X5.409 Y1.303
G2 X4.625 Y0.697 I-0.847 J0.286
G3 X3.834 Y0.1 I0.064 J-0.908
G2 X3.502 Y-0.78 I-41.467 J15.107
X3.312 Y-1.254 I-21.084 J8.194
X3.09 Y-1.713 I-4.176 J1.733
X1.184 Y-3.329 I-3.09 J1.713
X-1.973 Y2.931 I-1.184 J3.329
X-0.613 Y3.45 I1.8 J-2.674
X0.842 Y3.488 I0.897 J-6.503
X2.823 Y3.274 I-3.754 J-43.965
G1 X4.522 Y3.051
G2 X4.73 Y2.717 I-0.033 J-0.253
G1 X4.182 Y1.094
G2 X3.834 Y0.1 I-41.816 J14.114
X3.032 Y-0.501 I-0.862 J0.314
G3 X2.196 Y-1.053 I0.066 J-1.01
G1 X2.128 Y-1.18
G2 X0.816 Y-2.293 I-2.128 J1.18
X-1.359 Y2.019 I-0.816 J2.293
X-0.337 Y2.387 I1.244 J-1.849
X0.748 Y2.396 I0.587 J-5.836
X1.904 Y2.28 I-3.407 J-39.904
X3.057 Y2.138 I-8.19 J-71.416
X3.266 Y1.804 I-0.033 J-0.253
X2.885 Y0.706 I-68.109 J22.988
X2.48 Y-0.383 I-37.742 J13.422
X2.318 Y-0.787 I-18.01 J6.999
X2.196 Y-1.053 I-3.568 J1.48
X1.084 Y-1.543 I-0.855 J0.433
G3 X-0.111 Y-1.329 I-1.736 J-6.244
G1 X-0.189 Y-1.32
X-0.265 Y-1.307
G2 X-0.067 Y1.332 I0.265 J1.307
X0.765 Y1.316 I0.303 J-6.013
X1.593 Y1.225 I-1.733 J-19.625
X1.801 Y0.891 I-0.033 J-0.253
X1.642 Y0.448 I-11.148 J3.763
X1.473 Y0.009 I-85.193 J32.605
X1.286 Y-0.436 I-8.249 J3.206
X1.031 Y-0.846 I-1.684 J0.763
X-0.111 Y-1.329 I-1.031 J0.846
X-0.389 Y-0.721 I0.032 J0.382
G3 X-0.273 Y-0.062 I-0.615 J0.448
G1 X-0.282 Y-0.018
X-0.283 Y0.028
X-0.275 Y0.072
G2 X-0.106 Y0.257 I0.26 J-0.068
X0.141 Y0.295 I0.221 J-0.616
X0.327 Y-0.003 I-0.008 J-0.212
X-0.009 Y-0.243 I-0.371 J0.164
X-0.273 Y-0.062 I-0.022 J0.251
G1 X-0.29 Y0.01 Z-1.503 F333.3
X-0.299 Y0.084 Z-1.506
X-0.301 Y0.158 Z-1.509
X0.039 Y10.962 Z-1.953
G2 X0.799 Y11.651 Z-2 I0.712 J-0.022
X1.534 Y11.594 I-3.026 J-44.102 F1000
G1 X12.153 Y10.248
G2 X12.566 Y10.156 I-0.311 J-2.375
G1 X12.895 Y10.052
G2 X13.64 Y9.661 I-0.724 J-2.283
G1 X13.724 Y9.595
G2 X14.288 Y8.97 I-1.469 J-1.892
G1 X14.344 Y8.88
G2 X14.657 Y8.099 I-2.032 J-1.267
G1 X14.679 Y7.994
G2 X14.702 Y7.153 I-2.345 J-0.486
G1 X14.651 Y6.812
G2 X14.552 Y6.401 I-2.368 J0.355
G1 X11.086 Y-3.727
G2 X10.355 Y-5.493 I-37.871 J14.635
X10.145 Y-5.871 I-2.191 J0.967
G1 X9.199 Y-7.265
G2 X8.925 Y-7.599 I-1.981 J1.345
G1 X7.744 Y-8.8
G2 X7.414 Y-9.079 I-1.707 J1.68
G1 X6.036 Y-10.048
G2 X5.662 Y-10.264 I-1.378 J1.959
G1 X4.132 Y-10.969
G2 X3.725 Y-11.114 I-1.003 J2.175
G1 X2.094 Y-11.533
G2 X1.667 Y-11.603 I-0.596 J2.32
G1 X-0.013 Y-11.722
G2 X-0.445 Y-11.713 I-0.169 J2.389
G1 X-2.119 Y-11.529
G2 X-2.543 Y-11.443 I0.263 J2.381
G1 X-4.156 Y-10.96
G2 X-4.558 Y-10.799 I0.686 J2.295
G1 X-6.058 Y-10.035
G2 X-6.424 Y-9.805 I1.087 J2.134
G1 X-7.763 Y-8.783
G2 X-8.082 Y-8.49 I1.453 J1.904
G1 X-9.215 Y-7.245
G2 X-9.476 Y-6.9 I1.772 J1.612
G1 X-10.367 Y-5.471
G2 X-10.561 Y-5.085 I2.032 J1.267
G1 X-11.181 Y-3.519
G2 X-11.303 Y-3.104 I2.227 J0.881
G1 X-11.632 Y-1.452
G2 X-11.677 Y-1.022 I2.349 J0.467
G1 X-11.703 Y0.662
G2 X-11.671 Y1.093 I2.395 J0.037
G1 X-11.394 Y2.754
G2 X-11.284 Y3.173 I2.362 J-0.394
G1 X-10.713 Y4.757
G2 X-10.53 Y5.149 I2.253 J-0.812
G1 X-9.684 Y6.605
G2 X-9.434 Y6.957 I2.07 J-1.204
G1 X-8.339 Y8.238
G2 X-8.03 Y8.539 I1.82 J-1.556
G1 X-6.723 Y9.602
G2 X-6.365 Y9.843 I1.511 J-1.858
G1 X-4.888 Y10.654
G2 X-4.492 Y10.827 I1.153 J-2.099
G1 X-2.894 Y11.359
G2 X-2.473 Y11.458 I0.757 J-2.272
G1 X-0.806 Y11.694
G2 X-0.374 Y11.716 I0.336 J-2.371
X0.799 Y11.651 I-1.853 J-44.166
X1.753 Y10.895 I-0.074 J-1.072
G3 X2.684 Y10.113 I1.072 J0.331
G1 X11.957 Y8.937
X12.074 Y8.917
X12.189 Y8.886
X12.448 Y8.804
G2 X12.866 Y8.584 I-0.406 J-1.282
X13.189 Y8.228 I-0.818 J-1.068
X13.37 Y7.782 I-1.137 J-0.719
X13.384 Y7.301 I-1.315 J-0.281
G1 X13.344 Y7.032
X13.321 Y6.916
X13.288 Y6.802
X9.849 Y-3.247
G2 X9.529 Y-4.051 I-51.196 J19.897
X9.191 Y-4.848 I-27.284 J11.102
X8.982 Y-5.226 I-2.191 J0.967
G1 X8.17 Y-6.421
G2 X7.896 Y-6.755 I-1.981 J1.345
G1 X6.883 Y-7.785
G2 X6.554 Y-8.064 I-1.707 J1.68
G1 X5.372 Y-8.895
G2 X4.998 Y-9.111 I-1.378 J1.959
G1 X3.686 Y-9.716
G2 X3.279 Y-9.861 I-1.003 J2.175
G1 X1.88 Y-10.22
G2 X1.454 Y-10.289 I-0.596 J2.32
G1 X0.013 Y-10.392
G2 X-0.419 Y-10.383 I-0.169 J2.389
G1 X-1.855 Y-10.225
G2 X-2.278 Y-10.139 I0.263 J2.381
G1 X-3.662 Y-9.725
G2 X-4.063 Y-9.564 I0.686 J2.295
G1 X-5.35 Y-8.909
G2 X-5.716 Y-8.678 I1.087 J2.134
G1 X-6.864 Y-7.802
G2 X-7.182 Y-7.51 I1.453 J1.904
G1 X-8.154 Y-6.442
G2 X-8.415 Y-6.097 I1.772 J1.612
G1 X-9.179 Y-4.871
G2 X-9.374 Y-4.486 I2.032 J1.267
G1 X-9.905 Y-3.143
G2 X-10.027 Y-2.728 I2.227 J0.881
G1 X-10.309 Y-1.312
G2 X-10.354 Y-0.882 I2.349 J0.467
G1 X-10.376 Y0.562
G2 X-10.344 Y0.993 I2.395 J0.037
G1 X-10.106 Y2.418
G2 X-9.997 Y2.836 I2.362 J-0.394
G1 X-9.507 Y4.195
G2 X-9.325 Y4.586 I2.253 J-0.812
G1 X-8.599 Y5.835
G2 X-8.349 Y6.187 I2.07 J-1.204
G1 X-7.41 Y7.285
G2 X-7.101 Y7.587 I1.82 J-1.556
G1 X-5.98 Y8.498
G2 X-5.622 Y8.74 I1.511 J-1.858
G1 X-4.356 Y9.435
G2 X-3.96 Y9.608 I1.153 J-2.099
G1 X-2.589 Y10.064
G2 X-2.169 Y10.163 I0.757 J-2.272
G1 X-0.739 Y10.365
G2 X-0.307 Y10.387 I0.336 J-2.371
X0.558 Y10.34 I-1.178 J-29.438
X1.421 Y10.273 I-3.807 J-54.768
G1 X2.684 Y10.113
G2 X3.029 Y9.974 I-0.092 J-0.725
G1 X8.537 Y5.87
G3 X9.361 Y5.836 I0.437 J0.586
G1 X10.462 Y6.522
X11.496 Y6.998
G2 X11.847 Y6.681 I0.107 J-0.234
G1 X8.613 Y-2.766
G2 X8.328 Y-3.488 I-74.265 J28.863
X8.028 Y-4.203 I-20.341 J8.134
X7.818 Y-4.581 I-2.191 J0.967
G1 X7.142 Y-5.578
G2 X6.868 Y-5.912 I-1.981 J1.345
G1 X6.023 Y-6.77
G2 X5.693 Y-7.05 I-1.707 J1.68
G1 X4.708 Y-7.742
G2 X4.334 Y-7.958 I-1.378 J1.959
G1 X3.24 Y-8.462
G2 X2.833 Y-8.607 I-1.003 J2.175
G1 X1.667 Y-8.907
G2 X1.24 Y-8.976 I-0.596 J2.32
G1 X0.039 Y-9.061
G2 X-0.393 Y-9.053 I-0.169 J2.389
G1 X-1.59 Y-8.921
G2 X-2.014 Y-8.835 I0.263 J2.381
G1 X-3.167 Y-8.49
G2 X-3.568 Y-8.329 I0.686 J2.295
G1 X-4.641 Y-7.783
G2 X-5.007 Y-7.552 I1.087 J2.134
G1 X-5.964 Y-6.822
G2 X-6.283 Y-6.53 I1.453 J1.904
G1 X-7.093 Y-5.639
G2 X-7.354 Y-5.294 I1.772 J1.612
G1 X-7.991 Y-4.272
G2 X-8.186 Y-3.886 I2.032 J1.267
G1 X-8.629 Y-2.767
G2 X-8.751 Y-2.352 I2.227 J0.881
G1 X-8.986 Y-1.171
G2 X-9.031 Y-0.741 I2.349 J0.467
G1 X-9.05 Y0.463
G2 X-9.017 Y0.894 I2.395 J0.037
G1 X-8.819 Y2.082
G2 X-8.71 Y2.5 I2.362 J-0.394
G1 X-8.302 Y3.632
G2 X-8.119 Y4.024 I2.253 J-0.812
G1 X-7.514 Y5.065
G2 X-7.264 Y5.418 I2.07 J-1.204
G1 X-6.481 Y6.333
G2 X-6.172 Y6.635 I1.82 J-1.556
G1 X-5.237 Y7.395
G2 X-4.879 Y7.636 I1.511 J-1.858
G1 X-3.823 Y8.215
G2 X-3.427 Y8.388 I1.153 J-2.099
G1 X-2.285 Y8.769
G2 X-1.864 Y8.868 I0.757 J-2.272
G1 X-0.672 Y9.037
G2 X-0.24 Y9.058 I0.336 J-2.371
X0.535 Y9.014 I-0.876 J-21.893
X1.308 Y8.951 I-5.999 J-79.38
G1 X11.238 Y7.693
G2 X11.327 Y6.003 I-0.108 J-0.853
G3 X10.073 Y4.867 I0.402 J-1.704
G1 X7.592 Y-2.369
G2 X7.336 Y-3.023 I-126.623 J49.212
X7.066 Y-3.67 I-16.318 J6.439
X6.856 Y-4.048 I-2.191 J0.967
X5.568 Y-5.626 I-9.569 J6.498
X3.959 Y-6.875 I-5.311 J5.18
X-5.54 Y5.678 I-3.959 J6.875
X-3.258 Y7.201 I5.214 J-5.344
X-0.616 Y7.938 I4.109 J-9.622
X-0.185 Y7.96 I0.336 J-2.371
X0.516 Y7.918 I-0.702 J-17.531
X1.215 Y7.86 I-10.844 J-135.261
G1 X10.379 Y6.703
G2 X10.587 Y6.368 I-0.033 J-0.253
G1 X10.073 Y4.867
G2 X9.292 Y4.271 I-0.837 J0.287
G3 X8.511 Y3.675 I0.057 J-0.884
G1 X6.569 Y-1.972
G2 X6.295 Y-2.653 I-30.306 J11.778
X5.976 Y-3.313 I-6.003 J2.49
X2.291 Y-6.438 I-5.976 J3.313
X-3.815 Y5.669 I-2.291 J6.438
X-1.441 Y6.64 I3.529 J-5.244
X1.122 Y6.766 I1.748 J-9.409
G1 X8.915 Y5.79
G2 X9.123 Y5.455 I-0.033 J-0.253
G1 X8.511 Y3.675
G2 X7.73 Y3.08 I-0.836 J0.287
G3 X6.949 Y2.486 I0.056 J-0.884
G1 X5.547 Y-1.574
G2 X5.301 Y-2.186 I-27.232 J10.584
X5.014 Y-2.78 I-5.394 J2.238
X1.922 Y-5.402 I-5.014 J2.78
X-3.201 Y4.756 I-1.922 J5.402
X-1.165 Y5.577 I2.947 J-4.378
X1.028 Y5.673 I1.469 J-8.386
G1 X7.45 Y4.877
G2 X7.659 Y4.542 I-0.033 J-0.253
G1 X6.949 Y2.486
G2 X6.179 Y1.894 I-0.833 J0.288
G3 X5.409 Y1.303 I0.057 J-0.87
G1 X5.204 Y0.696
G2 X4.525 Y-1.177 I-41.816 J14.114
X4.307 Y-1.72 I-24.158 J9.389
X4.052 Y-2.247 I-4.785 J1.985
X1.553 Y-4.365 I-4.052 J2.247
X-2.587 Y3.844 I-1.553 J4.365
X-0.889 Y4.514 I2.369 J-3.52
X0.935 Y4.581 I1.186 J-7.403
X2.916 Y4.366 I-3.754 J-43.965
G1 X5.986 Y3.964
G2 X6.194 Y3.63 I-0.033 J-0.253
G1 X5.409 Y1.303
G2 X4.625 Y0.697 I-0.847 J0.286
G3 X3.834 Y0.1 I0.064 J-0.908
G2 X3.502 Y-0.78 I-41.467 J15.107
X3.312 Y-1.254 I-21.084 J8.194
X3.09 Y-1.713 I-4.176 J1.733
X1.184 Y-3.329 I-3.09 J1.713
X-1.973 Y2.931 I-1.184 J3.329
X-0.613 Y3.45 I1.8 J-2.674
X0.842 Y3.488 I0.897 J-6.503
X2.823 Y3.274 I-3.754 J-43.965
G1 X4.522 Y3.051
G2 X4.73 Y2.717 I-0.033 J-0.253
G1 X4.182 Y1.094
G2 X3.834 Y0.1 I-41.816 J14.114
X3.032 Y-0.501 I-0.862 J0.314
G3 X2.196 Y-1.053 I0.066 J-1.01
G1 X2.128 Y-1.18
G2 X0.816 Y-2.293 I-2.128 J1.18
X-1.359 Y2.019 I-0.816 J2.293
X-0.337 Y2.387 I1.244 J-1.849
X0.748 Y2.396 I0.587 J-5.836
X1.904 Y2.28 I-3.407 J-39.904
X3.057 Y2.138 I-8.19 J-71.416
X3.266 Y1.804 I-0.033 J-0.253
X2.885 Y0.706 I-68.109 J22.988
X2.48 Y-0.383 I-37.742 J13.422
X2.318 Y-0.787 I-18.01 J6.999
X2.196 Y-1.053 I-3.568 J1.48
X1.084 Y-1.543 I-0.855 J0.433
G3 X-0.111 Y-1.329 I-1.736 J-6.244
G1 X-0.189 Y-1.32
X-0.265 Y-1.307
G2 X-0.067 Y1.332 I0.265 J1.307
X0.765 Y1.316 I0.303 J-6.013
X1.593 Y1.225 I-1.733 J-19.625
X1.801 Y0.891 I-0.033 J-0.253
X1.642 Y0.448 I-11.148 J3.763
X1.473 Y0.009 I-85.193 J32.605
X1.286 Y-0.436 I-8.249 J3.206
X1.031 Y-0.846 I-1.684 J0.763
X-0.111 Y-1.329 I-1.031 J0.846
X-0.389 Y-0.721 I0.032 J0.382
G3 X-0.273 Y-0.062 I-0.615 J0.448
G1 X-0.282 Y-0.018
X-0.283 Y0.028
X-0.275 Y0.072
G2 X-0.106 Y0.257 I0.26 J-0.068
X0.141 Y0.295 I0.221 J-0.616
X0.327 Y-0.003 I-0.008 J-0.212
X-0.009 Y-0.243 I-0.371 J0.164
X-0.273 Y-0.062 I-0.022 J0.251
G1 X-0.29 Y0.01 Z-2.003 F333.3
X-0.299 Y0.084 Z-2.006
X-0.301 Y0.158 Z-2.009
X0.039 Y10.962 Z-2.453
G2 X0.799 Y11.651 Z-2.5 I0.712 J-0.022
X1.534 Y11.594 I-3.026 J-44.102 F1000
G1 X12.153 Y10.248
G2 X12.566 Y10.156 I-0.311 J-2.375
G1 X12.895 Y10.052
G2 X13.64 Y9.661 I-0.724 J-2.283
G1 X13.724 Y9.595
G2 X14.288 Y8.97 I-1.469 J-1.892
G1 X14.344 Y8.88
G2 X14.657 Y8.099 I-2.032 J-1.267
G1 X14.679 Y7.994
G2 X14.702 Y7.153 I-2.345 J-0.486
G1 X14.651 Y6.812
G2 X14.552 Y6.401 I-2.368 J0.355
G1 X11.086 Y-3.727
G2 X10.355 Y-5.493 I-37.871 J14.635
X10.145 Y-5.871 I-2.191 J0.967
G1 X9.199 Y-7.265
G2 X8.925 Y-7.599 I-1.981 J1.345
G1 X7.744 Y-8.8
G2 X7.414 Y-9.079 I-1.707 J1.68
G1 X6.036 Y-10.048
G2 X5.662 Y-10.264 I-1.378 J1.959
G1 X4.132 Y-10.969
G2 X3.725 Y-11.114 I-1.003 J2.175
G1 X2.094 Y-11.533
G2 X1.667 Y-11.603 I-0.596 J2.32
G1 X-0.013 Y-11.722
G2 X-0.445 Y-11.713 I-0.169 J2.389
G1 X-2.119 Y-11.529
G2 X-2.543 Y-11.443 I0.263 J2.381
G1 X-4.156 Y-10.96
G2 X-4.558 Y-10.799 I0.686 J2.295
G1 X-6.058 Y-10.035
G2 X-6.424 Y-9.805 I1.087 J2.134
G1 X-7.763 Y-8.783
G2 X-8.082 Y-8.49 I1.453 J1.904
G1 X-9.215 Y-7.245
G2 X-9.476 Y-6.9 I1.772 J1.612
G1 X-10.367 Y-5.471
G2 X-10.561 Y-5.085 I2.032 J1.267
G1 X-11.181 Y-3.519
G2 X-11.303 Y-3.104 I2.227 J0.881
G1 X-11.632 Y-1.452
G2 X-11.677 Y-1.022 I2.349 J0.467
G1 X-11.703 Y0.662
G2 X-11.671 Y1.093 I2.395 J0.037
G1 X-11.394 Y2.754
G2 X-11.284 Y3.173 I2.362 J-0.394
G1 X-10.713 Y4.757
G2 X-10.53 Y5.149 I2.253 J-0.812
G1 X-9.684 Y6.605
G2 X-9.434 Y6.957 I2.07 J-1.204
G1 X-8.339 Y8.238
G2 X-8.03 Y8.539 I1.82 J-1.556
G1 X-6.723 Y9.602
G2 X-6.365 Y9.843 I1.511 J-1.858
G1 X-4.888 Y10.654
G2 X-4.492 Y10.827 I1.153 J-2.099
G1 X-2.894 Y11.359
G2 X-2.473 Y11.458 I0.757 J-2.272
G1 X-0.806 Y11.694
G2 X-0.374 Y11.716 I0.336 J-2.371
X0.799 Y11.651 I-1.853 J-44.166
X1.753 Y10.895 I-0.074 J-1.072
G3 X2.684 Y10.113 I1.072 J0.331
G1 X11.957 Y8.937
X12.074 Y8.917
X12.189 Y8.886
X12.448 Y8.804
G2 X12.866 Y8.584 I-0.406 J-1.282
X13.189 Y8.228 I-0.818 J-1.068
X13.37 Y7.782 I-1.137 J-0.719
X13.384 Y7.301 I-1.315 J-0.281
G1 X13.344 Y7.032
X13.321 Y6.916
X13.288 Y6.802
X9.849 Y-3.247
G2 X9.529 Y-4.051 I-51.196 J19.897
X9.191 Y-4.848 I-27.284 J11.102
X8.982 Y-5.226 I-2.191 J0.967
G1 X8.17 Y-6.421
G2 X7.896 Y-6.755 I-1.981 J1.345
G1 X6.883 Y-7.785
G2 X6.554 Y-8.064 I-1.707 J1.68
G1 X5.372 Y-8.895
G2 X4.998 Y-9.111 I-1.378 J1.959
G1 X3.686 Y-9.716
G2 X3.279 Y-9.861 I-1.003 J2.175
G1 X1.88 Y-10.22
G2 X1.454 Y-10.289 I-0.596 J2.32
G1 X0.013 Y-10.392
G2 X-0.419 Y-10.383 I-0.169 J2.389
G1 X-1.855 Y-10.225
G2 X-2.278 Y-10.139 I0.263 J2.381
G1 X-3.662 Y-9.725
G2 X-4.063 Y-9.564 I0.686 J2.295
G1 X-5.35 Y-8.909
G2 X-5.716 Y-8.678 I1.087 J2.134
G1 X-6.864 Y-7.802
G2 X-7.182 Y-7.51 I1.453 J1.904
G1 X-8.154 Y-6.442
G2 X-8.415 Y-6.097 I1.772 J1.612
G1 X-9.179 Y-4.871
G2 X-9.374 Y-4.486 I2.032 J1.267
G1 X-9.905 Y-3.143
G2 X-10.027 Y-2.728 I2.227 J0.881
G1 X-10.309 Y-1.312
G2 X-10.354 Y-0.882 I2.349 J0.467
G1 X-10.376 Y0.562
G2 X-10.344 Y0.993 I2.395 J0.037
G1 X-10.106 Y2.418
G2 X-9.997 Y2.836 I2.362 J-0.394
G1 X-9.507 Y4.195
G2 X-9.325 Y4.586 I2.253 J-0.812
G1 X-8.599 Y5.835
G2 X-8.349 Y6.187 I2.07 J-1.204
G1 X-7.41 Y7.285
G2 X-7.101 Y7.587 I1.82 J-1.556
G1 X-5.98 Y8.498
G2 X-5.622 Y8.74 I1.511 J-1.858
G1 X-4.356 Y9.435
G2 X-3.96 Y9.608 I1.153 J-2.099
G1 X-2.589 Y10.064
G2 X-2.169 Y10.163 I0.757 J-2.272
G1 X-0.739 Y10.365
G2 X-0.307 Y10.387 I0.336 J-2.371
X0.558 Y10.34 I-1.178 J-29.438
X1.421 Y10.273 I-3.807 J-54.768
G1 X2.684 Y10.113
G2 X3.029 Y9.974 I-0.092 J-0.725
G1 X8.537 Y5.87
G3 X9.361 Y5.836 I0.437 J0.586
G1 X10.462 Y6.522
X11.496 Y6.998
G2 X11.847 Y6.681 I0.107 J-0.234
G1 X8.613 Y-2.766
G2 X8.328 Y-3.488 I-74.265 J28.863
X8.028 Y-4.203 I-20.341 J8.134
X7.818 Y-4.581 I-2.191 J0.967
G1 X7.142 Y-5.578
G2 X6.868 Y-5.912 I-1.981 J1.345
G1 X6.023 Y-6.77
G2 X5.693 Y-7.05 I-1.707 J1.68
G1 X4.708 Y-7.742
G2 X4.334 Y-7.958 I-1.378 J1.959
G1 X3.24 Y-8.462
G2 X2.833 Y-8.607 I-1.003 J2.175
G1 X1.667 Y-8.907
G2 X1.24 Y-8.976 I-0.596 J2.32
G1 X0.039 Y-9.061
G2 X-0.393 Y-9.053 I-0.169 J2.389
G1 X-1.59 Y-8.921
G2 X-2.014 Y-8.835 I0.263 J2.381
G1 X-3.167 Y-8.49
G2 X-3.568 Y-8.329 I0.686 J2.295
G1 X-4.641 Y-7.783
G2 X-5.007 Y-7.552 I1.087 J2.134
G1 X-5.964 Y-6.822
G2 X-6.283 Y-6.53 I1.453 J1.904
G1 X-7.093 Y-5.639
G2 X-7.354 Y-5.294 I1.772 J1.612
G1 X-7.991 Y-4.272
G2 X-8.186 Y-3.886 I2.032 J1.267
G1 X-8.629 Y-2.767
G2 X-8.751 Y-2.352 I2.227 J0.881
G1 X-8.986 Y-1.171
G2 X-9.031 Y-0.741 I2.349 J0.467
G1 X-9.05 Y0.463
G2 X-9.017 Y0.894 I2.395 J0.037
G1 X-8.819 Y2.082
G2 X-8.71 Y2.5 I2.362 J-0.394
G1 X-8.302 Y3.632
G2 X-8.119 Y4.024 I2.253 J-0.812
G1 X-7.514 Y5.065
G2 X-7.264 Y5.418 I2.07 J-1.204
G1 X-6.481 Y6.333
G2 X-6.172 Y6.635 I1.82 J-1.556
G1 X-5.237 Y7.395
G2 X-4.879 Y7.636 I1.511 J-1.858
G1 X-3.823 Y8.215
G2 X-3.427 Y8.388 I1.153 J-2.099
G1 X-2.285 Y8.769
G2 X-1.864 Y8.868 I0.757 J-2.272
G1 X-0.672 Y9.037
G2 X-0.24 Y9.058 I0.336 J-2.371
X0.535 Y9.014 I-0.876 J-21.893
X1.308 Y8.951 I-5.999 J-79.38
G1 X11.238 Y7.693
G2 X11.327 Y6.003 I-0.108 J-0.853
G3 X10.073 Y4.867 I0.402 J-1.704
G1 X7.592 Y-2.369
G2 X7.336 Y-3.023 I-126.623 J49.212
X7.066 Y-3.67 I-16.318 J6.439
X6.856 Y-4.048 I-2.191 J0.967
X5.568 Y-5.626 I-9.569 J6.498
X3.959 Y-6.875 I-5.311 J5.18
X-5.54 Y5.678 I-3.959 J6.875
X-3.258 Y7.201 I5.214 J-5.344
X-0.616 Y7.938 I4.109 J-9.622
X-0.185 Y7.96 I0.336 J-2.371
X0.516 Y7.918 I-0.702 J-17.531
X1.215 Y7.86 I-10.844 J-135.261
G1 X10.379 Y6.703
G2 X10.587 Y6.368 I-0.033 J-0.253
G1 X10.073 Y4.867
G2 X9.292 Y4.271 I-0.837 J0.287
G3 X8.511 Y3.675 I0.057 J-0.884
G1 X6.569 Y-1.972
G2 X6.295 Y-2.653 I-30.306 J11.778
X5.976 Y-3.313 I-6.003 J2.49
X2.291 Y-6.438 I-5.976 J3.313
X-3.815 Y5.669 I-2.291 J6.438
X-1.441 Y6.64 I3.529 J-5.244
X1.122 Y6.766 I1.748 J-9.409
G1 X8.915 Y5.79
G2 X9.123 Y5.455 I-0.033 J-0.253
G1 X8.511 Y3.675
G2 X7.73 Y3.08 I-0.836 J0.287
G3 X6.949 Y2.486 I0.056 J-0.884
G1 X5.547 Y-1.574
G2 X5.301 Y-2.186 I-27.232 J10.584
X5.014 Y-2.78 I-5.394 J2.238
X1.922 Y-5.402 I-5.014 J2.78
X-3.201 Y4.756 I-1.922 J5.402
X-1.165 Y5.577 I2.947 J-4.378
X1.028 Y5.673 I1.469 J-8.386
G1 X7.45 Y4.877
G2 X7.659 Y4.542 I-0.033 J-0.253
G1 X6.949 Y2.486
G2 X6.179 Y1.894 I-0.833 J0.288
G3 X5.409 Y1.303 I0.057 J-0.87
G1 X5.204 Y0.696
G2 X4.525 Y-1.177 I-41.816 J14.114
X4.307 Y-1.72 I-24.158 J9.389
X4.052 Y-2.247 I-4.785 J1.985
X1.553 Y-4.365 I-4.052 J2.247
X-2.587 Y3.844 I-1.553 J4.365
X-0.889 Y4.514 I2.369 J-3.52
X0.935 Y4.581 I1.186 J-7.403
X2.916 Y4.366 I-3.754 J-43.965
G1 X5.986 Y3.964
G2 X6.194 Y3.63 I-0.033 J-0.253
G1 X5.409 Y1.303
G2 X4.625 Y0.697 I-0.847 J0.286
G3 X3.834 Y0.1 I0.064 J-0.908
G2 X3.502 Y-0.78 I-41.467 J15.107
X3.312 Y-1.254 I-21.084 J8.194
X3.09 Y-1.713 I-4.176 J1.733
X1.184 Y-3.329 I-3.09 J1.713
X-1.973 Y2.931 I-1.184 J3.329
X-0.613 Y3.45 I1.8 J-2.674
X0.842 Y3.488 I0.897 J-6.503
X2.823 Y3.274 I-3.754 J-43.965
G1 X4.522 Y3.051
G2 X4.73 Y2.717 I-0.033 J-0.253
G1 X4.182 Y1.094
G2 X3.834 Y0.1 I-41.816 J14.114
X3.032 Y-0.501 I-0.862 J0.314
G3 X2.196 Y-1.053 I0.066 J-1.01
G1 X2.128 Y-1.18
G2 X0.816 Y-2.293 I-2.128 J1.18
X-1.359 Y2.019 I-0.816 J2.293
X-0.337 Y2.387 I1.244 J-1.849
X0.748 Y2.396 I0.587 J-5.836
X1.904 Y2.28 I-3.407 J-39.904
X3.057 Y2.138 I-8.19 J-71.416
X3.266 Y1.804 I-0.033 J-0.253
X2.885 Y0.706 I-68.109 J22.988
X2.48 Y-0.383 I-37.742 J13.422
X2.318 Y-0.787 I-18.01 J6.999
X2.196 Y-1.053 I-3.568 J1.48
X1.084 Y-1.543 I-0.855 J0.433
G3 X-0.111 Y-1.329 I-1.736 J-6.244
G1 X-0.189 Y-1.32
X-0.265 Y-1.307
G2 X-0.067 Y1.332 I0.265 J1.307
X0.765 Y1.316 I0.303 J-6.013
X1.593 Y1.225 I-1.733 J-19.625
X1.801 Y0.891 I-0.033 J-0.253
X1.642 Y0.448 I-11.148 J3.763
X1.473 Y0.009 I-85.193 J32.605
X1.286 Y-0.436 I-8.249 J3.206
X1.031 Y-0.846 I-1.684 J0.763
X-0.111 Y-1.329 I-1.031 J0.846
X-0.389 Y-0.721 I0.032 J0.382
G3 X-0.273 Y-0.062 I-0.615 J0.448
G1 X-0.282 Y-0.018
X-0.283 Y0.028
X-0.275 Y0.072
G2 X-0.106 Y0.257 I0.26 J-0.068
X0.141 Y0.295 I0.221 J-0.616
X0.327 Y-0.003 I-0.008 J-0.212
X-0.009 Y-0.243 I-0.371 J0.164
X-0.273 Y-0.062 I-0.022 J0.251
G1 X-0.29 Y0.01 Z-2.503 F333.3
X-0.299 Y0.084 Z-2.506
X-0.301 Y0.158 Z-2.509
X0.039 Y10.962 Z-2.953
G2 X0.799 Y11.651 Z-3 I0.712 J-0.022
X1.534 Y11.594 I-3.026 J-44.102 F1000
G1 X12.153 Y10.248
G2 X12.566 Y10.156 I-0.311 J-2.375
G1 X12.895 Y10.052
G2 X13.64 Y9.661 I-0.724 J-2.283
G1 X13.724 Y9.595
G2 X14.288 Y8.97 I-1.469 J-1.892
G1 X14.344 Y8.88
G2 X14.657 Y8.099 I-2.032 J-1.267
G1 X14.679 Y7.994
G2 X14.702 Y7.153 I-2.345 J-0.486
G1 X14.651 Y6.812
G2 X14.552 Y6.401 I-2.368 J0.355
G1 X11.086 Y-3.727
G2 X10.355 Y-5.493 I-37.871 J14.635
X10.145 Y-5.871 I-2.191 J0.967
G1 X9.199 Y-7.265
G2 X8.925 Y-7.599 I-1.981 J1.345
G1 X7.744 Y-8.8
G2 X7.414 Y-9.079 I-1.707 J1.68
G1 X6.036 Y-10.048
G2 X5.662 Y-10.264 I-1.378 J1.959
G1 X4.132 Y-10.969
G2 X3.725 Y-11.114 I-1.003 J2.175
G1 X2.094 Y-11.533
G2 X1.667 Y-11.603 I-0.596 J2.32
G1 X-0.013 Y-11.722
G2 X-0.445 Y-11.713 I-0.169 J2.389
G1 X-2.119 Y-11.529
G2 X-2.543 Y-11.443 I0.263 J2.381
G1 X-4.156 Y-10.96
G2 X-4.558 Y-10.799 I0.686 J2.295
G1 X-6.058 Y-10.035
G2 X-6.424 Y-9.805 I1.087 J2.134
G1 X-7.763 Y-8.783
G2 X-8.082 Y-8.49 I1.453 J1.904
G1 X-9.215 Y-7.245
G2 X-9.476 Y-6.9 I1.772 J1.612
G1 X-10.367 Y-5.471
G2 X-10.561 Y-5.085 I2.032 J1.267
G1 X-11.181 Y-3.519
G2 X-11.303 Y-3.104 I2.227 J0.881
G1 X-11.632 Y-1.452
G2 X-11.677 Y-1.022 I2.349 J0.467
G1 X-11.703 Y0.662
G2 X-11.671 Y1.093 I2.395 J0.037
G1 X-11.394 Y2.754
G2 X-11.284 Y3.173 I2.362 J-0.394
G1 X-10.713 Y4.757
G2 X-10.53 Y5.149 I2.253 J-0.812
G1 X-9.684 Y6.605
G2 X-9.434 Y6.957 I2.07 J-1.204
G1 X-8.339 Y8.238
G2 X-8.03 Y8.539 I1.82 J-1.556
G1 X-6.723 Y9.602
G2 X-6.365 Y9.843 I1.511 J-1.858
G1 X-4.888 Y10.654
G2 X-4.492 Y10.827 I1.153 J-2.099
G1 X-2.894 Y11.359
G2 X-2.473 Y11.458 I0.757 J-2.272
G1 X-0.806 Y11.694
G2 X-0.374 Y11.716 I0.336 J-2.371
X0.799 Y11.651 I-1.853 J-44.166
X1.753 Y10.895 I-0.074 J-1.072
G3 X2.684 Y10.113 I1.072 J0.331
G1 X11.957 Y8.937
X12.074 Y8.917
X12.189 Y8.886
X12.448 Y8.804
G2 X12.866 Y8.584 I-0.406 J-1.282
X13.189 Y8.228 I-0.818 J-1.068
X13.37 Y7.782 I-1.137 J-0.719
X13.384 Y7.301 I-1.315 J-0.281
G1 X13.344 Y7.032
X13.321 Y6.916
X13.288 Y6.802
X9.849 Y-3.247
G2 X9.529 Y-4.051 I-51.196 J19.897
X9.191 Y-4.848 I-27.284 J11.102
X8.982 Y-5.226 I-2.191 J0.967
G1 X8.17 Y-6.421
G2 X7.896 Y-6.755 I-1.981 J1.345
G1 X6.883 Y-7.785
G2 X6.554 Y-8.064 I-1.707 J1.68
G1 X5.372 Y-8.895
G2 X4.998 Y-9.111 I-1.378 J1.959
G1 X3.686 Y-9.716
G2 X3.279 Y-9.861 I-1.003 J2.175
G1 X1.88 Y-10.22
G2 X1.454 Y-10.289 I-0.596 J2.32
G1 X0.013 Y-10.392
G2 X-0.419 Y-10.383 I-0.169 J2.389
G1 X-1.855 Y-10.225
G2 X-2.278 Y-10.139 I0.263 J2.381
G1 X-3.662 Y-9.725
G2 X-4.063 Y-9.564 I0.686 J2.295
G1 X-5.35 Y-8.909
G2 X-5.716 Y-8.678 I1.087 J2.134
G1 X-6.864 Y-7.802
G2 X-7.182 Y-7.51 I1.453 J1.904
G1 X-8.154 Y-6.442
G2 X-8.415 Y-6.097 I1.772 J1.612
G1 X-9.179 Y-4.871
G2 X-9.374 Y-4.486 I2.032 J1.267
G1 X-9.905 Y-3.143
G2 X-10.027 Y-2.728 I2.227 J0.881
G1 X-10.309 Y-1.312
G2 X-10.354 Y-0.882 I2.349 J0.467
G1 X-10.376 Y0.562
G2 X-10.344 Y0.993 I2.395 J0.037
G1 X-10.106 Y2.418
G2 X-9.997 Y2.836 I2.362 J-0.394
G1 X-9.507 Y4.195
G2 X-9.325 Y4.586 I2.253 J-0.812
G1 X-8.599 Y5.835
G2 X-8.349 Y6.187 I2.07 J-1.204
G1 X-7.41 Y7.285
G2 X-7.101 Y7.587 I1.82 J-1.556
G1 X-5.98 Y8.498
G2 X-5.622 Y8.74 I1.511 J-1.858
G1 X-4.356 Y9.435
G2 X-3.96 Y9.608 I1.153 J-2.099
G1 X-2.589 Y10.064
G2 X-2.169 Y10.163 I0.757 J-2.272
G1 X-0.739 Y10.365
G2 X-0.307 Y10.387 I0.336 J-2.371
X0.558 Y10.34 I-1.178 J-29.438
X1.421 Y10.273 I-3.807 J-54.768
G1 X2.684 Y10.113
G2 X3.029 Y9.974 I-0.092 J-0.725
G1 X8.537 Y5.87
G3 X9.361 Y5.836 I0.437 J0.586
G1 X10.462 Y6.522
X11.496 Y6.998
G2 X11.847 Y6.681 I0.107 J-0.234
G1 X8.613 Y-2.766
G2 X8.328 Y-3.488 I-74.265 J28.863
X8.028 Y-4.203 I-20.341 J8.134
X7.818 Y-4.581 I-2.191 J0.967
G1 X7.142 Y-5.578
G2 X6.868 Y-5.912 I-1.981 J1.345
G1 X6.023 Y-6.77
G2 X5.693 Y-7.05 I-1.707 J1.68
G1 X4.708 Y-7.742
G2 X4.334 Y-7.958 I-1.378 J1.959
G1 X3.24 Y-8.462
G2 X2.833 Y-8.607 I-1.003 J2.175
G1 X1.667 Y-8.907
G2 X1.24 Y-8.976 I-0.596 J2.32
G1 X0.039 Y-9.061
G2 X-0.393 Y-9.053 I-0.169 J2.389
G1 X-1.59 Y-8.921
G2 X-2.014 Y-8.835 I0.263 J2.381
G1 X-3.167 Y-8.49
G2 X-3.568 Y-8.329 I0.686 J2.295
G1 X-4.641 Y-7.783
G2 X-5.007 Y-7.552 I1.087 J2.134
G1 X-5.964 Y-6.822
G2 X-6.283 Y-6.53 I1.453 J1.904
G1 X-7.093 Y-5.639
G2 X-7.354 Y-5.294 I1.772 J1.612
G1 X-7.991 Y-4.272
G2 X-8.186 Y-3.886 I2.032 J1.267
G1 X-8.629 Y-2.767
G2 X-8.751 Y-2.352 I2.227 J0.881
G1 X-8.986 Y-1.171
G2 X-9.031 Y-0.741 I2.349 J0.467
G1 X-9.05 Y0.463
G2 X-9.017 Y0.894 I2.395 J0.037
G1 X-8.819 Y2.082
G2 X-8.71 Y2.5 I2.362 J-0.394
G1 X-8.302 Y3.632
G2 X-8.119 Y4.024 I2.253 J-0.812
G1 X-7.514 Y5.065
G2 X-7.264 Y5.418 I2.07 J-1.204
G1 X-6.481 Y6.333
G2 X-6.172 Y6.635 I1.82 J-1.556
G1 X-5.237 Y7.395
G2 X-4.879 Y7.636 I1.511 J-1.858
G1 X-3.823 Y8.215
G2 X-3.427 Y8.388 I1.153 J-2.099
G1 X-2.285 Y8.769
G2 X-1.864 Y8.868 I0.757 J-2.272
G1 X-0.672 Y9.037
G2 X-0.24 Y9.058 I0.336 J-2.371
X0.535 Y9.014 I-0.876 J-21.893
X1.308 Y8.951 I-5.999 J-79.38
G1 X11.238 Y7.693
G2 X11.327 Y6.003 I-0.108 J-0.853
G3 X10.073 Y4.867 I0.402 J-1.704
G1 X7.592 Y-2.369
G2 X7.336 Y-3.023 I-126.623 J49.212
X7.066 Y-3.67 I-16.318 J6.439
X6.856 Y-4.048 I-2.191 J0.967
X5.568 Y-5.626 I-9.569 J6.498
X3.959 Y-6.875 I-5.311 J5.18
X-5.54 Y5.678 I-3.959 J6.875
X-3.258 Y7.201 I5.214 J-5.344
X-0.616 Y7.938 I4.109 J-9.622
X-0.185 Y7.96 I0.336 J-2.371
X0.516 Y7.918 I-0.702 J-17.531
X1.215 Y7.86 I-10.844 J-135.261
G1 X10.379 Y6.703
G2 X10.587 Y6.368 I-0.033 J-0.253
G1 X10.073 Y4.867
G2 X9.292 Y4.271 I-0.837 J0.287
G3 X8.511 Y3.675 I0.057 J-0.884
G1 X6.569 Y-1.972
G2 X6.295 Y-2.653 I-30.306 J11.778
X5.976 Y-3.313 I-6.003 J2.49
X2.291 Y-6.438 I-5.976 J3.313
X-3.815 Y5.669 I-2.291 J6.438
X-1.441 Y6.64 I3.529 J-5.244
X1.122 Y6.766 I1.748 J-9.409
G1 X8.915 Y5.79
G2 X9.123 Y5.455 I-0.033 J-0.253
G1 X8.511 Y3.675
G2 X7.73 Y3.08 I-0.836 J0.287
G3 X6.949 Y2.486 I0.056 J-0.884
G1 X5.547 Y-1.574
G2 X5.301 Y-2.186 I-27.232 J10.584
X5.014 Y-2.78 I-5.394 J2.238
X1.922 Y-5.402 I-5.014 J2.78
X-3.201 Y4.756 I-1.922 J5.402
X-1.165 Y5.577 I2.947 J-4.378
X1.028 Y5.673 I1.469 J-8.386
G1 X7.45 Y4.877
G2 X7.659 Y4.542 I-0.033 J-0.253
G1 X6.949 Y2.486
G2 X6.179 Y1.894 I-0.833 J0.288
G3 X5.409 Y1.303 I0.057 J-0.87
G1 X5.204 Y0.696
G2 X4.525 Y-1.177 I-41.816 J14.114
X4.307 Y-1.72 I-24.158 J9.389
X4.052 Y-2.247 I-4.785 J1.985
X1.553 Y-4.365 I-4.052 J2.247
X-2.587 Y3.844 I-1.553 J4.365
X-0.889 Y4.514 I2.369 J-3.52
X0.935 Y4.581 I1.186 J-7.403
X2.916 Y4.366 I-3.754 J-43.965
G1 X5.986 Y3.964
G2 X6.194 Y3.63 I-0.033 J-0.253
G1 X5.409 Y1.303
G2 X4.625 Y0.697 I-0.847 J0.286
G3 X3.834 Y0.1 I0.064 J-0.908
G2 X3.502 Y-0.78 I-41.467 J15.107
X3.312 Y-1.254 I-21.084 J8.194
X3.09 Y-1.713 I-4.176 J1.733
X1.184 Y-3.329 I-3.09 J1.713
X-1.973 Y2.931 I-1.184 J3.329
X-0.613 Y3.45 I1.8 J-2.674
X0.842 Y3.488 I0.897 J-6.503
X2.823 Y3.274 I-3.754 J-43.965
G1 X4.522 Y3.051
G2 X4.73 Y2.717 I-0.033 J-0.253
G1 X4.182 Y1.094
G2 X3.834 Y0.1 I-41.816 J14.114
X3.032 Y-0.501 I-0.862 J0.314
G3 X2.196 Y-1.053 I0.066 J-1.01
G1 X2.128 Y-1.18
G2 X0.816 Y-2.293 I-2.128 J1.18
X-1.359 Y2.019 I-0.816 J2.293
X-0.337 Y2.387 I1.244 J-1.849
X0.748 Y2.396 I0.587 J-5.836
X1.904 Y2.28 I-3.407 J-39.904
X3.057 Y2.138 I-8.19 J-71.416
X3.266 Y1.804 I-0.033 J-0.253
X2.885 Y0.706 I-68.109 J22.988
X2.48 Y-0.383 I-37.742 J13.422
X2.318 Y-0.787 I-18.01 J6.999
X2.196 Y-1.053 I-3.568 J1.48
X1.084 Y-1.543 I-0.855 J0.433
G3 X-0.111 Y-1.329 I-1.736 J-6.244
G1 X-0.189 Y-1.32
X-0.265 Y-1.307
G2 X-0.067 Y1.332 I0.265 J1.307
X0.765 Y1.316 I0.303 J-6.013
X1.593 Y1.225 I-1.733 J-19.625
X1.801 Y0.891 I-0.033 J-0.253
X1.642 Y0.448 I-11.148 J3.763
X1.473 Y0.009 I-85.193 J32.605
X1.286 Y-0.436 I-8.249 J3.206
X1.031 Y-0.846 I-1.684 J0.763
X-0.111 Y-1.329 I-1.031 J0.846
X-0.389 Y-0.721 I0.032 J0.382
G3 X-0.273 Y-0.062 I-0.615 J0.448
G1 X-0.282 Y-0.018
X-0.283 Y0.028
X-0.275 Y0.072
G2 X-0.106 Y0.257 I0.26 J-0.068
X0.141 Y0.295 I0.221 J-0.616
X0.327 Y-0.003 I-0.008 J-0.212
X-0.009 Y-0.243 I-0.371 J0.164
X-0.273 Y-0.062 I-0.022 J0.251
G1 X-0.29 Y0.01 Z-3.003 F333.3
X-0.299 Y0.084 Z-3.006
X-0.301 Y0.158 Z-3.009
X0.039 Y10.962 Z-3.453
G2 X0.799 Y11.651 Z-3.5 I0.712 J-0.022
X1.534 Y11.594 I-3.026 J-44.102 F1000
G1 X12.153 Y10.248
G2 X12.566 Y10.156 I-0.311 J-2.375
G1 X12.895 Y10.052
G2 X13.64 Y9.661 I-0.724 J-2.283
G1 X13.724 Y9.595
G2 X14.288 Y8.97 I-1.469 J-1.892
G1 X14.344 Y8.88
G2 X14.657 Y8.099 I-2.032 J-1.267
G1 X14.679 Y7.994
G2 X14.702 Y7.153 I-2.345 J-0.486
G1 X14.651 Y6.812
G2 X14.552 Y6.401 I-2.368 J0.355
G1 X11.086 Y-3.727
G2 X10.355 Y-5.493 I-37.871 J14.635
X10.145 Y-5.871 I-2.191 J0.967
G1 X9.199 Y-7.265
G2 X8.925 Y-7.599 I-1.981 J1.345
G1 X7.744 Y-8.8
G2 X7.414 Y-9.079 I-1.707 J1.68
G1 X6.036 Y-10.048
G2 X5.662 Y-10.264 I-1.378 J1.959
G1 X4.132 Y-10.969
G2 X3.725 Y-11.114 I-1.003 J2.175
G1 X2.094 Y-11.533
G2 X1.667 Y-11.603 I-0.596 J2.32
G1 X-0.013 Y-11.722
G2 X-0.445 Y-11.713 I-0.169 J2.389
G1 X-2.119 Y-11.529
G2 X-2.543 Y-11.443 I0.263 J2.381
G1 X-4.156 Y-10.96
G2 X-4.558 Y-10.799 I0.686 J2.295
G1 X-6.058 Y-10.035
G2 X-6.424 Y-9.805 I1.087 J2.134
G1 X-7.763 Y-8.783
G2 X-8.082 Y-8.49 I1.453 J1.904
G1 X-9.215 Y-7.245
G2 X-9.476 Y-6.9 I1.772 J1.612
G1 X-10.367 Y-5.471
G2 X-10.561 Y-5.085 I2.032 J1.267
G1 X-11.181 Y-3.519
G2 X-11.303 Y-3.104 I2.227 J0.881
G1 X-11.632 Y-1.452
G2 X-11.677 Y-1.022 I2.349 J0.467
G1 X-11.703 Y0.662
G2 X-11.671 Y1.093 I2.395 J0.037
G1 X-11.394 Y2.754
G2 X-11.284 Y3.173 I2.362 J-0.394
G1 X-10.713 Y4.757
G2 X-10.53 Y5.149 I2.253 J-0.812
G1 X-9.684 Y6.605
G2 X-9.434 Y6.957 I2.07 J-1.204
G1 X-8.339 Y8.238
G2 X-8.03 Y8.539 I1.82 J-1.556
G1 X-6.723 Y9.602
G2 X-6.365 Y9.843 I1.511 J-1.858
G1 X-4.888 Y10.654
G2 X-4.492 Y10.827 I1.153 J-2.099
G1 X-2.894 Y11.359
G2 X-2.473 Y11.458 I0.757 J-2.272
G1 X-0.806 Y11.694
G2 X-0.374 Y11.716 I0.336 J-2.371
X0.799 Y11.651 I-1.853 J-44.166
X1.753 Y10.895 I-0.074 J-1.072
G3 X2.684 Y10.113 I1.072 J0.331
G1 X11.957 Y8.937
X12.074 Y8.917
X12.189 Y8.886
X12.448 Y8.804
G2 X12.866 Y8.584 I-0.406 J-1.282
X13.189 Y8.228 I-0.818 J-1.068
X13.37 Y7.782 I-1.137 J-0.719
X13.384 Y7.301 I-1.315 J-0.281
G1 X13.344 Y7.032
X13.321 Y6.916
X13.288 Y6.802
X9.849 Y-3.247
G2 X9.529 Y-4.051 I-51.196 J19.897
X9.191 Y-4.848 I-27.284 J11.102
X8.982 Y-5.226 I-2.191 J0.967
G1 X8.17 Y-6.421
G2 X7.896 Y-6.755 I-1.981 J1.345
G1 X6.883 Y-7.785
G2 X6.554 Y-8.064 I-1.707 J1.68
G1 X5.372 Y-8.895
G2 X4.998 Y-9.111 I-1.378 J1.959
G1 X3.686 Y-9.716
G2 X3.279 Y-9.861 I-1.003 J2.175
G1 X1.88 Y-10.22
G2 X1.454 Y-10.289 I-0.596 J2.32
G1 X0.013 Y-10.392
G2 X-0.419 Y-10.383 I-0.169 J2.389
G1 X-1.855 Y-10.225
G2 X-2.278 Y-10.139 I0.263 J2.381
G1 X-3.662 Y-9.725
G2 X-4.063 Y-9.564 I0.686 J2.295
G1 X-5.35 Y-8.909
G2 X-5.716 Y-8.678 I1.087 J2.134
G1 X-6.864 Y-7.802
G2 X-7.182 Y-7.51 I1.453 J1.904
G1 X-8.154 Y-6.442
G2 X-8.415 Y-6.097 I1.772 J1.612
G1 X-9.179 Y-4.871
G2 X-9.374 Y-4.486 I2.032 J1.267
G1 X-9.905 Y-3.143
G2 X-10.027 Y-2.728 I2.227 J0.881
G1 X-10.309 Y-1.312
G2 X-10.354 Y-0.882 I2.349 J0.467
G1 X-10.376 Y0.562
G2 X-10.344 Y0.993 I2.395 J0.037
G1 X-10.106 Y2.418
G2 X-9.997 Y2.836 I2.362 J-0.394
G1 X-9.507 Y4.195
G2 X-9.325 Y4.586 I2.253 J-0.812
G1 X-8.599 Y5.835
G2 X-8.349 Y6.187 I2.07 J-1.204
G1 X-7.41 Y7.285
G2 X-7.101 Y7.587 I1.82 J-1.556
G1 X-5.98 Y8.498
G2 X-5.622 Y8.74 I1.511 J-1.858
G1 X-4.356 Y9.435
G2 X-3.96 Y9.608 I1.153 J-2.099
G1 X-2.589 Y10.064
G2 X-2.169 Y10.163 I0.757 J-2.272
G1 X-0.739 Y10.365
G2 X-0.307 Y10.387 I0.336 J-2.371
X0.558 Y10.34 I-1.178 J-29.438
X1.421 Y10.273 I-3.807 J-54.768
G1 X2.684 Y10.113
G2 X3.029 Y9.974 I-0.092 J-0.725
G1 X8.537 Y5.87
G3 X9.361 Y5.836 I0.437 J0.586
G1 X10.462 Y6.522
X11.496 Y6.998
G2 X11.847 Y6.681 I0.107 J-0.234
G1 X8.613 Y-2.766
G2 X8.328 Y-3.488 I-74.265 J28.863
X8.028 Y-4.203 I-20.341 J8.134
X7.818 Y-4.581 I-2.191 J0.967
G1 X7.142 Y-5.578
G2 X6.868 Y-5.912 I-1.981 J1.345
G1 X6.023 Y-6.77
G2 X5.693 Y-7.05 I-1.707 J1.68
G1 X4.708 Y-7.742
G2 X4.334 Y-7.958 I-1.378 J1.959
G1 X3.24 Y-8.462
G2 X2.833 Y-8.607 I-1.003 J2.175
G1 X1.667 Y-8.907
G2 X1.24 Y-8.976 I-0.596 J2.32
G1 X0.039 Y-9.061
G2 X-0.393 Y-9.053 I-0.169 J2.389
G1 X-1.59 Y-8.921
G2 X-2.014 Y-8.835 I0.263 J2.381
G1 X-3.167 Y-8.49
G2 X-3.568 Y-8.329 I0.686 J2.295
G1 X-4.641 Y-7.783
G2 X-5.007 Y-7.552 I1.087 J2.134
G1 X-5.964 Y-6.822
G2 X-6.283 Y-6.53 I1.453 J1.904
G1 X-7.093 Y-5.639
G2 X-7.354 Y-5.294 I1.772 J1.612
G1 X-7.991 Y-4.272
G2 X-8.186 Y-3.886 I2.032 J1.267
G1 X-8.629 Y-2.767
G2 X-8.751 Y-2.352 I2.227 J0.881
G1 X-8.986 Y-1.171
G2 X-9.031 Y-0.741 I2.349 J0.467
G1 X-9.05 Y0.463
G2 X-9.017 Y0.894 I2.395 J0.037
G1 X-8.819 Y2.082
G2 X-8.71 Y2.5 I2.362 J-0.394
G1 X-8.302 Y3.632
G2 X-8.119 Y4.024 I2.253 J-0.812
G1 X-7.514 Y5.065
G2 X-7.264 Y5.418 I2.07 J-1.204
G1 X-6.481 Y6.333
G2 X-6.172 Y6.635 I1.82 J-1.556
G1 X-5.237 Y7.395
G2 X-4.879 Y7.636 I1.511 J-1.858
G1 X-3.823 Y8.215
G2 X-3.427 Y8.388 I1.153 J-2.099
G1 X-2.285 Y8.769
G2 X-1.864 Y8.868 I0.757 J-2.272
G1 X-0.672 Y9.037
G2 X-0.24 Y9.058 I0.336 J-2.371
X0.535 Y9.014 I-0.876 J-21.893
X1.308 Y8.951 I-5.999 J-79.38
G1 X11.238 Y7.693
G2 X11.327 Y6.003 I-0.108 J-0.853
G3 X10.073 Y4.867 I0.402 J-1.704
G1 X7.592 Y-2.369
G2 X7.336 Y-3.023 I-126.623 J49.212
X7.066 Y-3.67 I-16.318 J6.439
X6.856 Y-4.048 I-2.191 J0.967
X5.568 Y-5.626 I-9.569 J6.498
X3.959 Y-6.875 I-5.311 J5.18
X-5.54 Y5.678 I-3.959 J6.875
X-3.258 Y7.201 I5.214 J-5.344
X-0.616 Y7.938 I4.109 J-9.622
X-0.185 Y7.96 I0.336 J-2.371
X0.516 Y7.918 I-0.702 J-17.531
X1.215 Y7.86 I-10.844 J-135.261
G1 X10.379 Y6.703
G2 X10.587 Y6.368 I-0.033 J-0.253
G1 X10.073 Y4.867
G2 X9.292 Y4.271 I-0.837 J0.287
G3 X8.511 Y3.675 I0.057 J-0.884
G1 X6.569 Y-1.972
G2 X6.295 Y-2.653 I-30.306 J11.778
X5.976 Y-3.313 I-6.003 J2.49
X2.291 Y-6.438 I-5.976 J3.313
X-3.815 Y5.669 I-2.291 J6.438
X-1.441 Y6.64 I3.529 J-5.244
X1.122 Y6.766 I1.748 J-9.409
G1 X8.915 Y5.79
G2 X9.123 Y5.455 I-0.033 J-0.253
G1 X8.511 Y3.675
G2 X7.73 Y3.08 I-0.836 J0.287
G3 X6.949 Y2.486 I0.056 J-0.884
G1 X5.547 Y-1.574
G2 X5.301 Y-2.186 I-27.232 J10.584
X5.014 Y-2.78 I-5.394 J2.238
X1.922 Y-5.402 I-5.014 J2.78
X-3.201 Y4.756 I-1.922 J5.402
X-1.165 Y5.577 I2.947 J-4.378
X1.028 Y5.673 I1.469 J-8.386
G1 X7.45 Y4.877
G2 X7.659 Y4.542 I-0.033 J-0.253
G1 X6.949 Y2.486
G2 X6.179 Y1.894 I-0.833 J0.288
G3 X5.409 Y1.303 I0.057 J-0.87
G1 X5.204 Y0.696
G2 X4.525 Y-1.177 I-41.816 J14.114
X4.307 Y-1.72 I-24.158 J9.389
X4.052 Y-2.247 I-4.785 J1.985
X1.553 Y-4.365 I-4.052 J2.247
X-2.587 Y3.844 I-1.553 J4.365
X-0.889 Y4.514 I2.369 J-3.52
X0.935 Y4.581 I1.186 J-7.403
X2.916 Y4.366 I-3.754 J-43.965
G1 X5.986 Y3.964
G2 X6.194 Y3.63 I-0.033 J-0.253
G1 X5.409 Y1.303
G2 X4.625 Y0.697 I-0.847 J0.286
G3 X3.834 Y0.1 I0.064 J-0.908
G2 X3.502 Y-0.78 I-41.467 J15.107
X3.312 Y-1.254 I-21.084 J8.194
X3.09 Y-1.713 I-4.176 J1.733
X1.184 Y-3.329 I-3.09 J1.713
X-1.973 Y2.931 I-1.184 J3.329
X-0.613 Y3.45 I1.8 J-2.674
X0.842 Y3.488 I0.897 J-6.503
X2.823 Y3.274 I-3.754 J-43.965
G1 X4.522 Y3.051
G2 X4.73 Y2.717 I-0.033 J-0.253
G1 X4.182 Y1.094
G2 X3.834 Y0.1 I-41.816 J14.114
X3.032 Y-0.501 I-0.862 J0.314
G3 X2.196 Y-1.053 I0.066 J-1.01
G1 X2.128 Y-1.18
G2 X0.816 Y-2.293 I-2.128 J1.18
X-1.359 Y2.019 I-0.816 J2.293
X-0.337 Y2.387 I1.244 J-1.849
X0.748 Y2.396 I0.587 J-5.836
X1.904 Y2.28 I-3.407 J-39.904
X3.057 Y2.138 I-8.19 J-71.416
X3.266 Y1.804 I-0.033 J-0.253
X2.885 Y0.706 I-68.109 J22.988
X2.48 Y-0.383 I-37.742 J13.422
X2.318 Y-0.787 I-18.01 J6.999
X2.196 Y-1.053 I-3.568 J1.48
X1.084 Y-1.543 I-0.855 J0.433
G3 X-0.111 Y-1.329 I-1.736 J-6.244
G1 X-0.189 Y-1.32
X-0.265 Y-1.307
G2 X-0.067 Y1.332 I0.265 J1.307
X0.765 Y1.316 I0.303 J-6.013
X1.593 Y1.225 I-1.733 J-19.625
X1.801 Y0.891 I-0.033 J-0.253
X1.642 Y0.448 I-11.148 J3.763
X1.473 Y0.009 I-85.193 J32.605
X1.286 Y-0.436 I-8.249 J3.206
X1.031 Y-0.846 I-1.684 J0.763
X-0.111 Y-1.329 I-1.031 J0.846
X-0.389 Y-0.721 I0.032 J0.382
G3 X-0.273 Y-0.062 I-0.615 J0.448
G1 X-0.282 Y-0.018
X-0.283 Y0.028
X-0.275 Y0.072
G2 X-0.106 Y0.257 I0.26 J-0.068
X0.141 Y0.295 I0.221 J-0.616
X0.327 Y-0.003 I-0.008 J-0.212
X-0.009 Y-0.243 I-0.371 J0.164
X-0.273 Y-0.062 I-0.022 J0.251
G0 Z7

(2D Contour2)
X0.33 Y12.746
Z7
Z2
G1 Z1.5 F333.3
Z-0.5
G2 X1.657 Y12.642 I-0.33 J-12.746 F1000
G1 X12.518 Y11.218
G2 X15.583 Y6.301 I-0.487 J-3.718
G1 X12.08 Y-4.077
G2 X-12.08 Y4.077 I-12.08 J4.077
X0.33 Y12.746 I12.08 J-4.077
G1 Z-1 F333.3
G2 X1.657 Y12.642 I-0.33 J-12.746 F1000
G1 X12.518 Y11.218
G2 X15.583 Y6.301 I-0.487 J-3.718
G1 X12.08 Y-4.077
G2 X-12.08 Y4.077 I-12.08 J4.077
X0.33 Y12.746 I12.08 J-4.077
G1 Z-1.5 F333.3
G2 X1.657 Y12.642 I-0.33 J-12.746 F1000
G1 X12.518 Y11.218
G2 X15.583 Y6.301 I-0.487 J-3.718
G1 X12.08 Y-4.077
G2 X-12.08 Y4.077 I-12.08 J4.077
X0.33 Y12.746 I12.08 J-4.077
G1 Z-2 F333.3
G2 X1.657 Y12.642 I-0.33 J-12.746 F1000
G1 X12.518 Y11.218
G2 X15.583 Y6.301 I-0.487 J-3.718
G1 X12.08 Y-4.077
G2 X-12.08 Y4.077 I-12.08 J4.077
X0.33 Y12.746 I12.08 J-4.077
G1 Z-2.5 F333.3
G2 X1.657 Y12.642 I-0.33 J-12.746 F1000
G1 X12.518 Y11.218
G2 X15.583 Y6.301 I-0.487 J-3.718
G1 X12.08 Y-4.077
G2 X-12.08 Y4.077 I-12.08 J4.077
X0.33 Y12.746 I12.08 J-4.077
G1 Z-3 F333.3
G2 X1.657 Y12.642 I-0.33 J-12.746 F1000
G1 X12.518 Y11.218
G2 X15.583 Y6.301 I-0.487 J-3.718
G1 X12.08 Y-4.077
G2 X-12.08 Y4.077 I-12.08 J4.077
X0.33 Y12.746 I12.08 J-4.077
G1 Z-3.5 F333.3
G2 X1.657 Y12.642 I-0.33 J-12.746 F1000
G1 X12.518 Y11.218
G2 X15.583 Y6.301 I-0.487 J-3.718
G1 X12.08 Y-4.077
G2 X-12.08 Y4.077 I-12.08 J4.077
X0.33 Y12.746 I12.08 J-4.077
G1 Z-4 F333.3
G2 X1.657 Y12.642 I-0.33 J-12.746 F1000
G1 X12.518 Y11.218
G2 X15.583 Y6.301 I-0.487 J-3.718
G1 X12.08 Y-4.077
G2 X-12.08 Y4.077 I-12.08 J4.077
X0.33 Y12.746 I12.08 J-4.077
G1 Z-4.5 F333.3
G2 X1.657 Y12.642 I-0.33 J-12.746 F1000
G1 X12.518 Y11.218
G2 X15.583 Y6.301 I-0.487 J-3.718
G1 X12.08 Y-4.077
G2 X-12.08 Y4.077 I-12.08 J4.077
X0.33 Y12.746 I12.08 J-4.077
G1 Z-5 F333.3
G2 X1.657 Y12.642 I-0.33 J-12.746 F1000
G1 X12.518 Y11.218
G2 X15.583 Y6.301 I-0.487 J-3.718
G1 X12.08 Y-4.077
G2 X-12.08 Y4.077 I-12.08 J4.077
X0.33 Y12.746 I12.08 J-4.077
G1 Z-5.5 F333.3
G2 X1.657 Y12.642 I-0.33 J-12.746 F1000
G1 X12.518 Y11.218
G2 X15.583 Y6.301 I-0.487 J-3.718
G1 X12.08 Y-4.077
G2 X9.133 Y-8.896 I-12.08 J4.077
G1 Z-5.2
G2 X6.802 Y-10.784 I-9.133 J8.896
G1 Z-5.5 F333.3
G2 X-4.141 Y-12.059 I-6.802 J10.784 F1000
G1 Z-5.2
G2 X-6.844 Y-10.758 I4.141 J12.059
G1 Z-5.5 F333.3
G2 X-12.672 Y-1.409 I6.844 J10.758 F1000
G1 Z-5.2
G2 X-12.65 Y1.591 I12.672 J1.409
G1 Z-5.5 F333.3
G2 X-6.688 Y10.855 I12.65 J-1.591 F1000
G1 Z-5.2
G2 X-3.967 Y12.117 I6.688 J-10.855
G1 Z-5.5 F333.3
G2 X0.33 Y12.746 I3.967 J-12.117 F1000
G1 Z-5.7 F333.3
G2 X1.657 Y12.642 I-0.33 J-12.746 F1000
G1 X12.518 Y11.218
G2 X15.583 Y6.301 I-0.487 J-3.718
G1 X12.08 Y-4.077
G2 X9.133 Y-8.896 I-12.08 J4.077
G1 Z-5.2
G2 X6.802 Y-10.784 I-9.133 J8.896
G1 Z-5.7 F333.3
G2 X-4.141 Y-12.059 I-6.802 J10.784 F1000
G1 Z-5.2
G2 X-6.844 Y-10.758 I4.141 J12.059
G1 Z-5.7 F333.3
G2 X-12.672 Y-1.409 I6.844 J10.758 F1000
G1 Z-5.2
G2 X-12.65 Y1.591 I12.672 J1.409
G1 Z-5.7 F333.3
G2 X-6.688 Y10.855 I12.65 J-1.591 F1000
G1 Z-5.2
G2 X-3.967 Y12.117 I6.688 J-10.855
G1 Z-5.7 F333.3
G2 X0.33 Y12.746 I3.967 J-12.117 F1000
G0 Z4
X12.78 Y7.5
Z2
G1 Z1.5 F333.3
Z-0.5
G3 X11.28 Y7.5 I-0.75 J0 F1000
X12.78 Y7.5 I0.75 J0
G1 Z-1 F333.3
G3 X11.28 Y7.5 I-0.75 J0 F1000
X12.78 Y7.5 I0.75 J0
G1 Z-1.5 F333.3
G3 X11.28 Y7.5 I-0.75 J0 F1000
X12.78 Y7.5 I0.75 J0
G1 Z-2 F333.3
G3 X11.28 Y7.5 I-0.75 J0 F1000
X12.78 Y7.5 I0.75 J0
G1 Z-2.5 F333.3
G3 X11.28 Y7.5 I-0.75 J0 F1000
X12.78 Y7.5 I0.75 J0
G1 Z-3 F333.3
G3 X11.28 Y7.5 I-0.75 J0 F1000
X12.78 Y7.5 I0.75 J0
G1 Z-3.5 F333.3
G3 X11.28 Y7.5 I-0.75 J0 F1000
X12.78 Y7.5 I0.75 J0
G1 Z-4 F333.3
G3 X11.28 Y7.5 I-0.75 J0 F1000
X12.78 Y7.5 I0.75 J0
G1 Z-4.5 F333.3
G3 X11.28 Y7.5 I-0.75 J0 F1000
X12.78 Y7.5 I0.75 J0
G1 Z-5 F333.3
G3 X11.28 Y7.5 I-0.75 J0 F1000
X12.78 Y7.5 I0.75 J0
G1 Z-5.5 F333.3
G3 X11.28 Y7.5 I-0.75 J0 F1000
X12.78 Y7.5 I0.75 J0
G1 Z-5.7 F333.3
G3 X11.28 Y7.5 I-0.75 J0 F1000
X12.78 Y7.5 I0.75 J0
G0 Z7
M9
M5
M30
