(1001)
(Machine)
(  vendor: Autodesk)
(  description: Generic 3-axis)
(T3  D=3 CR=0 - ZMIN=-5.5 - flat end mill)
G90 G94
G17
G21

(2D Contour2)
T3
S1000 M3
G54
M8
G0 X39.7 Y46.2
Z16
Z6
G1 Z2.3 F100
Z1
G19 G2 Y45.9 Z0.7 J-0.3 K0 F200
G1 Y45.6
G17 G3 X40 Y45.3 I0.3 J0
G2 X40 Y34.7 I0 J-5.3
X40 Y45.3 I0 J5.3
G3 X40.3 Y45.6 I0 J0.3
G1 Y45.9
G19 G3 Y46.2 Z1 J0 K0.3
G0 Z6
X46.2 Y40.3
G1 Z2 F100
Z0.7
G18 G3 X45.9 Z0.4 I-0.3 K0 F200
G1 X45.6
G17 G3 X45.3 Y40 I0 J-0.3
G2 X34.7 Y40 I-5.3 J0
X45.3 Y40 I5.3 J0
G3 X45.6 Y39.7 I0.3 J0
G1 X45.9
G18 G2 X46.2 Z0.7 I0 K0.3
G0 Z6
Y40.3
G1 Z1.7 F100
Z0.4
G3 X45.9 Z0.1 I-0.3 K0 F200
G1 X45.6
G17 G3 X45.3 Y40 I0 J-0.3
G2 X34.7 Y40 I-5.3 J0
X45.3 Y40 I5.3 J0
G3 X45.6 Y39.7 I0.3 J0
G1 X45.9
G18 G2 X46.2 Z0.4 I0 K0.3
G0 Z6
Y40.3
G1 Z1.4 F100
Z0.1
G3 X45.9 Z-0.2 I-0.3 K0 F200
G1 X45.6
G17 G3 X45.3 Y40 I0 J-0.3
G2 X34.7 Y40 I-5.3 J0
X45.3 Y40 I5.3 J0
G3 X45.6 Y39.7 I0.3 J0
G1 X45.9
G18 G2 X46.2 Z0.1 I0 K0.3
G0 Z6
Y40.3
G1 Z1.1 F100
Z-0.2
G3 X45.9 Z-0.5 I-0.3 K0 F200
G1 X45.6
G17 G3 X45.3 Y40 I0 J-0.3
G2 X34.7 Y40 I-5.3 J0
X45.3 Y40 I5.3 J0
G3 X45.6 Y39.7 I0.3 J0
G1 X45.9
G18 G2 X46.2 Z-0.2 I0 K0.3
G0 Z6
Y40.3
G1 Z0.8 F100
Z-0.5
G3 X45.9 Z-0.8 I-0.3 K0 F200
G1 X45.6
G17 G3 X45.3 Y40 I0 J-0.3
G2 X34.7 Y40 I-5.3 J0
X45.3 Y40 I5.3 J0
G3 X45.6 Y39.7 I0.3 J0
G1 X45.9
G18 G2 X46.2 Z-0.5 I0 K0.3
G0 Z6
Y40.3
G1 Z0.5 F100
Z-0.8
G3 X45.9 Z-1.1 I-0.3 K0 F200
G1 X45.6
G17 G3 X45.3 Y40 I0 J-0.3
G2 X34.7 Y40 I-5.3 J0
X45.3 Y40 I5.3 J0
G3 X45.6 Y39.7 I0.3 J0
G1 X45.9
G18 G2 X46.2 Z-0.8 I0 K0.3
G0 Z6
Y40.3
G1 Z0.2 F100
Z-1.1
G3 X45.9 Z-1.4 I-0.3 K0 F200
G1 X45.6
G17 G3 X45.3 Y40 I0 J-0.3
G2 X34.7 Y40 I-5.3 J0
X45.3 Y40 I5.3 J0
G3 X45.6 Y39.7 I0.3 J0
G1 X45.9
G18 G2 X46.2 Z-1.1 I0 K0.3
G0 Z6
Y40.3
G1 Z-0.1 F100
Z-1.4
G3 X45.9 Z-1.7 I-0.3 K0 F200
G1 X45.6
G17 G3 X45.3 Y40 I0 J-0.3
G2 X34.7 Y40 I-5.3 J0
X45.3 Y40 I5.3 J0
G3 X45.6 Y39.7 I0.3 J0
G1 X45.9
G18 G2 X46.2 Z-1.4 I0 K0.3
G0 Z6
Y40.3
G1 Z-0.4 F100
Z-1.7
G3 X45.9 Z-2 I-0.3 K0 F200
G1 X45.6
G17 G3 X45.3 Y40 I0 J-0.3
G2 X34.7 Y40 I-5.3 J0
X45.3 Y40 I5.3 J0
G3 X45.6 Y39.7 I0.3 J0
G1 X45.9
G18 G2 X46.2 Z-1.7 I0 K0.3
G0 Z6
Y40.3
G1 Z-0.7 F100
Z-2
G3 X45.9 Z-2.3 I-0.3 K0 F200
G1 X45.6
G17 G3 X45.3 Y40 I0 J-0.3
G2 X34.7 Y40 I-5.3 J0
X45.3 Y40 I5.3 J0
G3 X45.6 Y39.7 I0.3 J0
G1 X45.9
G18 G2 X46.2 Z-2 I0 K0.3
G0 Z6
Y40.3
G1 Z-1 F100
Z-2.3
G3 X45.9 Z-2.6 I-0.3 K0 F200
G1 X45.6
G17 G3 X45.3 Y40 I0 J-0.3
G2 X34.7 Y40 I-5.3 J0
X45.3 Y40 I5.3 J0
G3 X45.6 Y39.7 I0.3 J0
G1 X45.9
G18 G2 X46.2 Z-2.3 I0 K0.3
G0 Z6
Y40.3
G1 Z-1.3 F100
Z-2.6
G3 X45.9 Z-2.9 I-0.3 K0 F200
G1 X45.6
G17 G3 X45.3 Y40 I0 J-0.3
G2 X34.7 Y40 I-5.3 J0
X45.3 Y40 I5.3 J0
G3 X45.6 Y39.7 I0.3 J0
G1 X45.9
G18 G2 X46.2 Z-2.6 I0 K0.3
G0 Z6
Y40.3
G1 Z-1.6 F100
Z-2.9
G3 X45.9 Z-3.2 I-0.3 K0 F200
G1 X45.6
G17 G3 X45.3 Y40 I0 J-0.3
G2 X34.7 Y40 I-5.3 J0
X45.3 Y40 I5.3 J0
G3 X45.6 Y39.7 I0.3 J0
G1 X45.9
G18 G2 X46.2 Z-2.9 I0 K0.3
G0 Z6
Y40.3
G1 Z-1.9 F100
Z-3.2
G3 X45.9 Z-3.5 I-0.3 K0 F200
G1 X45.6
G17 G3 X45.3 Y40 I0 J-0.3
G2 X34.7 Y40 I-5.3 J0
X45.3 Y40 I5.3 J0
G3 X45.6 Y39.7 I0.3 J0
G1 X45.9
G18 G2 X46.2 Z-3.2 I0 K0.3
G0 Z6
Y40.3
G1 Z-2.2 F100
Z-3.5
G3 X45.9 Z-3.8 I-0.3 K0 F200
G1 X45.6
G17 G3 X45.3 Y40 I0 J-0.3
G2 X34.7 Y40 I-5.3 J0
X45.3 Y40 I5.3 J0
G3 X45.6 Y39.7 I0.3 J0
G1 X45.9
G18 G2 X46.2 Z-3.5 I0 K0.3
G0 Z6
Y40.3
G1 Z-2.5 F100
Z-3.8
G3 X45.9 Z-4.1 I-0.3 K0 F200
G1 X45.6
G17 G3 X45.3 Y40 I0 J-0.3
G2 X34.7 Y40 I-5.3 J0
X45.3 Y40 I5.3 J0
G3 X45.6 Y39.7 I0.3 J0
G1 X45.9
G18 G2 X46.2 Z-3.8 I0 K0.3
G0 Z6
Y40.3
G1 Z-2.8 F100
Z-4.1
G3 X45.9 Z-4.4 I-0.3 K0 F200
G1 X45.6
G17 G3 X45.3 Y40 I0 J-0.3
G2 X34.7 Y40 I-5.3 J0
X45.3 Y40 I5.3 J0
G3 X45.6 Y39.7 I0.3 J0
G1 X45.9
G18 G2 X46.2 Z-4.1 I0 K0.3
G0 Z6
Y40.3
G1 Z-3.1 F100
Z-4.4
G3 X45.9 Z-4.7 I-0.3 K0 F200
G1 X45.6
G17 G3 X45.3 Y40 I0 J-0.3
G2 X34.7 Y40 I-5.3 J0
X45.3 Y40 I5.3 J0
G3 X45.6 Y39.7 I0.3 J0
G1 X45.9
G18 G2 X46.2 Z-4.4 I0 K0.3
G0 Z6
Y40.3
G1 Z-3.4 F100
Z-4.7
G3 X45.9 Z-5 I-0.3 K0 F200
G1 X45.6
G17 G3 X45.3 Y40 I0 J-0.3
G2 X34.7 Y40 I-5.3 J0
X45.3 Y40 I5.3 J0
G3 X45.6 Y39.7 I0.3 J0
G1 X45.9
G18 G2 X46.2 Z-4.7 I0 K0.3
G0 Z6
Y40.3
G1 Z-3.7 F100
Z-5
G3 X45.9 Z-5.3 I-0.3 K0 F200
G1 X45.6
G17 G3 X45.3 Y40 I0 J-0.3
G2 X34.7 Y40 I-5.3 J0
X45.3 Y40 I5.3 J0
G3 X45.6 Y39.7 I0.3 J0
G1 X45.9
G18 G2 X46.2 Z-5 I0 K0.3
G0 Z6
Y40.3
G1 Z-4 F100
Z-5.2
G3 X45.9 Z-5.5 I-0.3 K0 F200
G1 X45.6
G17 G3 X45.3 Y40 I0 J-0.3
G2 X34.7 Y40 I-5.3 J0
X45.3 Y40 I5.3 J0
G3 X45.6 Y39.7 I0.3 J0
G1 X45.9
G18 G2 X46.2 Z-5.2 I0 K0.3
G0 Z16
G17
M9
M5
M30
