(1001)
(Machine)
(  vendor: Autodesk)
(  description: Generic 3-axis)
(T4  D=3 CR=0 - ZMIN=-8.7 - flat end mill)
G90 G94
G17
G21

(2D Pocket3)
T4
S15000 M3
G54
M8
G0 X-8.012 Y-6.062
Z6
Z2
G1 Z1.3 F700
Z-0.3
Y-6.073
Y-7.692
G3 X-7.692 Y-8.012 I0.319 J0
G1 X-6.144
X6.141
X7.692
G3 X8.012 Y-7.692 I0 J0.319
G1 Y-6.077
Y6.073
Y7.692
G3 X7.692 Y8.012 I-0.319 J0
G1 X6.144
X-6.141
X-7.692
G3 X-8.012 Y7.692 I0 J-0.319
G1 Y6.077
G2 X-9.21 Y4.279 I-1.947 J0
G3 X-10.408 Y2.482 I0.749 J-1.797
G1 Y-10.089
G3 X-10.089 Y-10.408 I0.319 J0
G1 X10.089
G3 X10.408 Y-10.089 I0 J0.319
G1 Y10.089
G3 X10.089 Y10.408 I-0.319 J0
G1 X-10.089
G3 X-10.408 Y10.089 I0 J-0.319
G1 Y2.482
G2 X-11.607 Y0.684 I-1.947 J0
G3 X-12.805 Y-1.113 I0.749 J-1.797
G1 Y-12.486
G3 X-12.486 Y-12.805 I0.319 J0
G1 X12.486
G3 X12.805 Y-12.486 I0 J0.319
G1 Y12.486
G3 X12.486 Y12.805 I-0.319 J0
G1 X-12.486
G3 X-12.805 Y12.486 I0 J-0.319
G1 Y-1.113
G2 X-14.003 Y-2.911 I-1.947 J0
G3 X-15.202 Y-4.708 I0.749 J-1.797
G1 Y-14.882
G3 X-14.882 Y-15.202 I0.319 J0
G1 X14.882
G3 X15.202 Y-14.882 I0 J0.319
G1 Y14.882
G3 X14.882 Y15.202 I-0.319 J0
G1 X-14.882
G3 X-15.202 Y14.882 I0 J-0.319
G1 Y-4.708
G2 X-16.4 Y-6.505 I-1.947 J0
G3 X-17.598 Y-8.303 I0.749 J-1.797
G1 Y-17.279
G3 X-17.279 Y-17.598 I0.319 J0
G1 X17.279
G3 X17.598 Y-17.279 I0 J0.319
G1 Y17.279
G3 X17.279 Y17.598 I-0.319 J0
G1 X-17.279
G3 X-17.598 Y17.279 I0 J-0.319
G1 Y-8.303
G2 X-18.799 Y-10.104 I-1.951 J0
G3 X-20 Y-11.905 I0.751 J-1.801
G1 Y-20
X20
Y20
X-20
Y-11.905
G3 X-17.52 Y-12.863 Z-0.359 I1.425 J0 F333.3
G1 X-10.492 Y-5.116 Z-0.541
G2 X-8.012 Y-6.073 Z-0.6 I1.055 J-0.957
G1 Y-7.692 F700
G3 X-7.692 Y-8.012 I0.319 J0
G1 X-6.144
X6.141
X7.692
G3 X8.012 Y-7.692 I0 J0.319
G1 Y-6.077
Y6.073
Y7.692
G3 X7.692 Y8.012 I-0.319 J0
G1 X6.144
X-6.141
X-7.692
G3 X-8.012 Y7.692 I0 J-0.319
G1 Y6.077
G2 X-9.21 Y4.279 I-1.947 J0
G3 X-10.408 Y2.482 I0.749 J-1.797
G1 Y-10.089
G3 X-10.089 Y-10.408 I0.319 J0
G1 X10.089
G3 X10.408 Y-10.089 I0 J0.319
G1 Y10.089
G3 X10.089 Y10.408 I-0.319 J0
G1 X-10.089
G3 X-10.408 Y10.089 I0 J-0.319
G1 Y2.482
G2 X-11.607 Y0.684 I-1.947 J0
G3 X-12.805 Y-1.113 I0.749 J-1.797
G1 Y-12.486
G3 X-12.486 Y-12.805 I0.319 J0
G1 X12.486
G3 X12.805 Y-12.486 I0 J0.319
G1 Y12.486
G3 X12.486 Y12.805 I-0.319 J0
G1 X-12.486
G3 X-12.805 Y12.486 I0 J-0.319
G1 Y-1.113
G2 X-14.003 Y-2.911 I-1.947 J0
G3 X-15.202 Y-4.708 I0.749 J-1.797
G1 Y-14.882
G3 X-14.882 Y-15.202 I0.319 J0
G1 X14.882
G3 X15.202 Y-14.882 I0 J0.319
G1 Y14.882
G3 X14.882 Y15.202 I-0.319 J0
G1 X-14.882
G3 X-15.202 Y14.882 I0 J-0.319
G1 Y-4.708
G2 X-16.4 Y-6.505 I-1.947 J0
G3 X-17.598 Y-8.303 I0.749 J-1.797
G1 Y-17.279
G3 X-17.279 Y-17.598 I0.319 J0
G1 X17.279
G3 X17.598 Y-17.279 I0 J0.319
G1 Y17.279
G3 X17.279 Y17.598 I-0.319 J0
G1 X-17.279
G3 X-17.598 Y17.279 I0 J-0.319
G1 Y-8.303
G2 X-18.799 Y-10.104 I-1.951 J0
G3 X-20 Y-11.905 I0.751 J-1.801
G1 Y-20
X20
Y20
X-20
Y-11.905
G3 X-17.52 Y-12.863 Z-0.659 I1.425 J0 F333.3
G1 X-10.492 Y-5.116 Z-0.841
G2 X-8.012 Y-6.073 Z-0.9 I1.055 J-0.957
G1 Y-7.692 F700
G3 X-7.692 Y-8.012 I0.319 J0
G1 X-6.144
X6.141
X7.692
G3 X8.012 Y-7.692 I0 J0.319
G1 Y-6.077
Y6.073
Y7.692
G3 X7.692 Y8.012 I-0.319 J0
G1 X6.144
X-6.141
X-7.692
G3 X-8.012 Y7.692 I0 J-0.319
G1 Y6.077
G2 X-9.21 Y4.279 I-1.947 J0
G3 X-10.408 Y2.482 I0.749 J-1.797
G1 Y-10.089
G3 X-10.089 Y-10.408 I0.319 J0
G1 X10.089
G3 X10.408 Y-10.089 I0 J0.319
G1 Y10.089
G3 X10.089 Y10.408 I-0.319 J0
G1 X-10.089
G3 X-10.408 Y10.089 I0 J-0.319
G1 Y2.482
G2 X-11.607 Y0.684 I-1.947 J0
G3 X-12.805 Y-1.113 I0.749 J-1.797
G1 Y-12.486
G3 X-12.486 Y-12.805 I0.319 J0
G1 X12.486
G3 X12.805 Y-12.486 I0 J0.319
G1 Y12.486
G3 X12.486 Y12.805 I-0.319 J0
G1 X-12.486
G3 X-12.805 Y12.486 I0 J-0.319
G1 Y-1.113
G2 X-14.003 Y-2.911 I-1.947 J0
G3 X-15.202 Y-4.708 I0.749 J-1.797
G1 Y-14.882
G3 X-14.882 Y-15.202 I0.319 J0
G1 X14.882
G3 X15.202 Y-14.882 I0 J0.319
G1 Y14.882
G3 X14.882 Y15.202 I-0.319 J0
G1 X-14.882
G3 X-15.202 Y14.882 I0 J-0.319
G1 Y-4.708
G2 X-16.4 Y-6.505 I-1.947 J0
G3 X-17.598 Y-8.303 I0.749 J-1.797
G1 Y-17.279
G3 X-17.279 Y-17.598 I0.319 J0
G1 X17.279
G3 X17.598 Y-17.279 I0 J0.319
G1 Y17.279
G3 X17.279 Y17.598 I-0.319 J0
G1 X-17.279
G3 X-17.598 Y17.279 I0 J-0.319
G1 Y-8.303
G2 X-18.799 Y-10.104 I-1.951 J0
G3 X-20 Y-11.905 I0.751 J-1.801
G1 Y-20
X20
Y20
X-20
Y-11.905
G3 X-17.52 Y-12.863 Z-0.959 I1.425 J0 F333.3
G1 X-10.492 Y-5.116 Z-1.141
G2 X-8.012 Y-6.073 Z-1.2 I1.055 J-0.957
G1 Y-7.692 F700
G3 X-7.692 Y-8.012 I0.319 J0
G1 X-6.144
X6.141
X7.692
G3 X8.012 Y-7.692 I0 J0.319
G1 Y-6.077
Y6.073
Y7.692
G3 X7.692 Y8.012 I-0.319 J0
G1 X6.144
X-6.141
X-7.692
G3 X-8.012 Y7.692 I0 J-0.319
G1 Y6.077
G2 X-9.21 Y4.279 I-1.947 J0
G3 X-10.408 Y2.482 I0.749 J-1.797
G1 Y-10.089
G3 X-10.089 Y-10.408 I0.319 J0
G1 X10.089
G3 X10.408 Y-10.089 I0 J0.319
G1 Y10.089
G3 X10.089 Y10.408 I-0.319 J0
G1 X-10.089
G3 X-10.408 Y10.089 I0 J-0.319
G1 Y2.482
G2 X-11.607 Y0.684 I-1.947 J0
G3 X-12.805 Y-1.113 I0.749 J-1.797
G1 Y-12.486
G3 X-12.486 Y-12.805 I0.319 J0
G1 X12.486
G3 X12.805 Y-12.486 I0 J0.319
G1 Y12.486
G3 X12.486 Y12.805 I-0.319 J0
G1 X-12.486
G3 X-12.805 Y12.486 I0 J-0.319
G1 Y-1.113
G2 X-14.003 Y-2.911 I-1.947 J0
G3 X-15.202 Y-4.708 I0.749 J-1.797
G1 Y-14.882
G3 X-14.882 Y-15.202 I0.319 J0
G1 X14.882
G3 X15.202 Y-14.882 I0 J0.319
G1 Y14.882
G3 X14.882 Y15.202 I-0.319 J0
G1 X-14.882
G3 X-15.202 Y14.882 I0 J-0.319
G1 Y-4.708
G2 X-16.4 Y-6.505 I-1.947 J0
G3 X-17.598 Y-8.303 I0.749 J-1.797
G1 Y-17.279
G3 X-17.279 Y-17.598 I0.319 J0
G1 X17.279
G3 X17.598 Y-17.279 I0 J0.319
G1 Y17.279
G3 X17.279 Y17.598 I-0.319 J0
G1 X-17.279
G3 X-17.598 Y17.279 I0 J-0.319
G1 Y-8.303
G2 X-18.799 Y-10.104 I-1.951 J0
G3 X-20 Y-11.905 I0.751 J-1.801
G1 Y-20
X20
Y20
X-20
Y-11.905
G3 X-17.52 Y-12.863 Z-1.259 I1.425 J0 F333.3
G1 X-10.492 Y-5.116 Z-1.441
G2 X-8.012 Y-6.073 Z-1.5 I1.055 J-0.957
G1 Y-7.692 F700
G3 X-7.692 Y-8.012 I0.319 J0
G1 X-6.144
X6.141
X7.692
G3 X8.012 Y-7.692 I0 J0.319
G1 Y-6.077
Y6.073
Y7.692
G3 X7.692 Y8.012 I-0.319 J0
G1 X6.144
X-6.141
X-7.692
G3 X-8.012 Y7.692 I0 J-0.319
G1 Y6.077
G2 X-9.21 Y4.279 I-1.947 J0
G3 X-10.408 Y2.482 I0.749 J-1.797
G1 Y-10.089
G3 X-10.089 Y-10.408 I0.319 J0
G1 X10.089
G3 X10.408 Y-10.089 I0 J0.319
G1 Y10.089
G3 X10.089 Y10.408 I-0.319 J0
G1 X-10.089
G3 X-10.408 Y10.089 I0 J-0.319
G1 Y2.482
G2 X-11.607 Y0.684 I-1.947 J0
G3 X-12.805 Y-1.113 I0.749 J-1.797
G1 Y-12.486
G3 X-12.486 Y-12.805 I0.319 J0
G1 X12.486
G3 X12.805 Y-12.486 I0 J0.319
G1 Y12.486
G3 X12.486 Y12.805 I-0.319 J0
G1 X-12.486
G3 X-12.805 Y12.486 I0 J-0.319
G1 Y-1.113
G2 X-14.003 Y-2.911 I-1.947 J0
G3 X-15.202 Y-4.708 I0.749 J-1.797
G1 Y-14.882
G3 X-14.882 Y-15.202 I0.319 J0
G1 X14.882
G3 X15.202 Y-14.882 I0 J0.319
G1 Y14.882
G3 X14.882 Y15.202 I-0.319 J0
G1 X-14.882
G3 X-15.202 Y14.882 I0 J-0.319
G1 Y-4.708
G2 X-16.4 Y-6.505 I-1.947 J0
G3 X-17.598 Y-8.303 I0.749 J-1.797
G1 Y-17.279
G3 X-17.279 Y-17.598 I0.319 J0
G1 X17.279
G3 X17.598 Y-17.279 I0 J0.319
G1 Y17.279
G3 X17.279 Y17.598 I-0.319 J0
G1 X-17.279
G3 X-17.598 Y17.279 I0 J-0.319
G1 Y-8.303
G2 X-18.799 Y-10.104 I-1.951 J0
G3 X-20 Y-11.905 I0.751 J-1.801
G1 Y-20
X20
Y20
X-20
Y-11.905
G3 X-17.52 Y-12.863 Z-1.559 I1.425 J0 F333.3
G1 X-10.492 Y-5.116 Z-1.741
G2 X-8.012 Y-6.073 Z-1.8 I1.055 J-0.957
G1 Y-7.692 F700
G3 X-7.692 Y-8.012 I0.319 J0
G1 X-6.144
X6.141
X7.692
G3 X8.012 Y-7.692 I0 J0.319
G1 Y-6.077
Y6.073
Y7.692
G3 X7.692 Y8.012 I-0.319 J0
G1 X6.144
X-6.141
X-7.692
G3 X-8.012 Y7.692 I0 J-0.319
G1 Y6.077
G2 X-9.21 Y4.279 I-1.947 J0
G3 X-10.408 Y2.482 I0.749 J-1.797
G1 Y-10.089
G3 X-10.089 Y-10.408 I0.319 J0
G1 X10.089
G3 X10.408 Y-10.089 I0 J0.319
G1 Y10.089
G3 X10.089 Y10.408 I-0.319 J0
G1 X-10.089
G3 X-10.408 Y10.089 I0 J-0.319
G1 Y2.482
G2 X-11.607 Y0.684 I-1.947 J0
G3 X-12.805 Y-1.113 I0.749 J-1.797
G1 Y-12.486
G3 X-12.486 Y-12.805 I0.319 J0
G1 X12.486
G3 X12.805 Y-12.486 I0 J0.319
G1 Y12.486
G3 X12.486 Y12.805 I-0.319 J0
G1 X-12.486
G3 X-12.805 Y12.486 I0 J-0.319
G1 Y-1.113
G2 X-14.003 Y-2.911 I-1.947 J0
G3 X-15.202 Y-4.708 I0.749 J-1.797
G1 Y-14.882
G3 X-14.882 Y-15.202 I0.319 J0
G1 X14.882
G3 X15.202 Y-14.882 I0 J0.319
G1 Y14.882
G3 X14.882 Y15.202 I-0.319 J0
G1 X-14.882
G3 X-15.202 Y14.882 I0 J-0.319
G1 Y-4.708
G2 X-16.4 Y-6.505 I-1.947 J0
G3 X-17.598 Y-8.303 I0.749 J-1.797
G1 Y-17.279
G3 X-17.279 Y-17.598 I0.319 J0
G1 X17.279
G3 X17.598 Y-17.279 I0 J0.319
G1 Y17.279
G3 X17.279 Y17.598 I-0.319 J0
G1 X-17.279
G3 X-17.598 Y17.279 I0 J-0.319
G1 Y-8.303
G2 X-18.799 Y-10.104 I-1.951 J0
G3 X-20 Y-11.905 I0.751 J-1.801
G1 Y-20
X20
Y20
X-20
Y-11.905
G3 X-17.52 Y-12.863 Z-1.859 I1.425 J0 F333.3
G1 X-10.492 Y-5.116 Z-2.041
G2 X-8.012 Y-6.073 Z-2.1 I1.055 J-0.957
G1 Y-7.692 F700
G3 X-7.692 Y-8.012 I0.319 J0
G1 X-6.144
X6.141
X7.692
G3 X8.012 Y-7.692 I0 J0.319
G1 Y-6.077
Y6.073
Y7.692
G3 X7.692 Y8.012 I-0.319 J0
G1 X6.144
X-6.141
X-7.692
G3 X-8.012 Y7.692 I0 J-0.319
G1 Y6.077
G2 X-9.21 Y4.279 I-1.947 J0
G3 X-10.408 Y2.482 I0.749 J-1.797
G1 Y-10.089
G3 X-10.089 Y-10.408 I0.319 J0
G1 X10.089
G3 X10.408 Y-10.089 I0 J0.319
G1 Y10.089
G3 X10.089 Y10.408 I-0.319 J0
G1 X-10.089
G3 X-10.408 Y10.089 I0 J-0.319
G1 Y2.482
G2 X-11.607 Y0.684 I-1.947 J0
G3 X-12.805 Y-1.113 I0.749 J-1.797
G1 Y-12.486
G3 X-12.486 Y-12.805 I0.319 J0
G1 X12.486
G3 X12.805 Y-12.486 I0 J0.319
G1 Y12.486
G3 X12.486 Y12.805 I-0.319 J0
G1 X-12.486
G3 X-12.805 Y12.486 I0 J-0.319
G1 Y-1.113
G2 X-14.003 Y-2.911 I-1.947 J0
G3 X-15.202 Y-4.708 I0.749 J-1.797
G1 Y-14.882
G3 X-14.882 Y-15.202 I0.319 J0
G1 X14.882
G3 X15.202 Y-14.882 I0 J0.319
G1 Y14.882
G3 X14.882 Y15.202 I-0.319 J0
G1 X-14.882
G3 X-15.202 Y14.882 I0 J-0.319
G1 Y-4.708
G2 X-16.4 Y-6.505 I-1.947 J0
G3 X-17.598 Y-8.303 I0.749 J-1.797
G1 Y-17.279
G3 X-17.279 Y-17.598 I0.319 J0
G1 X17.279
G3 X17.598 Y-17.279 I0 J0.319
G1 Y17.279
G3 X17.279 Y17.598 I-0.319 J0
G1 X-17.279
G3 X-17.598 Y17.279 I0 J-0.319
G1 Y-8.303
G2 X-18.799 Y-10.104 I-1.951 J0
G3 X-20 Y-11.905 I0.751 J-1.801
G1 Y-20
X20
Y20
X-20
Y-11.905
G3 X-17.52 Y-12.863 Z-2.159 I1.425 J0 F333.3
G1 X-10.492 Y-5.116 Z-2.341
G2 X-8.012 Y-6.073 Z-2.4 I1.055 J-0.957
G1 Y-7.692 F700
G3 X-7.692 Y-8.012 I0.319 J0
G1 X-6.144
X6.141
X7.692
G3 X8.012 Y-7.692 I0 J0.319
G1 Y-6.077
Y6.073
Y7.692
G3 X7.692 Y8.012 I-0.319 J0
G1 X6.144
X-6.141
X-7.692
G3 X-8.012 Y7.692 I0 J-0.319
G1 Y6.077
G2 X-9.21 Y4.279 I-1.947 J0
G3 X-10.408 Y2.482 I0.749 J-1.797
G1 Y-10.089
G3 X-10.089 Y-10.408 I0.319 J0
G1 X10.089
G3 X10.408 Y-10.089 I0 J0.319
G1 Y10.089
G3 X10.089 Y10.408 I-0.319 J0
G1 X-10.089
G3 X-10.408 Y10.089 I0 J-0.319
G1 Y2.482
G2 X-11.607 Y0.684 I-1.947 J0
G3 X-12.805 Y-1.113 I0.749 J-1.797
G1 Y-12.486
G3 X-12.486 Y-12.805 I0.319 J0
G1 X12.486
G3 X12.805 Y-12.486 I0 J0.319
G1 Y12.486
G3 X12.486 Y12.805 I-0.319 J0
G1 X-12.486
G3 X-12.805 Y12.486 I0 J-0.319
G1 Y-1.113
G2 X-14.003 Y-2.911 I-1.947 J0
G3 X-15.202 Y-4.708 I0.749 J-1.797
G1 Y-14.882
G3 X-14.882 Y-15.202 I0.319 J0
G1 X14.882
G3 X15.202 Y-14.882 I0 J0.319
G1 Y14.882
G3 X14.882 Y15.202 I-0.319 J0
G1 X-14.882
G3 X-15.202 Y14.882 I0 J-0.319
G1 Y-4.708
G2 X-16.4 Y-6.505 I-1.947 J0
G3 X-17.598 Y-8.303 I0.749 J-1.797
G1 Y-17.279
G3 X-17.279 Y-17.598 I0.319 J0
G1 X17.279
G3 X17.598 Y-17.279 I0 J0.319
G1 Y17.279
G3 X17.279 Y17.598 I-0.319 J0
G1 X-17.279
G3 X-17.598 Y17.279 I0 J-0.319
G1 Y-8.303
G2 X-18.799 Y-10.104 I-1.951 J0
G3 X-20 Y-11.905 I0.751 J-1.801
G1 Y-20
X20
Y20
X-20
Y-11.905
G3 X-17.52 Y-12.863 Z-2.459 I1.425 J0 F333.3
G1 X-10.492 Y-5.116 Z-2.641
G2 X-8.012 Y-6.073 Z-2.7 I1.055 J-0.957
G1 Y-7.692 F700
G3 X-7.692 Y-8.012 I0.319 J0
G1 X-6.144
X6.141
X7.692
G3 X8.012 Y-7.692 I0 J0.319
G1 Y-6.077
Y6.073
Y7.692
G3 X7.692 Y8.012 I-0.319 J0
G1 X6.144
X-6.141
X-7.692
G3 X-8.012 Y7.692 I0 J-0.319
G1 Y6.077
G2 X-9.21 Y4.279 I-1.947 J0
G3 X-10.408 Y2.482 I0.749 J-1.797
G1 Y-10.089
G3 X-10.089 Y-10.408 I0.319 J0
G1 X10.089
G3 X10.408 Y-10.089 I0 J0.319
G1 Y10.089
G3 X10.089 Y10.408 I-0.319 J0
G1 X-10.089
G3 X-10.408 Y10.089 I0 J-0.319
G1 Y2.482
G2 X-11.607 Y0.684 I-1.947 J0
G3 X-12.805 Y-1.113 I0.749 J-1.797
G1 Y-12.486
G3 X-12.486 Y-12.805 I0.319 J0
G1 X12.486
G3 X12.805 Y-12.486 I0 J0.319
G1 Y12.486
G3 X12.486 Y12.805 I-0.319 J0
G1 X-12.486
G3 X-12.805 Y12.486 I0 J-0.319
G1 Y-1.113
G2 X-14.003 Y-2.911 I-1.947 J0
G3 X-15.202 Y-4.708 I0.749 J-1.797
G1 Y-14.882
G3 X-14.882 Y-15.202 I0.319 J0
G1 X14.882
G3 X15.202 Y-14.882 I0 J0.319
G1 Y14.882
G3 X14.882 Y15.202 I-0.319 J0
G1 X-14.882
G3 X-15.202 Y14.882 I0 J-0.319
G1 Y-4.708
G2 X-16.4 Y-6.505 I-1.947 J0
G3 X-17.598 Y-8.303 I0.749 J-1.797
G1 Y-17.279
G3 X-17.279 Y-17.598 I0.319 J0
G1 X17.279
G3 X17.598 Y-17.279 I0 J0.319
G1 Y17.279
G3 X17.279 Y17.598 I-0.319 J0
G1 X-17.279
G3 X-17.598 Y17.279 I0 J-0.319
G1 Y-8.303
G2 X-18.799 Y-10.104 I-1.951 J0
G3 X-20 Y-11.905 I0.751 J-1.801
G1 Y-20
X20
Y20
X-20
Y-11.905
G3 X-17.52 Y-12.863 Z-2.759 I1.425 J0 F333.3
G1 X-10.492 Y-5.116 Z-2.941
G2 X-8.012 Y-6.073 Z-3 I1.055 J-0.957
G1 Y-7.692 F700
G3 X-7.692 Y-8.012 I0.319 J0
G1 X-6.144
X6.141
X7.692
G3 X8.012 Y-7.692 I0 J0.319
G1 Y-6.077
Y6.073
Y7.692
G3 X7.692 Y8.012 I-0.319 J0
G1 X6.144
X-6.141
X-7.692
G3 X-8.012 Y7.692 I0 J-0.319
G1 Y6.077
G2 X-9.21 Y4.279 I-1.947 J0
G3 X-10.408 Y2.482 I0.749 J-1.797
G1 Y-10.089
G3 X-10.089 Y-10.408 I0.319 J0
G1 X10.089
G3 X10.408 Y-10.089 I0 J0.319
G1 Y10.089
G3 X10.089 Y10.408 I-0.319 J0
G1 X-10.089
G3 X-10.408 Y10.089 I0 J-0.319
G1 Y2.482
G2 X-11.607 Y0.684 I-1.947 J0
G3 X-12.805 Y-1.113 I0.749 J-1.797
G1 Y-12.486
G3 X-12.486 Y-12.805 I0.319 J0
G1 X12.486
G3 X12.805 Y-12.486 I0 J0.319
G1 Y12.486
G3 X12.486 Y12.805 I-0.319 J0
G1 X-12.486
G3 X-12.805 Y12.486 I0 J-0.319
G1 Y-1.113
G2 X-14.003 Y-2.911 I-1.947 J0
G3 X-15.202 Y-4.708 I0.749 J-1.797
G1 Y-14.882
G3 X-14.882 Y-15.202 I0.319 J0
G1 X14.882
G3 X15.202 Y-14.882 I0 J0.319
G1 Y14.882
G3 X14.882 Y15.202 I-0.319 J0
G1 X-14.882
G3 X-15.202 Y14.882 I0 J-0.319
G1 Y-4.708
G2 X-16.4 Y-6.505 I-1.947 J0
G3 X-17.598 Y-8.303 I0.749 J-1.797
G1 Y-17.279
G3 X-17.279 Y-17.598 I0.319 J0
G1 X17.279
G3 X17.598 Y-17.279 I0 J0.319
G1 Y17.279
G3 X17.279 Y17.598 I-0.319 J0
G1 X-17.279
G3 X-17.598 Y17.279 I0 J-0.319
G1 Y-8.303
G2 X-18.799 Y-10.104 I-1.951 J0
G3 X-20 Y-11.905 I0.751 J-1.801
G1 Y-20
X20
Y20
X-20
Y-11.905
G3 X-17.52 Y-12.863 Z-3.059 I1.425 J0 F333.3
G1 X-10.492 Y-5.116 Z-3.241
G2 X-8.012 Y-6.073 Z-3.3 I1.055 J-0.957
G1 Y-7.692 F700
G3 X-7.692 Y-8.012 I0.319 J0
G1 X-6.144
X6.141
X7.692
G3 X8.012 Y-7.692 I0 J0.319
G1 Y-6.077
Y6.073
Y7.692
G3 X7.692 Y8.012 I-0.319 J0
G1 X6.144
X-6.141
X-7.692
G3 X-8.012 Y7.692 I0 J-0.319
G1 Y6.077
G2 X-9.21 Y4.279 I-1.947 J0
G3 X-10.408 Y2.482 I0.749 J-1.797
G1 Y-10.089
G3 X-10.089 Y-10.408 I0.319 J0
G1 X10.089
G3 X10.408 Y-10.089 I0 J0.319
G1 Y10.089
G3 X10.089 Y10.408 I-0.319 J0
G1 X-10.089
G3 X-10.408 Y10.089 I0 J-0.319
G1 Y2.482
G2 X-11.607 Y0.684 I-1.947 J0
G3 X-12.805 Y-1.113 I0.749 J-1.797
G1 Y-12.486
G3 X-12.486 Y-12.805 I0.319 J0
G1 X12.486
G3 X12.805 Y-12.486 I0 J0.319
G1 Y12.486
G3 X12.486 Y12.805 I-0.319 J0
G1 X-12.486
G3 X-12.805 Y12.486 I0 J-0.319
G1 Y-1.113
G2 X-14.003 Y-2.911 I-1.947 J0
G3 X-15.202 Y-4.708 I0.749 J-1.797
G1 Y-14.882
G3 X-14.882 Y-15.202 I0.319 J0
G1 X14.882
G3 X15.202 Y-14.882 I0 J0.319
G1 Y14.882
G3 X14.882 Y15.202 I-0.319 J0
G1 X-14.882
G3 X-15.202 Y14.882 I0 J-0.319
G1 Y-4.708
G2 X-16.4 Y-6.505 I-1.947 J0
G3 X-17.598 Y-8.303 I0.749 J-1.797
G1 Y-17.279
G3 X-17.279 Y-17.598 I0.319 J0
G1 X17.279
G3 X17.598 Y-17.279 I0 J0.319
G1 Y17.279
G3 X17.279 Y17.598 I-0.319 J0
G1 X-17.279
G3 X-17.598 Y17.279 I0 J-0.319
G1 Y-8.303
G2 X-18.799 Y-10.104 I-1.951 J0
G3 X-20 Y-11.905 I0.751 J-1.801
G1 Y-20
X20
Y20
X-20
Y-11.905
G3 X-17.52 Y-12.863 Z-3.359 I1.425 J0 F333.3
G1 X-10.492 Y-5.116 Z-3.541
G2 X-8.012 Y-6.073 Z-3.6 I1.055 J-0.957
G1 Y-7.692 F700
G3 X-7.692 Y-8.012 I0.319 J0
G1 X-6.144
X6.141
X7.692
G3 X8.012 Y-7.692 I0 J0.319
G1 Y-6.077
Y6.073
Y7.692
G3 X7.692 Y8.012 I-0.319 J0
G1 X6.144
X-6.141
X-7.692
G3 X-8.012 Y7.692 I0 J-0.319
G1 Y6.077
G2 X-9.21 Y4.279 I-1.947 J0
G3 X-10.408 Y2.482 I0.749 J-1.797
G1 Y-10.089
G3 X-10.089 Y-10.408 I0.319 J0
G1 X10.089
G3 X10.408 Y-10.089 I0 J0.319
G1 Y10.089
G3 X10.089 Y10.408 I-0.319 J0
G1 X-10.089
G3 X-10.408 Y10.089 I0 J-0.319
G1 Y2.482
G2 X-11.607 Y0.684 I-1.947 J0
G3 X-12.805 Y-1.113 I0.749 J-1.797
G1 Y-12.486
G3 X-12.486 Y-12.805 I0.319 J0
G1 X12.486
G3 X12.805 Y-12.486 I0 J0.319
G1 Y12.486
G3 X12.486 Y12.805 I-0.319 J0
G1 X-12.486
G3 X-12.805 Y12.486 I0 J-0.319
G1 Y-1.113
G2 X-14.003 Y-2.911 I-1.947 J0
G3 X-15.202 Y-4.708 I0.749 J-1.797
G1 Y-14.882
G3 X-14.882 Y-15.202 I0.319 J0
G1 X14.882
G3 X15.202 Y-14.882 I0 J0.319
G1 Y14.882
G3 X14.882 Y15.202 I-0.319 J0
G1 X-14.882
G3 X-15.202 Y14.882 I0 J-0.319
G1 Y-4.708
G2 X-16.4 Y-6.505 I-1.947 J0
G3 X-17.598 Y-8.303 I0.749 J-1.797
G1 Y-17.279
G3 X-17.279 Y-17.598 I0.319 J0
G1 X17.279
G3 X17.598 Y-17.279 I0 J0.319
G1 Y17.279
G3 X17.279 Y17.598 I-0.319 J0
G1 X-17.279
G3 X-17.598 Y17.279 I0 J-0.319
G1 Y-8.303
G2 X-18.799 Y-10.104 I-1.951 J0
G3 X-20 Y-11.905 I0.751 J-1.801
G1 Y-20
X20
Y20
X-20
Y-11.905
G3 X-17.52 Y-12.863 Z-3.659 I1.425 J0 F333.3
G1 X-10.492 Y-5.116 Z-3.841
G2 X-8.012 Y-6.073 Z-3.9 I1.055 J-0.957
G1 Y-7.692 F700
G3 X-7.692 Y-8.012 I0.319 J0
G1 X-6.144
X6.141
X7.692
G3 X8.012 Y-7.692 I0 J0.319
G1 Y-6.077
Y6.073
Y7.692
G3 X7.692 Y8.012 I-0.319 J0
G1 X6.144
X-6.141
X-7.692
G3 X-8.012 Y7.692 I0 J-0.319
G1 Y6.077
G2 X-9.21 Y4.279 I-1.947 J0
G3 X-10.408 Y2.482 I0.749 J-1.797
G1 Y-10.089
G3 X-10.089 Y-10.408 I0.319 J0
G1 X10.089
G3 X10.408 Y-10.089 I0 J0.319
G1 Y10.089
G3 X10.089 Y10.408 I-0.319 J0
G1 X-10.089
G3 X-10.408 Y10.089 I0 J-0.319
G1 Y2.482
G2 X-11.607 Y0.684 I-1.947 J0
G3 X-12.805 Y-1.113 I0.749 J-1.797
G1 Y-12.486
G3 X-12.486 Y-12.805 I0.319 J0
G1 X12.486
G3 X12.805 Y-12.486 I0 J0.319
G1 Y12.486
G3 X12.486 Y12.805 I-0.319 J0
G1 X-12.486
G3 X-12.805 Y12.486 I0 J-0.319
G1 Y-1.113
G2 X-14.003 Y-2.911 I-1.947 J0
G3 X-15.202 Y-4.708 I0.749 J-1.797
G1 Y-14.882
G3 X-14.882 Y-15.202 I0.319 J0
G1 X14.882
G3 X15.202 Y-14.882 I0 J0.319
G1 Y14.882
G3 X14.882 Y15.202 I-0.319 J0
G1 X-14.882
G3 X-15.202 Y14.882 I0 J-0.319
G1 Y-4.708
G2 X-16.4 Y-6.505 I-1.947 J0
G3 X-17.598 Y-8.303 I0.749 J-1.797
G1 Y-17.279
G3 X-17.279 Y-17.598 I0.319 J0
G1 X17.279
G3 X17.598 Y-17.279 I0 J0.319
G1 Y17.279
G3 X17.279 Y17.598 I-0.319 J0
G1 X-17.279
G3 X-17.598 Y17.279 I0 J-0.319
G1 Y-8.303
G2 X-18.799 Y-10.104 I-1.951 J0
G3 X-20 Y-11.905 I0.751 J-1.801
G1 Y-20
X20
Y20
X-20
Y-11.905
G3 X-17.52 Y-12.863 Z-3.959 I1.425 J0 F333.3
G1 X-10.492 Y-5.116 Z-4.141
G2 X-8.012 Y-6.073 Z-4.2 I1.055 J-0.957
G1 Y-7.692 F700
G3 X-7.692 Y-8.012 I0.319 J0
G1 X-6.144
X6.141
X7.692
G3 X8.012 Y-7.692 I0 J0.319
G1 Y-6.077
Y6.073
Y7.692
G3 X7.692 Y8.012 I-0.319 J0
G1 X6.144
X-6.141
X-7.692
G3 X-8.012 Y7.692 I0 J-0.319
G1 Y6.077
G2 X-9.21 Y4.279 I-1.947 J0
G3 X-10.408 Y2.482 I0.749 J-1.797
G1 Y-10.089
G3 X-10.089 Y-10.408 I0.319 J0
G1 X10.089
G3 X10.408 Y-10.089 I0 J0.319
G1 Y10.089
G3 X10.089 Y10.408 I-0.319 J0
G1 X-10.089
G3 X-10.408 Y10.089 I0 J-0.319
G1 Y2.482
G2 X-11.607 Y0.684 I-1.947 J0
G3 X-12.805 Y-1.113 I0.749 J-1.797
G1 Y-12.486
G3 X-12.486 Y-12.805 I0.319 J0
G1 X12.486
G3 X12.805 Y-12.486 I0 J0.319
G1 Y12.486
G3 X12.486 Y12.805 I-0.319 J0
G1 X-12.486
G3 X-12.805 Y12.486 I0 J-0.319
G1 Y-1.113
G2 X-14.003 Y-2.911 I-1.947 J0
G3 X-15.202 Y-4.708 I0.749 J-1.797
G1 Y-14.882
G3 X-14.882 Y-15.202 I0.319 J0
G1 X14.882
G3 X15.202 Y-14.882 I0 J0.319
G1 Y14.882
G3 X14.882 Y15.202 I-0.319 J0
G1 X-14.882
G3 X-15.202 Y14.882 I0 J-0.319
G1 Y-4.708
G2 X-16.4 Y-6.505 I-1.947 J0
G3 X-17.598 Y-8.303 I0.749 J-1.797
G1 Y-17.279
G3 X-17.279 Y-17.598 I0.319 J0
G1 X17.279
G3 X17.598 Y-17.279 I0 J0.319
G1 Y17.279
G3 X17.279 Y17.598 I-0.319 J0
G1 X-17.279
G3 X-17.598 Y17.279 I0 J-0.319
G1 Y-8.303
G2 X-18.799 Y-10.104 I-1.951 J0
G3 X-20 Y-11.905 I0.751 J-1.801
G1 Y-20
X20
Y20
X-20
Y-11.905
G3 X-17.52 Y-12.863 Z-4.259 I1.425 J0 F333.3
G1 X-10.492 Y-5.116 Z-4.441
G2 X-8.012 Y-6.073 Z-4.5 I1.055 J-0.957
G1 Y-7.692 F700
G3 X-7.692 Y-8.012 I0.319 J0
G1 X-6.144
X6.141
X7.692
G3 X8.012 Y-7.692 I0 J0.319
G1 Y-6.077
Y6.073
Y7.692
G3 X7.692 Y8.012 I-0.319 J0
G1 X6.144
X-6.141
X-7.692
G3 X-8.012 Y7.692 I0 J-0.319
G1 Y6.077
G2 X-9.21 Y4.279 I-1.947 J0
G3 X-10.408 Y2.482 I0.749 J-1.797
G1 Y-10.089
G3 X-10.089 Y-10.408 I0.319 J0
G1 X10.089
G3 X10.408 Y-10.089 I0 J0.319
G1 Y10.089
G3 X10.089 Y10.408 I-0.319 J0
G1 X-10.089
G3 X-10.408 Y10.089 I0 J-0.319
G1 Y2.482
G2 X-11.607 Y0.684 I-1.947 J0
G3 X-12.805 Y-1.113 I0.749 J-1.797
G1 Y-12.486
G3 X-12.486 Y-12.805 I0.319 J0
G1 X12.486
G3 X12.805 Y-12.486 I0 J0.319
G1 Y12.486
G3 X12.486 Y12.805 I-0.319 J0
G1 X-12.486
G3 X-12.805 Y12.486 I0 J-0.319
G1 Y-1.113
G2 X-14.003 Y-2.911 I-1.947 J0
G3 X-15.202 Y-4.708 I0.749 J-1.797
G1 Y-14.882
G3 X-14.882 Y-15.202 I0.319 J0
G1 X14.882
G3 X15.202 Y-14.882 I0 J0.319
G1 Y14.882
G3 X14.882 Y15.202 I-0.319 J0
G1 X-14.882
G3 X-15.202 Y14.882 I0 J-0.319
G1 Y-4.708
G2 X-16.4 Y-6.505 I-1.947 J0
G3 X-17.598 Y-8.303 I0.749 J-1.797
G1 Y-17.279
G3 X-17.279 Y-17.598 I0.319 J0
G1 X17.279
G3 X17.598 Y-17.279 I0 J0.319
G1 Y17.279
G3 X17.279 Y17.598 I-0.319 J0
G1 X-17.279
G3 X-17.598 Y17.279 I0 J-0.319
G1 Y-8.303
G2 X-18.799 Y-10.104 I-1.951 J0
G3 X-20 Y-11.905 I0.751 J-1.801
G1 Y-20
X20
Y20
X-20
Y-11.905
G3 X-17.52 Y-12.863 Z-4.559 I1.425 J0 F333.3
G1 X-10.492 Y-5.116 Z-4.741
G2 X-8.012 Y-6.073 Z-4.8 I1.055 J-0.957
G1 Y-7.692 F700
G3 X-7.692 Y-8.012 I0.319 J0
G1 X-6.144
X6.141
X7.692
G3 X8.012 Y-7.692 I0 J0.319
G1 Y-6.077
Y6.073
Y7.692
G3 X7.692 Y8.012 I-0.319 J0
G1 X6.144
X-6.141
X-7.692
G3 X-8.012 Y7.692 I0 J-0.319
G1 Y6.077
G2 X-9.21 Y4.279 I-1.947 J0
G3 X-10.408 Y2.482 I0.749 J-1.797
G1 Y-10.089
G3 X-10.089 Y-10.408 I0.319 J0
G1 X10.089
G3 X10.408 Y-10.089 I0 J0.319
G1 Y10.089
G3 X10.089 Y10.408 I-0.319 J0
G1 X-10.089
G3 X-10.408 Y10.089 I0 J-0.319
G1 Y2.482
G2 X-11.607 Y0.684 I-1.947 J0
G3 X-12.805 Y-1.113 I0.749 J-1.797
G1 Y-12.486
G3 X-12.486 Y-12.805 I0.319 J0
G1 X12.486
G3 X12.805 Y-12.486 I0 J0.319
G1 Y12.486
G3 X12.486 Y12.805 I-0.319 J0
G1 X-12.486
G3 X-12.805 Y12.486 I0 J-0.319
G1 Y-1.113
G2 X-14.003 Y-2.911 I-1.947 J0
G3 X-15.202 Y-4.708 I0.749 J-1.797
G1 Y-14.882
G3 X-14.882 Y-15.202 I0.319 J0
G1 X14.882
G3 X15.202 Y-14.882 I0 J0.319
G1 Y14.882
G3 X14.882 Y15.202 I-0.319 J0
G1 X-14.882
G3 X-15.202 Y14.882 I0 J-0.319
G1 Y-4.708
G2 X-16.4 Y-6.505 I-1.947 J0
G3 X-17.598 Y-8.303 I0.749 J-1.797
G1 Y-17.279
G3 X-17.279 Y-17.598 I0.319 J0
G1 X17.279
G3 X17.598 Y-17.279 I0 J0.319
G1 Y17.279
G3 X17.279 Y17.598 I-0.319 J0
G1 X-17.279
G3 X-17.598 Y17.279 I0 J-0.319
G1 Y-8.303
G2 X-18.799 Y-10.104 I-1.951 J0
G3 X-20 Y-11.905 I0.751 J-1.801
G1 Y-20
X20
Y20
X-20
Y-11.905
G3 X-17.52 Y-12.863 Z-4.859 I1.425 J0 F333.3
G1 X-10.492 Y-5.116 Z-5.041
G2 X-8.012 Y-6.073 Z-5.1 I1.055 J-0.957
G1 Y-7.692 F700
G3 X-7.692 Y-8.012 I0.319 J0
G1 X-6.144
X6.141
X7.692
G3 X8.012 Y-7.692 I0 J0.319
G1 Y-6.077
Y6.073
Y7.692
G3 X7.692 Y8.012 I-0.319 J0
G1 X6.144
X-6.141
X-7.692
G3 X-8.012 Y7.692 I0 J-0.319
G1 Y6.077
G2 X-9.21 Y4.279 I-1.947 J0
G3 X-10.408 Y2.482 I0.749 J-1.797
G1 Y-10.089
G3 X-10.089 Y-10.408 I0.319 J0
G1 X10.089
G3 X10.408 Y-10.089 I0 J0.319
G1 Y10.089
G3 X10.089 Y10.408 I-0.319 J0
G1 X-10.089
G3 X-10.408 Y10.089 I0 J-0.319
G1 Y2.482
G2 X-11.607 Y0.684 I-1.947 J0
G3 X-12.805 Y-1.113 I0.749 J-1.797
G1 Y-12.486
G3 X-12.486 Y-12.805 I0.319 J0
G1 X12.486
G3 X12.805 Y-12.486 I0 J0.319
G1 Y12.486
G3 X12.486 Y12.805 I-0.319 J0
G1 X-12.486
G3 X-12.805 Y12.486 I0 J-0.319
G1 Y-1.113
G2 X-14.003 Y-2.911 I-1.947 J0
G3 X-15.202 Y-4.708 I0.749 J-1.797
G1 Y-14.882
G3 X-14.882 Y-15.202 I0.319 J0
G1 X14.882
G3 X15.202 Y-14.882 I0 J0.319
G1 Y14.882
G3 X14.882 Y15.202 I-0.319 J0
G1 X-14.882
G3 X-15.202 Y14.882 I0 J-0.319
G1 Y-4.708
G2 X-16.4 Y-6.505 I-1.947 J0
G3 X-17.598 Y-8.303 I0.749 J-1.797
G1 Y-17.279
G3 X-17.279 Y-17.598 I0.319 J0
G1 X17.279
G3 X17.598 Y-17.279 I0 J0.319
G1 Y17.279
G3 X17.279 Y17.598 I-0.319 J0
G1 X-17.279
G3 X-17.598 Y17.279 I0 J-0.319
G1 Y-8.303
G2 X-18.799 Y-10.104 I-1.951 J0
G3 X-20 Y-11.905 I0.751 J-1.801
G1 Y-20
X20
Y20
X-20
Y-11.905
G3 X-17.52 Y-12.863 Z-5.159 I1.425 J0 F333.3
G1 X-10.492 Y-5.116 Z-5.341
G2 X-8.012 Y-6.073 Z-5.4 I1.055 J-0.957
G1 Y-7.692 F700
G3 X-7.692 Y-8.012 I0.319 J0
G1 X-6.144
X6.141
X7.692
G3 X8.012 Y-7.692 I0 J0.319
G1 Y-6.077
Y6.073
Y7.692
G3 X7.692 Y8.012 I-0.319 J0
G1 X6.144
X-6.141
X-7.692
G3 X-8.012 Y7.692 I0 J-0.319
G1 Y6.077
G2 X-9.21 Y4.279 I-1.947 J0
G3 X-10.408 Y2.482 I0.749 J-1.797
G1 Y-10.089
G3 X-10.089 Y-10.408 I0.319 J0
G1 X10.089
G3 X10.408 Y-10.089 I0 J0.319
G1 Y10.089
G3 X10.089 Y10.408 I-0.319 J0
G1 X-10.089
G3 X-10.408 Y10.089 I0 J-0.319
G1 Y2.482
G2 X-11.607 Y0.684 I-1.947 J0
G3 X-12.805 Y-1.113 I0.749 J-1.797
G1 Y-12.486
G3 X-12.486 Y-12.805 I0.319 J0
G1 X12.486
G3 X12.805 Y-12.486 I0 J0.319
G1 Y12.486
G3 X12.486 Y12.805 I-0.319 J0
G1 X-12.486
G3 X-12.805 Y12.486 I0 J-0.319
G1 Y-1.113
G2 X-14.003 Y-2.911 I-1.947 J0
G3 X-15.202 Y-4.708 I0.749 J-1.797
G1 Y-14.882
G3 X-14.882 Y-15.202 I0.319 J0
G1 X14.882
G3 X15.202 Y-14.882 I0 J0.319
G1 Y14.882
G3 X14.882 Y15.202 I-0.319 J0
G1 X-14.882
G3 X-15.202 Y14.882 I0 J-0.319
G1 Y-4.708
G2 X-16.4 Y-6.505 I-1.947 J0
G3 X-17.598 Y-8.303 I0.749 J-1.797
G1 Y-17.279
G3 X-17.279 Y-17.598 I0.319 J0
G1 X17.279
G3 X17.598 Y-17.279 I0 J0.319
G1 Y17.279
G3 X17.279 Y17.598 I-0.319 J0
G1 X-17.279
G3 X-17.598 Y17.279 I0 J-0.319
G1 Y-8.303
G2 X-18.799 Y-10.104 I-1.951 J0
G3 X-20 Y-11.905 I0.751 J-1.801
G1 Y-20
X20
Y20
X-20
Y-11.905
G3 X-17.52 Y-12.863 Z-5.459 I1.425 J0 F333.3
G1 X-10.492 Y-5.116 Z-5.641
G2 X-8.012 Y-6.073 Z-5.7 I1.055 J-0.957
G1 Y-7.692 F700
G3 X-7.692 Y-8.012 I0.319 J0
G1 X-6.144
X6.141
X7.692
G3 X8.012 Y-7.692 I0 J0.319
G1 Y-6.077
Y6.073
Y7.692
G3 X7.692 Y8.012 I-0.319 J0
G1 X6.144
X-6.141
X-7.692
G3 X-8.012 Y7.692 I0 J-0.319
G1 Y6.077
G2 X-9.21 Y4.279 I-1.947 J0
G3 X-10.408 Y2.482 I0.749 J-1.797
G1 Y-10.089
G3 X-10.089 Y-10.408 I0.319 J0
G1 X10.089
G3 X10.408 Y-10.089 I0 J0.319
G1 Y10.089
G3 X10.089 Y10.408 I-0.319 J0
G1 X-10.089
G3 X-10.408 Y10.089 I0 J-0.319
G1 Y2.482
G2 X-11.607 Y0.684 I-1.947 J0
G3 X-12.805 Y-1.113 I0.749 J-1.797
G1 Y-12.486
G3 X-12.486 Y-12.805 I0.319 J0
G1 X12.486
G3 X12.805 Y-12.486 I0 J0.319
G1 Y12.486
G3 X12.486 Y12.805 I-0.319 J0
G1 X-12.486
G3 X-12.805 Y12.486 I0 J-0.319
G1 Y-1.113
G2 X-14.003 Y-2.911 I-1.947 J0
G3 X-15.202 Y-4.708 I0.749 J-1.797
G1 Y-14.882
G3 X-14.882 Y-15.202 I0.319 J0
G1 X14.882
G3 X15.202 Y-14.882 I0 J0.319
G1 Y14.882
G3 X14.882 Y15.202 I-0.319 J0
G1 X-14.882
G3 X-15.202 Y14.882 I0 J-0.319
G1 Y-4.708
G2 X-16.4 Y-6.505 I-1.947 J0
G3 X-17.598 Y-8.303 I0.749 J-1.797
G1 Y-17.279
G3 X-17.279 Y-17.598 I0.319 J0
G1 X17.279
G3 X17.598 Y-17.279 I0 J0.319
G1 Y17.279
G3 X17.279 Y17.598 I-0.319 J0
G1 X-17.279
G3 X-17.598 Y17.279 I0 J-0.319
G1 Y-8.303
G2 X-18.799 Y-10.104 I-1.951 J0
G3 X-20 Y-11.905 I0.751 J-1.801
G1 Y-20
X20
Y20
X-20
Y-11.905
G3 X-17.52 Y-12.863 Z-5.759 I1.425 J0 F333.3
G1 X-10.492 Y-5.116 Z-5.941
G2 X-8.012 Y-6.073 Z-6 I1.055 J-0.957
G1 Y-7.692 F700
G3 X-7.692 Y-8.012 I0.319 J0
G1 X-6.144
X6.141
X7.692
G3 X8.012 Y-7.692 I0 J0.319
G1 Y-6.077
Y6.073
Y7.692
G3 X7.692 Y8.012 I-0.319 J0
G1 X6.144
X-6.141
X-7.692
G3 X-8.012 Y7.692 I0 J-0.319
G1 Y6.077
G2 X-9.21 Y4.279 I-1.947 J0
G3 X-10.408 Y2.482 I0.749 J-1.797
G1 Y-10.089
G3 X-10.089 Y-10.408 I0.319 J0
G1 X10.089
G3 X10.408 Y-10.089 I0 J0.319
G1 Y10.089
G3 X10.089 Y10.408 I-0.319 J0
G1 X-10.089
G3 X-10.408 Y10.089 I0 J-0.319
G1 Y2.482
G2 X-11.607 Y0.684 I-1.947 J0
G3 X-12.805 Y-1.113 I0.749 J-1.797
G1 Y-12.486
G3 X-12.486 Y-12.805 I0.319 J0
G1 X12.486
G3 X12.805 Y-12.486 I0 J0.319
G1 Y12.486
G3 X12.486 Y12.805 I-0.319 J0
G1 X-12.486
G3 X-12.805 Y12.486 I0 J-0.319
G1 Y-1.113
G2 X-14.003 Y-2.911 I-1.947 J0
G3 X-15.202 Y-4.708 I0.749 J-1.797
G1 Y-14.882
G3 X-14.882 Y-15.202 I0.319 J0
G1 X14.882
G3 X15.202 Y-14.882 I0 J0.319
G1 Y14.882
G3 X14.882 Y15.202 I-0.319 J0
G1 X-14.882
G3 X-15.202 Y14.882 I0 J-0.319
G1 Y-4.708
G2 X-16.4 Y-6.505 I-1.947 J0
G3 X-17.598 Y-8.303 I0.749 J-1.797
G1 Y-17.279
G3 X-17.279 Y-17.598 I0.319 J0
G1 X17.279
G3 X17.598 Y-17.279 I0 J0.319
G1 Y17.279
G3 X17.279 Y17.598 I-0.319 J0
G1 X-17.279
G3 X-17.598 Y17.279 I0 J-0.319
G1 Y-8.303
G2 X-18.799 Y-10.104 I-1.951 J0
G3 X-20 Y-11.905 I0.751 J-1.801
G1 Y-20
X20
Y20
X-20
Y-11.905
G3 X-17.52 Y-12.863 Z-6.04 I1.425 J0 F333.3
G1 X-10.492 Y-5.116 Z-6.16
G2 X-8.012 Y-6.073 Z-6.2 I1.055 J-0.957
G1 Y-7.692 F700
G3 X-7.692 Y-8.012 I0.319 J0
G1 X-6.144
X6.141
X7.692
G3 X8.012 Y-7.692 I0 J0.319
G1 Y-6.077
Y6.073
Y7.692
G3 X7.692 Y8.012 I-0.319 J0
G1 X6.144
X-6.141
X-7.692
G3 X-8.012 Y7.692 I0 J-0.319
G1 Y6.077
G2 X-9.21 Y4.279 I-1.947 J0
G3 X-10.408 Y2.482 I0.749 J-1.797
G1 Y-10.089
G3 X-10.089 Y-10.408 I0.319 J0
G1 X10.089
G3 X10.408 Y-10.089 I0 J0.319
G1 Y10.089
G3 X10.089 Y10.408 I-0.319 J0
G1 X-10.089
G3 X-10.408 Y10.089 I0 J-0.319
G1 Y2.482
G2 X-11.607 Y0.684 I-1.947 J0
G3 X-12.805 Y-1.113 I0.749 J-1.797
G1 Y-12.486
G3 X-12.486 Y-12.805 I0.319 J0
G1 X12.486
G3 X12.805 Y-12.486 I0 J0.319
G1 Y12.486
G3 X12.486 Y12.805 I-0.319 J0
G1 X-12.486
G3 X-12.805 Y12.486 I0 J-0.319
G1 Y-1.113
G2 X-14.003 Y-2.911 I-1.947 J0
G3 X-15.202 Y-4.708 I0.749 J-1.797
G1 Y-14.882
G3 X-14.882 Y-15.202 I0.319 J0
G1 X14.882
G3 X15.202 Y-14.882 I0 J0.319
G1 Y14.882
G3 X14.882 Y15.202 I-0.319 J0
G1 X-14.882
G3 X-15.202 Y14.882 I0 J-0.319
G1 Y-4.708
G2 X-16.4 Y-6.505 I-1.947 J0
G3 X-17.598 Y-8.303 I0.749 J-1.797
G1 Y-17.279
G3 X-17.279 Y-17.598 I0.319 J0
G1 X17.279
G3 X17.598 Y-17.279 I0 J0.319
G1 Y17.279
G3 X17.279 Y17.598 I-0.319 J0
G1 X-17.279
G3 X-17.598 Y17.279 I0 J-0.319
G1 Y-8.303
G2 X-18.799 Y-10.104 I-1.951 J0
G3 X-20 Y-11.905 I0.751 J-1.801
G1 Y-20
X20
Y20
X-20
Y-11.905
G0 Z6
X3.513 Y1.248
Z2
G1 Z1.8 F700
G3 X2.137 Y-1.248 Z1.011 I-0.688 J-1.248 F333.3
X3.513 Y1.248 Z0.221 I0.688 J1.248
X1.4 Y0 Z-0.3 I-0.688 J-1.248
G1 X1.407 Y-0.018 F700
X1.425 Y-0.025
X1.443 Y-0.018
X1.45 Y0
G3 X-1.45 Y0 I-1.45 J0
X4.3 Y0 I2.875 J0
X-4.3 Y0 I-4.3 J0
X7.15 Y0 I5.725 J0
X-7.15 Y0 I-7.15 J0
X10 Y0 I8.575 J0
X-10 Y0 I-10 J0
X10 Y0 I10 J0
X8.995 Y0.732 I-0.769 J0
G1 X5.52 Y-0.386
G2 X4.789 Y-0.242 I-0.236 J0.732
G1 X3.079 Y1.198
G3 X2.301 Y1.325 I-0.496 J-0.588
X1.4 Y0 Z-0.6 I0.524 J-1.325 F333.3
G1 X1.407 Y-0.018 F700
X1.425 Y-0.025
X1.443 Y-0.018
X1.45 Y0
G3 X-1.45 Y0 I-1.45 J0
X4.3 Y0 I2.875 J0
X-4.3 Y0 I-4.3 J0
X7.15 Y0 I5.725 J0
X-7.15 Y0 I-7.15 J0
X10 Y0 I8.575 J0
X-10 Y0 I-10 J0
X10 Y0 I10 J0
X8.995 Y0.732 I-0.769 J0
G1 X5.52 Y-0.386
G2 X4.789 Y-0.242 I-0.236 J0.732
G1 X3.079 Y1.198
G3 X2.301 Y1.325 I-0.496 J-0.588
X1.4 Y0 Z-0.9 I0.524 J-1.325 F333.3
G1 X1.407 Y-0.018 F700
X1.425 Y-0.025
X1.443 Y-0.018
X1.45 Y0
G3 X-1.45 Y0 I-1.45 J0
X4.3 Y0 I2.875 J0
X-4.3 Y0 I-4.3 J0
X7.15 Y0 I5.725 J0
X-7.15 Y0 I-7.15 J0
X10 Y0 I8.575 J0
X-10 Y0 I-10 J0
X10 Y0 I10 J0
X8.995 Y0.732 I-0.769 J0
G1 X5.52 Y-0.386
G2 X4.789 Y-0.242 I-0.236 J0.732
G1 X3.079 Y1.198
G3 X2.301 Y1.325 I-0.496 J-0.588
X1.4 Y0 Z-1.2 I0.524 J-1.325 F333.3
G1 X1.407 Y-0.018 F700
X1.425 Y-0.025
X1.443 Y-0.018
X1.45 Y0
G3 X-1.45 Y0 I-1.45 J0
X4.3 Y0 I2.875 J0
X-4.3 Y0 I-4.3 J0
X7.15 Y0 I5.725 J0
X-7.15 Y0 I-7.15 J0
X10 Y0 I8.575 J0
X-10 Y0 I-10 J0
X10 Y0 I10 J0
X8.995 Y0.732 I-0.769 J0
G1 X5.52 Y-0.386
G2 X4.789 Y-0.242 I-0.236 J0.732
G1 X3.079 Y1.198
G3 X2.301 Y1.325 I-0.496 J-0.588
X1.4 Y0 Z-1.5 I0.524 J-1.325 F333.3
G1 X1.407 Y-0.018 F700
X1.425 Y-0.025
X1.443 Y-0.018
X1.45 Y0
G3 X-1.45 Y0 I-1.45 J0
X4.3 Y0 I2.875 J0
X-4.3 Y0 I-4.3 J0
X7.15 Y0 I5.725 J0
X-7.15 Y0 I-7.15 J0
X10 Y0 I8.575 J0
X-10 Y0 I-10 J0
X10 Y0 I10 J0
X8.995 Y0.732 I-0.769 J0
G1 X5.52 Y-0.386
G2 X4.789 Y-0.242 I-0.236 J0.732
G1 X3.079 Y1.198
G3 X2.301 Y1.325 I-0.496 J-0.588
X1.4 Y0 Z-1.8 I0.524 J-1.325 F333.3
G1 X1.407 Y-0.018 F700
X1.425 Y-0.025
X1.443 Y-0.018
X1.45 Y0
G3 X-1.45 Y0 I-1.45 J0
X4.3 Y0 I2.875 J0
X-4.3 Y0 I-4.3 J0
X7.15 Y0 I5.725 J0
X-7.15 Y0 I-7.15 J0
X10 Y0 I8.575 J0
X-10 Y0 I-10 J0
X10 Y0 I10 J0
X8.995 Y0.732 I-0.769 J0
G1 X5.52 Y-0.386
G2 X4.789 Y-0.242 I-0.236 J0.732
G1 X3.079 Y1.198
G3 X2.301 Y1.325 I-0.496 J-0.588
X1.4 Y0 Z-2.1 I0.524 J-1.325 F333.3
G1 X1.407 Y-0.018 F700
X1.425 Y-0.025
X1.443 Y-0.018
X1.45 Y0
G3 X-1.45 Y0 I-1.45 J0
X4.3 Y0 I2.875 J0
X-4.3 Y0 I-4.3 J0
X7.15 Y0 I5.725 J0
X-7.15 Y0 I-7.15 J0
X10 Y0 I8.575 J0
X-10 Y0 I-10 J0
X10 Y0 I10 J0
X8.995 Y0.732 I-0.769 J0
G1 X5.52 Y-0.386
G2 X4.789 Y-0.242 I-0.236 J0.732
G1 X3.079 Y1.198
G3 X2.301 Y1.325 I-0.496 J-0.588
X1.4 Y0 Z-2.4 I0.524 J-1.325 F333.3
G1 X1.407 Y-0.018 F700
X1.425 Y-0.025
X1.443 Y-0.018
X1.45 Y0
G3 X-1.45 Y0 I-1.45 J0
X4.3 Y0 I2.875 J0
X-4.3 Y0 I-4.3 J0
X7.15 Y0 I5.725 J0
X-7.15 Y0 I-7.15 J0
X10 Y0 I8.575 J0
X-10 Y0 I-10 J0
X10 Y0 I10 J0
X8.995 Y0.732 I-0.769 J0
G1 X5.52 Y-0.386
G2 X4.789 Y-0.242 I-0.236 J0.732
G1 X3.079 Y1.198
G3 X2.301 Y1.325 I-0.496 J-0.588
X1.4 Y0 Z-2.7 I0.524 J-1.325 F333.3
G1 X1.407 Y-0.018 F700
X1.425 Y-0.025
X1.443 Y-0.018
X1.45 Y0
G3 X-1.45 Y0 I-1.45 J0
X4.3 Y0 I2.875 J0
X-4.3 Y0 I-4.3 J0
X7.15 Y0 I5.725 J0
X-7.15 Y0 I-7.15 J0
X10 Y0 I8.575 J0
X-10 Y0 I-10 J0
X10 Y0 I10 J0
X8.995 Y0.732 I-0.769 J0
G1 X5.52 Y-0.386
G2 X4.789 Y-0.242 I-0.236 J0.732
G1 X3.079 Y1.198
G3 X2.301 Y1.325 I-0.496 J-0.588
X1.4 Y0 Z-3 I0.524 J-1.325 F333.3
G1 X1.407 Y-0.018 F700
X1.425 Y-0.025
X1.443 Y-0.018
X1.45 Y0
G3 X-1.45 Y0 I-1.45 J0
X4.3 Y0 I2.875 J0
X-4.3 Y0 I-4.3 J0
X7.15 Y0 I5.725 J0
X-7.15 Y0 I-7.15 J0
X10 Y0 I8.575 J0
X-10 Y0 I-10 J0
X10 Y0 I10 J0
X8.995 Y0.732 I-0.769 J0
G1 X5.52 Y-0.386
G2 X4.789 Y-0.242 I-0.236 J0.732
G1 X3.079 Y1.198
G3 X2.301 Y1.325 I-0.496 J-0.588
X1.4 Y0 Z-3.3 I0.524 J-1.325 F333.3
G1 X1.407 Y-0.018 F700
X1.425 Y-0.025
X1.443 Y-0.018
X1.45 Y0
G3 X-1.45 Y0 I-1.45 J0
X4.3 Y0 I2.875 J0
X-4.3 Y0 I-4.3 J0
X7.15 Y0 I5.725 J0
X-7.15 Y0 I-7.15 J0
X10 Y0 I8.575 J0
X-10 Y0 I-10 J0
X10 Y0 I10 J0
X8.995 Y0.732 I-0.769 J0
G1 X5.52 Y-0.386
G2 X4.789 Y-0.242 I-0.236 J0.732
G1 X3.079 Y1.198
G3 X2.301 Y1.325 I-0.496 J-0.588
X1.4 Y0 Z-3.6 I0.524 J-1.325 F333.3
G1 X1.407 Y-0.018 F700
X1.425 Y-0.025
X1.443 Y-0.018
X1.45 Y0
G3 X-1.45 Y0 I-1.45 J0
X4.3 Y0 I2.875 J0
X-4.3 Y0 I-4.3 J0
X7.15 Y0 I5.725 J0
X-7.15 Y0 I-7.15 J0
X10 Y0 I8.575 J0
X-10 Y0 I-10 J0
X10 Y0 I10 J0
X8.995 Y0.732 I-0.769 J0
G1 X5.52 Y-0.386
G2 X4.789 Y-0.242 I-0.236 J0.732
G1 X3.079 Y1.198
G3 X2.301 Y1.325 I-0.496 J-0.588
X1.4 Y0 Z-3.9 I0.524 J-1.325 F333.3
G1 X1.407 Y-0.018 F700
X1.425 Y-0.025
X1.443 Y-0.018
X1.45 Y0
G3 X-1.45 Y0 I-1.45 J0
X4.3 Y0 I2.875 J0
X-4.3 Y0 I-4.3 J0
X7.15 Y0 I5.725 J0
X-7.15 Y0 I-7.15 J0
X10 Y0 I8.575 J0
X-10 Y0 I-10 J0
X10 Y0 I10 J0
X8.995 Y0.732 I-0.769 J0
G1 X5.52 Y-0.386
G2 X4.789 Y-0.242 I-0.236 J0.732
G1 X3.079 Y1.198
G3 X2.301 Y1.325 I-0.496 J-0.588
X1.4 Y0 Z-4.2 I0.524 J-1.325 F333.3
G1 X1.407 Y-0.018 F700
X1.425 Y-0.025
X1.443 Y-0.018
X1.45 Y0
G3 X-1.45 Y0 I-1.45 J0
X4.3 Y0 I2.875 J0
X-4.3 Y0 I-4.3 J0
X7.15 Y0 I5.725 J0
X-7.15 Y0 I-7.15 J0
X10 Y0 I8.575 J0
X-10 Y0 I-10 J0
X10 Y0 I10 J0
X8.995 Y0.732 I-0.769 J0
G1 X5.52 Y-0.386
G2 X4.789 Y-0.242 I-0.236 J0.732
G1 X3.079 Y1.198
G3 X2.301 Y1.325 I-0.496 J-0.588
X1.4 Y0 Z-4.5 I0.524 J-1.325 F333.3
G1 X1.407 Y-0.018 F700
X1.425 Y-0.025
X1.443 Y-0.018
X1.45 Y0
G3 X-1.45 Y0 I-1.45 J0
X4.3 Y0 I2.875 J0
X-4.3 Y0 I-4.3 J0
X7.15 Y0 I5.725 J0
X-7.15 Y0 I-7.15 J0
X10 Y0 I8.575 J0
X-10 Y0 I-10 J0
X10 Y0 I10 J0
X8.995 Y0.732 I-0.769 J0
G1 X5.52 Y-0.386
G2 X4.789 Y-0.242 I-0.236 J0.732
G1 X3.079 Y1.198
G3 X2.301 Y1.325 I-0.496 J-0.588
X1.4 Y0 Z-4.8 I0.524 J-1.325 F333.3
G1 X1.407 Y-0.018 F700
X1.425 Y-0.025
X1.443 Y-0.018
X1.45 Y0
G3 X-1.45 Y0 I-1.45 J0
X4.3 Y0 I2.875 J0
X-4.3 Y0 I-4.3 J0
X7.15 Y0 I5.725 J0
X-7.15 Y0 I-7.15 J0
X10 Y0 I8.575 J0
X-10 Y0 I-10 J0
X10 Y0 I10 J0
X8.995 Y0.732 I-0.769 J0
G1 X5.52 Y-0.386
G2 X4.789 Y-0.242 I-0.236 J0.732
G1 X3.079 Y1.198
G3 X2.301 Y1.325 I-0.496 J-0.588
X1.4 Y0 Z-5.1 I0.524 J-1.325 F333.3
G1 X1.407 Y-0.018 F700
X1.425 Y-0.025
X1.443 Y-0.018
X1.45 Y0
G3 X-1.45 Y0 I-1.45 J0
X4.3 Y0 I2.875 J0
X-4.3 Y0 I-4.3 J0
X7.15 Y0 I5.725 J0
X-7.15 Y0 I-7.15 J0
X10 Y0 I8.575 J0
X-10 Y0 I-10 J0
X10 Y0 I10 J0
X8.995 Y0.732 I-0.769 J0
G1 X5.52 Y-0.386
G2 X4.789 Y-0.242 I-0.236 J0.732
G1 X3.079 Y1.198
G3 X2.301 Y1.325 I-0.496 J-0.588
X1.4 Y0 Z-5.4 I0.524 J-1.325 F333.3
G1 X1.407 Y-0.018 F700
X1.425 Y-0.025
X1.443 Y-0.018
X1.45 Y0
G3 X-1.45 Y0 I-1.45 J0
X4.3 Y0 I2.875 J0
X-4.3 Y0 I-4.3 J0
X7.15 Y0 I5.725 J0
X-7.15 Y0 I-7.15 J0
X10 Y0 I8.575 J0
X-10 Y0 I-10 J0
X10 Y0 I10 J0
X8.995 Y0.732 I-0.769 J0
G1 X5.52 Y-0.386
G2 X4.789 Y-0.242 I-0.236 J0.732
G1 X3.079 Y1.198
G3 X2.301 Y1.325 I-0.496 J-0.588
X1.4 Y0 Z-5.7 I0.524 J-1.325 F333.3
G1 X1.407 Y-0.018 F700
X1.425 Y-0.025
X1.443 Y-0.018
X1.45 Y0
G3 X-1.45 Y0 I-1.45 J0
X4.3 Y0 I2.875 J0
X-4.3 Y0 I-4.3 J0
X7.15 Y0 I5.725 J0
X-7.15 Y0 I-7.15 J0
X10 Y0 I8.575 J0
X-10 Y0 I-10 J0
X10 Y0 I10 J0
X8.995 Y0.732 I-0.769 J0
G1 X5.52 Y-0.386
G2 X4.789 Y-0.242 I-0.236 J0.732
G1 X3.079 Y1.198
G3 X2.301 Y1.325 I-0.496 J-0.588
X1.4 Y0 Z-6 I0.524 J-1.325 F333.3
G1 X1.407 Y-0.018 F700
X1.425 Y-0.025
X1.443 Y-0.018
X1.45 Y0
G3 X-1.45 Y0 I-1.45 J0
X4.3 Y0 I2.875 J0
X-4.3 Y0 I-4.3 J0
X7.15 Y0 I5.725 J0
X-7.15 Y0 I-7.15 J0
X10 Y0 I8.575 J0
X-10 Y0 I-10 J0
X10 Y0 I10 J0
X8.995 Y0.732 I-0.769 J0
G1 X5.52 Y-0.386
G2 X4.789 Y-0.242 I-0.236 J0.732
G1 X3.079 Y1.198
G3 X2.301 Y1.325 I-0.496 J-0.588
X1.4 Y0 Z-6.3 I0.524 J-1.325 F333.3
G1 X1.407 Y-0.018 F700
X1.425 Y-0.025
X1.443 Y-0.018
X1.45 Y0
G3 X-1.45 Y0 I-1.45 J0
X4.3 Y0 I2.875 J0
X-4.3 Y0 I-4.3 J0
X7.15 Y0 I5.725 J0
X-7.15 Y0 I-7.15 J0
X10 Y0 I8.575 J0
X-10 Y0 I-10 J0
X10 Y0 I10 J0
X8.995 Y0.732 I-0.769 J0
G1 X5.52 Y-0.386
G2 X4.789 Y-0.242 I-0.236 J0.732
G1 X3.079 Y1.198
G3 X2.301 Y1.325 I-0.496 J-0.588
X1.4 Y0 Z-6.6 I0.524 J-1.325 F333.3
G1 X1.407 Y-0.018 F700
X1.425 Y-0.025
X1.443 Y-0.018
X1.45 Y0
G3 X-1.45 Y0 I-1.45 J0
X4.3 Y0 I2.875 J0
X-4.3 Y0 I-4.3 J0
X7.15 Y0 I5.725 J0
X-7.15 Y0 I-7.15 J0
X10 Y0 I8.575 J0
X-10 Y0 I-10 J0
X10 Y0 I10 J0
X8.995 Y0.732 I-0.769 J0
G1 X5.52 Y-0.386
G2 X4.789 Y-0.242 I-0.236 J0.732
G1 X3.079 Y1.198
G3 X2.301 Y1.325 I-0.496 J-0.588
X1.4 Y0 Z-6.9 I0.524 J-1.325 F333.3
G1 X1.407 Y-0.018 F700
X1.425 Y-0.025
X1.443 Y-0.018
X1.45 Y0
G3 X-1.45 Y0 I-1.45 J0
X4.3 Y0 I2.875 J0
X-4.3 Y0 I-4.3 J0
X7.15 Y0 I5.725 J0
X-7.15 Y0 I-7.15 J0
X10 Y0 I8.575 J0
X-10 Y0 I-10 J0
X10 Y0 I10 J0
X8.995 Y0.732 I-0.769 J0
G1 X5.52 Y-0.386
G2 X4.789 Y-0.242 I-0.236 J0.732
G1 X3.079 Y1.198
G3 X2.301 Y1.325 I-0.496 J-0.588
X1.4 Y0 Z-7.2 I0.524 J-1.325 F333.3
G1 X1.407 Y-0.018 F700
X1.425 Y-0.025
X1.443 Y-0.018
X1.45 Y0
G3 X-1.45 Y0 I-1.45 J0
X4.3 Y0 I2.875 J0
X-4.3 Y0 I-4.3 J0
X7.15 Y0 I5.725 J0
X-7.15 Y0 I-7.15 J0
X10 Y0 I8.575 J0
X-10 Y0 I-10 J0
X10 Y0 I10 J0
X8.995 Y0.732 I-0.769 J0
G1 X5.52 Y-0.386
G2 X4.789 Y-0.242 I-0.236 J0.732
G1 X3.079 Y1.198
G3 X2.301 Y1.325 I-0.496 J-0.588
X1.4 Y0 Z-7.5 I0.524 J-1.325 F333.3
G1 X1.407 Y-0.018 F700
X1.425 Y-0.025
X1.443 Y-0.018
X1.45 Y0
G3 X-1.45 Y0 I-1.45 J0
X4.3 Y0 I2.875 J0
X-4.3 Y0 I-4.3 J0
X7.15 Y0 I5.725 J0
X-7.15 Y0 I-7.15 J0
X10 Y0 I8.575 J0
X-10 Y0 I-10 J0
X10 Y0 I10 J0
X8.995 Y0.732 I-0.769 J0
G1 X5.52 Y-0.386
G2 X4.789 Y-0.242 I-0.236 J0.732
G1 X3.079 Y1.198
G3 X2.301 Y1.325 I-0.496 J-0.588
X1.4 Y0 Z-7.8 I0.524 J-1.325 F333.3
G1 X1.407 Y-0.018 F700
X1.425 Y-0.025
X1.443 Y-0.018
X1.45 Y0
G3 X-1.45 Y0 I-1.45 J0
X4.3 Y0 I2.875 J0
X-4.3 Y0 I-4.3 J0
X7.15 Y0 I5.725 J0
X-7.15 Y0 I-7.15 J0
X10 Y0 I8.575 J0
X-10 Y0 I-10 J0
X10 Y0 I10 J0
X8.995 Y0.732 I-0.769 J0
G1 X5.52 Y-0.386
G2 X4.789 Y-0.242 I-0.236 J0.732
G1 X3.079 Y1.198
G3 X2.301 Y1.325 I-0.496 J-0.588
X1.4 Y0 Z-8.1 I0.524 J-1.325 F333.3
G1 X1.407 Y-0.018 F700
X1.425 Y-0.025
X1.443 Y-0.018
X1.45 Y0
G3 X-1.45 Y0 I-1.45 J0
X4.3 Y0 I2.875 J0
X-4.3 Y0 I-4.3 J0
X7.15 Y0 I5.725 J0
X-7.15 Y0 I-7.15 J0
X10 Y0 I8.575 J0
X-10 Y0 I-10 J0
X10 Y0 I10 J0
X8.995 Y0.732 I-0.769 J0
G1 X5.52 Y-0.386
G2 X4.789 Y-0.242 I-0.236 J0.732
G1 X3.079 Y1.198
G3 X2.301 Y1.325 I-0.496 J-0.588
X1.4 Y0 Z-8.4 I0.524 J-1.325 F333.3
G1 X1.407 Y-0.018 F700
X1.425 Y-0.025
X1.443 Y-0.018
X1.45 Y0
G3 X-1.45 Y0 I-1.45 J0
X4.3 Y0 I2.875 J0
X-4.3 Y0 I-4.3 J0
X7.15 Y0 I5.725 J0
X-7.15 Y0 I-7.15 J0
X10 Y0 I8.575 J0
X-10 Y0 I-10 J0
X10 Y0 I10 J0
X8.995 Y0.732 I-0.769 J0
G1 X5.52 Y-0.386
G2 X4.789 Y-0.242 I-0.236 J0.732
G1 X3.079 Y1.198
G3 X2.301 Y1.325 I-0.496 J-0.588
X1.4 Y0 Z-8.7 I0.524 J-1.325 F333.3
G1 X1.407 Y-0.018 F700
X1.425 Y-0.025
X1.443 Y-0.018
X1.45 Y0
G3 X-1.45 Y0 I-1.45 J0
X4.3 Y0 I2.875 J0
X-4.3 Y0 I-4.3 J0
X7.15 Y0 I5.725 J0
X-7.15 Y0 I-7.15 J0
X10 Y0 I8.575 J0
X-10 Y0 I-10 J0
X10 Y0 I10 J0
G0 Z6
M9
M5
M30
