(1001)
(T3  D=3 CR=0 - ZMIN=-7.2 - flat end mill)
G90 G94
G17
G21

(2D Contour21)
T3
S1000 M3
G54
M8
G0 X99.276 Y43.832
Z15
Z5
G1 Z1.5 F333.3
Z-0.5
G3 X88.354 Y51.767 I-5.461 J3.967 F600
X99.276 Y43.832 I5.461 J-3.967
G1 Z-1 F333.3
G3 X88.354 Y51.767 I-5.461 J3.967 F600
X99.276 Y43.832 I5.461 J-3.967
G1 Z-1.5 F333.3
G3 X88.354 Y51.767 I-5.461 J3.967 F600
X99.276 Y43.832 I5.461 J-3.967
G1 Z-2 F333.3
G3 X88.354 Y51.767 I-5.461 J3.967 F600
X99.276 Y43.832 I5.461 J-3.967
G1 Z-2.5 F333.3
G3 X88.354 Y51.767 I-5.461 J3.967 F600
X99.276 Y43.832 I5.461 J-3.967
G1 Z-3 F333.3
G3 X88.354 Y51.767 I-5.461 J3.967 F600
X99.276 Y43.832 I5.461 J-3.967
G1 Z-3.5 F333.3
G3 X88.354 Y51.767 I-5.461 J3.967 F600
X99.276 Y43.832 I5.461 J-3.967
G1 Z-4 F333.3
G3 X88.354 Y51.767 I-5.461 J3.967 F600
X99.276 Y43.832 I5.461 J-3.967
G1 Z-4.5 F333.3
G3 X88.354 Y51.767 I-5.461 J3.967 F600
X99.276 Y43.832 I5.461 J-3.967
G1 Z-5 F333.3
G3 X88.354 Y51.767 I-5.461 J3.967 F600
X99.276 Y43.832 I5.461 J-3.967
G1 Z-5.5 F333.3
G3 X88.354 Y51.767 I-5.461 J3.967 F600
X99.276 Y43.832 I5.461 J-3.967
G1 Z-6 F333.3
G3 X88.354 Y51.767 I-5.461 J3.967 F600
X99.276 Y43.832 I5.461 J-3.967
G1 Z-6.5 F333.3
G3 X99.796 Y50.928 I-5.461 J3.967 F600
G1 Z-6.45
G3 X94.942 Y54.455 I-5.981 J-3.129
G1 Z-6.5 F333.3
G3 X87.834 Y44.671 I-1.127 J-6.655 F600
G1 Z-6.45
G3 X92.688 Y41.144 I5.981 J3.128
G1 Z-6.5 F333.3
G3 X99.276 Y43.832 I1.127 J6.655 F600
G1 Z-7 F333.3
G3 X99.796 Y50.928 I-5.461 J3.967 F600
G1 Z-6.45
G3 X94.942 Y54.455 I-5.981 J-3.129
G1 Z-7 F333.3
G3 X87.834 Y44.671 I-1.127 J-6.655 F600
G1 Z-6.45
G3 X92.688 Y41.144 I5.981 J3.128
G1 Z-7 F333.3
G3 X99.276 Y43.832 I1.127 J6.655 F600
G1 Z-7.2 F333.3
G3 X99.796 Y50.928 I-5.461 J3.967 F600
G1 Z-6.45
G3 X94.942 Y54.455 I-5.981 J-3.129
G1 Z-7.2 F333.3
G3 X87.834 Y44.671 I-1.127 J-6.655 F600
G1 Z-6.45
G3 X92.688 Y41.144 I5.981 J3.128
G1 Z-7.2 F333.3
G3 X99.276 Y43.832 I1.127 J6.655 F600
G0 Z5
X117.15 Y35.75
G1 Z1.5 F333.3
Z-0.5
G3 X103.65 Y35.75 I-6.75 J0 F600
X117.15 Y35.75 I6.75 J0
G1 Z-1 F333.3
G3 X103.65 Y35.75 I-6.75 J0 F600
X117.15 Y35.75 I6.75 J0
G1 Z-1.5 F333.3
G3 X103.65 Y35.75 I-6.75 J0 F600
X117.15 Y35.75 I6.75 J0
G1 Z-2 F333.3
G3 X103.65 Y35.75 I-6.75 J0 F600
X117.15 Y35.75 I6.75 J0
G1 Z-2.5 F333.3
G3 X103.65 Y35.75 I-6.75 J0 F600
X117.15 Y35.75 I6.75 J0
G1 Z-3 F333.3
G3 X103.65 Y35.75 I-6.75 J0 F600
X117.15 Y35.75 I6.75 J0
G1 Z-3.5 F333.3
G3 X103.65 Y35.75 I-6.75 J0 F600
X117.15 Y35.75 I6.75 J0
G1 Z-4 F333.3
G3 X103.65 Y35.75 I-6.75 J0 F600
X117.15 Y35.75 I6.75 J0
G1 Z-4.5 F333.3
G3 X103.65 Y35.75 I-6.75 J0 F600
X117.15 Y35.75 I6.75 J0
G1 Z-5 F333.3
G3 X103.65 Y35.75 I-6.75 J0 F600
X117.15 Y35.75 I6.75 J0
G1 Z-5.5 F333.3
G3 X103.65 Y35.75 I-6.75 J0 F600
X117.15 Y35.75 I6.75 J0
G1 Z-6 F333.3
G3 X103.65 Y35.75 I-6.75 J0 F600
X117.15 Y35.75 I6.75 J0
G1 Z-6.5 F333.3
G3 X113.4 Y41.797 I-6.75 J0 F600
G1 Z-6.45
G3 X107.4 Y41.797 I-3 J-6.047
G1 Z-6.5 F333.3
G3 X107.4 Y29.703 I3 J-6.047 F600
G1 Z-6.45
G3 X113.4 Y29.703 I3 J6.047
G1 Z-6.5 F333.3
G3 X117.15 Y35.75 I-3 J6.047 F600
G1 Z-7 F333.3
G3 X113.4 Y41.797 I-6.75 J0 F600
G1 Z-6.45
G3 X107.4 Y41.797 I-3 J-6.047
G1 Z-7 F333.3
G3 X107.4 Y29.703 I3 J-6.047 F600
G1 Z-6.45
G3 X113.4 Y29.703 I3 J6.047
G1 Z-7 F333.3
G3 X117.15 Y35.75 I-3 J6.047 F600
G1 Z-7.2 F333.3
G3 X113.4 Y41.797 I-6.75 J0 F600
G1 Z-6.45
G3 X107.4 Y41.797 I-3 J-6.047
G1 Z-7.2 F333.3
G3 X107.4 Y29.703 I3 J-6.047 F600
G1 Z-6.45
G3 X113.4 Y29.703 I3 J6.047
G1 Z-7.2 F333.3
G3 X117.15 Y35.75 I-3 J6.047 F600
G0 Z5
X137.65
G1 Z1.5 F333.3
Z-0.5
G3 X124.15 Y35.75 I-6.75 J0 F600
X137.65 Y35.75 I6.75 J0
G1 Z-1 F333.3
G3 X124.15 Y35.75 I-6.75 J0 F600
X137.65 Y35.75 I6.75 J0
G1 Z-1.5 F333.3
G3 X124.15 Y35.75 I-6.75 J0 F600
X137.65 Y35.75 I6.75 J0
G1 Z-2 F333.3
G3 X124.15 Y35.75 I-6.75 J0 F600
X137.65 Y35.75 I6.75 J0
G1 Z-2.5 F333.3
G3 X124.15 Y35.75 I-6.75 J0 F600
X137.65 Y35.75 I6.75 J0
G1 Z-3 F333.3
G3 X124.15 Y35.75 I-6.75 J0 F600
X137.65 Y35.75 I6.75 J0
G1 Z-3.5 F333.3
G3 X124.15 Y35.75 I-6.75 J0 F600
X137.65 Y35.75 I6.75 J0
G1 Z-4 F333.3
G3 X124.15 Y35.75 I-6.75 J0 F600
X137.65 Y35.75 I6.75 J0
G1 Z-4.5 F333.3
G3 X124.15 Y35.75 I-6.75 J0 F600
X137.65 Y35.75 I6.75 J0
G1 Z-5 F333.3
G3 X124.15 Y35.75 I-6.75 J0 F600
X137.65 Y35.75 I6.75 J0
G1 Z-5.5 F333.3
G3 X124.15 Y35.75 I-6.75 J0 F600
X137.65 Y35.75 I6.75 J0
G1 Z-6 F333.3
G3 X124.15 Y35.75 I-6.75 J0 F600
X137.65 Y35.75 I6.75 J0
G1 Z-6.5 F333.3
G3 X133.9 Y41.797 I-6.75 J0 F600
G1 Z-6.45
G3 X127.9 Y41.797 I-3 J-6.047
G1 Z-6.5 F333.3
G3 X127.9 Y29.703 I3 J-6.047 F600
G1 Z-6.45
G3 X133.9 Y29.703 I3 J6.047
G1 Z-6.5 F333.3
G3 X137.65 Y35.75 I-3 J6.047 F600
G1 Z-7 F333.3
G3 X133.9 Y41.797 I-6.75 J0 F600
G1 Z-6.45
G3 X127.9 Y41.797 I-3 J-6.047
G1 Z-7 F333.3
G3 X127.9 Y29.703 I3 J-6.047 F600
G1 Z-6.45
G3 X133.9 Y29.703 I3 J6.047
G1 Z-7 F333.3
G3 X137.65 Y35.75 I-3 J6.047 F600
G1 Z-7.2 F333.3
G3 X133.9 Y41.797 I-6.75 J0 F600
G1 Z-6.45
G3 X127.9 Y41.797 I-3 J-6.047
G1 Z-7.2 F333.3
G3 X127.9 Y29.703 I3 J-6.047 F600
G1 Z-6.45
G3 X133.9 Y29.703 I3 J6.047
G1 Z-7.2 F333.3
G3 X137.65 Y35.75 I-3 J6.047 F600
G0 Z5
X123.485 Y55.246
G1 Z1.5 F333.3
Z-0.5
G3 X109.985 Y55.247 I-6.75 J0 F600
X123.485 Y55.246 I6.75 J0
G1 Z-1 F333.3
G3 X109.985 Y55.247 I-6.75 J0 F600
X123.485 Y55.246 I6.75 J0
G1 Z-1.5 F333.3
G3 X109.985 Y55.247 I-6.75 J0 F600
X123.485 Y55.246 I6.75 J0
G1 Z-2 F333.3
G3 X109.985 Y55.247 I-6.75 J0 F600
X123.485 Y55.246 I6.75 J0
G1 Z-2.5 F333.3
G3 X109.985 Y55.247 I-6.75 J0 F600
X123.485 Y55.246 I6.75 J0
G1 Z-3 F333.3
G3 X109.985 Y55.247 I-6.75 J0 F600
X123.485 Y55.246 I6.75 J0
G1 Z-3.5 F333.3
G3 X109.985 Y55.247 I-6.75 J0 F600
X123.485 Y55.246 I6.75 J0
G1 Z-4 F333.3
G3 X109.985 Y55.247 I-6.75 J0 F600
X123.485 Y55.246 I6.75 J0
G1 Z-4.5 F333.3
G3 X109.985 Y55.247 I-6.75 J0 F600
X123.485 Y55.246 I6.75 J0
G1 Z-5 F333.3
G3 X109.985 Y55.247 I-6.75 J0 F600
X123.485 Y55.246 I6.75 J0
G1 Z-5.5 F333.3
G3 X109.985 Y55.247 I-6.75 J0 F600
X123.485 Y55.246 I6.75 J0
G1 Z-6 F333.3
G3 X109.985 Y55.247 I-6.75 J0 F600
X123.485 Y55.246 I6.75 J0
G1 Z-6.45 F333.3
G3 X123.413 Y56.231 I-6.75 J0 F600
G1 Z-6.5 F333.3
G3 X111.911 Y59.968 I-6.678 J-0.985 F600
G1 Z-6.45
G3 X110.057 Y54.262 I4.824 J-4.722
G1 Z-6.5 F333.3
G3 X121.559 Y50.525 I6.678 J0.984 F600
G1 Z-6.45
G3 X123.413 Y56.231 I-4.824 J4.722
G1 Z-7 F333.3
G3 X111.911 Y59.968 I-6.678 J-0.985 F600
G1 Z-6.45
G3 X110.057 Y54.262 I4.824 J-4.722
G1 Z-7 F333.3
G3 X121.559 Y50.525 I6.678 J0.984 F600
G1 Z-6.45
G3 X123.413 Y56.231 I-4.824 J4.722
G1 Z-7.2 F333.3
G3 X111.911 Y59.968 I-6.678 J-0.985 F600
G1 Z-6.45
G3 X110.057 Y54.262 I4.824 J-4.722
G1 Z-7.2 F333.3
G3 X121.559 Y50.525 I6.678 J0.984 F600
G1 Z-6.45
G3 X123.485 Y55.246 I-4.824 J4.722
G0 Z5
X138.181 Y94.945
G1 Z1.5 F333.3
Z-0.5
G3 X125.471 Y85.226 I-6.355 J-4.859 F600
X138.181 Y94.945 I6.355 J4.859
G1 Z-1 F333.3
G3 X125.471 Y85.226 I-6.355 J-4.859 F600
X138.181 Y94.945 I6.355 J4.859
G1 Z-1.5 F333.3
G3 X125.471 Y85.226 I-6.355 J-4.859 F600
X138.181 Y94.945 I6.355 J4.859
G1 Z-2 F333.3
G3 X125.471 Y85.226 I-6.355 J-4.859 F600
X138.181 Y94.945 I6.355 J4.859
G1 Z-2.5 F333.3
G3 X125.471 Y85.226 I-6.355 J-4.859 F600
X138.181 Y94.945 I6.355 J4.859
G1 Z-3 F333.3
G3 X125.471 Y85.226 I-6.355 J-4.859 F600
X138.181 Y94.945 I6.355 J4.859
G1 Z-3.5 F333.3
G3 X125.471 Y85.226 I-6.355 J-4.859 F600
X138.181 Y94.945 I6.355 J4.859
G1 Z-4 F333.3
G3 X125.471 Y85.226 I-6.355 J-4.859 F600
X138.181 Y94.945 I6.355 J4.859
G1 Z-4.5 F333.3
G3 X125.471 Y85.226 I-6.355 J-4.859 F600
X138.181 Y94.945 I6.355 J4.859
G1 Z-5 F333.3
G3 X125.471 Y85.226 I-6.355 J-4.859 F600
X138.181 Y94.945 I6.355 J4.859
G1 Z-5.5 F333.3
G3 X125.471 Y85.226 I-6.355 J-4.859 F600
X138.181 Y94.945 I6.355 J4.859
G1 Z-6 F333.3
G3 X125.471 Y85.226 I-6.355 J-4.859 F600
X138.181 Y94.945 I6.355 J4.859
G1 Z-6.5 F333.3
G3 X129.894 Y97.849 I-6.355 J-4.859 F600
G1 Z-6.45
G3 X125.04 Y94.322 I1.932 J-7.763
G1 Z-6.5 F333.3
G3 X133.758 Y82.322 I6.786 J-4.236 F600
G1 Z-6.45
G3 X138.612 Y85.849 I-1.932 J7.763
G1 Z-6.5 F333.3
G3 X138.181 Y94.945 I-6.786 J4.237 F600
G1 Z-7 F333.3
G3 X129.894 Y97.849 I-6.355 J-4.859 F600
G1 Z-6.45
G3 X125.04 Y94.322 I1.932 J-7.763
G1 Z-7 F333.3
G3 X133.758 Y82.322 I6.786 J-4.236 F600
G1 Z-6.45
G3 X138.612 Y85.849 I-1.932 J7.763
G1 Z-7 F333.3
G3 X138.181 Y94.945 I-6.786 J4.237 F600
G1 Z-7.2 F333.3
G3 X129.894 Y97.849 I-6.355 J-4.859 F600
G1 Z-6.45
G3 X125.04 Y94.322 I1.932 J-7.763
G1 Z-7.2 F333.3
G3 X133.758 Y82.322 I6.786 J-4.236 F600
G1 Z-6.45
G3 X138.612 Y85.849 I-1.932 J7.763
G1 Z-7.2 F333.3
G3 X138.181 Y94.945 I-6.786 J4.237 F600
G0 Z5
X138.298 Y108.013
G1 Z1.5 F333.3
Z-0.5
G3 X125.354 Y117.417 I-6.472 J4.702 F600
X138.298 Y108.013 I6.472 J-4.702
G1 Z-1 F333.3
G3 X125.354 Y117.417 I-6.472 J4.702 F600
X138.298 Y108.013 I6.472 J-4.702
G1 Z-1.5 F333.3
G3 X125.354 Y117.417 I-6.472 J4.702 F600
X138.298 Y108.013 I6.472 J-4.702
G1 Z-2 F333.3
G3 X125.354 Y117.417 I-6.472 J4.702 F600
X138.298 Y108.013 I6.472 J-4.702
G1 Z-2.5 F333.3
G3 X125.354 Y117.417 I-6.472 J4.702 F600
X138.298 Y108.013 I6.472 J-4.702
G1 Z-3 F333.3
G3 X125.354 Y117.417 I-6.472 J4.702 F600
X138.298 Y108.013 I6.472 J-4.702
G1 Z-3.5 F333.3
G3 X125.354 Y117.417 I-6.472 J4.702 F600
X138.298 Y108.013 I6.472 J-4.702
G1 Z-4 F333.3
G3 X125.354 Y117.417 I-6.472 J4.702 F600
X138.298 Y108.013 I6.472 J-4.702
G1 Z-4.5 F333.3
G3 X125.354 Y117.417 I-6.472 J4.702 F600
X138.298 Y108.013 I6.472 J-4.702
G1 Z-5 F333.3
G3 X125.354 Y117.417 I-6.472 J4.702 F600
X138.298 Y108.013 I6.472 J-4.702
G1 Z-5.5 F333.3
G3 X125.354 Y117.417 I-6.472 J4.702 F600
X138.298 Y108.013 I6.472 J-4.702
G1 Z-6 F333.3
G3 X125.354 Y117.417 I-6.472 J4.702 F600
X138.298 Y108.013 I6.472 J-4.702
G1 Z-6.5 F333.3
G3 X138.612 Y116.951 I-6.472 J4.702 F600
G1 Z-6.45
G3 X133.758 Y120.478 I-6.786 J-4.237
G1 Z-6.5 F333.3
G3 X125.04 Y108.478 I-1.931 J-7.763 F600
G1 Z-6.45
G3 X129.894 Y104.952 I6.786 J4.236
G1 Z-6.5 F333.3
G3 X138.298 Y108.013 I1.932 J7.763 F600
G1 Z-7 F333.3
G3 X138.612 Y116.951 I-6.472 J4.702 F600
G1 Z-6.45
G3 X133.758 Y120.478 I-6.786 J-4.237
G1 Z-7 F333.3
G3 X125.04 Y108.478 I-1.931 J-7.763 F600
G1 Z-6.45
G3 X129.894 Y104.952 I6.786 J4.236
G1 Z-7 F333.3
G3 X138.298 Y108.013 I1.932 J7.763 F600
G1 Z-7.2 F333.3
G3 X138.612 Y116.951 I-6.472 J4.702 F600
G1 Z-6.45
G3 X133.758 Y120.478 I-6.786 J-4.237
G1 Z-7.2 F333.3
G3 X125.04 Y108.478 I-1.931 J-7.763 F600
G1 Z-6.45
G3 X129.894 Y104.952 I6.786 J4.236
G1 Z-7.2 F333.3
G3 X138.298 Y108.013 I1.932 J7.763 F600
G0 Z5
X160.957 Y117.235
G1 Z1.5 F333.3
Z-0.5
G3 X145.741 Y122.18 I-7.608 J2.472 F600
X160.957 Y117.235 I7.608 J-2.472
G1 Z-1 F333.3
G3 X145.741 Y122.18 I-7.608 J2.472 F600
X160.957 Y117.235 I7.608 J-2.472
G1 Z-1.5 F333.3
G3 X145.741 Y122.18 I-7.608 J2.472 F600
X160.957 Y117.235 I7.608 J-2.472
G1 Z-2 F333.3
G3 X145.741 Y122.18 I-7.608 J2.472 F600
X160.957 Y117.235 I7.608 J-2.472
G1 Z-2.5 F333.3
G3 X145.741 Y122.18 I-7.608 J2.472 F600
X160.957 Y117.235 I7.608 J-2.472
G1 Z-3 F333.3
G3 X145.741 Y122.18 I-7.608 J2.472 F600
X160.957 Y117.235 I7.608 J-2.472
G1 Z-3.5 F333.3
G3 X145.741 Y122.18 I-7.608 J2.472 F600
X160.957 Y117.235 I7.608 J-2.472
G1 Z-4 F333.3
G3 X145.741 Y122.18 I-7.608 J2.472 F600
X160.957 Y117.235 I7.608 J-2.472
G1 Z-4.5 F333.3
G3 X145.741 Y122.18 I-7.608 J2.472 F600
X160.957 Y117.235 I7.608 J-2.472
G1 Z-5 F333.3
G3 X145.741 Y122.18 I-7.608 J2.472 F600
X160.957 Y117.235 I7.608 J-2.472
G1 Z-5.5 F333.3
G3 X145.741 Y122.18 I-7.608 J2.472 F600
X160.957 Y117.235 I7.608 J-2.472
G1 Z-6 F333.3
G3 X145.741 Y122.18 I-7.608 J2.472 F600
X160.957 Y117.235 I7.608 J-2.472
G1 Z-6.45 F333.3
G3 X161.329 Y120.269 I-7.608 J2.472 F600
G1 Z-6.5 F333.3
G3 X147.223 Y124.852 I-7.98 J-0.561 F600
G1 Z-6.45
G3 X145.369 Y119.146 I6.126 J-5.144
G1 Z-6.5 F333.3
G3 X159.475 Y114.563 I7.98 J0.562 F600
G1 Z-6.45
G3 X161.329 Y120.269 I-6.126 J5.145
G1 Z-7 F333.3
G3 X147.223 Y124.852 I-7.98 J-0.561 F600
G1 Z-6.45
G3 X145.369 Y119.146 I6.126 J-5.144
G1 Z-7 F333.3
G3 X159.475 Y114.563 I7.98 J0.562 F600
G1 Z-6.45
G3 X161.329 Y120.269 I-6.126 J5.145
G1 Z-7.2 F333.3
G3 X147.223 Y124.852 I-7.98 J-0.561 F600
G1 Z-6.45
G3 X145.369 Y119.146 I6.126 J-5.144
G1 Z-7.2 F333.3
G3 X159.475 Y114.563 I7.98 J0.562 F600
G1 Z-6.45
G3 X160.957 Y117.235 I-6.126 J5.145
G0 Z5
X174.65 Y101.4
G1 Z1.5 F333.3
Z-0.5
G3 X158.65 Y101.4 I-8 J0 F600
X174.65 Y101.4 I8 J0
G1 Z-1 F333.3
G3 X158.65 Y101.4 I-8 J0 F600
X174.65 Y101.4 I8 J0
G1 Z-1.5 F333.3
G3 X158.65 Y101.4 I-8 J0 F600
X174.65 Y101.4 I8 J0
G1 Z-2 F333.3
G3 X158.65 Y101.4 I-8 J0 F600
X174.65 Y101.4 I8 J0
G1 Z-2.5 F333.3
G3 X158.65 Y101.4 I-8 J0 F600
X174.65 Y101.4 I8 J0
G1 Z-3 F333.3
G3 X158.65 Y101.4 I-8 J0 F600
X174.65 Y101.4 I8 J0
G1 Z-3.5 F333.3
G3 X158.65 Y101.4 I-8 J0 F600
X174.65 Y101.4 I8 J0
G1 Z-4 F333.3
G3 X158.65 Y101.4 I-8 J0 F600
X174.65 Y101.4 I8 J0
G1 Z-4.5 F333.3
G3 X158.65 Y101.4 I-8 J0 F600
X174.65 Y101.4 I8 J0
G1 Z-5 F333.3
G3 X158.65 Y101.4 I-8 J0 F600
X174.65 Y101.4 I8 J0
G1 Z-5.5 F333.3
G3 X158.65 Y101.4 I-8 J0 F600
X174.65 Y101.4 I8 J0
G1 Z-6 F333.3
G3 X158.65 Y101.4 I-8 J0 F600
X174.65 Y101.4 I8 J0
G1 Z-6.5 F333.3
G3 X169.65 Y108.816 I-8 J0 F600
G1 Z-6.45
G3 X163.65 Y108.816 I-3 J-7.416
G1 Z-6.5 F333.3
G3 X163.65 Y93.984 I3 J-7.416 F600
G1 Z-6.45
G3 X169.65 Y93.984 I3 J7.416
G1 Z-6.5 F333.3
G3 X174.65 Y101.4 I-3 J7.416 F600
G1 Z-7 F333.3
G3 X169.65 Y108.816 I-8 J0 F600
G1 Z-6.45
G3 X163.65 Y108.816 I-3 J-7.416
G1 Z-7 F333.3
G3 X163.65 Y93.984 I3 J-7.416 F600
G1 Z-6.45
G3 X169.65 Y93.984 I3 J7.416
G1 Z-7 F333.3
G3 X174.65 Y101.4 I-3 J7.416 F600
G1 Z-7.2 F333.3
G3 X169.65 Y108.816 I-8 J0 F600
G1 Z-6.45
G3 X163.65 Y108.816 I-3 J-7.416
G1 Z-7.2 F333.3
G3 X163.65 Y93.984 I3 J-7.416 F600
G1 Z-6.45
G3 X169.65 Y93.984 I3 J7.416
G1 Z-7.2 F333.3
G3 X174.65 Y101.4 I-3 J7.416 F600
G0 Z5
X161.349 Y83.093
G1 Z1.5 F333.3
Z-0.5
G3 X145.349 Y83.092 I-8 J0 F600
X161.349 Y83.093 I8 J0
G1 Z-1 F333.3
G3 X145.349 Y83.092 I-8 J0 F600
X161.349 Y83.093 I8 J0
G1 Z-1.5 F333.3
G3 X145.349 Y83.092 I-8 J0 F600
X161.349 Y83.093 I8 J0
G1 Z-2 F333.3
G3 X145.349 Y83.092 I-8 J0 F600
X161.349 Y83.093 I8 J0
G1 Z-2.5 F333.3
G3 X145.349 Y83.092 I-8 J0 F600
X161.349 Y83.093 I8 J0
G1 Z-3 F333.3
G3 X145.349 Y83.092 I-8 J0 F600
X161.349 Y83.093 I8 J0
G1 Z-3.5 F333.3
G3 X145.349 Y83.092 I-8 J0 F600
X161.349 Y83.093 I8 J0
G1 Z-4 F333.3
G3 X145.349 Y83.092 I-8 J0 F600
X161.349 Y83.093 I8 J0
G1 Z-4.5 F333.3
G3 X145.349 Y83.092 I-8 J0 F600
X161.349 Y83.093 I8 J0
G1 Z-5 F333.3
G3 X145.349 Y83.092 I-8 J0 F600
X161.349 Y83.093 I8 J0
G1 Z-5.5 F333.3
G3 X145.349 Y83.092 I-8 J0 F600
X161.349 Y83.093 I8 J0
G1 Z-6 F333.3
G3 X145.349 Y83.092 I-8 J0 F600
X161.349 Y83.093 I8 J0
G1 Z-6.45 F333.3
G3 X159.475 Y88.237 I-8 J0 F600
G1 Z-6.5 F333.3
G3 X145.369 Y83.654 I-6.126 J-5.145 F600
G1 Z-6.45
G3 X147.223 Y77.947 I7.98 J-0.561
G1 Z-6.5 F333.3
G3 X161.329 Y82.531 I6.126 J5.145 F600
G1 Z-6.45
G3 X159.475 Y88.237 I-7.98 J0.562
G1 Z-7 F333.3
G3 X145.369 Y83.654 I-6.126 J-5.145 F600
G1 Z-6.45
G3 X147.223 Y77.947 I7.98 J-0.561
G1 Z-7 F333.3
G3 X161.329 Y82.531 I6.126 J5.145 F600
G1 Z-6.45
G3 X159.475 Y88.237 I-7.98 J0.562
G1 Z-7.2 F333.3
G3 X145.369 Y83.654 I-6.126 J-5.145 F600
G1 Z-6.45
G3 X147.223 Y77.947 I7.98 J-0.561
G1 Z-7.2 F333.3
G3 X161.329 Y82.531 I6.126 J5.145 F600
G1 Z-6.45
G3 X161.349 Y83.093 I-7.98 J0.562
G0 Z5
X100 Y101.4
G1 Z1.5 F333.3
Z-0.5
G3 X83 Y101.4 I-8.5 J0 F600
X100 Y101.4 I8.5 J0
G1 Z-1 F333.3
G3 X83 Y101.4 I-8.5 J0 F600
X100 Y101.4 I8.5 J0
G1 Z-1.5 F333.3
G3 X83 Y101.4 I-8.5 J0 F600
X100 Y101.4 I8.5 J0
G1 Z-2 F333.3
G3 X83 Y101.4 I-8.5 J0 F600
X100 Y101.4 I8.5 J0
G1 Z-2.5 F333.3
G3 X83 Y101.4 I-8.5 J0 F600
X100 Y101.4 I8.5 J0
G1 Z-3 F333.3
G3 X83 Y101.4 I-8.5 J0 F600
X100 Y101.4 I8.5 J0
G1 Z-3.5 F333.3
G3 X83 Y101.4 I-8.5 J0 F600
X100 Y101.4 I8.5 J0
G1 Z-4 F333.3
G3 X83 Y101.4 I-8.5 J0 F600
X100 Y101.4 I8.5 J0
G1 Z-4.5 F333.3
G3 X83 Y101.4 I-8.5 J0 F600
X100 Y101.4 I8.5 J0
G1 Z-5 F333.3
G3 X83 Y101.4 I-8.5 J0 F600
X100 Y101.4 I8.5 J0
G1 Z-5.5 F333.3
G3 X83 Y101.4 I-8.5 J0 F600
X100 Y101.4 I8.5 J0
G1 Z-6 F333.3
G3 X83 Y101.4 I-8.5 J0 F600
X100 Y101.4 I8.5 J0
G1 Z-6.5 F333.3
G3 X94.5 Y109.353 I-8.5 J0 F600
G1 Z-6.45
G3 X88.5 Y109.353 I-3 J-7.953
G1 Z-6.5 F333.3
G3 X88.5 Y93.447 I3 J-7.953 F600
G1 Z-6.45
G3 X94.5 Y93.447 I3 J7.953
G1 Z-6.5 F333.3
G3 X100 Y101.4 I-3 J7.953 F600
G1 Z-7 F333.3
G3 X94.5 Y109.353 I-8.5 J0 F600
G1 Z-6.45
G3 X88.5 Y109.353 I-3 J-7.953
G1 Z-7 F333.3
G3 X88.5 Y93.447 I3 J-7.953 F600
G1 Z-6.45
G3 X94.5 Y93.447 I3 J7.953
G1 Z-7 F333.3
G3 X100 Y101.4 I-3 J7.953 F600
G1 Z-7.2 F333.3
G3 X94.5 Y109.353 I-8.5 J0 F600
G1 Z-6.45
G3 X88.5 Y109.353 I-3 J-7.953
G1 Z-7.2 F333.3
G3 X88.5 Y93.447 I3 J-7.953 F600
G1 Z-6.45
G3 X94.5 Y93.447 I3 J7.953
G1 Z-7.2 F333.3
G3 X100 Y101.4 I-3 J7.953 F600
G0 Z5
X81.25 Y82.65
G1 Z1.5 F333.3
Z-0.5
G3 X64.25 Y82.65 I-8.5 J0 F600
X81.25 Y82.65 I8.5 J0
G1 Z-1 F333.3
G3 X64.25 Y82.65 I-8.5 J0 F600
X81.25 Y82.65 I8.5 J0
G1 Z-1.5 F333.3
G3 X64.25 Y82.65 I-8.5 J0 F600
X81.25 Y82.65 I8.5 J0
G1 Z-2 F333.3
G3 X64.25 Y82.65 I-8.5 J0 F600
X81.25 Y82.65 I8.5 J0
G1 Z-2.5 F333.3
G3 X64.25 Y82.65 I-8.5 J0 F600
X81.25 Y82.65 I8.5 J0
G1 Z-3 F333.3
G3 X64.25 Y82.65 I-8.5 J0 F600
X81.25 Y82.65 I8.5 J0
G1 Z-3.5 F333.3
G3 X64.25 Y82.65 I-8.5 J0 F600
X81.25 Y82.65 I8.5 J0
G1 Z-4 F333.3
G3 X64.25 Y82.65 I-8.5 J0 F600
X81.25 Y82.65 I8.5 J0
G1 Z-4.5 F333.3
G3 X64.25 Y82.65 I-8.5 J0 F600
X81.25 Y82.65 I8.5 J0
G1 Z-5 F333.3
G3 X64.25 Y82.65 I-8.5 J0 F600
X81.25 Y82.65 I8.5 J0
G1 Z-5.5 F333.3
G3 X64.25 Y82.65 I-8.5 J0 F600
X81.25 Y82.65 I8.5 J0
G1 Z-6 F333.3
G3 X64.25 Y82.65 I-8.5 J0 F600
X81.25 Y82.65 I8.5 J0
G1 Z-6.45 F333.3
G3 X80.703 Y85.65 I-8.5 J0 F600
G1 Z-6.5 F333.3
G3 X64.797 Y85.65 I-7.953 J-3 F600
G1 Z-6.45
G3 X64.797 Y79.65 I7.953 J-3
G1 Z-6.5 F333.3
G3 X80.703 Y79.65 I7.953 J3 F600
G1 Z-6.45
G3 X80.703 Y85.65 I-7.953 J3
G1 Z-7 F333.3
G3 X64.797 Y85.65 I-7.953 J-3 F600
G1 Z-6.45
G3 X64.797 Y79.65 I7.953 J-3
G1 Z-7 F333.3
G3 X80.703 Y79.65 I7.953 J3 F600
G1 Z-6.45
G3 X80.703 Y85.65 I-7.953 J3
G1 Z-7.2 F333.3
G3 X64.797 Y85.65 I-7.953 J-3 F600
G1 Z-6.45
G3 X64.797 Y79.65 I7.953 J-3
G1 Z-7.2 F333.3
G3 X80.703 Y79.65 I7.953 J3 F600
G1 Z-6.45
G3 X81.25 Y82.65 I-7.953 J3
G0 Z5
X62.5 Y101.4
G1 Z1.5 F333.3
Z-0.5
G3 X45.5 Y101.4 I-8.5 J0 F600
X62.5 Y101.4 I8.5 J0
G1 Z-1 F333.3
G3 X45.5 Y101.4 I-8.5 J0 F600
X62.5 Y101.4 I8.5 J0
G1 Z-1.5 F333.3
G3 X45.5 Y101.4 I-8.5 J0 F600
X62.5 Y101.4 I8.5 J0
G1 Z-2 F333.3
G3 X45.5 Y101.4 I-8.5 J0 F600
X62.5 Y101.4 I8.5 J0
G1 Z-2.5 F333.3
G3 X45.5 Y101.4 I-8.5 J0 F600
X62.5 Y101.4 I8.5 J0
G1 Z-3 F333.3
G3 X45.5 Y101.4 I-8.5 J0 F600
X62.5 Y101.4 I8.5 J0
G1 Z-3.5 F333.3
G3 X45.5 Y101.4 I-8.5 J0 F600
X62.5 Y101.4 I8.5 J0
G1 Z-4 F333.3
G3 X45.5 Y101.4 I-8.5 J0 F600
X62.5 Y101.4 I8.5 J0
G1 Z-4.5 F333.3
G3 X45.5 Y101.4 I-8.5 J0 F600
X62.5 Y101.4 I8.5 J0
G1 Z-5 F333.3
G3 X45.5 Y101.4 I-8.5 J0 F600
X62.5 Y101.4 I8.5 J0
G1 Z-5.5 F333.3
G3 X45.5 Y101.4 I-8.5 J0 F600
X62.5 Y101.4 I8.5 J0
G1 Z-6 F333.3
G3 X45.5 Y101.4 I-8.5 J0 F600
X62.5 Y101.4 I8.5 J0
G1 Z-6.5 F333.3
G3 X57 Y109.353 I-8.5 J0 F600
G1 Z-6.45
G3 X51 Y109.353 I-3 J-7.953
G1 Z-6.5 F333.3
G3 X51 Y93.447 I3 J-7.953 F600
G1 Z-6.45
G3 X57 Y93.447 I3 J7.953
G1 Z-6.5 F333.3
G3 X62.5 Y101.4 I-3 J7.953 F600
G1 Z-7 F333.3
G3 X57 Y109.353 I-8.5 J0 F600
G1 Z-6.45
G3 X51 Y109.353 I-3 J-7.953
G1 Z-7 F333.3
G3 X51 Y93.447 I3 J-7.953 F600
G1 Z-6.45
G3 X57 Y93.447 I3 J7.953
G1 Z-7 F333.3
G3 X62.5 Y101.4 I-3 J7.953 F600
G1 Z-7.2 F333.3
G3 X57 Y109.353 I-8.5 J0 F600
G1 Z-6.45
G3 X51 Y109.353 I-3 J-7.953
G1 Z-7.2 F333.3
G3 X51 Y93.447 I3 J-7.953 F600
G1 Z-6.45
G3 X57 Y93.447 I3 J7.953
G1 Z-7.2 F333.3
G3 X62.5 Y101.4 I-3 J7.953 F600
G0 Z5
X81.25 Y120.15
G1 Z1.5 F333.3
Z-0.5
G3 X64.25 Y120.15 I-8.5 J0 F600
X81.25 Y120.15 I8.5 J0
G1 Z-1 F333.3
G3 X64.25 Y120.15 I-8.5 J0 F600
X81.25 Y120.15 I8.5 J0
G1 Z-1.5 F333.3
G3 X64.25 Y120.15 I-8.5 J0 F600
X81.25 Y120.15 I8.5 J0
G1 Z-2 F333.3
G3 X64.25 Y120.15 I-8.5 J0 F600
X81.25 Y120.15 I8.5 J0
G1 Z-2.5 F333.3
G3 X64.25 Y120.15 I-8.5 J0 F600
X81.25 Y120.15 I8.5 J0
G1 Z-3 F333.3
G3 X64.25 Y120.15 I-8.5 J0 F600
X81.25 Y120.15 I8.5 J0
G1 Z-3.5 F333.3
G3 X64.25 Y120.15 I-8.5 J0 F600
X81.25 Y120.15 I8.5 J0
G1 Z-4 F333.3
G3 X64.25 Y120.15 I-8.5 J0 F600
X81.25 Y120.15 I8.5 J0
G1 Z-4.5 F333.3
G3 X64.25 Y120.15 I-8.5 J0 F600
X81.25 Y120.15 I8.5 J0
G1 Z-5 F333.3
G3 X64.25 Y120.15 I-8.5 J0 F600
X81.25 Y120.15 I8.5 J0
G1 Z-5.5 F333.3
G3 X64.25 Y120.15 I-8.5 J0 F600
X81.25 Y120.15 I8.5 J0
G1 Z-6 F333.3
G3 X64.25 Y120.15 I-8.5 J0 F600
X81.25 Y120.15 I8.5 J0
G1 Z-6.45 F333.3
G3 X80.703 Y123.15 I-8.5 J0 F600
G1 Z-6.5 F333.3
G3 X64.797 Y123.15 I-7.953 J-3 F600
G1 Z-6.45
G3 X64.797 Y117.15 I7.953 J-3
G1 Z-6.5 F333.3
G3 X80.703 Y117.15 I7.953 J3 F600
G1 Z-6.45
G3 X80.703 Y123.15 I-7.953 J3
G1 Z-7 F333.3
G3 X64.797 Y123.15 I-7.953 J-3 F600
G1 Z-6.45
G3 X64.797 Y117.15 I7.953 J-3
G1 Z-7 F333.3
G3 X80.703 Y117.15 I7.953 J3 F600
G1 Z-6.45
G3 X80.703 Y123.15 I-7.953 J3
G1 Z-7.2 F333.3
G3 X64.797 Y123.15 I-7.953 J-3 F600
G1 Z-6.45
G3 X64.797 Y117.15 I7.953 J-3
G1 Z-7.2 F333.3
G3 X80.703 Y117.15 I7.953 J3 F600
G1 Z-6.45
G3 X81.25 Y120.15 I-7.953 J3
G0 Z5
X45.05 Y53.7
G1 Z1.5 F333.3
Z-0.5
G3 X26.45 Y53.7 I-9.3 J0 F600
X45.05 Y53.7 I9.3 J0
G1 Z-1 F333.3
G3 X26.45 Y53.7 I-9.3 J0 F600
X45.05 Y53.7 I9.3 J0
G1 Z-1.5 F333.3
G3 X26.45 Y53.7 I-9.3 J0 F600
X45.05 Y53.7 I9.3 J0
G1 Z-2 F333.3
G3 X26.45 Y53.7 I-9.3 J0 F600
X45.05 Y53.7 I9.3 J0
G1 Z-2.5 F333.3
G3 X26.45 Y53.7 I-9.3 J0 F600
X45.05 Y53.7 I9.3 J0
G1 Z-3 F333.3
G3 X26.45 Y53.7 I-9.3 J0 F600
X45.05 Y53.7 I9.3 J0
G1 Z-3.5 F333.3
G3 X26.45 Y53.7 I-9.3 J0 F600
X45.05 Y53.7 I9.3 J0
G1 Z-4 F333.3
G3 X26.45 Y53.7 I-9.3 J0 F600
X45.05 Y53.7 I9.3 J0
G1 Z-4.5 F333.3
G3 X26.45 Y53.7 I-9.3 J0 F600
X45.05 Y53.7 I9.3 J0
G1 Z-5 F333.3
G3 X26.45 Y53.7 I-9.3 J0 F600
X45.05 Y53.7 I9.3 J0
G1 Z-5.5 F333.3
G3 X26.45 Y53.7 I-9.3 J0 F600
X45.05 Y53.7 I9.3 J0
G1 Z-6 F333.3
G3 X26.45 Y53.7 I-9.3 J0 F600
X45.05 Y53.7 I9.3 J0
G1 Z-6.45 F333.3
G3 X44.553 Y56.7 I-9.3 J0 F600
G1 Z-6.5 F333.3
G3 X26.947 Y56.7 I-8.803 J-3 F600
G1 Z-6.45
G3 X26.947 Y50.7 I8.803 J-3
G1 Z-6.5 F333.3
G3 X44.553 Y50.7 I8.803 J3 F600
G1 Z-6.45
G3 X44.553 Y56.7 I-8.803 J3
G1 Z-7 F333.3
G3 X26.947 Y56.7 I-8.803 J-3 F600
G1 Z-6.45
G3 X26.947 Y50.7 I8.803 J-3
G1 Z-7 F333.3
G3 X44.553 Y50.7 I8.803 J3 F600
G1 Z-6.45
G3 X44.553 Y56.7 I-8.803 J3
G1 Z-7.2 F333.3
G3 X26.947 Y56.7 I-8.803 J-3 F600
G1 Z-6.45
G3 X26.947 Y50.7 I8.803 J-3
G1 Z-7.2 F333.3
G3 X44.553 Y50.7 I8.803 J3 F600
G1 Z-6.45
G3 X45.05 Y53.7 I-8.803 J3
G0 Z5
X63 Y35.75
G1 Z1.5 F333.3
Z-0.5
G3 X44.4 Y35.75 I-9.3 J0 F600
X63 Y35.75 I9.3 J0
G1 Z-1 F333.3
G3 X44.4 Y35.75 I-9.3 J0 F600
X63 Y35.75 I9.3 J0
G1 Z-1.5 F333.3
G3 X44.4 Y35.75 I-9.3 J0 F600
X63 Y35.75 I9.3 J0
G1 Z-2 F333.3
G3 X44.4 Y35.75 I-9.3 J0 F600
X63 Y35.75 I9.3 J0
G1 Z-2.5 F333.3
G3 X44.4 Y35.75 I-9.3 J0 F600
X63 Y35.75 I9.3 J0
G1 Z-3 F333.3
G3 X44.4 Y35.75 I-9.3 J0 F600
X63 Y35.75 I9.3 J0
G1 Z-3.5 F333.3
G3 X44.4 Y35.75 I-9.3 J0 F600
X63 Y35.75 I9.3 J0
G1 Z-4 F333.3
G3 X44.4 Y35.75 I-9.3 J0 F600
X63 Y35.75 I9.3 J0
G1 Z-4.5 F333.3
G3 X44.4 Y35.75 I-9.3 J0 F600
X63 Y35.75 I9.3 J0
G1 Z-5 F333.3
G3 X44.4 Y35.75 I-9.3 J0 F600
X63 Y35.75 I9.3 J0
G1 Z-5.5 F333.3
G3 X44.4 Y35.75 I-9.3 J0 F600
X63 Y35.75 I9.3 J0
G1 Z-6 F333.3
G3 X44.4 Y35.75 I-9.3 J0 F600
X63 Y35.75 I9.3 J0
G1 Z-6.5 F333.3
G3 X56.7 Y44.553 I-9.3 J0 F600
G1 Z-6.45
G3 X50.7 Y44.553 I-3 J-8.803
G1 Z-6.5 F333.3
G3 X50.7 Y26.947 I3 J-8.803 F600
G1 Z-6.45
G3 X56.7 Y26.947 I3 J8.803
G1 Z-6.5 F333.3
G3 X63 Y35.75 I-3 J8.803 F600
G1 Z-7 F333.3
G3 X56.7 Y44.553 I-9.3 J0 F600
G1 Z-6.45
G3 X50.7 Y44.553 I-3 J-8.803
G1 Z-7 F333.3
G3 X50.7 Y26.947 I3 J-8.803 F600
G1 Z-6.45
G3 X56.7 Y26.947 I3 J8.803
G1 Z-7 F333.3
G3 X63 Y35.75 I-3 J8.803 F600
G1 Z-7.2 F333.3
G3 X56.7 Y44.553 I-9.3 J0 F600
G1 Z-6.45
G3 X50.7 Y44.553 I-3 J-8.803
G1 Z-7.2 F333.3
G3 X50.7 Y26.947 I3 J-8.803 F600
G1 Z-6.45
G3 X56.7 Y26.947 I3 J8.803
G1 Z-7.2 F333.3
G3 X63 Y35.75 I-3 J8.803 F600
G0 Z5
X45.047 Y18.028
G1 Z1.5 F333.3
Z-0.5
G3 X26.453 Y17.572 I-9.297 J-0.228 F600
X45.047 Y18.028 I9.297 J0.228
G1 Z-1 F333.3
G3 X26.453 Y17.572 I-9.297 J-0.228 F600
X45.047 Y18.028 I9.297 J0.228
G1 Z-1.5 F333.3
G3 X26.453 Y17.572 I-9.297 J-0.228 F600
X45.047 Y18.028 I9.297 J0.228
G1 Z-2 F333.3
G3 X26.453 Y17.572 I-9.297 J-0.228 F600
X45.047 Y18.028 I9.297 J0.228
G1 Z-2.5 F333.3
G3 X26.453 Y17.572 I-9.297 J-0.228 F600
X45.047 Y18.028 I9.297 J0.228
G1 Z-3 F333.3
G3 X26.453 Y17.572 I-9.297 J-0.228 F600
X45.047 Y18.028 I9.297 J0.228
G1 Z-3.5 F333.3
G3 X26.453 Y17.572 I-9.297 J-0.228 F600
X45.047 Y18.028 I9.297 J0.228
G1 Z-4 F333.3
G3 X26.453 Y17.572 I-9.297 J-0.228 F600
X45.047 Y18.028 I9.297 J0.228
G1 Z-4.5 F333.3
G3 X26.453 Y17.572 I-9.297 J-0.228 F600
X45.047 Y18.028 I9.297 J0.228
G1 Z-5 F333.3
G3 X26.453 Y17.572 I-9.297 J-0.228 F600
X45.047 Y18.028 I9.297 J0.228
G1 Z-5.5 F333.3
G3 X26.453 Y17.572 I-9.297 J-0.228 F600
X45.047 Y18.028 I9.297 J0.228
G1 Z-6 F333.3
G3 X26.453 Y17.572 I-9.297 J-0.228 F600
X45.047 Y18.028 I9.297 J0.228
G1 Z-6.45 F333.3
G3 X44.553 Y20.8 I-9.297 J-0.228 F600
G1 Z-6.5 F333.3
G3 X26.947 Y20.8 I-8.803 J-3 F600
G1 Z-6.45
G3 X26.947 Y14.8 I8.803 J-3
G1 Z-6.5 F333.3
G3 X44.553 Y14.8 I8.803 J3 F600
G1 Z-6.45
G3 X44.553 Y20.8 I-8.803 J3
G1 Z-7 F333.3
G3 X26.947 Y20.8 I-8.803 J-3 F600
G1 Z-6.45
G3 X26.947 Y14.8 I8.803 J-3
G1 Z-7 F333.3
G3 X44.553 Y14.8 I8.803 J3 F600
G1 Z-6.45
G3 X44.553 Y20.8 I-8.803 J3
G1 Z-7.2 F333.3
G3 X26.947 Y20.8 I-8.803 J-3 F600
G1 Z-6.45
G3 X26.947 Y14.8 I8.803 J-3
G1 Z-7.2 F333.3
G3 X44.553 Y14.8 I8.803 J3 F600
G1 Z-6.45
G3 X45.047 Y18.028 I-8.803 J3
G0 Z5
X27.1 Y35.75
G1 Z1.5 F333.3
Z-0.5
G3 X8.5 Y35.75 I-9.3 J0 F600
X27.1 Y35.75 I9.3 J0
G1 Z-1 F333.3
G3 X8.5 Y35.75 I-9.3 J0 F600
X27.1 Y35.75 I9.3 J0
G1 Z-1.5 F333.3
G3 X8.5 Y35.75 I-9.3 J0 F600
X27.1 Y35.75 I9.3 J0
G1 Z-2 F333.3
G3 X8.5 Y35.75 I-9.3 J0 F600
X27.1 Y35.75 I9.3 J0
G1 Z-2.5 F333.3
G3 X8.5 Y35.75 I-9.3 J0 F600
X27.1 Y35.75 I9.3 J0
G1 Z-3 F333.3
G3 X8.5 Y35.75 I-9.3 J0 F600
X27.1 Y35.75 I9.3 J0
G1 Z-3.5 F333.3
G3 X8.5 Y35.75 I-9.3 J0 F600
X27.1 Y35.75 I9.3 J0
G1 Z-4 F333.3
G3 X8.5 Y35.75 I-9.3 J0 F600
X27.1 Y35.75 I9.3 J0
G1 Z-4.5 F333.3
G3 X8.5 Y35.75 I-9.3 J0 F600
X27.1 Y35.75 I9.3 J0
G1 Z-5 F333.3
G3 X8.5 Y35.75 I-9.3 J0 F600
X27.1 Y35.75 I9.3 J0
G1 Z-5.5 F333.3
G3 X8.5 Y35.75 I-9.3 J0 F600
X27.1 Y35.75 I9.3 J0
G1 Z-6 F333.3
G3 X8.5 Y35.75 I-9.3 J0 F600
X27.1 Y35.75 I9.3 J0
G1 Z-6.5 F333.3
G3 X20.8 Y44.553 I-9.3 J0 F600
G1 Z-6.45
G3 X14.8 Y44.553 I-3 J-8.803
G1 Z-6.5 F333.3
G3 X14.8 Y26.947 I3 J-8.803 F600
G1 Z-6.45
G3 X20.8 Y26.947 I3 J8.803
G1 Z-6.5 F333.3
G3 X27.1 Y35.75 I-3 J8.803 F600
G1 Z-7 F333.3
G3 X20.8 Y44.553 I-9.3 J0 F600
G1 Z-6.45
G3 X14.8 Y44.553 I-3 J-8.803
G1 Z-7 F333.3
G3 X14.8 Y26.947 I3 J-8.803 F600
G1 Z-6.45
G3 X20.8 Y26.947 I3 J8.803
G1 Z-7 F333.3
G3 X27.1 Y35.75 I-3 J8.803 F600
G1 Z-7.2 F333.3
G3 X20.8 Y44.553 I-9.3 J0 F600
G1 Z-6.45
G3 X14.8 Y44.553 I-3 J-8.803
G1 Z-7.2 F333.3
G3 X14.8 Y26.947 I3 J-8.803 F600
G1 Z-6.45
G3 X20.8 Y26.947 I3 J8.803
G1 Z-7.2 F333.3
G3 X27.1 Y35.75 I-3 J8.803 F600
G0 Z5
X100.565 Y23.7
G1 Z1.5 F333.3
Z-0.5
G3 X87.065 Y23.701 I-6.75 J0 F600
X100.565 Y23.7 I6.75 J0
G1 Z-1 F333.3
G3 X87.065 Y23.701 I-6.75 J0 F600
X100.565 Y23.7 I6.75 J0
G1 Z-1.5 F333.3
G3 X87.065 Y23.701 I-6.75 J0 F600
X100.565 Y23.7 I6.75 J0
G1 Z-2 F333.3
G3 X87.065 Y23.701 I-6.75 J0 F600
X100.565 Y23.7 I6.75 J0
G1 Z-2.5 F333.3
G3 X87.065 Y23.701 I-6.75 J0 F600
X100.565 Y23.7 I6.75 J0
G1 Z-3 F333.3
G3 X87.065 Y23.701 I-6.75 J0 F600
X100.565 Y23.7 I6.75 J0
G1 Z-3.5 F333.3
G3 X87.065 Y23.701 I-6.75 J0 F600
X100.565 Y23.7 I6.75 J0
G1 Z-4 F333.3
G3 X87.065 Y23.701 I-6.75 J0 F600
X100.565 Y23.7 I6.75 J0
G1 Z-4.5 F333.3
G3 X87.065 Y23.701 I-6.75 J0 F600
X100.565 Y23.7 I6.75 J0
G1 Z-5 F333.3
G3 X87.065 Y23.701 I-6.75 J0 F600
X100.565 Y23.7 I6.75 J0
G1 Z-5.5 F333.3
G3 X87.065 Y23.701 I-6.75 J0 F600
X100.565 Y23.7 I6.75 J0
G1 Z-6 F333.3
G3 X87.065 Y23.701 I-6.75 J0 F600
X100.565 Y23.7 I6.75 J0
G1 Z-6.5 F333.3
G3 X92.688 Y30.356 I-6.75 J0 F600
G1 Z-6.45
G3 X87.834 Y26.829 I1.127 J-6.655
G1 Z-6.5 F333.3
G3 X94.942 Y17.045 I5.981 J-3.128 F600
G1 Z-6.45
G3 X99.796 Y20.572 I-1.127 J6.655
G1 Z-6.5 F333.3
G3 X100.565 Y23.7 I-5.981 J3.129 F600
G1 Z-7 F333.3
G3 X92.688 Y30.356 I-6.75 J0 F600
G1 Z-6.45
G3 X87.834 Y26.829 I1.127 J-6.655
G1 Z-7 F333.3
G3 X94.942 Y17.045 I5.981 J-3.128 F600
G1 Z-6.45
G3 X99.796 Y20.572 I-1.127 J6.655
G1 Z-7 F333.3
G3 X100.565 Y23.7 I-5.981 J3.129 F600
G1 Z-7.2 F333.3
G3 X92.688 Y30.356 I-6.75 J0 F600
G1 Z-6.45
G3 X87.834 Y26.829 I1.127 J-6.655
G1 Z-7.2 F333.3
G3 X94.942 Y17.045 I5.981 J-3.128 F600
G1 Z-6.45
G3 X99.796 Y20.572 I-1.127 J6.655
G1 Z-7.2 F333.3
G3 X100.565 Y23.7 I-5.981 J3.129 F600
G0 Z5
X123.485 Y16.254
G1 Z1.5 F333.3
Z-0.5
G3 X109.985 Y16.253 I-6.75 J0 F600
X123.485 Y16.254 I6.75 J0
G1 Z-1 F333.3
G3 X109.985 Y16.253 I-6.75 J0 F600
X123.485 Y16.254 I6.75 J0
G1 Z-1.5 F333.3
G3 X109.985 Y16.253 I-6.75 J0 F600
X123.485 Y16.254 I6.75 J0
G1 Z-2 F333.3
G3 X109.985 Y16.253 I-6.75 J0 F600
X123.485 Y16.254 I6.75 J0
G1 Z-2.5 F333.3
G3 X109.985 Y16.253 I-6.75 J0 F600
X123.485 Y16.254 I6.75 J0
G1 Z-3 F333.3
G3 X109.985 Y16.253 I-6.75 J0 F600
X123.485 Y16.254 I6.75 J0
G1 Z-3.5 F333.3
G3 X109.985 Y16.253 I-6.75 J0 F600
X123.485 Y16.254 I6.75 J0
G1 Z-4 F333.3
G3 X109.985 Y16.253 I-6.75 J0 F600
X123.485 Y16.254 I6.75 J0
G1 Z-4.5 F333.3
G3 X109.985 Y16.253 I-6.75 J0 F600
X123.485 Y16.254 I6.75 J0
G1 Z-5 F333.3
G3 X109.985 Y16.253 I-6.75 J0 F600
X123.485 Y16.254 I6.75 J0
G1 Z-5.5 F333.3
G3 X109.985 Y16.253 I-6.75 J0 F600
X123.485 Y16.254 I6.75 J0
G1 Z-6 F333.3
G3 X109.985 Y16.253 I-6.75 J0 F600
X123.485 Y16.254 I6.75 J0
G1 Z-6.45 F333.3
G3 X121.559 Y20.975 I-6.75 J0 F600
G1 Z-6.5 F333.3
G3 X110.057 Y17.238 I-4.824 J-4.722 F600
G1 Z-6.45
G3 X111.911 Y11.532 I6.678 J-0.984
G1 Z-6.5 F333.3
G3 X123.413 Y15.269 I4.824 J4.722 F600
G1 Z-6.45
G3 X121.559 Y20.975 I-6.678 J0.985
G1 Z-7 F333.3
G3 X110.057 Y17.238 I-4.824 J-4.722 F600
G1 Z-6.45
G3 X111.911 Y11.532 I6.678 J-0.984
G1 Z-7 F333.3
G3 X123.413 Y15.269 I4.824 J4.722 F600
G1 Z-6.45
G3 X121.559 Y20.975 I-6.678 J0.985
G1 Z-7.2 F333.3
G3 X110.057 Y17.238 I-4.824 J-4.722 F600
G1 Z-6.45
G3 X111.911 Y11.532 I6.678 J-0.984
G1 Z-7.2 F333.3
G3 X123.413 Y15.269 I4.824 J4.722 F600
G1 Z-6.45
G3 X123.485 Y16.254 I-6.678 J0.985
G0 Z15

(2D Contour23)
X78.39 Y54.802
Z15
Z5
G1 Z2.5 F333.3
Z-1.5
G2 X110.4 Y73 I32.009 J-19.052 F600
X110.4 Y-1.5 I0 J-37.25
X73.15 Y35.75 I0 J37.25
G1 Y35.885
G2 X110.4 Y73 I37.25 J-0.135
X110.4 Y-1.5 I0 J-37.25
X73.15 Y35.75 I0 J37.25
G1 Y35.885
G2 X78.39 Y54.802 I37.25 J-0.135
G0 Z5
X67.759
G1 Z2.5 F333.3
Z-1.5
G2 X73 Y35.75 I-32.01 J-19.051 F600
X-1.5 Y35.75 I-37.25 J0
X35.75 Y73 I37.25 J0
X54.147 Y68.14 I0 J-37.25
X73 Y35.75 I-18.397 J-32.39
X-1.5 Y35.75 I-37.25 J0
X35.75 Y73 I37.25 J0
X54.147 Y68.14 I0 J-37.25
X67.759 Y54.802 I-18.397 J-32.39
G0 Z5
X104.759 Y82.348
G1 Z2.5 F333.3
Z-1.5
G2 X35.5 Y101.4 I-32.009 J19.052 F600
X41.858 Y122.214 I37.25 J0
X72.75 Y138.65 I30.892 J-20.814
X72.75 Y64.15 I0 J-37.25
X35.5 Y101.4 I0 J37.25
X41.858 Y122.214 I37.25 J0
X72.75 Y138.65 I30.892 J-20.814
X104.759 Y82.348 I0 J-37.25
G0 Z5
X115.391
G1 Z2.5 F333.3
Z-1.5
G2 X179.409 Y120.452 I32.009 J19.052 F600
X115.391 Y82.348 I-32.009 J-19.052
X179.409 Y120.452 I32.009 J19.052
X115.391 Y82.348 I-32.009 J-19.052
G1 Z-3 F333.3
G2 X179.409 Y120.452 I32.009 J19.052 F600
X115.391 Y82.348 I-32.009 J-19.052
X179.409 Y120.452 I32.009 J19.052
X115.391 Y82.348 I-32.009 J-19.052
G0 Z5
X104.759
G1 Z1 F333.3
Z-3
G2 X35.5 Y101.4 I-32.009 J19.052 F600
X41.858 Y122.214 I37.25 J0
X72.75 Y138.65 I30.892 J-20.814
X72.75 Y64.15 I0 J-37.25
X35.5 Y101.4 I0 J37.25
X41.858 Y122.214 I37.25 J0
X72.75 Y138.65 I30.892 J-20.814
X104.759 Y82.348 I0 J-37.25
G0 Z5
X110.121 Y72.999
G1 Z1 F333.3
Z-3
G2 X110.4 Y73 I0.279 J-37.249 F600
X110.4 Y-1.5 I0 J-37.25
X73.15 Y35.75 I0 J37.25
G1 Y35.885
G2 X110.4 Y73 I37.25 J-0.135
X110.4 Y-1.5 I0 J-37.25
X73.15 Y35.75 I0 J37.25
G1 Y35.885
G2 X110.121 Y72.999 I37.25 J-0.135
G0 Z5
X67.759 Y54.802
G1 Z1 F333.3
Z-3
G2 X73 Y35.75 I-32.01 J-19.051 F600
X-1.5 Y35.75 I-37.25 J0
X35.75 Y73 I37.25 J0
X54.147 Y68.14 I0 J-37.25
X73 Y35.75 I-18.397 J-32.39
X-1.5 Y35.75 I-37.25 J0
X35.75 Y73 I37.25 J0
X54.147 Y68.14 I0 J-37.25
X67.759 Y54.802 I-18.397 J-32.39
G1 Z-4.5 F333.3
G2 X73 Y35.75 I-32.01 J-19.051 F600
X-1.5 Y35.75 I-37.25 J0
X35.75 Y73 I37.25 J0
X54.147 Y68.14 I0 J-37.25
X73 Y35.75 I-18.397 J-32.39
X-1.5 Y35.75 I-37.25 J0
X35.75 Y73 I37.25 J0
X54.147 Y68.14 I0 J-37.25
X67.759 Y54.802 I-18.397 J-32.39
G0 Z5
X78.39
G1 Z-0.5 F333.3
Z-4.5
G2 X110.4 Y73 I32.009 J-19.052 F600
X110.4 Y-1.5 I0 J-37.25
X73.15 Y35.75 I0 J37.25
G1 Y35.885
G2 X110.4 Y73 I37.25 J-0.135
X110.4 Y-1.5 I0 J-37.25
X73.15 Y35.75 I0 J37.25
G1 Y35.885
G2 X78.39 Y54.802 I37.25 J-0.135
G0 Z5
X104.759 Y82.348
G1 Z-0.5 F333.3
Z-4.5
G2 X35.5 Y101.4 I-32.009 J19.052 F600
X41.858 Y122.214 I37.25 J0
X72.75 Y138.65 I30.892 J-20.814
X72.75 Y64.15 I0 J-37.25
X35.5 Y101.4 I0 J37.25
X41.858 Y122.214 I37.25 J0
X72.75 Y138.65 I30.892 J-20.814
X104.759 Y82.348 I0 J-37.25
G0 Z5
X115.391
G1 Z-0.5 F333.3
Z-4.5
G2 X179.409 Y120.452 I32.009 J19.052 F600
X115.391 Y82.348 I-32.009 J-19.052
X179.409 Y120.452 I32.009 J19.052
X115.391 Y82.348 I-32.009 J-19.052
G1 Z-6 F333.3
G2 X179.409 Y120.452 I32.009 J19.052 F600
X115.391 Y82.348 I-32.009 J-19.052
X179.409 Y120.452 I32.009 J19.052
X115.391 Y82.348 I-32.009 J-19.052
G0 Z5
X104.759
G1 Z-2 F333.3
Z-6
G2 X35.5 Y101.4 I-32.009 J19.052 F600
X41.858 Y122.214 I37.25 J0
X72.75 Y138.65 I30.892 J-20.814
X72.75 Y64.15 I0 J-37.25
X35.5 Y101.4 I0 J37.25
X41.858 Y122.214 I37.25 J0
X72.75 Y138.65 I30.892 J-20.814
X104.759 Y82.348 I0 J-37.25
G0 Z5
X110.121 Y72.999
G1 Z-2 F333.3
Z-6
G2 X110.4 Y73 I0.279 J-37.249 F600
X110.4 Y-1.5 I0 J-37.25
X73.15 Y35.75 I0 J37.25
G1 Y35.885
G2 X110.4 Y73 I37.25 J-0.135
X110.4 Y-1.5 I0 J-37.25
X73.15 Y35.75 I0 J37.25
G1 Y35.885
G2 X110.121 Y72.999 I37.25 J-0.135
G0 Z5
X67.759 Y54.802
G1 Z-2 F333.3
Z-6
G2 X73 Y35.75 I-32.01 J-19.051 F600
X-1.5 Y35.75 I-37.25 J0
X35.75 Y73 I37.25 J0
X54.147 Y68.14 I0 J-37.25
X73 Y35.75 I-18.397 J-32.39
X-1.5 Y35.75 I-37.25 J0
X35.75 Y73 I37.25 J0
X54.147 Y68.14 I0 J-37.25
X67.759 Y54.802 I-18.397 J-32.39
G1 Z-7.2 F333.3
G2 X72.879 Y38.75 I-32.01 J-19.051 F600
G1 Z-6.45
G2 X73 Y35.75 I-37.129 J-3
X72.879 Y32.75 I-37.25 J0
G1 Z-7.2 F333.3
G2 X66.121 Y14.182 I-37.129 J3 F600
G1 Z-6.45
G2 X62.264 Y9.586 I-30.371 J21.568
G1 Z-7.2 F333.3
G2 X45.152 Y-0.294 I-26.514 J26.164 F600
G1 Z-6.45
G2 X39.243 Y-1.336 I-9.402 J36.044
G1 Z-7.2 F333.3
G2 X19.784 Y2.095 I-3.493 J37.086 F600
G1 Z-6.45
G2 X14.587 Y5.095 I15.966 J33.655
G1 Z-7.2 F333.3
G2 X1.886 Y20.232 I21.163 J30.655 F600
G1 Z-6.45
G2 X-0.166 Y25.87 I33.864 J15.518
G1 Z-7.2 F333.3
G2 X-0.166 Y45.63 I35.916 J9.88 F600
G1 Z-6.45
G2 X1.886 Y51.268 I35.916 J-9.88
G1 Z-7.2 F333.3
G2 X14.587 Y66.405 I33.864 J-15.518 F600
G1 Z-6.45
G2 X19.784 Y69.405 I21.163 J-30.655
G1 Z-7.2 F333.3
G2 X35.75 Y73 I15.966 J-33.655 F600
X39.243 Y72.836 I0 J-37.25
G1 Z-6.45
G2 X45.152 Y71.794 I-3.493 J-37.086
G1 Z-7.2 F333.3
G2 X51.003 Y69.734 I-9.401 J-36.044 F600
G1 Z-6.45
G2 X54.147 Y68.14 I-15.253 J-33.984
X56.263 Y66.843 I-18.397 J-32.39
G1 Z-7.2 F333.3
G2 X62.264 Y61.914 I-20.513 J-31.093 F600
G1 Z-6.45
G2 X66.121 Y57.318 I-26.514 J-26.164
G1 Z-7.2 F333.3
G2 X72.879 Y38.75 I-30.371 J-21.568 F600
G1 Z-6.45
G2 X73 Y35.75 I-37.129 J-3
X72.879 Y32.75 I-37.25 J0
G1 Z-7.2 F333.3
G2 X66.121 Y14.182 I-37.129 J3 F600
G1 Z-6.45
G2 X62.264 Y9.586 I-30.371 J21.568
G1 Z-7.2 F333.3
G2 X45.152 Y-0.294 I-26.514 J26.164 F600
G1 Z-6.45
G2 X39.243 Y-1.336 I-9.402 J36.044
G1 Z-7.2 F333.3
G2 X19.784 Y2.095 I-3.493 J37.086 F600
G1 Z-6.45
G2 X14.587 Y5.095 I15.966 J33.655
G1 Z-7.2 F333.3
G2 X1.886 Y20.232 I21.163 J30.655 F600
G1 Z-6.45
G2 X-0.166 Y25.87 I33.864 J15.518
G1 Z-7.2 F333.3
G2 X-0.166 Y45.63 I35.916 J9.88 F600
G1 Z-6.45
G2 X1.886 Y51.268 I35.916 J-9.88
G1 Z-7.2 F333.3
G2 X14.587 Y66.405 I33.864 J-15.518 F600
G1 Z-6.45
G2 X19.784 Y69.405 I21.163 J-30.655
G1 Z-7.2 F333.3
G2 X35.75 Y73 I15.966 J-33.655 F600
X39.243 Y72.836 I0 J-37.25
G1 Z-6.45
G2 X45.152 Y71.794 I-3.493 J-37.086
G1 Z-7.2 F333.3
G2 X51.003 Y69.734 I-9.401 J-36.044 F600
G1 Z-6.45
G2 X54.147 Y68.14 I-15.253 J-33.984
X56.263 Y66.843 I-18.397 J-32.39
G1 Z-7.2 F333.3
G2 X62.264 Y61.914 I-20.513 J-31.093 F600
G1 Z-6.45
G2 X66.121 Y57.318 I-26.514 J-26.164
G1 Z-7.2 F333.3
G2 X67.759 Y54.802 I-30.371 J-21.568 F600
G0 Z5
X78.39
G1 Z-3.5 F333.3
Z-7.2
G2 X89.237 Y66.405 I32.009 J-19.052 F600
G1 Z-6.45
G2 X94.434 Y69.405 I21.163 J-30.655
G1 Z-7.2 F333.3
G2 X110.4 Y73 I15.966 J-33.655 F600
X113.893 Y72.836 I0 J-37.25
G1 Z-6.45
G2 X119.802 Y71.794 I-3.493 J-37.086
G1 Z-7.2 F333.3
G2 X125.653 Y69.734 I-9.402 J-36.044 F600
G1 Z-6.45
G2 X130.913 Y66.843 I-15.253 J-33.984
G1 Z-7.2 F333.3
G2 X136.914 Y61.914 I-20.513 J-31.093 F600
G1 Z-6.45
G2 X140.771 Y57.318 I-26.514 J-26.164
G1 Z-7.2 F333.3
G2 X147.529 Y38.75 I-30.371 J-21.568 F600
G1 Z-6.45
G2 X147.529 Y32.75 I-37.129 J-3
G1 Z-7.2 F333.3
G2 X140.771 Y14.182 I-37.129 J3 F600
G1 Z-6.45
G2 X136.914 Y9.586 I-30.371 J21.568
G1 Z-7.2 F333.3
G2 X119.802 Y-0.294 I-26.514 J26.164 F600
G1 Z-6.45
G2 X113.893 Y-1.336 I-9.402 J36.044
G1 Z-7.2 F333.3
G2 X94.434 Y2.095 I-3.493 J37.086 F600
G1 Z-6.45
G2 X89.237 Y5.095 I15.966 J33.655
G1 Z-7.2 F333.3
G2 X76.536 Y20.232 I21.163 J30.655 F600
G1 Z-6.45
G2 X74.484 Y25.87 I33.864 J15.518
G1 Z-7.2 F333.3
G2 X73.271 Y32.75 I35.916 J9.88 F600
G1 Z-6.45
G2 X73.15 Y35.75 I37.129 J3
G1 Y35.885
G2 X73.271 Y38.75 I37.25 J-0.135
G1 Z-7.2 F333.3
G2 X74.484 Y45.63 I37.129 J-3 F600
G1 Z-6.45
G2 X76.536 Y51.268 I35.916 J-9.88
G1 Z-7.2 F333.3
G2 X89.237 Y66.405 I33.864 J-15.518 F600
G1 Z-6.45
G2 X94.434 Y69.405 I21.163 J-30.655
G1 Z-7.2 F333.3
G2 X110.4 Y73 I15.966 J-33.655 F600
X113.893 Y72.836 I0 J-37.25
G1 Z-6.45
G2 X119.802 Y71.794 I-3.493 J-37.086
G1 Z-7.2 F333.3
G2 X125.653 Y69.734 I-9.402 J-36.044 F600
G1 Z-6.45
G2 X130.913 Y66.843 I-15.253 J-33.984
G1 Z-7.2 F333.3
G2 X136.914 Y61.914 I-20.513 J-31.093 F600
G1 Z-6.45
G2 X140.771 Y57.318 I-26.514 J-26.164
G1 Z-7.2 F333.3
G2 X147.529 Y38.75 I-30.371 J-21.568 F600
G1 Z-6.45
G2 X147.529 Y32.75 I-37.129 J-3
G1 Z-7.2 F333.3
G2 X140.771 Y14.182 I-37.129 J3 F600
G1 Z-6.45
G2 X136.914 Y9.586 I-30.371 J21.568
G1 Z-7.2 F333.3
G2 X119.802 Y-0.294 I-26.514 J26.164 F600
G1 Z-6.45
G2 X113.893 Y-1.336 I-9.402 J36.044
G1 Z-7.2 F333.3
G2 X94.434 Y2.095 I-3.493 J37.086 F600
G1 Z-6.45
G2 X89.237 Y5.095 I15.966 J33.655
G1 Z-7.2 F333.3
G2 X76.536 Y20.232 I21.163 J30.655 F600
G1 Z-6.45
G2 X74.484 Y25.87 I33.864 J15.518
G1 Z-7.2 F333.3
G2 X73.271 Y32.75 I35.916 J9.88 F600
G1 Z-6.45
G2 X73.15 Y35.75 I37.129 J3
G1 Y35.885
G2 X73.271 Y38.75 I37.25 J-0.135
G1 Z-7.2 F333.3
G2 X74.484 Y45.63 I37.129 J-3 F600
G1 Z-6.45
G2 X76.536 Y51.268 I35.916 J-9.88
G1 Z-7.2 F333.3
G2 X78.39 Y54.802 I33.864 J-15.518 F600
G0 Z5
X104.759 Y82.348
G1 Z-3.5 F333.3
Z-7.2
G2 X103.121 Y79.832 I-32.009 J19.052 F600
G1 Z-6.45
G2 X99.264 Y75.236 I-30.371 J21.568
G1 Z-7.2 F333.3
G2 X93.731 Y70.621 I-26.514 J26.164 F600
G1 Z-6.45
G2 X88.517 Y67.652 I-20.981 J30.779
G1 Z-7.2 F333.3
G2 X82.152 Y65.356 I-15.767 J33.748 F600
G1 Z-6.45
G2 X76.243 Y64.314 I-9.402 J36.044
G1 Z-7.2 F333.3
G2 X56.784 Y67.745 I-3.493 J37.086 F600
G1 Z-6.45
G2 X51.587 Y70.745 I15.966 J33.655
G1 Z-7.2 F333.3
G2 X38.886 Y85.882 I21.163 J30.655 F600
G1 Z-6.45
G2 X36.834 Y91.52 I33.864 J15.518
G1 Z-7.2 F333.3
G2 X35.5 Y101.4 I35.916 J9.88 F600
X36.834 Y111.28 I37.25 J0
G1 Z-6.45
G2 X38.886 Y116.918 I35.916 J-9.879
G1 Z-7.2 F333.3
G2 X41.858 Y122.214 I33.864 J-15.517 F600
X51.587 Y132.055 I30.892 J-20.814
G1 Z-6.45
G2 X56.783 Y135.055 I21.163 J-30.655
G1 Z-7.2 F333.3
G2 X72.75 Y138.65 I15.966 J-33.655 F600
X76.243 Y138.486 I0 J-37.25
G1 Z-6.45
G2 X82.152 Y137.444 I-3.493 J-37.086
G1 Z-7.2 F333.3
G2 X99.264 Y127.564 I-9.402 J-36.044 F600
G1 Z-6.45
G2 X103.121 Y122.968 I-26.514 J-26.164
G1 Z-7.2 F333.3
G2 X109.879 Y104.4 I-30.371 J-21.568 F600
G1 Z-6.45
G2 X109.879 Y98.4 I-37.129 J-3
G1 Z-7.2 F333.3
G2 X103.121 Y79.832 I-37.129 J3 F600
G1 Z-6.45
G2 X99.264 Y75.236 I-30.371 J21.568
G1 Z-7.2 F333.3
G2 X93.731 Y70.621 I-26.514 J26.164 F600
G1 Z-6.45
G2 X88.517 Y67.652 I-20.981 J30.779
G1 Z-7.2 F333.3
G2 X82.152 Y65.356 I-15.767 J33.748 F600
G1 Z-6.45
G2 X76.243 Y64.314 I-9.402 J36.044
G1 Z-7.2 F333.3
G2 X56.784 Y67.745 I-3.493 J37.086 F600
G1 Z-6.45
G2 X51.587 Y70.745 I15.966 J33.655
G1 Z-7.2 F333.3
G2 X38.886 Y85.882 I21.163 J30.655 F600
G1 Z-6.45
G2 X36.834 Y91.52 I33.864 J15.518
G1 Z-7.2 F333.3
G2 X35.5 Y101.4 I35.916 J9.88 F600
X36.834 Y111.28 I37.25 J0
G1 Z-6.45
G2 X38.886 Y116.918 I35.916 J-9.879
G1 Z-7.2 F333.3
G2 X41.858 Y122.214 I33.864 J-15.517 F600
X51.587 Y132.055 I30.892 J-20.814
G1 Z-6.45
G2 X56.783 Y135.055 I21.163 J-30.655
G1 Z-7.2 F333.3
G2 X72.75 Y138.65 I15.966 J-33.655 F600
X76.243 Y138.486 I0 J-37.25
G1 Z-6.45
G2 X82.152 Y137.444 I-3.493 J-37.086
G1 Z-7.2 F333.3
G2 X99.264 Y127.564 I-9.402 J-36.044 F600
G1 Z-6.45
G2 X103.121 Y122.968 I-26.514 J-26.164
G1 Z-7.2 F333.3
G2 X109.879 Y104.4 I-30.371 J-21.568 F600
G1 Z-6.45
G2 X109.879 Y98.4 I-37.129 J-3
G1 Z-7.2 F333.3
G2 X104.759 Y82.348 I-37.129 J3 F600
G0 Z5
X115.391
G1 Z-3.5 F333.3
Z-7.2
G2 X113.536 Y85.882 I32.009 J19.052 F600
G1 Z-6.45
G2 X111.484 Y91.52 I33.864 J15.518
G1 Z-7.2 F333.3
G2 X110.271 Y98.4 I35.916 J9.88 F600
G1 Z-6.45
G2 X110.271 Y104.4 I37.129 J3
G1 Z-7.2 F333.3
G2 X111.484 Y111.28 I37.129 J-3 F600
G1 Z-6.45
G2 X113.536 Y116.918 I35.916 J-9.88
G1 Z-7.2 F333.3
G2 X126.237 Y132.055 I33.864 J-15.518 F600
G1 Z-6.45
G2 X131.433 Y135.055 I21.163 J-30.655
G1 Z-7.2 F333.3
G2 X150.893 Y138.486 I15.967 J-33.655 F600
G1 Z-6.45
G2 X156.802 Y137.444 I-3.493 J-37.086
G1 Z-7.2 F333.3
G2 X173.914 Y127.564 I-9.402 J-36.044 F600
G1 Z-6.45
G2 X177.771 Y122.968 I-26.514 J-26.164
G1 Z-7.2 F333.3
G2 X184.529 Y104.4 I-30.371 J-21.568 F600
G1 Z-6.45
G2 X184.529 Y98.4 I-37.129 J-3
G1 Z-7.2 F333.3
G2 X177.771 Y79.832 I-37.129 J3 F600
G1 Z-6.45
G2 X173.914 Y75.236 I-30.371 J21.568
G1 Z-7.2 F333.3
G2 X156.802 Y65.356 I-26.514 J26.164 F600
G1 Z-6.45
G2 X150.893 Y64.314 I-9.402 J36.044
G1 Z-7.2 F333.3
G2 X131.434 Y67.745 I-3.493 J37.086 F600
G1 Z-6.45
G2 X126.237 Y70.745 I15.966 J33.655
G1 Z-7.2 F333.3
G2 X113.536 Y85.882 I21.163 J30.655 F600
G1 Z-6.45
G2 X111.484 Y91.52 I33.864 J15.518
G1 Z-7.2 F333.3
G2 X110.271 Y98.4 I35.916 J9.88 F600
G1 Z-6.45
G2 X110.271 Y104.4 I37.129 J3
G1 Z-7.2 F333.3
G2 X111.484 Y111.28 I37.129 J-3 F600
G1 Z-6.45
G2 X113.536 Y116.918 I35.916 J-9.88
G1 Z-7.2 F333.3
G2 X126.237 Y132.055 I33.864 J-15.518 F600
G1 Z-6.45
G2 X131.433 Y135.055 I21.163 J-30.655
G1 Z-7.2 F333.3
G2 X150.893 Y138.486 I15.967 J-33.655 F600
G1 Z-6.45
G2 X156.802 Y137.444 I-3.493 J-37.086
G1 Z-7.2 F333.3
G2 X173.914 Y127.564 I-9.402 J-36.044 F600
G1 Z-6.45
G2 X177.771 Y122.968 I-26.514 J-26.164
G1 Z-7.2 F333.3
G2 X184.529 Y104.4 I-30.371 J-21.568 F600
G1 Z-6.45
G2 X184.529 Y98.4 I-37.129 J-3
G1 Z-7.2 F333.3
G2 X177.771 Y79.832 I-37.129 J3 F600
G1 Z-6.45
G2 X173.914 Y75.236 I-30.371 J21.568
G1 Z-7.2 F333.3
G2 X156.802 Y65.356 I-26.514 J26.164 F600
G1 Z-6.45
G2 X150.893 Y64.314 I-9.402 J36.044
G1 Z-7.2 F333.3
G2 X131.434 Y67.745 I-3.493 J37.086 F600
G1 Z-6.45
G2 X126.237 Y70.745 I15.966 J33.655
G1 Z-7.2 F333.3
G2 X115.391 Y82.348 I21.163 J30.655 F600
G0 Z15
M9
M5
M30
