(1001)
(Machine)
(  vendor: Autodesk)
(  description: Generic 3-axis)
(T1  D=3 CR=0 - ZMIN=-8.5 - flat end mill)
G90 G94
G17
G21

(2D Pocket6)
T1
S10000 M3
G54
M8
G0 X0.801 Y76.438
Z15
Z5
G1 Z2.5 F1000
G3 X-0.801 Y74.08 Z2.344 I-0.801 J-1.179 F333.3
X0.801 Y76.438 Z2.187 I0.801 J1.179
X-0.801 Y74.08 Z2.031 I-0.801 J-1.179
X0.801 Y76.438 Z1.875 I0.801 J1.179
X-0.801 Y74.08 Z1.718 I-0.801 J-1.179
X0.801 Y76.438 Z1.562 I0.801 J1.179
X-0.801 Y74.08 Z1.406 I-0.801 J-1.179
X0.801 Y76.438 Z1.249 I0.801 J1.179
X-0.801 Y74.08 Z1.093 I-0.801 J-1.179
X0.801 Y76.438 Z0.937 I0.801 J1.179
X-0.801 Y74.08 Z0.78 I-0.801 J-1.179
X0.801 Y76.438 Z0.624 I0.801 J1.179
X-0.801 Y74.08 Z0.468 I-0.801 J-1.179
X0.801 Y76.438 Z0.311 I0.801 J1.179
X-0.801 Y74.08 Z0.155 I-0.801 J-1.179
X0.801 Y76.438 Z-0.001 I0.801 J1.179
X-0.801 Y74.08 Z-0.158 I-0.801 J-1.179
X0.801 Y76.438 Z-0.314 I0.801 J1.179
X-0.801 Y74.08 Z-0.47 I-0.801 J-1.179
X0 Y73.834 Z-0.5 I0.801 J1.179
G1 X0.267 F1000
G3 X0.876 Y74.186 I0 J0.704
G1 X1.143 Y74.648
G3 X1.143 Y75.352 I-0.61 J0.352
G1 X0.876 Y75.814
G3 X0.267 Y76.166 I-0.61 J-0.352
G1 X-0.267
G3 X-0.876 Y75.814 I0 J-0.704
G1 X-1.143 Y75.352
G3 X-1.143 Y74.648 I0.61 J-0.352
G1 X-0.876 Y74.186
G3 X-0.267 Y73.834 I0.61 J0.352
G1 X0
G2 X1.387 Y72.866 I0 J-1.478
G3 X3.073 Y72.722 I0.876 J0.322
G1 X4.388 Y75
X2.194 Y78.8
X-2.194
X-4.388 Y75
X-2.194 Y71.2
X2.194
X3.073 Y72.722
X3.093 Y72.772
X3.099 Y72.826
X3.091 Y72.88
X3.068 Y72.929
X0.884 Y76.361
X0.86 Y76.391
X0.831 Y76.416
G3 X-0.831 Y74.102 Z-0.656 I-0.831 J-1.157 F333.3
X0.831 Y76.416 Z-0.813 I0.831 J1.157
X-0.831 Y74.102 Z-0.969 I-0.831 J-1.157
X0 Y73.834 Z-1 I0.831 J1.157
G1 X0.267 F1000
G3 X0.876 Y74.186 I0 J0.704
G1 X1.143 Y74.648
G3 X1.143 Y75.352 I-0.61 J0.352
G1 X0.876 Y75.814
G3 X0.267 Y76.166 I-0.61 J-0.352
G1 X-0.267
G3 X-0.876 Y75.814 I0 J-0.704
G1 X-1.143 Y75.352
G3 X-1.143 Y74.648 I0.61 J-0.352
G1 X-0.876 Y74.186
G3 X-0.267 Y73.834 I0.61 J0.352
G1 X0
G2 X1.387 Y72.866 I0 J-1.478
G3 X3.073 Y72.722 I0.876 J0.322
G1 X4.388 Y75
X2.194 Y78.8
X-2.194
X-4.388 Y75
X-2.194 Y71.2
X2.194
X3.073 Y72.722
X3.093 Y72.772
X3.099 Y72.826
X3.091 Y72.88
X3.068 Y72.929
X0.884 Y76.361
X0.86 Y76.391
X0.831 Y76.416
G3 X-0.831 Y74.102 Z-1.156 I-0.831 J-1.157 F333.3
X0.831 Y76.416 Z-1.313 I0.831 J1.157
X-0.831 Y74.102 Z-1.469 I-0.831 J-1.157
X0 Y73.834 Z-1.5 I0.831 J1.157
G1 X0.267 F1000
G3 X0.876 Y74.186 I0 J0.704
G1 X1.143 Y74.648
G3 X1.143 Y75.352 I-0.61 J0.352
G1 X0.876 Y75.814
G3 X0.267 Y76.166 I-0.61 J-0.352
G1 X-0.267
G3 X-0.876 Y75.814 I0 J-0.704
G1 X-1.143 Y75.352
G3 X-1.143 Y74.648 I0.61 J-0.352
G1 X-0.876 Y74.186
G3 X-0.267 Y73.834 I0.61 J0.352
G1 X0
G2 X1.387 Y72.866 I0 J-1.478
G3 X3.073 Y72.722 I0.876 J0.322
G1 X4.388 Y75
X2.194 Y78.8
X-2.194
X-4.388 Y75
X-2.194 Y71.2
X2.194
X3.073 Y72.722
X3.093 Y72.772
X3.099 Y72.826
X3.091 Y72.88
X3.068 Y72.929
X0.884 Y76.361
X0.86 Y76.391
X0.831 Y76.416
G3 X-0.831 Y74.102 Z-1.656 I-0.831 J-1.157 F333.3
X0.831 Y76.416 Z-1.813 I0.831 J1.157
X-0.831 Y74.102 Z-1.969 I-0.831 J-1.157
X0 Y73.834 Z-2 I0.831 J1.157
G1 X0.267 F1000
G3 X0.876 Y74.186 I0 J0.704
G1 X1.143 Y74.648
G3 X1.143 Y75.352 I-0.61 J0.352
G1 X0.876 Y75.814
G3 X0.267 Y76.166 I-0.61 J-0.352
G1 X-0.267
G3 X-0.876 Y75.814 I0 J-0.704
G1 X-1.143 Y75.352
G3 X-1.143 Y74.648 I0.61 J-0.352
G1 X-0.876 Y74.186
G3 X-0.267 Y73.834 I0.61 J0.352
G1 X0
G2 X1.387 Y72.866 I0 J-1.478
G3 X3.073 Y72.722 I0.876 J0.322
G1 X4.388 Y75
X2.194 Y78.8
X-2.194
X-4.388 Y75
X-2.194 Y71.2
X2.194
X3.073 Y72.722
X3.093 Y72.772
X3.099 Y72.826
X3.091 Y72.88
X3.068 Y72.929
X0.884 Y76.361
X0.86 Y76.391
X0.831 Y76.416
G3 X-0.831 Y74.102 Z-2.156 I-0.831 J-1.157 F333.3
X0.831 Y76.416 Z-2.313 I0.831 J1.157
X-0.831 Y74.102 Z-2.469 I-0.831 J-1.157
X0 Y73.834 Z-2.5 I0.831 J1.157
G1 X0.267 F1000
G3 X0.876 Y74.186 I0 J0.704
G1 X1.143 Y74.648
G3 X1.143 Y75.352 I-0.61 J0.352
G1 X0.876 Y75.814
G3 X0.267 Y76.166 I-0.61 J-0.352
G1 X-0.267
G3 X-0.876 Y75.814 I0 J-0.704
G1 X-1.143 Y75.352
G3 X-1.143 Y74.648 I0.61 J-0.352
G1 X-0.876 Y74.186
G3 X-0.267 Y73.834 I0.61 J0.352
G1 X0
G2 X1.387 Y72.866 I0 J-1.478
G3 X3.073 Y72.722 I0.876 J0.322
G1 X4.388 Y75
X2.194 Y78.8
X-2.194
X-4.388 Y75
X-2.194 Y71.2
X2.194
X3.073 Y72.722
X3.093 Y72.772
X3.099 Y72.826
X3.091 Y72.88
X3.068 Y72.929
X0.884 Y76.361
X0.86 Y76.391
X0.831 Y76.416
G3 X-0.831 Y74.102 Z-2.656 I-0.831 J-1.157 F333.3
X0.831 Y76.416 Z-2.813 I0.831 J1.157
X-0.831 Y74.102 Z-2.969 I-0.831 J-1.157
X0 Y73.834 Z-3 I0.831 J1.157
G1 X0.267 F1000
G3 X0.876 Y74.186 I0 J0.704
G1 X1.143 Y74.648
G3 X1.143 Y75.352 I-0.61 J0.352
G1 X0.876 Y75.814
G3 X0.267 Y76.166 I-0.61 J-0.352
G1 X-0.267
G3 X-0.876 Y75.814 I0 J-0.704
G1 X-1.143 Y75.352
G3 X-1.143 Y74.648 I0.61 J-0.352
G1 X-0.876 Y74.186
G3 X-0.267 Y73.834 I0.61 J0.352
G1 X0
G2 X1.387 Y72.866 I0 J-1.478
G3 X3.073 Y72.722 I0.876 J0.322
G1 X4.388 Y75
X2.194 Y78.8
X-2.194
X-4.388 Y75
X-2.194 Y71.2
X2.194
X3.073 Y72.722
X3.093 Y72.772
X3.099 Y72.826
X3.091 Y72.88
X3.068 Y72.929
X0.884 Y76.361
X0.86 Y76.391
X0.831 Y76.416
G3 X-0.831 Y74.102 Z-3.156 I-0.831 J-1.157 F333.3
X0.831 Y76.416 Z-3.313 I0.831 J1.157
X-0.831 Y74.102 Z-3.469 I-0.831 J-1.157
X0 Y73.834 Z-3.5 I0.831 J1.157
G1 X0.267 F1000
G3 X0.876 Y74.186 I0 J0.704
G1 X1.143 Y74.648
G3 X1.143 Y75.352 I-0.61 J0.352
G1 X0.876 Y75.814
G3 X0.267 Y76.166 I-0.61 J-0.352
G1 X-0.267
G3 X-0.876 Y75.814 I0 J-0.704
G1 X-1.143 Y75.352
G3 X-1.143 Y74.648 I0.61 J-0.352
G1 X-0.876 Y74.186
G3 X-0.267 Y73.834 I0.61 J0.352
G1 X0
G2 X1.387 Y72.866 I0 J-1.478
G3 X3.073 Y72.722 I0.876 J0.322
G1 X4.388 Y75
X2.194 Y78.8
X-2.194
X-4.388 Y75
X-2.194 Y71.2
X2.194
X3.073 Y72.722
X3.093 Y72.772
X3.099 Y72.826
X3.091 Y72.88
X3.068 Y72.929
X0.884 Y76.361
X0.86 Y76.391
X0.831 Y76.416
G3 X-0.831 Y74.102 Z-3.656 I-0.831 J-1.157 F333.3
X0.831 Y76.416 Z-3.813 I0.831 J1.157
X-0.831 Y74.102 Z-3.969 I-0.831 J-1.157
X0 Y73.834 Z-4 I0.831 J1.157
G1 X0.267 F1000
G3 X0.876 Y74.186 I0 J0.704
G1 X1.143 Y74.648
G3 X1.143 Y75.352 I-0.61 J0.352
G1 X0.876 Y75.814
G3 X0.267 Y76.166 I-0.61 J-0.352
G1 X-0.267
G3 X-0.876 Y75.814 I0 J-0.704
G1 X-1.143 Y75.352
G3 X-1.143 Y74.648 I0.61 J-0.352
G1 X-0.876 Y74.186
G3 X-0.267 Y73.834 I0.61 J0.352
G1 X0
G2 X1.387 Y72.866 I0 J-1.478
G3 X3.073 Y72.722 I0.876 J0.322
G1 X4.388 Y75
X2.194 Y78.8
X-2.194
X-4.388 Y75
X-2.194 Y71.2
X2.194
X3.073 Y72.722
X3.093 Y72.772
X3.099 Y72.826
X3.091 Y72.88
X3.068 Y72.929
X0.884 Y76.361
X0.86 Y76.391
X0.831 Y76.416
G3 X-0.831 Y74.102 Z-4.156 I-0.831 J-1.157 F333.3
X0.831 Y76.416 Z-4.313 I0.831 J1.157
X-0.831 Y74.102 Z-4.469 I-0.831 J-1.157
X0 Y73.834 Z-4.5 I0.831 J1.157
G1 X0.267 F1000
G3 X0.876 Y74.186 I0 J0.704
G1 X1.143 Y74.648
G3 X1.143 Y75.352 I-0.61 J0.352
G1 X0.876 Y75.814
G3 X0.267 Y76.166 I-0.61 J-0.352
G1 X-0.267
G3 X-0.876 Y75.814 I0 J-0.704
G1 X-1.143 Y75.352
G3 X-1.143 Y74.648 I0.61 J-0.352
G1 X-0.876 Y74.186
G3 X-0.267 Y73.834 I0.61 J0.352
G1 X0
G2 X1.387 Y72.866 I0 J-1.478
G3 X3.073 Y72.722 I0.876 J0.322
G1 X4.388 Y75
X2.194 Y78.8
X-2.194
X-4.388 Y75
X-2.194 Y71.2
X2.194
X3.073 Y72.722
G3 X2.879 Y73.354 I-0.392 J0.226
G1 X1.029 Y74.257
X0.969 Y74.292
X0.915 Y74.336
X-0.651 Y75.771
G3 X-1.401 Y75.52 I-0.306 J-0.333
X1.401 Y74.998 Z-4.656 I1.401 J-0.261 F333.3
X-1.401 Y75.52 Z-4.813 I-1.401 J0.261
X0 Y73.834 Z-4.9 I1.401 J-0.261
G1 X0.267 F1000
G3 X0.876 Y74.186 I0 J0.704
G1 X1.143 Y74.648
G3 X1.143 Y75.352 I-0.61 J0.352
G1 X0.876 Y75.814
G3 X0.267 Y76.166 I-0.61 J-0.352
G1 X-0.267
G3 X-0.876 Y75.814 I0 J-0.704
G1 X-1.143 Y75.352
G3 X-1.143 Y74.648 I0.61 J-0.352
G1 X-0.876 Y74.186
G3 X-0.267 Y73.834 I0.61 J0.352
G1 X0
G2 X1.387 Y72.866 I0 J-1.478
G3 X3.073 Y72.722 I0.876 J0.322
G1 X4.388 Y75
X2.194 Y78.8
X-2.194
X-4.388 Y75
X-2.194 Y71.2
X2.194
X3.073 Y72.722
G0 Z15
X-0.48 Y75.64
Z5
G1 Z2.5 F1000
Z-0.5 F333.3
G3 X0.48 Y74.36 I0.48 J-0.64 F1000
X-0.48 Y75.64 I-0.48 J0.64
X0.48 Y74.36 Z-0.588 I0.48 J-0.64 F333.3
X-0.48 Y75.64 Z-0.676 I-0.48 J0.64
X0.48 Y74.36 Z-0.763 I0.48 J-0.64
X-0.48 Y75.64 Z-0.851 I-0.48 J0.64
X0.48 Y74.36 Z-0.939 I0.48 J-0.64
X0.243 Y75.762 Z-1 I-0.48 J0.64
X-0.243 Y74.238 I-0.243 J-0.762 F1000
X0.243 Y75.762 I0.243 J0.762
X-0.243 Y74.238 Z-1.088 I-0.243 J-0.762 F333.3
X0.243 Y75.762 Z-1.176 I0.243 J0.762
X-0.243 Y74.238 Z-1.263 I-0.243 J-0.762
X0.243 Y75.762 Z-1.351 I0.243 J0.762
X-0.243 Y74.238 Z-1.439 I-0.243 J-0.762
X0.762 Y75.244 Z-1.5 I0.243 J0.762
X-0.762 Y74.756 I-0.762 J-0.244 F1000
X0.762 Y75.244 I0.762 J0.244
X-0.762 Y74.756 Z-1.588 I-0.762 J-0.244 F333.3
X0.762 Y75.244 Z-1.676 I0.762 J0.244
X-0.762 Y74.756 Z-1.763 I-0.762 J-0.244
X0.762 Y75.244 Z-1.851 I0.762 J0.244
X-0.762 Y74.756 Z-1.939 I-0.762 J-0.244
X0.641 Y74.521 Z-2 I0.762 J0.244
X-0.641 Y75.479 I-0.641 J0.479 F1000
X0.641 Y74.521 I0.641 J-0.479
X-0.641 Y75.479 Z-2.088 I-0.641 J0.479 F333.3
X0.641 Y74.521 Z-2.176 I0.641 J-0.479
X-0.641 Y75.479 Z-2.263 I-0.641 J0.479
X0.641 Y74.521 Z-2.351 I0.641 J-0.479
X-0.641 Y75.479 Z-2.439 I-0.641 J0.479
X-0.018 Y74.2 Z-2.5 I0.641 J-0.479
X0.018 Y75.8 I0.018 J0.8 F1000
X-0.018 Y74.2 I-0.018 J-0.8
X0.018 Y75.8 Z-2.588 I0.018 J0.8 F333.3
X-0.018 Y74.2 Z-2.676 I-0.018 J-0.8
X0.018 Y75.8 Z-2.763 I0.018 J0.8
X-0.018 Y74.2 Z-2.851 I-0.018 J-0.8
X0.018 Y75.8 Z-2.939 I0.018 J0.8
X-0.662 Y74.551 Z-3 I-0.018 J-0.8
X0.662 Y75.449 I0.662 J0.449 F1000
X-0.662 Y74.551 I-0.662 J-0.449
X0.662 Y75.449 Z-3.088 I0.662 J0.449 F333.3
X-0.662 Y74.551 Z-3.176 I-0.662 J-0.449
X0.662 Y75.449 Z-3.263 I0.662 J0.449
X-0.662 Y74.551 Z-3.351 I-0.662 J-0.449
X0.662 Y75.449 Z-3.439 I0.662 J0.449
X-0.75 Y75.278 Z-3.5 I-0.662 J-0.449
X0.75 Y74.722 I0.75 J-0.278 F1000
X-0.75 Y75.278 I-0.75 J0.278
X0.75 Y74.722 Z-3.588 I0.75 J-0.278 F333.3
X-0.75 Y75.278 Z-3.676 I-0.75 J0.278
X0.75 Y74.722 Z-3.763 I0.75 J-0.278
X-0.75 Y75.278 Z-3.851 I-0.75 J0.278
X0.75 Y74.722 Z-3.939 I0.75 J-0.278
X-0.208 Y75.772 Z-4 I-0.75 J0.278
X0.208 Y74.228 I0.208 J-0.772 F1000
X-0.208 Y75.772 I-0.208 J0.772
X0.208 Y74.228 Z-4.088 I0.208 J-0.772 F333.3
X-0.208 Y75.772 Z-4.176 I-0.208 J0.772
X0.208 Y74.228 Z-4.263 I0.208 J-0.772
X-0.208 Y75.772 Z-4.351 I-0.208 J0.772
X0.208 Y74.228 Z-4.439 I0.208 J-0.772
X0.508 Y75.618 Z-4.5 I-0.208 J0.772
X-0.508 Y74.382 I-0.508 J-0.618 F1000
X0.508 Y75.618 I0.508 J0.618
X-0.508 Y74.382 Z-4.588 I-0.508 J-0.618 F333.3
X0.508 Y75.618 Z-4.676 I0.508 J0.618
X-0.508 Y74.382 Z-4.763 I-0.508 J-0.618
X0.508 Y75.618 Z-4.851 I0.508 J0.618
X-0.508 Y74.382 Z-4.939 I-0.508 J-0.618
X0.798 Y74.944 Z-5 I0.508 J0.618
X-0.798 Y75.056 I-0.798 J0.056 F1000
X0.798 Y74.944 I0.798 J-0.056
X-0.798 Y75.056 Z-5.088 I-0.798 J0.056 F333.3
X0.798 Y74.944 Z-5.176 I0.798 J-0.056
X-0.798 Y75.056 Z-5.263 I-0.798 J0.056
X0.798 Y74.944 Z-5.351 I0.798 J-0.056
X-0.798 Y75.056 Z-5.439 I-0.798 J0.056
X0.418 Y74.318 Z-5.5 I0.798 J-0.056
X-0.418 Y75.682 I-0.418 J0.682 F1000
X0.418 Y74.318 I0.418 J-0.682
X-0.418 Y75.682 Z-5.588 I-0.418 J0.682 F333.3
X0.418 Y74.318 Z-5.676 I0.418 J-0.682
X-0.418 Y75.682 Z-5.763 I-0.418 J0.682
X0.418 Y74.318 Z-5.851 I0.418 J-0.682
X-0.418 Y75.682 Z-5.939 I-0.418 J0.682
X-0.313 Y74.264 Z-6 I0.418 J-0.682
X0.313 Y75.736 I0.313 J0.736 F1000
X-0.313 Y74.264 I-0.313 J-0.736
X0.313 Y75.736 Z-6.088 I0.313 J0.736 F333.3
X-0.313 Y74.264 Z-6.176 I-0.313 J-0.736
X0.313 Y75.736 Z-6.263 I0.313 J0.736
X-0.313 Y74.264 Z-6.351 I-0.313 J-0.736
X0.313 Y75.736 Z-6.439 I0.313 J0.736
X-0.781 Y74.828 Z-6.5 I-0.313 J-0.736
X0.781 Y75.172 I0.781 J0.172 F1000
X-0.781 Y74.828 I-0.781 J-0.172
X0.781 Y75.172 Z-6.588 I0.781 J0.172 F333.3
X-0.781 Y74.828 Z-6.676 I-0.781 J-0.172
X0.781 Y75.172 Z-6.763 I0.781 J0.172
X-0.781 Y74.828 Z-6.851 I-0.781 J-0.172
X0.781 Y75.172 Z-6.939 I0.781 J0.172
X-0.593 Y75.537 Z-7 I-0.781 J-0.172
X0.593 Y74.463 I0.593 J-0.537 F1000
X-0.593 Y75.537 I-0.593 J0.537
X0.593 Y74.463 Z-7.088 I0.593 J-0.537 F333.3
X-0.593 Y75.537 Z-7.176 I-0.593 J0.537
X0.593 Y74.463 Z-7.263 I0.593 J-0.537
X-0.593 Y75.537 Z-7.351 I-0.593 J0.537
X0.593 Y74.463 Z-7.439 I0.593 J-0.537
X0.093 Y75.795 Z-7.5 I-0.593 J0.537
X-0.093 Y74.205 I-0.093 J-0.795 F1000
X0.093 Y75.795 I0.093 J0.795
X-0.093 Y74.205 Z-7.588 I-0.093 J-0.795 F333.3
X0.093 Y75.795 Z-7.676 I0.093 J0.795
X-0.093 Y74.205 Z-7.763 I-0.093 J-0.795
X0.093 Y75.795 Z-7.851 I0.093 J0.795
X-0.093 Y74.205 Z-7.939 I-0.093 J-0.795
X0.701 Y75.385 Z-8 I0.093 J0.795
X-0.701 Y74.615 I-0.701 J-0.385 F1000
X0.701 Y75.385 I0.701 J0.385
X-0.701 Y74.615 Z-8.088 I-0.701 J-0.385 F333.3
X0.701 Y75.385 Z-8.176 I0.701 J0.385
X-0.701 Y74.615 Z-8.263 I-0.701 J-0.385
X0.701 Y75.385 Z-8.351 I0.701 J0.385
X-0.701 Y74.615 Z-8.439 I-0.701 J-0.385
X0.72 Y74.652 Z-8.5 I0.701 J0.385
X-0.72 Y75.348 I-0.72 J0.348 F1000
X0.72 Y74.652 I0.72 J-0.348
G0 Z15

(2D Contour8)
X0 Y-1.5
Z15
Z5
G1 Z-0.5 F333.3
G2 X0 Y151.5 I0 J76.5 F1000
X0 Y-1.5 I0 J-76.5
G1 Z-1 F333.3
G2 X0 Y151.5 I0 J76.5 F1000
X0 Y-1.5 I0 J-76.5
G1 Z-1.5 F333.3
G2 X0 Y151.5 I0 J76.5 F1000
X0 Y-1.5 I0 J-76.5
G1 Z-2 F333.3
G2 X0 Y151.5 I0 J76.5 F1000
X0 Y-1.5 I0 J-76.5
G1 Z-2.5 F333.3
G2 X0 Y151.5 I0 J76.5 F1000
X0 Y-1.5 I0 J-76.5
G1 Z-3 F333.3
G2 X0 Y151.5 I0 J76.5 F1000
X0 Y-1.5 I0 J-76.5
G1 Z-3.5 F333.3
G2 X0 Y151.5 I0 J76.5 F1000
X0 Y-1.5 I0 J-76.5
G1 Z-4 F333.3
G2 X0 Y151.5 I0 J76.5 F1000
X0 Y-1.5 I0 J-76.5
G1 Z-4.5 F333.3
G2 X0 Y151.5 I0 J76.5 F1000
X0 Y-1.5 I0 J-76.5
G1 Z-5 F333.3
G2 X0 Y151.5 I0 J76.5 F1000
X0 Y-1.5 I0 J-76.5
G1 Z-5.5 F333.3
G2 X0 Y151.5 I0 J76.5 F1000
X0 Y-1.5 I0 J-76.5
G1 Z-6 F333.3
G2 X0 Y151.5 I0 J76.5 F1000
X0 Y-1.5 I0 J-76.5
G1 Z-6.5 F333.3
G2 X0 Y151.5 I0 J76.5 F1000
X0 Y-1.5 I0 J-76.5
G1 Z-7 F333.3
G2 X0 Y151.5 I0 J76.5 F1000
X0 Y-1.5 I0 J-76.5
G1 Z-7.5 F333.3
G2 X0 Y151.5 I0 J76.5 F1000
X0 Y-1.5 I0 J-76.5
G1 Z-8 F333.3
G2 X0 Y151.5 I0 J76.5 F1000
X0 Y-1.5 I0 J-76.5
G1 Z-8.5 F333.3
G2 X0 Y151.5 I0 J76.5 F1000
X0 Y-1.5 I0 J-76.5
G0 Z15
M9
M5
M30
