(1001)
(T4  D=3 CR=0 - ZMIN=-10 - flat end mill)
G90 G94
G17
G21

(2D Pocket1)
T4
S15000 M3
G54
M8
G0 X185.579 Y108.2
Z15
Z5
G1 Z2.5 F700
G3 X183.271 Y106.528 Z1.711 I-1.154 J-0.836 F333.3
X185.579 Y108.2 Z0.921 I1.154 J0.836
X183.271 Y106.528 Z0.132 I-1.154 J-0.836
X185.85 Y107.364 Z-0.5 I1.154 J0.836
X185.45 Y107.364 I-0.2 J0 F700
X188.7 Y107.364 I1.625 J0
X182.6 Y107.364 I-3.05 J0
X191.55 Y107.364 I4.475 J0
X179.75 Y107.364 I-5.9 J0
X194.4 Y107.364 I7.325 J0
X176.9 Y107.364 I-8.75 J0
X194.4 Y107.364 I8.75 J0
X192.262 Y108.598 Z-0.637 I-1.425 J0 F333.3
G1 X187.988 Y106.13 Z-0.863
G2 X185.85 Y107.364 Z-1 I-0.713 J1.234
G3 X185.45 Y107.364 I-0.2 J0 F700
X188.7 Y107.364 I1.625 J0
X182.6 Y107.364 I-3.05 J0
X191.55 Y107.364 I4.475 J0
X179.75 Y107.364 I-5.9 J0
X194.4 Y107.364 I7.325 J0
X176.9 Y107.364 I-8.75 J0
X194.4 Y107.364 I8.75 J0
X192.262 Y108.598 Z-1.137 I-1.425 J0 F333.3
G1 X187.988 Y106.13 Z-1.363
G2 X185.85 Y107.364 Z-1.5 I-0.713 J1.234
G3 X185.45 Y107.364 I-0.2 J0 F700
X188.7 Y107.364 I1.625 J0
X182.6 Y107.364 I-3.05 J0
X191.55 Y107.364 I4.475 J0
X179.75 Y107.364 I-5.9 J0
X194.4 Y107.364 I7.325 J0
X176.9 Y107.364 I-8.75 J0
X194.4 Y107.364 I8.75 J0
X192.262 Y108.598 Z-1.637 I-1.425 J0 F333.3
G1 X187.988 Y106.13 Z-1.863
G2 X185.85 Y107.364 Z-2 I-0.713 J1.234
G3 X185.45 Y107.364 I-0.2 J0 F700
X188.7 Y107.364 I1.625 J0
X182.6 Y107.364 I-3.05 J0
X191.55 Y107.364 I4.475 J0
X179.75 Y107.364 I-5.9 J0
X194.4 Y107.364 I7.325 J0
X176.9 Y107.364 I-8.75 J0
X194.4 Y107.364 I8.75 J0
X192.262 Y108.598 Z-2.137 I-1.425 J0 F333.3
G1 X187.988 Y106.13 Z-2.363
G2 X185.85 Y107.364 Z-2.5 I-0.713 J1.234
G3 X185.45 Y107.364 I-0.2 J0 F700
X188.7 Y107.364 I1.625 J0
X182.6 Y107.364 I-3.05 J0
X191.55 Y107.364 I4.475 J0
X179.75 Y107.364 I-5.9 J0
X194.4 Y107.364 I7.325 J0
X176.9 Y107.364 I-8.75 J0
X194.4 Y107.364 I8.75 J0
X192.262 Y108.598 Z-2.637 I-1.425 J0 F333.3
G1 X187.988 Y106.13 Z-2.863
G2 X185.85 Y107.364 Z-3 I-0.713 J1.234
G3 X185.45 Y107.364 I-0.2 J0 F700
X188.7 Y107.364 I1.625 J0
X182.6 Y107.364 I-3.05 J0
X191.55 Y107.364 I4.475 J0
X179.75 Y107.364 I-5.9 J0
X194.4 Y107.364 I7.325 J0
X176.9 Y107.364 I-8.75 J0
X194.4 Y107.364 I8.75 J0
X192.262 Y108.598 Z-3.137 I-1.425 J0 F333.3
G1 X187.988 Y106.13 Z-3.363
G2 X185.85 Y107.364 Z-3.5 I-0.713 J1.234
G3 X185.45 Y107.364 I-0.2 J0 F700
X188.7 Y107.364 I1.625 J0
X182.6 Y107.364 I-3.05 J0
X191.55 Y107.364 I4.475 J0
X179.75 Y107.364 I-5.9 J0
X194.4 Y107.364 I7.325 J0
X176.9 Y107.364 I-8.75 J0
X194.4 Y107.364 I8.75 J0
X192.262 Y108.598 Z-3.637 I-1.425 J0 F333.3
G1 X187.988 Y106.13 Z-3.863
G2 X185.85 Y107.364 Z-4 I-0.713 J1.234
G3 X185.45 Y107.364 I-0.2 J0 F700
X188.7 Y107.364 I1.625 J0
X182.6 Y107.364 I-3.05 J0
X191.55 Y107.364 I4.475 J0
X179.75 Y107.364 I-5.9 J0
X194.4 Y107.364 I7.325 J0
X176.9 Y107.364 I-8.75 J0
X194.4 Y107.364 I8.75 J0
X192.262 Y108.598 Z-4.137 I-1.425 J0 F333.3
G1 X187.988 Y106.13 Z-4.363
G2 X185.85 Y107.364 Z-4.5 I-0.713 J1.234
G3 X185.45 Y107.364 I-0.2 J0 F700
X188.7 Y107.364 I1.625 J0
X182.6 Y107.364 I-3.05 J0
X191.55 Y107.364 I4.475 J0
X179.75 Y107.364 I-5.9 J0
X194.4 Y107.364 I7.325 J0
X176.9 Y107.364 I-8.75 J0
X194.4 Y107.364 I8.75 J0
X192.262 Y108.598 Z-4.637 I-1.425 J0 F333.3
G1 X187.988 Y106.13 Z-4.863
G2 X185.85 Y107.364 Z-5 I-0.713 J1.234
G3 X185.45 Y107.364 I-0.2 J0 F700
X188.7 Y107.364 I1.625 J0
X182.6 Y107.364 I-3.05 J0
X191.55 Y107.364 I4.475 J0
X179.75 Y107.364 I-5.9 J0
X194.4 Y107.364 I7.325 J0
X176.9 Y107.364 I-8.75 J0
X194.4 Y107.364 I8.75 J0
X192.262 Y108.598 Z-5.137 I-1.425 J0 F333.3
G1 X187.988 Y106.13 Z-5.363
G2 X185.85 Y107.364 Z-5.5 I-0.713 J1.234
G3 X185.45 Y107.364 I-0.2 J0 F700
X188.7 Y107.364 I1.625 J0
X182.6 Y107.364 I-3.05 J0
X191.55 Y107.364 I4.475 J0
X179.75 Y107.364 I-5.9 J0
X194.4 Y107.364 I7.325 J0
X176.9 Y107.364 I-8.75 J0
X194.4 Y107.364 I8.75 J0
X192.262 Y108.598 Z-5.637 I-1.425 J0 F333.3
G1 X187.988 Y106.13 Z-5.863
G2 X185.85 Y107.364 Z-6 I-0.713 J1.234
G3 X185.45 Y107.364 I-0.2 J0 F700
X188.7 Y107.364 I1.625 J0
X182.6 Y107.364 I-3.05 J0
X191.55 Y107.364 I4.475 J0
X179.75 Y107.364 I-5.9 J0
X194.4 Y107.364 I7.325 J0
X176.9 Y107.364 I-8.75 J0
X194.4 Y107.364 I8.75 J0
X192.262 Y108.598 Z-6.137 I-1.425 J0 F333.3
G1 X187.988 Y106.13 Z-6.363
G2 X185.85 Y107.364 Z-6.5 I-0.713 J1.234
G3 X185.45 Y107.364 I-0.2 J0 F700
X188.7 Y107.364 I1.625 J0
X182.6 Y107.364 I-3.05 J0
X191.55 Y107.364 I4.475 J0
X179.75 Y107.364 I-5.9 J0
X194.4 Y107.364 I7.325 J0
X176.9 Y107.364 I-8.75 J0
X194.4 Y107.364 I8.75 J0
X192.262 Y108.598 Z-6.637 I-1.425 J0 F333.3
G1 X187.988 Y106.13 Z-6.863
G2 X185.85 Y107.364 Z-7 I-0.713 J1.234
G3 X185.45 Y107.364 I-0.2 J0 F700
X188.7 Y107.364 I1.625 J0
X182.6 Y107.364 I-3.05 J0
X191.55 Y107.364 I4.475 J0
X179.75 Y107.364 I-5.9 J0
X194.4 Y107.364 I7.325 J0
X176.9 Y107.364 I-8.75 J0
X194.4 Y107.364 I8.75 J0
X192.262 Y108.598 Z-7.137 I-1.425 J0 F333.3
G1 X187.988 Y106.13 Z-7.363
G2 X185.85 Y107.364 Z-7.5 I-0.713 J1.234
G3 X185.45 Y107.364 I-0.2 J0 F700
X188.7 Y107.364 I1.625 J0
X182.6 Y107.364 I-3.05 J0
X191.55 Y107.364 I4.475 J0
X179.75 Y107.364 I-5.9 J0
X194.4 Y107.364 I7.325 J0
X176.9 Y107.364 I-8.75 J0
X194.4 Y107.364 I8.75 J0
X192.262 Y108.598 Z-7.637 I-1.425 J0 F333.3
G1 X187.988 Y106.13 Z-7.863
G2 X185.85 Y107.364 Z-8 I-0.713 J1.234
G3 X185.45 Y107.364 I-0.2 J0 F700
X188.7 Y107.364 I1.625 J0
X182.6 Y107.364 I-3.05 J0
X191.55 Y107.364 I4.475 J0
X179.75 Y107.364 I-5.9 J0
X194.4 Y107.364 I7.325 J0
X176.9 Y107.364 I-8.75 J0
X194.4 Y107.364 I8.75 J0
G0 Z15
X13.08 Y43.199
Z5
G1 Z2.5 F700
G3 X10.771 Y41.528 Z1.711 I-1.154 J-0.836 F333.3
X13.08 Y43.199 Z0.921 I1.154 J0.836
X10.771 Y41.528 Z0.132 I-1.154 J-0.836
X13.351 Y42.364 Z-0.5 I1.154 J0.836
X12.95 Y42.364 I-0.2 J0 F700
X16.201 Y42.364 I1.625 J0
X10.1 Y42.364 I-3.05 J0
X19.051 Y42.364 I4.475 J0
X7.25 Y42.364 I-5.9 J0
X21.9 Y42.364 I7.325 J0
X4.4 Y42.364 I-8.75 J0
X21.9 Y42.364 I8.75 J0
X19.763 Y43.598 Z-0.637 I-1.425 J0 F333.3
G1 X15.488 Y41.13 Z-0.863
G2 X13.351 Y42.364 Z-1 I-0.712 J1.234
G3 X12.95 Y42.364 I-0.2 J0 F700
X16.201 Y42.364 I1.625 J0
X10.1 Y42.364 I-3.05 J0
X19.051 Y42.364 I4.475 J0
X7.25 Y42.364 I-5.9 J0
X21.9 Y42.364 I7.325 J0
X4.4 Y42.364 I-8.75 J0
X21.9 Y42.364 I8.75 J0
X19.763 Y43.598 Z-1.137 I-1.425 J0 F333.3
G1 X15.488 Y41.13 Z-1.363
G2 X13.351 Y42.364 Z-1.5 I-0.712 J1.234
G3 X12.95 Y42.364 I-0.2 J0 F700
X16.201 Y42.364 I1.625 J0
X10.1 Y42.364 I-3.05 J0
X19.051 Y42.364 I4.475 J0
X7.25 Y42.364 I-5.9 J0
X21.9 Y42.364 I7.325 J0
X4.4 Y42.364 I-8.75 J0
X21.9 Y42.364 I8.75 J0
X19.763 Y43.598 Z-1.637 I-1.425 J0 F333.3
G1 X15.488 Y41.13 Z-1.863
G2 X13.351 Y42.364 Z-2 I-0.712 J1.234
G3 X12.95 Y42.364 I-0.2 J0 F700
X16.201 Y42.364 I1.625 J0
X10.1 Y42.364 I-3.05 J0
X19.051 Y42.364 I4.475 J0
X7.25 Y42.364 I-5.9 J0
X21.9 Y42.364 I7.325 J0
X4.4 Y42.364 I-8.75 J0
X21.9 Y42.364 I8.75 J0
X19.763 Y43.598 Z-2.137 I-1.425 J0 F333.3
G1 X15.488 Y41.13 Z-2.363
G2 X13.351 Y42.364 Z-2.5 I-0.712 J1.234
G3 X12.95 Y42.364 I-0.2 J0 F700
X16.201 Y42.364 I1.625 J0
X10.1 Y42.364 I-3.05 J0
X19.051 Y42.364 I4.475 J0
X7.25 Y42.364 I-5.9 J0
X21.9 Y42.364 I7.325 J0
X4.4 Y42.364 I-8.75 J0
X21.9 Y42.364 I8.75 J0
X19.763 Y43.598 Z-2.637 I-1.425 J0 F333.3
G1 X15.488 Y41.13 Z-2.863
G2 X13.351 Y42.364 Z-3 I-0.712 J1.234
G3 X12.95 Y42.364 I-0.2 J0 F700
X16.201 Y42.364 I1.625 J0
X10.1 Y42.364 I-3.05 J0
X19.051 Y42.364 I4.475 J0
X7.25 Y42.364 I-5.9 J0
X21.9 Y42.364 I7.325 J0
X4.4 Y42.364 I-8.75 J0
X21.9 Y42.364 I8.75 J0
X19.763 Y43.598 Z-3.137 I-1.425 J0 F333.3
G1 X15.488 Y41.13 Z-3.363
G2 X13.351 Y42.364 Z-3.5 I-0.712 J1.234
G3 X12.95 Y42.364 I-0.2 J0 F700
X16.201 Y42.364 I1.625 J0
X10.1 Y42.364 I-3.05 J0
X19.051 Y42.364 I4.475 J0
X7.25 Y42.364 I-5.9 J0
X21.9 Y42.364 I7.325 J0
X4.4 Y42.364 I-8.75 J0
X21.9 Y42.364 I8.75 J0
X19.763 Y43.598 Z-3.637 I-1.425 J0 F333.3
G1 X15.488 Y41.13 Z-3.863
G2 X13.351 Y42.364 Z-4 I-0.712 J1.234
G3 X12.95 Y42.364 I-0.2 J0 F700
X16.201 Y42.364 I1.625 J0
X10.1 Y42.364 I-3.05 J0
X19.051 Y42.364 I4.475 J0
X7.25 Y42.364 I-5.9 J0
X21.9 Y42.364 I7.325 J0
X4.4 Y42.364 I-8.75 J0
X21.9 Y42.364 I8.75 J0
X19.763 Y43.598 Z-4.137 I-1.425 J0 F333.3
G1 X15.488 Y41.13 Z-4.363
G2 X13.351 Y42.364 Z-4.5 I-0.712 J1.234
G3 X12.95 Y42.364 I-0.2 J0 F700
X16.201 Y42.364 I1.625 J0
X10.1 Y42.364 I-3.05 J0
X19.051 Y42.364 I4.475 J0
X7.25 Y42.364 I-5.9 J0
X21.9 Y42.364 I7.325 J0
X4.4 Y42.364 I-8.75 J0
X21.9 Y42.364 I8.75 J0
X19.763 Y43.598 Z-4.637 I-1.425 J0 F333.3
G1 X15.488 Y41.13 Z-4.863
G2 X13.351 Y42.364 Z-5 I-0.712 J1.234
G3 X12.95 Y42.364 I-0.2 J0 F700
X16.201 Y42.364 I1.625 J0
X10.1 Y42.364 I-3.05 J0
X19.051 Y42.364 I4.475 J0
X7.25 Y42.364 I-5.9 J0
X21.9 Y42.364 I7.325 J0
X4.4 Y42.364 I-8.75 J0
X21.9 Y42.364 I8.75 J0
X19.763 Y43.598 Z-5.137 I-1.425 J0 F333.3
G1 X15.488 Y41.13 Z-5.363
G2 X13.351 Y42.364 Z-5.5 I-0.712 J1.234
G3 X12.95 Y42.364 I-0.2 J0 F700
X16.201 Y42.364 I1.625 J0
X10.1 Y42.364 I-3.05 J0
X19.051 Y42.364 I4.475 J0
X7.25 Y42.364 I-5.9 J0
X21.9 Y42.364 I7.325 J0
X4.4 Y42.364 I-8.75 J0
X21.9 Y42.364 I8.75 J0
X19.763 Y43.598 Z-5.637 I-1.425 J0 F333.3
G1 X15.488 Y41.13 Z-5.863
G2 X13.351 Y42.364 Z-6 I-0.712 J1.234
G3 X12.95 Y42.364 I-0.2 J0 F700
X16.201 Y42.364 I1.625 J0
X10.1 Y42.364 I-3.05 J0
X19.051 Y42.364 I4.475 J0
X7.25 Y42.364 I-5.9 J0
X21.9 Y42.364 I7.325 J0
X4.4 Y42.364 I-8.75 J0
X21.9 Y42.364 I8.75 J0
X19.763 Y43.598 Z-6.137 I-1.425 J0 F333.3
G1 X15.488 Y41.13 Z-6.363
G2 X13.351 Y42.364 Z-6.5 I-0.712 J1.234
G3 X12.95 Y42.364 I-0.2 J0 F700
X16.201 Y42.364 I1.625 J0
X10.1 Y42.364 I-3.05 J0
X19.051 Y42.364 I4.475 J0
X7.25 Y42.364 I-5.9 J0
X21.9 Y42.364 I7.325 J0
X4.4 Y42.364 I-8.75 J0
X21.9 Y42.364 I8.75 J0
X19.763 Y43.598 Z-6.637 I-1.425 J0 F333.3
G1 X15.488 Y41.13 Z-6.863
G2 X13.351 Y42.364 Z-7 I-0.712 J1.234
G3 X12.95 Y42.364 I-0.2 J0 F700
X16.201 Y42.364 I1.625 J0
X10.1 Y42.364 I-3.05 J0
X19.051 Y42.364 I4.475 J0
X7.25 Y42.364 I-5.9 J0
X21.9 Y42.364 I7.325 J0
X4.4 Y42.364 I-8.75 J0
X21.9 Y42.364 I8.75 J0
X19.763 Y43.598 Z-7.137 I-1.425 J0 F333.3
G1 X15.488 Y41.13 Z-7.363
G2 X13.351 Y42.364 Z-7.5 I-0.712 J1.234
G3 X12.95 Y42.364 I-0.2 J0 F700
X16.201 Y42.364 I1.625 J0
X10.1 Y42.364 I-3.05 J0
X19.051 Y42.364 I4.475 J0
X7.25 Y42.364 I-5.9 J0
X21.9 Y42.364 I7.325 J0
X4.4 Y42.364 I-8.75 J0
X21.9 Y42.364 I8.75 J0
X19.763 Y43.598 Z-7.637 I-1.425 J0 F333.3
G1 X15.488 Y41.13 Z-7.863
G2 X13.351 Y42.364 Z-8 I-0.712 J1.234
G3 X12.95 Y42.364 I-0.2 J0 F700
X16.201 Y42.364 I1.625 J0
X10.1 Y42.364 I-3.05 J0
X19.051 Y42.364 I4.475 J0
X7.25 Y42.364 I-5.9 J0
X21.9 Y42.364 I7.325 J0
X4.4 Y42.364 I-8.75 J0
X21.9 Y42.364 I8.75 J0
G0 Z15
X90.029 Y75.836
Z5
G1 Z2.5 F700
G3 X87.721 Y74.164 Z1.711 I-1.154 J-0.836 F333.3
X90.029 Y75.836 Z0.921 I1.154 J0.836
X87.721 Y74.164 Z0.132 I-1.154 J-0.836
X90.3 Y75 Z-0.5 I1.154 J0.836
X89.7 Y75 I-0.3 J0 F700
X93.15 Y75 I1.725 J0
X86.85 Y75 I-3.15 J0
X96 Y75 I4.575 J0
X84 Y75 I-6 J0
X96 Y75 I6 J0
X93.15 Y75 Z-0.75 I-1.425 J0 F333.3
G2 X90.3 Y75 Z-1 I-1.425 J0
G3 X89.7 Y75 I-0.3 J0 F700
X93.15 Y75 I1.725 J0
X86.85 Y75 I-3.15 J0
X96 Y75 I4.575 J0
X84 Y75 I-6 J0
X96 Y75 I6 J0
X93.15 Y75 Z-1.25 I-1.425 J0 F333.3
G2 X90.3 Y75 Z-1.5 I-1.425 J0
G3 X89.7 Y75 I-0.3 J0 F700
X93.15 Y75 I1.725 J0
X86.85 Y75 I-3.15 J0
X96 Y75 I4.575 J0
X84 Y75 I-6 J0
X96 Y75 I6 J0
X93.15 Y75 Z-1.75 I-1.425 J0 F333.3
G2 X90.3 Y75 Z-2 I-1.425 J0
G3 X89.7 Y75 I-0.3 J0 F700
X93.15 Y75 I1.725 J0
X86.85 Y75 I-3.15 J0
X96 Y75 I4.575 J0
X84 Y75 I-6 J0
X96 Y75 I6 J0
X93.15 Y75 Z-2.25 I-1.425 J0 F333.3
G2 X90.3 Y75 Z-2.5 I-1.425 J0
G3 X89.7 Y75 I-0.3 J0 F700
X93.15 Y75 I1.725 J0
X86.85 Y75 I-3.15 J0
X96 Y75 I4.575 J0
X84 Y75 I-6 J0
X96 Y75 I6 J0
X93.15 Y75 Z-2.75 I-1.425 J0 F333.3
G2 X90.3 Y75 Z-3 I-1.425 J0
G3 X89.7 Y75 I-0.3 J0 F700
X93.15 Y75 I1.725 J0
X86.85 Y75 I-3.15 J0
X96 Y75 I4.575 J0
X84 Y75 I-6 J0
X96 Y75 I6 J0
X93.15 Y75 Z-3.25 I-1.425 J0 F333.3
G2 X90.3 Y75 Z-3.5 I-1.425 J0
G3 X89.7 Y75 I-0.3 J0 F700
X93.15 Y75 I1.725 J0
X86.85 Y75 I-3.15 J0
X96 Y75 I4.575 J0
X84 Y75 I-6 J0
X96 Y75 I6 J0
X93.15 Y75 Z-3.75 I-1.425 J0 F333.3
G2 X90.3 Y75 Z-4 I-1.425 J0
G3 X89.7 Y75 I-0.3 J0 F700
X93.15 Y75 I1.725 J0
X86.85 Y75 I-3.15 J0
X96 Y75 I4.575 J0
X84 Y75 I-6 J0
X96 Y75 I6 J0
X93.15 Y75 Z-4.25 I-1.425 J0 F333.3
G2 X90.3 Y75 Z-4.5 I-1.425 J0
G3 X89.7 Y75 I-0.3 J0 F700
X93.15 Y75 I1.725 J0
X86.85 Y75 I-3.15 J0
X96 Y75 I4.575 J0
X84 Y75 I-6 J0
X96 Y75 I6 J0
X93.15 Y75 Z-4.75 I-1.425 J0 F333.3
G2 X90.3 Y75 Z-5 I-1.425 J0
G3 X89.7 Y75 I-0.3 J0 F700
X93.15 Y75 I1.725 J0
X86.85 Y75 I-3.15 J0
X96 Y75 I4.575 J0
X84 Y75 I-6 J0
X96 Y75 I6 J0
X93.15 Y75 Z-5.25 I-1.425 J0 F333.3
G2 X90.3 Y75 Z-5.5 I-1.425 J0
G3 X89.7 Y75 I-0.3 J0 F700
X93.15 Y75 I1.725 J0
X86.85 Y75 I-3.15 J0
X96 Y75 I4.575 J0
X84 Y75 I-6 J0
X96 Y75 I6 J0
X93.15 Y75 Z-5.75 I-1.425 J0 F333.3
G2 X90.3 Y75 Z-6 I-1.425 J0
G3 X89.7 Y75 I-0.3 J0 F700
X93.15 Y75 I1.725 J0
X86.85 Y75 I-3.15 J0
X96 Y75 I4.575 J0
X84 Y75 I-6 J0
X96 Y75 I6 J0
X93.15 Y75 Z-6.25 I-1.425 J0 F333.3
G2 X90.3 Y75 Z-6.5 I-1.425 J0
G3 X89.7 Y75 I-0.3 J0 F700
X93.15 Y75 I1.725 J0
X86.85 Y75 I-3.15 J0
X96 Y75 I4.575 J0
X84 Y75 I-6 J0
X96 Y75 I6 J0
X93.15 Y75 Z-6.75 I-1.425 J0 F333.3
G2 X90.3 Y75 Z-7 I-1.425 J0
G3 X89.7 Y75 I-0.3 J0 F700
X93.15 Y75 I1.725 J0
X86.85 Y75 I-3.15 J0
X96 Y75 I4.575 J0
X84 Y75 I-6 J0
X96 Y75 I6 J0
X93.15 Y75 Z-7.25 I-1.425 J0 F333.3
G2 X90.3 Y75 Z-7.5 I-1.425 J0
G3 X89.7 Y75 I-0.3 J0 F700
X93.15 Y75 I1.725 J0
X86.85 Y75 I-3.15 J0
X96 Y75 I4.575 J0
X84 Y75 I-6 J0
X96 Y75 I6 J0
X93.15 Y75 Z-7.75 I-1.425 J0 F333.3
G2 X90.3 Y75 Z-8 I-1.425 J0
G3 X89.7 Y75 I-0.3 J0 F700
X93.15 Y75 I1.725 J0
X86.85 Y75 I-3.15 J0
X96 Y75 I4.575 J0
X84 Y75 I-6 J0
X96 Y75 I6 J0
X93.15 Y75 Z-8.25 I-1.425 J0 F333.3
G2 X90.3 Y75 Z-8.5 I-1.425 J0
G3 X89.7 Y75 I-0.3 J0 F700
X93.15 Y75 I1.725 J0
X86.85 Y75 I-3.15 J0
X96 Y75 I4.575 J0
X84 Y75 I-6 J0
X96 Y75 I6 J0
X93.15 Y75 Z-8.75 I-1.425 J0 F333.3
G2 X90.3 Y75 Z-9 I-1.425 J0
G3 X89.7 Y75 I-0.3 J0 F700
X93.15 Y75 I1.725 J0
X86.85 Y75 I-3.15 J0
X96 Y75 I4.575 J0
X84 Y75 I-6 J0
X96 Y75 I6 J0
X93.15 Y75 Z-9.25 I-1.425 J0 F333.3
G2 X90.3 Y75 Z-9.5 I-1.425 J0
G3 X89.7 Y75 I-0.3 J0 F700
X93.15 Y75 I1.725 J0
X86.85 Y75 I-3.15 J0
X96 Y75 I4.575 J0
X84 Y75 I-6 J0
X96 Y75 I6 J0
X93.15 Y75 Z-9.75 I-1.425 J0 F333.3
G2 X90.3 Y75 Z-10 I-1.425 J0
G3 X89.7 Y75 I-0.3 J0 F700
X93.15 Y75 I1.725 J0
X86.85 Y75 I-3.15 J0
X96 Y75 I4.575 J0
X84 Y75 I-6 J0
X96 Y75 I6 J0
G0 Z5
X101.021 Y64.117
G1 Z2.5 F700
X103.5 Z2.063 F333.3
Y64.217 Z2.045
X96.5 Z0.811
Y64.117 Z0.793
X103.5 Z-0.441
Y64.217 Z-0.459
X103.265 Z-0.5
X96.5 F700
Y64.117
X103.5
Y64.217
X103.265
X100.429 Z-1 F333.3
X96.5 F700
Y64.117
X103.5
Y64.217
X100.429
X97.594 Z-1.5 F333.3
X96.5 F700
Y64.117
X103.5
Y64.217
X100.429
X97.594
X96.5 Z-1.693 F333.3
Y64.117 Z-1.71
X98.142 Z-2
X103.5 F700
Y64.217
X97.594
X96.5
Y64.117
X98.142
X100.978 Z-2.5 F333.3
X103.5 F700
Y64.217
X96.5
Y64.117
X100.978
X103.5 Z-2.945 F333.3
Y64.217 Z-2.962
X103.287 Z-3
X96.5 F700
Y64.117
X100.978
X103.5
Y64.217
X103.287
X100.451 Z-3.5 F333.3
X96.5 F700
Y64.117
X103.5
Y64.217
X100.451
X97.616 Z-4 F333.3
X96.5 F700
Y64.117
X103.5
Y64.217
X100.451
X97.616
X96.5 Z-4.197 F333.3
Y64.117 Z-4.214
X98.12 Z-4.5
X103.5 F700
Y64.217
X97.616
X96.5
Y64.117
X98.12
X100.956 Z-5 F333.3
X103.5 F700
Y64.217
X96.5
Y64.117
X100.956
X103.5 Z-5.449 F333.3
Y64.217 Z-5.466
X103.309 Z-5.5
X96.5 F700
Y64.117
X100.956
X103.5
Y64.217
X103.309
X100.473 Z-6 F333.3
X96.5 F700
Y64.117
X103.5
Y64.217
X100.473
X97.637 Z-6.5 F333.3
X96.5 F700
Y64.117
X103.5
Y64.217
X100.473
X97.637
X96.5 Z-6.701 F333.3
Y64.117 Z-6.718
X98.098 Z-7
X103.5 F700
Y64.217
X97.637
X96.5
Y64.117
X98.098
X100.934 Z-7.5 F333.3
X103.5 F700
Y64.217
X96.5
Y64.117
X100.934
X103.5 Z-7.952 F333.3
Y64.217 Z-7.97
X103.33 Z-8
X96.5 F700
Y64.117
X100.934
X103.5
Y64.217
X103.33
X100.495 Z-8.5 F333.3
X96.5 F700
Y64.117
X103.5
Y64.217
X100.495
X97.659 Z-9 F333.3
X96.5 F700
Y64.117
X103.5
Y64.217
X100.495
X97.659
X96.5 Z-9.204 F333.3
Y64.117 Z-9.222
X98.077 Z-9.5
X103.5 F700
Y64.217
X97.659
X96.5
Y64.117
X98.077
X100.912 Z-10 F333.3
X103.5 F700
Y64.217
X96.5
Y64.117
X100.912
G0 Z5
X110.029 Y75.836
G1 Z2.5 F700
G3 X107.721 Y74.164 Z1.711 I-1.154 J-0.836 F333.3
X110.029 Y75.836 Z0.921 I1.154 J0.836
X107.721 Y74.164 Z0.132 I-1.154 J-0.836
X110.3 Y75 Z-0.5 I1.154 J0.836
X109.7 Y75 I-0.3 J0 F700
X113.15 Y75 I1.725 J0
X106.85 Y75 I-3.15 J0
X116 Y75 I4.575 J0
X104 Y75 I-6 J0
X116 Y75 I6 J0
X113.15 Y75 Z-0.75 I-1.425 J0 F333.3
G2 X110.3 Y75 Z-1 I-1.425 J0
G3 X109.7 Y75 I-0.3 J0 F700
X113.15 Y75 I1.725 J0
X106.85 Y75 I-3.15 J0
X116 Y75 I4.575 J0
X104 Y75 I-6 J0
X116 Y75 I6 J0
X113.15 Y75 Z-1.25 I-1.425 J0 F333.3
G2 X110.3 Y75 Z-1.5 I-1.425 J0
G3 X109.7 Y75 I-0.3 J0 F700
X113.15 Y75 I1.725 J0
X106.85 Y75 I-3.15 J0
X116 Y75 I4.575 J0
X104 Y75 I-6 J0
X116 Y75 I6 J0
X113.15 Y75 Z-1.75 I-1.425 J0 F333.3
G2 X110.3 Y75 Z-2 I-1.425 J0
G3 X109.7 Y75 I-0.3 J0 F700
X113.15 Y75 I1.725 J0
X106.85 Y75 I-3.15 J0
X116 Y75 I4.575 J0
X104 Y75 I-6 J0
X116 Y75 I6 J0
X113.15 Y75 Z-2.25 I-1.425 J0 F333.3
G2 X110.3 Y75 Z-2.5 I-1.425 J0
G3 X109.7 Y75 I-0.3 J0 F700
X113.15 Y75 I1.725 J0
X106.85 Y75 I-3.15 J0
X116 Y75 I4.575 J0
X104 Y75 I-6 J0
X116 Y75 I6 J0
X113.15 Y75 Z-2.75 I-1.425 J0 F333.3
G2 X110.3 Y75 Z-3 I-1.425 J0
G3 X109.7 Y75 I-0.3 J0 F700
X113.15 Y75 I1.725 J0
X106.85 Y75 I-3.15 J0
X116 Y75 I4.575 J0
X104 Y75 I-6 J0
X116 Y75 I6 J0
X113.15 Y75 Z-3.25 I-1.425 J0 F333.3
G2 X110.3 Y75 Z-3.5 I-1.425 J0
G3 X109.7 Y75 I-0.3 J0 F700
X113.15 Y75 I1.725 J0
X106.85 Y75 I-3.15 J0
X116 Y75 I4.575 J0
X104 Y75 I-6 J0
X116 Y75 I6 J0
X113.15 Y75 Z-3.75 I-1.425 J0 F333.3
G2 X110.3 Y75 Z-4 I-1.425 J0
G3 X109.7 Y75 I-0.3 J0 F700
X113.15 Y75 I1.725 J0
X106.85 Y75 I-3.15 J0
X116 Y75 I4.575 J0
X104 Y75 I-6 J0
X116 Y75 I6 J0
X113.15 Y75 Z-4.25 I-1.425 J0 F333.3
G2 X110.3 Y75 Z-4.5 I-1.425 J0
G3 X109.7 Y75 I-0.3 J0 F700
X113.15 Y75 I1.725 J0
X106.85 Y75 I-3.15 J0
X116 Y75 I4.575 J0
X104 Y75 I-6 J0
X116 Y75 I6 J0
X113.15 Y75 Z-4.75 I-1.425 J0 F333.3
G2 X110.3 Y75 Z-5 I-1.425 J0
G3 X109.7 Y75 I-0.3 J0 F700
X113.15 Y75 I1.725 J0
X106.85 Y75 I-3.15 J0
X116 Y75 I4.575 J0
X104 Y75 I-6 J0
X116 Y75 I6 J0
X113.15 Y75 Z-5.25 I-1.425 J0 F333.3
G2 X110.3 Y75 Z-5.5 I-1.425 J0
G3 X109.7 Y75 I-0.3 J0 F700
X113.15 Y75 I1.725 J0
X106.85 Y75 I-3.15 J0
X116 Y75 I4.575 J0
X104 Y75 I-6 J0
X116 Y75 I6 J0
X113.15 Y75 Z-5.75 I-1.425 J0 F333.3
G2 X110.3 Y75 Z-6 I-1.425 J0
G3 X109.7 Y75 I-0.3 J0 F700
X113.15 Y75 I1.725 J0
X106.85 Y75 I-3.15 J0
X116 Y75 I4.575 J0
X104 Y75 I-6 J0
X116 Y75 I6 J0
X113.15 Y75 Z-6.25 I-1.425 J0 F333.3
G2 X110.3 Y75 Z-6.5 I-1.425 J0
G3 X109.7 Y75 I-0.3 J0 F700
X113.15 Y75 I1.725 J0
X106.85 Y75 I-3.15 J0
X116 Y75 I4.575 J0
X104 Y75 I-6 J0
X116 Y75 I6 J0
X113.15 Y75 Z-6.75 I-1.425 J0 F333.3
G2 X110.3 Y75 Z-7 I-1.425 J0
G3 X109.7 Y75 I-0.3 J0 F700
X113.15 Y75 I1.725 J0
X106.85 Y75 I-3.15 J0
X116 Y75 I4.575 J0
X104 Y75 I-6 J0
X116 Y75 I6 J0
X113.15 Y75 Z-7.25 I-1.425 J0 F333.3
G2 X110.3 Y75 Z-7.5 I-1.425 J0
G3 X109.7 Y75 I-0.3 J0 F700
X113.15 Y75 I1.725 J0
X106.85 Y75 I-3.15 J0
X116 Y75 I4.575 J0
X104 Y75 I-6 J0
X116 Y75 I6 J0
X113.15 Y75 Z-7.75 I-1.425 J0 F333.3
G2 X110.3 Y75 Z-8 I-1.425 J0
G3 X109.7 Y75 I-0.3 J0 F700
X113.15 Y75 I1.725 J0
X106.85 Y75 I-3.15 J0
X116 Y75 I4.575 J0
X104 Y75 I-6 J0
X116 Y75 I6 J0
X113.15 Y75 Z-8.25 I-1.425 J0 F333.3
G2 X110.3 Y75 Z-8.5 I-1.425 J0
G3 X109.7 Y75 I-0.3 J0 F700
X113.15 Y75 I1.725 J0
X106.85 Y75 I-3.15 J0
X116 Y75 I4.575 J0
X104 Y75 I-6 J0
X116 Y75 I6 J0
X113.15 Y75 Z-8.75 I-1.425 J0 F333.3
G2 X110.3 Y75 Z-9 I-1.425 J0
G3 X109.7 Y75 I-0.3 J0 F700
X113.15 Y75 I1.725 J0
X106.85 Y75 I-3.15 J0
X116 Y75 I4.575 J0
X104 Y75 I-6 J0
X116 Y75 I6 J0
X113.15 Y75 Z-9.25 I-1.425 J0 F333.3
G2 X110.3 Y75 Z-9.5 I-1.425 J0
G3 X109.7 Y75 I-0.3 J0 F700
X113.15 Y75 I1.725 J0
X106.85 Y75 I-3.15 J0
X116 Y75 I4.575 J0
X104 Y75 I-6 J0
X116 Y75 I6 J0
X113.15 Y75 Z-9.75 I-1.425 J0 F333.3
G2 X110.3 Y75 Z-10 I-1.425 J0
G3 X109.7 Y75 I-0.3 J0 F700
X113.15 Y75 I1.725 J0
X106.85 Y75 I-3.15 J0
X116 Y75 I4.575 J0
X104 Y75 I-6 J0
X116 Y75 I6 J0
G0 Z5
X120.46 Y65.003
G1 Z2.5 F700
G3 X118.152 Y63.331 Z1.711 I-1.154 J-0.836 F333.3
X120.46 Y65.003 Z0.921 I1.154 J0.836
X118.152 Y63.331 Z0.132 I-1.154 J-0.836
X120.731 Y64.167 Z-0.5 I1.154 J0.836
X118.931 Y64.167 I-0.9 J0 F700
X123.581 Y64.167 I2.325 J0
X116.081 Y64.167 I-3.75 J0
X123.581 Y64.167 I3.75 J0
X122.156 Y65.592 Z-0.595 I-1.425 J0 F333.3
G1 X119.306 Z-0.716
G3 X119.306 Y62.742 Z-0.905 I0 J-1.425
X120.731 Y64.167 Z-1 I0 J1.425
X118.931 Y64.167 I-0.9 J0 F700
X123.581 Y64.167 I2.325 J0
X116.081 Y64.167 I-3.75 J0
X123.581 Y64.167 I3.75 J0
X122.156 Y65.592 Z-1.095 I-1.425 J0 F333.3
G1 X119.306 Z-1.216
G3 X119.306 Y62.742 Z-1.405 I0 J-1.425
X120.731 Y64.167 Z-1.5 I0 J1.425
X118.931 Y64.167 I-0.9 J0 F700
X123.581 Y64.167 I2.325 J0
X116.081 Y64.167 I-3.75 J0
X123.581 Y64.167 I3.75 J0
X122.156 Y65.592 Z-1.595 I-1.425 J0 F333.3
G1 X119.306 Z-1.716
G3 X119.306 Y62.742 Z-1.905 I0 J-1.425
X120.731 Y64.167 Z-2 I0 J1.425
X118.931 Y64.167 I-0.9 J0 F700
X123.581 Y64.167 I2.325 J0
X116.081 Y64.167 I-3.75 J0
X123.581 Y64.167 I3.75 J0
X122.156 Y65.592 Z-2.095 I-1.425 J0 F333.3
G1 X119.306 Z-2.216
G3 X119.306 Y62.742 Z-2.405 I0 J-1.425
X120.731 Y64.167 Z-2.5 I0 J1.425
X118.931 Y64.167 I-0.9 J0 F700
X123.581 Y64.167 I2.325 J0
X116.081 Y64.167 I-3.75 J0
X123.581 Y64.167 I3.75 J0
X122.156 Y65.592 Z-2.595 I-1.425 J0 F333.3
G1 X119.306 Z-2.716
G3 X119.306 Y62.742 Z-2.905 I0 J-1.425
X120.731 Y64.167 Z-3 I0 J1.425
X118.931 Y64.167 I-0.9 J0 F700
X123.581 Y64.167 I2.325 J0
X116.081 Y64.167 I-3.75 J0
X123.581 Y64.167 I3.75 J0
X122.156 Y65.592 Z-3.095 I-1.425 J0 F333.3
G1 X119.306 Z-3.216
G3 X119.306 Y62.742 Z-3.405 I0 J-1.425
X120.731 Y64.167 Z-3.5 I0 J1.425
X118.931 Y64.167 I-0.9 J0 F700
X123.581 Y64.167 I2.325 J0
X116.081 Y64.167 I-3.75 J0
X123.581 Y64.167 I3.75 J0
X122.156 Y65.592 Z-3.595 I-1.425 J0 F333.3
G1 X119.306 Z-3.716
G3 X119.306 Y62.742 Z-3.905 I0 J-1.425
X120.731 Y64.167 Z-4 I0 J1.425
X118.931 Y64.167 I-0.9 J0 F700
X123.581 Y64.167 I2.325 J0
X116.081 Y64.167 I-3.75 J0
X123.581 Y64.167 I3.75 J0
X122.156 Y65.592 Z-4.095 I-1.425 J0 F333.3
G1 X119.306 Z-4.216
G3 X119.306 Y62.742 Z-4.405 I0 J-1.425
X120.731 Y64.167 Z-4.5 I0 J1.425
X118.931 Y64.167 I-0.9 J0 F700
X123.581 Y64.167 I2.325 J0
X116.081 Y64.167 I-3.75 J0
X123.581 Y64.167 I3.75 J0
X122.156 Y65.592 Z-4.595 I-1.425 J0 F333.3
G1 X119.306 Z-4.716
G3 X119.306 Y62.742 Z-4.905 I0 J-1.425
X120.731 Y64.167 Z-5 I0 J1.425
X118.931 Y64.167 I-0.9 J0 F700
X123.581 Y64.167 I2.325 J0
X116.081 Y64.167 I-3.75 J0
X123.581 Y64.167 I3.75 J0
X122.156 Y65.592 Z-5.095 I-1.425 J0 F333.3
G1 X119.306 Z-5.216
G3 X119.306 Y62.742 Z-5.405 I0 J-1.425
X120.731 Y64.167 Z-5.5 I0 J1.425
X118.931 Y64.167 I-0.9 J0 F700
X123.581 Y64.167 I2.325 J0
X116.081 Y64.167 I-3.75 J0
X123.581 Y64.167 I3.75 J0
X122.156 Y65.592 Z-5.595 I-1.425 J0 F333.3
G1 X119.306 Z-5.716
G3 X119.306 Y62.742 Z-5.905 I0 J-1.425
X120.731 Y64.167 Z-6 I0 J1.425
X118.931 Y64.167 I-0.9 J0 F700
X123.581 Y64.167 I2.325 J0
X116.081 Y64.167 I-3.75 J0
X123.581 Y64.167 I3.75 J0
X122.156 Y65.592 Z-6.095 I-1.425 J0 F333.3
G1 X119.306 Z-6.216
G3 X119.306 Y62.742 Z-6.405 I0 J-1.425
X120.731 Y64.167 Z-6.5 I0 J1.425
X118.931 Y64.167 I-0.9 J0 F700
X123.581 Y64.167 I2.325 J0
X116.081 Y64.167 I-3.75 J0
X123.581 Y64.167 I3.75 J0
X122.156 Y65.592 Z-6.595 I-1.425 J0 F333.3
G1 X119.306 Z-6.716
G3 X119.306 Y62.742 Z-6.905 I0 J-1.425
X120.731 Y64.167 Z-7 I0 J1.425
X118.931 Y64.167 I-0.9 J0 F700
X123.581 Y64.167 I2.325 J0
X116.081 Y64.167 I-3.75 J0
X123.581 Y64.167 I3.75 J0
X122.156 Y65.592 Z-7.095 I-1.425 J0 F333.3
G1 X119.306 Z-7.216
G3 X119.306 Y62.742 Z-7.405 I0 J-1.425
X120.731 Y64.167 Z-7.5 I0 J1.425
X118.931 Y64.167 I-0.9 J0 F700
X123.581 Y64.167 I2.325 J0
X116.081 Y64.167 I-3.75 J0
X123.581 Y64.167 I3.75 J0
X122.156 Y65.592 Z-7.595 I-1.425 J0 F333.3
G1 X119.306 Z-7.716
G3 X119.306 Y62.742 Z-7.905 I0 J-1.425
X120.731 Y64.167 Z-8 I0 J1.425
X118.931 Y64.167 I-0.9 J0 F700
X123.581 Y64.167 I2.325 J0
X116.081 Y64.167 I-3.75 J0
X123.581 Y64.167 I3.75 J0
X122.156 Y65.592 Z-8.095 I-1.425 J0 F333.3
G1 X119.306 Z-8.216
G3 X119.306 Y62.742 Z-8.405 I0 J-1.425
X120.731 Y64.167 Z-8.5 I0 J1.425
X118.931 Y64.167 I-0.9 J0 F700
X123.581 Y64.167 I2.325 J0
X116.081 Y64.167 I-3.75 J0
X123.581 Y64.167 I3.75 J0
X122.156 Y65.592 Z-8.595 I-1.425 J0 F333.3
G1 X119.306 Z-8.716
G3 X119.306 Y62.742 Z-8.905 I0 J-1.425
X120.731 Y64.167 Z-9 I0 J1.425
X118.931 Y64.167 I-0.9 J0 F700
X123.581 Y64.167 I2.325 J0
X116.081 Y64.167 I-3.75 J0
X123.581 Y64.167 I3.75 J0
X122.156 Y65.592 Z-9.095 I-1.425 J0 F333.3
G1 X119.306 Z-9.216
G3 X119.306 Y62.742 Z-9.405 I0 J-1.425
X120.731 Y64.167 Z-9.5 I0 J1.425
X118.931 Y64.167 I-0.9 J0 F700
X123.581 Y64.167 I2.325 J0
X116.081 Y64.167 I-3.75 J0
X123.581 Y64.167 I3.75 J0
X122.156 Y65.592 Z-9.595 I-1.425 J0 F333.3
G1 X119.306 Z-9.716
G3 X119.306 Y62.742 Z-9.905 I0 J-1.425
X120.731 Y64.167 Z-10 I0 J1.425
X118.931 Y64.167 I-0.9 J0 F700
X123.581 Y64.167 I2.325 J0
X116.081 Y64.167 I-3.75 J0
X123.581 Y64.167 I3.75 J0
G0 Z5
X130.029 Y75.836
G1 Z2.5 F700
G3 X127.721 Y74.164 Z1.711 I-1.154 J-0.836 F333.3
X130.029 Y75.836 Z0.921 I1.154 J0.836
X127.721 Y74.164 Z0.132 I-1.154 J-0.836
X130.3 Y75 Z-0.5 I1.154 J0.836
X129.7 Y75 I-0.3 J0 F700
X133.15 Y75 I1.725 J0
X126.85 Y75 I-3.15 J0
X136 Y75 I4.575 J0
X124 Y75 I-6 J0
X136 Y75 I6 J0
X133.15 Y75 Z-0.75 I-1.425 J0 F333.3
G2 X130.3 Y75 Z-1 I-1.425 J0
G3 X129.7 Y75 I-0.3 J0 F700
X133.15 Y75 I1.725 J0
X126.85 Y75 I-3.15 J0
X136 Y75 I4.575 J0
X124 Y75 I-6 J0
X136 Y75 I6 J0
X133.15 Y75 Z-1.25 I-1.425 J0 F333.3
G2 X130.3 Y75 Z-1.5 I-1.425 J0
G3 X129.7 Y75 I-0.3 J0 F700
X133.15 Y75 I1.725 J0
X126.85 Y75 I-3.15 J0
X136 Y75 I4.575 J0
X124 Y75 I-6 J0
X136 Y75 I6 J0
X133.15 Y75 Z-1.75 I-1.425 J0 F333.3
G2 X130.3 Y75 Z-2 I-1.425 J0
G3 X129.7 Y75 I-0.3 J0 F700
X133.15 Y75 I1.725 J0
X126.85 Y75 I-3.15 J0
X136 Y75 I4.575 J0
X124 Y75 I-6 J0
X136 Y75 I6 J0
X133.15 Y75 Z-2.25 I-1.425 J0 F333.3
G2 X130.3 Y75 Z-2.5 I-1.425 J0
G3 X129.7 Y75 I-0.3 J0 F700
X133.15 Y75 I1.725 J0
X126.85 Y75 I-3.15 J0
X136 Y75 I4.575 J0
X124 Y75 I-6 J0
X136 Y75 I6 J0
X133.15 Y75 Z-2.75 I-1.425 J0 F333.3
G2 X130.3 Y75 Z-3 I-1.425 J0
G3 X129.7 Y75 I-0.3 J0 F700
X133.15 Y75 I1.725 J0
X126.85 Y75 I-3.15 J0
X136 Y75 I4.575 J0
X124 Y75 I-6 J0
X136 Y75 I6 J0
X133.15 Y75 Z-3.25 I-1.425 J0 F333.3
G2 X130.3 Y75 Z-3.5 I-1.425 J0
G3 X129.7 Y75 I-0.3 J0 F700
X133.15 Y75 I1.725 J0
X126.85 Y75 I-3.15 J0
X136 Y75 I4.575 J0
X124 Y75 I-6 J0
X136 Y75 I6 J0
X133.15 Y75 Z-3.75 I-1.425 J0 F333.3
G2 X130.3 Y75 Z-4 I-1.425 J0
G3 X129.7 Y75 I-0.3 J0 F700
X133.15 Y75 I1.725 J0
X126.85 Y75 I-3.15 J0
X136 Y75 I4.575 J0
X124 Y75 I-6 J0
X136 Y75 I6 J0
X133.15 Y75 Z-4.25 I-1.425 J0 F333.3
G2 X130.3 Y75 Z-4.5 I-1.425 J0
G3 X129.7 Y75 I-0.3 J0 F700
X133.15 Y75 I1.725 J0
X126.85 Y75 I-3.15 J0
X136 Y75 I4.575 J0
X124 Y75 I-6 J0
X136 Y75 I6 J0
X133.15 Y75 Z-4.75 I-1.425 J0 F333.3
G2 X130.3 Y75 Z-5 I-1.425 J0
G3 X129.7 Y75 I-0.3 J0 F700
X133.15 Y75 I1.725 J0
X126.85 Y75 I-3.15 J0
X136 Y75 I4.575 J0
X124 Y75 I-6 J0
X136 Y75 I6 J0
X133.15 Y75 Z-5.25 I-1.425 J0 F333.3
G2 X130.3 Y75 Z-5.5 I-1.425 J0
G3 X129.7 Y75 I-0.3 J0 F700
X133.15 Y75 I1.725 J0
X126.85 Y75 I-3.15 J0
X136 Y75 I4.575 J0
X124 Y75 I-6 J0
X136 Y75 I6 J0
X133.15 Y75 Z-5.75 I-1.425 J0 F333.3
G2 X130.3 Y75 Z-6 I-1.425 J0
G3 X129.7 Y75 I-0.3 J0 F700
X133.15 Y75 I1.725 J0
X126.85 Y75 I-3.15 J0
X136 Y75 I4.575 J0
X124 Y75 I-6 J0
X136 Y75 I6 J0
X133.15 Y75 Z-6.25 I-1.425 J0 F333.3
G2 X130.3 Y75 Z-6.5 I-1.425 J0
G3 X129.7 Y75 I-0.3 J0 F700
X133.15 Y75 I1.725 J0
X126.85 Y75 I-3.15 J0
X136 Y75 I4.575 J0
X124 Y75 I-6 J0
X136 Y75 I6 J0
X133.15 Y75 Z-6.75 I-1.425 J0 F333.3
G2 X130.3 Y75 Z-7 I-1.425 J0
G3 X129.7 Y75 I-0.3 J0 F700
X133.15 Y75 I1.725 J0
X126.85 Y75 I-3.15 J0
X136 Y75 I4.575 J0
X124 Y75 I-6 J0
X136 Y75 I6 J0
X133.15 Y75 Z-7.25 I-1.425 J0 F333.3
G2 X130.3 Y75 Z-7.5 I-1.425 J0
G3 X129.7 Y75 I-0.3 J0 F700
X133.15 Y75 I1.725 J0
X126.85 Y75 I-3.15 J0
X136 Y75 I4.575 J0
X124 Y75 I-6 J0
X136 Y75 I6 J0
X133.15 Y75 Z-7.75 I-1.425 J0 F333.3
G2 X130.3 Y75 Z-8 I-1.425 J0
G3 X129.7 Y75 I-0.3 J0 F700
X133.15 Y75 I1.725 J0
X126.85 Y75 I-3.15 J0
X136 Y75 I4.575 J0
X124 Y75 I-6 J0
X136 Y75 I6 J0
X133.15 Y75 Z-8.25 I-1.425 J0 F333.3
G2 X130.3 Y75 Z-8.5 I-1.425 J0
G3 X129.7 Y75 I-0.3 J0 F700
X133.15 Y75 I1.725 J0
X126.85 Y75 I-3.15 J0
X136 Y75 I4.575 J0
X124 Y75 I-6 J0
X136 Y75 I6 J0
X133.15 Y75 Z-8.75 I-1.425 J0 F333.3
G2 X130.3 Y75 Z-9 I-1.425 J0
G3 X129.7 Y75 I-0.3 J0 F700
X133.15 Y75 I1.725 J0
X126.85 Y75 I-3.15 J0
X136 Y75 I4.575 J0
X124 Y75 I-6 J0
X136 Y75 I6 J0
X133.15 Y75 Z-9.25 I-1.425 J0 F333.3
G2 X130.3 Y75 Z-9.5 I-1.425 J0
G3 X129.7 Y75 I-0.3 J0 F700
X133.15 Y75 I1.725 J0
X126.85 Y75 I-3.15 J0
X136 Y75 I4.575 J0
X124 Y75 I-6 J0
X136 Y75 I6 J0
X133.15 Y75 Z-9.75 I-1.425 J0 F333.3
G2 X130.3 Y75 Z-10 I-1.425 J0
G3 X129.7 Y75 I-0.3 J0 F700
X133.15 Y75 I1.725 J0
X126.85 Y75 I-3.15 J0
X136 Y75 I4.575 J0
X124 Y75 I-6 J0
X136 Y75 I6 J0
G0 Z5
X140.46 Y65.003
G1 Z2.5 F700
G3 X138.152 Y63.331 Z1.711 I-1.154 J-0.836 F333.3
X140.46 Y65.003 Z0.921 I1.154 J0.836
X138.152 Y63.331 Z0.132 I-1.154 J-0.836
X140.731 Y64.167 Z-0.5 I1.154 J0.836
X138.931 Y64.167 I-0.9 J0 F700
X143.581 Y64.167 I2.325 J0
X136.081 Y64.167 I-3.75 J0
X143.581 Y64.167 I3.75 J0
X142.156 Y65.592 Z-0.595 I-1.425 J0 F333.3
G1 X139.306 Z-0.716
G3 X139.306 Y62.742 Z-0.905 I0 J-1.425
X140.731 Y64.167 Z-1 I0 J1.425
X138.931 Y64.167 I-0.9 J0 F700
X143.581 Y64.167 I2.325 J0
X136.081 Y64.167 I-3.75 J0
X143.581 Y64.167 I3.75 J0
X142.156 Y65.592 Z-1.095 I-1.425 J0 F333.3
G1 X139.306 Z-1.216
G3 X139.306 Y62.742 Z-1.405 I0 J-1.425
X140.731 Y64.167 Z-1.5 I0 J1.425
X138.931 Y64.167 I-0.9 J0 F700
X143.581 Y64.167 I2.325 J0
X136.081 Y64.167 I-3.75 J0
X143.581 Y64.167 I3.75 J0
X142.156 Y65.592 Z-1.595 I-1.425 J0 F333.3
G1 X139.306 Z-1.716
G3 X139.306 Y62.742 Z-1.905 I0 J-1.425
X140.731 Y64.167 Z-2 I0 J1.425
X138.931 Y64.167 I-0.9 J0 F700
X143.581 Y64.167 I2.325 J0
X136.081 Y64.167 I-3.75 J0
X143.581 Y64.167 I3.75 J0
X142.156 Y65.592 Z-2.095 I-1.425 J0 F333.3
G1 X139.306 Z-2.216
G3 X139.306 Y62.742 Z-2.405 I0 J-1.425
X140.731 Y64.167 Z-2.5 I0 J1.425
X138.931 Y64.167 I-0.9 J0 F700
X143.581 Y64.167 I2.325 J0
X136.081 Y64.167 I-3.75 J0
X143.581 Y64.167 I3.75 J0
X142.156 Y65.592 Z-2.595 I-1.425 J0 F333.3
G1 X139.306 Z-2.716
G3 X139.306 Y62.742 Z-2.905 I0 J-1.425
X140.731 Y64.167 Z-3 I0 J1.425
X138.931 Y64.167 I-0.9 J0 F700
X143.581 Y64.167 I2.325 J0
X136.081 Y64.167 I-3.75 J0
X143.581 Y64.167 I3.75 J0
X142.156 Y65.592 Z-3.095 I-1.425 J0 F333.3
G1 X139.306 Z-3.216
G3 X139.306 Y62.742 Z-3.405 I0 J-1.425
X140.731 Y64.167 Z-3.5 I0 J1.425
X138.931 Y64.167 I-0.9 J0 F700
X143.581 Y64.167 I2.325 J0
X136.081 Y64.167 I-3.75 J0
X143.581 Y64.167 I3.75 J0
X142.156 Y65.592 Z-3.595 I-1.425 J0 F333.3
G1 X139.306 Z-3.716
G3 X139.306 Y62.742 Z-3.905 I0 J-1.425
X140.731 Y64.167 Z-4 I0 J1.425
X138.931 Y64.167 I-0.9 J0 F700
X143.581 Y64.167 I2.325 J0
X136.081 Y64.167 I-3.75 J0
X143.581 Y64.167 I3.75 J0
X142.156 Y65.592 Z-4.095 I-1.425 J0 F333.3
G1 X139.306 Z-4.216
G3 X139.306 Y62.742 Z-4.405 I0 J-1.425
X140.731 Y64.167 Z-4.5 I0 J1.425
X138.931 Y64.167 I-0.9 J0 F700
X143.581 Y64.167 I2.325 J0
X136.081 Y64.167 I-3.75 J0
X143.581 Y64.167 I3.75 J0
X142.156 Y65.592 Z-4.595 I-1.425 J0 F333.3
G1 X139.306 Z-4.716
G3 X139.306 Y62.742 Z-4.905 I0 J-1.425
X140.731 Y64.167 Z-5 I0 J1.425
X138.931 Y64.167 I-0.9 J0 F700
X143.581 Y64.167 I2.325 J0
X136.081 Y64.167 I-3.75 J0
X143.581 Y64.167 I3.75 J0
X142.156 Y65.592 Z-5.095 I-1.425 J0 F333.3
G1 X139.306 Z-5.216
G3 X139.306 Y62.742 Z-5.405 I0 J-1.425
X140.731 Y64.167 Z-5.5 I0 J1.425
X138.931 Y64.167 I-0.9 J0 F700
X143.581 Y64.167 I2.325 J0
X136.081 Y64.167 I-3.75 J0
X143.581 Y64.167 I3.75 J0
X142.156 Y65.592 Z-5.595 I-1.425 J0 F333.3
G1 X139.306 Z-5.716
G3 X139.306 Y62.742 Z-5.905 I0 J-1.425
X140.731 Y64.167 Z-6 I0 J1.425
X138.931 Y64.167 I-0.9 J0 F700
X143.581 Y64.167 I2.325 J0
X136.081 Y64.167 I-3.75 J0
X143.581 Y64.167 I3.75 J0
X142.156 Y65.592 Z-6.095 I-1.425 J0 F333.3
G1 X139.306 Z-6.216
G3 X139.306 Y62.742 Z-6.405 I0 J-1.425
X140.731 Y64.167 Z-6.5 I0 J1.425
X138.931 Y64.167 I-0.9 J0 F700
X143.581 Y64.167 I2.325 J0
X136.081 Y64.167 I-3.75 J0
X143.581 Y64.167 I3.75 J0
X142.156 Y65.592 Z-6.595 I-1.425 J0 F333.3
G1 X139.306 Z-6.716
G3 X139.306 Y62.742 Z-6.905 I0 J-1.425
X140.731 Y64.167 Z-7 I0 J1.425
X138.931 Y64.167 I-0.9 J0 F700
X143.581 Y64.167 I2.325 J0
X136.081 Y64.167 I-3.75 J0
X143.581 Y64.167 I3.75 J0
X142.156 Y65.592 Z-7.095 I-1.425 J0 F333.3
G1 X139.306 Z-7.216
G3 X139.306 Y62.742 Z-7.405 I0 J-1.425
X140.731 Y64.167 Z-7.5 I0 J1.425
X138.931 Y64.167 I-0.9 J0 F700
X143.581 Y64.167 I2.325 J0
X136.081 Y64.167 I-3.75 J0
X143.581 Y64.167 I3.75 J0
X142.156 Y65.592 Z-7.595 I-1.425 J0 F333.3
G1 X139.306 Z-7.716
G3 X139.306 Y62.742 Z-7.905 I0 J-1.425
X140.731 Y64.167 Z-8 I0 J1.425
X138.931 Y64.167 I-0.9 J0 F700
X143.581 Y64.167 I2.325 J0
X136.081 Y64.167 I-3.75 J0
X143.581 Y64.167 I3.75 J0
X142.156 Y65.592 Z-8.095 I-1.425 J0 F333.3
G1 X139.306 Z-8.216
G3 X139.306 Y62.742 Z-8.405 I0 J-1.425
X140.731 Y64.167 Z-8.5 I0 J1.425
X138.931 Y64.167 I-0.9 J0 F700
X143.581 Y64.167 I2.325 J0
X136.081 Y64.167 I-3.75 J0
X143.581 Y64.167 I3.75 J0
X142.156 Y65.592 Z-8.595 I-1.425 J0 F333.3
G1 X139.306 Z-8.716
G3 X139.306 Y62.742 Z-8.905 I0 J-1.425
X140.731 Y64.167 Z-9 I0 J1.425
X138.931 Y64.167 I-0.9 J0 F700
X143.581 Y64.167 I2.325 J0
X136.081 Y64.167 I-3.75 J0
X143.581 Y64.167 I3.75 J0
X142.156 Y65.592 Z-9.095 I-1.425 J0 F333.3
G1 X139.306 Z-9.216
G3 X139.306 Y62.742 Z-9.405 I0 J-1.425
X140.731 Y64.167 Z-9.5 I0 J1.425
X138.931 Y64.167 I-0.9 J0 F700
X143.581 Y64.167 I2.325 J0
X136.081 Y64.167 I-3.75 J0
X143.581 Y64.167 I3.75 J0
X142.156 Y65.592 Z-9.595 I-1.425 J0 F333.3
G1 X139.306 Z-9.716
G3 X139.306 Y62.742 Z-9.905 I0 J-1.425
X140.731 Y64.167 Z-10 I0 J1.425
X138.931 Y64.167 I-0.9 J0 F700
X143.581 Y64.167 I2.325 J0
X136.081 Y64.167 I-3.75 J0
X143.581 Y64.167 I3.75 J0
G0 Z5
X150.029 Y75.836
G1 Z2.5 F700
G3 X147.721 Y74.164 Z1.711 I-1.154 J-0.836 F333.3
X150.029 Y75.836 Z0.921 I1.154 J0.836
X147.721 Y74.164 Z0.132 I-1.154 J-0.836
X150.3 Y75 Z-0.5 I1.154 J0.836
X149.7 Y75 I-0.3 J0 F700
X153.15 Y75 I1.725 J0
X146.85 Y75 I-3.15 J0
X156 Y75 I4.575 J0
X144 Y75 I-6 J0
X156 Y75 I6 J0
X153.15 Y75 Z-0.75 I-1.425 J0 F333.3
G2 X150.3 Y75 Z-1 I-1.425 J0
G3 X149.7 Y75 I-0.3 J0 F700
X153.15 Y75 I1.725 J0
X146.85 Y75 I-3.15 J0
X156 Y75 I4.575 J0
X144 Y75 I-6 J0
X156 Y75 I6 J0
X153.15 Y75 Z-1.25 I-1.425 J0 F333.3
G2 X150.3 Y75 Z-1.5 I-1.425 J0
G3 X149.7 Y75 I-0.3 J0 F700
X153.15 Y75 I1.725 J0
X146.85 Y75 I-3.15 J0
X156 Y75 I4.575 J0
X144 Y75 I-6 J0
X156 Y75 I6 J0
X153.15 Y75 Z-1.75 I-1.425 J0 F333.3
G2 X150.3 Y75 Z-2 I-1.425 J0
G3 X149.7 Y75 I-0.3 J0 F700
X153.15 Y75 I1.725 J0
X146.85 Y75 I-3.15 J0
X156 Y75 I4.575 J0
X144 Y75 I-6 J0
X156 Y75 I6 J0
X153.15 Y75 Z-2.25 I-1.425 J0 F333.3
G2 X150.3 Y75 Z-2.5 I-1.425 J0
G3 X149.7 Y75 I-0.3 J0 F700
X153.15 Y75 I1.725 J0
X146.85 Y75 I-3.15 J0
X156 Y75 I4.575 J0
X144 Y75 I-6 J0
X156 Y75 I6 J0
X153.15 Y75 Z-2.75 I-1.425 J0 F333.3
G2 X150.3 Y75 Z-3 I-1.425 J0
G3 X149.7 Y75 I-0.3 J0 F700
X153.15 Y75 I1.725 J0
X146.85 Y75 I-3.15 J0
X156 Y75 I4.575 J0
X144 Y75 I-6 J0
X156 Y75 I6 J0
X153.15 Y75 Z-3.25 I-1.425 J0 F333.3
G2 X150.3 Y75 Z-3.5 I-1.425 J0
G3 X149.7 Y75 I-0.3 J0 F700
X153.15 Y75 I1.725 J0
X146.85 Y75 I-3.15 J0
X156 Y75 I4.575 J0
X144 Y75 I-6 J0
X156 Y75 I6 J0
X153.15 Y75 Z-3.75 I-1.425 J0 F333.3
G2 X150.3 Y75 Z-4 I-1.425 J0
G3 X149.7 Y75 I-0.3 J0 F700
X153.15 Y75 I1.725 J0
X146.85 Y75 I-3.15 J0
X156 Y75 I4.575 J0
X144 Y75 I-6 J0
X156 Y75 I6 J0
X153.15 Y75 Z-4.25 I-1.425 J0 F333.3
G2 X150.3 Y75 Z-4.5 I-1.425 J0
G3 X149.7 Y75 I-0.3 J0 F700
X153.15 Y75 I1.725 J0
X146.85 Y75 I-3.15 J0
X156 Y75 I4.575 J0
X144 Y75 I-6 J0
X156 Y75 I6 J0
X153.15 Y75 Z-4.75 I-1.425 J0 F333.3
G2 X150.3 Y75 Z-5 I-1.425 J0
G3 X149.7 Y75 I-0.3 J0 F700
X153.15 Y75 I1.725 J0
X146.85 Y75 I-3.15 J0
X156 Y75 I4.575 J0
X144 Y75 I-6 J0
X156 Y75 I6 J0
X153.15 Y75 Z-5.25 I-1.425 J0 F333.3
G2 X150.3 Y75 Z-5.5 I-1.425 J0
G3 X149.7 Y75 I-0.3 J0 F700
X153.15 Y75 I1.725 J0
X146.85 Y75 I-3.15 J0
X156 Y75 I4.575 J0
X144 Y75 I-6 J0
X156 Y75 I6 J0
X153.15 Y75 Z-5.75 I-1.425 J0 F333.3
G2 X150.3 Y75 Z-6 I-1.425 J0
G3 X149.7 Y75 I-0.3 J0 F700
X153.15 Y75 I1.725 J0
X146.85 Y75 I-3.15 J0
X156 Y75 I4.575 J0
X144 Y75 I-6 J0
X156 Y75 I6 J0
X153.15 Y75 Z-6.25 I-1.425 J0 F333.3
G2 X150.3 Y75 Z-6.5 I-1.425 J0
G3 X149.7 Y75 I-0.3 J0 F700
X153.15 Y75 I1.725 J0
X146.85 Y75 I-3.15 J0
X156 Y75 I4.575 J0
X144 Y75 I-6 J0
X156 Y75 I6 J0
X153.15 Y75 Z-6.75 I-1.425 J0 F333.3
G2 X150.3 Y75 Z-7 I-1.425 J0
G3 X149.7 Y75 I-0.3 J0 F700
X153.15 Y75 I1.725 J0
X146.85 Y75 I-3.15 J0
X156 Y75 I4.575 J0
X144 Y75 I-6 J0
X156 Y75 I6 J0
X153.15 Y75 Z-7.25 I-1.425 J0 F333.3
G2 X150.3 Y75 Z-7.5 I-1.425 J0
G3 X149.7 Y75 I-0.3 J0 F700
X153.15 Y75 I1.725 J0
X146.85 Y75 I-3.15 J0
X156 Y75 I4.575 J0
X144 Y75 I-6 J0
X156 Y75 I6 J0
X153.15 Y75 Z-7.75 I-1.425 J0 F333.3
G2 X150.3 Y75 Z-8 I-1.425 J0
G3 X149.7 Y75 I-0.3 J0 F700
X153.15 Y75 I1.725 J0
X146.85 Y75 I-3.15 J0
X156 Y75 I4.575 J0
X144 Y75 I-6 J0
X156 Y75 I6 J0
X153.15 Y75 Z-8.25 I-1.425 J0 F333.3
G2 X150.3 Y75 Z-8.5 I-1.425 J0
G3 X149.7 Y75 I-0.3 J0 F700
X153.15 Y75 I1.725 J0
X146.85 Y75 I-3.15 J0
X156 Y75 I4.575 J0
X144 Y75 I-6 J0
X156 Y75 I6 J0
X153.15 Y75 Z-8.75 I-1.425 J0 F333.3
G2 X150.3 Y75 Z-9 I-1.425 J0
G3 X149.7 Y75 I-0.3 J0 F700
X153.15 Y75 I1.725 J0
X146.85 Y75 I-3.15 J0
X156 Y75 I4.575 J0
X144 Y75 I-6 J0
X156 Y75 I6 J0
X153.15 Y75 Z-9.25 I-1.425 J0 F333.3
G2 X150.3 Y75 Z-9.5 I-1.425 J0
G3 X149.7 Y75 I-0.3 J0 F700
X153.15 Y75 I1.725 J0
X146.85 Y75 I-3.15 J0
X156 Y75 I4.575 J0
X144 Y75 I-6 J0
X156 Y75 I6 J0
X153.15 Y75 Z-9.75 I-1.425 J0 F333.3
G2 X150.3 Y75 Z-10 I-1.425 J0
G3 X149.7 Y75 I-0.3 J0 F700
X153.15 Y75 I1.725 J0
X146.85 Y75 I-3.15 J0
X156 Y75 I4.575 J0
X144 Y75 I-6 J0
X156 Y75 I6 J0
G0 Z5
X160.46 Y65.003
G1 Z2.5 F700
G3 X158.152 Y63.331 Z1.711 I-1.154 J-0.836 F333.3
X160.46 Y65.003 Z0.921 I1.154 J0.836
X158.152 Y63.331 Z0.132 I-1.154 J-0.836
X160.731 Y64.167 Z-0.5 I1.154 J0.836
X158.931 Y64.167 I-0.9 J0 F700
X163.581 Y64.167 I2.325 J0
X156.081 Y64.167 I-3.75 J0
X163.581 Y64.167 I3.75 J0
X162.156 Y65.592 Z-0.595 I-1.425 J0 F333.3
G1 X159.306 Z-0.716
G3 X159.306 Y62.742 Z-0.905 I0 J-1.425
X160.731 Y64.167 Z-1 I0 J1.425
X158.931 Y64.167 I-0.9 J0 F700
X163.581 Y64.167 I2.325 J0
X156.081 Y64.167 I-3.75 J0
X163.581 Y64.167 I3.75 J0
X162.156 Y65.592 Z-1.095 I-1.425 J0 F333.3
G1 X159.306 Z-1.216
G3 X159.306 Y62.742 Z-1.405 I0 J-1.425
X160.731 Y64.167 Z-1.5 I0 J1.425
X158.931 Y64.167 I-0.9 J0 F700
X163.581 Y64.167 I2.325 J0
X156.081 Y64.167 I-3.75 J0
X163.581 Y64.167 I3.75 J0
X162.156 Y65.592 Z-1.595 I-1.425 J0 F333.3
G1 X159.306 Z-1.716
G3 X159.306 Y62.742 Z-1.905 I0 J-1.425
X160.731 Y64.167 Z-2 I0 J1.425
X158.931 Y64.167 I-0.9 J0 F700
X163.581 Y64.167 I2.325 J0
X156.081 Y64.167 I-3.75 J0
X163.581 Y64.167 I3.75 J0
X162.156 Y65.592 Z-2.095 I-1.425 J0 F333.3
G1 X159.306 Z-2.216
G3 X159.306 Y62.742 Z-2.405 I0 J-1.425
X160.731 Y64.167 Z-2.5 I0 J1.425
X158.931 Y64.167 I-0.9 J0 F700
X163.581 Y64.167 I2.325 J0
X156.081 Y64.167 I-3.75 J0
X163.581 Y64.167 I3.75 J0
X162.156 Y65.592 Z-2.595 I-1.425 J0 F333.3
G1 X159.306 Z-2.716
G3 X159.306 Y62.742 Z-2.905 I0 J-1.425
X160.731 Y64.167 Z-3 I0 J1.425
X158.931 Y64.167 I-0.9 J0 F700
X163.581 Y64.167 I2.325 J0
X156.081 Y64.167 I-3.75 J0
X163.581 Y64.167 I3.75 J0
X162.156 Y65.592 Z-3.095 I-1.425 J0 F333.3
G1 X159.306 Z-3.216
G3 X159.306 Y62.742 Z-3.405 I0 J-1.425
X160.731 Y64.167 Z-3.5 I0 J1.425
X158.931 Y64.167 I-0.9 J0 F700
X163.581 Y64.167 I2.325 J0
X156.081 Y64.167 I-3.75 J0
X163.581 Y64.167 I3.75 J0
X162.156 Y65.592 Z-3.595 I-1.425 J0 F333.3
G1 X159.306 Z-3.716
G3 X159.306 Y62.742 Z-3.905 I0 J-1.425
X160.731 Y64.167 Z-4 I0 J1.425
X158.931 Y64.167 I-0.9 J0 F700
X163.581 Y64.167 I2.325 J0
X156.081 Y64.167 I-3.75 J0
X163.581 Y64.167 I3.75 J0
X162.156 Y65.592 Z-4.095 I-1.425 J0 F333.3
G1 X159.306 Z-4.216
G3 X159.306 Y62.742 Z-4.405 I0 J-1.425
X160.731 Y64.167 Z-4.5 I0 J1.425
X158.931 Y64.167 I-0.9 J0 F700
X163.581 Y64.167 I2.325 J0
X156.081 Y64.167 I-3.75 J0
X163.581 Y64.167 I3.75 J0
X162.156 Y65.592 Z-4.595 I-1.425 J0 F333.3
G1 X159.306 Z-4.716
G3 X159.306 Y62.742 Z-4.905 I0 J-1.425
X160.731 Y64.167 Z-5 I0 J1.425
X158.931 Y64.167 I-0.9 J0 F700
X163.581 Y64.167 I2.325 J0
X156.081 Y64.167 I-3.75 J0
X163.581 Y64.167 I3.75 J0
X162.156 Y65.592 Z-5.095 I-1.425 J0 F333.3
G1 X159.306 Z-5.216
G3 X159.306 Y62.742 Z-5.405 I0 J-1.425
X160.731 Y64.167 Z-5.5 I0 J1.425
X158.931 Y64.167 I-0.9 J0 F700
X163.581 Y64.167 I2.325 J0
X156.081 Y64.167 I-3.75 J0
X163.581 Y64.167 I3.75 J0
X162.156 Y65.592 Z-5.595 I-1.425 J0 F333.3
G1 X159.306 Z-5.716
G3 X159.306 Y62.742 Z-5.905 I0 J-1.425
X160.731 Y64.167 Z-6 I0 J1.425
X158.931 Y64.167 I-0.9 J0 F700
X163.581 Y64.167 I2.325 J0
X156.081 Y64.167 I-3.75 J0
X163.581 Y64.167 I3.75 J0
X162.156 Y65.592 Z-6.095 I-1.425 J0 F333.3
G1 X159.306 Z-6.216
G3 X159.306 Y62.742 Z-6.405 I0 J-1.425
X160.731 Y64.167 Z-6.5 I0 J1.425
X158.931 Y64.167 I-0.9 J0 F700
X163.581 Y64.167 I2.325 J0
X156.081 Y64.167 I-3.75 J0
X163.581 Y64.167 I3.75 J0
X162.156 Y65.592 Z-6.595 I-1.425 J0 F333.3
G1 X159.306 Z-6.716
G3 X159.306 Y62.742 Z-6.905 I0 J-1.425
X160.731 Y64.167 Z-7 I0 J1.425
X158.931 Y64.167 I-0.9 J0 F700
X163.581 Y64.167 I2.325 J0
X156.081 Y64.167 I-3.75 J0
X163.581 Y64.167 I3.75 J0
X162.156 Y65.592 Z-7.095 I-1.425 J0 F333.3
G1 X159.306 Z-7.216
G3 X159.306 Y62.742 Z-7.405 I0 J-1.425
X160.731 Y64.167 Z-7.5 I0 J1.425
X158.931 Y64.167 I-0.9 J0 F700
X163.581 Y64.167 I2.325 J0
X156.081 Y64.167 I-3.75 J0
X163.581 Y64.167 I3.75 J0
X162.156 Y65.592 Z-7.595 I-1.425 J0 F333.3
G1 X159.306 Z-7.716
G3 X159.306 Y62.742 Z-7.905 I0 J-1.425
X160.731 Y64.167 Z-8 I0 J1.425
X158.931 Y64.167 I-0.9 J0 F700
X163.581 Y64.167 I2.325 J0
X156.081 Y64.167 I-3.75 J0
X163.581 Y64.167 I3.75 J0
X162.156 Y65.592 Z-8.095 I-1.425 J0 F333.3
G1 X159.306 Z-8.216
G3 X159.306 Y62.742 Z-8.405 I0 J-1.425
X160.731 Y64.167 Z-8.5 I0 J1.425
X158.931 Y64.167 I-0.9 J0 F700
X163.581 Y64.167 I2.325 J0
X156.081 Y64.167 I-3.75 J0
X163.581 Y64.167 I3.75 J0
X162.156 Y65.592 Z-8.595 I-1.425 J0 F333.3
G1 X159.306 Z-8.716
G3 X159.306 Y62.742 Z-8.905 I0 J-1.425
X160.731 Y64.167 Z-9 I0 J1.425
X158.931 Y64.167 I-0.9 J0 F700
X163.581 Y64.167 I2.325 J0
X156.081 Y64.167 I-3.75 J0
X163.581 Y64.167 I3.75 J0
X162.156 Y65.592 Z-9.095 I-1.425 J0 F333.3
G1 X159.306 Z-9.216
G3 X159.306 Y62.742 Z-9.405 I0 J-1.425
X160.731 Y64.167 Z-9.5 I0 J1.425
X158.931 Y64.167 I-0.9 J0 F700
X163.581 Y64.167 I2.325 J0
X156.081 Y64.167 I-3.75 J0
X163.581 Y64.167 I3.75 J0
X162.156 Y65.592 Z-9.595 I-1.425 J0 F333.3
G1 X159.306 Z-9.716
G3 X159.306 Y62.742 Z-9.905 I0 J-1.425
X160.731 Y64.167 Z-10 I0 J1.425
X158.931 Y64.167 I-0.9 J0 F700
X163.581 Y64.167 I2.325 J0
X156.081 Y64.167 I-3.75 J0
X163.581 Y64.167 I3.75 J0
G0 Z5
X170.029 Y75.836
G1 Z2.5 F700
G3 X167.721 Y74.164 Z1.711 I-1.154 J-0.836 F333.3
X170.029 Y75.836 Z0.921 I1.154 J0.836
X167.721 Y74.164 Z0.132 I-1.154 J-0.836
X170.3 Y75 Z-0.5 I1.154 J0.836
X169.7 Y75 I-0.3 J0 F700
X173.15 Y75 I1.725 J0
X166.85 Y75 I-3.15 J0
X176 Y75 I4.575 J0
X164 Y75 I-6 J0
X176 Y75 I6 J0
X173.15 Y75 Z-0.75 I-1.425 J0 F333.3
G2 X170.3 Y75 Z-1 I-1.425 J0
G3 X169.7 Y75 I-0.3 J0 F700
X173.15 Y75 I1.725 J0
X166.85 Y75 I-3.15 J0
X176 Y75 I4.575 J0
X164 Y75 I-6 J0
X176 Y75 I6 J0
X173.15 Y75 Z-1.25 I-1.425 J0 F333.3
G2 X170.3 Y75 Z-1.5 I-1.425 J0
G3 X169.7 Y75 I-0.3 J0 F700
X173.15 Y75 I1.725 J0
X166.85 Y75 I-3.15 J0
X176 Y75 I4.575 J0
X164 Y75 I-6 J0
X176 Y75 I6 J0
X173.15 Y75 Z-1.75 I-1.425 J0 F333.3
G2 X170.3 Y75 Z-2 I-1.425 J0
G3 X169.7 Y75 I-0.3 J0 F700
X173.15 Y75 I1.725 J0
X166.85 Y75 I-3.15 J0
X176 Y75 I4.575 J0
X164 Y75 I-6 J0
X176 Y75 I6 J0
X173.15 Y75 Z-2.25 I-1.425 J0 F333.3
G2 X170.3 Y75 Z-2.5 I-1.425 J0
G3 X169.7 Y75 I-0.3 J0 F700
X173.15 Y75 I1.725 J0
X166.85 Y75 I-3.15 J0
X176 Y75 I4.575 J0
X164 Y75 I-6 J0
X176 Y75 I6 J0
X173.15 Y75 Z-2.75 I-1.425 J0 F333.3
G2 X170.3 Y75 Z-3 I-1.425 J0
G3 X169.7 Y75 I-0.3 J0 F700
X173.15 Y75 I1.725 J0
X166.85 Y75 I-3.15 J0
X176 Y75 I4.575 J0
X164 Y75 I-6 J0
X176 Y75 I6 J0
X173.15 Y75 Z-3.25 I-1.425 J0 F333.3
G2 X170.3 Y75 Z-3.5 I-1.425 J0
G3 X169.7 Y75 I-0.3 J0 F700
X173.15 Y75 I1.725 J0
X166.85 Y75 I-3.15 J0
X176 Y75 I4.575 J0
X164 Y75 I-6 J0
X176 Y75 I6 J0
X173.15 Y75 Z-3.75 I-1.425 J0 F333.3
G2 X170.3 Y75 Z-4 I-1.425 J0
G3 X169.7 Y75 I-0.3 J0 F700
X173.15 Y75 I1.725 J0
X166.85 Y75 I-3.15 J0
X176 Y75 I4.575 J0
X164 Y75 I-6 J0
X176 Y75 I6 J0
X173.15 Y75 Z-4.25 I-1.425 J0 F333.3
G2 X170.3 Y75 Z-4.5 I-1.425 J0
G3 X169.7 Y75 I-0.3 J0 F700
X173.15 Y75 I1.725 J0
X166.85 Y75 I-3.15 J0
X176 Y75 I4.575 J0
X164 Y75 I-6 J0
X176 Y75 I6 J0
X173.15 Y75 Z-4.75 I-1.425 J0 F333.3
G2 X170.3 Y75 Z-5 I-1.425 J0
G3 X169.7 Y75 I-0.3 J0 F700
X173.15 Y75 I1.725 J0
X166.85 Y75 I-3.15 J0
X176 Y75 I4.575 J0
X164 Y75 I-6 J0
X176 Y75 I6 J0
X173.15 Y75 Z-5.25 I-1.425 J0 F333.3
G2 X170.3 Y75 Z-5.5 I-1.425 J0
G3 X169.7 Y75 I-0.3 J0 F700
X173.15 Y75 I1.725 J0
X166.85 Y75 I-3.15 J0
X176 Y75 I4.575 J0
X164 Y75 I-6 J0
X176 Y75 I6 J0
X173.15 Y75 Z-5.75 I-1.425 J0 F333.3
G2 X170.3 Y75 Z-6 I-1.425 J0
G3 X169.7 Y75 I-0.3 J0 F700
X173.15 Y75 I1.725 J0
X166.85 Y75 I-3.15 J0
X176 Y75 I4.575 J0
X164 Y75 I-6 J0
X176 Y75 I6 J0
X173.15 Y75 Z-6.25 I-1.425 J0 F333.3
G2 X170.3 Y75 Z-6.5 I-1.425 J0
G3 X169.7 Y75 I-0.3 J0 F700
X173.15 Y75 I1.725 J0
X166.85 Y75 I-3.15 J0
X176 Y75 I4.575 J0
X164 Y75 I-6 J0
X176 Y75 I6 J0
X173.15 Y75 Z-6.75 I-1.425 J0 F333.3
G2 X170.3 Y75 Z-7 I-1.425 J0
G3 X169.7 Y75 I-0.3 J0 F700
X173.15 Y75 I1.725 J0
X166.85 Y75 I-3.15 J0
X176 Y75 I4.575 J0
X164 Y75 I-6 J0
X176 Y75 I6 J0
X173.15 Y75 Z-7.25 I-1.425 J0 F333.3
G2 X170.3 Y75 Z-7.5 I-1.425 J0
G3 X169.7 Y75 I-0.3 J0 F700
X173.15 Y75 I1.725 J0
X166.85 Y75 I-3.15 J0
X176 Y75 I4.575 J0
X164 Y75 I-6 J0
X176 Y75 I6 J0
X173.15 Y75 Z-7.75 I-1.425 J0 F333.3
G2 X170.3 Y75 Z-8 I-1.425 J0
G3 X169.7 Y75 I-0.3 J0 F700
X173.15 Y75 I1.725 J0
X166.85 Y75 I-3.15 J0
X176 Y75 I4.575 J0
X164 Y75 I-6 J0
X176 Y75 I6 J0
X173.15 Y75 Z-8.25 I-1.425 J0 F333.3
G2 X170.3 Y75 Z-8.5 I-1.425 J0
G3 X169.7 Y75 I-0.3 J0 F700
X173.15 Y75 I1.725 J0
X166.85 Y75 I-3.15 J0
X176 Y75 I4.575 J0
X164 Y75 I-6 J0
X176 Y75 I6 J0
X173.15 Y75 Z-8.75 I-1.425 J0 F333.3
G2 X170.3 Y75 Z-9 I-1.425 J0
G3 X169.7 Y75 I-0.3 J0 F700
X173.15 Y75 I1.725 J0
X166.85 Y75 I-3.15 J0
X176 Y75 I4.575 J0
X164 Y75 I-6 J0
X176 Y75 I6 J0
X173.15 Y75 Z-9.25 I-1.425 J0 F333.3
G2 X170.3 Y75 Z-9.5 I-1.425 J0
G3 X169.7 Y75 I-0.3 J0 F700
X173.15 Y75 I1.725 J0
X166.85 Y75 I-3.15 J0
X176 Y75 I4.575 J0
X164 Y75 I-6 J0
X176 Y75 I6 J0
X173.15 Y75 Z-9.75 I-1.425 J0 F333.3
G2 X170.3 Y75 Z-10 I-1.425 J0
G3 X169.7 Y75 I-0.3 J0 F700
X173.15 Y75 I1.725 J0
X166.85 Y75 I-3.15 J0
X176 Y75 I4.575 J0
X164 Y75 I-6 J0
X176 Y75 I6 J0
G0 Z5
X180.46 Y65.003
G1 Z2.5 F700
G3 X178.152 Y63.331 Z1.711 I-1.154 J-0.836 F333.3
X180.46 Y65.003 Z0.921 I1.154 J0.836
X178.152 Y63.331 Z0.132 I-1.154 J-0.836
X180.731 Y64.167 Z-0.5 I1.154 J0.836
X178.931 Y64.167 I-0.9 J0 F700
X183.581 Y64.167 I2.325 J0
X176.081 Y64.167 I-3.75 J0
X183.581 Y64.167 I3.75 J0
X182.156 Y65.592 Z-0.595 I-1.425 J0 F333.3
G1 X179.306 Z-0.716
G3 X179.306 Y62.742 Z-0.905 I0 J-1.425
X180.731 Y64.167 Z-1 I0 J1.425
X178.931 Y64.167 I-0.9 J0 F700
X183.581 Y64.167 I2.325 J0
X176.081 Y64.167 I-3.75 J0
X183.581 Y64.167 I3.75 J0
X182.156 Y65.592 Z-1.095 I-1.425 J0 F333.3
G1 X179.306 Z-1.216
G3 X179.306 Y62.742 Z-1.405 I0 J-1.425
X180.731 Y64.167 Z-1.5 I0 J1.425
X178.931 Y64.167 I-0.9 J0 F700
X183.581 Y64.167 I2.325 J0
X176.081 Y64.167 I-3.75 J0
X183.581 Y64.167 I3.75 J0
X182.156 Y65.592 Z-1.595 I-1.425 J0 F333.3
G1 X179.306 Z-1.716
G3 X179.306 Y62.742 Z-1.905 I0 J-1.425
X180.731 Y64.167 Z-2 I0 J1.425
X178.931 Y64.167 I-0.9 J0 F700
X183.581 Y64.167 I2.325 J0
X176.081 Y64.167 I-3.75 J0
X183.581 Y64.167 I3.75 J0
X182.156 Y65.592 Z-2.095 I-1.425 J0 F333.3
G1 X179.306 Z-2.216
G3 X179.306 Y62.742 Z-2.405 I0 J-1.425
X180.731 Y64.167 Z-2.5 I0 J1.425
X178.931 Y64.167 I-0.9 J0 F700
X183.581 Y64.167 I2.325 J0
X176.081 Y64.167 I-3.75 J0
X183.581 Y64.167 I3.75 J0
X182.156 Y65.592 Z-2.595 I-1.425 J0 F333.3
G1 X179.306 Z-2.716
G3 X179.306 Y62.742 Z-2.905 I0 J-1.425
X180.731 Y64.167 Z-3 I0 J1.425
X178.931 Y64.167 I-0.9 J0 F700
X183.581 Y64.167 I2.325 J0
X176.081 Y64.167 I-3.75 J0
X183.581 Y64.167 I3.75 J0
X182.156 Y65.592 Z-3.095 I-1.425 J0 F333.3
G1 X179.306 Z-3.216
G3 X179.306 Y62.742 Z-3.405 I0 J-1.425
X180.731 Y64.167 Z-3.5 I0 J1.425
X178.931 Y64.167 I-0.9 J0 F700
X183.581 Y64.167 I2.325 J0
X176.081 Y64.167 I-3.75 J0
X183.581 Y64.167 I3.75 J0
X182.156 Y65.592 Z-3.595 I-1.425 J0 F333.3
G1 X179.306 Z-3.716
G3 X179.306 Y62.742 Z-3.905 I0 J-1.425
X180.731 Y64.167 Z-4 I0 J1.425
X178.931 Y64.167 I-0.9 J0 F700
X183.581 Y64.167 I2.325 J0
X176.081 Y64.167 I-3.75 J0
X183.581 Y64.167 I3.75 J0
X182.156 Y65.592 Z-4.095 I-1.425 J0 F333.3
G1 X179.306 Z-4.216
G3 X179.306 Y62.742 Z-4.405 I0 J-1.425
X180.731 Y64.167 Z-4.5 I0 J1.425
X178.931 Y64.167 I-0.9 J0 F700
X183.581 Y64.167 I2.325 J0
X176.081 Y64.167 I-3.75 J0
X183.581 Y64.167 I3.75 J0
X182.156 Y65.592 Z-4.595 I-1.425 J0 F333.3
G1 X179.306 Z-4.716
G3 X179.306 Y62.742 Z-4.905 I0 J-1.425
X180.731 Y64.167 Z-5 I0 J1.425
X178.931 Y64.167 I-0.9 J0 F700
X183.581 Y64.167 I2.325 J0
X176.081 Y64.167 I-3.75 J0
X183.581 Y64.167 I3.75 J0
X182.156 Y65.592 Z-5.095 I-1.425 J0 F333.3
G1 X179.306 Z-5.216
G3 X179.306 Y62.742 Z-5.405 I0 J-1.425
X180.731 Y64.167 Z-5.5 I0 J1.425
X178.931 Y64.167 I-0.9 J0 F700
X183.581 Y64.167 I2.325 J0
X176.081 Y64.167 I-3.75 J0
X183.581 Y64.167 I3.75 J0
X182.156 Y65.592 Z-5.595 I-1.425 J0 F333.3
G1 X179.306 Z-5.716
G3 X179.306 Y62.742 Z-5.905 I0 J-1.425
X180.731 Y64.167 Z-6 I0 J1.425
X178.931 Y64.167 I-0.9 J0 F700
X183.581 Y64.167 I2.325 J0
X176.081 Y64.167 I-3.75 J0
X183.581 Y64.167 I3.75 J0
X182.156 Y65.592 Z-6.095 I-1.425 J0 F333.3
G1 X179.306 Z-6.216
G3 X179.306 Y62.742 Z-6.405 I0 J-1.425
X180.731 Y64.167 Z-6.5 I0 J1.425
X178.931 Y64.167 I-0.9 J0 F700
X183.581 Y64.167 I2.325 J0
X176.081 Y64.167 I-3.75 J0
X183.581 Y64.167 I3.75 J0
X182.156 Y65.592 Z-6.595 I-1.425 J0 F333.3
G1 X179.306 Z-6.716
G3 X179.306 Y62.742 Z-6.905 I0 J-1.425
X180.731 Y64.167 Z-7 I0 J1.425
X178.931 Y64.167 I-0.9 J0 F700
X183.581 Y64.167 I2.325 J0
X176.081 Y64.167 I-3.75 J0
X183.581 Y64.167 I3.75 J0
X182.156 Y65.592 Z-7.095 I-1.425 J0 F333.3
G1 X179.306 Z-7.216
G3 X179.306 Y62.742 Z-7.405 I0 J-1.425
X180.731 Y64.167 Z-7.5 I0 J1.425
X178.931 Y64.167 I-0.9 J0 F700
X183.581 Y64.167 I2.325 J0
X176.081 Y64.167 I-3.75 J0
X183.581 Y64.167 I3.75 J0
X182.156 Y65.592 Z-7.595 I-1.425 J0 F333.3
G1 X179.306 Z-7.716
G3 X179.306 Y62.742 Z-7.905 I0 J-1.425
X180.731 Y64.167 Z-8 I0 J1.425
X178.931 Y64.167 I-0.9 J0 F700
X183.581 Y64.167 I2.325 J0
X176.081 Y64.167 I-3.75 J0
X183.581 Y64.167 I3.75 J0
X182.156 Y65.592 Z-8.095 I-1.425 J0 F333.3
G1 X179.306 Z-8.216
G3 X179.306 Y62.742 Z-8.405 I0 J-1.425
X180.731 Y64.167 Z-8.5 I0 J1.425
X178.931 Y64.167 I-0.9 J0 F700
X183.581 Y64.167 I2.325 J0
X176.081 Y64.167 I-3.75 J0
X183.581 Y64.167 I3.75 J0
X182.156 Y65.592 Z-8.595 I-1.425 J0 F333.3
G1 X179.306 Z-8.716
G3 X179.306 Y62.742 Z-8.905 I0 J-1.425
X180.731 Y64.167 Z-9 I0 J1.425
X178.931 Y64.167 I-0.9 J0 F700
X183.581 Y64.167 I2.325 J0
X176.081 Y64.167 I-3.75 J0
X183.581 Y64.167 I3.75 J0
X182.156 Y65.592 Z-9.095 I-1.425 J0 F333.3
G1 X179.306 Z-9.216
G3 X179.306 Y62.742 Z-9.405 I0 J-1.425
X180.731 Y64.167 Z-9.5 I0 J1.425
X178.931 Y64.167 I-0.9 J0 F700
X183.581 Y64.167 I2.325 J0
X176.081 Y64.167 I-3.75 J0
X183.581 Y64.167 I3.75 J0
X182.156 Y65.592 Z-9.595 I-1.425 J0 F333.3
G1 X179.306 Z-9.716
G3 X179.306 Y62.742 Z-9.905 I0 J-1.425
X180.731 Y64.167 Z-10 I0 J1.425
X178.931 Y64.167 I-0.9 J0 F700
X183.581 Y64.167 I2.325 J0
X176.081 Y64.167 I-3.75 J0
X183.581 Y64.167 I3.75 J0
G0 Z5
X191.154 Y81.669
G1 Z2.5 F700
G3 X188.846 Y79.997 Z1.711 I-1.154 J-0.836 F333.3
X191.154 Y81.669 Z0.921 I1.154 J0.836
X188.846 Y79.997 Z0.132 I-1.154 J-0.836
X191.425 Y80.833 Z-0.5 I1.154 J0.836
G1 X191.418 Y80.855
X191.399 Y80.869
X191.376
X191.357 Y80.855
X191.35 Y80.833
X191.357 Y80.801 F700
X191.378 Y80.775
X191.408 Y80.76
X191.442
X191.472 Y80.775
X191.493 Y80.801
X191.5 Y80.833
G3 X188.5 Y80.833 I-1.5 J0
X191.5 Y80.833 I1.5 J0
X191.194 Y81.003 I-0.2 J0
G1 X189.396 Y79.884
G3 X189.42 Y79.532 I0.106 J-0.17
X191.425 Y80.833 Z-1 I0.58 J1.302 F333.3
G1 X191.418 Y80.855
X191.399 Y80.869
X191.376
X191.357 Y80.855
X191.35 Y80.833
X191.357 Y80.801 F700
X191.378 Y80.775
X191.408 Y80.76
X191.442
X191.472 Y80.775
X191.493 Y80.801
X191.5 Y80.833
G3 X188.5 Y80.833 I-1.5 J0
X191.5 Y80.833 I1.5 J0
X191.194 Y81.003 I-0.2 J0
G1 X189.396 Y79.884
G3 X189.42 Y79.532 I0.106 J-0.17
X191.425 Y80.833 Z-1.5 I0.58 J1.302 F333.3
G1 X191.418 Y80.855
X191.399 Y80.869
X191.376
X191.357 Y80.855
X191.35 Y80.833
X191.357 Y80.801 F700
X191.378 Y80.775
X191.408 Y80.76
X191.442
X191.472 Y80.775
X191.493 Y80.801
X191.5 Y80.833
G3 X188.5 Y80.833 I-1.5 J0
X191.5 Y80.833 I1.5 J0
X191.194 Y81.003 I-0.2 J0
G1 X189.396 Y79.884
G3 X189.42 Y79.532 I0.106 J-0.17
X191.425 Y80.833 Z-2 I0.58 J1.302 F333.3
G1 X191.418 Y80.855
X191.399 Y80.869
X191.376
X191.357 Y80.855
X191.35 Y80.833
X191.357 Y80.801 F700
X191.378 Y80.775
X191.408 Y80.76
X191.442
X191.472 Y80.775
X191.493 Y80.801
X191.5 Y80.833
G3 X188.5 Y80.833 I-1.5 J0
X191.5 Y80.833 I1.5 J0
X191.194 Y81.003 I-0.2 J0
G1 X189.396 Y79.884
G3 X189.42 Y79.532 I0.106 J-0.17
X191.425 Y80.833 Z-2.5 I0.58 J1.302 F333.3
G1 X191.418 Y80.855
X191.399 Y80.869
X191.376
X191.357 Y80.855
X191.35 Y80.833
X191.357 Y80.801 F700
X191.378 Y80.775
X191.408 Y80.76
X191.442
X191.472 Y80.775
X191.493 Y80.801
X191.5 Y80.833
G3 X188.5 Y80.833 I-1.5 J0
X191.5 Y80.833 I1.5 J0
X191.194 Y81.003 I-0.2 J0
G1 X189.396 Y79.884
G3 X189.42 Y79.532 I0.106 J-0.17
X191.425 Y80.833 Z-3 I0.58 J1.302 F333.3
G1 X191.418 Y80.855
X191.399 Y80.869
X191.376
X191.357 Y80.855
X191.35 Y80.833
X191.357 Y80.801 F700
X191.378 Y80.775
X191.408 Y80.76
X191.442
X191.472 Y80.775
X191.493 Y80.801
X191.5 Y80.833
G3 X188.5 Y80.833 I-1.5 J0
X191.5 Y80.833 I1.5 J0
X191.194 Y81.003 I-0.2 J0
G1 X189.396 Y79.884
G3 X189.42 Y79.532 I0.106 J-0.17
X191.425 Y80.833 Z-3.5 I0.58 J1.302 F333.3
G1 X191.418 Y80.855
X191.399 Y80.869
X191.376
X191.357 Y80.855
X191.35 Y80.833
X191.357 Y80.801 F700
X191.378 Y80.775
X191.408 Y80.76
X191.442
X191.472 Y80.775
X191.493 Y80.801
X191.5 Y80.833
G3 X188.5 Y80.833 I-1.5 J0
X191.5 Y80.833 I1.5 J0
X191.194 Y81.003 I-0.2 J0
G1 X189.396 Y79.884
G3 X189.42 Y79.532 I0.106 J-0.17
X191.425 Y80.833 Z-4 I0.58 J1.302 F333.3
G1 X191.418 Y80.855
X191.399 Y80.869
X191.376
X191.357 Y80.855
X191.35 Y80.833
X191.357 Y80.801 F700
X191.378 Y80.775
X191.408 Y80.76
X191.442
X191.472 Y80.775
X191.493 Y80.801
X191.5 Y80.833
G3 X188.5 Y80.833 I-1.5 J0
X191.5 Y80.833 I1.5 J0
X191.194 Y81.003 I-0.2 J0
G1 X189.396 Y79.884
G3 X189.42 Y79.532 I0.106 J-0.17
X191.425 Y80.833 Z-4.5 I0.58 J1.302 F333.3
G1 X191.418 Y80.855
X191.399 Y80.869
X191.376
X191.357 Y80.855
X191.35 Y80.833
X191.357 Y80.801 F700
X191.378 Y80.775
X191.408 Y80.76
X191.442
X191.472 Y80.775
X191.493 Y80.801
X191.5 Y80.833
G3 X188.5 Y80.833 I-1.5 J0
X191.5 Y80.833 I1.5 J0
X191.194 Y81.003 I-0.2 J0
G1 X189.396 Y79.884
G3 X189.42 Y79.532 I0.106 J-0.17
X191.425 Y80.833 Z-5 I0.58 J1.302 F333.3
G1 X191.418 Y80.855
X191.399 Y80.869
X191.376
X191.357 Y80.855
X191.35 Y80.833
X191.357 Y80.801 F700
X191.378 Y80.775
X191.408 Y80.76
X191.442
X191.472 Y80.775
X191.493 Y80.801
X191.5 Y80.833
G3 X188.5 Y80.833 I-1.5 J0
X191.5 Y80.833 I1.5 J0
X191.194 Y81.003 I-0.2 J0
G1 X189.396 Y79.884
G3 X189.42 Y79.532 I0.106 J-0.17
X191.425 Y80.833 Z-5.5 I0.58 J1.302 F333.3
G1 X191.418 Y80.855
X191.399 Y80.869
X191.376
X191.357 Y80.855
X191.35 Y80.833
X191.357 Y80.801 F700
X191.378 Y80.775
X191.408 Y80.76
X191.442
X191.472 Y80.775
X191.493 Y80.801
X191.5 Y80.833
G3 X188.5 Y80.833 I-1.5 J0
X191.5 Y80.833 I1.5 J0
X191.194 Y81.003 I-0.2 J0
G1 X189.396 Y79.884
G3 X189.42 Y79.532 I0.106 J-0.17
X191.425 Y80.833 Z-6 I0.58 J1.302 F333.3
G1 X191.418 Y80.855
X191.399 Y80.869
X191.376
X191.357 Y80.855
X191.35 Y80.833
X191.357 Y80.801 F700
X191.378 Y80.775
X191.408 Y80.76
X191.442
X191.472 Y80.775
X191.493 Y80.801
X191.5 Y80.833
G3 X188.5 Y80.833 I-1.5 J0
X191.5 Y80.833 I1.5 J0
X191.194 Y81.003 I-0.2 J0
G1 X189.396 Y79.884
G3 X189.42 Y79.532 I0.106 J-0.17
X191.425 Y80.833 Z-6.5 I0.58 J1.302 F333.3
G1 X191.418 Y80.855
X191.399 Y80.869
X191.376
X191.357 Y80.855
X191.35 Y80.833
X191.357 Y80.801 F700
X191.378 Y80.775
X191.408 Y80.76
X191.442
X191.472 Y80.775
X191.493 Y80.801
X191.5 Y80.833
G3 X188.5 Y80.833 I-1.5 J0
X191.5 Y80.833 I1.5 J0
X191.194 Y81.003 I-0.2 J0
G1 X189.396 Y79.884
G3 X189.42 Y79.532 I0.106 J-0.17
X191.425 Y80.833 Z-7 I0.58 J1.302 F333.3
G1 X191.418 Y80.855
X191.399 Y80.869
X191.376
X191.357 Y80.855
X191.35 Y80.833
X191.357 Y80.801 F700
X191.378 Y80.775
X191.408 Y80.76
X191.442
X191.472 Y80.775
X191.493 Y80.801
X191.5 Y80.833
G3 X188.5 Y80.833 I-1.5 J0
X191.5 Y80.833 I1.5 J0
X191.194 Y81.003 I-0.2 J0
G1 X189.396 Y79.884
G3 X189.42 Y79.532 I0.106 J-0.17
X191.425 Y80.833 Z-7.5 I0.58 J1.302 F333.3
G1 X191.418 Y80.855
X191.399 Y80.869
X191.376
X191.357 Y80.855
X191.35 Y80.833
X191.357 Y80.801 F700
X191.378 Y80.775
X191.408 Y80.76
X191.442
X191.472 Y80.775
X191.493 Y80.801
X191.5 Y80.833
G3 X188.5 Y80.833 I-1.5 J0
X191.5 Y80.833 I1.5 J0
X191.194 Y81.003 I-0.2 J0
G1 X189.396 Y79.884
G3 X189.42 Y79.532 I0.106 J-0.17
X191.425 Y80.833 Z-8 I0.58 J1.302 F333.3
G1 X191.418 Y80.855
X191.399 Y80.869
X191.376
X191.357 Y80.855
X191.35 Y80.833
X191.357 Y80.801 F700
X191.378 Y80.775
X191.408 Y80.76
X191.442
X191.472 Y80.775
X191.493 Y80.801
X191.5 Y80.833
G3 X188.5 Y80.833 I-1.5 J0
X191.5 Y80.833 I1.5 J0
X191.194 Y81.003 I-0.2 J0
G1 X189.396 Y79.884
G3 X189.42 Y79.532 I0.106 J-0.17
X191.425 Y80.833 Z-8.5 I0.58 J1.302 F333.3
G1 X191.418 Y80.855
X191.399 Y80.869
X191.376
X191.357 Y80.855
X191.35 Y80.833
X191.357 Y80.801 F700
X191.378 Y80.775
X191.408 Y80.76
X191.442
X191.472 Y80.775
X191.493 Y80.801
X191.5 Y80.833
G3 X188.5 Y80.833 I-1.5 J0
X191.5 Y80.833 I1.5 J0
X191.194 Y81.003 I-0.2 J0
G1 X189.396 Y79.884
G3 X189.42 Y79.532 I0.106 J-0.17
X191.425 Y80.833 Z-9 I0.58 J1.302 F333.3
G1 X191.418 Y80.855
X191.399 Y80.869
X191.376
X191.357 Y80.855
X191.35 Y80.833
X191.357 Y80.801 F700
X191.378 Y80.775
X191.408 Y80.76
X191.442
X191.472 Y80.775
X191.493 Y80.801
X191.5 Y80.833
G3 X188.5 Y80.833 I-1.5 J0
X191.5 Y80.833 I1.5 J0
X191.194 Y81.003 I-0.2 J0
G1 X189.396 Y79.884
G3 X189.42 Y79.532 I0.106 J-0.17
X191.425 Y80.833 Z-9.5 I0.58 J1.302 F333.3
G1 X191.418 Y80.855
X191.399 Y80.869
X191.376
X191.357 Y80.855
X191.35 Y80.833
X191.357 Y80.801 F700
X191.378 Y80.775
X191.408 Y80.76
X191.442
X191.472 Y80.775
X191.493 Y80.801
X191.5 Y80.833
G3 X188.5 Y80.833 I-1.5 J0
X191.5 Y80.833 I1.5 J0
X191.194 Y81.003 I-0.2 J0
G1 X189.396 Y79.884
G3 X189.42 Y79.532 I0.106 J-0.17
X191.425 Y80.833 Z-10 I0.58 J1.302 F333.3
G1 X191.418 Y80.855
X191.399 Y80.869
X191.376
X191.357 Y80.855
X191.35 Y80.833
X191.357 Y80.801 F700
X191.378 Y80.775
X191.408 Y80.76
X191.442
X191.472 Y80.775
X191.493 Y80.801
X191.5 Y80.833
G3 X188.5 Y80.833 I-1.5 J0
X191.5 Y80.833 I1.5 J0
G0 Z5
X164.738 Y103.586
G1 Z2.5 F700
G3 X162.43 Y101.914 Z1.711 I-1.154 J-0.836 F333.3
X164.738 Y103.586 Z0.921 I1.154 J0.836
X162.43 Y101.914 Z0.132 I-1.154 J-0.836
X165.009 Y102.75 Z-0.5 I1.154 J0.836
G1 Y112.654 F700
G3 X164.69 Y112.973 I-0.319 J0
G1 X163.882
G3 X163.563 Y112.654 I0 J-0.319
G1 Y102.346
G3 X163.882 Y102.027 I0.319 J0
G1 X164.69
G3 X165.009 Y102.346 I0 J0.319
G1 Y102.75
G2 X165.748 Y103.859 I1.201 J0
G3 X166.488 Y104.968 I-0.462 J1.109
G1 Y114.132
G3 X166.168 Y114.452 I-0.319 J0
G1 X162.404
G3 X162.084 Y114.132 I0 J-0.319
G1 Y100.868
G3 X162.404 Y100.548 I0.319 J0
G1 X166.168
G3 X166.488 Y100.868 I0 J0.319
G1 Y104.968
G2 X167.686 Y106.765 I1.947 J0
G3 X168.884 Y108.563 I-0.749 J1.797
G1 Y116.529
G3 X168.565 Y116.848 I-0.319 J0
G1 X160.007
G3 X159.688 Y116.529 I0 J-0.319
G1 Y98.471
G3 X160.007 Y98.152 I0.319 J0
G1 X168.565
G3 X168.884 Y98.471 I0 J0.319
G1 Y108.563
G2 X170.085 Y110.364 I1.951 J0
G3 X171.286 Y112.165 I-0.751 J1.801
G1 Y119.25
X157.286
Y95.75
X171.286
Y112.165
G3 X168.439 Y112.252 Z-0.619 I-1.425 J0 F333.3
G1 X167.857 Y102.664 Z-0.881
G2 X165.009 Y102.75 Z-1 I-1.422 J0.086
G1 Y112.654 F700
G3 X164.69 Y112.973 I-0.319 J0
G1 X163.882
G3 X163.563 Y112.654 I0 J-0.319
G1 Y102.346
G3 X163.882 Y102.027 I0.319 J0
G1 X164.69
G3 X165.009 Y102.346 I0 J0.319
G1 Y102.75
G2 X165.748 Y103.859 I1.201 J0
G3 X166.488 Y104.968 I-0.462 J1.109
G1 Y114.132
G3 X166.168 Y114.452 I-0.319 J0
G1 X162.404
G3 X162.084 Y114.132 I0 J-0.319
G1 Y100.868
G3 X162.404 Y100.548 I0.319 J0
G1 X166.168
G3 X166.488 Y100.868 I0 J0.319
G1 Y104.968
G2 X167.686 Y106.765 I1.947 J0
G3 X168.884 Y108.563 I-0.749 J1.797
G1 Y116.529
G3 X168.565 Y116.848 I-0.319 J0
G1 X160.007
G3 X159.688 Y116.529 I0 J-0.319
G1 Y98.471
G3 X160.007 Y98.152 I0.319 J0
G1 X168.565
G3 X168.884 Y98.471 I0 J0.319
G1 Y108.563
G2 X170.085 Y110.364 I1.951 J0
G3 X171.286 Y112.165 I-0.751 J1.801
G1 Y119.25
X157.286
Y95.75
X171.286
Y112.165
G3 X168.439 Y112.252 Z-1.119 I-1.425 J0 F333.3
G1 X167.857 Y102.664 Z-1.381
G2 X165.009 Y102.75 Z-1.5 I-1.422 J0.086
G1 Y112.654 F700
G3 X164.69 Y112.973 I-0.319 J0
G1 X163.882
G3 X163.563 Y112.654 I0 J-0.319
G1 Y102.346
G3 X163.882 Y102.027 I0.319 J0
G1 X164.69
G3 X165.009 Y102.346 I0 J0.319
G1 Y102.75
G2 X165.748 Y103.859 I1.201 J0
G3 X166.488 Y104.968 I-0.462 J1.109
G1 Y114.132
G3 X166.168 Y114.452 I-0.319 J0
G1 X162.404
G3 X162.084 Y114.132 I0 J-0.319
G1 Y100.868
G3 X162.404 Y100.548 I0.319 J0
G1 X166.168
G3 X166.488 Y100.868 I0 J0.319
G1 Y104.968
G2 X167.686 Y106.765 I1.947 J0
G3 X168.884 Y108.563 I-0.749 J1.797
G1 Y116.529
G3 X168.565 Y116.848 I-0.319 J0
G1 X160.007
G3 X159.688 Y116.529 I0 J-0.319
G1 Y98.471
G3 X160.007 Y98.152 I0.319 J0
G1 X168.565
G3 X168.884 Y98.471 I0 J0.319
G1 Y108.563
G2 X170.085 Y110.364 I1.951 J0
G3 X171.286 Y112.165 I-0.751 J1.801
G1 Y119.25
X157.286
Y95.75
X171.286
Y112.165
G3 X168.439 Y112.252 Z-1.619 I-1.425 J0 F333.3
G1 X167.857 Y102.664 Z-1.881
G2 X165.009 Y102.75 Z-2 I-1.422 J0.086
G1 Y112.654 F700
G3 X164.69 Y112.973 I-0.319 J0
G1 X163.882
G3 X163.563 Y112.654 I0 J-0.319
G1 Y102.346
G3 X163.882 Y102.027 I0.319 J0
G1 X164.69
G3 X165.009 Y102.346 I0 J0.319
G1 Y102.75
G2 X165.748 Y103.859 I1.201 J0
G3 X166.488 Y104.968 I-0.462 J1.109
G1 Y114.132
G3 X166.168 Y114.452 I-0.319 J0
G1 X162.404
G3 X162.084 Y114.132 I0 J-0.319
G1 Y100.868
G3 X162.404 Y100.548 I0.319 J0
G1 X166.168
G3 X166.488 Y100.868 I0 J0.319
G1 Y104.968
G2 X167.686 Y106.765 I1.947 J0
G3 X168.884 Y108.563 I-0.749 J1.797
G1 Y116.529
G3 X168.565 Y116.848 I-0.319 J0
G1 X160.007
G3 X159.688 Y116.529 I0 J-0.319
G1 Y98.471
G3 X160.007 Y98.152 I0.319 J0
G1 X168.565
G3 X168.884 Y98.471 I0 J0.319
G1 Y108.563
G2 X170.085 Y110.364 I1.951 J0
G3 X171.286 Y112.165 I-0.751 J1.801
G1 Y119.25
X157.286
Y95.75
X171.286
Y112.165
G3 X168.439 Y112.252 Z-2.119 I-1.425 J0 F333.3
G1 X167.857 Y102.664 Z-2.381
G2 X165.009 Y102.75 Z-2.5 I-1.422 J0.086
G1 Y112.654 F700
G3 X164.69 Y112.973 I-0.319 J0
G1 X163.882
G3 X163.563 Y112.654 I0 J-0.319
G1 Y102.346
G3 X163.882 Y102.027 I0.319 J0
G1 X164.69
G3 X165.009 Y102.346 I0 J0.319
G1 Y102.75
G2 X165.748 Y103.859 I1.201 J0
G3 X166.488 Y104.968 I-0.462 J1.109
G1 Y114.132
G3 X166.168 Y114.452 I-0.319 J0
G1 X162.404
G3 X162.084 Y114.132 I0 J-0.319
G1 Y100.868
G3 X162.404 Y100.548 I0.319 J0
G1 X166.168
G3 X166.488 Y100.868 I0 J0.319
G1 Y104.968
G2 X167.686 Y106.765 I1.947 J0
G3 X168.884 Y108.563 I-0.749 J1.797
G1 Y116.529
G3 X168.565 Y116.848 I-0.319 J0
G1 X160.007
G3 X159.688 Y116.529 I0 J-0.319
G1 Y98.471
G3 X160.007 Y98.152 I0.319 J0
G1 X168.565
G3 X168.884 Y98.471 I0 J0.319
G1 Y108.563
G2 X170.085 Y110.364 I1.951 J0
G3 X171.286 Y112.165 I-0.751 J1.801
G1 Y119.25
X157.286
Y95.75
X171.286
Y112.165
G3 X168.439 Y112.252 Z-2.619 I-1.425 J0 F333.3
G1 X167.857 Y102.664 Z-2.881
G2 X165.009 Y102.75 Z-3 I-1.422 J0.086
G1 Y112.654 F700
G3 X164.69 Y112.973 I-0.319 J0
G1 X163.882
G3 X163.563 Y112.654 I0 J-0.319
G1 Y102.346
G3 X163.882 Y102.027 I0.319 J0
G1 X164.69
G3 X165.009 Y102.346 I0 J0.319
G1 Y102.75
G2 X165.748 Y103.859 I1.201 J0
G3 X166.488 Y104.968 I-0.462 J1.109
G1 Y114.132
G3 X166.168 Y114.452 I-0.319 J0
G1 X162.404
G3 X162.084 Y114.132 I0 J-0.319
G1 Y100.868
G3 X162.404 Y100.548 I0.319 J0
G1 X166.168
G3 X166.488 Y100.868 I0 J0.319
G1 Y104.968
G2 X167.686 Y106.765 I1.947 J0
G3 X168.884 Y108.563 I-0.749 J1.797
G1 Y116.529
G3 X168.565 Y116.848 I-0.319 J0
G1 X160.007
G3 X159.688 Y116.529 I0 J-0.319
G1 Y98.471
G3 X160.007 Y98.152 I0.319 J0
G1 X168.565
G3 X168.884 Y98.471 I0 J0.319
G1 Y108.563
G2 X170.085 Y110.364 I1.951 J0
G3 X171.286 Y112.165 I-0.751 J1.801
G1 Y119.25
X157.286
Y95.75
X171.286
Y112.165
G3 X168.439 Y112.252 Z-3.119 I-1.425 J0 F333.3
G1 X167.857 Y102.664 Z-3.381
G2 X165.009 Y102.75 Z-3.5 I-1.422 J0.086
G1 Y112.654 F700
G3 X164.69 Y112.973 I-0.319 J0
G1 X163.882
G3 X163.563 Y112.654 I0 J-0.319
G1 Y102.346
G3 X163.882 Y102.027 I0.319 J0
G1 X164.69
G3 X165.009 Y102.346 I0 J0.319
G1 Y102.75
G2 X165.748 Y103.859 I1.201 J0
G3 X166.488 Y104.968 I-0.462 J1.109
G1 Y114.132
G3 X166.168 Y114.452 I-0.319 J0
G1 X162.404
G3 X162.084 Y114.132 I0 J-0.319
G1 Y100.868
G3 X162.404 Y100.548 I0.319 J0
G1 X166.168
G3 X166.488 Y100.868 I0 J0.319
G1 Y104.968
G2 X167.686 Y106.765 I1.947 J0
G3 X168.884 Y108.563 I-0.749 J1.797
G1 Y116.529
G3 X168.565 Y116.848 I-0.319 J0
G1 X160.007
G3 X159.688 Y116.529 I0 J-0.319
G1 Y98.471
G3 X160.007 Y98.152 I0.319 J0
G1 X168.565
G3 X168.884 Y98.471 I0 J0.319
G1 Y108.563
G2 X170.085 Y110.364 I1.951 J0
G3 X171.286 Y112.165 I-0.751 J1.801
G1 Y119.25
X157.286
Y95.75
X171.286
Y112.165
G3 X168.439 Y112.252 Z-3.619 I-1.425 J0 F333.3
G1 X167.857 Y102.664 Z-3.881
G2 X165.009 Y102.75 Z-4 I-1.422 J0.086
G1 Y112.654 F700
G3 X164.69 Y112.973 I-0.319 J0
G1 X163.882
G3 X163.563 Y112.654 I0 J-0.319
G1 Y102.346
G3 X163.882 Y102.027 I0.319 J0
G1 X164.69
G3 X165.009 Y102.346 I0 J0.319
G1 Y102.75
G2 X165.748 Y103.859 I1.201 J0
G3 X166.488 Y104.968 I-0.462 J1.109
G1 Y114.132
G3 X166.168 Y114.452 I-0.319 J0
G1 X162.404
G3 X162.084 Y114.132 I0 J-0.319
G1 Y100.868
G3 X162.404 Y100.548 I0.319 J0
G1 X166.168
G3 X166.488 Y100.868 I0 J0.319
G1 Y104.968
G2 X167.686 Y106.765 I1.947 J0
G3 X168.884 Y108.563 I-0.749 J1.797
G1 Y116.529
G3 X168.565 Y116.848 I-0.319 J0
G1 X160.007
G3 X159.688 Y116.529 I0 J-0.319
G1 Y98.471
G3 X160.007 Y98.152 I0.319 J0
G1 X168.565
G3 X168.884 Y98.471 I0 J0.319
G1 Y108.563
G2 X170.085 Y110.364 I1.951 J0
G3 X171.286 Y112.165 I-0.751 J1.801
G1 Y119.25
X157.286
Y95.75
X171.286
Y112.165
G3 X168.439 Y112.252 Z-4.119 I-1.425 J0 F333.3
G1 X167.857 Y102.664 Z-4.381
G2 X165.009 Y102.75 Z-4.5 I-1.422 J0.086
G1 Y112.654 F700
G3 X164.69 Y112.973 I-0.319 J0
G1 X163.882
G3 X163.563 Y112.654 I0 J-0.319
G1 Y102.346
G3 X163.882 Y102.027 I0.319 J0
G1 X164.69
G3 X165.009 Y102.346 I0 J0.319
G1 Y102.75
G2 X165.748 Y103.859 I1.201 J0
G3 X166.488 Y104.968 I-0.462 J1.109
G1 Y114.132
G3 X166.168 Y114.452 I-0.319 J0
G1 X162.404
G3 X162.084 Y114.132 I0 J-0.319
G1 Y100.868
G3 X162.404 Y100.548 I0.319 J0
G1 X166.168
G3 X166.488 Y100.868 I0 J0.319
G1 Y104.968
G2 X167.686 Y106.765 I1.947 J0
G3 X168.884 Y108.563 I-0.749 J1.797
G1 Y116.529
G3 X168.565 Y116.848 I-0.319 J0
G1 X160.007
G3 X159.688 Y116.529 I0 J-0.319
G1 Y98.471
G3 X160.007 Y98.152 I0.319 J0
G1 X168.565
G3 X168.884 Y98.471 I0 J0.319
G1 Y108.563
G2 X170.085 Y110.364 I1.951 J0
G3 X171.286 Y112.165 I-0.751 J1.801
G1 Y119.25
X157.286
Y95.75
X171.286
Y112.165
G3 X168.439 Y112.252 Z-4.619 I-1.425 J0 F333.3
G1 X167.857 Y102.664 Z-4.881
G2 X165.009 Y102.75 Z-5 I-1.422 J0.086
G1 Y112.654 F700
G3 X164.69 Y112.973 I-0.319 J0
G1 X163.882
G3 X163.563 Y112.654 I0 J-0.319
G1 Y102.346
G3 X163.882 Y102.027 I0.319 J0
G1 X164.69
G3 X165.009 Y102.346 I0 J0.319
G1 Y102.75
G2 X165.748 Y103.859 I1.201 J0
G3 X166.488 Y104.968 I-0.462 J1.109
G1 Y114.132
G3 X166.168 Y114.452 I-0.319 J0
G1 X162.404
G3 X162.084 Y114.132 I0 J-0.319
G1 Y100.868
G3 X162.404 Y100.548 I0.319 J0
G1 X166.168
G3 X166.488 Y100.868 I0 J0.319
G1 Y104.968
G2 X167.686 Y106.765 I1.947 J0
G3 X168.884 Y108.563 I-0.749 J1.797
G1 Y116.529
G3 X168.565 Y116.848 I-0.319 J0
G1 X160.007
G3 X159.688 Y116.529 I0 J-0.319
G1 Y98.471
G3 X160.007 Y98.152 I0.319 J0
G1 X168.565
G3 X168.884 Y98.471 I0 J0.319
G1 Y108.563
G2 X170.085 Y110.364 I1.951 J0
G3 X171.286 Y112.165 I-0.751 J1.801
G1 Y119.25
X157.286
Y95.75
X171.286
Y112.165
G3 X168.439 Y112.252 Z-5.119 I-1.425 J0 F333.3
G1 X167.857 Y102.664 Z-5.381
G2 X165.009 Y102.75 Z-5.5 I-1.422 J0.086
G1 Y112.654 F700
G3 X164.69 Y112.973 I-0.319 J0
G1 X163.882
G3 X163.563 Y112.654 I0 J-0.319
G1 Y102.346
G3 X163.882 Y102.027 I0.319 J0
G1 X164.69
G3 X165.009 Y102.346 I0 J0.319
G1 Y102.75
G2 X165.748 Y103.859 I1.201 J0
G3 X166.488 Y104.968 I-0.462 J1.109
G1 Y114.132
G3 X166.168 Y114.452 I-0.319 J0
G1 X162.404
G3 X162.084 Y114.132 I0 J-0.319
G1 Y100.868
G3 X162.404 Y100.548 I0.319 J0
G1 X166.168
G3 X166.488 Y100.868 I0 J0.319
G1 Y104.968
G2 X167.686 Y106.765 I1.947 J0
G3 X168.884 Y108.563 I-0.749 J1.797
G1 Y116.529
G3 X168.565 Y116.848 I-0.319 J0
G1 X160.007
G3 X159.688 Y116.529 I0 J-0.319
G1 Y98.471
G3 X160.007 Y98.152 I0.319 J0
G1 X168.565
G3 X168.884 Y98.471 I0 J0.319
G1 Y108.563
G2 X170.085 Y110.364 I1.951 J0
G3 X171.286 Y112.165 I-0.751 J1.801
G1 Y119.25
X157.286
Y95.75
X171.286
Y112.165
G3 X168.439 Y112.252 Z-5.619 I-1.425 J0 F333.3
G1 X167.857 Y102.664 Z-5.881
G2 X165.009 Y102.75 Z-6 I-1.422 J0.086
G1 Y112.654 F700
G3 X164.69 Y112.973 I-0.319 J0
G1 X163.882
G3 X163.563 Y112.654 I0 J-0.319
G1 Y102.346
G3 X163.882 Y102.027 I0.319 J0
G1 X164.69
G3 X165.009 Y102.346 I0 J0.319
G1 Y102.75
G2 X165.748 Y103.859 I1.201 J0
G3 X166.488 Y104.968 I-0.462 J1.109
G1 Y114.132
G3 X166.168 Y114.452 I-0.319 J0
G1 X162.404
G3 X162.084 Y114.132 I0 J-0.319
G1 Y100.868
G3 X162.404 Y100.548 I0.319 J0
G1 X166.168
G3 X166.488 Y100.868 I0 J0.319
G1 Y104.968
G2 X167.686 Y106.765 I1.947 J0
G3 X168.884 Y108.563 I-0.749 J1.797
G1 Y116.529
G3 X168.565 Y116.848 I-0.319 J0
G1 X160.007
G3 X159.688 Y116.529 I0 J-0.319
G1 Y98.471
G3 X160.007 Y98.152 I0.319 J0
G1 X168.565
G3 X168.884 Y98.471 I0 J0.319
G1 Y108.563
G2 X170.085 Y110.364 I1.951 J0
G3 X171.286 Y112.165 I-0.751 J1.801
G1 Y119.25
X157.286
Y95.75
X171.286
Y112.165
G3 X168.439 Y112.252 Z-6.119 I-1.425 J0 F333.3
G1 X167.857 Y102.664 Z-6.381
G2 X165.009 Y102.75 Z-6.5 I-1.422 J0.086
G1 Y112.654 F700
G3 X164.69 Y112.973 I-0.319 J0
G1 X163.882
G3 X163.563 Y112.654 I0 J-0.319
G1 Y102.346
G3 X163.882 Y102.027 I0.319 J0
G1 X164.69
G3 X165.009 Y102.346 I0 J0.319
G1 Y102.75
G2 X165.748 Y103.859 I1.201 J0
G3 X166.488 Y104.968 I-0.462 J1.109
G1 Y114.132
G3 X166.168 Y114.452 I-0.319 J0
G1 X162.404
G3 X162.084 Y114.132 I0 J-0.319
G1 Y100.868
G3 X162.404 Y100.548 I0.319 J0
G1 X166.168
G3 X166.488 Y100.868 I0 J0.319
G1 Y104.968
G2 X167.686 Y106.765 I1.947 J0
G3 X168.884 Y108.563 I-0.749 J1.797
G1 Y116.529
G3 X168.565 Y116.848 I-0.319 J0
G1 X160.007
G3 X159.688 Y116.529 I0 J-0.319
G1 Y98.471
G3 X160.007 Y98.152 I0.319 J0
G1 X168.565
G3 X168.884 Y98.471 I0 J0.319
G1 Y108.563
G2 X170.085 Y110.364 I1.951 J0
G3 X171.286 Y112.165 I-0.751 J1.801
G1 Y119.25
X157.286
Y95.75
X171.286
Y112.165
G3 X168.439 Y112.252 Z-6.619 I-1.425 J0 F333.3
G1 X167.857 Y102.664 Z-6.881
G2 X165.009 Y102.75 Z-7 I-1.422 J0.086
G1 Y112.654 F700
G3 X164.69 Y112.973 I-0.319 J0
G1 X163.882
G3 X163.563 Y112.654 I0 J-0.319
G1 Y102.346
G3 X163.882 Y102.027 I0.319 J0
G1 X164.69
G3 X165.009 Y102.346 I0 J0.319
G1 Y102.75
G2 X165.748 Y103.859 I1.201 J0
G3 X166.488 Y104.968 I-0.462 J1.109
G1 Y114.132
G3 X166.168 Y114.452 I-0.319 J0
G1 X162.404
G3 X162.084 Y114.132 I0 J-0.319
G1 Y100.868
G3 X162.404 Y100.548 I0.319 J0
G1 X166.168
G3 X166.488 Y100.868 I0 J0.319
G1 Y104.968
G2 X167.686 Y106.765 I1.947 J0
G3 X168.884 Y108.563 I-0.749 J1.797
G1 Y116.529
G3 X168.565 Y116.848 I-0.319 J0
G1 X160.007
G3 X159.688 Y116.529 I0 J-0.319
G1 Y98.471
G3 X160.007 Y98.152 I0.319 J0
G1 X168.565
G3 X168.884 Y98.471 I0 J0.319
G1 Y108.563
G2 X170.085 Y110.364 I1.951 J0
G3 X171.286 Y112.165 I-0.751 J1.801
G1 Y119.25
X157.286
Y95.75
X171.286
Y112.165
G3 X168.439 Y112.252 Z-7.119 I-1.425 J0 F333.3
G1 X167.857 Y102.664 Z-7.381
G2 X165.009 Y102.75 Z-7.5 I-1.422 J0.086
G1 Y112.654 F700
G3 X164.69 Y112.973 I-0.319 J0
G1 X163.882
G3 X163.563 Y112.654 I0 J-0.319
G1 Y102.346
G3 X163.882 Y102.027 I0.319 J0
G1 X164.69
G3 X165.009 Y102.346 I0 J0.319
G1 Y102.75
G2 X165.748 Y103.859 I1.201 J0
G3 X166.488 Y104.968 I-0.462 J1.109
G1 Y114.132
G3 X166.168 Y114.452 I-0.319 J0
G1 X162.404
G3 X162.084 Y114.132 I0 J-0.319
G1 Y100.868
G3 X162.404 Y100.548 I0.319 J0
G1 X166.168
G3 X166.488 Y100.868 I0 J0.319
G1 Y104.968
G2 X167.686 Y106.765 I1.947 J0
G3 X168.884 Y108.563 I-0.749 J1.797
G1 Y116.529
G3 X168.565 Y116.848 I-0.319 J0
G1 X160.007
G3 X159.688 Y116.529 I0 J-0.319
G1 Y98.471
G3 X160.007 Y98.152 I0.319 J0
G1 X168.565
G3 X168.884 Y98.471 I0 J0.319
G1 Y108.563
G2 X170.085 Y110.364 I1.951 J0
G3 X171.286 Y112.165 I-0.751 J1.801
G1 Y119.25
X157.286
Y95.75
X171.286
Y112.165
G3 X168.439 Y112.252 Z-7.619 I-1.425 J0 F333.3
G1 X167.857 Y102.664 Z-7.881
G2 X165.009 Y102.75 Z-8 I-1.422 J0.086
G1 Y112.654 F700
G3 X164.69 Y112.973 I-0.319 J0
G1 X163.882
G3 X163.563 Y112.654 I0 J-0.319
G1 Y102.346
G3 X163.882 Y102.027 I0.319 J0
G1 X164.69
G3 X165.009 Y102.346 I0 J0.319
G1 Y102.75
G2 X165.748 Y103.859 I1.201 J0
G3 X166.488 Y104.968 I-0.462 J1.109
G1 Y114.132
G3 X166.168 Y114.452 I-0.319 J0
G1 X162.404
G3 X162.084 Y114.132 I0 J-0.319
G1 Y100.868
G3 X162.404 Y100.548 I0.319 J0
G1 X166.168
G3 X166.488 Y100.868 I0 J0.319
G1 Y104.968
G2 X167.686 Y106.765 I1.947 J0
G3 X168.884 Y108.563 I-0.749 J1.797
G1 Y116.529
G3 X168.565 Y116.848 I-0.319 J0
G1 X160.007
G3 X159.688 Y116.529 I0 J-0.319
G1 Y98.471
G3 X160.007 Y98.152 I0.319 J0
G1 X168.565
G3 X168.884 Y98.471 I0 J0.319
G1 Y108.563
G2 X170.085 Y110.364 I1.951 J0
G3 X171.286 Y112.165 I-0.751 J1.801
G1 Y119.25
X157.286
Y95.75
X171.286
Y112.165
G3 X168.439 Y112.252 Z-8.119 I-1.425 J0 F333.3
G1 X167.857 Y102.664 Z-8.381
G2 X165.009 Y102.75 Z-8.5 I-1.422 J0.086
G1 Y112.654 F700
G3 X164.69 Y112.973 I-0.319 J0
G1 X163.882
G3 X163.563 Y112.654 I0 J-0.319
G1 Y102.346
G3 X163.882 Y102.027 I0.319 J0
G1 X164.69
G3 X165.009 Y102.346 I0 J0.319
G1 Y102.75
G2 X165.748 Y103.859 I1.201 J0
G3 X166.488 Y104.968 I-0.462 J1.109
G1 Y114.132
G3 X166.168 Y114.452 I-0.319 J0
G1 X162.404
G3 X162.084 Y114.132 I0 J-0.319
G1 Y100.868
G3 X162.404 Y100.548 I0.319 J0
G1 X166.168
G3 X166.488 Y100.868 I0 J0.319
G1 Y104.968
G2 X167.686 Y106.765 I1.947 J0
G3 X168.884 Y108.563 I-0.749 J1.797
G1 Y116.529
G3 X168.565 Y116.848 I-0.319 J0
G1 X160.007
G3 X159.688 Y116.529 I0 J-0.319
G1 Y98.471
G3 X160.007 Y98.152 I0.319 J0
G1 X168.565
G3 X168.884 Y98.471 I0 J0.319
G1 Y108.563
G2 X170.085 Y110.364 I1.951 J0
G3 X171.286 Y112.165 I-0.751 J1.801
G1 Y119.25
X157.286
Y95.75
X171.286
Y112.165
G3 X168.439 Y112.252 Z-8.619 I-1.425 J0 F333.3
G1 X167.857 Y102.664 Z-8.881
G2 X165.009 Y102.75 Z-9 I-1.422 J0.086
G1 Y112.654 F700
G3 X164.69 Y112.973 I-0.319 J0
G1 X163.882
G3 X163.563 Y112.654 I0 J-0.319
G1 Y102.346
G3 X163.882 Y102.027 I0.319 J0
G1 X164.69
G3 X165.009 Y102.346 I0 J0.319
G1 Y102.75
G2 X165.748 Y103.859 I1.201 J0
G3 X166.488 Y104.968 I-0.462 J1.109
G1 Y114.132
G3 X166.168 Y114.452 I-0.319 J0
G1 X162.404
G3 X162.084 Y114.132 I0 J-0.319
G1 Y100.868
G3 X162.404 Y100.548 I0.319 J0
G1 X166.168
G3 X166.488 Y100.868 I0 J0.319
G1 Y104.968
G2 X167.686 Y106.765 I1.947 J0
G3 X168.884 Y108.563 I-0.749 J1.797
G1 Y116.529
G3 X168.565 Y116.848 I-0.319 J0
G1 X160.007
G3 X159.688 Y116.529 I0 J-0.319
G1 Y98.471
G3 X160.007 Y98.152 I0.319 J0
G1 X168.565
G3 X168.884 Y98.471 I0 J0.319
G1 Y108.563
G2 X170.085 Y110.364 I1.951 J0
G3 X171.286 Y112.165 I-0.751 J1.801
G1 Y119.25
X157.286
Y95.75
X171.286
Y112.165
G3 X168.439 Y112.252 Z-9.119 I-1.425 J0 F333.3
G1 X167.857 Y102.664 Z-9.381
G2 X165.009 Y102.75 Z-9.5 I-1.422 J0.086
G1 Y112.654 F700
G3 X164.69 Y112.973 I-0.319 J0
G1 X163.882
G3 X163.563 Y112.654 I0 J-0.319
G1 Y102.346
G3 X163.882 Y102.027 I0.319 J0
G1 X164.69
G3 X165.009 Y102.346 I0 J0.319
G1 Y102.75
G2 X165.748 Y103.859 I1.201 J0
G3 X166.488 Y104.968 I-0.462 J1.109
G1 Y114.132
G3 X166.168 Y114.452 I-0.319 J0
G1 X162.404
G3 X162.084 Y114.132 I0 J-0.319
G1 Y100.868
G3 X162.404 Y100.548 I0.319 J0
G1 X166.168
G3 X166.488 Y100.868 I0 J0.319
G1 Y104.968
G2 X167.686 Y106.765 I1.947 J0
G3 X168.884 Y108.563 I-0.749 J1.797
G1 Y116.529
G3 X168.565 Y116.848 I-0.319 J0
G1 X160.007
G3 X159.688 Y116.529 I0 J-0.319
G1 Y98.471
G3 X160.007 Y98.152 I0.319 J0
G1 X168.565
G3 X168.884 Y98.471 I0 J0.319
G1 Y108.563
G2 X170.085 Y110.364 I1.951 J0
G3 X171.286 Y112.165 I-0.751 J1.801
G1 Y119.25
X157.286
Y95.75
X171.286
Y112.165
G3 X168.439 Y112.252 Z-9.619 I-1.425 J0 F333.3
G1 X167.857 Y102.664 Z-9.881
G2 X165.009 Y102.75 Z-10 I-1.422 J0.086
G1 Y112.654 F700
G3 X164.69 Y112.973 I-0.319 J0
G1 X163.882
G3 X163.563 Y112.654 I0 J-0.319
G1 Y102.346
G3 X163.882 Y102.027 I0.319 J0
G1 X164.69
G3 X165.009 Y102.346 I0 J0.319
G1 Y102.75
G2 X165.748 Y103.859 I1.201 J0
G3 X166.488 Y104.968 I-0.462 J1.109
G1 Y114.132
G3 X166.168 Y114.452 I-0.319 J0
G1 X162.404
G3 X162.084 Y114.132 I0 J-0.319
G1 Y100.868
G3 X162.404 Y100.548 I0.319 J0
G1 X166.168
G3 X166.488 Y100.868 I0 J0.319
G1 Y104.968
G2 X167.686 Y106.765 I1.947 J0
G3 X168.884 Y108.563 I-0.749 J1.797
G1 Y116.529
G3 X168.565 Y116.848 I-0.319 J0
G1 X160.007
G3 X159.688 Y116.529 I0 J-0.319
G1 Y98.471
G3 X160.007 Y98.152 I0.319 J0
G1 X168.565
G3 X168.884 Y98.471 I0 J0.319
G1 Y108.563
G2 X170.085 Y110.364 I1.951 J0
G3 X171.286 Y112.165 I-0.751 J1.801
G1 Y119.25
X157.286
Y95.75
X171.286
Y112.165
G0 Z5
X180.46 Y130.003
G1 Z2.5 F700
G3 X178.152 Y128.331 Z1.711 I-1.154 J-0.836 F333.3
X180.46 Y130.003 Z0.921 I1.154 J0.836
X178.152 Y128.331 Z0.132 I-1.154 J-0.836
X180.731 Y129.167 Z-0.5 I1.154 J0.836
X178.931 Y129.167 I-0.9 J0 F700
X183.581 Y129.167 I2.325 J0
X176.081 Y129.167 I-3.75 J0
X183.581 Y129.167 I3.75 J0
X182.156 Y130.592 Z-0.595 I-1.425 J0 F333.3
G1 X179.306 Z-0.716
G3 X179.306 Y127.742 Z-0.905 I0 J-1.425
X180.731 Y129.167 Z-1 I0 J1.425
X178.931 Y129.167 I-0.9 J0 F700
X183.581 Y129.167 I2.325 J0
X176.081 Y129.167 I-3.75 J0
X183.581 Y129.167 I3.75 J0
X182.156 Y130.592 Z-1.095 I-1.425 J0 F333.3
G1 X179.306 Z-1.216
G3 X179.306 Y127.742 Z-1.405 I0 J-1.425
X180.731 Y129.167 Z-1.5 I0 J1.425
X178.931 Y129.167 I-0.9 J0 F700
X183.581 Y129.167 I2.325 J0
X176.081 Y129.167 I-3.75 J0
X183.581 Y129.167 I3.75 J0
X182.156 Y130.592 Z-1.595 I-1.425 J0 F333.3
G1 X179.306 Z-1.716
G3 X179.306 Y127.742 Z-1.905 I0 J-1.425
X180.731 Y129.167 Z-2 I0 J1.425
X178.931 Y129.167 I-0.9 J0 F700
X183.581 Y129.167 I2.325 J0
X176.081 Y129.167 I-3.75 J0
X183.581 Y129.167 I3.75 J0
X182.156 Y130.592 Z-2.095 I-1.425 J0 F333.3
G1 X179.306 Z-2.216
G3 X179.306 Y127.742 Z-2.405 I0 J-1.425
X180.731 Y129.167 Z-2.5 I0 J1.425
X178.931 Y129.167 I-0.9 J0 F700
X183.581 Y129.167 I2.325 J0
X176.081 Y129.167 I-3.75 J0
X183.581 Y129.167 I3.75 J0
X182.156 Y130.592 Z-2.595 I-1.425 J0 F333.3
G1 X179.306 Z-2.716
G3 X179.306 Y127.742 Z-2.905 I0 J-1.425
X180.731 Y129.167 Z-3 I0 J1.425
X178.931 Y129.167 I-0.9 J0 F700
X183.581 Y129.167 I2.325 J0
X176.081 Y129.167 I-3.75 J0
X183.581 Y129.167 I3.75 J0
X182.156 Y130.592 Z-3.095 I-1.425 J0 F333.3
G1 X179.306 Z-3.216
G3 X179.306 Y127.742 Z-3.405 I0 J-1.425
X180.731 Y129.167 Z-3.5 I0 J1.425
X178.931 Y129.167 I-0.9 J0 F700
X183.581 Y129.167 I2.325 J0
X176.081 Y129.167 I-3.75 J0
X183.581 Y129.167 I3.75 J0
X182.156 Y130.592 Z-3.595 I-1.425 J0 F333.3
G1 X179.306 Z-3.716
G3 X179.306 Y127.742 Z-3.905 I0 J-1.425
X180.731 Y129.167 Z-4 I0 J1.425
X178.931 Y129.167 I-0.9 J0 F700
X183.581 Y129.167 I2.325 J0
X176.081 Y129.167 I-3.75 J0
X183.581 Y129.167 I3.75 J0
X182.156 Y130.592 Z-4.095 I-1.425 J0 F333.3
G1 X179.306 Z-4.216
G3 X179.306 Y127.742 Z-4.405 I0 J-1.425
X180.731 Y129.167 Z-4.5 I0 J1.425
X178.931 Y129.167 I-0.9 J0 F700
X183.581 Y129.167 I2.325 J0
X176.081 Y129.167 I-3.75 J0
X183.581 Y129.167 I3.75 J0
X182.156 Y130.592 Z-4.595 I-1.425 J0 F333.3
G1 X179.306 Z-4.716
G3 X179.306 Y127.742 Z-4.905 I0 J-1.425
X180.731 Y129.167 Z-5 I0 J1.425
X178.931 Y129.167 I-0.9 J0 F700
X183.581 Y129.167 I2.325 J0
X176.081 Y129.167 I-3.75 J0
X183.581 Y129.167 I3.75 J0
X182.156 Y130.592 Z-5.095 I-1.425 J0 F333.3
G1 X179.306 Z-5.216
G3 X179.306 Y127.742 Z-5.405 I0 J-1.425
X180.731 Y129.167 Z-5.5 I0 J1.425
X178.931 Y129.167 I-0.9 J0 F700
X183.581 Y129.167 I2.325 J0
X176.081 Y129.167 I-3.75 J0
X183.581 Y129.167 I3.75 J0
X182.156 Y130.592 Z-5.595 I-1.425 J0 F333.3
G1 X179.306 Z-5.716
G3 X179.306 Y127.742 Z-5.905 I0 J-1.425
X180.731 Y129.167 Z-6 I0 J1.425
X178.931 Y129.167 I-0.9 J0 F700
X183.581 Y129.167 I2.325 J0
X176.081 Y129.167 I-3.75 J0
X183.581 Y129.167 I3.75 J0
X182.156 Y130.592 Z-6.095 I-1.425 J0 F333.3
G1 X179.306 Z-6.216
G3 X179.306 Y127.742 Z-6.405 I0 J-1.425
X180.731 Y129.167 Z-6.5 I0 J1.425
X178.931 Y129.167 I-0.9 J0 F700
X183.581 Y129.167 I2.325 J0
X176.081 Y129.167 I-3.75 J0
X183.581 Y129.167 I3.75 J0
X182.156 Y130.592 Z-6.595 I-1.425 J0 F333.3
G1 X179.306 Z-6.716
G3 X179.306 Y127.742 Z-6.905 I0 J-1.425
X180.731 Y129.167 Z-7 I0 J1.425
X178.931 Y129.167 I-0.9 J0 F700
X183.581 Y129.167 I2.325 J0
X176.081 Y129.167 I-3.75 J0
X183.581 Y129.167 I3.75 J0
X182.156 Y130.592 Z-7.095 I-1.425 J0 F333.3
G1 X179.306 Z-7.216
G3 X179.306 Y127.742 Z-7.405 I0 J-1.425
X180.731 Y129.167 Z-7.5 I0 J1.425
X178.931 Y129.167 I-0.9 J0 F700
X183.581 Y129.167 I2.325 J0
X176.081 Y129.167 I-3.75 J0
X183.581 Y129.167 I3.75 J0
X182.156 Y130.592 Z-7.595 I-1.425 J0 F333.3
G1 X179.306 Z-7.716
G3 X179.306 Y127.742 Z-7.905 I0 J-1.425
X180.731 Y129.167 Z-8 I0 J1.425
X178.931 Y129.167 I-0.9 J0 F700
X183.581 Y129.167 I2.325 J0
X176.081 Y129.167 I-3.75 J0
X183.581 Y129.167 I3.75 J0
X182.156 Y130.592 Z-8.095 I-1.425 J0 F333.3
G1 X179.306 Z-8.216
G3 X179.306 Y127.742 Z-8.405 I0 J-1.425
X180.731 Y129.167 Z-8.5 I0 J1.425
X178.931 Y129.167 I-0.9 J0 F700
X183.581 Y129.167 I2.325 J0
X176.081 Y129.167 I-3.75 J0
X183.581 Y129.167 I3.75 J0
X182.156 Y130.592 Z-8.595 I-1.425 J0 F333.3
G1 X179.306 Z-8.716
G3 X179.306 Y127.742 Z-8.905 I0 J-1.425
X180.731 Y129.167 Z-9 I0 J1.425
X178.931 Y129.167 I-0.9 J0 F700
X183.581 Y129.167 I2.325 J0
X176.081 Y129.167 I-3.75 J0
X183.581 Y129.167 I3.75 J0
X182.156 Y130.592 Z-9.095 I-1.425 J0 F333.3
G1 X179.306 Z-9.216
G3 X179.306 Y127.742 Z-9.405 I0 J-1.425
X180.731 Y129.167 Z-9.5 I0 J1.425
X178.931 Y129.167 I-0.9 J0 F700
X183.581 Y129.167 I2.325 J0
X176.081 Y129.167 I-3.75 J0
X183.581 Y129.167 I3.75 J0
X182.156 Y130.592 Z-9.595 I-1.425 J0 F333.3
G1 X179.306 Z-9.716
G3 X179.306 Y127.742 Z-9.905 I0 J-1.425
X180.731 Y129.167 Z-10 I0 J1.425
X178.931 Y129.167 I-0.9 J0 F700
X183.581 Y129.167 I2.325 J0
X176.081 Y129.167 I-3.75 J0
X183.581 Y129.167 I3.75 J0
G0 Z5
X191.154 Y141.669
G1 Z2.5 F700
G3 X188.846 Y139.997 Z1.711 I-1.154 J-0.836 F333.3
X191.154 Y141.669 Z0.921 I1.154 J0.836
X188.846 Y139.997 Z0.132 I-1.154 J-0.836
X191.425 Y140.833 Z-0.5 I1.154 J0.836
G1 X191.418 Y140.855
X191.399 Y140.869
X191.376
X191.357 Y140.855
X191.35 Y140.833
X191.357 Y140.8 F700
X191.378 Y140.774
X191.408 Y140.76
X191.442
X191.472 Y140.774
X191.493 Y140.8
X191.5 Y140.833
G3 X188.5 Y140.833 I-1.5 J0
X191.5 Y140.833 I1.5 J0
X191.194 Y141.003 I-0.2 J0
G1 X189.396 Y139.884
G3 X189.42 Y139.531 I0.106 J-0.17
X191.425 Y140.833 Z-1 I0.58 J1.302 F333.3
G1 X191.418 Y140.855
X191.399 Y140.869
X191.376
X191.357 Y140.855
X191.35 Y140.833
X191.357 Y140.8 F700
X191.378 Y140.774
X191.408 Y140.76
X191.442
X191.472 Y140.774
X191.493 Y140.8
X191.5 Y140.833
G3 X188.5 Y140.833 I-1.5 J0
X191.5 Y140.833 I1.5 J0
X191.194 Y141.003 I-0.2 J0
G1 X189.396 Y139.884
G3 X189.42 Y139.531 I0.106 J-0.17
X191.425 Y140.833 Z-1.5 I0.58 J1.302 F333.3
G1 X191.418 Y140.855
X191.399 Y140.869
X191.376
X191.357 Y140.855
X191.35 Y140.833
X191.357 Y140.8 F700
X191.378 Y140.774
X191.408 Y140.76
X191.442
X191.472 Y140.774
X191.493 Y140.8
X191.5 Y140.833
G3 X188.5 Y140.833 I-1.5 J0
X191.5 Y140.833 I1.5 J0
X191.194 Y141.003 I-0.2 J0
G1 X189.396 Y139.884
G3 X189.42 Y139.531 I0.106 J-0.17
X191.425 Y140.833 Z-2 I0.58 J1.302 F333.3
G1 X191.418 Y140.855
X191.399 Y140.869
X191.376
X191.357 Y140.855
X191.35 Y140.833
X191.357 Y140.8 F700
X191.378 Y140.774
X191.408 Y140.76
X191.442
X191.472 Y140.774
X191.493 Y140.8
X191.5 Y140.833
G3 X188.5 Y140.833 I-1.5 J0
X191.5 Y140.833 I1.5 J0
X191.194 Y141.003 I-0.2 J0
G1 X189.396 Y139.884
G3 X189.42 Y139.531 I0.106 J-0.17
X191.425 Y140.833 Z-2.5 I0.58 J1.302 F333.3
G1 X191.418 Y140.855
X191.399 Y140.869
X191.376
X191.357 Y140.855
X191.35 Y140.833
X191.357 Y140.8 F700
X191.378 Y140.774
X191.408 Y140.76
X191.442
X191.472 Y140.774
X191.493 Y140.8
X191.5 Y140.833
G3 X188.5 Y140.833 I-1.5 J0
X191.5 Y140.833 I1.5 J0
X191.194 Y141.003 I-0.2 J0
G1 X189.396 Y139.884
G3 X189.42 Y139.531 I0.106 J-0.17
X191.425 Y140.833 Z-3 I0.58 J1.302 F333.3
G1 X191.418 Y140.855
X191.399 Y140.869
X191.376
X191.357 Y140.855
X191.35 Y140.833
X191.357 Y140.8 F700
X191.378 Y140.774
X191.408 Y140.76
X191.442
X191.472 Y140.774
X191.493 Y140.8
X191.5 Y140.833
G3 X188.5 Y140.833 I-1.5 J0
X191.5 Y140.833 I1.5 J0
X191.194 Y141.003 I-0.2 J0
G1 X189.396 Y139.884
G3 X189.42 Y139.531 I0.106 J-0.17
X191.425 Y140.833 Z-3.5 I0.58 J1.302 F333.3
G1 X191.418 Y140.855
X191.399 Y140.869
X191.376
X191.357 Y140.855
X191.35 Y140.833
X191.357 Y140.8 F700
X191.378 Y140.774
X191.408 Y140.76
X191.442
X191.472 Y140.774
X191.493 Y140.8
X191.5 Y140.833
G3 X188.5 Y140.833 I-1.5 J0
X191.5 Y140.833 I1.5 J0
X191.194 Y141.003 I-0.2 J0
G1 X189.396 Y139.884
G3 X189.42 Y139.531 I0.106 J-0.17
X191.425 Y140.833 Z-4 I0.58 J1.302 F333.3
G1 X191.418 Y140.855
X191.399 Y140.869
X191.376
X191.357 Y140.855
X191.35 Y140.833
X191.357 Y140.8 F700
X191.378 Y140.774
X191.408 Y140.76
X191.442
X191.472 Y140.774
X191.493 Y140.8
X191.5 Y140.833
G3 X188.5 Y140.833 I-1.5 J0
X191.5 Y140.833 I1.5 J0
X191.194 Y141.003 I-0.2 J0
G1 X189.396 Y139.884
G3 X189.42 Y139.531 I0.106 J-0.17
X191.425 Y140.833 Z-4.5 I0.58 J1.302 F333.3
G1 X191.418 Y140.855
X191.399 Y140.869
X191.376
X191.357 Y140.855
X191.35 Y140.833
X191.357 Y140.8 F700
X191.378 Y140.774
X191.408 Y140.76
X191.442
X191.472 Y140.774
X191.493 Y140.8
X191.5 Y140.833
G3 X188.5 Y140.833 I-1.5 J0
X191.5 Y140.833 I1.5 J0
X191.194 Y141.003 I-0.2 J0
G1 X189.396 Y139.884
G3 X189.42 Y139.531 I0.106 J-0.17
X191.425 Y140.833 Z-5 I0.58 J1.302 F333.3
G1 X191.418 Y140.855
X191.399 Y140.869
X191.376
X191.357 Y140.855
X191.35 Y140.833
X191.357 Y140.8 F700
X191.378 Y140.774
X191.408 Y140.76
X191.442
X191.472 Y140.774
X191.493 Y140.8
X191.5 Y140.833
G3 X188.5 Y140.833 I-1.5 J0
X191.5 Y140.833 I1.5 J0
X191.194 Y141.003 I-0.2 J0
G1 X189.396 Y139.884
G3 X189.42 Y139.531 I0.106 J-0.17
X191.425 Y140.833 Z-5.5 I0.58 J1.302 F333.3
G1 X191.418 Y140.855
X191.399 Y140.869
X191.376
X191.357 Y140.855
X191.35 Y140.833
X191.357 Y140.8 F700
X191.378 Y140.774
X191.408 Y140.76
X191.442
X191.472 Y140.774
X191.493 Y140.8
X191.5 Y140.833
G3 X188.5 Y140.833 I-1.5 J0
X191.5 Y140.833 I1.5 J0
X191.194 Y141.003 I-0.2 J0
G1 X189.396 Y139.884
G3 X189.42 Y139.531 I0.106 J-0.17
X191.425 Y140.833 Z-6 I0.58 J1.302 F333.3
G1 X191.418 Y140.855
X191.399 Y140.869
X191.376
X191.357 Y140.855
X191.35 Y140.833
X191.357 Y140.8 F700
X191.378 Y140.774
X191.408 Y140.76
X191.442
X191.472 Y140.774
X191.493 Y140.8
X191.5 Y140.833
G3 X188.5 Y140.833 I-1.5 J0
X191.5 Y140.833 I1.5 J0
X191.194 Y141.003 I-0.2 J0
G1 X189.396 Y139.884
G3 X189.42 Y139.531 I0.106 J-0.17
X191.425 Y140.833 Z-6.5 I0.58 J1.302 F333.3
G1 X191.418 Y140.855
X191.399 Y140.869
X191.376
X191.357 Y140.855
X191.35 Y140.833
X191.357 Y140.8 F700
X191.378 Y140.774
X191.408 Y140.76
X191.442
X191.472 Y140.774
X191.493 Y140.8
X191.5 Y140.833
G3 X188.5 Y140.833 I-1.5 J0
X191.5 Y140.833 I1.5 J0
X191.194 Y141.003 I-0.2 J0
G1 X189.396 Y139.884
G3 X189.42 Y139.531 I0.106 J-0.17
X191.425 Y140.833 Z-7 I0.58 J1.302 F333.3
G1 X191.418 Y140.855
X191.399 Y140.869
X191.376
X191.357 Y140.855
X191.35 Y140.833
X191.357 Y140.8 F700
X191.378 Y140.774
X191.408 Y140.76
X191.442
X191.472 Y140.774
X191.493 Y140.8
X191.5 Y140.833
G3 X188.5 Y140.833 I-1.5 J0
X191.5 Y140.833 I1.5 J0
X191.194 Y141.003 I-0.2 J0
G1 X189.396 Y139.884
G3 X189.42 Y139.531 I0.106 J-0.17
X191.425 Y140.833 Z-7.5 I0.58 J1.302 F333.3
G1 X191.418 Y140.855
X191.399 Y140.869
X191.376
X191.357 Y140.855
X191.35 Y140.833
X191.357 Y140.8 F700
X191.378 Y140.774
X191.408 Y140.76
X191.442
X191.472 Y140.774
X191.493 Y140.8
X191.5 Y140.833
G3 X188.5 Y140.833 I-1.5 J0
X191.5 Y140.833 I1.5 J0
X191.194 Y141.003 I-0.2 J0
G1 X189.396 Y139.884
G3 X189.42 Y139.531 I0.106 J-0.17
X191.425 Y140.833 Z-8 I0.58 J1.302 F333.3
G1 X191.418 Y140.855
X191.399 Y140.869
X191.376
X191.357 Y140.855
X191.35 Y140.833
X191.357 Y140.8 F700
X191.378 Y140.774
X191.408 Y140.76
X191.442
X191.472 Y140.774
X191.493 Y140.8
X191.5 Y140.833
G3 X188.5 Y140.833 I-1.5 J0
X191.5 Y140.833 I1.5 J0
X191.194 Y141.003 I-0.2 J0
G1 X189.396 Y139.884
G3 X189.42 Y139.531 I0.106 J-0.17
X191.425 Y140.833 Z-8.5 I0.58 J1.302 F333.3
G1 X191.418 Y140.855
X191.399 Y140.869
X191.376
X191.357 Y140.855
X191.35 Y140.833
X191.357 Y140.8 F700
X191.378 Y140.774
X191.408 Y140.76
X191.442
X191.472 Y140.774
X191.493 Y140.8
X191.5 Y140.833
G3 X188.5 Y140.833 I-1.5 J0
X191.5 Y140.833 I1.5 J0
X191.194 Y141.003 I-0.2 J0
G1 X189.396 Y139.884
G3 X189.42 Y139.531 I0.106 J-0.17
X191.425 Y140.833 Z-9 I0.58 J1.302 F333.3
G1 X191.418 Y140.855
X191.399 Y140.869
X191.376
X191.357 Y140.855
X191.35 Y140.833
X191.357 Y140.8 F700
X191.378 Y140.774
X191.408 Y140.76
X191.442
X191.472 Y140.774
X191.493 Y140.8
X191.5 Y140.833
G3 X188.5 Y140.833 I-1.5 J0
X191.5 Y140.833 I1.5 J0
X191.194 Y141.003 I-0.2 J0
G1 X189.396 Y139.884
G3 X189.42 Y139.531 I0.106 J-0.17
X191.425 Y140.833 Z-9.5 I0.58 J1.302 F333.3
G1 X191.418 Y140.855
X191.399 Y140.869
X191.376
X191.357 Y140.855
X191.35 Y140.833
X191.357 Y140.8 F700
X191.378 Y140.774
X191.408 Y140.76
X191.442
X191.472 Y140.774
X191.493 Y140.8
X191.5 Y140.833
G3 X188.5 Y140.833 I-1.5 J0
X191.5 Y140.833 I1.5 J0
X191.194 Y141.003 I-0.2 J0
G1 X189.396 Y139.884
G3 X189.42 Y139.531 I0.106 J-0.17
X191.425 Y140.833 Z-10 I0.58 J1.302 F333.3
G1 X191.418 Y140.855
X191.399 Y140.869
X191.376
X191.357 Y140.855
X191.35 Y140.833
X191.357 Y140.8 F700
X191.378 Y140.774
X191.408 Y140.76
X191.442
X191.472 Y140.774
X191.493 Y140.8
X191.5 Y140.833
G3 X188.5 Y140.833 I-1.5 J0
X191.5 Y140.833 I1.5 J0
G0 Z5
X170.029 Y140.836
G1 Z2.5 F700
G3 X167.721 Y139.164 Z1.711 I-1.154 J-0.836 F333.3
X170.029 Y140.836 Z0.921 I1.154 J0.836
X167.721 Y139.164 Z0.132 I-1.154 J-0.836
X170.3 Y140 Z-0.5 I1.154 J0.836
X169.7 Y140 I-0.3 J0 F700
X173.15 Y140 I1.725 J0
X166.85 Y140 I-3.15 J0
X176 Y140 I4.575 J0
X164 Y140 I-6 J0
X176 Y140 I6 J0
X173.15 Y140 Z-0.75 I-1.425 J0 F333.3
G2 X170.3 Y140 Z-1 I-1.425 J0
G3 X169.7 Y140 I-0.3 J0 F700
X173.15 Y140 I1.725 J0
X166.85 Y140 I-3.15 J0
X176 Y140 I4.575 J0
X164 Y140 I-6 J0
X176 Y140 I6 J0
X173.15 Y140 Z-1.25 I-1.425 J0 F333.3
G2 X170.3 Y140 Z-1.5 I-1.425 J0
G3 X169.7 Y140 I-0.3 J0 F700
X173.15 Y140 I1.725 J0
X166.85 Y140 I-3.15 J0
X176 Y140 I4.575 J0
X164 Y140 I-6 J0
X176 Y140 I6 J0
X173.15 Y140 Z-1.75 I-1.425 J0 F333.3
G2 X170.3 Y140 Z-2 I-1.425 J0
G3 X169.7 Y140 I-0.3 J0 F700
X173.15 Y140 I1.725 J0
X166.85 Y140 I-3.15 J0
X176 Y140 I4.575 J0
X164 Y140 I-6 J0
X176 Y140 I6 J0
X173.15 Y140 Z-2.25 I-1.425 J0 F333.3
G2 X170.3 Y140 Z-2.5 I-1.425 J0
G3 X169.7 Y140 I-0.3 J0 F700
X173.15 Y140 I1.725 J0
X166.85 Y140 I-3.15 J0
X176 Y140 I4.575 J0
X164 Y140 I-6 J0
X176 Y140 I6 J0
X173.15 Y140 Z-2.75 I-1.425 J0 F333.3
G2 X170.3 Y140 Z-3 I-1.425 J0
G3 X169.7 Y140 I-0.3 J0 F700
X173.15 Y140 I1.725 J0
X166.85 Y140 I-3.15 J0
X176 Y140 I4.575 J0
X164 Y140 I-6 J0
X176 Y140 I6 J0
X173.15 Y140 Z-3.25 I-1.425 J0 F333.3
G2 X170.3 Y140 Z-3.5 I-1.425 J0
G3 X169.7 Y140 I-0.3 J0 F700
X173.15 Y140 I1.725 J0
X166.85 Y140 I-3.15 J0
X176 Y140 I4.575 J0
X164 Y140 I-6 J0
X176 Y140 I6 J0
X173.15 Y140 Z-3.75 I-1.425 J0 F333.3
G2 X170.3 Y140 Z-4 I-1.425 J0
G3 X169.7 Y140 I-0.3 J0 F700
X173.15 Y140 I1.725 J0
X166.85 Y140 I-3.15 J0
X176 Y140 I4.575 J0
X164 Y140 I-6 J0
X176 Y140 I6 J0
X173.15 Y140 Z-4.25 I-1.425 J0 F333.3
G2 X170.3 Y140 Z-4.5 I-1.425 J0
G3 X169.7 Y140 I-0.3 J0 F700
X173.15 Y140 I1.725 J0
X166.85 Y140 I-3.15 J0
X176 Y140 I4.575 J0
X164 Y140 I-6 J0
X176 Y140 I6 J0
X173.15 Y140 Z-4.75 I-1.425 J0 F333.3
G2 X170.3 Y140 Z-5 I-1.425 J0
G3 X169.7 Y140 I-0.3 J0 F700
X173.15 Y140 I1.725 J0
X166.85 Y140 I-3.15 J0
X176 Y140 I4.575 J0
X164 Y140 I-6 J0
X176 Y140 I6 J0
X173.15 Y140 Z-5.25 I-1.425 J0 F333.3
G2 X170.3 Y140 Z-5.5 I-1.425 J0
G3 X169.7 Y140 I-0.3 J0 F700
X173.15 Y140 I1.725 J0
X166.85 Y140 I-3.15 J0
X176 Y140 I4.575 J0
X164 Y140 I-6 J0
X176 Y140 I6 J0
X173.15 Y140 Z-5.75 I-1.425 J0 F333.3
G2 X170.3 Y140 Z-6 I-1.425 J0
G3 X169.7 Y140 I-0.3 J0 F700
X173.15 Y140 I1.725 J0
X166.85 Y140 I-3.15 J0
X176 Y140 I4.575 J0
X164 Y140 I-6 J0
X176 Y140 I6 J0
X173.15 Y140 Z-6.25 I-1.425 J0 F333.3
G2 X170.3 Y140 Z-6.5 I-1.425 J0
G3 X169.7 Y140 I-0.3 J0 F700
X173.15 Y140 I1.725 J0
X166.85 Y140 I-3.15 J0
X176 Y140 I4.575 J0
X164 Y140 I-6 J0
X176 Y140 I6 J0
X173.15 Y140 Z-6.75 I-1.425 J0 F333.3
G2 X170.3 Y140 Z-7 I-1.425 J0
G3 X169.7 Y140 I-0.3 J0 F700
X173.15 Y140 I1.725 J0
X166.85 Y140 I-3.15 J0
X176 Y140 I4.575 J0
X164 Y140 I-6 J0
X176 Y140 I6 J0
X173.15 Y140 Z-7.25 I-1.425 J0 F333.3
G2 X170.3 Y140 Z-7.5 I-1.425 J0
G3 X169.7 Y140 I-0.3 J0 F700
X173.15 Y140 I1.725 J0
X166.85 Y140 I-3.15 J0
X176 Y140 I4.575 J0
X164 Y140 I-6 J0
X176 Y140 I6 J0
X173.15 Y140 Z-7.75 I-1.425 J0 F333.3
G2 X170.3 Y140 Z-8 I-1.425 J0
G3 X169.7 Y140 I-0.3 J0 F700
X173.15 Y140 I1.725 J0
X166.85 Y140 I-3.15 J0
X176 Y140 I4.575 J0
X164 Y140 I-6 J0
X176 Y140 I6 J0
X173.15 Y140 Z-8.25 I-1.425 J0 F333.3
G2 X170.3 Y140 Z-8.5 I-1.425 J0
G3 X169.7 Y140 I-0.3 J0 F700
X173.15 Y140 I1.725 J0
X166.85 Y140 I-3.15 J0
X176 Y140 I4.575 J0
X164 Y140 I-6 J0
X176 Y140 I6 J0
X173.15 Y140 Z-8.75 I-1.425 J0 F333.3
G2 X170.3 Y140 Z-9 I-1.425 J0
G3 X169.7 Y140 I-0.3 J0 F700
X173.15 Y140 I1.725 J0
X166.85 Y140 I-3.15 J0
X176 Y140 I4.575 J0
X164 Y140 I-6 J0
X176 Y140 I6 J0
X173.15 Y140 Z-9.25 I-1.425 J0 F333.3
G2 X170.3 Y140 Z-9.5 I-1.425 J0
G3 X169.7 Y140 I-0.3 J0 F700
X173.15 Y140 I1.725 J0
X166.85 Y140 I-3.15 J0
X176 Y140 I4.575 J0
X164 Y140 I-6 J0
X176 Y140 I6 J0
X173.15 Y140 Z-9.75 I-1.425 J0 F333.3
G2 X170.3 Y140 Z-10 I-1.425 J0
G3 X169.7 Y140 I-0.3 J0 F700
X173.15 Y140 I1.725 J0
X166.85 Y140 I-3.15 J0
X176 Y140 I4.575 J0
X164 Y140 I-6 J0
X176 Y140 I6 J0
G0 Z5
X160.46 Y130.003
G1 Z2.5 F700
G3 X158.152 Y128.331 Z1.711 I-1.154 J-0.836 F333.3
X160.46 Y130.003 Z0.921 I1.154 J0.836
X158.152 Y128.331 Z0.132 I-1.154 J-0.836
X160.731 Y129.167 Z-0.5 I1.154 J0.836
X158.931 Y129.167 I-0.9 J0 F700
X163.581 Y129.167 I2.325 J0
X156.081 Y129.167 I-3.75 J0
X163.581 Y129.167 I3.75 J0
X162.156 Y130.592 Z-0.595 I-1.425 J0 F333.3
G1 X159.306 Z-0.716
G3 X159.306 Y127.742 Z-0.905 I0 J-1.425
X160.731 Y129.167 Z-1 I0 J1.425
X158.931 Y129.167 I-0.9 J0 F700
X163.581 Y129.167 I2.325 J0
X156.081 Y129.167 I-3.75 J0
X163.581 Y129.167 I3.75 J0
X162.156 Y130.592 Z-1.095 I-1.425 J0 F333.3
G1 X159.306 Z-1.216
G3 X159.306 Y127.742 Z-1.405 I0 J-1.425
X160.731 Y129.167 Z-1.5 I0 J1.425
X158.931 Y129.167 I-0.9 J0 F700
X163.581 Y129.167 I2.325 J0
X156.081 Y129.167 I-3.75 J0
X163.581 Y129.167 I3.75 J0
X162.156 Y130.592 Z-1.595 I-1.425 J0 F333.3
G1 X159.306 Z-1.716
G3 X159.306 Y127.742 Z-1.905 I0 J-1.425
X160.731 Y129.167 Z-2 I0 J1.425
X158.931 Y129.167 I-0.9 J0 F700
X163.581 Y129.167 I2.325 J0
X156.081 Y129.167 I-3.75 J0
X163.581 Y129.167 I3.75 J0
X162.156 Y130.592 Z-2.095 I-1.425 J0 F333.3
G1 X159.306 Z-2.216
G3 X159.306 Y127.742 Z-2.405 I0 J-1.425
X160.731 Y129.167 Z-2.5 I0 J1.425
X158.931 Y129.167 I-0.9 J0 F700
X163.581 Y129.167 I2.325 J0
X156.081 Y129.167 I-3.75 J0
X163.581 Y129.167 I3.75 J0
X162.156 Y130.592 Z-2.595 I-1.425 J0 F333.3
G1 X159.306 Z-2.716
G3 X159.306 Y127.742 Z-2.905 I0 J-1.425
X160.731 Y129.167 Z-3 I0 J1.425
X158.931 Y129.167 I-0.9 J0 F700
X163.581 Y129.167 I2.325 J0
X156.081 Y129.167 I-3.75 J0
X163.581 Y129.167 I3.75 J0
X162.156 Y130.592 Z-3.095 I-1.425 J0 F333.3
G1 X159.306 Z-3.216
G3 X159.306 Y127.742 Z-3.405 I0 J-1.425
X160.731 Y129.167 Z-3.5 I0 J1.425
X158.931 Y129.167 I-0.9 J0 F700
X163.581 Y129.167 I2.325 J0
X156.081 Y129.167 I-3.75 J0
X163.581 Y129.167 I3.75 J0
X162.156 Y130.592 Z-3.595 I-1.425 J0 F333.3
G1 X159.306 Z-3.716
G3 X159.306 Y127.742 Z-3.905 I0 J-1.425
X160.731 Y129.167 Z-4 I0 J1.425
X158.931 Y129.167 I-0.9 J0 F700
X163.581 Y129.167 I2.325 J0
X156.081 Y129.167 I-3.75 J0
X163.581 Y129.167 I3.75 J0
X162.156 Y130.592 Z-4.095 I-1.425 J0 F333.3
G1 X159.306 Z-4.216
G3 X159.306 Y127.742 Z-4.405 I0 J-1.425
X160.731 Y129.167 Z-4.5 I0 J1.425
X158.931 Y129.167 I-0.9 J0 F700
X163.581 Y129.167 I2.325 J0
X156.081 Y129.167 I-3.75 J0
X163.581 Y129.167 I3.75 J0
X162.156 Y130.592 Z-4.595 I-1.425 J0 F333.3
G1 X159.306 Z-4.716
G3 X159.306 Y127.742 Z-4.905 I0 J-1.425
X160.731 Y129.167 Z-5 I0 J1.425
X158.931 Y129.167 I-0.9 J0 F700
X163.581 Y129.167 I2.325 J0
X156.081 Y129.167 I-3.75 J0
X163.581 Y129.167 I3.75 J0
X162.156 Y130.592 Z-5.095 I-1.425 J0 F333.3
G1 X159.306 Z-5.216
G3 X159.306 Y127.742 Z-5.405 I0 J-1.425
X160.731 Y129.167 Z-5.5 I0 J1.425
X158.931 Y129.167 I-0.9 J0 F700
X163.581 Y129.167 I2.325 J0
X156.081 Y129.167 I-3.75 J0
X163.581 Y129.167 I3.75 J0
X162.156 Y130.592 Z-5.595 I-1.425 J0 F333.3
G1 X159.306 Z-5.716
G3 X159.306 Y127.742 Z-5.905 I0 J-1.425
X160.731 Y129.167 Z-6 I0 J1.425
X158.931 Y129.167 I-0.9 J0 F700
X163.581 Y129.167 I2.325 J0
X156.081 Y129.167 I-3.75 J0
X163.581 Y129.167 I3.75 J0
X162.156 Y130.592 Z-6.095 I-1.425 J0 F333.3
G1 X159.306 Z-6.216
G3 X159.306 Y127.742 Z-6.405 I0 J-1.425
X160.731 Y129.167 Z-6.5 I0 J1.425
X158.931 Y129.167 I-0.9 J0 F700
X163.581 Y129.167 I2.325 J0
X156.081 Y129.167 I-3.75 J0
X163.581 Y129.167 I3.75 J0
X162.156 Y130.592 Z-6.595 I-1.425 J0 F333.3
G1 X159.306 Z-6.716
G3 X159.306 Y127.742 Z-6.905 I0 J-1.425
X160.731 Y129.167 Z-7 I0 J1.425
X158.931 Y129.167 I-0.9 J0 F700
X163.581 Y129.167 I2.325 J0
X156.081 Y129.167 I-3.75 J0
X163.581 Y129.167 I3.75 J0
X162.156 Y130.592 Z-7.095 I-1.425 J0 F333.3
G1 X159.306 Z-7.216
G3 X159.306 Y127.742 Z-7.405 I0 J-1.425
X160.731 Y129.167 Z-7.5 I0 J1.425
X158.931 Y129.167 I-0.9 J0 F700
X163.581 Y129.167 I2.325 J0
X156.081 Y129.167 I-3.75 J0
X163.581 Y129.167 I3.75 J0
X162.156 Y130.592 Z-7.595 I-1.425 J0 F333.3
G1 X159.306 Z-7.716
G3 X159.306 Y127.742 Z-7.905 I0 J-1.425
X160.731 Y129.167 Z-8 I0 J1.425
X158.931 Y129.167 I-0.9 J0 F700
X163.581 Y129.167 I2.325 J0
X156.081 Y129.167 I-3.75 J0
X163.581 Y129.167 I3.75 J0
X162.156 Y130.592 Z-8.095 I-1.425 J0 F333.3
G1 X159.306 Z-8.216
G3 X159.306 Y127.742 Z-8.405 I0 J-1.425
X160.731 Y129.167 Z-8.5 I0 J1.425
X158.931 Y129.167 I-0.9 J0 F700
X163.581 Y129.167 I2.325 J0
X156.081 Y129.167 I-3.75 J0
X163.581 Y129.167 I3.75 J0
X162.156 Y130.592 Z-8.595 I-1.425 J0 F333.3
G1 X159.306 Z-8.716
G3 X159.306 Y127.742 Z-8.905 I0 J-1.425
X160.731 Y129.167 Z-9 I0 J1.425
X158.931 Y129.167 I-0.9 J0 F700
X163.581 Y129.167 I2.325 J0
X156.081 Y129.167 I-3.75 J0
X163.581 Y129.167 I3.75 J0
X162.156 Y130.592 Z-9.095 I-1.425 J0 F333.3
G1 X159.306 Z-9.216
G3 X159.306 Y127.742 Z-9.405 I0 J-1.425
X160.731 Y129.167 Z-9.5 I0 J1.425
X158.931 Y129.167 I-0.9 J0 F700
X163.581 Y129.167 I2.325 J0
X156.081 Y129.167 I-3.75 J0
X163.581 Y129.167 I3.75 J0
X162.156 Y130.592 Z-9.595 I-1.425 J0 F333.3
G1 X159.306 Z-9.716
G3 X159.306 Y127.742 Z-9.905 I0 J-1.425
X160.731 Y129.167 Z-10 I0 J1.425
X158.931 Y129.167 I-0.9 J0 F700
X163.581 Y129.167 I2.325 J0
X156.081 Y129.167 I-3.75 J0
X163.581 Y129.167 I3.75 J0
G0 Z5
X150.029 Y140.836
G1 Z2.5 F700
G3 X147.721 Y139.164 Z1.711 I-1.154 J-0.836 F333.3
X150.029 Y140.836 Z0.921 I1.154 J0.836
X147.721 Y139.164 Z0.132 I-1.154 J-0.836
X150.3 Y140 Z-0.5 I1.154 J0.836
X149.7 Y140 I-0.3 J0 F700
X153.15 Y140 I1.725 J0
X146.85 Y140 I-3.15 J0
X156 Y140 I4.575 J0
X144 Y140 I-6 J0
X156 Y140 I6 J0
X153.15 Y140 Z-0.75 I-1.425 J0 F333.3
G2 X150.3 Y140 Z-1 I-1.425 J0
G3 X149.7 Y140 I-0.3 J0 F700
X153.15 Y140 I1.725 J0
X146.85 Y140 I-3.15 J0
X156 Y140 I4.575 J0
X144 Y140 I-6 J0
X156 Y140 I6 J0
X153.15 Y140 Z-1.25 I-1.425 J0 F333.3
G2 X150.3 Y140 Z-1.5 I-1.425 J0
G3 X149.7 Y140 I-0.3 J0 F700
X153.15 Y140 I1.725 J0
X146.85 Y140 I-3.15 J0
X156 Y140 I4.575 J0
X144 Y140 I-6 J0
X156 Y140 I6 J0
X153.15 Y140 Z-1.75 I-1.425 J0 F333.3
G2 X150.3 Y140 Z-2 I-1.425 J0
G3 X149.7 Y140 I-0.3 J0 F700
X153.15 Y140 I1.725 J0
X146.85 Y140 I-3.15 J0
X156 Y140 I4.575 J0
X144 Y140 I-6 J0
X156 Y140 I6 J0
X153.15 Y140 Z-2.25 I-1.425 J0 F333.3
