(1001)
(Machine)
(  vendor: Autodesk)
(  description: Generic 3-axis)
(T4  D=3 CR=0 - ZMIN=-17.7 - flat end mill)
G90 G94
G17
G21

(2D Pocket1)
T4
S15000 M3
G54
M8
G0 X-38.193 Y29.558
Z5
Z2
G1 Z1.5 F700
Z-0.8
G3 X-38.626 Y29.41 I0.011 J-0.739
X-34.186 Y23.49 I2.22 J-2.96
X-38.626 Y29.41 I-2.22 J2.96
G2 X-40.732 Y29.16 I-1.269 J1.692
G3 X-42.651 Y28.254 I-0.56 J-1.299
X-30.161 Y24.647 I6.245 J-1.803
X-42.651 Y28.254 I-6.245 J1.803
X-41.115 Y26.443 Z-0.994 I1.369 J-0.395 F333.3
G1 X-37.605 Y26.855 Z-1.238
G3 X-37.937 Y29.686 Z-1.548 I-0.166 J1.415
X-38.626 Y29.41 Z-1.6 I0.166 J-1.415
X-34.186 Y23.49 I2.22 J-2.96 F700
X-38.626 Y29.41 I-2.22 J2.96
G2 X-40.732 Y29.16 I-1.269 J1.692
G3 X-42.651 Y28.254 I-0.56 J-1.299
X-30.161 Y24.647 I6.245 J-1.803
X-42.651 Y28.254 I-6.245 J1.803
X-41.115 Y26.443 Z-1.794 I1.369 J-0.395 F333.3
G1 X-37.605 Y26.855 Z-2.038
G3 X-37.937 Y29.686 Z-2.348 I-0.166 J1.415
X-38.626 Y29.41 Z-2.4 I0.166 J-1.415
X-34.186 Y23.49 I2.22 J-2.96 F700
X-38.626 Y29.41 I-2.22 J2.96
G2 X-40.732 Y29.16 I-1.269 J1.692
G3 X-42.651 Y28.254 I-0.56 J-1.299
X-30.161 Y24.647 I6.245 J-1.803
X-42.651 Y28.254 I-6.245 J1.803
X-41.115 Y26.443 Z-2.594 I1.369 J-0.395 F333.3
G1 X-37.605 Y26.855 Z-2.838
G3 X-37.937 Y29.686 Z-3.148 I-0.166 J1.415
X-38.626 Y29.41 Z-3.2 I0.166 J-1.415
X-34.186 Y23.49 I2.22 J-2.96 F700
X-38.626 Y29.41 I-2.22 J2.96
G2 X-40.732 Y29.16 I-1.269 J1.692
G3 X-42.651 Y28.254 I-0.56 J-1.299
X-30.161 Y24.647 I6.245 J-1.803
X-42.651 Y28.254 I-6.245 J1.803
X-41.115 Y26.443 Z-3.394 I1.369 J-0.395 F333.3
G1 X-37.605 Y26.855 Z-3.638
G3 X-37.937 Y29.686 Z-3.948 I-0.166 J1.415
X-38.626 Y29.41 Z-4 I0.166 J-1.415
X-34.186 Y23.49 I2.22 J-2.96 F700
X-38.626 Y29.41 I-2.22 J2.96
G2 X-40.732 Y29.16 I-1.269 J1.692
G3 X-42.651 Y28.254 I-0.56 J-1.299
X-30.161 Y24.647 I6.245 J-1.803
X-42.651 Y28.254 I-6.245 J1.803
X-41.115 Y26.443 Z-4.194 I1.369 J-0.395 F333.3
G1 X-37.605 Y26.855 Z-4.438
G3 X-37.937 Y29.686 Z-4.748 I-0.166 J1.415
X-38.626 Y29.41 Z-4.8 I0.166 J-1.415
X-34.186 Y23.49 I2.22 J-2.96 F700
X-38.626 Y29.41 I-2.22 J2.96
G2 X-40.732 Y29.16 I-1.269 J1.692
G3 X-42.651 Y28.254 I-0.56 J-1.299
X-30.161 Y24.647 I6.245 J-1.803
X-42.651 Y28.254 I-6.245 J1.803
X-41.115 Y26.443 Z-4.994 I1.369 J-0.395 F333.3
G1 X-37.605 Y26.855 Z-5.238
G3 X-37.937 Y29.686 Z-5.548 I-0.166 J1.415
X-38.626 Y29.41 Z-5.6 I0.166 J-1.415
X-34.186 Y23.49 I2.22 J-2.96 F700
X-38.626 Y29.41 I-2.22 J2.96
G2 X-40.732 Y29.16 I-1.269 J1.692
G3 X-42.651 Y28.254 I-0.56 J-1.299
X-30.161 Y24.647 I6.245 J-1.803
X-42.651 Y28.254 I-6.245 J1.803
X-41.115 Y26.443 Z-5.794 I1.369 J-0.395 F333.3
G1 X-37.605 Y26.855 Z-6.038
G3 X-37.937 Y29.686 Z-6.348 I-0.166 J1.415
X-38.626 Y29.41 Z-6.4 I0.166 J-1.415
X-34.186 Y23.49 I2.22 J-2.96 F700
X-38.626 Y29.41 I-2.22 J2.96
G2 X-40.732 Y29.16 I-1.269 J1.692
G3 X-42.651 Y28.254 I-0.56 J-1.299
X-30.161 Y24.647 I6.245 J-1.803
X-42.651 Y28.254 I-6.245 J1.803
X-41.115 Y26.443 Z-6.594 I1.369 J-0.395 F333.3
G1 X-37.605 Y26.855 Z-6.838
G3 X-37.937 Y29.686 Z-7.148 I-0.166 J1.415
X-38.626 Y29.41 Z-7.2 I0.166 J-1.415
X-34.186 Y23.49 I2.22 J-2.96 F700
X-38.626 Y29.41 I-2.22 J2.96
G2 X-40.732 Y29.16 I-1.269 J1.692
G3 X-42.651 Y28.254 I-0.56 J-1.299
X-30.161 Y24.647 I6.245 J-1.803
X-42.651 Y28.254 I-6.245 J1.803
X-41.115 Y26.443 Z-7.394 I1.369 J-0.395 F333.3
G1 X-37.605 Y26.855 Z-7.638
G3 X-37.937 Y29.686 Z-7.948 I-0.166 J1.415
X-38.626 Y29.41 Z-8 I0.166 J-1.415
X-34.186 Y23.49 I2.22 J-2.96 F700
X-38.626 Y29.41 I-2.22 J2.96
G2 X-40.732 Y29.16 I-1.269 J1.692
G3 X-42.651 Y28.254 I-0.56 J-1.299
X-30.161 Y24.647 I6.245 J-1.803
X-42.651 Y28.254 I-6.245 J1.803
X-41.115 Y26.443 Z-8.194 I1.369 J-0.395 F333.3
G1 X-37.605 Y26.855 Z-8.438
G3 X-37.937 Y29.686 Z-8.748 I-0.166 J1.415
X-38.626 Y29.41 Z-8.8 I0.166 J-1.415
X-34.186 Y23.49 I2.22 J-2.96 F700
X-38.626 Y29.41 I-2.22 J2.96
G2 X-40.732 Y29.16 I-1.269 J1.692
G3 X-42.651 Y28.254 I-0.56 J-1.299
X-30.161 Y24.647 I6.245 J-1.803
X-42.651 Y28.254 I-6.245 J1.803
X-41.115 Y26.443 Z-8.994 I1.369 J-0.395 F333.3
G1 X-37.605 Y26.855 Z-9.238
G3 X-37.937 Y29.686 Z-9.548 I-0.166 J1.415
X-38.626 Y29.41 Z-9.6 I0.166 J-1.415
X-34.186 Y23.49 I2.22 J-2.96 F700
X-38.626 Y29.41 I-2.22 J2.96
G2 X-40.732 Y29.16 I-1.269 J1.692
G3 X-42.651 Y28.254 I-0.56 J-1.299
X-30.161 Y24.647 I6.245 J-1.803
X-42.651 Y28.254 I-6.245 J1.803
X-41.115 Y26.443 Z-9.794 I1.369 J-0.395 F333.3
G1 X-37.605 Y26.855 Z-10.038
G3 X-37.937 Y29.686 Z-10.348 I-0.166 J1.415
X-38.626 Y29.41 Z-10.4 I0.166 J-1.415
X-34.186 Y23.49 I2.22 J-2.96 F700
X-38.626 Y29.41 I-2.22 J2.96
G2 X-40.732 Y29.16 I-1.269 J1.692
G3 X-42.651 Y28.254 I-0.56 J-1.299
X-30.161 Y24.647 I6.245 J-1.803
X-42.651 Y28.254 I-6.245 J1.803
X-41.115 Y26.443 Z-10.594 I1.369 J-0.395 F333.3
G1 X-37.605 Y26.855 Z-10.838
G3 X-37.937 Y29.686 Z-11.148 I-0.166 J1.415
X-38.626 Y29.41 Z-11.2 I0.166 J-1.415
X-34.186 Y23.49 I2.22 J-2.96 F700
X-38.626 Y29.41 I-2.22 J2.96
G2 X-40.732 Y29.16 I-1.269 J1.692
G3 X-42.651 Y28.254 I-0.56 J-1.299
X-30.161 Y24.647 I6.245 J-1.803
X-42.651 Y28.254 I-6.245 J1.803
X-41.115 Y26.443 Z-11.394 I1.369 J-0.395 F333.3
G1 X-37.605 Y26.855 Z-11.638
G3 X-37.937 Y29.686 Z-11.948 I-0.166 J1.415
X-38.626 Y29.41 Z-12 I0.166 J-1.415
X-34.186 Y23.49 I2.22 J-2.96 F700
X-38.626 Y29.41 I-2.22 J2.96
G2 X-40.732 Y29.16 I-1.269 J1.692
G3 X-42.651 Y28.254 I-0.56 J-1.299
X-30.161 Y24.647 I6.245 J-1.803
X-42.651 Y28.254 I-6.245 J1.803
X-41.115 Y26.443 Z-12.121 I1.369 J-0.395 F333.3
G1 X-37.605 Y26.855 Z-12.274
G3 X-37.937 Y29.686 Z-12.468 I-0.166 J1.415
X-38.626 Y29.41 Z-12.5 I0.166 J-1.415
X-34.186 Y23.49 I2.22 J-2.96 F700
X-38.626 Y29.41 I-2.22 J2.96
G2 X-40.732 Y29.16 I-1.269 J1.692
G3 X-42.651 Y28.254 I-0.56 J-1.299
X-30.161 Y24.647 I6.245 J-1.803
X-42.651 Y28.254 I-6.245 J1.803
X-41.115 Y26.443 Z-12.621 I1.369 J-0.395 F333.3
G1 X-37.605 Y26.855 Z-12.774
G3 X-37.937 Y29.686 Z-12.968 I-0.166 J1.415
X-38.626 Y29.41 Z-13 I0.166 J-1.415
X-34.186 Y23.49 I2.22 J-2.96 F700
X-38.626 Y29.41 I-2.22 J2.96
G2 X-40.732 Y29.16 I-1.269 J1.692
G3 X-42.651 Y28.254 I-0.56 J-1.299
X-30.161 Y24.647 I6.245 J-1.803
X-42.651 Y28.254 I-6.245 J1.803
G0 Z5
X13.315 Y-46.306
Z2
G1 Z1.5 F700
Z-0.8
G3 X13.906 Y-46.498 I0.591 J0.813
X13.906 Y-39.097 I0 J3.7
X13.906 Y-46.498 I0 J-3.7
G2 X15.741 Y-47.561 I0 J-2.116
G3 X17.82 Y-47.987 I1.227 J0.703
X20.406 Y-42.798 I-3.914 J5.19
X7.406 Y-42.798 I-6.5 J0
X17.82 Y-47.987 I6.5 J0
X17.87 Y-47.311 I-0.272 J0.36
G1 X16.412 Y-45.821
X16.373 Y-45.776
X16.341 Y-45.727
X16.096 Y-45.245
G3 X15.291 Y-45.654 I-0.402 J-0.204
X15.702 Y-45.901 I0.402 J0.204
G1 Z-1.6
G3 X16.134 Y-45.752 I-0.013 J0.739
X11.678 Y-39.843 I-2.228 J2.954
X16.134 Y-45.752 I2.228 J-2.954
G2 X18.24 Y-45.496 I1.274 J-1.689
G3 X20.155 Y-44.584 I0.556 J1.3
X20.406 Y-42.798 I-6.25 J1.787
X7.406 Y-42.798 I-6.5 J0
X20.155 Y-44.584 I6.5 J0
X19.458 Y-42.937 Z-1.726 I-1.37 J0.392 F333.3
G1 X16.854 Y-41.541 Z-1.918
G3 X15.508 Y-44.054 Z-2.209 I-0.673 J-1.256
X17.606 Y-42.797 Z-2.4 I0.673 J1.256
X10.206 Y-42.797 I-3.7 J0 F700
X17.606 Y-42.797 I3.7 J0
G2 X18.67 Y-40.962 I2.116 J0
G3 X19.095 Y-38.884 I-0.703 J1.227
X7.406 Y-42.798 I-5.19 J-3.914
X20.406 Y-42.798 I6.5 J0
X19.095 Y-38.884 I-6.5 J0
X16.726 Y-39.025 Z-2.594 I-1.138 J-0.858 F333.3
G1 X14.949 Y-42.081 Z-2.838
G3 X17.413 Y-43.514 Z-3.148 I1.232 J-0.716
X17.606 Y-42.797 Z-3.2 I-1.232 J0.716
X10.206 Y-42.797 I-3.7 J0 F700
X17.606 Y-42.797 I3.7 J0
G2 X18.67 Y-40.962 I2.116 J0
G3 X19.095 Y-38.884 I-0.703 J1.227
X7.406 Y-42.798 I-5.19 J-3.914
X20.406 Y-42.798 I6.5 J0
X19.095 Y-38.884 I-6.5 J0
X16.726 Y-39.025 Z-3.394 I-1.138 J-0.858 F333.3
G1 X14.949 Y-42.081 Z-3.638
G3 X17.413 Y-43.514 Z-3.948 I1.232 J-0.716
X17.606 Y-42.797 Z-4 I-1.232 J0.716
X10.206 Y-42.797 I-3.7 J0 F700
X17.606 Y-42.797 I3.7 J0
G2 X18.67 Y-40.962 I2.116 J0
G3 X19.095 Y-38.884 I-0.703 J1.227
X7.406 Y-42.798 I-5.19 J-3.914
X20.406 Y-42.798 I6.5 J0
X19.095 Y-38.884 I-6.5 J0
X16.726 Y-39.025 Z-4.194 I-1.138 J-0.858 F333.3
G1 X14.949 Y-42.081 Z-4.438
G3 X17.413 Y-43.514 Z-4.748 I1.232 J-0.716
X17.606 Y-42.797 Z-4.8 I-1.232 J0.716
X10.206 Y-42.797 I-3.7 J0 F700
X17.606 Y-42.797 I3.7 J0
G2 X18.67 Y-40.962 I2.116 J0
G3 X19.095 Y-38.884 I-0.703 J1.227
X7.406 Y-42.798 I-5.19 J-3.914
X20.406 Y-42.798 I6.5 J0
X19.095 Y-38.884 I-6.5 J0
X16.726 Y-39.025 Z-4.994 I-1.138 J-0.858 F333.3
G1 X14.949 Y-42.081 Z-5.238
G3 X17.413 Y-43.514 Z-5.548 I1.232 J-0.716
X17.606 Y-42.797 Z-5.6 I-1.232 J0.716
X10.206 Y-42.797 I-3.7 J0 F700
X17.606 Y-42.797 I3.7 J0
G2 X18.67 Y-40.962 I2.116 J0
G3 X19.095 Y-38.884 I-0.703 J1.227
X7.406 Y-42.798 I-5.19 J-3.914
X20.406 Y-42.798 I6.5 J0
X19.095 Y-38.884 I-6.5 J0
X16.726 Y-39.025 Z-5.794 I-1.138 J-0.858 F333.3
G1 X14.949 Y-42.081 Z-6.038
G3 X17.413 Y-43.514 Z-6.348 I1.232 J-0.716
X17.606 Y-42.797 Z-6.4 I-1.232 J0.716
X10.206 Y-42.797 I-3.7 J0 F700
X17.606 Y-42.797 I3.7 J0
G2 X18.67 Y-40.962 I2.116 J0
G3 X19.095 Y-38.884 I-0.703 J1.227
X7.406 Y-42.798 I-5.19 J-3.914
X20.406 Y-42.798 I6.5 J0
X19.095 Y-38.884 I-6.5 J0
X16.726 Y-39.025 Z-6.594 I-1.138 J-0.858 F333.3
G1 X14.949 Y-42.081 Z-6.838
G3 X17.413 Y-43.514 Z-7.148 I1.232 J-0.716
X17.606 Y-42.797 Z-7.2 I-1.232 J0.716
X10.206 Y-42.797 I-3.7 J0 F700
X17.606 Y-42.797 I3.7 J0
G2 X18.67 Y-40.962 I2.116 J0
G3 X19.095 Y-38.884 I-0.703 J1.227
X7.406 Y-42.798 I-5.19 J-3.914
X20.406 Y-42.798 I6.5 J0
X19.095 Y-38.884 I-6.5 J0
X16.726 Y-39.025 Z-7.394 I-1.138 J-0.858 F333.3
G1 X14.949 Y-42.081 Z-7.638
G3 X17.413 Y-43.514 Z-7.948 I1.232 J-0.716
X17.606 Y-42.797 Z-8 I-1.232 J0.716
X10.206 Y-42.797 I-3.7 J0 F700
X17.606 Y-42.797 I3.7 J0
G2 X18.67 Y-40.962 I2.116 J0
G3 X19.095 Y-38.884 I-0.703 J1.227
X7.406 Y-42.798 I-5.19 J-3.914
X20.406 Y-42.798 I6.5 J0
X19.095 Y-38.884 I-6.5 J0
X16.726 Y-39.025 Z-8.194 I-1.138 J-0.858 F333.3
G1 X14.949 Y-42.081 Z-8.438
G3 X17.413 Y-43.514 Z-8.748 I1.232 J-0.716
X17.606 Y-42.797 Z-8.8 I-1.232 J0.716
X10.206 Y-42.797 I-3.7 J0 F700
X17.606 Y-42.797 I3.7 J0
G2 X18.67 Y-40.962 I2.116 J0
G3 X19.095 Y-38.884 I-0.703 J1.227
X7.406 Y-42.798 I-5.19 J-3.914
X20.406 Y-42.798 I6.5 J0
X19.095 Y-38.884 I-6.5 J0
X16.726 Y-39.025 Z-8.994 I-1.138 J-0.858 F333.3
G1 X14.949 Y-42.081 Z-9.238
G3 X17.413 Y-43.514 Z-9.548 I1.232 J-0.716
X17.606 Y-42.797 Z-9.6 I-1.232 J0.716
X10.206 Y-42.797 I-3.7 J0 F700
X17.606 Y-42.797 I3.7 J0
G2 X18.67 Y-40.962 I2.116 J0
G3 X19.095 Y-38.884 I-0.703 J1.227
X7.406 Y-42.798 I-5.19 J-3.914
X20.406 Y-42.798 I6.5 J0
X19.095 Y-38.884 I-6.5 J0
X16.726 Y-39.025 Z-9.794 I-1.138 J-0.858 F333.3
G1 X14.949 Y-42.081 Z-10.038
G3 X17.413 Y-43.514 Z-10.348 I1.232 J-0.716
X17.606 Y-42.797 Z-10.4 I-1.232 J0.716
X10.206 Y-42.797 I-3.7 J0 F700
X17.606 Y-42.797 I3.7 J0
G2 X18.67 Y-40.962 I2.116 J0
G3 X19.095 Y-38.884 I-0.703 J1.227
X7.406 Y-42.798 I-5.19 J-3.914
X20.406 Y-42.798 I6.5 J0
X19.095 Y-38.884 I-6.5 J0
X16.726 Y-39.025 Z-10.594 I-1.138 J-0.858 F333.3
G1 X14.949 Y-42.081 Z-10.838
G3 X17.413 Y-43.514 Z-11.148 I1.232 J-0.716
X17.606 Y-42.797 Z-11.2 I-1.232 J0.716
X10.206 Y-42.797 I-3.7 J0 F700
X17.606 Y-42.797 I3.7 J0
G2 X18.67 Y-40.962 I2.116 J0
G3 X19.095 Y-38.884 I-0.703 J1.227
X7.406 Y-42.798 I-5.19 J-3.914
X20.406 Y-42.798 I6.5 J0
X19.095 Y-38.884 I-6.5 J0
X16.726 Y-39.025 Z-11.394 I-1.138 J-0.858 F333.3
G1 X14.949 Y-42.081 Z-11.638
G3 X17.413 Y-43.514 Z-11.948 I1.232 J-0.716
X17.606 Y-42.797 Z-12 I-1.232 J0.716
X10.206 Y-42.797 I-3.7 J0 F700
X17.606 Y-42.797 I3.7 J0
G2 X18.67 Y-40.962 I2.116 J0
G3 X19.095 Y-38.884 I-0.703 J1.227
X7.406 Y-42.798 I-5.19 J-3.914
X20.406 Y-42.798 I6.5 J0
X19.095 Y-38.884 I-6.5 J0
X16.726 Y-39.025 Z-12.121 I-1.138 J-0.858 F333.3
G1 X14.949 Y-42.081 Z-12.274
G3 X17.413 Y-43.514 Z-12.468 I1.232 J-0.716
X17.606 Y-42.797 Z-12.5 I-1.232 J0.716
X10.206 Y-42.797 I-3.7 J0 F700
X17.606 Y-42.797 I3.7 J0
G2 X18.67 Y-40.962 I2.116 J0
G3 X19.095 Y-38.884 I-0.703 J1.227
X7.406 Y-42.798 I-5.19 J-3.914
X20.406 Y-42.798 I6.5 J0
X19.095 Y-38.884 I-6.5 J0
X16.726 Y-39.025 Z-12.621 I-1.138 J-0.858 F333.3
G1 X14.949 Y-42.081 Z-12.774
G3 X17.413 Y-43.514 Z-12.968 I1.232 J-0.716
X17.606 Y-42.797 Z-13 I-1.232 J0.716
X10.206 Y-42.797 I-3.7 J0 F700
X17.606 Y-42.797 I3.7 J0
G2 X18.67 Y-40.962 I2.116 J0
G3 X19.095 Y-38.884 I-0.703 J1.227
X7.406 Y-42.798 I-5.19 J-3.914
X20.406 Y-42.798 I6.5 J0
X19.095 Y-38.884 I-6.5 J0
G0 Z5
X-15.267 Y-49.45
Z2
G1 Z1 F700
G3 X-12.545 Y-50.295 Z0.608 I1.361 J-0.422 F333.3
X-15.267 Y-49.45 Z0.217 I-1.361 J0.422
X-12.545 Y-50.295 Z-0.175 I1.361 J-0.422
X-15.267 Y-49.45 Z-0.567 I-1.361 J0.422
X-13.906 Y-51.297 Z-0.8 I1.361 J-0.422
X-5.406 Y-42.798 I0 J8.5 F700
X-22.406 Y-42.798 I-8.5 J0
X-13.906 Y-51.297 I8.5 J0
X-5.406 Y-42.798 Z-1.3 I0 J8.5 F333.3
X-8.91 Y-35.921 Z-1.6 I-8.5 J0
X-22.406 Y-42.798 I-4.996 J-6.877 F700
X-5.406 Y-42.798 I8.5 J0
X-8.91 Y-35.921 I-8.5 J0
X-22.406 Y-42.798 Z-2.3 I-4.996 J-6.877 F333.3
X-21.99 Y-45.424 Z-2.4 I8.5 J0
X-5.406 Y-42.798 I8.084 J2.627 F700
X-22.406 Y-42.798 I-8.5 J0
X-21.99 Y-45.424 I8.5 J0
X-5.822 Y-45.424 Z-3.2 I8.084 J2.627 F333.3
X-5.406 Y-42.798 I-8.084 J2.627 F700
X-22.406 Y-42.798 I-8.5 J0
X-5.822 Y-45.424 I8.5 J0
X-5.406 Y-42.798 Z-3.3 I-8.084 J2.627 F333.3
X-18.902 Y-35.921 Z-4 I-8.5 J0
X-22.406 Y-42.798 I4.996 J-6.877 F700
X-5.406 Y-42.798 I8.5 J0
X-18.902 Y-35.921 I-8.5 J0
X-22.406 Y-42.798 Z-4.3 I4.996 J-6.877 F333.3
X-13.906 Y-51.297 Z-4.8 I8.5 J0
X-5.406 Y-42.798 I0 J8.5 F700
X-22.406 Y-42.798 I-8.5 J0
X-13.906 Y-51.297 I8.5 J0
X-5.406 Y-42.798 Z-5.3 I0 J8.5 F333.3
X-8.91 Y-35.921 Z-5.6 I-8.5 J0
X-22.406 Y-42.798 I-4.996 J-6.877 F700
X-5.406 Y-42.798 I8.5 J0
X-8.91 Y-35.921 I-8.5 J0
X-22.406 Y-42.798 Z-6.3 I-4.996 J-6.877 F333.3
X-21.99 Y-45.424 Z-6.4 I8.5 J0
X-5.406 Y-42.798 I8.084 J2.627 F700
X-22.406 Y-42.798 I-8.5 J0
X-21.99 Y-45.424 I8.5 J0
X-5.822 Y-45.424 Z-7.2 I8.084 J2.627 F333.3
X-5.406 Y-42.798 I-8.084 J2.627 F700
X-22.406 Y-42.798 I-8.5 J0
X-5.822 Y-45.424 I8.5 J0
X-5.406 Y-42.798 Z-7.3 I-8.084 J2.627 F333.3
X-18.902 Y-35.921 Z-8 I-8.5 J0
X-22.406 Y-42.798 I4.996 J-6.877 F700
X-5.406 Y-42.798 I8.5 J0
X-18.902 Y-35.921 I-8.5 J0
X-22.406 Y-42.798 Z-8.3 I4.996 J-6.877 F333.3
X-13.906 Y-51.297 Z-8.8 I8.5 J0
X-5.406 Y-42.798 I0 J8.5 F700
X-22.406 Y-42.798 I-8.5 J0
X-13.906 Y-51.297 I8.5 J0
X-5.406 Y-42.798 Z-9.3 I0 J8.5 F333.3
X-8.91 Y-35.921 Z-9.6 I-8.5 J0
X-22.406 Y-42.798 I-4.996 J-6.877 F700
X-5.406 Y-42.798 I8.5 J0
X-8.91 Y-35.921 I-8.5 J0
X-22.406 Y-42.798 Z-10.3 I-4.996 J-6.877 F333.3
X-21.99 Y-45.424 Z-10.4 I8.5 J0
X-5.406 Y-42.798 I8.084 J2.627 F700
X-22.406 Y-42.798 I-8.5 J0
X-21.99 Y-45.424 I8.5 J0
X-5.822 Y-45.424 Z-11.2 I8.084 J2.627 F333.3
X-5.406 Y-42.798 I-8.084 J2.627 F700
X-22.406 Y-42.798 I-8.5 J0
X-5.822 Y-45.424 I8.5 J0
X-5.406 Y-42.798 Z-11.3 I-8.084 J2.627 F333.3
X-18.902 Y-35.921 Z-12 I-8.5 J0
X-22.406 Y-42.798 I4.996 J-6.877 F700
X-5.406 Y-42.798 I8.5 J0
X-18.902 Y-35.921 I-8.5 J0
G0 Z5
X-39.309 Y-20.311
Z2
G1 Z1 F700
G3 X-41.993 Y-21.269 Z0.608 I-1.342 J-0.479 F333.3
X-39.309 Y-20.311 Z0.217 I1.342 J0.479
X-41.993 Y-21.269 Z-0.175 I-1.342 J-0.479
X-39.309 Y-20.311 Z-0.567 I1.342 J0.479
X-41.506 Y-19.65 Z-0.8 I-1.342 J-0.479
X-31.306 Y-33.25 I5.1 J-6.8 F700
X-41.506 Y-19.65 I-5.1 J6.8
X-36.277 Y-34.949 Z-1.6 I5.1 J-6.8 F333.3
X-36.535 Y-17.951 I-0.129 J8.499 F700
X-36.277 Y-34.949 I0.129 J-8.499
X-31.515 Y-19.499 Z-2.4 I-0.129 J8.499 F333.3
X-41.297 Y-33.402 I-4.891 J-6.952 F700
X-31.515 Y-19.499 I4.891 J6.952
X-44.449 Y-29.199 Z-3.2 I-4.891 J-6.952 F333.3
X-28.363 Y-23.701 I8.043 J2.749 F700
X-44.449 Y-29.199 I-8.043 J-2.749
X-28.283 Y-28.954 Z-4 I8.043 J2.749 F333.3
X-44.529 Y-23.947 I-8.123 J2.504 F700
X-28.283 Y-28.954 I8.123 J-2.504
X-41.506 Y-19.65 Z-4.8 I-8.123 J2.504 F333.3
X-31.306 Y-33.25 I5.1 J-6.8 F700
X-41.506 Y-19.65 I-5.1 J6.8
X-36.277 Y-34.949 Z-5.6 I5.1 J-6.8 F333.3
X-36.535 Y-17.951 I-0.129 J8.499 F700
X-36.277 Y-34.949 I0.129 J-8.499
X-31.515 Y-19.499 Z-6.4 I-0.129 J8.499 F333.3
X-41.297 Y-33.402 I-4.891 J-6.952 F700
X-31.515 Y-19.499 I4.891 J6.952
X-44.449 Y-29.199 Z-7.2 I-4.891 J-6.952 F333.3
X-28.363 Y-23.701 I8.043 J2.749 F700
X-44.449 Y-29.199 I-8.043 J-2.749
X-28.283 Y-28.954 Z-8 I8.043 J2.749 F333.3
X-44.529 Y-23.947 I-8.123 J2.504 F700
X-28.283 Y-28.954 I8.123 J-2.504
X-41.506 Y-19.65 Z-8.8 I-8.123 J2.504 F333.3
X-31.306 Y-33.25 I5.1 J-6.8 F700
X-41.506 Y-19.65 I-5.1 J6.8
X-36.277 Y-34.949 Z-9.6 I5.1 J-6.8 F333.3
X-36.535 Y-17.951 I-0.129 J8.499 F700
X-36.277 Y-34.949 I0.129 J-8.499
X-31.515 Y-19.499 Z-10.4 I-0.129 J8.499 F333.3
X-41.297 Y-33.402 I-4.891 J-6.952 F700
X-31.515 Y-19.499 I4.891 J6.952
X-44.449 Y-29.199 Z-11.2 I-4.891 J-6.952 F333.3
X-28.363 Y-23.701 I8.043 J2.749 F700
X-44.449 Y-29.199 I-8.043 J-2.749
X-28.283 Y-28.954 Z-12 I8.043 J2.749 F333.3
X-44.529 Y-23.947 I-8.123 J2.504 F700
X-28.283 Y-28.954 I8.123 J-2.504
G0 Z5
X12.545 Y-49.45
Z2
G1 Z1 F700
G3 X15.267 Y-50.295 Z0.608 I1.361 J-0.422 F333.3
X12.545 Y-49.45 Z0.217 I-1.361 J0.422
X15.267 Y-50.295 Z-0.175 I1.361 J-0.422
X12.545 Y-49.45 Z-0.567 I-1.361 J0.422
X13.906 Y-51.297 Z-0.8 I1.361 J-0.422
X22.406 Y-42.798 I0 J8.5 F700
X5.406 Y-42.798 I-8.5 J0
X13.906 Y-51.297 I8.5 J0
X22.406 Y-42.798 Z-1.3 I0 J8.5 F333.3
X18.902 Y-35.921 Z-1.6 I-8.5 J0
X5.406 Y-42.798 I-4.996 J-6.877 F700
X22.406 Y-42.798 I8.5 J0
X18.902 Y-35.921 I-8.5 J0
X5.406 Y-42.798 Z-2.3 I-4.996 J-6.877 F333.3
X5.822 Y-45.424 Z-2.4 I8.5 J0
X22.406 Y-42.798 I8.084 J2.627 F700
X5.406 Y-42.798 I-8.5 J0
X5.822 Y-45.424 I8.5 J0
X21.99 Y-45.424 Z-3.2 I8.084 J2.627 F333.3
X22.406 Y-42.798 I-8.084 J2.627 F700
X5.406 Y-42.798 I-8.5 J0
X21.99 Y-45.424 I8.5 J0
X22.406 Y-42.798 Z-3.3 I-8.084 J2.627 F333.3
X8.91 Y-35.921 Z-4 I-8.5 J0
X5.406 Y-42.798 I4.996 J-6.877 F700
X22.406 Y-42.798 I8.5 J0
X8.91 Y-35.921 I-8.5 J0
X5.406 Y-42.798 Z-4.3 I4.996 J-6.877 F333.3
X13.906 Y-51.297 Z-4.8 I8.5 J0
X22.406 Y-42.798 I0 J8.5 F700
X5.406 Y-42.798 I-8.5 J0
X13.906 Y-51.297 I8.5 J0
X22.406 Y-42.798 Z-5.3 I0 J8.5 F333.3
X18.902 Y-35.921 Z-5.6 I-8.5 J0
X5.406 Y-42.798 I-4.996 J-6.877 F700
X22.406 Y-42.798 I8.5 J0
X18.902 Y-35.921 I-8.5 J0
X5.406 Y-42.798 Z-6.3 I-4.996 J-6.877 F333.3
X5.822 Y-45.424 Z-6.4 I8.5 J0
X22.406 Y-42.798 I8.084 J2.627 F700
X5.406 Y-42.798 I-8.5 J0
X5.822 Y-45.424 I8.5 J0
X21.99 Y-45.424 Z-7.2 I8.084 J2.627 F333.3
X22.406 Y-42.798 I-8.084 J2.627 F700
X5.406 Y-42.798 I-8.5 J0
X21.99 Y-45.424 I8.5 J0
X22.406 Y-42.798 Z-7.3 I-8.084 J2.627 F333.3
X8.91 Y-35.921 Z-8 I-8.5 J0
X5.406 Y-42.798 I4.996 J-6.877 F700
X22.406 Y-42.798 I8.5 J0
X8.91 Y-35.921 I-8.5 J0
X5.406 Y-42.798 Z-8.3 I4.996 J-6.877 F333.3
X13.906 Y-51.297 Z-8.8 I8.5 J0
X22.406 Y-42.798 I0 J8.5 F700
X5.406 Y-42.798 I-8.5 J0
X13.906 Y-51.297 I8.5 J0
X22.406 Y-42.798 Z-9.3 I0 J8.5 F333.3
X18.902 Y-35.921 Z-9.6 I-8.5 J0
X5.406 Y-42.798 I-4.996 J-6.877 F700
X22.406 Y-42.798 I8.5 J0
X18.902 Y-35.921 I-8.5 J0
X5.406 Y-42.798 Z-10.3 I-4.996 J-6.877 F333.3
X5.822 Y-45.424 Z-10.4 I8.5 J0
X22.406 Y-42.798 I8.084 J2.627 F700
X5.406 Y-42.798 I-8.5 J0
X5.822 Y-45.424 I8.5 J0
X21.99 Y-45.424 Z-11.2 I8.084 J2.627 F333.3
X22.406 Y-42.798 I-8.084 J2.627 F700
X5.406 Y-42.798 I-8.5 J0
X21.99 Y-45.424 I8.5 J0
X22.406 Y-42.798 Z-11.3 I-8.084 J2.627 F333.3
X8.91 Y-35.921 Z-12 I-8.5 J0
X5.406 Y-42.798 I4.996 J-6.877 F700
X22.406 Y-42.798 I8.5 J0
X8.91 Y-35.921 I-8.5 J0
G0 Z5
X33.503 Y-20.311
Z2
G1 Z1 F700
G3 X30.819 Y-21.269 Z0.608 I-1.342 J-0.479 F333.3
X33.503 Y-20.311 Z0.217 I1.342 J0.479
X30.819 Y-21.269 Z-0.175 I-1.342 J-0.479
X33.503 Y-20.311 Z-0.567 I1.342 J0.479
X31.306 Y-19.65 Z-0.8 I-1.342 J-0.479
X41.506 Y-33.25 I5.1 J-6.8 F700
X31.306 Y-19.65 I-5.1 J6.8
X36.535 Y-34.949 Z-1.6 I5.1 J-6.8 F333.3
X36.277 Y-17.951 I-0.129 J8.499 F700
X36.535 Y-34.949 I0.129 J-8.499
X41.297 Y-19.499 Z-2.4 I-0.129 J8.499 F333.3
X31.515 Y-33.402 I-4.891 J-6.952 F700
X41.297 Y-19.499 I4.891 J6.952
X28.363 Y-29.199 Z-3.2 I-4.891 J-6.952 F333.3
X44.449 Y-23.701 I8.043 J2.749 F700
X28.363 Y-29.199 I-8.043 J-2.749
X44.529 Y-28.954 Z-4 I8.043 J2.749 F333.3
X28.283 Y-23.947 I-8.123 J2.504 F700
X44.529 Y-28.954 I8.123 J-2.504
X31.306 Y-19.65 Z-4.8 I-8.123 J2.504 F333.3
X41.506 Y-33.25 I5.1 J-6.8 F700
X31.306 Y-19.65 I-5.1 J6.8
X36.535 Y-34.949 Z-5.6 I5.1 J-6.8 F333.3
X36.277 Y-17.951 I-0.129 J8.499 F700
X36.535 Y-34.949 I0.129 J-8.499
X41.297 Y-19.499 Z-6.4 I-0.129 J8.499 F333.3
X31.515 Y-33.402 I-4.891 J-6.952 F700
X41.297 Y-19.499 I4.891 J6.952
X28.363 Y-29.199 Z-7.2 I-4.891 J-6.952 F333.3
X44.449 Y-23.701 I8.043 J2.749 F700
X28.363 Y-29.199 I-8.043 J-2.749
X44.529 Y-28.954 Z-8 I8.043 J2.749 F333.3
X28.283 Y-23.947 I-8.123 J2.504 F700
X44.529 Y-28.954 I8.123 J-2.504
X31.306 Y-19.65 Z-8.8 I-8.123 J2.504 F333.3
X41.506 Y-33.25 I5.1 J-6.8 F700
X31.306 Y-19.65 I-5.1 J6.8
X36.535 Y-34.949 Z-9.6 I5.1 J-6.8 F333.3
X36.277 Y-17.951 I-0.129 J8.499 F700
X36.535 Y-34.949 I0.129 J-8.499
X41.297 Y-19.499 Z-10.4 I-0.129 J8.499 F333.3
X31.515 Y-33.402 I-4.891 J-6.952 F700
X41.297 Y-19.499 I4.891 J6.952
X28.363 Y-29.199 Z-11.2 I-4.891 J-6.952 F333.3
X44.449 Y-23.701 I8.043 J2.749 F700
X28.363 Y-29.199 I-8.043 J-2.749
X44.529 Y-28.954 Z-12 I8.043 J2.749 F333.3
X28.283 Y-23.947 I-8.123 J2.504 F700
X44.529 Y-28.954 I8.123 J-2.504
G0 Z5
X42.097 Y6.139
Z2
G1 Z1 F700
G3 X39.413 Y5.181 Z0.608 I-1.342 J-0.479 F333.3
X42.097 Y6.139 Z0.217 I1.342 J0.479
X39.413 Y5.181 Z-0.175 I-1.342 J-0.479
X42.097 Y6.139 Z-0.567 I1.342 J0.479
X39.9 Y6.8 Z-0.8 I-1.342 J-0.479
X50.1 Y-6.8 I5.1 J-6.8 F700
X39.9 Y6.8 I-5.1 J6.8
X45.129 Y-8.499 Z-1.6 I5.1 J-6.8 F333.3
X44.871 Y8.499 I-0.129 J8.499 F700
X45.129 Y-8.499 I0.129 J-8.499
X49.891 Y6.952 Z-2.4 I-0.129 J8.499 F333.3
X40.109 Y-6.952 I-4.891 J-6.952 F700
X49.891 Y6.952 I4.891 J6.952
X36.957 Y-2.749 Z-3.2 I-4.891 J-6.952 F333.3
X53.043 Y2.749 I8.043 J2.749 F700
X36.957 Y-2.749 I-8.043 J-2.749
X53.123 Y-2.504 Z-4 I8.043 J2.749 F333.3
X36.877 Y2.504 I-8.123 J2.504 F700
X53.123 Y-2.504 I8.123 J-2.504
X39.9 Y6.8 Z-4.8 I-8.123 J2.504 F333.3
X50.1 Y-6.8 I5.1 J-6.8 F700
X39.9 Y6.8 I-5.1 J6.8
X45.129 Y-8.499 Z-5.6 I5.1 J-6.8 F333.3
X44.871 Y8.499 I-0.129 J8.499 F700
X45.129 Y-8.499 I0.129 J-8.499
X49.891 Y6.952 Z-6.4 I-0.129 J8.499 F333.3
X40.109 Y-6.952 I-4.891 J-6.952 F700
X49.891 Y6.952 I4.891 J6.952
X36.957 Y-2.749 Z-7.2 I-4.891 J-6.952 F333.3
X53.043 Y2.749 I8.043 J2.749 F700
X36.957 Y-2.749 I-8.043 J-2.749
X53.123 Y-2.504 Z-8 I8.043 J2.749 F333.3
X36.877 Y2.504 I-8.123 J2.504 F700
X53.123 Y-2.504 I8.123 J-2.504
X39.9 Y6.8 Z-8.8 I-8.123 J2.504 F333.3
X50.1 Y-6.8 I5.1 J-6.8 F700
X39.9 Y6.8 I-5.1 J6.8
X45.129 Y-8.499 Z-9.6 I5.1 J-6.8 F333.3
X44.871 Y8.499 I-0.129 J8.499 F700
X45.129 Y-8.499 I0.129 J-8.499
X49.891 Y6.952 Z-10.4 I-0.129 J8.499 F333.3
X40.109 Y-6.952 I-4.891 J-6.952 F700
X49.891 Y6.952 I4.891 J6.952
X36.957 Y-2.749 Z-11.2 I-4.891 J-6.952 F333.3
X53.043 Y2.749 I8.043 J2.749 F700
X36.957 Y-2.749 I-8.043 J-2.749
X53.123 Y-2.504 Z-12 I8.043 J2.749 F333.3
X36.877 Y2.504 I-8.123 J2.504 F700
X53.123 Y-2.504 I8.123 J-2.504
G0 Z5
X33.503 Y32.589
Z2
G1 Z1 F700
G3 X30.819 Y31.631 Z0.608 I-1.342 J-0.479 F333.3
X33.503 Y32.589 Z0.217 I1.342 J0.479
X30.819 Y31.631 Z-0.175 I-1.342 J-0.479
X33.503 Y32.589 Z-0.567 I1.342 J0.479
X31.306 Y33.25 Z-0.8 I-1.342 J-0.479
X41.506 Y19.65 I5.1 J-6.8 F700
X31.306 Y33.25 I-5.1 J6.8
X36.535 Y17.951 Z-1.6 I5.1 J-6.8 F333.3
X36.277 Y34.949 I-0.129 J8.499 F700
X36.535 Y17.951 I0.129 J-8.499
X41.297 Y33.402 Z-2.4 I-0.129 J8.499 F333.3
X31.515 Y19.499 I-4.891 J-6.952 F700
X41.297 Y33.402 I4.891 J6.952
X28.363 Y23.701 Z-3.2 I-4.891 J-6.952 F333.3
X44.449 Y29.199 I8.043 J2.749 F700
X28.363 Y23.701 I-8.043 J-2.749
X44.529 Y23.947 Z-4 I8.043 J2.749 F333.3
X28.283 Y28.954 I-8.123 J2.504 F700
X44.529 Y23.947 I8.123 J-2.504
X31.306 Y33.25 Z-4.8 I-8.123 J2.504 F333.3
X41.506 Y19.65 I5.1 J-6.8 F700
X31.306 Y33.25 I-5.1 J6.8
X36.535 Y17.951 Z-5.6 I5.1 J-6.8 F333.3
X36.277 Y34.949 I-0.129 J8.499 F700
X36.535 Y17.951 I0.129 J-8.499
X41.297 Y33.402 Z-6.4 I-0.129 J8.499 F333.3
X31.515 Y19.499 I-4.891 J-6.952 F700
X41.297 Y33.402 I4.891 J6.952
X28.363 Y23.701 Z-7.2 I-4.891 J-6.952 F333.3
X44.449 Y29.199 I8.043 J2.749 F700
X28.363 Y23.701 I-8.043 J-2.749
X44.529 Y23.947 Z-8 I8.043 J2.749 F333.3
X28.283 Y28.954 I-8.123 J2.504 F700
X44.529 Y23.947 I8.123 J-2.504
X31.306 Y33.25 Z-8.8 I-8.123 J2.504 F333.3
X41.506 Y19.65 I5.1 J-6.8 F700
X31.306 Y33.25 I-5.1 J6.8
X36.535 Y17.951 Z-9.6 I5.1 J-6.8 F333.3
X36.277 Y34.949 I-0.129 J8.499 F700
X36.535 Y17.951 I0.129 J-8.499
X41.297 Y33.402 Z-10.4 I-0.129 J8.499 F333.3
X31.515 Y19.499 I-4.891 J-6.952 F700
X41.297 Y33.402 I4.891 J6.952
X28.363 Y23.701 Z-11.2 I-4.891 J-6.952 F333.3
X44.449 Y29.199 I8.043 J2.749 F700
X28.363 Y23.701 I-8.043 J-2.749
X44.529 Y23.947 Z-12 I8.043 J2.749 F333.3
X28.283 Y28.954 I-8.123 J2.504 F700
X44.529 Y23.947 I8.123 J-2.504
G0 Z5
X12.545 Y36.145
Z2
G1 Z1 F700
G3 X15.267 Y35.3 Z0.608 I1.361 J-0.422 F333.3
X12.545 Y36.145 Z0.217 I-1.361 J0.422
X15.267 Y35.3 Z-0.175 I1.361 J-0.422
X12.545 Y36.145 Z-0.567 I-1.361 J0.422
X13.906 Y34.298 Z-0.8 I1.361 J-0.422
X22.406 Y42.798 I0 J8.5 F700
X5.406 Y42.798 I-8.5 J0
X13.906 Y34.298 I8.5 J0
X22.406 Y42.798 Z-1.3 I0 J8.5 F333.3
X18.902 Y49.674 Z-1.6 I-8.5 J0
X5.406 Y42.798 I-4.996 J-6.877 F700
X22.406 Y42.798 I8.5 J0
X18.902 Y49.674 I-8.5 J0
X5.406 Y42.798 Z-2.3 I-4.996 J-6.877 F333.3
X5.822 Y40.171 Z-2.4 I8.5 J0
X22.406 Y42.798 I8.084 J2.627 F700
X5.406 Y42.798 I-8.5 J0
X5.822 Y40.171 I8.5 J0
X21.99 Y40.171 Z-3.2 I8.084 J2.627 F333.3
X22.406 Y42.798 I-8.084 J2.627 F700
X5.406 Y42.798 I-8.5 J0
X21.99 Y40.171 I8.5 J0
X22.406 Y42.798 Z-3.3 I-8.084 J2.627 F333.3
X8.91 Y49.674 Z-4 I-8.5 J0
X5.406 Y42.798 I4.996 J-6.877 F700
X22.406 Y42.798 I8.5 J0
X8.91 Y49.674 I-8.5 J0
X5.406 Y42.798 Z-4.3 I4.996 J-6.877 F333.3
X13.906 Y34.298 Z-4.8 I8.5 J0
X22.406 Y42.798 I0 J8.5 F700
X5.406 Y42.798 I-8.5 J0
X13.906 Y34.298 I8.5 J0
X22.406 Y42.798 Z-5.3 I0 J8.5 F333.3
X18.902 Y49.674 Z-5.6 I-8.5 J0
X5.406 Y42.798 I-4.996 J-6.877 F700
X22.406 Y42.798 I8.5 J0
X18.902 Y49.674 I-8.5 J0
X5.406 Y42.798 Z-6.3 I-4.996 J-6.877 F333.3
X5.822 Y40.171 Z-6.4 I8.5 J0
X22.406 Y42.798 I8.084 J2.627 F700
X5.406 Y42.798 I-8.5 J0
X5.822 Y40.171 I8.5 J0
X21.99 Y40.171 Z-7.2 I8.084 J2.627 F333.3
X22.406 Y42.798 I-8.084 J2.627 F700
X5.406 Y42.798 I-8.5 J0
X21.99 Y40.171 I8.5 J0
X22.406 Y42.798 Z-7.3 I-8.084 J2.627 F333.3
X8.91 Y49.674 Z-8 I-8.5 J0
X5.406 Y42.798 I4.996 J-6.877 F700
X22.406 Y42.798 I8.5 J0
X8.91 Y49.674 I-8.5 J0
X5.406 Y42.798 Z-8.3 I4.996 J-6.877 F333.3
X13.906 Y34.298 Z-8.8 I8.5 J0
X22.406 Y42.798 I0 J8.5 F700
X5.406 Y42.798 I-8.5 J0
X13.906 Y34.298 I8.5 J0
X22.406 Y42.798 Z-9.3 I0 J8.5 F333.3
X18.902 Y49.674 Z-9.6 I-8.5 J0
X5.406 Y42.798 I-4.996 J-6.877 F700
X22.406 Y42.798 I8.5 J0
X18.902 Y49.674 I-8.5 J0
X5.406 Y42.798 Z-10.3 I-4.996 J-6.877 F333.3
X5.822 Y40.171 Z-10.4 I8.5 J0
X22.406 Y42.798 I8.084 J2.627 F700
X5.406 Y42.798 I-8.5 J0
X5.822 Y40.171 I8.5 J0
X21.99 Y40.171 Z-11.2 I8.084 J2.627 F333.3
X22.406 Y42.798 I-8.084 J2.627 F700
X5.406 Y42.798 I-8.5 J0
X21.99 Y40.171 I8.5 J0
X22.406 Y42.798 Z-11.3 I-8.084 J2.627 F333.3
X8.91 Y49.674 Z-12 I-8.5 J0
X5.406 Y42.798 I4.996 J-6.877 F700
X22.406 Y42.798 I8.5 J0
X8.91 Y49.674 I-8.5 J0
G0 Z5
X-15.267 Y36.145
Z2
G1 Z1 F700
G3 X-12.545 Y35.3 Z0.608 I1.361 J-0.422 F333.3
X-15.267 Y36.145 Z0.217 I-1.361 J0.422
X-12.545 Y35.3 Z-0.175 I1.361 J-0.422
X-15.267 Y36.145 Z-0.567 I-1.361 J0.422
X-13.906 Y34.298 Z-0.8 I1.361 J-0.422
X-5.406 Y42.798 I0 J8.5 F700
X-22.406 Y42.798 I-8.5 J0
X-13.906 Y34.298 I8.5 J0
X-5.406 Y42.798 Z-1.3 I0 J8.5 F333.3
X-8.91 Y49.674 Z-1.6 I-8.5 J0
X-22.406 Y42.798 I-4.996 J-6.877 F700
X-5.406 Y42.798 I8.5 J0
X-8.91 Y49.674 I-8.5 J0
X-22.406 Y42.798 Z-2.3 I-4.996 J-6.877 F333.3
X-21.99 Y40.171 Z-2.4 I8.5 J0
X-5.406 Y42.798 I8.084 J2.627 F700
X-22.406 Y42.798 I-8.5 J0
X-21.99 Y40.171 I8.5 J0
X-5.822 Y40.171 Z-3.2 I8.084 J2.627 F333.3
X-5.406 Y42.798 I-8.084 J2.627 F700
X-22.406 Y42.798 I-8.5 J0
X-5.822 Y40.171 I8.5 J0
X-5.406 Y42.798 Z-3.3 I-8.084 J2.627 F333.3
X-18.902 Y49.674 Z-4 I-8.5 J0
X-22.406 Y42.798 I4.996 J-6.877 F700
X-5.406 Y42.798 I8.5 J0
X-18.902 Y49.674 I-8.5 J0
X-22.406 Y42.798 Z-4.3 I4.996 J-6.877 F333.3
X-13.906 Y34.298 Z-4.8 I8.5 J0
X-5.406 Y42.798 I0 J8.5 F700
X-22.406 Y42.798 I-8.5 J0
X-13.906 Y34.298 I8.5 J0
X-5.406 Y42.798 Z-5.3 I0 J8.5 F333.3
X-8.91 Y49.674 Z-5.6 I-8.5 J0
X-22.406 Y42.798 I-4.996 J-6.877 F700
X-5.406 Y42.798 I8.5 J0
X-8.91 Y49.674 I-8.5 J0
X-22.406 Y42.798 Z-6.3 I-4.996 J-6.877 F333.3
X-21.99 Y40.171 Z-6.4 I8.5 J0
X-5.406 Y42.798 I8.084 J2.627 F700
X-22.406 Y42.798 I-8.5 J0
X-21.99 Y40.171 I8.5 J0
X-5.822 Y40.171 Z-7.2 I8.084 J2.627 F333.3
X-5.406 Y42.798 I-8.084 J2.627 F700
X-22.406 Y42.798 I-8.5 J0
X-5.822 Y40.171 I8.5 J0
X-5.406 Y42.798 Z-7.3 I-8.084 J2.627 F333.3
X-18.902 Y49.674 Z-8 I-8.5 J0
X-22.406 Y42.798 I4.996 J-6.877 F700
X-5.406 Y42.798 I8.5 J0
X-18.902 Y49.674 I-8.5 J0
X-22.406 Y42.798 Z-8.3 I4.996 J-6.877 F333.3
X-13.906 Y34.298 Z-8.8 I8.5 J0
X-5.406 Y42.798 I0 J8.5 F700
X-22.406 Y42.798 I-8.5 J0
X-13.906 Y34.298 I8.5 J0
X-5.406 Y42.798 Z-9.3 I0 J8.5 F333.3
X-8.91 Y49.674 Z-9.6 I-8.5 J0
X-22.406 Y42.798 I-4.996 J-6.877 F700
X-5.406 Y42.798 I8.5 J0
X-8.91 Y49.674 I-8.5 J0
X-22.406 Y42.798 Z-10.3 I-4.996 J-6.877 F333.3
X-21.99 Y40.171 Z-10.4 I8.5 J0
X-5.406 Y42.798 I8.084 J2.627 F700
X-22.406 Y42.798 I-8.5 J0
X-21.99 Y40.171 I8.5 J0
X-5.822 Y40.171 Z-11.2 I8.084 J2.627 F333.3
X-5.406 Y42.798 I-8.084 J2.627 F700
X-22.406 Y42.798 I-8.5 J0
X-5.822 Y40.171 I8.5 J0
X-5.406 Y42.798 Z-11.3 I-8.084 J2.627 F333.3
X-18.902 Y49.674 Z-12 I-8.5 J0
X-22.406 Y42.798 I4.996 J-6.877 F700
X-5.406 Y42.798 I8.5 J0
X-18.902 Y49.674 I-8.5 J0
G0 Z5
X-39.309 Y32.589
Z2
G1 Z1 F700
G3 X-41.993 Y31.631 Z0.608 I-1.342 J-0.479 F333.3
X-39.309 Y32.589 Z0.217 I1.342 J0.479
X-41.993 Y31.631 Z-0.175 I-1.342 J-0.479
X-39.309 Y32.589 Z-0.567 I1.342 J0.479
X-41.506 Y33.25 Z-0.8 I-1.342 J-0.479
X-31.306 Y19.65 I5.1 J-6.8 F700
X-41.506 Y33.25 I-5.1 J6.8
X-36.277 Y17.951 Z-1.6 I5.1 J-6.8 F333.3
X-36.535 Y34.949 I-0.129 J8.499 F700
X-36.277 Y17.951 I0.129 J-8.499
X-31.515 Y33.402 Z-2.4 I-0.129 J8.499 F333.3
X-41.297 Y19.499 I-4.891 J-6.952 F700
X-31.515 Y33.402 I4.891 J6.952
X-44.449 Y23.701 Z-3.2 I-4.891 J-6.952 F333.3
X-28.363 Y29.199 I8.043 J2.749 F700
X-44.449 Y23.701 I-8.043 J-2.749
X-28.283 Y23.947 Z-4 I8.043 J2.749 F333.3
X-44.529 Y28.954 I-8.123 J2.504 F700
X-28.283 Y23.947 I8.123 J-2.504
X-41.506 Y33.25 Z-4.8 I-8.123 J2.504 F333.3
X-31.306 Y19.65 I5.1 J-6.8 F700
X-41.506 Y33.25 I-5.1 J6.8
X-36.277 Y17.951 Z-5.6 I5.1 J-6.8 F333.3
X-36.535 Y34.949 I-0.129 J8.499 F700
X-36.277 Y17.951 I0.129 J-8.499
X-31.515 Y33.402 Z-6.4 I-0.129 J8.499 F333.3
X-41.297 Y19.499 I-4.891 J-6.952 F700
X-31.515 Y33.402 I4.891 J6.952
X-44.449 Y23.701 Z-7.2 I-4.891 J-6.952 F333.3
X-28.363 Y29.199 I8.043 J2.749 F700
X-44.449 Y23.701 I-8.043 J-2.749
X-28.283 Y23.947 Z-8 I8.043 J2.749 F333.3
X-44.529 Y28.954 I-8.123 J2.504 F700
X-28.283 Y23.947 I8.123 J-2.504
X-41.506 Y33.25 Z-8.8 I-8.123 J2.504 F333.3
X-31.306 Y19.65 I5.1 J-6.8 F700
X-41.506 Y33.25 I-5.1 J6.8
X-36.277 Y17.951 Z-9.6 I5.1 J-6.8 F333.3
X-36.535 Y34.949 I-0.129 J8.499 F700
X-36.277 Y17.951 I0.129 J-8.499
X-31.515 Y33.402 Z-10.4 I-0.129 J8.499 F333.3
X-41.297 Y19.499 I-4.891 J-6.952 F700
X-31.515 Y33.402 I4.891 J6.952
X-44.449 Y23.701 Z-11.2 I-4.891 J-6.952 F333.3
X-28.363 Y29.199 I8.043 J2.749 F700
X-44.449 Y23.701 I-8.043 J-2.749
X-28.283 Y23.947 Z-12 I8.043 J2.749 F333.3
X-44.529 Y28.954 I-8.123 J2.504 F700
X-28.283 Y23.947 I8.123 J-2.504
G0 Z5
X-47.903 Y6.139
Z2
G1 Z1 F700
G3 X-50.587 Y5.181 Z0.608 I-1.342 J-0.479 F333.3
X-47.903 Y6.139 Z0.217 I1.342 J0.479
X-50.587 Y5.181 Z-0.175 I-1.342 J-0.479
X-47.903 Y6.139 Z-0.567 I1.342 J0.479
X-50.1 Y6.8 Z-0.8 I-1.342 J-0.479
X-39.9 Y-6.8 I5.1 J-6.8 F700
X-50.1 Y6.8 I-5.1 J6.8
X-44.871 Y-8.499 Z-1.6 I5.1 J-6.8 F333.3
X-45.129 Y8.499 I-0.129 J8.499 F700
X-44.871 Y-8.499 I0.129 J-8.499
X-40.109 Y6.952 Z-2.4 I-0.129 J8.499 F333.3
X-49.891 Y-6.952 I-4.891 J-6.952 F700
X-40.109 Y6.952 I4.891 J6.952
X-53.043 Y-2.749 Z-3.2 I-4.891 J-6.952 F333.3
X-36.957 Y2.749 I8.043 J2.749 F700
X-53.043 Y-2.749 I-8.043 J-2.749
X-36.877 Y-2.504 Z-4 I8.043 J2.749 F333.3
X-53.123 Y2.504 I-8.123 J2.504 F700
X-36.877 Y-2.504 I8.123 J-2.504
X-50.1 Y6.8 Z-4.8 I-8.123 J2.504 F333.3
X-39.9 Y-6.8 I5.1 J-6.8 F700
X-50.1 Y6.8 I-5.1 J6.8
X-44.871 Y-8.499 Z-5.6 I5.1 J-6.8 F333.3
X-45.129 Y8.499 I-0.129 J8.499 F700
X-44.871 Y-8.499 I0.129 J-8.499
X-40.109 Y6.952 Z-6.4 I-0.129 J8.499 F333.3
X-49.891 Y-6.952 I-4.891 J-6.952 F700
X-40.109 Y6.952 I4.891 J6.952
X-53.043 Y-2.749 Z-7.2 I-4.891 J-6.952 F333.3
X-36.957 Y2.749 I8.043 J2.749 F700
X-53.043 Y-2.749 I-8.043 J-2.749
X-36.877 Y-2.504 Z-8 I8.043 J2.749 F333.3
X-53.123 Y2.504 I-8.123 J2.504 F700
X-36.877 Y-2.504 I8.123 J-2.504
X-50.1 Y6.8 Z-8.8 I-8.123 J2.504 F333.3
X-39.9 Y-6.8 I5.1 J-6.8 F700
X-50.1 Y6.8 I-5.1 J6.8
X-44.871 Y-8.499 Z-9.6 I5.1 J-6.8 F333.3
X-45.129 Y8.499 I-0.129 J8.499 F700
X-44.871 Y-8.499 I0.129 J-8.499
X-40.109 Y6.952 Z-10.4 I-0.129 J8.499 F333.3
X-49.891 Y-6.952 I-4.891 J-6.952 F700
X-40.109 Y6.952 I4.891 J6.952
X-53.043 Y-2.749 Z-11.2 I-4.891 J-6.952 F333.3
X-36.957 Y2.749 I8.043 J2.749 F700
X-53.043 Y-2.749 I-8.043 J-2.749
X-36.877 Y-2.504 Z-12 I8.043 J2.749 F333.3
X-53.123 Y2.504 I-8.123 J2.504 F700
X-36.877 Y-2.504 I8.123 J-2.504
G0 Z5
X-15.267 Y-41.9
Z2
G1 Z1 F700
G3 X-12.545 Y-42.745 Z0.608 I1.361 J-0.422 F333.3
X-15.267 Y-41.9 Z0.217 I-1.361 J0.422
X-12.545 Y-42.745 Z-0.175 I1.361 J-0.422
X-15.267 Y-41.9 Z-0.567 I-1.361 J0.422
X-13.906 Y-43.748 Z-0.8 I1.361 J-0.422
X-12.956 Y-42.798 I0 J0.95 F700
X-13.906 Y-41.847 I-0.95 J0
X-14.856 Y-42.798 I0 J-0.95
X-13.906 Y-43.748 I0.95 J0
G2 X-12.342 Y-44.562 I0 J-1.908
G3 X-10.584 Y-44.427 I0.839 J0.587
X-10.206 Y-42.798 I-3.322 J1.629
X-13.906 Y-39.097 I-3.7 J0
X-17.606 Y-42.798 I0 J-3.7
X-13.906 Y-46.498 I3.7 J0
X-10.584 Y-44.427 I0 J3.7
G2 X-8.82 Y-43.247 I1.899 J-0.931
G3 X-7.523 Y-41.568 I-0.091 J1.411
X-20.406 Y-42.798 I-6.383 J-1.229
X-7.406 Y-42.798 I6.5 J0
X-7.523 Y-41.568 I-6.5 J0
G0 Z3
X-37.453 Y-27.811
Z2
G1 Z1 F700
G3 X-36.609 Y-25.089 Z0.608 I0.422 J1.361 F333.3
X-37.453 Y-27.811 Z0.217 I-0.422 J-1.361
X-36.609 Y-25.089 Z-0.175 I0.422 J1.361
X-37.453 Y-27.811 Z-0.567 I-0.422 J-1.361
X-35.606 Y-26.45 Z-0.8 I0.422 J1.361
X-37.206 Y-26.45 I-0.8 J0 F700
X-32.756 Y-26.45 I2.225 J0
X-40.056 Y-26.45 I-3.65 J0
X-29.906 Y-26.45 I5.075 J0
X-42.906 Y-26.45 I-6.5 J0
X-29.906 Y-26.45 I6.5 J0
G0 Z3
X-46.047 Y-1.361
Z2
G1 Z1 F700
G3 X-45.203 Y1.361 Z0.608 I0.422 J1.361 F333.3
X-46.047 Y-1.361 Z0.217 I-0.422 J-1.361
X-45.203 Y1.361 Z-0.175 I0.422 J1.361
X-46.047 Y-1.361 Z-0.567 I-0.422 J-1.361
X-44.2 Y0 Z-0.8 I0.422 J1.361
X-45.8 Y0 I-0.8 J0 F700
X-41.35 Y0 I2.225 J0
X-48.65 Y0 I-3.65 J0
X-38.5 Y0 I5.075 J0
X-51.5 Y0 I-6.5 J0
X-38.5 Y0 I6.5 J0
G0 Z3
X-14.903 Y41.436
Z2
G1 Z1 F700
G3 X-14.059 Y44.159 Z0.608 I0.422 J1.361 F333.3
X-14.903 Y41.436 Z0.217 I-0.422 J-1.361
X-14.059 Y44.159 Z-0.175 I0.422 J1.361
X-14.903 Y41.436 Z-0.567 I-0.422 J-1.361
X-13.056 Y42.797 Z-0.8 I0.422 J1.361
X-14.756 Y42.797 I-0.85 J0 F700
X-10.206 Y42.797 I2.275 J0
X-17.606 Y42.797 I-3.7 J0
X-10.206 Y42.797 I3.7 J0
G2 X-9.142 Y44.633 I2.116 J0
G3 X-8.716 Y46.711 I-0.703 J1.227
X-20.406 Y42.798 I-5.19 J-3.914
X-7.406 Y42.798 I6.5 J0
X-8.716 Y46.711 I-6.5 J0
G0 Z3
X15.267 Y41.9
Z2
G1 Z1 F700
G3 X12.545 Y42.745 Z0.608 I-1.361 J0.422 F333.3
X15.267 Y41.9 Z0.217 I1.361 J-0.422
X12.545 Y42.745 Z-0.175 I-1.361 J0.422
X15.267 Y41.9 Z-0.567 I1.361 J-0.422
X13.906 Y43.747 Z-0.8 I-1.361 J0.422
X12.956 Y42.798 I0 J-0.95 F700
X13.906 Y41.847 I0.95 J0
X14.856 Y42.798 I0 J0.95
X13.906 Y43.747 I-0.95 J0
G2 X12.342 Y44.562 I0 J1.908
G3 X10.584 Y44.426 I-0.839 J-0.587
X10.206 Y42.798 I3.322 J-1.629
X13.906 Y39.097 I3.7 J0
X17.606 Y42.798 I0 J3.7
X13.906 Y46.497 I-3.7 J0
X10.584 Y44.426 I0 J-3.7
G2 X8.82 Y43.247 I-1.899 J0.931
G3 X7.523 Y41.568 I0.091 J-1.411
X20.406 Y42.798 I6.383 J1.229
X7.406 Y42.798 I-6.5 J0
X7.523 Y41.568 I6.5 J0
G0 Z3
X35.359 Y25.089
Z2
G1 Z1 F700
G3 X36.203 Y27.811 Z0.608 I0.422 J1.361 F333.3
X35.359 Y25.089 Z0.217 I-0.422 J-1.361
X36.203 Y27.811 Z-0.175 I0.422 J1.361
X35.359 Y25.089 Z-0.567 I-0.422 J-1.361
X37.206 Y26.45 Z-0.8 I0.422 J1.361
X35.606 Y26.45 I-0.8 J0 F700
X40.056 Y26.45 I2.225 J0
X32.756 Y26.45 I-3.65 J0
X42.906 Y26.45 I5.075 J0
X29.906 Y26.45 I-6.5 J0
X42.906 Y26.45 I6.5 J0
G0 Z3
X43.953 Y-1.361
Z2
G1 Z1 F700
G3 X44.797 Y1.361 Z0.608 I0.422 J1.361 F333.3
X43.953 Y-1.361 Z0.217 I-0.422 J-1.361
X44.797 Y1.361 Z-0.175 I0.422 J1.361
X43.953 Y-1.361 Z-0.567 I-0.422 J-1.361
X45.8 Y0 Z-0.8 I0.422 J1.361
X44.2 Y0 I-0.8 J0 F700
X48.65 Y0 I2.225 J0
X41.35 Y0 I-3.65 J0
X51.5 Y0 I5.075 J0
X38.5 Y0 I-6.5 J0
X51.5 Y0 I6.5 J0
G0 Z3
X35.359 Y-27.811
Z2
G1 Z1 F700
G3 X36.203 Y-25.089 Z0.608 I0.422 J1.361 F333.3
X35.359 Y-27.811 Z0.217 I-0.422 J-1.361
X36.203 Y-25.089 Z-0.175 I0.422 J1.361
X35.359 Y-27.811 Z-0.567 I-0.422 J-1.361
X37.206 Y-26.45 Z-0.8 I0.422 J1.361
X35.606 Y-26.45 I-0.8 J0 F700
X40.056 Y-26.45 I2.225 J0
X32.756 Y-26.45 I-3.65 J0
X42.906 Y-26.45 I5.075 J0
X29.906 Y-26.45 I-6.5 J0
X42.906 Y-26.45 I6.5 J0
X41.782 Y-25.518 I-0.948 J0
G1 X37.424 Y-26.34
X37.321 Y-26.353
X37.217 Y-26.356
G3 X37.154 Y-28.251 I-0.032 J-0.948
X37.798 Y-26.58 I0.032 J0.948
G1 X36.866 Y-25.79
G3 X35.64 Y-27.237 I-0.613 J-0.724
X37.193 Y-26.64 I0.613 J0.724
X34.369 Y-26.26 Z-1.192 I-1.412 J0.19 F333.3
X35.686 Y-27.872 Z-1.396 I1.412 J-0.19
X37.206 Y-26.45 Z-1.6 I0.095 J1.422
X35.606 Y-26.45 I-0.8 J0 F700
X40.056 Y-26.45 I2.225 J0
X32.756 Y-26.45 I-3.65 J0
X42.906 Y-26.45 I5.075 J0
X29.906 Y-26.45 I-6.5 J0
X42.906 Y-26.45 I6.5 J0
G0 Z3
X43.953 Y-1.361
Z2
G1 Z0.2 F700
G3 X44.797 Y1.361 Z-0.192 I0.422 J1.361 F333.3
X43.953 Y-1.361 Z-0.583 I-0.422 J-1.361
X44.797 Y1.361 Z-0.975 I0.422 J1.361
X43.953 Y-1.361 Z-1.367 I-0.422 J-1.361
X45.8 Y0 Z-1.6 I0.422 J1.361
X44.2 Y0 I-0.8 J0 F700
X48.65 Y0 I2.225 J0
X41.35 Y0 I-3.65 J0
X51.5 Y0 I5.075 J0
X38.5 Y0 I-6.5 J0
X51.5 Y0 I6.5 J0
G0 Z3
X35.359 Y25.089
Z2
G1 Z0.2 F700
G3 X36.203 Y27.811 Z-0.192 I0.422 J1.361 F333.3
X35.359 Y25.089 Z-0.583 I-0.422 J-1.361
X36.203 Y27.811 Z-0.975 I0.422 J1.361
X35.359 Y25.089 Z-1.367 I-0.422 J-1.361
X37.206 Y26.45 Z-1.6 I0.422 J1.361
X35.606 Y26.45 I-0.8 J0 F700
X40.056 Y26.45 I2.225 J0
X32.756 Y26.45 I-3.65 J0
X42.906 Y26.45 I5.075 J0
X29.906 Y26.45 I-6.5 J0
X42.906 Y26.45 I6.5 J0
G0 Z3
X15.267 Y41.9
Z2
G1 Z0.2 F700
G3 X12.545 Y42.745 Z-0.192 I-1.361 J0.422 F333.3
X15.267 Y41.9 Z-0.583 I1.361 J-0.422
X12.545 Y42.745 Z-0.975 I-1.361 J0.422
X15.267 Y41.9 Z-1.367 I1.361 J-0.422
X13.906 Y43.747 Z-1.6 I-1.361 J0.422
X12.956 Y42.798 I0 J-0.95 F700
X13.906 Y41.847 I0.95 J0
X14.856 Y42.798 I0 J0.95
X13.906 Y43.747 I-0.95 J0
G2 X12.342 Y44.562 I0 J1.908
G3 X10.584 Y44.426 I-0.839 J-0.587
X10.206 Y42.798 I3.322 J-1.629
X13.906 Y39.097 I3.7 J0
X17.606 Y42.798 I0 J3.7
X13.906 Y46.497 I-3.7 J0
X10.584 Y44.426 I0 J-3.7
G2 X8.82 Y43.247 I-1.899 J0.931
G3 X7.523 Y41.568 I0.091 J-1.411
X20.406 Y42.798 I6.383 J1.229
X7.406 Y42.798 I-6.5 J0
X7.523 Y41.568 I6.5 J0
G0 Z3
X-14.903 Y41.436
Z2
G1 Z0.2 F700
G3 X-14.059 Y44.159 Z-0.192 I0.422 J1.361 F333.3
X-14.903 Y41.436 Z-0.583 I-0.422 J-1.361
X-14.059 Y44.159 Z-0.975 I0.422 J1.361
X-14.903 Y41.436 Z-1.367 I-0.422 J-1.361
X-13.056 Y42.797 Z-1.6 I0.422 J1.361
X-14.756 Y42.797 I-0.85 J0 F700
X-10.206 Y42.797 I2.275 J0
X-17.606 Y42.797 I-3.7 J0
X-10.206 Y42.797 I3.7 J0
G2 X-9.142 Y44.633 I2.116 J0
G3 X-8.716 Y46.711 I-0.703 J1.227
X-20.406 Y42.798 I-5.19 J-3.914
X-7.406 Y42.798 I6.5 J0
X-8.716 Y46.711 I-6.5 J0
G0 Z3
X-46.047 Y-1.361
Z2
G1 Z0.2 F700
G3 X-45.203 Y1.361 Z-0.192 I0.422 J1.361 F333.3
X-46.047 Y-1.361 Z-0.583 I-0.422 J-1.361
X-45.203 Y1.361 Z-0.975 I0.422 J1.361
X-46.047 Y-1.361 Z-1.367 I-0.422 J-1.361
X-44.2 Y0 Z-1.6 I0.422 J1.361
X-45.8 Y0 I-0.8 J0 F700
X-41.35 Y0 I2.225 J0
X-48.65 Y0 I-3.65 J0
X-38.5 Y0 I5.075 J0
X-51.5 Y0 I-6.5 J0
X-38.5 Y0 I6.5 J0
G0 Z3
X-37.453 Y-27.811
Z2
G1 Z0.2 F700
G3 X-36.609 Y-25.089 Z-0.192 I0.422 J1.361 F333.3
X-37.453 Y-27.811 Z-0.583 I-0.422 J-1.361
X-36.609 Y-25.089 Z-0.975 I0.422 J1.361
X-37.453 Y-27.811 Z-1.367 I-0.422 J-1.361
X-35.606 Y-26.45 Z-1.6 I0.422 J1.361
X-37.206 Y-26.45 I-0.8 J0 F700
X-32.756 Y-26.45 I2.225 J0
X-40.056 Y-26.45 I-3.65 J0
X-29.906 Y-26.45 I5.075 J0
X-42.906 Y-26.45 I-6.5 J0
X-29.906 Y-26.45 I6.5 J0
G0 Z3
X-15.267 Y-41.9
Z2
G1 Z0.2 F700
G3 X-12.545 Y-42.745 Z-0.192 I1.361 J-0.422 F333.3
X-15.267 Y-41.9 Z-0.583 I-1.361 J0.422
X-12.545 Y-42.745 Z-0.975 I1.361 J-0.422
X-15.267 Y-41.9 Z-1.367 I-1.361 J0.422
X-13.906 Y-43.748 Z-1.6 I1.361 J-0.422
X-12.956 Y-42.798 I0 J0.95 F700
X-13.906 Y-41.847 I-0.95 J0
X-14.856 Y-42.798 I0 J-0.95
X-13.906 Y-43.748 I0.95 J0
G2 X-12.342 Y-44.562 I0 J-1.908
G3 X-10.584 Y-44.427 I0.839 J0.587
X-10.206 Y-42.798 I-3.322 J1.629
X-13.906 Y-39.097 I-3.7 J0
X-17.606 Y-42.798 I0 J-3.7
X-13.906 Y-46.498 I3.7 J0
X-10.584 Y-44.427 I0 J3.7
G2 X-8.82 Y-43.247 I1.899 J-0.931
G3 X-7.523 Y-41.568 I-0.091 J1.411
X-20.406 Y-42.798 I-6.383 J-1.229
X-7.406 Y-42.798 I6.5 J0
X-7.523 Y-41.568 I-6.5 J0
X-9.06 Y-40.42 Z-1.747 I-1.399 J-0.269 F333.3
G1 X-14.044 Y-40.904 Z-2.097
G3 X-13.906 Y-43.748 Z-2.4 I0.138 J-1.418
X-12.956 Y-42.798 I0 J0.95 F700
X-13.906 Y-41.847 I-0.95 J0
X-14.856 Y-42.798 I0 J-0.95
X-13.906 Y-43.748 I0.95 J0
G2 X-12.342 Y-44.562 I0 J-1.908
G3 X-10.584 Y-44.427 I0.839 J0.587
X-10.206 Y-42.798 I-3.322 J1.629
X-13.906 Y-39.097 I-3.7 J0
X-17.606 Y-42.798 I0 J-3.7
X-13.906 Y-46.498 I3.7 J0
X-10.584 Y-44.427 I0 J3.7
G2 X-8.82 Y-43.247 I1.899 J-0.931
G3 X-7.523 Y-41.568 I-0.091 J1.411
X-20.406 Y-42.798 I-6.383 J-1.229
X-7.406 Y-42.798 I6.5 J0
X-7.523 Y-41.568 I-6.5 J0
G0 Z3
X-37.453 Y-27.811
Z2
G1 Z-0.6 F700
G3 X-36.609 Y-25.089 Z-0.992 I0.422 J1.361 F333.3
X-37.453 Y-27.811 Z-1.383 I-0.422 J-1.361
X-36.609 Y-25.089 Z-1.775 I0.422 J1.361
X-37.453 Y-27.811 Z-2.167 I-0.422 J-1.361
X-35.606 Y-26.45 Z-2.4 I0.422 J1.361
X-37.206 Y-26.45 I-0.8 J0 F700
X-32.756 Y-26.45 I2.225 J0
X-40.056 Y-26.45 I-3.65 J0
X-29.906 Y-26.45 I5.075 J0
X-42.906 Y-26.45 I-6.5 J0
X-29.906 Y-26.45 I6.5 J0
G0 Z3
X-46.047 Y-1.361
Z2
G1 Z-0.6 F700
G3 X-45.203 Y1.361 Z-0.992 I0.422 J1.361 F333.3
X-46.047 Y-1.361 Z-1.383 I-0.422 J-1.361
X-45.203 Y1.361 Z-1.775 I0.422 J1.361
X-46.047 Y-1.361 Z-2.167 I-0.422 J-1.361
X-44.2 Y0 Z-2.4 I0.422 J1.361
X-45.8 Y0 I-0.8 J0 F700
X-41.35 Y0 I2.225 J0
X-48.65 Y0 I-3.65 J0
X-38.5 Y0 I5.075 J0
X-51.5 Y0 I-6.5 J0
X-38.5 Y0 I6.5 J0
G0 Z3
X-14.903 Y41.436
Z2
G1 Z-0.6 F700
G3 X-14.059 Y44.159 Z-0.992 I0.422 J1.361 F333.3
X-14.903 Y41.436 Z-1.383 I-0.422 J-1.361
X-14.059 Y44.159 Z-1.775 I0.422 J1.361
X-14.903 Y41.436 Z-2.167 I-0.422 J-1.361
X-13.056 Y42.797 Z-2.4 I0.422 J1.361
X-14.756 Y42.797 I-0.85 J0 F700
X-10.206 Y42.797 I2.275 J0
X-17.606 Y42.797 I-3.7 J0
X-10.206 Y42.797 I3.7 J0
G2 X-9.142 Y44.633 I2.116 J0
G3 X-8.716 Y46.711 I-0.703 J1.227
X-20.406 Y42.798 I-5.19 J-3.914
X-7.406 Y42.798 I6.5 J0
X-8.716 Y46.711 I-6.5 J0
G0 Z3
X15.267 Y41.9
Z2
G1 Z-0.6 F700
G3 X12.545 Y42.745 Z-0.992 I-1.361 J0.422 F333.3
X15.267 Y41.9 Z-1.383 I1.361 J-0.422
X12.545 Y42.745 Z-1.775 I-1.361 J0.422
X15.267 Y41.9 Z-2.167 I1.361 J-0.422
X13.906 Y43.747 Z-2.4 I-1.361 J0.422
X12.956 Y42.798 I0 J-0.95 F700
X13.906 Y41.847 I0.95 J0
X14.856 Y42.798 I0 J0.95
X13.906 Y43.747 I-0.95 J0
G2 X12.342 Y44.562 I0 J1.908
G3 X10.584 Y44.426 I-0.839 J-0.587
X10.206 Y42.798 I3.322 J-1.629
X13.906 Y39.097 I3.7 J0
X17.606 Y42.798 I0 J3.7
X13.906 Y46.497 I-3.7 J0
X10.584 Y44.426 I0 J-3.7
G2 X8.82 Y43.247 I-1.899 J0.931
G3 X7.523 Y41.568 I0.091 J-1.411
X20.406 Y42.798 I6.383 J1.229
X7.406 Y42.798 I-6.5 J0
X7.523 Y41.568 I6.5 J0
G0 Z3
X35.359 Y25.089
Z2
G1 Z-0.6 F700
G3 X36.203 Y27.811 Z-0.992 I0.422 J1.361 F333.3
X35.359 Y25.089 Z-1.383 I-0.422 J-1.361
X36.203 Y27.811 Z-1.775 I0.422 J1.361
X35.359 Y25.089 Z-2.167 I-0.422 J-1.361
X37.206 Y26.45 Z-2.4 I0.422 J1.361
X35.606 Y26.45 I-0.8 J0 F700
X40.056 Y26.45 I2.225 J0
X32.756 Y26.45 I-3.65 J0
X42.906 Y26.45 I5.075 J0
X29.906 Y26.45 I-6.5 J0
X42.906 Y26.45 I6.5 J0
G0 Z3
X43.953 Y-1.361
Z2
G1 Z-0.6 F700
G3 X44.797 Y1.361 Z-0.992 I0.422 J1.361 F333.3
X43.953 Y-1.361 Z-1.383 I-0.422 J-1.361
X44.797 Y1.361 Z-1.775 I0.422 J1.361
X43.953 Y-1.361 Z-2.167 I-0.422 J-1.361
X45.8 Y0 Z-2.4 I0.422 J1.361
X44.2 Y0 I-0.8 J0 F700
X48.65 Y0 I2.225 J0
X41.35 Y0 I-3.65 J0
X51.5 Y0 I5.075 J0
X38.5 Y0 I-6.5 J0
X51.5 Y0 I6.5 J0
G0 Z3
X35.359 Y-27.811
Z2
G1 Z-0.6 F700
G3 X36.203 Y-25.089 Z-0.992 I0.422 J1.361 F333.3
X35.359 Y-27.811 Z-1.383 I-0.422 J-1.361
X36.203 Y-25.089 Z-1.775 I0.422 J1.361
X35.359 Y-27.811 Z-2.167 I-0.422 J-1.361
X37.206 Y-26.45 Z-2.4 I0.422 J1.361
X35.606 Y-26.45 I-0.8 J0 F700
X40.056 Y-26.45 I2.225 J0
X32.756 Y-26.45 I-3.65 J0
X42.906 Y-26.45 I5.075 J0
X29.906 Y-26.45 I-6.5 J0
X42.906 Y-26.45 I6.5 J0
X41.782 Y-25.518 I-0.948 J0
G1 X37.424 Y-26.34
X37.321 Y-26.353
X37.217 Y-26.356
G3 X37.154 Y-28.251 I-0.032 J-0.948
X37.798 Y-26.58 I0.032 J0.948
G1 X36.866 Y-25.79
G3 X35.64 Y-27.237 I-0.613 J-0.724
X37.193 Y-26.64 I0.613 J0.724
X34.369 Y-26.26 Z-2.792 I-1.412 J0.19 F333.3
X35.686 Y-27.872 Z-2.996 I1.412 J-0.19
X37.206 Y-26.45 Z-3.2 I0.095 J1.422
X35.606 Y-26.45 I-0.8 J0 F700
X40.056 Y-26.45 I2.225 J0
X32.756 Y-26.45 I-3.65 J0
X42.906 Y-26.45 I5.075 J0
X29.906 Y-26.45 I-6.5 J0
X42.906 Y-26.45 I6.5 J0
G0 Z3
X43.953 Y-1.361
Z2
G1 Z-1.4 F700
G3 X44.797 Y1.361 Z-1.792 I0.422 J1.361 F333.3
X43.953 Y-1.361 Z-2.183 I-0.422 J-1.361
X44.797 Y1.361 Z-2.575 I0.422 J1.361
X43.953 Y-1.361 Z-2.967 I-0.422 J-1.361
X45.8 Y0 Z-3.2 I0.422 J1.361
X44.2 Y0 I-0.8 J0 F700
X48.65 Y0 I2.225 J0
X41.35 Y0 I-3.65 J0
X51.5 Y0 I5.075 J0
X38.5 Y0 I-6.5 J0
X51.5 Y0 I6.5 J0
G0 Z3
X35.359 Y25.089
Z2
G1 Z-1.4 F700
G3 X36.203 Y27.811 Z-1.792 I0.422 J1.361 F333.3
X35.359 Y25.089 Z-2.183 I-0.422 J-1.361
X36.203 Y27.811 Z-2.575 I0.422 J1.361
X35.359 Y25.089 Z-2.967 I-0.422 J-1.361
X37.206 Y26.45 Z-3.2 I0.422 J1.361
X35.606 Y26.45 I-0.8 J0 F700
X40.056 Y26.45 I2.225 J0
X32.756 Y26.45 I-3.65 J0
X42.906 Y26.45 I5.075 J0
X29.906 Y26.45 I-6.5 J0
X42.906 Y26.45 I6.5 J0
G0 Z3
X15.267 Y41.9
Z2
G1 Z-1.4 F700
G3 X12.545 Y42.745 Z-1.792 I-1.361 J0.422 F333.3
X15.267 Y41.9 Z-2.183 I1.361 J-0.422
X12.545 Y42.745 Z-2.575 I-1.361 J0.422
X15.267 Y41.9 Z-2.967 I1.361 J-0.422
X13.906 Y43.747 Z-3.2 I-1.361 J0.422
X12.956 Y42.798 I0 J-0.95 F700
X13.906 Y41.847 I0.95 J0
X14.856 Y42.798 I0 J0.95
X13.906 Y43.747 I-0.95 J0
G2 X12.342 Y44.562 I0 J1.908
G3 X10.584 Y44.426 I-0.839 J-0.587
X10.206 Y42.798 I3.322 J-1.629
X13.906 Y39.097 I3.7 J0
X17.606 Y42.798 I0 J3.7
X13.906 Y46.497 I-3.7 J0
X10.584 Y44.426 I0 J-3.7
G2 X8.82 Y43.247 I-1.899 J0.931
G3 X7.523 Y41.568 I0.091 J-1.411
X20.406 Y42.798 I6.383 J1.229
X7.406 Y42.798 I-6.5 J0
X7.523 Y41.568 I6.5 J0
G0 Z3
X-14.903 Y41.436
Z2
G1 Z-1.4 F700
G3 X-14.059 Y44.159 Z-1.792 I0.422 J1.361 F333.3
X-14.903 Y41.436 Z-2.183 I-0.422 J-1.361
X-14.059 Y44.159 Z-2.575 I0.422 J1.361
X-14.903 Y41.436 Z-2.967 I-0.422 J-1.361
X-13.056 Y42.797 Z-3.2 I0.422 J1.361
X-14.756 Y42.797 I-0.85 J0 F700
X-10.206 Y42.797 I2.275 J0
X-17.606 Y42.797 I-3.7 J0
X-10.206 Y42.797 I3.7 J0
G2 X-9.142 Y44.633 I2.116 J0
G3 X-8.716 Y46.711 I-0.703 J1.227
X-20.406 Y42.798 I-5.19 J-3.914
X-7.406 Y42.798 I6.5 J0
X-8.716 Y46.711 I-6.5 J0
G0 Z3
X-46.047 Y-1.361
Z2
G1 Z-1.4 F700
G3 X-45.203 Y1.361 Z-1.792 I0.422 J1.361 F333.3
X-46.047 Y-1.361 Z-2.183 I-0.422 J-1.361
X-45.203 Y1.361 Z-2.575 I0.422 J1.361
X-46.047 Y-1.361 Z-2.967 I-0.422 J-1.361
X-44.2 Y0 Z-3.2 I0.422 J1.361
X-45.8 Y0 I-0.8 J0 F700
X-41.35 Y0 I2.225 J0
X-48.65 Y0 I-3.65 J0
X-38.5 Y0 I5.075 J0
X-51.5 Y0 I-6.5 J0
X-38.5 Y0 I6.5 J0
G0 Z3
X-37.453 Y-27.811
Z2
G1 Z-1.4 F700
G3 X-36.609 Y-25.089 Z-1.792 I0.422 J1.361 F333.3
X-37.453 Y-27.811 Z-2.183 I-0.422 J-1.361
X-36.609 Y-25.089 Z-2.575 I0.422 J1.361
X-37.453 Y-27.811 Z-2.967 I-0.422 J-1.361
X-35.606 Y-26.45 Z-3.2 I0.422 J1.361
X-37.206 Y-26.45 I-0.8 J0 F700
X-32.756 Y-26.45 I2.225 J0
X-40.056 Y-26.45 I-3.65 J0
X-29.906 Y-26.45 I5.075 J0
X-42.906 Y-26.45 I-6.5 J0
X-29.906 Y-26.45 I6.5 J0
G0 Z3
X-15.267 Y-41.9
Z2
G1 Z-1.4 F700
G3 X-12.545 Y-42.745 Z-1.792 I1.361 J-0.422 F333.3
X-15.267 Y-41.9 Z-2.183 I-1.361 J0.422
X-12.545 Y-42.745 Z-2.575 I1.361 J-0.422
X-15.267 Y-41.9 Z-2.967 I-1.361 J0.422
X-13.906 Y-43.748 Z-3.2 I1.361 J-0.422
X-12.956 Y-42.798 I0 J0.95 F700
X-13.906 Y-41.847 I-0.95 J0
X-14.856 Y-42.798 I0 J-0.95
X-13.906 Y-43.748 I0.95 J0
G2 X-12.342 Y-44.562 I0 J-1.908
G3 X-10.584 Y-44.427 I0.839 J0.587
X-10.206 Y-42.798 I-3.322 J1.629
X-13.906 Y-39.097 I-3.7 J0
X-17.606 Y-42.798 I0 J-3.7
X-13.906 Y-46.498 I3.7 J0
X-10.584 Y-44.427 I0 J3.7
G2 X-8.82 Y-43.247 I1.899 J-0.931
G3 X-7.523 Y-41.568 I-0.091 J1.411
X-20.406 Y-42.798 I-6.383 J-1.229
X-7.406 Y-42.798 I6.5 J0
X-7.523 Y-41.568 I-6.5 J0
X-9.06 Y-40.42 Z-3.347 I-1.399 J-0.269 F333.3
G1 X-14.044 Y-40.904 Z-3.697
G3 X-13.906 Y-43.748 Z-4 I0.138 J-1.418
X-12.956 Y-42.798 I0 J0.95 F700
X-13.906 Y-41.847 I-0.95 J0
X-14.856 Y-42.798 I0 J-0.95
X-13.906 Y-43.748 I0.95 J0
G2 X-12.342 Y-44.562 I0 J-1.908
G3 X-10.584 Y-44.427 I0.839 J0.587
X-10.206 Y-42.798 I-3.322 J1.629
X-13.906 Y-39.097 I-3.7 J0
X-17.606 Y-42.798 I0 J-3.7
X-13.906 Y-46.498 I3.7 J0
X-10.584 Y-44.427 I0 J3.7
G2 X-8.82 Y-43.247 I1.899 J-0.931
G3 X-7.523 Y-41.568 I-0.091 J1.411
X-20.406 Y-42.798 I-6.383 J-1.229
X-7.406 Y-42.798 I6.5 J0
X-7.523 Y-41.568 I-6.5 J0
G0 Z3
X-37.453 Y-27.811
Z2
G1 Z-2.2 F700
G3 X-36.609 Y-25.089 Z-2.592 I0.422 J1.361 F333.3
X-37.453 Y-27.811 Z-2.983 I-0.422 J-1.361
X-36.609 Y-25.089 Z-3.375 I0.422 J1.361
X-37.453 Y-27.811 Z-3.767 I-0.422 J-1.361
X-35.606 Y-26.45 Z-4 I0.422 J1.361
X-37.206 Y-26.45 I-0.8 J0 F700
X-32.756 Y-26.45 I2.225 J0
X-40.056 Y-26.45 I-3.65 J0
X-29.906 Y-26.45 I5.075 J0
X-42.906 Y-26.45 I-6.5 J0
X-29.906 Y-26.45 I6.5 J0
G0 Z3
X-46.047 Y-1.361
Z2
G1 Z-2.2 F700
G3 X-45.203 Y1.361 Z-2.592 I0.422 J1.361 F333.3
X-46.047 Y-1.361 Z-2.983 I-0.422 J-1.361
X-45.203 Y1.361 Z-3.375 I0.422 J1.361
X-46.047 Y-1.361 Z-3.767 I-0.422 J-1.361
X-44.2 Y0 Z-4 I0.422 J1.361
X-45.8 Y0 I-0.8 J0 F700
X-41.35 Y0 I2.225 J0
X-48.65 Y0 I-3.65 J0
X-38.5 Y0 I5.075 J0
X-51.5 Y0 I-6.5 J0
X-38.5 Y0 I6.5 J0
G0 Z3
X-14.903 Y41.436
Z2
G1 Z-2.2 F700
G3 X-14.059 Y44.159 Z-2.592 I0.422 J1.361 F333.3
X-14.903 Y41.436 Z-2.983 I-0.422 J-1.361
X-14.059 Y44.159 Z-3.375 I0.422 J1.361
X-14.903 Y41.436 Z-3.767 I-0.422 J-1.361
X-13.056 Y42.797 Z-4 I0.422 J1.361
X-14.756 Y42.797 I-0.85 J0 F700
X-10.206 Y42.797 I2.275 J0
X-17.606 Y42.797 I-3.7 J0
X-10.206 Y42.797 I3.7 J0
G2 X-9.142 Y44.633 I2.116 J0
G3 X-8.716 Y46.711 I-0.703 J1.227
X-20.406 Y42.798 I-5.19 J-3.914
X-7.406 Y42.798 I6.5 J0
X-8.716 Y46.711 I-6.5 J0
G0 Z3
X15.267 Y41.9
Z2
G1 Z-2.2 F700
G3 X12.545 Y42.745 Z-2.592 I-1.361 J0.422 F333.3
X15.267 Y41.9 Z-2.983 I1.361 J-0.422
X12.545 Y42.745 Z-3.375 I-1.361 J0.422
X15.267 Y41.9 Z-3.767 I1.361 J-0.422
X13.906 Y43.747 Z-4 I-1.361 J0.422
X12.956 Y42.798 I0 J-0.95 F700
X13.906 Y41.847 I0.95 J0
X14.856 Y42.798 I0 J0.95
X13.906 Y43.747 I-0.95 J0
G2 X12.342 Y44.562 I0 J1.908
G3 X10.584 Y44.426 I-0.839 J-0.587
X10.206 Y42.798 I3.322 J-1.629
X13.906 Y39.097 I3.7 J0
X17.606 Y42.798 I0 J3.7
X13.906 Y46.497 I-3.7 J0
X10.584 Y44.426 I0 J-3.7
G2 X8.82 Y43.247 I-1.899 J0.931
G3 X7.523 Y41.568 I0.091 J-1.411
X20.406 Y42.798 I6.383 J1.229
X7.406 Y42.798 I-6.5 J0
X7.523 Y41.568 I6.5 J0
G0 Z3
X35.359 Y25.089
Z2
G1 Z-2.2 F700
G3 X36.203 Y27.811 Z-2.592 I0.422 J1.361 F333.3
X35.359 Y25.089 Z-2.983 I-0.422 J-1.361
X36.203 Y27.811 Z-3.375 I0.422 J1.361
X35.359 Y25.089 Z-3.767 I-0.422 J-1.361
X37.206 Y26.45 Z-4 I0.422 J1.361
X35.606 Y26.45 I-0.8 J0 F700
X40.056 Y26.45 I2.225 J0
X32.756 Y26.45 I-3.65 J0
X42.906 Y26.45 I5.075 J0
X29.906 Y26.45 I-6.5 J0
X42.906 Y26.45 I6.5 J0
G0 Z3
X43.953 Y-1.361
Z2
G1 Z-2.2 F700
G3 X44.797 Y1.361 Z-2.592 I0.422 J1.361 F333.3
X43.953 Y-1.361 Z-2.983 I-0.422 J-1.361
X44.797 Y1.361 Z-3.375 I0.422 J1.361
X43.953 Y-1.361 Z-3.767 I-0.422 J-1.361
X45.8 Y0 Z-4 I0.422 J1.361
X44.2 Y0 I-0.8 J0 F700
X48.65 Y0 I2.225 J0
X41.35 Y0 I-3.65 J0
X51.5 Y0 I5.075 J0
X38.5 Y0 I-6.5 J0
X51.5 Y0 I6.5 J0
G0 Z3
X35.359 Y-27.811
Z2
G1 Z-2.2 F700
G3 X36.203 Y-25.089 Z-2.592 I0.422 J1.361 F333.3
X35.359 Y-27.811 Z-2.983 I-0.422 J-1.361
X36.203 Y-25.089 Z-3.375 I0.422 J1.361
X35.359 Y-27.811 Z-3.767 I-0.422 J-1.361
X37.206 Y-26.45 Z-4 I0.422 J1.361
X35.606 Y-26.45 I-0.8 J0 F700
X40.056 Y-26.45 I2.225 J0
X32.756 Y-26.45 I-3.65 J0
X42.906 Y-26.45 I5.075 J0
X29.906 Y-26.45 I-6.5 J0
X42.906 Y-26.45 I6.5 J0
X41.782 Y-25.518 I-0.948 J0
G1 X37.424 Y-26.34
X37.321 Y-26.353
X37.217 Y-26.356
G3 X37.154 Y-28.251 I-0.032 J-0.948
X37.798 Y-26.58 I0.032 J0.948
G1 X36.866 Y-25.79
G3 X35.64 Y-27.237 I-0.613 J-0.724
X37.193 Y-26.64 I0.613 J0.724
X34.369 Y-26.26 Z-4.392 I-1.412 J0.19 F333.3
X35.686 Y-27.872 Z-4.596 I1.412 J-0.19
X37.206 Y-26.45 Z-4.8 I0.095 J1.422
X35.606 Y-26.45 I-0.8 J0 F700
X40.056 Y-26.45 I2.225 J0
X32.756 Y-26.45 I-3.65 J0
X42.906 Y-26.45 I5.075 J0
X29.906 Y-26.45 I-6.5 J0
X42.906 Y-26.45 I6.5 J0
G0 Z3
X43.953 Y-1.361
Z2
G1 Z-3 F700
G3 X44.797 Y1.361 Z-3.392 I0.422 J1.361 F333.3
X43.953 Y-1.361 Z-3.783 I-0.422 J-1.361
X44.797 Y1.361 Z-4.175 I0.422 J1.361
X43.953 Y-1.361 Z-4.567 I-0.422 J-1.361
X45.8 Y0 Z-4.8 I0.422 J1.361
X44.2 Y0 I-0.8 J0 F700
X48.65 Y0 I2.225 J0
X41.35 Y0 I-3.65 J0
X51.5 Y0 I5.075 J0
X38.5 Y0 I-6.5 J0
X51.5 Y0 I6.5 J0
G0 Z3
X35.359 Y25.089
Z2
G1 Z-3 F700
G3 X36.203 Y27.811 Z-3.392 I0.422 J1.361 F333.3
X35.359 Y25.089 Z-3.783 I-0.422 J-1.361
X36.203 Y27.811 Z-4.175 I0.422 J1.361
X35.359 Y25.089 Z-4.567 I-0.422 J-1.361
X37.206 Y26.45 Z-4.8 I0.422 J1.361
X35.606 Y26.45 I-0.8 J0 F700
X40.056 Y26.45 I2.225 J0
X32.756 Y26.45 I-3.65 J0
X42.906 Y26.45 I5.075 J0
X29.906 Y26.45 I-6.5 J0
X42.906 Y26.45 I6.5 J0
G0 Z3
X15.267 Y41.9
Z2
G1 Z-3 F700
G3 X12.545 Y42.745 Z-3.392 I-1.361 J0.422 F333.3
X15.267 Y41.9 Z-3.783 I1.361 J-0.422
X12.545 Y42.745 Z-4.175 I-1.361 J0.422
X15.267 Y41.9 Z-4.567 I1.361 J-0.422
X13.906 Y43.747 Z-4.8 I-1.361 J0.422
X12.956 Y42.798 I0 J-0.95 F700
X13.906 Y41.847 I0.95 J0
X14.856 Y42.798 I0 J0.95
X13.906 Y43.747 I-0.95 J0
G2 X12.342 Y44.562 I0 J1.908
G3 X10.584 Y44.426 I-0.839 J-0.587
X10.206 Y42.798 I3.322 J-1.629
X13.906 Y39.097 I3.7 J0
X17.606 Y42.798 I0 J3.7
X13.906 Y46.497 I-3.7 J0
X10.584 Y44.426 I0 J-3.7
G2 X8.82 Y43.247 I-1.899 J0.931
G3 X7.523 Y41.568 I0.091 J-1.411
X20.406 Y42.798 I6.383 J1.229
X7.406 Y42.798 I-6.5 J0
X7.523 Y41.568 I6.5 J0
G0 Z3
X-14.903 Y41.436
Z2
G1 Z-3 F700
G3 X-14.059 Y44.159 Z-3.392 I0.422 J1.361 F333.3
X-14.903 Y41.436 Z-3.783 I-0.422 J-1.361
X-14.059 Y44.159 Z-4.175 I0.422 J1.361
X-14.903 Y41.436 Z-4.567 I-0.422 J-1.361
X-13.056 Y42.797 Z-4.8 I0.422 J1.361
X-14.756 Y42.797 I-0.85 J0 F700
X-10.206 Y42.797 I2.275 J0
X-17.606 Y42.797 I-3.7 J0
X-10.206 Y42.797 I3.7 J0
G2 X-9.142 Y44.633 I2.116 J0
G3 X-8.716 Y46.711 I-0.703 J1.227
X-20.406 Y42.798 I-5.19 J-3.914
X-7.406 Y42.798 I6.5 J0
X-8.716 Y46.711 I-6.5 J0
G0 Z3
X-46.047 Y-1.361
Z2
G1 Z-3 F700
G3 X-45.203 Y1.361 Z-3.392 I0.422 J1.361 F333.3
X-46.047 Y-1.361 Z-3.783 I-0.422 J-1.361
X-45.203 Y1.361 Z-4.175 I0.422 J1.361
X-46.047 Y-1.361 Z-4.567 I-0.422 J-1.361
X-44.2 Y0 Z-4.8 I0.422 J1.361
X-45.8 Y0 I-0.8 J0 F700
X-41.35 Y0 I2.225 J0
X-48.65 Y0 I-3.65 J0
X-38.5 Y0 I5.075 J0
X-51.5 Y0 I-6.5 J0
X-38.5 Y0 I6.5 J0
G0 Z3
X-37.453 Y-27.811
Z2
G1 Z-3 F700
G3 X-36.609 Y-25.089 Z-3.392 I0.422 J1.361 F333.3
X-37.453 Y-27.811 Z-3.783 I-0.422 J-1.361
X-36.609 Y-25.089 Z-4.175 I0.422 J1.361
X-37.453 Y-27.811 Z-4.567 I-0.422 J-1.361
X-35.606 Y-26.45 Z-4.8 I0.422 J1.361
X-37.206 Y-26.45 I-0.8 J0 F700
X-32.756 Y-26.45 I2.225 J0
X-40.056 Y-26.45 I-3.65 J0
X-29.906 Y-26.45 I5.075 J0
X-42.906 Y-26.45 I-6.5 J0
X-29.906 Y-26.45 I6.5 J0
G0 Z3
X-15.267 Y-41.9
Z2
G1 Z-3 F700
G3 X-12.545 Y-42.745 Z-3.392 I1.361 J-0.422 F333.3
X-15.267 Y-41.9 Z-3.783 I-1.361 J0.422
X-12.545 Y-42.745 Z-4.175 I1.361 J-0.422
X-15.267 Y-41.9 Z-4.567 I-1.361 J0.422
X-13.906 Y-43.748 Z-4.8 I1.361 J-0.422
X-12.956 Y-42.798 I0 J0.95 F700
X-13.906 Y-41.847 I-0.95 J0
X-14.856 Y-42.798 I0 J-0.95
X-13.906 Y-43.748 I0.95 J0
G2 X-12.342 Y-44.562 I0 J-1.908
G3 X-10.584 Y-44.427 I0.839 J0.587
X-10.206 Y-42.798 I-3.322 J1.629
X-13.906 Y-39.097 I-3.7 J0
X-17.606 Y-42.798 I0 J-3.7
X-13.906 Y-46.498 I3.7 J0
X-10.584 Y-44.427 I0 J3.7
G2 X-8.82 Y-43.247 I1.899 J-0.931
G3 X-7.523 Y-41.568 I-0.091 J1.411
X-20.406 Y-42.798 I-6.383 J-1.229
X-7.406 Y-42.798 I6.5 J0
X-7.523 Y-41.568 I-6.5 J0
X-9.06 Y-40.42 Z-4.947 I-1.399 J-0.269 F333.3
G1 X-14.044 Y-40.904 Z-5.297
G3 X-13.906 Y-43.748 Z-5.6 I0.138 J-1.418
X-12.956 Y-42.798 I0 J0.95 F700
X-13.906 Y-41.847 I-0.95 J0
X-14.856 Y-42.798 I0 J-0.95
X-13.906 Y-43.748 I0.95 J0
G2 X-12.342 Y-44.562 I0 J-1.908
G3 X-10.584 Y-44.427 I0.839 J0.587
X-10.206 Y-42.798 I-3.322 J1.629
X-13.906 Y-39.097 I-3.7 J0
X-17.606 Y-42.798 I0 J-3.7
X-13.906 Y-46.498 I3.7 J0
X-10.584 Y-44.427 I0 J3.7
G2 X-8.82 Y-43.247 I1.899 J-0.931
G3 X-7.523 Y-41.568 I-0.091 J1.411
X-20.406 Y-42.798 I-6.383 J-1.229
X-7.406 Y-42.798 I6.5 J0
X-7.523 Y-41.568 I-6.5 J0
G0 Z3
X-37.453 Y-27.811
Z2
G1 Z-3.8 F700
G3 X-36.609 Y-25.089 Z-4.192 I0.422 J1.361 F333.3
X-37.453 Y-27.811 Z-4.583 I-0.422 J-1.361
X-36.609 Y-25.089 Z-4.975 I0.422 J1.361
X-37.453 Y-27.811 Z-5.367 I-0.422 J-1.361
X-35.606 Y-26.45 Z-5.6 I0.422 J1.361
X-37.206 Y-26.45 I-0.8 J0 F700
X-32.756 Y-26.45 I2.225 J0
X-40.056 Y-26.45 I-3.65 J0
X-29.906 Y-26.45 I5.075 J0
X-42.906 Y-26.45 I-6.5 J0
X-29.906 Y-26.45 I6.5 J0
G0 Z3
X-46.047 Y-1.361
Z2
G1 Z-3.8 F700
G3 X-45.203 Y1.361 Z-4.192 I0.422 J1.361 F333.3
X-46.047 Y-1.361 Z-4.583 I-0.422 J-1.361
X-45.203 Y1.361 Z-4.975 I0.422 J1.361
X-46.047 Y-1.361 Z-5.367 I-0.422 J-1.361
X-44.2 Y0 Z-5.6 I0.422 J1.361
X-45.8 Y0 I-0.8 J0 F700
X-41.35 Y0 I2.225 J0
X-48.65 Y0 I-3.65 J0
X-38.5 Y0 I5.075 J0
X-51.5 Y0 I-6.5 J0
X-38.5 Y0 I6.5 J0
G0 Z3
X-14.903 Y41.436
Z2
G1 Z-3.8 F700
G3 X-14.059 Y44.159 Z-4.192 I0.422 J1.361 F333.3
X-14.903 Y41.436 Z-4.583 I-0.422 J-1.361
X-14.059 Y44.159 Z-4.975 I0.422 J1.361
X-14.903 Y41.436 Z-5.367 I-0.422 J-1.361
X-13.056 Y42.797 Z-5.6 I0.422 J1.361
X-14.756 Y42.797 I-0.85 J0 F700
X-10.206 Y42.797 I2.275 J0
X-17.606 Y42.797 I-3.7 J0
X-10.206 Y42.797 I3.7 J0
G2 X-9.142 Y44.633 I2.116 J0
G3 X-8.716 Y46.711 I-0.703 J1.227
X-20.406 Y42.798 I-5.19 J-3.914
X-7.406 Y42.798 I6.5 J0
X-8.716 Y46.711 I-6.5 J0
G0 Z3
X15.267 Y41.9
Z2
G1 Z-3.8 F700
G3 X12.545 Y42.745 Z-4.192 I-1.361 J0.422 F333.3
X15.267 Y41.9 Z-4.583 I1.361 J-0.422
X12.545 Y42.745 Z-4.975 I-1.361 J0.422
X15.267 Y41.9 Z-5.367 I1.361 J-0.422
X13.906 Y43.747 Z-5.6 I-1.361 J0.422
X12.956 Y42.798 I0 J-0.95 F700
X13.906 Y41.847 I0.95 J0
X14.856 Y42.798 I0 J0.95
X13.906 Y43.747 I-0.95 J0
G2 X12.342 Y44.562 I0 J1.908
G3 X10.584 Y44.426 I-0.839 J-0.587
X10.206 Y42.798 I3.322 J-1.629
X13.906 Y39.097 I3.7 J0
X17.606 Y42.798 I0 J3.7
X13.906 Y46.497 I-3.7 J0
X10.584 Y44.426 I0 J-3.7
G2 X8.82 Y43.247 I-1.899 J0.931
G3 X7.523 Y41.568 I0.091 J-1.411
X20.406 Y42.798 I6.383 J1.229
X7.406 Y42.798 I-6.5 J0
X7.523 Y41.568 I6.5 J0
G0 Z3
X35.359 Y25.089
Z2
G1 Z-3.8 F700
G3 X36.203 Y27.811 Z-4.192 I0.422 J1.361 F333.3
X35.359 Y25.089 Z-4.583 I-0.422 J-1.361
X36.203 Y27.811 Z-4.975 I0.422 J1.361
X35.359 Y25.089 Z-5.367 I-0.422 J-1.361
X37.206 Y26.45 Z-5.6 I0.422 J1.361
X35.606 Y26.45 I-0.8 J0 F700
X40.056 Y26.45 I2.225 J0
X32.756 Y26.45 I-3.65 J0
X42.906 Y26.45 I5.075 J0
X29.906 Y26.45 I-6.5 J0
X42.906 Y26.45 I6.5 J0
G0 Z3
X43.953 Y-1.361
Z2
G1 Z-3.8 F700
G3 X44.797 Y1.361 Z-4.192 I0.422 J1.361 F333.3
X43.953 Y-1.361 Z-4.583 I-0.422 J-1.361
X44.797 Y1.361 Z-4.975 I0.422 J1.361
X43.953 Y-1.361 Z-5.367 I-0.422 J-1.361
X45.8 Y0 Z-5.6 I0.422 J1.361
X44.2 Y0 I-0.8 J0 F700
X48.65 Y0 I2.225 J0
X41.35 Y0 I-3.65 J0
X51.5 Y0 I5.075 J0
X38.5 Y0 I-6.5 J0
X51.5 Y0 I6.5 J0
G0 Z3
X35.359 Y-27.811
Z2
G1 Z-3.8 F700
G3 X36.203 Y-25.089 Z-4.192 I0.422 J1.361 F333.3
X35.359 Y-27.811 Z-4.583 I-0.422 J-1.361
X36.203 Y-25.089 Z-4.975 I0.422 J1.361
X35.359 Y-27.811 Z-5.367 I-0.422 J-1.361
X37.206 Y-26.45 Z-5.6 I0.422 J1.361
X35.606 Y-26.45 I-0.8 J0 F700
X40.056 Y-26.45 I2.225 J0
X32.756 Y-26.45 I-3.65 J0
X42.906 Y-26.45 I5.075 J0
X29.906 Y-26.45 I-6.5 J0
X42.906 Y-26.45 I6.5 J0
X41.782 Y-25.518 I-0.948 J0
G1 X37.424 Y-26.34
X37.321 Y-26.353
X37.217 Y-26.356
G3 X37.154 Y-28.251 I-0.032 J-0.948
X37.798 Y-26.58 I0.032 J0.948
G1 X36.866 Y-25.79
G3 X35.64 Y-27.237 I-0.613 J-0.724
X37.193 Y-26.64 I0.613 J0.724
X34.369 Y-26.26 Z-5.992 I-1.412 J0.19 F333.3
X35.686 Y-27.872 Z-6.196 I1.412 J-0.19
X37.206 Y-26.45 Z-6.4 I0.095 J1.422
X35.606 Y-26.45 I-0.8 J0 F700
X40.056 Y-26.45 I2.225 J0
X32.756 Y-26.45 I-3.65 J0
X42.906 Y-26.45 I5.075 J0
X29.906 Y-26.45 I-6.5 J0
X42.906 Y-26.45 I6.5 J0
G0 Z3
X43.953 Y-1.361
Z2
G1 Z-4.6 F700
G3 X44.797 Y1.361 Z-4.992 I0.422 J1.361 F333.3
X43.953 Y-1.361 Z-5.383 I-0.422 J-1.361
X44.797 Y1.361 Z-5.775 I0.422 J1.361
X43.953 Y-1.361 Z-6.167 I-0.422 J-1.361
X45.8 Y0 Z-6.4 I0.422 J1.361
X44.2 Y0 I-0.8 J0 F700
X48.65 Y0 I2.225 J0
X41.35 Y0 I-3.65 J0
X51.5 Y0 I5.075 J0
X38.5 Y0 I-6.5 J0
X51.5 Y0 I6.5 J0
G0 Z3
X35.359 Y25.089
Z2
G1 Z-4.6 F700
G3 X36.203 Y27.811 Z-4.992 I0.422 J1.361 F333.3
X35.359 Y25.089 Z-5.383 I-0.422 J-1.361
X36.203 Y27.811 Z-5.775 I0.422 J1.361
X35.359 Y25.089 Z-6.167 I-0.422 J-1.361
X37.206 Y26.45 Z-6.4 I0.422 J1.361
X35.606 Y26.45 I-0.8 J0 F700
X40.056 Y26.45 I2.225 J0
X32.756 Y26.45 I-3.65 J0
X42.906 Y26.45 I5.075 J0
X29.906 Y26.45 I-6.5 J0
X42.906 Y26.45 I6.5 J0
G0 Z3
X15.267 Y41.9
Z2
G1 Z-4.6 F700
G3 X12.545 Y42.745 Z-4.992 I-1.361 J0.422 F333.3
X15.267 Y41.9 Z-5.383 I1.361 J-0.422
X12.545 Y42.745 Z-5.775 I-1.361 J0.422
X15.267 Y41.9 Z-6.167 I1.361 J-0.422
X13.906 Y43.747 Z-6.4 I-1.361 J0.422
X12.956 Y42.798 I0 J-0.95 F700
X13.906 Y41.847 I0.95 J0
X14.856 Y42.798 I0 J0.95
X13.906 Y43.747 I-0.95 J0
G2 X12.342 Y44.562 I0 J1.908
G3 X10.584 Y44.426 I-0.839 J-0.587
X10.206 Y42.798 I3.322 J-1.629
X13.906 Y39.097 I3.7 J0
X17.606 Y42.798 I0 J3.7
X13.906 Y46.497 I-3.7 J0
X10.584 Y44.426 I0 J-3.7
G2 X8.82 Y43.247 I-1.899 J0.931
G3 X7.523 Y41.568 I0.091 J-1.411
X20.406 Y42.798 I6.383 J1.229
X7.406 Y42.798 I-6.5 J0
X7.523 Y41.568 I6.5 J0
G0 Z3
X-14.903 Y41.436
Z2
G1 Z-4.6 F700
G3 X-14.059 Y44.159 Z-4.992 I0.422 J1.361 F333.3
X-14.903 Y41.436 Z-5.383 I-0.422 J-1.361
X-14.059 Y44.159 Z-5.775 I0.422 J1.361
X-14.903 Y41.436 Z-6.167 I-0.422 J-1.361
X-13.056 Y42.797 Z-6.4 I0.422 J1.361
X-14.756 Y42.797 I-0.85 J0 F700
X-10.206 Y42.797 I2.275 J0
X-17.606 Y42.797 I-3.7 J0
X-10.206 Y42.797 I3.7 J0
G2 X-9.142 Y44.633 I2.116 J0
G3 X-8.716 Y46.711 I-0.703 J1.227
X-20.406 Y42.798 I-5.19 J-3.914
X-7.406 Y42.798 I6.5 J0
X-8.716 Y46.711 I-6.5 J0
G0 Z3
X-46.047 Y-1.361
Z2
G1 Z-4.6 F700
G3 X-45.203 Y1.361 Z-4.992 I0.422 J1.361 F333.3
X-46.047 Y-1.361 Z-5.383 I-0.422 J-1.361
X-45.203 Y1.361 Z-5.775 I0.422 J1.361
X-46.047 Y-1.361 Z-6.167 I-0.422 J-1.361
X-44.2 Y0 Z-6.4 I0.422 J1.361
X-45.8 Y0 I-0.8 J0 F700
X-41.35 Y0 I2.225 J0
X-48.65 Y0 I-3.65 J0
X-38.5 Y0 I5.075 J0
X-51.5 Y0 I-6.5 J0
X-38.5 Y0 I6.5 J0
G0 Z3
X-37.453 Y-27.811
Z2
G1 Z-4.6 F700
G3 X-36.609 Y-25.089 Z-4.992 I0.422 J1.361 F333.3
X-37.453 Y-27.811 Z-5.383 I-0.422 J-1.361
X-36.609 Y-25.089 Z-5.775 I0.422 J1.361
X-37.453 Y-27.811 Z-6.167 I-0.422 J-1.361
X-35.606 Y-26.45 Z-6.4 I0.422 J1.361
X-37.206 Y-26.45 I-0.8 J0 F700
X-32.756 Y-26.45 I2.225 J0
X-40.056 Y-26.45 I-3.65 J0
X-29.906 Y-26.45 I5.075 J0
X-42.906 Y-26.45 I-6.5 J0
X-29.906 Y-26.45 I6.5 J0
G0 Z3
X-15.267 Y-41.9
Z2
G1 Z-4.6 F700
G3 X-12.545 Y-42.745 Z-4.992 I1.361 J-0.422 F333.3
X-15.267 Y-41.9 Z-5.383 I-1.361 J0.422
X-12.545 Y-42.745 Z-5.775 I1.361 J-0.422
X-15.267 Y-41.9 Z-6.167 I-1.361 J0.422
X-13.906 Y-43.748 Z-6.4 I1.361 J-0.422
X-12.956 Y-42.798 I0 J0.95 F700
X-13.906 Y-41.847 I-0.95 J0
X-14.856 Y-42.798 I0 J-0.95
X-13.906 Y-43.748 I0.95 J0
G2 X-12.342 Y-44.562 I0 J-1.908
G3 X-10.584 Y-44.427 I0.839 J0.587
X-10.206 Y-42.798 I-3.322 J1.629
X-13.906 Y-39.097 I-3.7 J0
X-17.606 Y-42.798 I0 J-3.7
X-13.906 Y-46.498 I3.7 J0
X-10.584 Y-44.427 I0 J3.7
G2 X-8.82 Y-43.247 I1.899 J-0.931
G3 X-7.523 Y-41.568 I-0.091 J1.411
X-20.406 Y-42.798 I-6.383 J-1.229
X-7.406 Y-42.798 I6.5 J0
X-7.523 Y-41.568 I-6.5 J0
X-9.06 Y-40.42 Z-6.547 I-1.399 J-0.269 F333.3
G1 X-14.044 Y-40.904 Z-6.897
G3 X-13.906 Y-43.748 Z-7.2 I0.138 J-1.418
X-12.956 Y-42.798 I0 J0.95 F700
X-13.906 Y-41.847 I-0.95 J0
X-14.856 Y-42.798 I0 J-0.95
X-13.906 Y-43.748 I0.95 J0
G2 X-12.342 Y-44.562 I0 J-1.908
G3 X-10.584 Y-44.427 I0.839 J0.587
X-10.206 Y-42.798 I-3.322 J1.629
X-13.906 Y-39.097 I-3.7 J0
X-17.606 Y-42.798 I0 J-3.7
X-13.906 Y-46.498 I3.7 J0
X-10.584 Y-44.427 I0 J3.7
G2 X-8.82 Y-43.247 I1.899 J-0.931
G3 X-7.523 Y-41.568 I-0.091 J1.411
X-20.406 Y-42.798 I-6.383 J-1.229
X-7.406 Y-42.798 I6.5 J0
X-7.523 Y-41.568 I-6.5 J0
G0 Z3
X-37.453 Y-27.811
Z2
G1 Z-5.4 F700
G3 X-36.609 Y-25.089 Z-5.792 I0.422 J1.361 F333.3
X-37.453 Y-27.811 Z-6.183 I-0.422 J-1.361
X-36.609 Y-25.089 Z-6.575 I0.422 J1.361
X-37.453 Y-27.811 Z-6.967 I-0.422 J-1.361
X-35.606 Y-26.45 Z-7.2 I0.422 J1.361
X-37.206 Y-26.45 I-0.8 J0 F700
X-32.756 Y-26.45 I2.225 J0
X-40.056 Y-26.45 I-3.65 J0
X-29.906 Y-26.45 I5.075 J0
X-42.906 Y-26.45 I-6.5 J0
X-29.906 Y-26.45 I6.5 J0
G0 Z3
X-46.047 Y-1.361
Z2
G1 Z-5.4 F700
G3 X-45.203 Y1.361 Z-5.792 I0.422 J1.361 F333.3
X-46.047 Y-1.361 Z-6.183 I-0.422 J-1.361
X-45.203 Y1.361 Z-6.575 I0.422 J1.361
X-46.047 Y-1.361 Z-6.967 I-0.422 J-1.361
X-44.2 Y0 Z-7.2 I0.422 J1.361
X-45.8 Y0 I-0.8 J0 F700
X-41.35 Y0 I2.225 J0
X-48.65 Y0 I-3.65 J0
X-38.5 Y0 I5.075 J0
X-51.5 Y0 I-6.5 J0
X-38.5 Y0 I6.5 J0
G0 Z3
X-14.903 Y41.436
Z2
G1 Z-5.4 F700
G3 X-14.059 Y44.159 Z-5.792 I0.422 J1.361 F333.3
X-14.903 Y41.436 Z-6.183 I-0.422 J-1.361
X-14.059 Y44.159 Z-6.575 I0.422 J1.361
X-14.903 Y41.436 Z-6.967 I-0.422 J-1.361
X-13.056 Y42.797 Z-7.2 I0.422 J1.361
X-14.756 Y42.797 I-0.85 J0 F700
X-10.206 Y42.797 I2.275 J0
X-17.606 Y42.797 I-3.7 J0
X-10.206 Y42.797 I3.7 J0
G2 X-9.142 Y44.633 I2.116 J0
G3 X-8.716 Y46.711 I-0.703 J1.227
X-20.406 Y42.798 I-5.19 J-3.914
X-7.406 Y42.798 I6.5 J0
X-8.716 Y46.711 I-6.5 J0
G0 Z3
X15.267 Y41.9
Z2
G1 Z-5.4 F700
G3 X12.545 Y42.745 Z-5.792 I-1.361 J0.422 F333.3
X15.267 Y41.9 Z-6.183 I1.361 J-0.422
X12.545 Y42.745 Z-6.575 I-1.361 J0.422
X15.267 Y41.9 Z-6.967 I1.361 J-0.422
X13.906 Y43.747 Z-7.2 I-1.361 J0.422
X12.956 Y42.798 I0 J-0.95 F700
X13.906 Y41.847 I0.95 J0
X14.856 Y42.798 I0 J0.95
X13.906 Y43.747 I-0.95 J0
G2 X12.342 Y44.562 I0 J1.908
G3 X10.584 Y44.426 I-0.839 J-0.587
X10.206 Y42.798 I3.322 J-1.629
X13.906 Y39.097 I3.7 J0
X17.606 Y42.798 I0 J3.7
X13.906 Y46.497 I-3.7 J0
X10.584 Y44.426 I0 J-3.7
G2 X8.82 Y43.247 I-1.899 J0.931
G3 X7.523 Y41.568 I0.091 J-1.411
X20.406 Y42.798 I6.383 J1.229
X7.406 Y42.798 I-6.5 J0
X7.523 Y41.568 I6.5 J0
G0 Z3
X35.359 Y25.089
Z2
G1 Z-5.4 F700
G3 X36.203 Y27.811 Z-5.792 I0.422 J1.361 F333.3
X35.359 Y25.089 Z-6.183 I-0.422 J-1.361
X36.203 Y27.811 Z-6.575 I0.422 J1.361
X35.359 Y25.089 Z-6.967 I-0.422 J-1.361
X37.206 Y26.45 Z-7.2 I0.422 J1.361
X35.606 Y26.45 I-0.8 J0 F700
X40.056 Y26.45 I2.225 J0
X32.756 Y26.45 I-3.65 J0
X42.906 Y26.45 I5.075 J0
X29.906 Y26.45 I-6.5 J0
X42.906 Y26.45 I6.5 J0
G0 Z3
X43.953 Y-1.361
Z2
G1 Z-5.4 F700
G3 X44.797 Y1.361 Z-5.792 I0.422 J1.361 F333.3
X43.953 Y-1.361 Z-6.183 I-0.422 J-1.361
X44.797 Y1.361 Z-6.575 I0.422 J1.361
X43.953 Y-1.361 Z-6.967 I-0.422 J-1.361
X45.8 Y0 Z-7.2 I0.422 J1.361
X44.2 Y0 I-0.8 J0 F700
X48.65 Y0 I2.225 J0
X41.35 Y0 I-3.65 J0
X51.5 Y0 I5.075 J0
X38.5 Y0 I-6.5 J0
X51.5 Y0 I6.5 J0
G0 Z3
X35.359 Y-27.811
Z2
G1 Z-5.4 F700
G3 X36.203 Y-25.089 Z-5.792 I0.422 J1.361 F333.3
X35.359 Y-27.811 Z-6.183 I-0.422 J-1.361
X36.203 Y-25.089 Z-6.575 I0.422 J1.361
X35.359 Y-27.811 Z-6.967 I-0.422 J-1.361
X37.206 Y-26.45 Z-7.2 I0.422 J1.361
X35.606 Y-26.45 I-0.8 J0 F700
X40.056 Y-26.45 I2.225 J0
X32.756 Y-26.45 I-3.65 J0
X42.906 Y-26.45 I5.075 J0
X29.906 Y-26.45 I-6.5 J0
X42.906 Y-26.45 I6.5 J0
X41.782 Y-25.518 I-0.948 J0
G1 X37.424 Y-26.34
X37.321 Y-26.353
X37.217 Y-26.356
G3 X37.154 Y-28.251 I-0.032 J-0.948
X37.798 Y-26.58 I0.032 J0.948
G1 X36.866 Y-25.79
G3 X35.64 Y-27.237 I-0.613 J-0.724
X37.193 Y-26.64 I0.613 J0.724
X34.369 Y-26.26 Z-7.592 I-1.412 J0.19 F333.3
X35.686 Y-27.872 Z-7.796 I1.412 J-0.19
X37.206 Y-26.45 Z-8 I0.095 J1.422
X35.606 Y-26.45 I-0.8 J0 F700
X40.056 Y-26.45 I2.225 J0
X32.756 Y-26.45 I-3.65 J0
X42.906 Y-26.45 I5.075 J0
X29.906 Y-26.45 I-6.5 J0
X42.906 Y-26.45 I6.5 J0
G0 Z3
X43.953 Y-1.361
Z2
G1 Z-6.2 F700
G3 X44.797 Y1.361 Z-6.592 I0.422 J1.361 F333.3
X43.953 Y-1.361 Z-6.983 I-0.422 J-1.361
X44.797 Y1.361 Z-7.375 I0.422 J1.361
X43.953 Y-1.361 Z-7.767 I-0.422 J-1.361
X45.8 Y0 Z-8 I0.422 J1.361
X44.2 Y0 I-0.8 J0 F700
X48.65 Y0 I2.225 J0
X41.35 Y0 I-3.65 J0
X51.5 Y0 I5.075 J0
X38.5 Y0 I-6.5 J0
X51.5 Y0 I6.5 J0
G0 Z3
X35.359 Y25.089
Z2
G1 Z-6.2 F700
G3 X36.203 Y27.811 Z-6.592 I0.422 J1.361 F333.3
X35.359 Y25.089 Z-6.983 I-0.422 J-1.361
X36.203 Y27.811 Z-7.375 I0.422 J1.361
X35.359 Y25.089 Z-7.767 I-0.422 J-1.361
X37.206 Y26.45 Z-8 I0.422 J1.361
X35.606 Y26.45 I-0.8 J0 F700
X40.056 Y26.45 I2.225 J0
X32.756 Y26.45 I-3.65 J0
X42.906 Y26.45 I5.075 J0
X29.906 Y26.45 I-6.5 J0
X42.906 Y26.45 I6.5 J0
G0 Z3
X15.267 Y41.9
Z2
G1 Z-6.2 F700
G3 X12.545 Y42.745 Z-6.592 I-1.361 J0.422 F333.3
X15.267 Y41.9 Z-6.983 I1.361 J-0.422
X12.545 Y42.745 Z-7.375 I-1.361 J0.422
X15.267 Y41.9 Z-7.767 I1.361 J-0.422
X13.906 Y43.747 Z-8 I-1.361 J0.422
X12.956 Y42.798 I0 J-0.95 F700
X13.906 Y41.847 I0.95 J0
X14.856 Y42.798 I0 J0.95
X13.906 Y43.747 I-0.95 J0
G2 X12.342 Y44.562 I0 J1.908
G3 X10.584 Y44.426 I-0.839 J-0.587
X10.206 Y42.798 I3.322 J-1.629
X13.906 Y39.097 I3.7 J0
X17.606 Y42.798 I0 J3.7
X13.906 Y46.497 I-3.7 J0
X10.584 Y44.426 I0 J-3.7
G2 X8.82 Y43.247 I-1.899 J0.931
G3 X7.523 Y41.568 I0.091 J-1.411
X20.406 Y42.798 I6.383 J1.229
X7.406 Y42.798 I-6.5 J0
X7.523 Y41.568 I6.5 J0
G0 Z3
X-14.903 Y41.436
Z2
G1 Z-6.2 F700
G3 X-14.059 Y44.159 Z-6.592 I0.422 J1.361 F333.3
X-14.903 Y41.436 Z-6.983 I-0.422 J-1.361
X-14.059 Y44.159 Z-7.375 I0.422 J1.361
X-14.903 Y41.436 Z-7.767 I-0.422 J-1.361
X-13.056 Y42.797 Z-8 I0.422 J1.361
X-14.756 Y42.797 I-0.85 J0 F700
X-10.206 Y42.797 I2.275 J0
X-17.606 Y42.797 I-3.7 J0
X-10.206 Y42.797 I3.7 J0
G2 X-9.142 Y44.633 I2.116 J0
G3 X-8.716 Y46.711 I-0.703 J1.227
X-20.406 Y42.798 I-5.19 J-3.914
X-7.406 Y42.798 I6.5 J0
X-8.716 Y46.711 I-6.5 J0
G0 Z3
X-46.047 Y-1.361
Z2
G1 Z-6.2 F700
G3 X-45.203 Y1.361 Z-6.592 I0.422 J1.361 F333.3
X-46.047 Y-1.361 Z-6.983 I-0.422 J-1.361
X-45.203 Y1.361 Z-7.375 I0.422 J1.361
X-46.047 Y-1.361 Z-7.767 I-0.422 J-1.361
X-44.2 Y0 Z-8 I0.422 J1.361
X-45.8 Y0 I-0.8 J0 F700
X-41.35 Y0 I2.225 J0
X-48.65 Y0 I-3.65 J0
X-38.5 Y0 I5.075 J0
X-51.5 Y0 I-6.5 J0
X-38.5 Y0 I6.5 J0
G0 Z3
X-37.453 Y-27.811
Z2
G1 Z-6.2 F700
G3 X-36.609 Y-25.089 Z-6.592 I0.422 J1.361 F333.3
X-37.453 Y-27.811 Z-6.983 I-0.422 J-1.361
X-36.609 Y-25.089 Z-7.375 I0.422 J1.361
X-37.453 Y-27.811 Z-7.767 I-0.422 J-1.361
X-35.606 Y-26.45 Z-8 I0.422 J1.361
X-37.206 Y-26.45 I-0.8 J0 F700
X-32.756 Y-26.45 I2.225 J0
X-40.056 Y-26.45 I-3.65 J0
X-29.906 Y-26.45 I5.075 J0
X-42.906 Y-26.45 I-6.5 J0
X-29.906 Y-26.45 I6.5 J0
G0 Z3
X-15.267 Y-41.9
Z2
G1 Z-6.2 F700
G3 X-12.545 Y-42.745 Z-6.592 I1.361 J-0.422 F333.3
X-15.267 Y-41.9 Z-6.983 I-1.361 J0.422
X-12.545 Y-42.745 Z-7.375 I1.361 J-0.422
X-15.267 Y-41.9 Z-7.767 I-1.361 J0.422
X-13.906 Y-43.748 Z-8 I1.361 J-0.422
X-12.956 Y-42.798 I0 J0.95 F700
X-13.906 Y-41.847 I-0.95 J0
X-14.856 Y-42.798 I0 J-0.95
X-13.906 Y-43.748 I0.95 J0
G2 X-12.342 Y-44.562 I0 J-1.908
G3 X-10.584 Y-44.427 I0.839 J0.587
X-10.206 Y-42.798 I-3.322 J1.629
X-13.906 Y-39.097 I-3.7 J0
X-17.606 Y-42.798 I0 J-3.7
X-13.906 Y-46.498 I3.7 J0
X-10.584 Y-44.427 I0 J3.7
G2 X-8.82 Y-43.247 I1.899 J-0.931
G3 X-7.523 Y-41.568 I-0.091 J1.411
X-20.406 Y-42.798 I-6.383 J-1.229
X-7.406 Y-42.798 I6.5 J0
X-7.523 Y-41.568 I-6.5 J0
X-9.06 Y-40.42 Z-8.147 I-1.399 J-0.269 F333.3
G1 X-14.044 Y-40.904 Z-8.497
G3 X-13.906 Y-43.748 Z-8.8 I0.138 J-1.418
X-12.956 Y-42.798 I0 J0.95 F700
X-13.906 Y-41.847 I-0.95 J0
X-14.856 Y-42.798 I0 J-0.95
X-13.906 Y-43.748 I0.95 J0
G2 X-12.342 Y-44.562 I0 J-1.908
G3 X-10.584 Y-44.427 I0.839 J0.587
X-10.206 Y-42.798 I-3.322 J1.629
X-13.906 Y-39.097 I-3.7 J0
X-17.606 Y-42.798 I0 J-3.7
X-13.906 Y-46.498 I3.7 J0
X-10.584 Y-44.427 I0 J3.7
G2 X-8.82 Y-43.247 I1.899 J-0.931
G3 X-7.523 Y-41.568 I-0.091 J1.411
X-20.406 Y-42.798 I-6.383 J-1.229
X-7.406 Y-42.798 I6.5 J0
X-7.523 Y-41.568 I-6.5 J0
G0 Z3
X-37.453 Y-27.811
Z2
G1 Z-7 F700
G3 X-36.609 Y-25.089 Z-7.392 I0.422 J1.361 F333.3
X-37.453 Y-27.811 Z-7.783 I-0.422 J-1.361
X-36.609 Y-25.089 Z-8.175 I0.422 J1.361
X-37.453 Y-27.811 Z-8.567 I-0.422 J-1.361
X-35.606 Y-26.45 Z-8.8 I0.422 J1.361
X-37.206 Y-26.45 I-0.8 J0 F700
X-32.756 Y-26.45 I2.225 J0
X-40.056 Y-26.45 I-3.65 J0
X-29.906 Y-26.45 I5.075 J0
X-42.906 Y-26.45 I-6.5 J0
X-29.906 Y-26.45 I6.5 J0
G0 Z3
X-46.047 Y-1.361
Z2
G1 Z-7 F700
G3 X-45.203 Y1.361 Z-7.392 I0.422 J1.361 F333.3
X-46.047 Y-1.361 Z-7.783 I-0.422 J-1.361
X-45.203 Y1.361 Z-8.175 I0.422 J1.361
X-46.047 Y-1.361 Z-8.567 I-0.422 J-1.361
X-44.2 Y0 Z-8.8 I0.422 J1.361
X-45.8 Y0 I-0.8 J0 F700
X-41.35 Y0 I2.225 J0
X-48.65 Y0 I-3.65 J0
X-38.5 Y0 I5.075 J0
X-51.5 Y0 I-6.5 J0
X-38.5 Y0 I6.5 J0
G0 Z3
X-14.903 Y41.436
Z2
G1 Z-7 F700
G3 X-14.059 Y44.159 Z-7.392 I0.422 J1.361 F333.3
X-14.903 Y41.436 Z-7.783 I-0.422 J-1.361
X-14.059 Y44.159 Z-8.175 I0.422 J1.361
X-14.903 Y41.436 Z-8.567 I-0.422 J-1.361
X-13.056 Y42.797 Z-8.8 I0.422 J1.361
X-14.756 Y42.797 I-0.85 J0 F700
X-10.206 Y42.797 I2.275 J0
X-17.606 Y42.797 I-3.7 J0
X-10.206 Y42.797 I3.7 J0
G2 X-9.142 Y44.633 I2.116 J0
G3 X-8.716 Y46.711 I-0.703 J1.227
X-20.406 Y42.798 I-5.19 J-3.914
X-7.406 Y42.798 I6.5 J0
X-8.716 Y46.711 I-6.5 J0
G0 Z3
X15.267 Y41.9
Z2
G1 Z-7 F700
G3 X12.545 Y42.745 Z-7.392 I-1.361 J0.422 F333.3
X15.267 Y41.9 Z-7.783 I1.361 J-0.422
X12.545 Y42.745 Z-8.175 I-1.361 J0.422
X15.267 Y41.9 Z-8.567 I1.361 J-0.422
X13.906 Y43.747 Z-8.8 I-1.361 J0.422
X12.956 Y42.798 I0 J-0.95 F700
X13.906 Y41.847 I0.95 J0
X14.856 Y42.798 I0 J0.95
X13.906 Y43.747 I-0.95 J0
G2 X12.342 Y44.562 I0 J1.908
G3 X10.584 Y44.426 I-0.839 J-0.587
X10.206 Y42.798 I3.322 J-1.629
X13.906 Y39.097 I3.7 J0
X17.606 Y42.798 I0 J3.7
X13.906 Y46.497 I-3.7 J0
X10.584 Y44.426 I0 J-3.7
G2 X8.82 Y43.247 I-1.899 J0.931
G3 X7.523 Y41.568 I0.091 J-1.411
X20.406 Y42.798 I6.383 J1.229
X7.406 Y42.798 I-6.5 J0
X7.523 Y41.568 I6.5 J0
G0 Z3
X35.359 Y25.089
Z2
G1 Z-7 F700
G3 X36.203 Y27.811 Z-7.392 I0.422 J1.361 F333.3
X35.359 Y25.089 Z-7.783 I-0.422 J-1.361
X36.203 Y27.811 Z-8.175 I0.422 J1.361
X35.359 Y25.089 Z-8.567 I-0.422 J-1.361
X37.206 Y26.45 Z-8.8 I0.422 J1.361
X35.606 Y26.45 I-0.8 J0 F700
X40.056 Y26.45 I2.225 J0
X32.756 Y26.45 I-3.65 J0
X42.906 Y26.45 I5.075 J0
X29.906 Y26.45 I-6.5 J0
X42.906 Y26.45 I6.5 J0
G0 Z3
X43.953 Y-1.361
Z2
G1 Z-7 F700
G3 X44.797 Y1.361 Z-7.392 I0.422 J1.361 F333.3
X43.953 Y-1.361 Z-7.783 I-0.422 J-1.361
X44.797 Y1.361 Z-8.175 I0.422 J1.361
X43.953 Y-1.361 Z-8.567 I-0.422 J-1.361
X45.8 Y0 Z-8.8 I0.422 J1.361
X44.2 Y0 I-0.8 J0 F700
X48.65 Y0 I2.225 J0
X41.35 Y0 I-3.65 J0
X51.5 Y0 I5.075 J0
X38.5 Y0 I-6.5 J0
X51.5 Y0 I6.5 J0
G0 Z3
X35.359 Y-27.811
Z2
G1 Z-7 F700
G3 X36.203 Y-25.089 Z-7.392 I0.422 J1.361 F333.3
X35.359 Y-27.811 Z-7.783 I-0.422 J-1.361
X36.203 Y-25.089 Z-8.175 I0.422 J1.361
X35.359 Y-27.811 Z-8.567 I-0.422 J-1.361
X37.206 Y-26.45 Z-8.8 I0.422 J1.361
X35.606 Y-26.45 I-0.8 J0 F700
X40.056 Y-26.45 I2.225 J0
X32.756 Y-26.45 I-3.65 J0
X42.906 Y-26.45 I5.075 J0
X29.906 Y-26.45 I-6.5 J0
X42.906 Y-26.45 I6.5 J0
X41.782 Y-25.518 I-0.948 J0
G1 X37.424 Y-26.34
X37.321 Y-26.353
X37.217 Y-26.356
G3 X37.154 Y-28.251 I-0.032 J-0.948
X37.798 Y-26.58 I0.032 J0.948
G1 X36.866 Y-25.79
G3 X35.64 Y-27.237 I-0.613 J-0.724
X37.193 Y-26.64 I0.613 J0.724
X34.369 Y-26.26 Z-9.192 I-1.412 J0.19 F333.3
X35.686 Y-27.872 Z-9.396 I1.412 J-0.19
X37.206 Y-26.45 Z-9.6 I0.095 J1.422
X35.606 Y-26.45 I-0.8 J0 F700
X40.056 Y-26.45 I2.225 J0
X32.756 Y-26.45 I-3.65 J0
X42.906 Y-26.45 I5.075 J0
X29.906 Y-26.45 I-6.5 J0
X42.906 Y-26.45 I6.5 J0
G0 Z3
X43.953 Y-1.361
Z2
G1 Z-7.8 F700
G3 X44.797 Y1.361 Z-8.192 I0.422 J1.361 F333.3
X43.953 Y-1.361 Z-8.583 I-0.422 J-1.361
X44.797 Y1.361 Z-8.975 I0.422 J1.361
X43.953 Y-1.361 Z-9.367 I-0.422 J-1.361
X45.8 Y0 Z-9.6 I0.422 J1.361
X44.2 Y0 I-0.8 J0 F700
X48.65 Y0 I2.225 J0
X41.35 Y0 I-3.65 J0
X51.5 Y0 I5.075 J0
X38.5 Y0 I-6.5 J0
X51.5 Y0 I6.5 J0
G0 Z3
X35.359 Y25.089
Z2
G1 Z-7.8 F700
G3 X36.203 Y27.811 Z-8.192 I0.422 J1.361 F333.3
X35.359 Y25.089 Z-8.583 I-0.422 J-1.361
X36.203 Y27.811 Z-8.975 I0.422 J1.361
X35.359 Y25.089 Z-9.367 I-0.422 J-1.361
X37.206 Y26.45 Z-9.6 I0.422 J1.361
X35.606 Y26.45 I-0.8 J0 F700
X40.056 Y26.45 I2.225 J0
X32.756 Y26.45 I-3.65 J0
X42.906 Y26.45 I5.075 J0
X29.906 Y26.45 I-6.5 J0
X42.906 Y26.45 I6.5 J0
G0 Z3
X15.267 Y41.9
Z2
G1 Z-7.8 F700
G3 X12.545 Y42.745 Z-8.192 I-1.361 J0.422 F333.3
X15.267 Y41.9 Z-8.583 I1.361 J-0.422
X12.545 Y42.745 Z-8.975 I-1.361 J0.422
X15.267 Y41.9 Z-9.367 I1.361 J-0.422
X13.906 Y43.747 Z-9.6 I-1.361 J0.422
X12.956 Y42.798 I0 J-0.95 F700
X13.906 Y41.847 I0.95 J0
X14.856 Y42.798 I0 J0.95
X13.906 Y43.747 I-0.95 J0
G2 X12.342 Y44.562 I0 J1.908
G3 X10.584 Y44.426 I-0.839 J-0.587
X10.206 Y42.798 I3.322 J-1.629
X13.906 Y39.097 I3.7 J0
X17.606 Y42.798 I0 J3.7
X13.906 Y46.497 I-3.7 J0
X10.584 Y44.426 I0 J-3.7
G2 X8.82 Y43.247 I-1.899 J0.931
G3 X7.523 Y41.568 I0.091 J-1.411
X20.406 Y42.798 I6.383 J1.229
X7.406 Y42.798 I-6.5 J0
X7.523 Y41.568 I6.5 J0
G0 Z3
X-14.903 Y41.436
Z2
G1 Z-7.8 F700
G3 X-14.059 Y44.159 Z-8.192 I0.422 J1.361 F333.3
X-14.903 Y41.436 Z-8.583 I-0.422 J-1.361
X-14.059 Y44.159 Z-8.975 I0.422 J1.361
X-14.903 Y41.436 Z-9.367 I-0.422 J-1.361
X-13.056 Y42.797 Z-9.6 I0.422 J1.361
X-14.756 Y42.797 I-0.85 J0 F700
X-10.206 Y42.797 I2.275 J0
X-17.606 Y42.797 I-3.7 J0
X-10.206 Y42.797 I3.7 J0
G2 X-9.142 Y44.633 I2.116 J0
G3 X-8.716 Y46.711 I-0.703 J1.227
X-20.406 Y42.798 I-5.19 J-3.914
X-7.406 Y42.798 I6.5 J0
X-8.716 Y46.711 I-6.5 J0
G0 Z3
X-46.047 Y-1.361
Z2
G1 Z-7.8 F700
G3 X-45.203 Y1.361 Z-8.192 I0.422 J1.361 F333.3
X-46.047 Y-1.361 Z-8.583 I-0.422 J-1.361
X-45.203 Y1.361 Z-8.975 I0.422 J1.361
X-46.047 Y-1.361 Z-9.367 I-0.422 J-1.361
X-44.2 Y0 Z-9.6 I0.422 J1.361
X-45.8 Y0 I-0.8 J0 F700
X-41.35 Y0 I2.225 J0
X-48.65 Y0 I-3.65 J0
X-38.5 Y0 I5.075 J0
X-51.5 Y0 I-6.5 J0
X-38.5 Y0 I6.5 J0
G0 Z3
X-37.453 Y-27.811
Z2
G1 Z-7.8 F700
G3 X-36.609 Y-25.089 Z-8.192 I0.422 J1.361 F333.3
X-37.453 Y-27.811 Z-8.583 I-0.422 J-1.361
X-36.609 Y-25.089 Z-8.975 I0.422 J1.361
X-37.453 Y-27.811 Z-9.367 I-0.422 J-1.361
X-35.606 Y-26.45 Z-9.6 I0.422 J1.361
X-37.206 Y-26.45 I-0.8 J0 F700
X-32.756 Y-26.45 I2.225 J0
X-40.056 Y-26.45 I-3.65 J0
X-29.906 Y-26.45 I5.075 J0
X-42.906 Y-26.45 I-6.5 J0
X-29.906 Y-26.45 I6.5 J0
G0 Z3
X-15.267 Y-41.9
Z2
G1 Z-7.8 F700
G3 X-12.545 Y-42.745 Z-8.192 I1.361 J-0.422 F333.3
X-15.267 Y-41.9 Z-8.583 I-1.361 J0.422
X-12.545 Y-42.745 Z-8.975 I1.361 J-0.422
X-15.267 Y-41.9 Z-9.367 I-1.361 J0.422
X-13.906 Y-43.748 Z-9.6 I1.361 J-0.422
X-12.956 Y-42.798 I0 J0.95 F700
X-13.906 Y-41.847 I-0.95 J0
X-14.856 Y-42.798 I0 J-0.95
X-13.906 Y-43.748 I0.95 J0
G2 X-12.342 Y-44.562 I0 J-1.908
G3 X-10.584 Y-44.427 I0.839 J0.587
X-10.206 Y-42.798 I-3.322 J1.629
X-13.906 Y-39.097 I-3.7 J0
X-17.606 Y-42.798 I0 J-3.7
X-13.906 Y-46.498 I3.7 J0
X-10.584 Y-44.427 I0 J3.7
G2 X-8.82 Y-43.247 I1.899 J-0.931
G3 X-7.523 Y-41.568 I-0.091 J1.411
X-20.406 Y-42.798 I-6.383 J-1.229
X-7.406 Y-42.798 I6.5 J0
X-7.523 Y-41.568 I-6.5 J0
X-9.06 Y-40.42 Z-9.747 I-1.399 J-0.269 F333.3
G1 X-14.044 Y-40.904 Z-10.097
G3 X-13.906 Y-43.748 Z-10.4 I0.138 J-1.418
X-12.956 Y-42.798 I0 J0.95 F700
X-13.906 Y-41.847 I-0.95 J0
X-14.856 Y-42.798 I0 J-0.95
X-13.906 Y-43.748 I0.95 J0
G2 X-12.342 Y-44.562 I0 J-1.908
G3 X-10.584 Y-44.427 I0.839 J0.587
X-10.206 Y-42.798 I-3.322 J1.629
X-13.906 Y-39.097 I-3.7 J0
X-17.606 Y-42.798 I0 J-3.7
X-13.906 Y-46.498 I3.7 J0
X-10.584 Y-44.427 I0 J3.7
G2 X-8.82 Y-43.247 I1.899 J-0.931
G3 X-7.523 Y-41.568 I-0.091 J1.411
X-20.406 Y-42.798 I-6.383 J-1.229
X-7.406 Y-42.798 I6.5 J0
X-7.523 Y-41.568 I-6.5 J0
G0 Z3
X-37.453 Y-27.811
Z2
G1 Z-8.6 F700
G3 X-36.609 Y-25.089 Z-8.992 I0.422 J1.361 F333.3
X-37.453 Y-27.811 Z-9.383 I-0.422 J-1.361
X-36.609 Y-25.089 Z-9.775 I0.422 J1.361
X-37.453 Y-27.811 Z-10.167 I-0.422 J-1.361
X-35.606 Y-26.45 Z-10.4 I0.422 J1.361
X-37.206 Y-26.45 I-0.8 J0 F700
X-32.756 Y-26.45 I2.225 J0
X-40.056 Y-26.45 I-3.65 J0
X-29.906 Y-26.45 I5.075 J0
X-42.906 Y-26.45 I-6.5 J0
X-29.906 Y-26.45 I6.5 J0
G0 Z3
X-46.047 Y-1.361
Z2
G1 Z-8.6 F700
G3 X-45.203 Y1.361 Z-8.992 I0.422 J1.361 F333.3
X-46.047 Y-1.361 Z-9.383 I-0.422 J-1.361
X-45.203 Y1.361 Z-9.775 I0.422 J1.361
X-46.047 Y-1.361 Z-10.167 I-0.422 J-1.361
X-44.2 Y0 Z-10.4 I0.422 J1.361
X-45.8 Y0 I-0.8 J0 F700
X-41.35 Y0 I2.225 J0
X-48.65 Y0 I-3.65 J0
X-38.5 Y0 I5.075 J0
X-51.5 Y0 I-6.5 J0
X-38.5 Y0 I6.5 J0
G0 Z3
X-14.903 Y41.436
Z2
G1 Z-8.6 F700
G3 X-14.059 Y44.159 Z-8.992 I0.422 J1.361 F333.3
X-14.903 Y41.436 Z-9.383 I-0.422 J-1.361
X-14.059 Y44.159 Z-9.775 I0.422 J1.361
X-14.903 Y41.436 Z-10.167 I-0.422 J-1.361
X-13.056 Y42.797 Z-10.4 I0.422 J1.361
X-14.756 Y42.797 I-0.85 J0 F700
X-10.206 Y42.797 I2.275 J0
X-17.606 Y42.797 I-3.7 J0
X-10.206 Y42.797 I3.7 J0
G2 X-9.142 Y44.633 I2.116 J0
G3 X-8.716 Y46.711 I-0.703 J1.227
X-20.406 Y42.798 I-5.19 J-3.914
X-7.406 Y42.798 I6.5 J0
X-8.716 Y46.711 I-6.5 J0
G0 Z3
X15.267 Y41.9
Z2
G1 Z-8.6 F700
G3 X12.545 Y42.745 Z-8.992 I-1.361 J0.422 F333.3
X15.267 Y41.9 Z-9.383 I1.361 J-0.422
X12.545 Y42.745 Z-9.775 I-1.361 J0.422
X15.267 Y41.9 Z-10.167 I1.361 J-0.422
X13.906 Y43.747 Z-10.4 I-1.361 J0.422
X12.956 Y42.798 I0 J-0.95 F700
X13.906 Y41.847 I0.95 J0
X14.856 Y42.798 I0 J0.95
X13.906 Y43.747 I-0.95 J0
G2 X12.342 Y44.562 I0 J1.908
G3 X10.584 Y44.426 I-0.839 J-0.587
X10.206 Y42.798 I3.322 J-1.629
X13.906 Y39.097 I3.7 J0
X17.606 Y42.798 I0 J3.7
X13.906 Y46.497 I-3.7 J0
X10.584 Y44.426 I0 J-3.7
G2 X8.82 Y43.247 I-1.899 J0.931
G3 X7.523 Y41.568 I0.091 J-1.411
X20.406 Y42.798 I6.383 J1.229
X7.406 Y42.798 I-6.5 J0
X7.523 Y41.568 I6.5 J0
G0 Z3
X35.359 Y25.089
Z2
G1 Z-8.6 F700
G3 X36.203 Y27.811 Z-8.992 I0.422 J1.361 F333.3
X35.359 Y25.089 Z-9.383 I-0.422 J-1.361
X36.203 Y27.811 Z-9.775 I0.422 J1.361
X35.359 Y25.089 Z-10.167 I-0.422 J-1.361
X37.206 Y26.45 Z-10.4 I0.422 J1.361
X35.606 Y26.45 I-0.8 J0 F700
X40.056 Y26.45 I2.225 J0
X32.756 Y26.45 I-3.65 J0
X42.906 Y26.45 I5.075 J0
X29.906 Y26.45 I-6.5 J0
X42.906 Y26.45 I6.5 J0
G0 Z3
X43.953 Y-1.361
Z2
G1 Z-8.6 F700
G3 X44.797 Y1.361 Z-8.992 I0.422 J1.361 F333.3
X43.953 Y-1.361 Z-9.383 I-0.422 J-1.361
X44.797 Y1.361 Z-9.775 I0.422 J1.361
X43.953 Y-1.361 Z-10.167 I-0.422 J-1.361
X45.8 Y0 Z-10.4 I0.422 J1.361
X44.2 Y0 I-0.8 J0 F700
X48.65 Y0 I2.225 J0
X41.35 Y0 I-3.65 J0
X51.5 Y0 I5.075 J0
X38.5 Y0 I-6.5 J0
X51.5 Y0 I6.5 J0
G0 Z3
X35.359 Y-27.811
Z2
G1 Z-8.6 F700
G3 X36.203 Y-25.089 Z-8.992 I0.422 J1.361 F333.3
X35.359 Y-27.811 Z-9.383 I-0.422 J-1.361
X36.203 Y-25.089 Z-9.775 I0.422 J1.361
X35.359 Y-27.811 Z-10.167 I-0.422 J-1.361
X37.206 Y-26.45 Z-10.4 I0.422 J1.361
X35.606 Y-26.45 I-0.8 J0 F700
X40.056 Y-26.45 I2.225 J0
X32.756 Y-26.45 I-3.65 J0
X42.906 Y-26.45 I5.075 J0
X29.906 Y-26.45 I-6.5 J0
X42.906 Y-26.45 I6.5 J0
X41.782 Y-25.518 I-0.948 J0
G1 X37.424 Y-26.34
X37.321 Y-26.353
X37.217 Y-26.356
G3 X37.154 Y-28.251 I-0.032 J-0.948
X37.798 Y-26.58 I0.032 J0.948
G1 X36.866 Y-25.79
G3 X35.64 Y-27.237 I-0.613 J-0.724
X37.193 Y-26.64 I0.613 J0.724
X34.369 Y-26.26 Z-10.792 I-1.412 J0.19 F333.3
X35.686 Y-27.872 Z-10.996 I1.412 J-0.19
X37.206 Y-26.45 Z-11.2 I0.095 J1.422
X35.606 Y-26.45 I-0.8 J0 F700
X40.056 Y-26.45 I2.225 J0
X32.756 Y-26.45 I-3.65 J0
X42.906 Y-26.45 I5.075 J0
X29.906 Y-26.45 I-6.5 J0
X42.906 Y-26.45 I6.5 J0
G0 Z3
X43.953 Y-1.361
Z2
G1 Z-9.4 F700
G3 X44.797 Y1.361 Z-9.792 I0.422 J1.361 F333.3
X43.953 Y-1.361 Z-10.183 I-0.422 J-1.361
X44.797 Y1.361 Z-10.575 I0.422 J1.361
X43.953 Y-1.361 Z-10.967 I-0.422 J-1.361
X45.8 Y0 Z-11.2 I0.422 J1.361
X44.2 Y0 I-0.8 J0 F700
X48.65 Y0 I2.225 J0
X41.35 Y0 I-3.65 J0
X51.5 Y0 I5.075 J0
X38.5 Y0 I-6.5 J0
X51.5 Y0 I6.5 J0
G0 Z3
X35.359 Y25.089
Z2
G1 Z-9.4 F700
G3 X36.203 Y27.811 Z-9.792 I0.422 J1.361 F333.3
X35.359 Y25.089 Z-10.183 I-0.422 J-1.361
X36.203 Y27.811 Z-10.575 I0.422 J1.361
X35.359 Y25.089 Z-10.967 I-0.422 J-1.361
X37.206 Y26.45 Z-11.2 I0.422 J1.361
X35.606 Y26.45 I-0.8 J0 F700
X40.056 Y26.45 I2.225 J0
X32.756 Y26.45 I-3.65 J0
X42.906 Y26.45 I5.075 J0
X29.906 Y26.45 I-6.5 J0
X42.906 Y26.45 I6.5 J0
G0 Z3
X15.267 Y41.9
Z2
G1 Z-9.4 F700
G3 X12.545 Y42.745 Z-9.792 I-1.361 J0.422 F333.3
X15.267 Y41.9 Z-10.183 I1.361 J-0.422
X12.545 Y42.745 Z-10.575 I-1.361 J0.422
X15.267 Y41.9 Z-10.967 I1.361 J-0.422
X13.906 Y43.747 Z-11.2 I-1.361 J0.422
X12.956 Y42.798 I0 J-0.95 F700
X13.906 Y41.847 I0.95 J0
X14.856 Y42.798 I0 J0.95
X13.906 Y43.747 I-0.95 J0
G2 X12.342 Y44.562 I0 J1.908
G3 X10.584 Y44.426 I-0.839 J-0.587
X10.206 Y42.798 I3.322 J-1.629
X13.906 Y39.097 I3.7 J0
X17.606 Y42.798 I0 J3.7
X13.906 Y46.497 I-3.7 J0
X10.584 Y44.426 I0 J-3.7
G2 X8.82 Y43.247 I-1.899 J0.931
G3 X7.523 Y41.568 I0.091 J-1.411
X20.406 Y42.798 I6.383 J1.229
X7.406 Y42.798 I-6.5 J0
X7.523 Y41.568 I6.5 J0
G0 Z3
X-14.903 Y41.436
Z2
G1 Z-9.4 F700
G3 X-14.059 Y44.159 Z-9.792 I0.422 J1.361 F333.3
X-14.903 Y41.436 Z-10.183 I-0.422 J-1.361
X-14.059 Y44.159 Z-10.575 I0.422 J1.361
X-14.903 Y41.436 Z-10.967 I-0.422 J-1.361
X-13.056 Y42.797 Z-11.2 I0.422 J1.361
X-14.756 Y42.797 I-0.85 J0 F700
X-10.206 Y42.797 I2.275 J0
X-17.606 Y42.797 I-3.7 J0
X-10.206 Y42.797 I3.7 J0
G2 X-9.142 Y44.633 I2.116 J0
G3 X-8.716 Y46.711 I-0.703 J1.227
X-20.406 Y42.798 I-5.19 J-3.914
X-7.406 Y42.798 I6.5 J0
X-8.716 Y46.711 I-6.5 J0
G0 Z3
X-46.047 Y-1.361
Z2
G1 Z-9.4 F700
G3 X-45.203 Y1.361 Z-9.792 I0.422 J1.361 F333.3
X-46.047 Y-1.361 Z-10.183 I-0.422 J-1.361
X-45.203 Y1.361 Z-10.575 I0.422 J1.361
X-46.047 Y-1.361 Z-10.967 I-0.422 J-1.361
X-44.2 Y0 Z-11.2 I0.422 J1.361
X-45.8 Y0 I-0.8 J0 F700
X-41.35 Y0 I2.225 J0
X-48.65 Y0 I-3.65 J0
X-38.5 Y0 I5.075 J0
X-51.5 Y0 I-6.5 J0
X-38.5 Y0 I6.5 J0
G0 Z3
X-37.453 Y-27.811
Z2
G1 Z-9.4 F700
G3 X-36.609 Y-25.089 Z-9.792 I0.422 J1.361 F333.3
X-37.453 Y-27.811 Z-10.183 I-0.422 J-1.361
X-36.609 Y-25.089 Z-10.575 I0.422 J1.361
X-37.453 Y-27.811 Z-10.967 I-0.422 J-1.361
X-35.606 Y-26.45 Z-11.2 I0.422 J1.361
X-37.206 Y-26.45 I-0.8 J0 F700
X-32.756 Y-26.45 I2.225 J0
X-40.056 Y-26.45 I-3.65 J0
X-29.906 Y-26.45 I5.075 J0
X-42.906 Y-26.45 I-6.5 J0
X-29.906 Y-26.45 I6.5 J0
G0 Z3
X-15.267 Y-41.9
Z2
G1 Z-9.4 F700
G3 X-12.545 Y-42.745 Z-9.792 I1.361 J-0.422 F333.3
X-15.267 Y-41.9 Z-10.183 I-1.361 J0.422
X-12.545 Y-42.745 Z-10.575 I1.361 J-0.422
X-15.267 Y-41.9 Z-10.967 I-1.361 J0.422
X-13.906 Y-43.748 Z-11.2 I1.361 J-0.422
X-12.956 Y-42.798 I0 J0.95 F700
X-13.906 Y-41.847 I-0.95 J0
X-14.856 Y-42.798 I0 J-0.95
X-13.906 Y-43.748 I0.95 J0
G2 X-12.342 Y-44.562 I0 J-1.908
G3 X-10.584 Y-44.427 I0.839 J0.587
X-10.206 Y-42.798 I-3.322 J1.629
X-13.906 Y-39.097 I-3.7 J0
X-17.606 Y-42.798 I0 J-3.7
X-13.906 Y-46.498 I3.7 J0
X-10.584 Y-44.427 I0 J3.7
G2 X-8.82 Y-43.247 I1.899 J-0.931
G3 X-7.523 Y-41.568 I-0.091 J1.411
X-20.406 Y-42.798 I-6.383 J-1.229
X-7.406 Y-42.798 I6.5 J0
X-7.523 Y-41.568 I-6.5 J0
X-9.06 Y-40.42 Z-11.347 I-1.399 J-0.269 F333.3
G1 X-14.044 Y-40.904 Z-11.697
G3 X-13.906 Y-43.748 Z-12 I0.138 J-1.418
X-12.956 Y-42.798 I0 J0.95 F700
X-13.906 Y-41.847 I-0.95 J0
X-14.856 Y-42.798 I0 J-0.95
X-13.906 Y-43.748 I0.95 J0
G2 X-12.342 Y-44.562 I0 J-1.908
G3 X-10.584 Y-44.427 I0.839 J0.587
X-10.206 Y-42.798 I-3.322 J1.629
X-13.906 Y-39.097 I-3.7 J0
X-17.606 Y-42.798 I0 J-3.7
X-13.906 Y-46.498 I3.7 J0
X-10.584 Y-44.427 I0 J3.7
G2 X-8.82 Y-43.247 I1.899 J-0.931
G3 X-7.523 Y-41.568 I-0.091 J1.411
X-20.406 Y-42.798 I-6.383 J-1.229
X-7.406 Y-42.798 I6.5 J0
X-7.523 Y-41.568 I-6.5 J0
G0 Z3
X-37.453 Y-27.811
Z2
G1 Z-10.2 F700
G3 X-36.609 Y-25.089 Z-10.592 I0.422 J1.361 F333.3
X-37.453 Y-27.811 Z-10.983 I-0.422 J-1.361
X-36.609 Y-25.089 Z-11.375 I0.422 J1.361
X-37.453 Y-27.811 Z-11.767 I-0.422 J-1.361
X-35.606 Y-26.45 Z-12 I0.422 J1.361
X-37.206 Y-26.45 I-0.8 J0 F700
X-32.756 Y-26.45 I2.225 J0
X-40.056 Y-26.45 I-3.65 J0
X-29.906 Y-26.45 I5.075 J0
X-42.906 Y-26.45 I-6.5 J0
X-29.906 Y-26.45 I6.5 J0
G0 Z3
X-46.047 Y-1.361
Z2
G1 Z-10.2 F700
G3 X-45.203 Y1.361 Z-10.592 I0.422 J1.361 F333.3
X-46.047 Y-1.361 Z-10.983 I-0.422 J-1.361
X-45.203 Y1.361 Z-11.375 I0.422 J1.361
X-46.047 Y-1.361 Z-11.767 I-0.422 J-1.361
X-44.2 Y0 Z-12 I0.422 J1.361
X-45.8 Y0 I-0.8 J0 F700
X-41.35 Y0 I2.225 J0
X-48.65 Y0 I-3.65 J0
X-38.5 Y0 I5.075 J0
X-51.5 Y0 I-6.5 J0
X-38.5 Y0 I6.5 J0
G0 Z3
X-14.903 Y41.436
Z2
G1 Z-10.2 F700
G3 X-14.059 Y44.159 Z-10.592 I0.422 J1.361 F333.3
X-14.903 Y41.436 Z-10.983 I-0.422 J-1.361
X-14.059 Y44.159 Z-11.375 I0.422 J1.361
X-14.903 Y41.436 Z-11.767 I-0.422 J-1.361
X-13.056 Y42.797 Z-12 I0.422 J1.361
X-14.756 Y42.797 I-0.85 J0 F700
X-10.206 Y42.797 I2.275 J0
X-17.606 Y42.797 I-3.7 J0
X-10.206 Y42.797 I3.7 J0
G2 X-9.142 Y44.633 I2.116 J0
G3 X-8.716 Y46.711 I-0.703 J1.227
X-20.406 Y42.798 I-5.19 J-3.914
X-7.406 Y42.798 I6.5 J0
X-8.716 Y46.711 I-6.5 J0
G0 Z3
X15.267 Y41.9
Z2
G1 Z-10.2 F700
G3 X12.545 Y42.745 Z-10.592 I-1.361 J0.422 F333.3
X15.267 Y41.9 Z-10.983 I1.361 J-0.422
X12.545 Y42.745 Z-11.375 I-1.361 J0.422
X15.267 Y41.9 Z-11.767 I1.361 J-0.422
X13.906 Y43.747 Z-12 I-1.361 J0.422
X12.956 Y42.798 I0 J-0.95 F700
X13.906 Y41.847 I0.95 J0
X14.856 Y42.798 I0 J0.95
X13.906 Y43.747 I-0.95 J0
G2 X12.342 Y44.562 I0 J1.908
G3 X10.584 Y44.426 I-0.839 J-0.587
X10.206 Y42.798 I3.322 J-1.629
X13.906 Y39.097 I3.7 J0
X17.606 Y42.798 I0 J3.7
X13.906 Y46.497 I-3.7 J0
X10.584 Y44.426 I0 J-3.7
G2 X8.82 Y43.247 I-1.899 J0.931
G3 X7.523 Y41.568 I0.091 J-1.411
X20.406 Y42.798 I6.383 J1.229
X7.406 Y42.798 I-6.5 J0
X7.523 Y41.568 I6.5 J0
G0 Z3
X35.359 Y25.089
Z2
G1 Z-10.2 F700
G3 X36.203 Y27.811 Z-10.592 I0.422 J1.361 F333.3
X35.359 Y25.089 Z-10.983 I-0.422 J-1.361
X36.203 Y27.811 Z-11.375 I0.422 J1.361
X35.359 Y25.089 Z-11.767 I-0.422 J-1.361
X37.206 Y26.45 Z-12 I0.422 J1.361
X35.606 Y26.45 I-0.8 J0 F700
X40.056 Y26.45 I2.225 J0
X32.756 Y26.45 I-3.65 J0
X42.906 Y26.45 I5.075 J0
X29.906 Y26.45 I-6.5 J0
X42.906 Y26.45 I6.5 J0
G0 Z3
X43.953 Y-1.361
Z2
G1 Z-10.2 F700
G3 X44.797 Y1.361 Z-10.592 I0.422 J1.361 F333.3
X43.953 Y-1.361 Z-10.983 I-0.422 J-1.361
X44.797 Y1.361 Z-11.375 I0.422 J1.361
X43.953 Y-1.361 Z-11.767 I-0.422 J-1.361
X45.8 Y0 Z-12 I0.422 J1.361
X44.2 Y0 I-0.8 J0 F700
X48.65 Y0 I2.225 J0
X41.35 Y0 I-3.65 J0
X51.5 Y0 I5.075 J0
X38.5 Y0 I-6.5 J0
X51.5 Y0 I6.5 J0
G0 Z3
X35.359 Y-27.811
Z2
G1 Z-10.2 F700
G3 X36.203 Y-25.089 Z-10.592 I0.422 J1.361 F333.3
X35.359 Y-27.811 Z-10.983 I-0.422 J-1.361
X36.203 Y-25.089 Z-11.375 I0.422 J1.361
X35.359 Y-27.811 Z-11.767 I-0.422 J-1.361
X37.206 Y-26.45 Z-12 I0.422 J1.361
X35.606 Y-26.45 I-0.8 J0 F700
X40.056 Y-26.45 I2.225 J0
X32.756 Y-26.45 I-3.65 J0
X42.906 Y-26.45 I5.075 J0
X29.906 Y-26.45 I-6.5 J0
X42.906 Y-26.45 I6.5 J0
X40.056 Y-26.45 Z-12.25 I-1.425 J0 F333.3
G2 X37.206 Y-26.45 Z-12.5 I-1.425 J0
G3 X35.606 Y-26.45 I-0.8 J0 F700
X40.056 Y-26.45 I2.225 J0
X32.756 Y-26.45 I-3.65 J0
X42.906 Y-26.45 I5.075 J0
X29.906 Y-26.45 I-6.5 J0
X42.906 Y-26.45 I6.5 J0
G0 Z3
X45.601 Y0.726
Z2
G1 Z-11 F700
G3 X43.149 Y-0.726 Z-11.392 I-1.226 J-0.726 F333.3
X45.601 Y0.726 Z-11.783 I1.226 J0.726
X43.149 Y-0.726 Z-12.175 I-1.226 J-0.726
X45.8 Y0 Z-12.5 I1.226 J0.726
X44.2 Y0 I-0.8 J0 F700
X48.65 Y0 I2.225 J0
X41.35 Y0 I-3.65 J0
X51.5 Y0 I5.075 J0
X38.5 Y0 I-6.5 J0
X51.5 Y0 I6.5 J0
G0 Z3
X37.007 Y27.177
Z2
G1 Z-11 F700
G3 X34.555 Y25.724 Z-11.392 I-1.226 J-0.726 F333.3
X37.007 Y27.177 Z-11.783 I1.226 J0.726
X34.555 Y25.724 Z-12.175 I-1.226 J-0.726
X37.206 Y26.45 Z-12.5 I1.226 J0.726
X35.606 Y26.45 I-0.8 J0 F700
X40.056 Y26.45 I2.225 J0
X32.756 Y26.45 I-3.65 J0
X42.906 Y26.45 I5.075 J0
X29.906 Y26.45 I-6.5 J0
X42.906 Y26.45 I6.5 J0
G0 Z3
X13.18 Y43.549
Z2
G1 Z-11 F700
G3 X14.632 Y41.096 Z-11.392 I0.726 J-1.226 F333.3
X13.18 Y43.549 Z-11.783 I-0.726 J1.226
X14.632 Y41.096 Z-12.175 I0.726 J-1.226
X13.906 Y43.747 Z-12.5 I-0.726 J1.226
X12.956 Y42.798 I0 J-0.95 F700
X13.906 Y41.847 I0.95 J0
X14.856 Y42.798 I0 J0.95
X13.906 Y43.747 I-0.95 J0
G2 X12.342 Y44.562 I0 J1.908
G3 X10.584 Y44.426 I-0.839 J-0.587
X10.206 Y42.798 I3.322 J-1.629
X13.906 Y39.097 I3.7 J0
X17.606 Y42.798 I0 J3.7
X13.906 Y46.497 I-3.7 J0
X10.584 Y44.426 I0 J-3.7
G2 X8.82 Y43.247 I-1.899 J0.931
G3 X7.523 Y41.568 I0.091 J-1.411
X20.406 Y42.798 I6.383 J1.229
X7.406 Y42.798 I-6.5 J0
X7.523 Y41.568 I6.5 J0
G0 Z3
X-13.255 Y43.524
Z2
G1 Z-11 F700
G3 X-15.707 Y42.071 Z-11.392 I-1.226 J-0.726 F333.3
X-13.255 Y43.524 Z-11.783 I1.226 J0.726
X-15.707 Y42.071 Z-12.175 I-1.226 J-0.726
X-13.056 Y42.797 Z-12.5 I1.226 J0.726
X-14.756 Y42.797 I-0.85 J0 F700
X-10.206 Y42.797 I2.275 J0
X-17.606 Y42.797 I-3.7 J0
X-10.206 Y42.797 I3.7 J0
G2 X-9.142 Y44.633 I2.116 J0
G3 X-8.716 Y46.711 I-0.703 J1.227
X-20.406 Y42.798 I-5.19 J-3.914
X-7.406 Y42.798 I6.5 J0
X-8.716 Y46.711 I-6.5 J0
G0 Z3
X-44.399 Y0.726
Z2
G1 Z-11 F700
G3 X-46.851 Y-0.726 Z-11.392 I-1.226 J-0.726 F333.3
X-44.399 Y0.726 Z-11.783 I1.226 J0.726
X-46.851 Y-0.726 Z-12.175 I-1.226 J-0.726
X-44.2 Y0 Z-12.5 I1.226 J0.726
X-45.8 Y0 I-0.8 J0 F700
X-41.35 Y0 I2.225 J0
X-48.65 Y0 I-3.65 J0
X-38.5 Y0 I5.075 J0
X-51.5 Y0 I-6.5 J0
X-38.5 Y0 I6.5 J0
G0 Z3
X-35.805 Y-25.724
Z2
G1 Z-11 F700
G3 X-38.257 Y-27.177 Z-11.392 I-1.226 J-0.726 F333.3
X-35.805 Y-25.724 Z-11.783 I1.226 J0.726
X-38.257 Y-27.177 Z-12.175 I-1.226 J-0.726
X-35.606 Y-26.45 Z-12.5 I1.226 J0.726
X-37.206 Y-26.45 I-0.8 J0 F700
X-32.756 Y-26.45 I2.225 J0
X-40.056 Y-26.45 I-3.65 J0
X-29.906 Y-26.45 I5.075 J0
X-42.906 Y-26.45 I-6.5 J0
X-29.906 Y-26.45 I6.5 J0
G0 Z3
X-13.18 Y-43.549
Z2
G1 Z-11 F700
G3 X-14.632 Y-41.096 Z-11.392 I-0.726 J1.226 F333.3
X-13.18 Y-43.549 Z-11.783 I0.726 J-1.226
X-14.632 Y-41.096 Z-12.175 I-0.726 J1.226
X-13.906 Y-43.748 Z-12.5 I0.726 J-1.226
X-12.956 Y-42.798 I0 J0.95 F700
X-13.906 Y-41.847 I-0.95 J0
X-14.856 Y-42.798 I0 J-0.95
X-13.906 Y-43.748 I0.95 J0
G2 X-12.342 Y-44.562 I0 J-1.908
G3 X-10.584 Y-44.427 I0.839 J0.587
X-10.206 Y-42.798 I-3.322 J1.629
X-13.906 Y-39.097 I-3.7 J0
X-17.606 Y-42.798 I0 J-3.7
X-13.906 Y-46.498 I3.7 J0
X-10.584 Y-44.427 I0 J3.7
G2 X-8.82 Y-43.247 I1.899 J-0.931
G3 X-7.523 Y-41.568 I-0.091 J1.411
X-20.406 Y-42.798 I-6.383 J-1.229
X-7.406 Y-42.798 I6.5 J0
X-7.523 Y-41.568 I-6.5 J0
X-9.06 Y-40.42 Z-12.592 I-1.399 J-0.269 F333.3
G1 X-14.044 Y-40.904 Z-12.811
G3 X-13.906 Y-43.748 Z-13 I0.138 J-1.418
X-12.956 Y-42.798 I0 J0.95 F700
X-13.906 Y-41.847 I-0.95 J0
X-14.856 Y-42.798 I0 J-0.95
X-13.906 Y-43.748 I0.95 J0
G2 X-12.342 Y-44.562 I0 J-1.908
G3 X-10.584 Y-44.427 I0.839 J0.587
X-10.206 Y-42.798 I-3.322 J1.629
X-13.906 Y-39.097 I-3.7 J0
X-17.606 Y-42.798 I0 J-3.7
X-13.906 Y-46.498 I3.7 J0
X-10.584 Y-44.427 I0 J3.7
G2 X-8.82 Y-43.247 I1.899 J-0.931
G3 X-7.523 Y-41.568 I-0.091 J1.411
X-20.406 Y-42.798 I-6.383 J-1.229
X-7.406 Y-42.798 I6.5 J0
X-7.523 Y-41.568 I-6.5 J0
G0 Z3
X-35.805 Y-25.724
Z2
G1 Z-11.5 F700
G3 X-38.257 Y-27.177 Z-11.892 I-1.226 J-0.726 F333.3
X-35.805 Y-25.724 Z-12.283 I1.226 J0.726
X-38.257 Y-27.177 Z-12.675 I-1.226 J-0.726
X-35.606 Y-26.45 Z-13 I1.226 J0.726
X-37.206 Y-26.45 I-0.8 J0 F700
X-32.756 Y-26.45 I2.225 J0
X-40.056 Y-26.45 I-3.65 J0
X-29.906 Y-26.45 I5.075 J0
X-42.906 Y-26.45 I-6.5 J0
X-29.906 Y-26.45 I6.5 J0
G0 Z3
X-44.399 Y0.726
Z2
G1 Z-11.5 F700
G3 X-46.851 Y-0.726 Z-11.892 I-1.226 J-0.726 F333.3
X-44.399 Y0.726 Z-12.283 I1.226 J0.726
X-46.851 Y-0.726 Z-12.675 I-1.226 J-0.726
X-44.2 Y0 Z-13 I1.226 J0.726
X-45.8 Y0 I-0.8 J0 F700
X-41.35 Y0 I2.225 J0
X-48.65 Y0 I-3.65 J0
X-38.5 Y0 I5.075 J0
X-51.5 Y0 I-6.5 J0
X-38.5 Y0 I6.5 J0
G0 Z3
X-13.255 Y43.524
Z2
G1 Z-11.5 F700
G3 X-15.707 Y42.071 Z-11.892 I-1.226 J-0.726 F333.3
X-13.255 Y43.524 Z-12.283 I1.226 J0.726
X-15.707 Y42.071 Z-12.675 I-1.226 J-0.726
X-13.056 Y42.797 Z-13 I1.226 J0.726
X-14.756 Y42.797 I-0.85 J0 F700
X-10.206 Y42.797 I2.275 J0
X-17.606 Y42.797 I-3.7 J0
X-10.206 Y42.797 I3.7 J0
G2 X-9.142 Y44.633 I2.116 J0
G3 X-8.716 Y46.711 I-0.703 J1.227
X-20.406 Y42.798 I-5.19 J-3.914
X-7.406 Y42.798 I6.5 J0
X-8.716 Y46.711 I-6.5 J0
G0 Z3
X13.18 Y43.549
Z2
G1 Z-11.5 F700
G3 X14.632 Y41.096 Z-11.892 I0.726 J-1.226 F333.3
X13.18 Y43.549 Z-12.283 I-0.726 J1.226
X14.632 Y41.096 Z-12.675 I0.726 J-1.226
X13.906 Y43.747 Z-13 I-0.726 J1.226
X12.956 Y42.798 I0 J-0.95 F700
X13.906 Y41.847 I0.95 J0
X14.856 Y42.798 I0 J0.95
X13.906 Y43.747 I-0.95 J0
G2 X12.342 Y44.562 I0 J1.908
G3 X10.584 Y44.426 I-0.839 J-0.587
X10.206 Y42.798 I3.322 J-1.629
X13.906 Y39.097 I3.7 J0
X17.606 Y42.798 I0 J3.7
X13.906 Y46.497 I-3.7 J0
X10.584 Y44.426 I0 J-3.7
G2 X8.82 Y43.247 I-1.899 J0.931
G3 X7.523 Y41.568 I0.091 J-1.411
X20.406 Y42.798 I6.383 J1.229
X7.406 Y42.798 I-6.5 J0
X7.523 Y41.568 I6.5 J0
G0 Z3
X37.007 Y27.177
Z2
G1 Z-11.5 F700
G3 X34.555 Y25.724 Z-11.892 I-1.226 J-0.726 F333.3
X37.007 Y27.177 Z-12.283 I1.226 J0.726
X34.555 Y25.724 Z-12.675 I-1.226 J-0.726
X37.206 Y26.45 Z-13 I1.226 J0.726
X35.606 Y26.45 I-0.8 J0 F700
X40.056 Y26.45 I2.225 J0
X32.756 Y26.45 I-3.65 J0
X42.906 Y26.45 I5.075 J0
X29.906 Y26.45 I-6.5 J0
X42.906 Y26.45 I6.5 J0
G0 Z3
X45.601 Y0.726
Z2
G1 Z-11.5 F700
G3 X43.149 Y-0.726 Z-11.892 I-1.226 J-0.726 F333.3
X45.601 Y0.726 Z-12.283 I1.226 J0.726
X43.149 Y-0.726 Z-12.675 I-1.226 J-0.726
X45.8 Y0 Z-13 I1.226 J0.726
X44.2 Y0 I-0.8 J0 F700
X48.65 Y0 I2.225 J0
X41.35 Y0 I-3.65 J0
X51.5 Y0 I5.075 J0
X38.5 Y0 I-6.5 J0
X51.5 Y0 I6.5 J0
G0 Z3
X37.007 Y-25.724
Z2
G1 Z-11.5 F700
G3 X34.555 Y-27.177 Z-11.892 I-1.226 J-0.726 F333.3
X37.007 Y-25.724 Z-12.283 I1.226 J0.726
X34.555 Y-27.177 Z-12.675 I-1.226 J-0.726
X37.206 Y-26.45 Z-13 I1.226 J0.726
X35.606 Y-26.45 I-0.8 J0 F700
X40.056 Y-26.45 I2.225 J0
X32.756 Y-26.45 I-3.65 J0
X42.906 Y-26.45 I5.075 J0
X29.906 Y-26.45 I-6.5 J0
X42.906 Y-26.45 I6.5 J0
G0 Z5
X-0.01 Y1
Z2
G1 Z1.5 F700
Z-0.8 F333.3
G3 X-0.866 Y-0.5 I0.01 J-1 F700
G1 X0.866
G3 X-0.01 Y1 I-0.866 J0.5
X-0.866 Y-0.5 Z-0.982 I0.01 J-1 F333.3
G1 X0.866 Z-1.134
G3 X-0.866 Y0.5 Z-1.409 I-0.866 J0.5
X-0.866 Y-0.5 Z-1.5 I0.866 J-0.5
G1 X0.273 Z-1.6
X0.866 F700
G3 X-0.866 Y0.5 I-0.866 J0.5
X-0.866 Y-0.5 I0.866 J-0.5
G1 X0.273
X0.866 Z-1.652 F333.3
G3 X-0.866 Y0.5 Z-1.927 I-0.866 J0.5
X-0.866 Y-0.5 Z-2.018 I0.866 J-0.5
G1 X0.866 Z-2.17
G3 X-0.51 Y0.86 Z-2.4 I-0.866 J0.5
X-0.866 Y-0.5 I0.51 J-0.86 F700
G1 X0.273
X0.866
G3 X-0.51 Y0.86 I-0.866 J0.5
X-0.866 Y-0.5 Z-2.536 I0.51 J-0.86 F333.3
G1 X0.866 Z-2.688
G3 X-0.866 Y0.5 Z-2.963 I-0.866 J0.5
X-0.866 Y-0.5 Z-3.054 I0.866 J-0.5
G1 X0.798 Z-3.2
X0.866 F700
G3 X-0.866 Y0.5 I-0.866 J0.5
X-0.866 Y-0.5 I0.866 J-0.5
G1 X0.798
X0.866 Z-3.206 F333.3
G3 X-0.866 Y0.5 Z-3.481 I-0.866 J0.5
X-0.866 Y-0.5 Z-3.572 I0.866 J-0.5
G1 X0.866 Z-3.724
G3 X0.494 Y0.87 Z-3.862 I-0.866 J0.5
X-0.873 Y0.488 Z-4 I-0.494 J-0.87
X-0.866 Y-0.5 I0.873 J-0.488 F700
G1 X0.798
X0.866
G3 X0.494 Y0.87 I-0.866 J0.5
X-0.873 Y0.488 I-0.494 J-0.87
X-0.866 Y-0.5 Z-4.09 I0.873 J-0.488 F333.3
G1 X0.866 Z-4.242
G3 X-0.866 Y0.5 Z-4.517 I-0.866 J0.5
X-0.866 Y-0.5 Z-4.608 I0.866 J-0.5
G1 X0.866 Z-4.76
G3 X0.998 Y-0.066 Z-4.8 I-0.866 J0.5
X-0.998 Y0.066 I-0.998 J0.066 F700
X-0.866 Y-0.5 I0.998 J-0.066
G1 X0.866
G3 X0.998 Y-0.066 I-0.866 J0.5
X-0.998 Y0.066 Z-5.075 I-0.998 J0.066 F333.3
X-0.866 Y-0.5 Z-5.126 I0.998 J-0.066
G1 X0.866 Z-5.278
G3 X-0.866 Y0.5 Z-5.553 I-0.866 J0.5
X-1 Y-0.016 Z-5.6 I0.866 J-0.5
X-0.866 Y-0.5 I1 J0.016 F700
G1 X0.866
G3 X-0.866 Y0.5 I-0.866 J0.5
X-1 Y-0.016 I0.866 J-0.5
X-0.866 Y-0.5 Z-5.644 I1 J0.016 F333.3
G1 X0.866 Z-5.796
G3 X-0.866 Y0.5 Z-6.071 I-0.866 J0.5
X-0.866 Y-0.5 Z-6.162 I0.866 J-0.5
G1 X0.866 Z-6.314
G3 X0.896 Y0.444 Z-6.4 I-0.866 J0.5
X-0.472 Y0.882 I-0.896 J-0.444 F700
X-0.866 Y-0.5 I0.472 J-0.882
G1 X0.866
G3 X0.896 Y0.444 I-0.866 J0.5
X-0.472 Y0.882 Z-6.54 I-0.896 J-0.444 F333.3
X-0.866 Y-0.5 Z-6.68 I0.472 J-0.882
G1 X0.866 Z-6.832
G3 X-0.866 Y0.5 Z-7.107 I-0.866 J0.5
X-0.866 Y-0.5 Z-7.198 I0.866 J-0.5
G1 X-0.848 Z-7.2
X0.866 F700
G3 X-0.866 Y0.5 I-0.866 J0.5
X-0.866 Y-0.5 I0.866 J-0.5
G1 X-0.848
X0.866 Z-7.35 F333.3
G3 X-0.866 Y0.5 Z-7.625 I-0.866 J0.5
X-0.866 Y-0.5 Z-7.716 I0.866 J-0.5
G1 X0.866 Z-7.868
G3 X0.552 Y0.834 Z-8 I-0.866 J0.5
X-0.866 Y-0.5 I-0.552 J-0.834 F700
G1 X0.866
G3 X0.552 Y0.834 I-0.866 J0.5
X-0.866 Y-0.5 Z-8.234 I-0.552 J-0.834 F333.3
G1 X0.866 Z-8.386
G3 X-0.866 Y0.5 Z-8.661 I-0.866 J0.5
X-0.866 Y-0.5 Z-8.752 I0.866 J-0.5
G1 X-0.323 Z-8.8
X0.866 F700
G3 X-0.866 Y0.5 I-0.866 J0.5
X-0.866 Y-0.5 I0.866 J-0.5
G1 X-0.323
X0.866 Z-8.904 F333.3
G3 X-0.866 Y0.5 Z-9.179 I-0.866 J0.5
X-0.866 Y-0.5 Z-9.27 I0.866 J-0.5
G1 X0.866 Z-9.422
G3 X0.06 Y0.998 Z-9.6 I-0.866 J0.5
X-0.866 Y-0.5 I-0.06 J-0.998 F700
G1 X0.866
G3 X0.06 Y0.998 I-0.866 J0.5
X-0.866 Y-0.5 Z-9.788 I-0.06 J-0.998 F333.3
G1 X0.866 Z-9.94
G3 X-0.866 Y0.5 Z-10.215 I-0.866 J0.5
X-0.866 Y-0.5 Z-10.306 I0.866 J-0.5
G1 X0.203 Z-10.4
X0.866 F700
G3 X-0.866 Y0.5 I-0.866 J0.5
X-0.866 Y-0.5 I0.866 J-0.5
