(1001)
(Machine)
(  vendor: Autodesk)
(  description: Generic 3-axis)
(T1  D=3 CR=0 - ZMIN=-7.7 - flat end mill)
G90 G94
G17
G21

(2D Pocket3)
T1
S10000 M3
G54
M8
G0 X52.377 Y54.899
Z15
Z5
G1 Z1.5 F1000
Z-0.2
X52.37 Y54.902 Z-0.267
X52.35 Y54.911 Z-0.33
X52.317 Y54.926 Z-0.387
X52.274 Y54.945 Z-0.435
X52.222 Y54.968 Z-0.47
X52.164 Y54.994 Z-0.492
X52.103 Y55.021 Z-0.5
G3 X50.909 Y54.958 I-0.535 J-1.203
G1 X49.828 Y54.334
G3 X49.476 Y53.725 I0.352 J-0.61
G1 Y51.228
G3 X49.828 Y50.618 I0.704 J0
G1 X51.99 Y49.37
G3 X52.694 Y49.37 I0.352 J0.61
G1 X54.856 Y50.618
G3 X55.208 Y51.228 I-0.352 J0.61
G1 Y53.725
G3 X54.856 Y54.334 I-0.704 J0
G1 X52.694 Y55.582
G3 X51.99 Y55.582 I-0.352 J-0.61
G1 X50.909 Y54.958
G2 X48.865 Y55.462 I-0.76 J1.316
G3 X46.842 Y54.876 I-0.926 J-0.586
G1 Y49.301
X52.342 Y46.126
X57.842 Y49.301
Y55.652
X52.342 Y58.827
X46.842 Y55.652
Y54.876
X46.847 Y54.838
X46.863 Y54.802
X46.887 Y54.772
X46.919 Y54.75
X46.955 Y54.737
X47.512 Y54.623
X47.548 Y54.61
X47.58 Y54.588
X51.964 Y50.545
X51.982 Y50.52
X51.989 Y50.49
X51.995 Y50.242
X52.001 Y50.213
X52.017 Y50.189
X52.041 Y50.172
X52.095 Y50.148 Z-0.506
X52.148 Y50.125 Z-0.524
X52.196 Y50.103 Z-0.553
X52.238 Y50.085 Z-0.591
X52.272 Y50.07 Z-0.639
X52.297 Y50.059 Z-0.692
X52.311 Y50.052 Z-0.75
X52.326 Y50.046 Z-0.808
X52.35 Y50.035 Z-0.861
X52.384 Y50.02 Z-0.909
X52.426 Y50.001 Z-0.947
X52.474 Y49.979 Z-0.976
X52.527 Y49.956 Z-0.994
X52.581 Y49.932 Z-1
G3 X53.775 Y49.994 I0.535 J1.203
G1 X54.856 Y50.618
G3 X55.208 Y51.228 I-0.352 J0.61
G1 Y53.725
G3 X54.856 Y54.334 I-0.704 J0
G1 X52.694 Y55.582
G3 X51.99 Y55.582 I-0.352 J-0.61
G1 X49.828 Y54.334
G3 X49.476 Y53.725 I0.352 J-0.61
G1 Y51.228
G3 X49.828 Y50.618 I0.704 J0
G1 X51.99 Y49.37
G3 X52.694 Y49.37 I0.352 J0.61
G1 X53.775 Y49.994
G2 X55.82 Y49.491 I0.76 J-1.316
G3 X57.842 Y50.077 I0.926 J0.586
G1 Y55.652
X52.342 Y58.827
X46.842 Y55.652
Y49.301
X52.342 Y46.126
X57.842 Y49.301
Y50.077
X57.836 Y50.117
X57.819 Y50.154
X57.792 Y50.185
X57.757 Y50.207
X57.717 Y50.217
X57.676 Y50.216
X56.993 Y50.101
X52.37 Y50.373
X52.059 Y50.321
X52.029 Y50.308
X52.006 Y50.285
X51.995 Y50.253
X51.998 Y50.221
X52.014 Y50.192
X52.041 Y50.172
X52.095 Y50.148 Z-1.006
X52.148 Y50.125 Z-1.024
X52.196 Y50.103 Z-1.053
X52.238 Y50.085 Z-1.091
X52.272 Y50.07 Z-1.139
X52.297 Y50.059 Z-1.192
X52.311 Y50.052 Z-1.25
X52.326 Y50.046 Z-1.308
X52.35 Y50.035 Z-1.361
X52.384 Y50.02 Z-1.409
X52.426 Y50.001 Z-1.447
X52.474 Y49.979 Z-1.476
X52.527 Y49.956 Z-1.494
X52.581 Y49.932 Z-1.5
G3 X53.775 Y49.994 I0.535 J1.203
G1 X54.856 Y50.618
G3 X55.208 Y51.228 I-0.352 J0.61
G1 Y53.725
G3 X54.856 Y54.334 I-0.704 J0
G1 X52.694 Y55.582
G3 X51.99 Y55.582 I-0.352 J-0.61
G1 X49.828 Y54.334
G3 X49.476 Y53.725 I0.352 J-0.61
G1 Y51.228
G3 X49.828 Y50.618 I0.704 J0
G1 X51.99 Y49.37
G3 X52.694 Y49.37 I0.352 J0.61
G1 X53.775 Y49.994
G2 X55.82 Y49.491 I0.76 J-1.316
G3 X57.842 Y50.077 I0.926 J0.586
G1 Y55.652
X52.342 Y58.827
X46.842 Y55.652
Y49.301
X52.342 Y46.126
X57.842 Y49.301
Y50.077
X57.836 Y50.117
X57.819 Y50.154
X57.792 Y50.185
X57.757 Y50.207
X57.717 Y50.217
X57.676 Y50.216
X56.993 Y50.101
X52.37 Y50.373
X52.059 Y50.321
X52.029 Y50.308
X52.006 Y50.285
X51.995 Y50.253
X51.998 Y50.221
X52.014 Y50.192
X52.041 Y50.172
X52.095 Y50.148 Z-1.506
X52.148 Y50.125 Z-1.524
X52.196 Y50.103 Z-1.553
X52.238 Y50.085 Z-1.591
X52.272 Y50.07 Z-1.639
X52.297 Y50.059 Z-1.692
X52.311 Y50.052 Z-1.75
X52.326 Y50.046 Z-1.808
X52.35 Y50.035 Z-1.861
X52.384 Y50.02 Z-1.909
X52.426 Y50.001 Z-1.947
X52.474 Y49.979 Z-1.976
X52.527 Y49.956 Z-1.994
X52.581 Y49.932 Z-2
G3 X53.775 Y49.994 I0.535 J1.203
G1 X54.856 Y50.618
G3 X55.208 Y51.228 I-0.352 J0.61
G1 Y53.725
G3 X54.856 Y54.334 I-0.704 J0
G1 X52.694 Y55.582
G3 X51.99 Y55.582 I-0.352 J-0.61
G1 X49.828 Y54.334
G3 X49.476 Y53.725 I0.352 J-0.61
G1 Y51.228
G3 X49.828 Y50.618 I0.704 J0
G1 X51.99 Y49.37
G3 X52.694 Y49.37 I0.352 J0.61
G1 X53.775 Y49.994
G2 X55.82 Y49.491 I0.76 J-1.316
G3 X57.842 Y50.077 I0.926 J0.586
G1 Y55.652
X52.342 Y58.827
X46.842 Y55.652
Y49.301
X52.342 Y46.126
X57.842 Y49.301
Y50.077
X57.836 Y50.117
X57.819 Y50.154
X57.792 Y50.185
X57.757 Y50.207
X57.717 Y50.217
X57.676 Y50.216
X56.993 Y50.101
X52.37 Y50.373
X52.059 Y50.321
X52.029 Y50.308
X52.006 Y50.285
X51.995 Y50.253
X51.998 Y50.221
X52.014 Y50.192
X52.041 Y50.172
X52.095 Y50.148 Z-2.006
X52.148 Y50.125 Z-2.024
X52.196 Y50.103 Z-2.053
X52.238 Y50.085 Z-2.091
X52.272 Y50.07 Z-2.139
X52.297 Y50.059 Z-2.192
X52.311 Y50.052 Z-2.25
X52.326 Y50.046 Z-2.308
X52.35 Y50.035 Z-2.361
X52.384 Y50.02 Z-2.409
X52.426 Y50.001 Z-2.447
X52.474 Y49.979 Z-2.476
X52.527 Y49.956 Z-2.494
X52.581 Y49.932 Z-2.5
G3 X53.775 Y49.994 I0.535 J1.203
G1 X54.856 Y50.618
G3 X55.208 Y51.228 I-0.352 J0.61
G1 Y53.725
G3 X54.856 Y54.334 I-0.704 J0
G1 X52.694 Y55.582
G3 X51.99 Y55.582 I-0.352 J-0.61
G1 X49.828 Y54.334
G3 X49.476 Y53.725 I0.352 J-0.61
G1 Y51.228
G3 X49.828 Y50.618 I0.704 J0
G1 X51.99 Y49.37
G3 X52.694 Y49.37 I0.352 J0.61
G1 X53.775 Y49.994
G2 X55.82 Y49.491 I0.76 J-1.316
G3 X57.842 Y50.077 I0.926 J0.586
G1 Y55.652
X52.342 Y58.827
X46.842 Y55.652
Y49.301
X52.342 Y46.126
X57.842 Y49.301
Y50.077
X57.836 Y50.117
X57.819 Y50.154
X57.792 Y50.185
X57.757 Y50.207
X57.717 Y50.217
X57.676 Y50.216
X56.993 Y50.101
X52.37 Y50.373
X52.059 Y50.321
X52.029 Y50.308
X52.006 Y50.285
X51.995 Y50.253
X51.998 Y50.221
X52.014 Y50.192
X52.041 Y50.172
X52.095 Y50.148 Z-2.506
X52.148 Y50.125 Z-2.524
X52.196 Y50.103 Z-2.553
X52.238 Y50.085 Z-2.591
X52.272 Y50.07 Z-2.639
X52.297 Y50.059 Z-2.692
X52.311 Y50.052 Z-2.75
X52.326 Y50.046 Z-2.808
X52.35 Y50.035 Z-2.861
X52.384 Y50.02 Z-2.909
X52.426 Y50.001 Z-2.947
X52.474 Y49.979 Z-2.976
X52.527 Y49.956 Z-2.994
X52.581 Y49.932 Z-3
G3 X53.775 Y49.994 I0.535 J1.203
G1 X54.856 Y50.618
G3 X55.208 Y51.228 I-0.352 J0.61
G1 Y53.725
G3 X54.856 Y54.334 I-0.704 J0
G1 X52.694 Y55.582
G3 X51.99 Y55.582 I-0.352 J-0.61
G1 X49.828 Y54.334
G3 X49.476 Y53.725 I0.352 J-0.61
G1 Y51.228
G3 X49.828 Y50.618 I0.704 J0
G1 X51.99 Y49.37
G3 X52.694 Y49.37 I0.352 J0.61
G1 X53.775 Y49.994
G2 X55.82 Y49.491 I0.76 J-1.316
G3 X57.842 Y50.077 I0.926 J0.586
G1 Y55.652
X52.342 Y58.827
X46.842 Y55.652
Y49.301
X52.342 Y46.126
X57.842 Y49.301
Y50.077
X57.836 Y50.117
X57.819 Y50.154
X57.792 Y50.185
X57.757 Y50.207
X57.717 Y50.217
X57.676 Y50.216
X56.993 Y50.101
X52.37 Y50.373
X52.059 Y50.321
X52.029 Y50.308
X52.006 Y50.285
X51.995 Y50.253
X51.998 Y50.221
X52.014 Y50.192
X52.041 Y50.172
X52.095 Y50.148 Z-3.006
X52.148 Y50.125 Z-3.024
X52.196 Y50.103 Z-3.053
X52.238 Y50.085 Z-3.091
X52.272 Y50.07 Z-3.139
X52.297 Y50.059 Z-3.192
X52.311 Y50.052 Z-3.25
X52.326 Y50.046 Z-3.308
X52.35 Y50.035 Z-3.361
X52.384 Y50.02 Z-3.409
X52.426 Y50.001 Z-3.447
X52.474 Y49.979 Z-3.476
X52.527 Y49.956 Z-3.494
X52.581 Y49.932 Z-3.5
G3 X53.775 Y49.994 I0.535 J1.203
G1 X54.856 Y50.618
G3 X55.208 Y51.228 I-0.352 J0.61
G1 Y53.725
G3 X54.856 Y54.334 I-0.704 J0
G1 X52.694 Y55.582
G3 X51.99 Y55.582 I-0.352 J-0.61
G1 X49.828 Y54.334
G3 X49.476 Y53.725 I0.352 J-0.61
G1 Y51.228
G3 X49.828 Y50.618 I0.704 J0
G1 X51.99 Y49.37
G3 X52.694 Y49.37 I0.352 J0.61
G1 X53.775 Y49.994
G2 X55.82 Y49.491 I0.76 J-1.316
G3 X57.842 Y50.077 I0.926 J0.586
G1 Y55.652
X52.342 Y58.827
X46.842 Y55.652
Y49.301
X52.342 Y46.126
X57.842 Y49.301
Y50.077
X57.836 Y50.117
X57.819 Y50.154
X57.792 Y50.185
X57.757 Y50.207
X57.717 Y50.217
X57.676 Y50.216
X56.993 Y50.101
X52.37 Y50.373
X52.059 Y50.321
X52.029 Y50.308
X52.006 Y50.285
X51.995 Y50.253
X51.998 Y50.221
X52.014 Y50.192
X52.041 Y50.172
X52.095 Y50.148 Z-3.506
X52.148 Y50.125 Z-3.524
X52.196 Y50.103 Z-3.553
X52.238 Y50.085 Z-3.591
X52.272 Y50.07 Z-3.639
X52.297 Y50.059 Z-3.692
X52.311 Y50.052 Z-3.75
X52.326 Y50.046 Z-3.808
X52.35 Y50.035 Z-3.861
X52.384 Y50.02 Z-3.909
X52.426 Y50.001 Z-3.947
X52.474 Y49.979 Z-3.976
X52.527 Y49.956 Z-3.994
X52.581 Y49.932 Z-4
G3 X53.775 Y49.994 I0.535 J1.203
G1 X54.856 Y50.618
G3 X55.208 Y51.228 I-0.352 J0.61
G1 Y53.725
G3 X54.856 Y54.334 I-0.704 J0
G1 X52.694 Y55.582
G3 X51.99 Y55.582 I-0.352 J-0.61
G1 X49.828 Y54.334
G3 X49.476 Y53.725 I0.352 J-0.61
G1 Y51.228
G3 X49.828 Y50.618 I0.704 J0
G1 X51.99 Y49.37
G3 X52.694 Y49.37 I0.352 J0.61
G1 X53.775 Y49.994
G2 X55.82 Y49.491 I0.76 J-1.316
G3 X57.842 Y50.077 I0.926 J0.586
G1 Y55.652
X52.342 Y58.827
X46.842 Y55.652
Y49.301
X52.342 Y46.126
X57.842 Y49.301
Y50.077
X57.836 Y50.117
X57.819 Y50.154
X57.792 Y50.185
X57.757 Y50.207
X57.717 Y50.217
X57.676 Y50.216
X56.993 Y50.101
X52.37 Y50.373
X52.059 Y50.321
X52.029 Y50.308
X52.006 Y50.285
X51.995 Y50.253
X51.998 Y50.221
X52.014 Y50.192
X52.041 Y50.172
X52.095 Y50.148 Z-4.006
X52.148 Y50.125 Z-4.024
X52.196 Y50.103 Z-4.053
X52.238 Y50.085 Z-4.091
X52.272 Y50.07 Z-4.139
X52.297 Y50.059 Z-4.192
X52.311 Y50.052 Z-4.25
X52.326 Y50.046 Z-4.308
X52.35 Y50.035 Z-4.361
X52.384 Y50.02 Z-4.409
X52.426 Y50.001 Z-4.447
X52.474 Y49.979 Z-4.476
X52.527 Y49.956 Z-4.494
X52.581 Y49.932 Z-4.5
G3 X53.775 Y49.994 I0.535 J1.203
G1 X54.856 Y50.618
G3 X55.208 Y51.228 I-0.352 J0.61
G1 Y53.725
G3 X54.856 Y54.334 I-0.704 J0
G1 X52.694 Y55.582
G3 X51.99 Y55.582 I-0.352 J-0.61
G1 X49.828 Y54.334
G3 X49.476 Y53.725 I0.352 J-0.61
G1 Y51.228
G3 X49.828 Y50.618 I0.704 J0
G1 X51.99 Y49.37
G3 X52.694 Y49.37 I0.352 J0.61
G1 X53.775 Y49.994
G2 X55.82 Y49.491 I0.76 J-1.316
G3 X57.842 Y50.077 I0.926 J0.586
G1 Y55.652
X52.342 Y58.827
X46.842 Y55.652
Y49.301
X52.342 Y46.126
X57.842 Y49.301
Y50.077
X57.836 Y50.117
X57.819 Y50.154
X57.792 Y50.185
X57.757 Y50.207
X57.717 Y50.217
X57.676 Y50.216
X56.993 Y50.101
X52.37 Y50.373
X52.059 Y50.321
X52.029 Y50.308
X52.006 Y50.285
X51.995 Y50.253
X51.998 Y50.221
X52.014 Y50.192
X52.041 Y50.172
X52.095 Y50.148 Z-4.506
X52.148 Y50.125 Z-4.524
X52.196 Y50.103 Z-4.553
X52.238 Y50.085 Z-4.591
X52.272 Y50.07 Z-4.639
X52.297 Y50.059 Z-4.692
X52.311 Y50.052 Z-4.75
X52.326 Y50.046 Z-4.808
X52.35 Y50.035 Z-4.861
X52.384 Y50.02 Z-4.909
X52.426 Y50.001 Z-4.947
X52.474 Y49.979 Z-4.976
X52.527 Y49.956 Z-4.994
X52.581 Y49.932 Z-5
G3 X53.775 Y49.994 I0.535 J1.203
G1 X54.856 Y50.618
G3 X55.208 Y51.228 I-0.352 J0.61
G1 Y53.725
G3 X54.856 Y54.334 I-0.704 J0
G1 X52.694 Y55.582
G3 X51.99 Y55.582 I-0.352 J-0.61
G1 X49.828 Y54.334
G3 X49.476 Y53.725 I0.352 J-0.61
G1 Y51.228
G3 X49.828 Y50.618 I0.704 J0
G1 X51.99 Y49.37
G3 X52.694 Y49.37 I0.352 J0.61
G1 X53.775 Y49.994
G2 X55.82 Y49.491 I0.76 J-1.316
G3 X57.842 Y50.077 I0.926 J0.586
G1 Y55.652
X52.342 Y58.827
X46.842 Y55.652
Y49.301
X52.342 Y46.126
X57.842 Y49.301
Y50.077
X57.836 Y50.117
X57.819 Y50.154
X57.792 Y50.185
X57.757 Y50.207
X57.717 Y50.217
X57.676 Y50.216
X56.993 Y50.101
X52.37 Y50.373
X52.059 Y50.321
X52.029 Y50.308
X52.006 Y50.285
X51.995 Y50.253
X51.998 Y50.221
X52.014 Y50.192
X52.041 Y50.172
X52.095 Y50.148 Z-5.006
X52.148 Y50.125 Z-5.024
X52.196 Y50.103 Z-5.053
X52.238 Y50.085 Z-5.091
X52.272 Y50.07 Z-5.139
X52.297 Y50.059 Z-5.192
X52.311 Y50.052 Z-5.25
X52.326 Y50.046 Z-5.308
X52.35 Y50.035 Z-5.361
X52.384 Y50.02 Z-5.409
X52.426 Y50.001 Z-5.447
X52.474 Y49.979 Z-5.476
X52.527 Y49.956 Z-5.494
X52.581 Y49.932 Z-5.5
G3 X53.775 Y49.994 I0.535 J1.203
G1 X54.856 Y50.618
G3 X55.208 Y51.228 I-0.352 J0.61
G1 Y53.725
G3 X54.856 Y54.334 I-0.704 J0
G1 X52.694 Y55.582
G3 X51.99 Y55.582 I-0.352 J-0.61
G1 X49.828 Y54.334
G3 X49.476 Y53.725 I0.352 J-0.61
G1 Y51.228
G3 X49.828 Y50.618 I0.704 J0
G1 X51.99 Y49.37
G3 X52.694 Y49.37 I0.352 J0.61
G1 X53.775 Y49.994
G2 X55.82 Y49.491 I0.76 J-1.316
G3 X57.842 Y50.077 I0.926 J0.586
G1 Y55.652
X52.342 Y58.827
X46.842 Y55.652
Y49.301
X52.342 Y46.126
X57.842 Y49.301
Y50.077
G3 X56.906 Y51.357 Z-5.545 I-1.343 J0 F333.3
G1 X53.511 Y52.438 Z-5.639
G3 X52.696 Y49.878 Z-5.75 I-0.408 J-1.28
X53.775 Y49.994 Z-5.78 I0.408 J1.28
G1 X54.856 Y50.618 F1000
G3 X55.208 Y51.228 I-0.352 J0.61
G1 Y53.725
G3 X54.856 Y54.334 I-0.704 J0
G1 X52.694 Y55.582
G3 X51.99 Y55.582 I-0.352 J-0.61
G1 X49.828 Y54.334
G3 X49.476 Y53.725 I0.352 J-0.61
G1 Y51.228
G3 X49.828 Y50.618 I0.704 J0
G1 X51.99 Y49.37
G3 X52.694 Y49.37 I0.352 J0.61
G1 X53.775 Y49.994
G2 X55.82 Y49.491 I0.76 J-1.316
G3 X57.842 Y50.077 I0.926 J0.586
G1 Y55.652
X52.342 Y58.827
X46.842 Y55.652
Y49.301
X52.342 Y46.126
X57.842 Y49.301
Y50.077
G3 X56.906 Y51.357 Z-5.825 I-1.343 J0 F333.3
G1 X53.511 Y52.438 Z-5.919
G3 X52.696 Y49.878 Z-6.03 I-0.408 J-1.28
X53.775 Y49.994 Z-6.06 I0.408 J1.28
G1 X54.856 Y50.618 F1000
G3 X55.208 Y51.228 I-0.352 J0.61
G1 Y53.725
G3 X54.856 Y54.334 I-0.704 J0
G1 X52.694 Y55.582
G3 X51.99 Y55.582 I-0.352 J-0.61
G1 X49.828 Y54.334
G3 X49.476 Y53.725 I0.352 J-0.61
G1 Y51.228
G3 X49.828 Y50.618 I0.704 J0
G1 X51.99 Y49.37
G3 X52.694 Y49.37 I0.352 J0.61
G1 X53.775 Y49.994
G2 X55.82 Y49.491 I0.76 J-1.316
G3 X57.842 Y50.077 I0.926 J0.586
G1 Y55.652
X52.342 Y58.827
X46.842 Y55.652
Y49.301
X52.342 Y46.126
X57.842 Y49.301
Y50.077
X57.837 Y50.134 Z-6.049
X57.82 Y50.189 Z-6.037
X57.799 Y50.232 Z-6.005
X57.77 Y50.271 Z-5.972
X57.723 Y50.316 Z-5.875
X57.704 Y50.329 Z-5.76
G0 Z15
X52.403 Y53.498
Z5
G1 Z2.8 F1000
X52.376 Y53.471 Z2.653 F333.3
X52.305 Y53.393 Z2.544
X52.217 Y53.277 Z2.5
G3 X54.575 Y51.676 Z2.344 I1.179 J-0.801
X52.217 Y53.277 Z2.187 I-1.179 J0.801
X54.575 Y51.676 Z2.031 I1.179 J-0.801
X52.217 Y53.277 Z1.875 I-1.179 J0.801
X54.575 Y51.676 Z1.718 I1.179 J-0.801
X52.217 Y53.277 Z1.562 I-1.179 J0.801
X54.575 Y51.676 Z1.406 I1.179 J-0.801
X52.217 Y53.277 Z1.249 I-1.179 J0.801
X54.575 Y51.676 Z1.093 I1.179 J-0.801
X52.217 Y53.277 Z0.937 I-1.179 J0.801
X54.575 Y51.676 Z0.78 I1.179 J-0.801
X52.217 Y53.277 Z0.624 I-1.179 J0.801
X54.575 Y51.676 Z0.468 I1.179 J-0.801
X52.217 Y53.277 Z0.311 I-1.179 J0.801
X54.575 Y51.676 Z0.155 I1.179 J-0.801
X52.217 Y53.277 Z-0.001 I-1.179 J0.801
X54.575 Y51.676 Z-0.158 I1.179 J-0.801
X52.217 Y53.277 Z-0.314 I-1.179 J0.801
X54.575 Y51.676 Z-0.47 I1.179 J-0.801
X54.821 Y52.476 Z-0.5 I-1.179 J0.801
X52.692 Y52.476 I-1.064 J0
X54.842 Y52.476 I1.075 J0 F1000
X49.842 Y52.476 I-2.5 J0
X54.842 Y52.476 I2.5 J0
G1 X54.836 Y52.526
X54.817 Y52.573
X54.787 Y52.614
X54.749 Y52.646
X54.703 Y52.667
X52.462 Y53.382
X52.413 Y53.391
X52.363 Y53.387
X52.315 Y53.372
X52.273 Y53.345
X52.239 Y53.308
G3 X54.553 Y51.645 Z-0.656 I1.157 J-0.831 F333.3
X52.239 Y53.308 Z-0.813 I-1.157 J0.831
X54.553 Y51.645 Z-0.969 I1.157 J-0.831
X54.821 Y52.476 Z-1 I-1.157 J0.831
X52.692 Y52.476 I-1.064 J0
X54.842 Y52.476 I1.075 J0 F1000
X49.842 Y52.476 I-2.5 J0
X54.842 Y52.476 I2.5 J0
G1 X54.836 Y52.526
X54.817 Y52.573
X54.787 Y52.614
X54.749 Y52.646
X54.703 Y52.667
X52.462 Y53.382
X52.413 Y53.391
X52.363 Y53.387
X52.315 Y53.372
X52.273 Y53.345
X52.239 Y53.308
G3 X54.553 Y51.645 Z-1.156 I1.157 J-0.831 F333.3
X52.239 Y53.308 Z-1.313 I-1.157 J0.831
X54.553 Y51.645 Z-1.469 I1.157 J-0.831
X54.821 Y52.476 Z-1.5 I-1.157 J0.831
X52.692 Y52.476 I-1.064 J0
X54.842 Y52.476 I1.075 J0 F1000
X49.842 Y52.476 I-2.5 J0
X54.842 Y52.476 I2.5 J0
G1 X54.836 Y52.526
X54.817 Y52.573
X54.787 Y52.614
X54.749 Y52.646
X54.703 Y52.667
X52.462 Y53.382
X52.413 Y53.391
X52.363 Y53.387
X52.315 Y53.372
X52.273 Y53.345
X52.239 Y53.308
G3 X54.553 Y51.645 Z-1.656 I1.157 J-0.831 F333.3
X52.239 Y53.308 Z-1.813 I-1.157 J0.831
X54.553 Y51.645 Z-1.969 I1.157 J-0.831
X54.821 Y52.476 Z-2 I-1.157 J0.831
X52.692 Y52.476 I-1.064 J0
X54.842 Y52.476 I1.075 J0 F1000
X49.842 Y52.476 I-2.5 J0
X54.842 Y52.476 I2.5 J0
G1 X54.836 Y52.526
X54.817 Y52.573
X54.787 Y52.614
X54.749 Y52.646
X54.703 Y52.667
X52.462 Y53.382
X52.413 Y53.391
X52.363 Y53.387
X52.315 Y53.372
X52.273 Y53.345
X52.239 Y53.308
G3 X54.553 Y51.645 Z-2.156 I1.157 J-0.831 F333.3
X52.239 Y53.308 Z-2.313 I-1.157 J0.831
X54.553 Y51.645 Z-2.469 I1.157 J-0.831
X54.821 Y52.476 Z-2.5 I-1.157 J0.831
X52.692 Y52.476 I-1.064 J0
X54.842 Y52.476 I1.075 J0 F1000
X49.842 Y52.476 I-2.5 J0
X54.842 Y52.476 I2.5 J0
G1 X54.836 Y52.526
X54.817 Y52.573
X54.787 Y52.614
X54.749 Y52.646
X54.703 Y52.667
X52.462 Y53.382
X52.413 Y53.391
X52.363 Y53.387
X52.315 Y53.372
X52.273 Y53.345
X52.239 Y53.308
G3 X54.553 Y51.645 Z-2.656 I1.157 J-0.831 F333.3
X52.239 Y53.308 Z-2.813 I-1.157 J0.831
X54.553 Y51.645 Z-2.969 I1.157 J-0.831
X54.821 Y52.476 Z-3 I-1.157 J0.831
X52.692 Y52.476 I-1.064 J0
X54.842 Y52.476 I1.075 J0 F1000
X49.842 Y52.476 I-2.5 J0
X54.842 Y52.476 I2.5 J0
G1 X54.836 Y52.526
X54.817 Y52.573
X54.787 Y52.614
X54.749 Y52.646
X54.703 Y52.667
X52.462 Y53.382
X52.413 Y53.391
X52.363 Y53.387
X52.315 Y53.372
X52.273 Y53.345
X52.239 Y53.308
G3 X54.553 Y51.645 Z-3.156 I1.157 J-0.831 F333.3
X52.239 Y53.308 Z-3.313 I-1.157 J0.831
X54.553 Y51.645 Z-3.469 I1.157 J-0.831
X54.821 Y52.476 Z-3.5 I-1.157 J0.831
X52.692 Y52.476 I-1.064 J0
X54.842 Y52.476 I1.075 J0 F1000
X49.842 Y52.476 I-2.5 J0
X54.842 Y52.476 I2.5 J0
G1 X54.836 Y52.526
X54.817 Y52.573
X54.787 Y52.614
X54.749 Y52.646
X54.703 Y52.667
X52.462 Y53.382
X52.413 Y53.391
X52.363 Y53.387
X52.315 Y53.372
X52.273 Y53.345
X52.239 Y53.308
G3 X54.553 Y51.645 Z-3.656 I1.157 J-0.831 F333.3
X52.239 Y53.308 Z-3.813 I-1.157 J0.831
X54.553 Y51.645 Z-3.969 I1.157 J-0.831
X54.821 Y52.476 Z-4 I-1.157 J0.831
X52.692 Y52.476 I-1.064 J0
X54.842 Y52.476 I1.075 J0 F1000
X49.842 Y52.476 I-2.5 J0
X54.842 Y52.476 I2.5 J0
G1 X54.836 Y52.526
X54.817 Y52.573
X54.787 Y52.614
X54.749 Y52.646
X54.703 Y52.667
X52.462 Y53.382
X52.413 Y53.391
X52.363 Y53.387
X52.315 Y53.372
X52.273 Y53.345
X52.239 Y53.308
G3 X54.553 Y51.645 Z-4.156 I1.157 J-0.831 F333.3
X52.239 Y53.308 Z-4.313 I-1.157 J0.831
X54.553 Y51.645 Z-4.469 I1.157 J-0.831
X54.821 Y52.476 Z-4.5 I-1.157 J0.831
X52.692 Y52.476 I-1.064 J0
X54.842 Y52.476 I1.075 J0 F1000
X49.842 Y52.476 I-2.5 J0
X54.842 Y52.476 I2.5 J0
G1 X54.836 Y52.526
X54.817 Y52.573
X54.787 Y52.614
X54.749 Y52.646
X54.703 Y52.667
X52.462 Y53.382
X52.413 Y53.391
X52.363 Y53.387
X52.315 Y53.372
X52.273 Y53.345
X52.239 Y53.308
G3 X54.553 Y51.645 Z-4.656 I1.157 J-0.831 F333.3
X52.239 Y53.308 Z-4.813 I-1.157 J0.831
X54.553 Y51.645 Z-4.969 I1.157 J-0.831
X54.821 Y52.476 Z-5 I-1.157 J0.831
X52.692 Y52.476 I-1.064 J0
X54.842 Y52.476 I1.075 J0 F1000
X49.842 Y52.476 I-2.5 J0
X54.842 Y52.476 I2.5 J0
G1 X54.836 Y52.526
X54.817 Y52.573
X54.787 Y52.614
X54.749 Y52.646
X54.703 Y52.667
X52.462 Y53.382
X52.413 Y53.391
X52.363 Y53.387
X52.315 Y53.372
X52.273 Y53.345
X52.239 Y53.308
G3 X54.553 Y51.645 Z-5.156 I1.157 J-0.831 F333.3
X52.239 Y53.308 Z-5.313 I-1.157 J0.831
X54.553 Y51.645 Z-5.469 I1.157 J-0.831
X54.821 Y52.476 Z-5.5 I-1.157 J0.831
X52.692 Y52.476 I-1.064 J0
X54.842 Y52.476 I1.075 J0 F1000
X49.842 Y52.476 I-2.5 J0
X54.842 Y52.476 I2.5 J0
G1 X54.836 Y52.526
X54.817 Y52.573
X54.787 Y52.614
X54.749 Y52.646
X54.703 Y52.667
X52.462 Y53.382
X52.413 Y53.391
X52.363 Y53.387
X52.315 Y53.372
X52.273 Y53.345
X52.239 Y53.308
G3 X54.553 Y51.645 Z-5.656 I1.157 J-0.831 F333.3
X52.239 Y53.308 Z-5.813 I-1.157 J0.831
X54.553 Y51.645 Z-5.969 I1.157 J-0.831
X54.821 Y52.476 Z-6 I-1.157 J0.831
X52.692 Y52.476 I-1.064 J0
X54.842 Y52.476 I1.075 J0 F1000
X49.842 Y52.476 I-2.5 J0
X54.842 Y52.476 I2.5 J0
G1 X54.836 Y52.526
X54.817 Y52.573
X54.787 Y52.614
X54.749 Y52.646
X54.703 Y52.667
X52.462 Y53.382
X52.413 Y53.391
X52.363 Y53.387
X52.315 Y53.372
X52.273 Y53.345
X52.239 Y53.308
G3 X54.553 Y51.645 Z-6.156 I1.157 J-0.831 F333.3
X52.239 Y53.308 Z-6.313 I-1.157 J0.831
X54.553 Y51.645 Z-6.469 I1.157 J-0.831
X54.821 Y52.476 Z-6.5 I-1.157 J0.831
X52.692 Y52.476 I-1.064 J0
X54.842 Y52.476 I1.075 J0 F1000
X49.842 Y52.476 I-2.5 J0
X54.842 Y52.476 I2.5 J0
G1 X54.836 Y52.526
X54.817 Y52.573
X54.787 Y52.614
X54.749 Y52.646
X54.703 Y52.667
X52.462 Y53.382
X52.413 Y53.391
X52.363 Y53.387
X52.315 Y53.372
X52.273 Y53.345
X52.239 Y53.308
G3 X54.553 Y51.645 Z-6.656 I1.157 J-0.831 F333.3
X52.239 Y53.308 Z-6.813 I-1.157 J0.831
X54.553 Y51.645 Z-6.969 I1.157 J-0.831
X54.821 Y52.476 Z-7 I-1.157 J0.831
X52.692 Y52.476 I-1.064 J0
X54.842 Y52.476 I1.075 J0 F1000
X49.842 Y52.476 I-2.5 J0
X54.842 Y52.476 I2.5 J0
G1 X54.836 Y52.526
X54.817 Y52.573
X54.787 Y52.614
X54.749 Y52.646
X54.703 Y52.667
X52.462 Y53.382
X52.413 Y53.391
X52.363 Y53.387
X52.315 Y53.372
X52.273 Y53.345
X52.239 Y53.308
G3 X54.553 Y51.645 Z-7.156 I1.157 J-0.831 F333.3
X52.239 Y53.308 Z-7.313 I-1.157 J0.831
X54.553 Y51.645 Z-7.469 I1.157 J-0.831
X54.821 Y52.476 Z-7.5 I-1.157 J0.831
X52.692 Y52.476 I-1.064 J0
X54.842 Y52.476 I1.075 J0 F1000
X49.842 Y52.476 I-2.5 J0
X54.842 Y52.476 I2.5 J0
G1 X54.837 Y52.521
X54.822 Y52.564
X54.797 Y52.602
X54.765 Y52.634
X54.726 Y52.658
X52.697 Y53.6
X52.644 Y53.616
X52.587 Y53.617
X52.533 Y53.602
X52.485 Y53.572
G3 X54.307 Y51.38 Z-7.656 I0.911 J-1.096 F333.3
X54.821 Y52.476 Z-7.7 I-0.911 J1.096
X52.692 Y52.476 I-1.064 J0
X54.842 Y52.476 I1.075 J0 F1000
X49.842 Y52.476 I-2.5 J0
X54.842 Y52.476 I2.5 J0
G1 X54.837 Y52.533 Z-7.689
X54.82 Y52.588 Z-7.677
X54.799 Y52.632 Z-7.645
X54.77 Y52.671 Z-7.612
X54.723 Y52.716 Z-7.515
X54.704 Y52.729 Z-7.4
G0 Z15

(2D Contour7)
X54.134 Y106.445
Z15
Z5
G1 Z-0.5 F333.3
X54.2 Y106.444 F1000
G2 X55.861 Y106.362 I-1.843 J-53.968
X57.095 Y105.555 I-0.097 J-1.497
G1 X57.118 Y105.511
G2 X59.237 Y99.865 I-20.924 J-11.075
G1 X59.248 Y99.866
X59.251 Y99.865
X59.254 Y99.864
X59.257 Y99.863
X59.26 Y99.862
X59.262
X59.266 Y99.861
X59.268
X59.271
X59.275
X59.278 Y99.862
X59.28
X59.283 Y99.863
X59.286 Y99.864
X59.289 Y99.865
G2 X60.307 Y101.49 I27.233 J-15.934
X62.977 Y104.706 I20.97 J-14.696
G1 X63.09 Y104.809
X63.212 Y104.9
X63.343 Y104.979
X63.481 Y105.044
X63.625 Y105.094
X63.774 Y105.13
X63.925 Y105.15
X64.078 Y105.154
X64.23 Y105.144
X64.38 Y105.117
G2 X65.995 Y104.722 I-12.024 J-52.644
X67.054 Y103.697 I-0.379 J-1.451
G1 X67.068 Y103.65
G2 X68.081 Y97.704 I-22.645 J-6.917
G1 X68.092 Y97.702
X68.095 Y97.701
X68.097 Y97.699
X68.099 Y97.698
X68.102 Y97.697
X68.105 Y97.696
X68.108 Y97.695
X68.111 Y97.694
X68.114 Y97.693
X68.117
X68.12
X68.122
X68.126
X68.129
X68.132 Y97.694
G2 X69.769 Y99.413 I19.502 J-16.931
X72.668 Y101.749 I17.821 J-19.154
X74.125 Y101.888 I0.853 J-1.234
X75.636 Y101.194 I-21.778 J-49.413
X76.482 Y99.989 I-0.647 J-1.353
G1 X76.487 Y99.94
G2 X76.356 Y93.908 I-23.593 J-2.508
G1 X76.367 Y93.904
X76.369 Y93.902
X76.371 Y93.9
X76.373 Y93.899
X76.375 Y93.897
X76.378 Y93.895
X76.381 Y93.894
X76.383 Y93.893
X76.386 Y93.892
X76.39 Y93.89
X76.392
X76.395 Y93.889
X76.398
X76.401
X76.404
G2 X78.468 Y95.35 I15.607 J-19.862
X81.616 Y97.008 I13.882 J-22.538
X83.083 Y96.872 I0.613 J-1.369
X84.435 Y95.905 I-30.741 J-44.396
X85.037 Y94.562 I-0.891 J-1.206
G1 X85.033 Y94.513
G2 X83.763 Y88.615 I-23.619 J1.998
G1 X83.772 Y88.61
X83.774 Y88.607
X83.776 Y88.604
X83.778 Y88.602
X83.78 Y88.6
X83.783 Y88.598
X83.785 Y88.596
X83.787 Y88.594
X83.789 Y88.593
X83.792 Y88.591
X83.795 Y88.59
X83.798 Y88.589
X83.8 Y88.588
X83.804 Y88.587
X83.806 Y88.586
G2 X85.824 Y89.519 I12.381 J-24.147
X89.518 Y90.663 I9.549 J-24.287
G1 X89.669 Y90.69
X89.823 Y90.702
X89.976 Y90.698
X90.128 Y90.678
X90.278 Y90.643
X90.423 Y90.592
X90.562 Y90.527
X90.694 Y90.448
X90.817 Y90.356
X90.93 Y90.252
G2 X92.074 Y89.047 I-38.588 J-37.775
X92.411 Y87.611 I-1.104 J-1.016
G1 X92.397 Y87.564
G2 X90.034 Y82.015 I-22.81 J6.433
G1 X90.043 Y82.008
X90.044 Y82.005
X90.045 Y82.003
X90.047 Y82
X90.049 Y81.997
X90.05 Y81.995
X90.052 Y81.993
X90.054 Y81.991
X90.056 Y81.989
X90.059 Y81.987
X90.061 Y81.985
X90.064 Y81.983
X90.066 Y81.982
X90.068 Y81.981
X90.072 Y81.979
G2 X92.532 Y82.568 I7.104 J-24.236
X96.073 Y82.938 I4.498 J-25.968
X97.381 Y82.267 I0.058 J-1.499
X98.277 Y80.866 I-45.038 J-29.791
X98.336 Y79.395 I-1.276 J-0.789
G1 X98.314 Y79.351
G2 X94.944 Y74.348 I-21.176 J10.628
G1 X94.95 Y74.34
X94.951 Y74.336
X94.952 Y74.333
X94.953 Y74.331
X94.954 Y74.328
X94.955 Y74.325
X94.956 Y74.323
X94.959 Y74.32
X94.96 Y74.318
X94.962 Y74.316
X94.964 Y74.313
X94.966 Y74.311
X94.968 Y74.309
X94.97 Y74.308
X94.973 Y74.306
X94.976 Y74.304
X94.978 Y74.303
G2 X101.043 Y74.106 I2.283 J-23.121
G1 X101.193 Y74.076
X101.34 Y74.03
X101.481 Y73.97
X101.616 Y73.896
X101.742 Y73.808
X101.858 Y73.708
X101.964 Y73.596
X102.058 Y73.474
X102.138 Y73.343
X102.205 Y73.204
G2 X102.819 Y71.66 I-49.866 J-20.72
X102.606 Y70.213 I-1.402 J-0.533
G1 X102.576 Y70.174
G2 X98.313 Y65.89 I-18.759 J14.407
G1 X98.318 Y65.881
Y65.878
Y65.875
X98.319 Y65.871
Y65.869
X98.32 Y65.866
X98.321 Y65.863
X98.322 Y65.86
X98.323 Y65.857
X98.325 Y65.855
X98.326 Y65.853
X98.328 Y65.85
X98.33 Y65.847
X98.331 Y65.846
X98.334 Y65.844
X98.336 Y65.841
G2 X104.256 Y64.499 I-2.167 J-23.28
G1 X104.398 Y64.441
X104.533 Y64.369
X104.661 Y64.283
X104.779 Y64.184
X104.886 Y64.074
X104.982 Y63.954
X105.064 Y63.824
X105.133 Y63.686
X105.188 Y63.542
X105.227 Y63.393
G2 X105.538 Y61.76 I-52.887 J-10.907
X105.05 Y60.376 I-1.478 J-0.258
G1 X105.013 Y60.343
G2 X100.021 Y56.948 I-15.696 J17.711
G1 X100.024 Y56.938
X100.023 Y56.934
Y56.931
Y56.929
Y56.926
Y56.922
X100.024 Y56.919
Y56.916
X100.025 Y56.913
X100.026 Y56.911
X100.027 Y56.909
X100.028 Y56.905
X100.03 Y56.902
X100.031 Y56.9
X100.032 Y56.898
G2 X101.617 Y56.38 I-11.387 J-37.49
X105.593 Y54.462 I-8.92 J-23.573
G1 X105.722 Y54.377
X105.842 Y54.28
X105.951 Y54.171
X106.049 Y54.052
X106.133 Y53.923
X106.204 Y53.786
X106.261 Y53.642
X106.302 Y53.493
X106.328 Y53.341
X106.338 Y53.187
G2 X106.334 Y51.525 I-53.996 J-0.697
X105.586 Y50.254 I-1.5 J0.027
G1 X105.543 Y50.229
G2 X100.005 Y47.844 I-12.056 J20.372
G1 X100.006 Y47.832
Y47.83
X100.005 Y47.828
X100.004 Y47.824
X100.003 Y47.821
Y47.818
Y47.815
Y47.812
Y47.81
Y47.807
X100.004 Y47.803
Y47.801
X100.005 Y47.798
X100.006 Y47.795
X100.008 Y47.792
G2 X101.983 Y46.659 I-12.328 J-23.786
X105.013 Y44.344 I-14.264 J-21.805
G1 X105.123 Y44.236
X105.221 Y44.118
X105.306 Y43.991
X105.379 Y43.855
X105.436 Y43.713
X105.479 Y43.566
X105.507 Y43.415
X105.519 Y43.261
X105.516 Y43.108
X105.496 Y42.955
G2 X105.178 Y41.324 I-53.15 J9.541
X104.211 Y40.22 I-1.468 J0.31
G1 X104.165 Y40.204
G2 X98.268 Y38.907 I-8.004 J22.338
G1 X98.266 Y38.896
X98.264 Y38.893
X98.263 Y38.891
X98.262 Y38.889
X98.261 Y38.886
X98.26 Y38.883
X98.259 Y38.879
Y38.876
X98.258 Y38.875
Y38.872
Y38.868
Y38.864
X98.259 Y38.862
Y38.859
X98.26 Y38.856
G2 X99.833 Y37.514 I-17.806 J-22.469
X102.523 Y34.52 I-17.729 J-18.637
G1 X102.61 Y34.394
X102.684 Y34.26
X102.744 Y34.119
X102.789 Y33.972
X102.818 Y33.822
X102.832 Y33.669
X102.831 Y33.516
X102.814 Y33.364
X102.781 Y33.214
X102.734 Y33.069
G2 X102.112 Y31.527 I-50.391 J19.41
X100.951 Y30.625 I-1.382 J0.582
G1 X100.902 Y30.618
G2 X94.87 Y30.461 I-3.629 J23.436
G1 X94.867 Y30.451
X94.864 Y30.448
X94.862 Y30.446
X94.86 Y30.443
X94.859 Y30.441
X94.858 Y30.439
X94.856 Y30.436
X94.855 Y30.433
X94.854 Y30.43
Y30.427
X94.853 Y30.425
X94.852 Y30.421
Y30.418
Y30.415
Y30.412
G2 X96.611 Y28.124 I-18.102 J-15.729
X98.217 Y25.351 I-22.309 J-14.783
X98.15 Y23.883 I-1.34 J-0.674
X97.249 Y22.486 I-45.809 J28.593
X95.934 Y21.821 I-1.247 J0.833
G1 X95.885 Y21.823
G2 X89.934 Y22.81 I0.874 J23.697
G1 X89.929 Y22.801
X89.927 Y22.799
X89.924 Y22.797
X89.923 Y22.795
X89.921 Y22.793
X89.918 Y22.79
X89.917 Y22.788
X89.915 Y22.786
X89.914 Y22.783
X89.912 Y22.78
X89.911 Y22.778
X89.91 Y22.775
Y22.772
X89.909 Y22.769
X89.908 Y22.766
G2 X91.163 Y20.278 I-20.893 J-12.094
X92.255 Y17.161 I-24.522 J-10.339
X91.911 Y15.73 I-1.443 J-0.41
X90.761 Y14.53 I-39.569 J36.747
X89.345 Y14.125 I-1.067 J1.054
G1 X89.297 Y14.136
G2 X83.641 Y16.232 I5.334 J23.079
G1 X83.634 Y16.223
X83.631 Y16.222
X83.629 Y16.221
X83.627 Y16.219
X83.624 Y16.217
X83.622 Y16.216
X83.619 Y16.214
X83.617 Y16.211
X83.615 Y16.209
X83.613 Y16.206
X83.612 Y16.204
X83.61 Y16.202
X83.609 Y16.199
X83.608 Y16.197
X83.607 Y16.194
G2 X84.116 Y14.559 I-36.735 J-12.342
X84.849 Y10.246 I-24.606 J-6.396
G1 X84.854 Y10.093
X84.844 Y9.939
X84.818 Y9.788
X84.777 Y9.64
X84.721 Y9.496
X84.651 Y9.36
X84.566 Y9.231
X84.47 Y9.112
X84.361 Y9.003
X84.242 Y8.906
G2 X82.886 Y7.944 I-31.9 J43.57
X81.42 Y7.814 I-0.848 J1.237
G1 X81.375 Y7.835
G2 X76.216 Y10.963 I9.647 J21.725
G1 X76.207 Y10.956
X76.205
X76.202 Y10.955
X76.2 Y10.954
X76.196 Y10.953
X76.193 Y10.951
X76.191 Y10.949
X76.189 Y10.948
X76.187 Y10.946
X76.184 Y10.944
X76.182 Y10.942
X76.18 Y10.939
X76.179 Y10.938
X76.177 Y10.935
X76.175 Y10.932
G2 X76.265 Y4.858 I-23.264 J-3.383
G1 X76.242 Y4.706
X76.204 Y4.558
X76.15 Y4.414
X76.082 Y4.277
X76 Y4.147
X75.906 Y4.026
X75.799 Y3.915
X75.682 Y3.816
X75.555 Y3.729
X75.419 Y3.656
G2 X73.906 Y2.969 I-23.077 J48.82
X72.442 Y3.119 I-0.599 J1.375
G1 X72.401 Y3.147
G2 X67.928 Y7.196 I13.563 J19.483
G1 X67.919 Y7.19
X67.916
X67.913
X67.91 Y7.189
X67.907 Y7.188
X67.904
X67.901 Y7.186
X67.899 Y7.185
X67.896 Y7.184
X67.893 Y7.182
X67.891 Y7.181
X67.889 Y7.179
X67.886 Y7.177
X67.884 Y7.175
X67.882 Y7.173
G2 X67.728 Y5.311 I-31.778 J1.701
X66.824 Y1.187 I-25.217 J3.366
G1 X66.772 Y1.043
X66.706 Y0.905
X66.625 Y0.774
X66.532 Y0.652
X66.427 Y0.54
X66.311 Y0.44
X66.185 Y0.352
X66.051 Y0.277
X65.91 Y0.217
X65.763 Y0.171
G2 X64.147 Y-0.217 I-13.421 J52.306
X62.737 Y0.208 I-0.328 J1.464
G1 X62.702 Y0.243
G2 X59.077 Y5.064 I16.999 J16.557
G1 X59.067 Y5.061
X59.064
X59.061
X59.058
X59.055
X59.052
X59.049 Y5.06
X59.046
X59.043 Y5.059
X59.04 Y5.058
X59.038 Y5.057
X59.035 Y5.055
X59.033 Y5.054
X59.03 Y5.052
X59.028 Y5.05
G2 X58.475 Y3.105 I-28.152 J6.949
X56.857 Y-0.624 I-24.219 J8.291
G1 X56.779 Y-0.756
X56.687 Y-0.88
X56.584 Y-0.994
X56.469 Y-1.096
X56.344 Y-1.186
X56.211 Y-1.263
X56.071 Y-1.326
X55.925 Y-1.374
X55.774 Y-1.407
X55.622 Y-1.424
G2 X53.961 Y-1.499 I-3.28 J53.9
X52.658 Y-0.816 I-0.045 J1.499
G1 X52.631 Y-0.775
G2 X49.983 Y4.646 I19.812 J13.036
G1 X49.972 Y4.645
X49.969 Y4.646
X49.966 Y4.647
X49.963
X49.96 Y4.648
X49.957
X49.954
X49.951
X49.948
X49.945 Y4.647
X49.943 Y4.646
X49.939
X49.936 Y4.644
X49.934 Y4.643
X49.931 Y4.642
X49.929 Y4.641
G2 X46.722 Y-0.517 I-21.288 J9.66
G1 X46.621 Y-0.632
X46.508 Y-0.736
X46.386 Y-0.828
X46.254 Y-0.907
X46.115 Y-0.972
X45.97 Y-1.022
X45.821 Y-1.058
X45.668 Y-1.078
X45.515 Y-1.082
X45.362 Y-1.071
G2 X43.717 Y-0.83 I6.981 J53.547
X42.567 Y0.086 I0.24 J1.481
G1 X42.548 Y0.132
G2 X40.973 Y5.957 I21.944 J9.058
G1 X40.962 Y5.958
X40.96 Y5.959
X40.957 Y5.961
X40.954 Y5.962
X40.952 Y5.963
X40.949 Y5.964
X40.946
X40.943 Y5.965
X40.94
X40.937
X40.934
X40.931
X40.928 Y5.964
X40.925
X40.922 Y5.963
G2 X39.656 Y4.327 I-23.325 J16.742
X36.799 Y1.501 I-19.49 J16.854
G1 X36.677 Y1.408
X36.546 Y1.327
X36.407 Y1.26
X36.263 Y1.208
X36.114 Y1.17
X35.961 Y1.148
X35.808 Y1.142
X35.654 Y1.152
X35.502 Y1.177
X35.354 Y1.218
G2 X33.784 Y1.765 I16.988 J51.258
X32.828 Y2.883 I0.515 J1.409
G1 X32.819 Y2.931
G2 X32.375 Y8.95 I23.262 J4.742
G1 X32.364 Y8.953
X32.362 Y8.954
X32.36 Y8.956
X32.357 Y8.957
X32.355 Y8.959
X32.353 Y8.96
X32.349 Y8.962
X32.346 Y8.963
X32.343
X32.341 Y8.964
X32.338
X32.335 Y8.965
X32.332
X32.329
X32.326 Y8.964
G2 X30.69 Y7.532 I-18.721 J19.728
X27.432 Y5.364 I-15.898 J20.357
G1 X27.295 Y5.295
X27.151 Y5.241
X27.002 Y5.201
X26.85 Y5.177
X26.697 Y5.169
X26.543 Y5.176
X26.391 Y5.199
X26.242 Y5.238
X26.098 Y5.291
X25.96 Y5.36
G2 X24.523 Y6.194 I26.382 J47.117
X23.795 Y7.473 I0.773 J1.286
G1 Y7.523
G2 X24.498 Y13.515 I23.719 J0.255
G1 X24.488 Y13.52
X24.486 Y13.522
X24.485 Y13.524
X24.483 Y13.526
X24.48 Y13.528
X24.478 Y13.53
X24.476 Y13.531
X24.473 Y13.533
X24.47 Y13.534
X24.467 Y13.536
X24.464 Y13.537
X24.461
X24.458 Y13.538
X24.456 Y13.539
X24.453
G2 X22.528 Y12.417 I-14.587 J22.816
X18.967 Y10.93 I-11.769 J23.168
G1 X18.819 Y10.888
X18.667 Y10.862
X18.514 Y10.851
X18.36 Y10.856
X18.208 Y10.877
X18.058 Y10.913
X17.913 Y10.965
X17.774 Y11.031
X17.643 Y11.111
X17.52 Y11.204
G2 X16.266 Y12.295 I34.822 J41.273
X15.795 Y13.69 I1.002 J1.116
G1 X15.804 Y13.739
G2 X17.628 Y19.489 I23.306 J-4.23
G1 X17.619 Y19.495
X17.618 Y19.498
X17.616 Y19.5
X17.614 Y19.503
X17.613 Y19.504
X17.611 Y19.507
X17.608 Y19.509
X17.606 Y19.511
X17.604 Y19.513
X17.601 Y19.515
X17.599 Y19.516
X17.597 Y19.517
X17.593 Y19.519
X17.59 Y19.52
X17.588 Y19.521
G2 X15.246 Y18.715 I-9.426 J23.58
X11.705 Y17.996 I-6.998 J25.398
X10.339 Y18.54 I-0.2 J1.486
X9.314 Y19.849 I42.003 J33.938
X9.114 Y21.307 I1.195 J0.906
G1 X9.133 Y21.353
G2 X12.012 Y26.654 I22.114 J-8.579
G1 X12.005 Y26.662
X12.004 Y26.666
X12.003 Y26.667
X12.002 Y26.67
X12 Y26.673
X11.999 Y26.676
X11.997 Y26.679
X11.995 Y26.681
X11.993 Y26.683
X11.991 Y26.685
X11.989 Y26.687
X11.987 Y26.689
X11.984 Y26.69
X11.982 Y26.692
X11.979 Y26.694
G2 X9.676 Y26.359 I-4.883 J25.493
X5.917 Y26.31 I-2.215 J25.864
G1 X5.764 Y26.326
X5.614 Y26.358
X5.467 Y26.405
X5.326 Y26.467
X5.192 Y26.543
X5.067 Y26.632
X4.951 Y26.734
X4.847 Y26.847
X4.754 Y26.97
X4.675 Y27.102
G2 X3.917 Y28.581 I47.668 J25.373
X3.997 Y30.051 I1.345 J0.664
G1 X4.023 Y30.093
G2 X7.854 Y34.754 I20.11 J-12.624
G1 X7.848 Y34.763
Y34.766
Y34.769
X7.847 Y34.772
X7.846 Y34.774
X7.845 Y34.777
X7.844 Y34.78
X7.842 Y34.783
X7.841 Y34.785
X7.839 Y34.787
X7.837 Y34.79
X7.835 Y34.792
X7.834 Y34.794
X7.831 Y34.796
X7.829 Y34.798
G2 X6.065 Y34.856 I0.234 J33.921
X1.804 Y35.57 I2.029 J25.198
G1 X1.657 Y35.614
X1.515 Y35.674
X1.38 Y35.748
X1.254 Y35.835
X1.136 Y35.935
X1.03 Y36.047
X0.936 Y36.168
X0.855 Y36.299
X0.787 Y36.437
X0.734 Y36.582
G2 X0.27 Y38.178 I51.608 J15.894
X0.626 Y39.606 I1.446 J0.397
G1 X0.66 Y39.642
G2 X5.304 Y43.493 I17.355 J-16.2
G1 X5.3 Y43.503
Y43.506
Y43.509
Y43.512
Y43.515
Y43.518
X5.299 Y43.521
X5.298 Y43.524
X5.297 Y43.527
X5.296 Y43.529
X5.295 Y43.532
X5.293 Y43.535
X5.291 Y43.537
X5.29 Y43.54
X5.288 Y43.542
G2 X3.27 Y44.015 I5.464 J27.838
X-0.484 Y45.44 I7.22 J24.684
G1 X-0.62 Y45.512
X-0.747 Y45.597
X-0.866 Y45.695
X-0.973 Y45.805
X-1.069 Y45.925
X-1.152 Y46.055
X-1.222 Y46.192
X-1.277 Y46.335
X-1.317 Y46.484
X-1.341 Y46.636
G2 X-1.495 Y48.291 I53.683 J5.84
X-0.874 Y49.626 I1.495 J0.116
G1 X-0.834 Y49.655
G2 X4.454 Y52.557 I13.96 J-19.166
G1 X4.452 Y52.568
X4.453 Y52.571
Y52.574
X4.454 Y52.577
Y52.58
Y52.583
Y52.586
Y52.589
X4.453 Y52.592
Y52.595
X4.452 Y52.597
X4.451 Y52.6
X4.45 Y52.603
X4.449 Y52.606
X4.447 Y52.609
X4.446 Y52.611
G2 X-0.858 Y55.568 I8.64 J21.73
G1 X-0.978 Y55.664
X-1.087 Y55.771
X-1.185 Y55.889
X-1.27 Y56.017
X-1.342 Y56.153
X-1.399 Y56.295
X-1.442 Y56.443
X-1.469 Y56.594
X-1.481 Y56.747
X-1.476 Y56.901
G2 X-1.315 Y58.555 I53.818 J-4.425
X-0.452 Y59.749 I1.49 J-0.169
G1 X-0.407 Y59.769
G2 X5.335 Y61.619 I10.08 J-21.46
G1 Y61.63
X5.336 Y61.632
X5.337 Y61.635
X5.338 Y61.638
X5.339 Y61.641
X5.34 Y61.644
Y61.647
X5.341 Y61.65
Y61.653
Y61.656
X5.34 Y61.659
Y61.661
X5.339 Y61.664
Y61.667
X5.338 Y61.67
G2 X3.443 Y63.014 I14.234 J22.076
X0.684 Y65.578 I16.323 J20.336
G1 X0.585 Y65.695
X0.498 Y65.822
X0.425 Y65.957
X0.366 Y66.099
X0.322 Y66.246
X0.293 Y66.397
X0.279 Y66.55
X0.282 Y66.704
X0.3 Y66.856
X0.334 Y67.006
G2 X0.805 Y68.6 I52.008 J-14.53
X1.876 Y69.608 I1.432 J-0.448
G1 X1.924 Y69.62
G2 X7.914 Y70.35 I5.84 J-22.986
G1 X7.916 Y70.36
X7.918 Y70.363
X7.92 Y70.365
X7.922 Y70.368
X7.923 Y70.371
X7.924 Y70.373
X7.925 Y70.376
X7.926 Y70.379
X7.927 Y70.382
Y70.385
X7.928 Y70.388
Y70.391
Y70.394
X7.927 Y70.397
Y70.4
G2 X6.421 Y71.962 I18.986 J19.807
X4.097 Y75.118 I19.624 J16.887
G1 X4.021 Y75.252
X3.96 Y75.393
X3.914 Y75.539
X3.883 Y75.69
X3.868 Y75.843
Y75.996
X3.884 Y76.149
X3.915 Y76.299
X3.962 Y76.446
X4.023 Y76.586
G2 X4.788 Y78.062 I48.319 J-24.11
X6.033 Y78.849 I1.321 J-0.711
G1 X6.083 Y78.852
G2 X12.1 Y78.435 I1.382 J-23.665
G1 X12.104 Y78.445
X12.107 Y78.447
X12.108 Y78.449
X12.11 Y78.451
X12.112 Y78.454
X12.114 Y78.456
X12.115 Y78.458
X12.117 Y78.461
X12.118 Y78.464
X12.119 Y78.466
X12.12 Y78.469
X12.121 Y78.472
Y78.476
X12.122 Y78.479
Y78.481
Y78.484
Y78.487
G2 X9.258 Y83.842 I18.891 J13.543
G1 X9.21 Y83.987
X9.176 Y84.136
X9.158 Y84.288
X9.155 Y84.441
X9.168 Y84.594
X9.197 Y84.744
X9.241 Y84.891
X9.3 Y85.033
X9.373 Y85.168
X9.459 Y85.295
G2 X10.49 Y86.599 I42.885 J-32.816
X11.858 Y87.137 I1.163 J-0.948
G1 X11.907 Y87.13
G2 X17.74 Y85.581 I-3.113 J-23.476
G1 X17.746 Y85.591
X17.748 Y85.592
X17.751 Y85.594
X17.753 Y85.596
X17.755 Y85.597
X17.757 Y85.6
X17.759 Y85.602
X17.761 Y85.605
X17.763 Y85.607
X17.765 Y85.609
X17.766 Y85.612
X17.767 Y85.614
X17.768 Y85.617
X17.769 Y85.62
X17.77 Y85.624
G2 X16.728 Y88.315 I21.701 J9.954
X15.968 Y91.424 I25.609 J7.908
X16.445 Y92.818 I1.475 J0.273
X17.704 Y93.903 I35.897 J-40.341
X19.151 Y94.172 I0.962 J-1.151
G1 X19.198 Y94.156
G2 X24.63 Y91.532 I-7.519 J-22.502
G1 X24.638 Y91.54
X24.64 Y91.541
X24.643 Y91.542
X24.646 Y91.543
X24.648 Y91.545
X24.651 Y91.546
X24.653 Y91.548
X24.656 Y91.55
X24.658 Y91.553
X24.66 Y91.554
X24.662 Y91.556
X24.664 Y91.559
X24.665 Y91.562
X24.667 Y91.564
X24.668 Y91.567
G2 X24.276 Y93.497 I28.971 J6.889
X23.997 Y97.608 I25.251 J3.778
G1 X24.006 Y97.761
X24.031 Y97.913
X24.071 Y98.061
X24.126 Y98.204
X24.196 Y98.341
X24.279 Y98.47
X24.375 Y98.59
X24.483 Y98.699
X24.601 Y98.797
X24.729 Y98.882
G2 X26.17 Y99.71 I27.614 J-46.406
X27.643 Y99.699 I0.727 J-1.312
G1 X27.686 Y99.675
G2 X32.522 Y96.07 I-11.631 J-20.655
G1 X32.532 Y96.077
X32.534
X32.537 Y96.078
X32.54 Y96.079
X32.543 Y96.08
X32.545 Y96.081
X32.548 Y96.082
X32.551 Y96.084
X32.553 Y96.085
X32.556 Y96.087
X32.558 Y96.089
X32.56 Y96.091
X32.562 Y96.093
X32.564 Y96.095
X32.566 Y96.098
X32.567 Y96.1
X32.569 Y96.103
G2 X33.055 Y102.152 I23.163 J1.182
G1 X33.092 Y102.301
X33.144 Y102.445
X33.211 Y102.583
X33.292 Y102.714
X33.385 Y102.836
X33.491 Y102.947
X33.607 Y103.047
X33.734 Y103.135
X33.868 Y103.21
X34.01 Y103.27
G2 X35.582 Y103.81 I18.328 J-50.795
X37.038 Y103.51 I0.465 J-1.426
G1 X37.068 Y103.484
G2 X41.131 Y99.033 I-15.315 J-18.062
G1 X41.14 Y99.038
X41.143
X41.147
X41.15
X41.152 Y99.039
X41.156
X41.159 Y99.04
X41.161 Y99.041
X41.164 Y99.042
X41.166 Y99.043
X41.169 Y99.045
X41.172 Y99.047
X41.174 Y99.049
X41.176 Y99.05
X41.179 Y99.052
G2 X41.628 Y101.39 I25.946 J-3.772
X42.799 Y104.906 I25.432 J-6.516
X43.953 Y105.821 I1.388 J-0.567
X45.599 Y106.054 I8.407 J-53.342
X46.966 Y105.494 I0.188 J-1.488
G1 X46.996 Y105.455
G2 X50.144 Y100.314 I-18.469 J-14.843
G1 X50.155 Y100.317
X50.158 Y100.316
X50.161 Y100.315
X50.164
X50.167
X50.17
X50.173
X50.175 Y100.316
X50.178
X50.181 Y100.317
X50.185 Y100.318
X50.188 Y100.319
X50.19 Y100.32
X50.192 Y100.322
X50.195 Y100.323
X50.197 Y100.325
G2 X52.902 Y105.769 I22.16 J-7.616
G1 X52.988 Y105.887
X53.085 Y105.996
X53.192 Y106.096
X53.309 Y106.184
X53.433 Y106.26
X53.565 Y106.324
X53.702 Y106.375
X53.844 Y106.412
X53.988 Y106.436
X54.134 Y106.445
Z-1 F333.3
X54.2 Y106.444 F1000
G2 X55.861 Y106.362 I-1.843 J-53.968
X57.095 Y105.555 I-0.097 J-1.497
G1 X57.118 Y105.511
G2 X59.237 Y99.865 I-20.924 J-11.075
G1 X59.248 Y99.866
X59.251 Y99.865
X59.254 Y99.864
X59.257 Y99.863
X59.26 Y99.862
X59.262
X59.266 Y99.861
X59.268
X59.271
X59.275
X59.278 Y99.862
X59.28
X59.283 Y99.863
X59.286 Y99.864
X59.289 Y99.865
G2 X60.307 Y101.49 I27.233 J-15.934
X62.977 Y104.706 I20.97 J-14.696
G1 X63.09 Y104.809
X63.212 Y104.9
X63.343 Y104.979
X63.481 Y105.044
X63.625 Y105.094
X63.774 Y105.13
X63.925 Y105.15
X64.078 Y105.154
X64.23 Y105.144
X64.38 Y105.117
G2 X65.995 Y104.722 I-12.024 J-52.644
X67.054 Y103.697 I-0.379 J-1.451
G1 X67.068 Y103.65
G2 X68.081 Y97.704 I-22.645 J-6.917
G1 X68.092 Y97.702
X68.095 Y97.701
X68.097 Y97.699
X68.099 Y97.698
X68.102 Y97.697
X68.105 Y97.696
X68.108 Y97.695
X68.111 Y97.694
X68.114 Y97.693
X68.117
X68.12
X68.122
X68.126
X68.129
X68.132 Y97.694
G2 X69.769 Y99.413 I19.502 J-16.931
X72.668 Y101.749 I17.821 J-19.154
X74.125 Y101.888 I0.853 J-1.234
X75.636 Y101.194 I-21.778 J-49.413
X76.482 Y99.989 I-0.647 J-1.353
G1 X76.487 Y99.94
G2 X76.356 Y93.908 I-23.593 J-2.508
G1 X76.367 Y93.904
X76.369 Y93.902
X76.371 Y93.9
X76.373 Y93.899
X76.375 Y93.897
X76.378 Y93.895
X76.381 Y93.894
X76.383 Y93.893
X76.386 Y93.892
X76.39 Y93.89
X76.392
X76.395 Y93.889
X76.398
X76.401
X76.404
G2 X78.468 Y95.35 I15.607 J-19.862
X81.616 Y97.008 I13.882 J-22.538
X83.083 Y96.872 I0.613 J-1.369
X84.435 Y95.905 I-30.741 J-44.396
X85.037 Y94.562 I-0.891 J-1.206
G1 X85.033 Y94.513
G2 X83.763 Y88.615 I-23.619 J1.998
G1 X83.772 Y88.61
X83.774 Y88.607
X83.776 Y88.604
X83.778 Y88.602
X83.78 Y88.6
X83.783 Y88.598
X83.785 Y88.596
X83.787 Y88.594
X83.789 Y88.593
X83.792 Y88.591
X83.795 Y88.59
X83.798 Y88.589
X83.8 Y88.588
X83.804 Y88.587
X83.806 Y88.586
G2 X85.824 Y89.519 I12.381 J-24.147
X89.518 Y90.663 I9.549 J-24.287
G1 X89.669 Y90.69
X89.823 Y90.702
X89.976 Y90.698
X90.128 Y90.678
X90.278 Y90.643
X90.423 Y90.592
X90.562 Y90.527
X90.694 Y90.448
X90.817 Y90.356
X90.93 Y90.252
G2 X92.074 Y89.047 I-38.588 J-37.775
X92.411 Y87.611 I-1.104 J-1.016
G1 X92.397 Y87.564
G2 X90.034 Y82.015 I-22.81 J6.433
G1 X90.043 Y82.008
X90.044 Y82.005
X90.045 Y82.003
X90.047 Y82
X90.049 Y81.997
X90.05 Y81.995
X90.052 Y81.993
X90.054 Y81.991
X90.056 Y81.989
X90.059 Y81.987
X90.061 Y81.985
X90.064 Y81.983
X90.066 Y81.982
X90.068 Y81.981
X90.072 Y81.979
G2 X92.532 Y82.568 I7.104 J-24.236
X96.073 Y82.938 I4.498 J-25.968
X97.381 Y82.267 I0.058 J-1.499
X98.277 Y80.866 I-45.038 J-29.791
X98.336 Y79.395 I-1.276 J-0.789
G1 X98.314 Y79.351
G2 X94.944 Y74.348 I-21.176 J10.628
G1 X94.95 Y74.34
X94.951 Y74.336
X94.952 Y74.333
X94.953 Y74.331
X94.954 Y74.328
X94.955 Y74.325
X94.956 Y74.323
X94.959 Y74.32
X94.96 Y74.318
X94.962 Y74.316
X94.964 Y74.313
X94.966 Y74.311
X94.968 Y74.309
X94.97 Y74.308
X94.973 Y74.306
X94.976 Y74.304
X94.978 Y74.303
G2 X101.043 Y74.106 I2.283 J-23.121
G1 X101.193 Y74.076
X101.34 Y74.03
X101.481 Y73.97
X101.616 Y73.896
X101.742 Y73.808
X101.858 Y73.708
X101.964 Y73.596
X102.058 Y73.474
X102.138 Y73.343
X102.205 Y73.204
G2 X102.819 Y71.66 I-49.866 J-20.72
X102.606 Y70.213 I-1.402 J-0.533
G1 X102.576 Y70.174
G2 X98.313 Y65.89 I-18.759 J14.407
G1 X98.318 Y65.881
Y65.878
Y65.875
X98.319 Y65.871
Y65.869
X98.32 Y65.866
X98.321 Y65.863
X98.322 Y65.86
X98.323 Y65.857
X98.325 Y65.855
X98.326 Y65.853
X98.328 Y65.85
X98.33 Y65.847
X98.331 Y65.846
X98.334 Y65.844
X98.336 Y65.841
G2 X104.256 Y64.499 I-2.167 J-23.28
G1 X104.398 Y64.441
X104.533 Y64.369
X104.661 Y64.283
X104.779 Y64.184
X104.886 Y64.074
X104.982 Y63.954
X105.064 Y63.824
X105.133 Y63.686
X105.188 Y63.542
X105.227 Y63.393
G2 X105.538 Y61.76 I-52.887 J-10.907
X105.05 Y60.376 I-1.478 J-0.258
G1 X105.013 Y60.343
G2 X100.021 Y56.948 I-15.696 J17.711
G1 X100.024 Y56.938
X100.023 Y56.934
Y56.931
Y56.929
Y56.926
Y56.922
X100.024 Y56.919
Y56.916
X100.025 Y56.913
X100.026 Y56.911
X100.027 Y56.909
X100.028 Y56.905
X100.03 Y56.902
X100.031 Y56.9
X100.032 Y56.898
G2 X101.617 Y56.38 I-11.387 J-37.49
X105.593 Y54.462 I-8.92 J-23.573
G1 X105.722 Y54.377
X105.842 Y54.28
X105.951 Y54.171
X106.049 Y54.052
X106.133 Y53.923
X106.204 Y53.786
X106.261 Y53.642
X106.302 Y53.493
X106.328 Y53.341
X106.338 Y53.187
G2 X106.334 Y51.525 I-53.996 J-0.697
X105.586 Y50.254 I-1.5 J0.027
G1 X105.543 Y50.229
G2 X100.005 Y47.844 I-12.056 J20.372
G1 X100.006 Y47.832
Y47.83
X100.005 Y47.828
X100.004 Y47.824
X100.003 Y47.821
Y47.818
Y47.815
Y47.812
Y47.81
Y47.807
X100.004 Y47.803
Y47.801
X100.005 Y47.798
X100.006 Y47.795
X100.008 Y47.792
G2 X101.983 Y46.659 I-12.328 J-23.786
X105.013 Y44.344 I-14.264 J-21.805
G1 X105.123 Y44.236
X105.221 Y44.118
X105.306 Y43.991
X105.379 Y43.855
X105.436 Y43.713
X105.479 Y43.566
X105.507 Y43.415
X105.519 Y43.261
X105.516 Y43.108
X105.496 Y42.955
G2 X105.178 Y41.324 I-53.15 J9.541
X104.211 Y40.22 I-1.468 J0.31
G1 X104.165 Y40.204
G2 X98.268 Y38.907 I-8.004 J22.338
G1 X98.266 Y38.896
X98.264 Y38.893
X98.263 Y38.891
X98.262 Y38.889
X98.261 Y38.886
X98.26 Y38.883
X98.259 Y38.879
Y38.876
X98.258 Y38.875
Y38.872
Y38.868
Y38.864
X98.259 Y38.862
Y38.859
X98.26 Y38.856
G2 X99.833 Y37.514 I-17.806 J-22.469
X102.523 Y34.52 I-17.729 J-18.637
G1 X102.61 Y34.394
X102.684 Y34.26
X102.744 Y34.119
X102.789 Y33.972
X102.818 Y33.822
X102.832 Y33.669
X102.831 Y33.516
X102.814 Y33.364
X102.781 Y33.214
X102.734 Y33.069
G2 X102.112 Y31.527 I-50.391 J19.41
X100.951 Y30.625 I-1.382 J0.582
G1 X100.902 Y30.618
G2 X94.87 Y30.461 I-3.629 J23.436
G1 X94.867 Y30.451
X94.864 Y30.448
X94.862 Y30.446
X94.86 Y30.443
X94.859 Y30.441
X94.858 Y30.439
X94.856 Y30.436
X94.855 Y30.433
X94.854 Y30.43
Y30.427
X94.853 Y30.425
X94.852 Y30.421
Y30.418
Y30.415
Y30.412
G2 X96.611 Y28.124 I-18.102 J-15.729
X98.217 Y25.351 I-22.309 J-14.783
X98.15 Y23.883 I-1.34 J-0.674
X97.249 Y22.486 I-45.809 J28.593
X95.934 Y21.821 I-1.247 J0.833
G1 X95.885 Y21.823
G2 X89.934 Y22.81 I0.874 J23.697
G1 X89.929 Y22.801
X89.927 Y22.799
X89.924 Y22.797
X89.923 Y22.795
X89.921 Y22.793
X89.918 Y22.79
X89.917 Y22.788
X89.915 Y22.786
X89.914 Y22.783
X89.912 Y22.78
X89.911 Y22.778
X89.91 Y22.775
Y22.772
X89.909 Y22.769
X89.908 Y22.766
G2 X91.163 Y20.278 I-20.893 J-12.094
X92.255 Y17.161 I-24.522 J-10.339
X91.911 Y15.73 I-1.443 J-0.41
X90.761 Y14.53 I-39.569 J36.747
X89.345 Y14.125 I-1.067 J1.054
G1 X89.297 Y14.136
G2 X83.641 Y16.232 I5.334 J23.079
G1 X83.634 Y16.223
X83.631 Y16.222
X83.629 Y16.221
X83.627 Y16.219
X83.624 Y16.217
X83.622 Y16.216
X83.619 Y16.214
X83.617 Y16.211
X83.615 Y16.209
X83.613 Y16.206
X83.612 Y16.204
X83.61 Y16.202
X83.609 Y16.199
X83.608 Y16.197
X83.607 Y16.194
G2 X84.116 Y14.559 I-36.735 J-12.342
X84.849 Y10.246 I-24.606 J-6.396
G1 X84.854 Y10.093
X84.844 Y9.939
X84.818 Y9.788
X84.777 Y9.64
X84.721 Y9.496
X84.651 Y9.36
X84.566 Y9.231
X84.47 Y9.112
X84.361 Y9.003
X84.242 Y8.906
G2 X82.886 Y7.944 I-31.9 J43.57
X81.42 Y7.814 I-0.848 J1.237
G1 X81.375 Y7.835
G2 X76.216 Y10.963 I9.647 J21.725
G1 X76.207 Y10.956
X76.205
X76.202 Y10.955
X76.2 Y10.954
X76.196 Y10.953
X76.193 Y10.951
X76.191 Y10.949
X76.189 Y10.948
X76.187 Y10.946
X76.184 Y10.944
X76.182 Y10.942
X76.18 Y10.939
X76.179 Y10.938
X76.177 Y10.935
X76.175 Y10.932
G2 X76.265 Y4.858 I-23.264 J-3.383
G1 X76.242 Y4.706
X76.204 Y4.558
X76.15 Y4.414
X76.082 Y4.277
X76 Y4.147
X75.906 Y4.026
X75.799 Y3.915
X75.682 Y3.816
X75.555 Y3.729
X75.419 Y3.656
G2 X73.906 Y2.969 I-23.077 J48.82
X72.442 Y3.119 I-0.599 J1.375
G1 X72.401 Y3.147
G2 X67.928 Y7.196 I13.563 J19.483
G1 X67.919 Y7.19
X67.916
X67.913
X67.91 Y7.189
X67.907 Y7.188
X67.904
X67.901 Y7.186
X67.899 Y7.185
X67.896 Y7.184
X67.893 Y7.182
X67.891 Y7.181
X67.889 Y7.179
X67.886 Y7.177
X67.884 Y7.175
X67.882 Y7.173
G2 X67.728 Y5.311 I-31.778 J1.701
X66.824 Y1.187 I-25.217 J3.366
G1 X66.772 Y1.043
X66.706 Y0.905
X66.625 Y0.774
X66.532 Y0.652
X66.427 Y0.54
X66.311 Y0.44
X66.185 Y0.352
X66.051 Y0.277
X65.91 Y0.217
X65.763 Y0.171
G2 X64.147 Y-0.217 I-13.421 J52.306
X62.737 Y0.208 I-0.328 J1.464
G1 X62.702 Y0.243
G2 X59.077 Y5.064 I16.999 J16.557
G1 X59.067 Y5.061
X59.064
X59.061
X59.058
X59.055
X59.052
X59.049 Y5.06
X59.046
X59.043 Y5.059
X59.04 Y5.058
X59.038 Y5.057
X59.035 Y5.055
X59.033 Y5.054
X59.03 Y5.052
X59.028 Y5.05
G2 X58.475 Y3.105 I-28.152 J6.949
X56.857 Y-0.624 I-24.219 J8.291
G1 X56.779 Y-0.756
X56.687 Y-0.88
X56.584 Y-0.994
X56.469 Y-1.096
X56.344 Y-1.186
X56.211 Y-1.263
X56.071 Y-1.326
X55.925 Y-1.374
X55.774 Y-1.407
X55.622 Y-1.424
G2 X53.961 Y-1.499 I-3.28 J53.9
X52.658 Y-0.816 I-0.045 J1.499
G1 X52.631 Y-0.775
G2 X49.983 Y4.646 I19.812 J13.036
G1 X49.972 Y4.645
X49.969 Y4.646
X49.966 Y4.647
X49.963
X49.96 Y4.648
X49.957
X49.954
X49.951
X49.948
X49.945 Y4.647
X49.943 Y4.646
X49.939
X49.936 Y4.644
X49.934 Y4.643
X49.931 Y4.642
X49.929 Y4.641
G2 X46.722 Y-0.517 I-21.288 J9.66
G1 X46.621 Y-0.632
X46.508 Y-0.736
X46.386 Y-0.828
X46.254 Y-0.907
X46.115 Y-0.972
X45.97 Y-1.022
X45.821 Y-1.058
X45.668 Y-1.078
X45.515 Y-1.082
X45.362 Y-1.071
G2 X43.717 Y-0.83 I6.981 J53.547
X42.567 Y0.086 I0.24 J1.481
G1 X42.548 Y0.132
G2 X40.973 Y5.957 I21.944 J9.058
G1 X40.962 Y5.958
X40.96 Y5.959
X40.957 Y5.961
X40.954 Y5.962
X40.952 Y5.963
X40.949 Y5.964
X40.946
X40.943 Y5.965
X40.94
X40.937
X40.934
X40.931
X40.928 Y5.964
X40.925
X40.922 Y5.963
G2 X39.656 Y4.327 I-23.325 J16.742
X36.799 Y1.501 I-19.49 J16.854
G1 X36.677 Y1.408
X36.546 Y1.327
X36.407 Y1.26
X36.263 Y1.208
X36.114 Y1.17
X35.961 Y1.148
X35.808 Y1.142
X35.654 Y1.152
X35.502 Y1.177
X35.354 Y1.218
G2 X33.784 Y1.765 I16.988 J51.258
X32.828 Y2.883 I0.515 J1.409
G1 X32.819 Y2.931
G2 X32.375 Y8.95 I23.262 J4.742
G1 X32.364 Y8.953
X32.362 Y8.954
X32.36 Y8.956
X32.357 Y8.957
X32.355 Y8.959
X32.353 Y8.96
X32.349 Y8.962
X32.346 Y8.963
X32.343
X32.341 Y8.964
X32.338
X32.335 Y8.965
X32.332
X32.329
X32.326 Y8.964
G2 X30.69 Y7.532 I-18.721 J19.728
X27.432 Y5.364 I-15.898 J20.357
G1 X27.295 Y5.295
X27.151 Y5.241
X27.002 Y5.201
X26.85 Y5.177
X26.697 Y5.169
X26.543 Y5.176
X26.391 Y5.199
X26.242 Y5.238
X26.098 Y5.291
X25.96 Y5.36
G2 X24.523 Y6.194 I26.382 J47.117
X23.795 Y7.473 I0.773 J1.286
G1 Y7.523
G2 X24.498 Y13.515 I23.719 J0.255
G1 X24.488 Y13.52
X24.486 Y13.522
X24.485 Y13.524
X24.483 Y13.526
X24.48 Y13.528
X24.478 Y13.53
X24.476 Y13.531
X24.473 Y13.533
X24.47 Y13.534
X24.467 Y13.536
X24.464 Y13.537
X24.461
X24.458 Y13.538
X24.456 Y13.539
X24.453
G2 X22.528 Y12.417 I-14.587 J22.816
X18.967 Y10.93 I-11.769 J23.168
G1 X18.819 Y10.888
X18.667 Y10.862
X18.514 Y10.851
X18.36 Y10.856
X18.208 Y10.877
X18.058 Y10.913
X17.913 Y10.965
X17.774 Y11.031
X17.643 Y11.111
X17.52 Y11.204
G2 X16.266 Y12.295 I34.822 J41.273
X15.795 Y13.69 I1.002 J1.116
G1 X15.804 Y13.739
G2 X17.628 Y19.489 I23.306 J-4.23
G1 X17.619 Y19.495
X17.618 Y19.498
X17.616 Y19.5
X17.614 Y19.503
X17.613 Y19.504
X17.611 Y19.507
X17.608 Y19.509
X17.606 Y19.511
X17.604 Y19.513
X17.601 Y19.515
X17.599 Y19.516
X17.597 Y19.517
X17.593 Y19.519
X17.59 Y19.52
X17.588 Y19.521
G2 X15.246 Y18.715 I-9.426 J23.58
X11.705 Y17.996 I-6.998 J25.398
X10.339 Y18.54 I-0.2 J1.486
X9.314 Y19.849 I42.003 J33.938
X9.114 Y21.307 I1.195 J0.906
G1 X9.133 Y21.353
G2 X12.012 Y26.654 I22.114 J-8.579
G1 X12.005 Y26.662
X12.004 Y26.666
X12.003 Y26.667
X12.002 Y26.67
X12 Y26.673
X11.999 Y26.676
X11.997 Y26.679
X11.995 Y26.681
X11.993 Y26.683
X11.991 Y26.685
X11.989 Y26.687
X11.987 Y26.689
X11.984 Y26.69
X11.982 Y26.692
X11.979 Y26.694
G2 X9.676 Y26.359 I-4.883 J25.493
X5.917 Y26.31 I-2.215 J25.864
G1 X5.764 Y26.326
X5.614 Y26.358
X5.467 Y26.405
X5.326 Y26.467
X5.192 Y26.543
X5.067 Y26.632
X4.951 Y26.734
X4.847 Y26.847
X4.754 Y26.97
X4.675 Y27.102
G2 X3.917 Y28.581 I47.668 J25.373
X3.997 Y30.051 I1.345 J0.664
G1 X4.023 Y30.093
G2 X7.854 Y34.754 I20.11 J-12.624
G1 X7.848 Y34.763
Y34.766
Y34.769
X7.847 Y34.772
X7.846 Y34.774
X7.845 Y34.777
X7.844 Y34.78
X7.842 Y34.783
X7.841 Y34.785
X7.839 Y34.787
X7.837 Y34.79
X7.835 Y34.792
X7.834 Y34.794
X7.831 Y34.796
X7.829 Y34.798
G2 X6.065 Y34.856 I0.234 J33.921
X1.804 Y35.57 I2.029 J25.198
G1 X1.657 Y35.614
X1.515 Y35.674
X1.38 Y35.748
X1.254 Y35.835
X1.136 Y35.935
X1.03 Y36.047
X0.936 Y36.168
X0.855 Y36.299
X0.787 Y36.437
X0.734 Y36.582
G2 X0.27 Y38.178 I51.608 J15.894
X0.626 Y39.606 I1.446 J0.397
G1 X0.66 Y39.642
G2 X5.304 Y43.493 I17.355 J-16.2
G1 X5.3 Y43.503
Y43.506
Y43.509
Y43.512
Y43.515
Y43.518
X5.299 Y43.521
X5.298 Y43.524
X5.297 Y43.527
X5.296 Y43.529
X5.295 Y43.532
X5.293 Y43.535
X5.291 Y43.537
X5.29 Y43.54
X5.288 Y43.542
G2 X3.27 Y44.015 I5.464 J27.838
X-0.484 Y45.44 I7.22 J24.684
G1 X-0.62 Y45.512
X-0.747 Y45.597
X-0.866 Y45.695
X-0.973 Y45.805
X-1.069 Y45.925
X-1.152 Y46.055
X-1.222 Y46.192
X-1.277 Y46.335
X-1.317 Y46.484
X-1.341 Y46.636
G2 X-1.495 Y48.291 I53.683 J5.84
X-0.874 Y49.626 I1.495 J0.116
G1 X-0.834 Y49.655
G2 X4.454 Y52.557 I13.96 J-19.166
G1 X4.452 Y52.568
X4.453 Y52.571
Y52.574
X4.454 Y52.577
Y52.58
Y52.583
Y52.586
Y52.589
X4.453 Y52.592
Y52.595
X4.452 Y52.597
X4.451 Y52.6
X4.45 Y52.603
X4.449 Y52.606
X4.447 Y52.609
X4.446 Y52.611
G2 X-0.858 Y55.568 I8.64 J21.73
G1 X-0.978 Y55.664
X-1.087 Y55.771
X-1.185 Y55.889
X-1.27 Y56.017
X-1.342 Y56.153
X-1.399 Y56.295
X-1.442 Y56.443
X-1.469 Y56.594
X-1.481 Y56.747
X-1.476 Y56.901
G2 X-1.315 Y58.555 I53.818 J-4.425
X-0.452 Y59.749 I1.49 J-0.169
G1 X-0.407 Y59.769
G2 X5.335 Y61.619 I10.08 J-21.46
G1 Y61.63
X5.336 Y61.632
X5.337 Y61.635
X5.338 Y61.638
X5.339 Y61.641
X5.34 Y61.644
Y61.647
X5.341 Y61.65
Y61.653
Y61.656
X5.34 Y61.659
Y61.661
X5.339 Y61.664
Y61.667
X5.338 Y61.67
G2 X3.443 Y63.014 I14.234 J22.076
X0.684 Y65.578 I16.323 J20.336
G1 X0.585 Y65.695
X0.498 Y65.822
X0.425 Y65.957
X0.366 Y66.099
X0.322 Y66.246
X0.293 Y66.397
X0.279 Y66.55
X0.282 Y66.704
X0.3 Y66.856
X0.334 Y67.006
G2 X0.805 Y68.6 I52.008 J-14.53
X1.876 Y69.608 I1.432 J-0.448
G1 X1.924 Y69.62
G2 X7.914 Y70.35 I5.84 J-22.986
G1 X7.916 Y70.36
X7.918 Y70.363
X7.92 Y70.365
X7.922 Y70.368
X7.923 Y70.371
X7.924 Y70.373
X7.925 Y70.376
X7.926 Y70.379
X7.927 Y70.382
Y70.385
X7.928 Y70.388
Y70.391
Y70.394
X7.927 Y70.397
Y70.4
G2 X6.421 Y71.962 I18.986 J19.807
X4.097 Y75.118 I19.624 J16.887
G1 X4.021 Y75.252
X3.96 Y75.393
X3.914 Y75.539
X3.883 Y75.69
X3.868 Y75.843
Y75.996
X3.884 Y76.149
X3.915 Y76.299
X3.962 Y76.446
X4.023 Y76.586
G2 X4.788 Y78.062 I48.319 J-24.11
X6.033 Y78.849 I1.321 J-0.711
G1 X6.083 Y78.852
G2 X12.1 Y78.435 I1.382 J-23.665
G1 X12.104 Y78.445
X12.107 Y78.447
X12.108 Y78.449
X12.11 Y78.451
X12.112 Y78.454
X12.114 Y78.456
X12.115 Y78.458
X12.117 Y78.461
X12.118 Y78.464
X12.119 Y78.466
X12.12 Y78.469
X12.121 Y78.472
Y78.476
X12.122 Y78.479
Y78.481
Y78.484
Y78.487
G2 X9.258 Y83.842 I18.891 J13.543
G1 X9.21 Y83.987
X9.176 Y84.136
X9.158 Y84.288
X9.155 Y84.441
X9.168 Y84.594
X9.197 Y84.744
X9.241 Y84.891
X9.3 Y85.033
X9.373 Y85.168
X9.459 Y85.295
G2 X10.49 Y86.599 I42.885 J-32.816
X11.858 Y87.137 I1.163 J-0.948
G1 X11.907 Y87.13
G2 X17.74 Y85.581 I-3.113 J-23.476
G1 X17.746 Y85.591
X17.748 Y85.592
X17.751 Y85.594
X17.753 Y85.596
X17.755 Y85.597
X17.757 Y85.6
X17.759 Y85.602
X17.761 Y85.605
X17.763 Y85.607
X17.765 Y85.609
X17.766 Y85.612
X17.767 Y85.614
X17.768 Y85.617
X17.769 Y85.62
X17.77 Y85.624
G2 X16.728 Y88.315 I21.701 J9.954
X15.968 Y91.424 I25.609 J7.908
X16.445 Y92.818 I1.475 J0.273
X17.704 Y93.903 I35.897 J-40.341
X19.151 Y94.172 I0.962 J-1.151
G1 X19.198 Y94.156
G2 X24.63 Y91.532 I-7.519 J-22.502
G1 X24.638 Y91.54
X24.64 Y91.541
X24.643 Y91.542
X24.646 Y91.543
X24.648 Y91.545
X24.651 Y91.546
X24.653 Y91.548
X24.656 Y91.55
X24.658 Y91.553
X24.66 Y91.554
X24.662 Y91.556
X24.664 Y91.559
X24.665 Y91.562
X24.667 Y91.564
X24.668 Y91.567
G2 X24.276 Y93.497 I28.971 J6.889
X23.997 Y97.608 I25.251 J3.778
G1 X24.006 Y97.761
X24.031 Y97.913
X24.071 Y98.061
X24.126 Y98.204
X24.196 Y98.341
X24.279 Y98.47
X24.375 Y98.59
X24.483 Y98.699
X24.601 Y98.797
X24.729 Y98.882
G2 X26.17 Y99.71 I27.614 J-46.406
X27.643 Y99.699 I0.727 J-1.312
G1 X27.686 Y99.675
G2 X32.522 Y96.07 I-11.631 J-20.655
G1 X32.532 Y96.077
X32.534
X32.537 Y96.078
X32.54 Y96.079
X32.543 Y96.08
X32.545 Y96.081
X32.548 Y96.082
X32.551 Y96.084
X32.553 Y96.085
X32.556 Y96.087
X32.558 Y96.089
X32.56 Y96.091
X32.562 Y96.093
X32.564 Y96.095
X32.566 Y96.098
X32.567 Y96.1
X32.569 Y96.103
G2 X33.055 Y102.152 I23.163 J1.182
G1 X33.092 Y102.301
X33.144 Y102.445
X33.211 Y102.583
X33.292 Y102.714
X33.385 Y102.836
X33.491 Y102.947
X33.607 Y103.047
X33.734 Y103.135
X33.868 Y103.21
X34.01 Y103.27
G2 X35.582 Y103.81 I18.328 J-50.795
X37.038 Y103.51 I0.465 J-1.426
G1 X37.068 Y103.484
G2 X41.131 Y99.033 I-15.315 J-18.062
G1 X41.14 Y99.038
X41.143
X41.147
X41.15
X41.152 Y99.039
X41.156
X41.159 Y99.04
X41.161 Y99.041
X41.164 Y99.042
X41.166 Y99.043
X41.169 Y99.045
X41.172 Y99.047
X41.174 Y99.049
X41.176 Y99.05
X41.179 Y99.052
G2 X41.628 Y101.39 I25.946 J-3.772
X42.799 Y104.906 I25.432 J-6.516
X43.953 Y105.821 I1.388 J-0.567
X45.599 Y106.054 I8.407 J-53.342
X46.966 Y105.494 I0.188 J-1.488
G1 X46.996 Y105.455
G2 X50.144 Y100.314 I-18.469 J-14.843
G1 X50.155 Y100.317
X50.158 Y100.316
X50.161 Y100.315
X50.164
X50.167
X50.17
X50.173
X50.175 Y100.316
X50.178
X50.181 Y100.317
X50.185 Y100.318
X50.188 Y100.319
X50.19 Y100.32
X50.192 Y100.322
X50.195 Y100.323
X50.197 Y100.325
G2 X52.902 Y105.769 I22.16 J-7.616
G1 X52.988 Y105.887
X53.085 Y105.996
X53.192 Y106.096
X53.309 Y106.184
X53.433 Y106.26
X53.565 Y106.324
X53.702 Y106.375
X53.844 Y106.412
X53.988 Y106.436
X54.134 Y106.445
Z-1.5 F333.3
X54.2 Y106.444 F1000
G2 X55.861 Y106.362 I-1.843 J-53.968
X57.095 Y105.555 I-0.097 J-1.497
G1 X57.118 Y105.511
G2 X59.237 Y99.865 I-20.924 J-11.075
G1 X59.248 Y99.866
X59.251 Y99.865
X59.254 Y99.864
X59.257 Y99.863
X59.26 Y99.862
X59.262
X59.266 Y99.861
X59.268
X59.271
X59.275
X59.278 Y99.862
X59.28
X59.283 Y99.863
X59.286 Y99.864
X59.289 Y99.865
G2 X60.307 Y101.49 I27.233 J-15.934
X62.977 Y104.706 I20.97 J-14.696
G1 X63.09 Y104.809
X63.212 Y104.9
X63.343 Y104.979
X63.481 Y105.044
X63.625 Y105.094
X63.774 Y105.13
X63.925 Y105.15
X64.078 Y105.154
X64.23 Y105.144
X64.38 Y105.117
G2 X65.995 Y104.722 I-12.024 J-52.644
X67.054 Y103.697 I-0.379 J-1.451
G1 X67.068 Y103.65
G2 X68.081 Y97.704 I-22.645 J-6.917
G1 X68.092 Y97.702
X68.095 Y97.701
X68.097 Y97.699
X68.099 Y97.698
X68.102 Y97.697
X68.105 Y97.696
X68.108 Y97.695
X68.111 Y97.694
X68.114 Y97.693
X68.117
X68.12
X68.122
X68.126
X68.129
X68.132 Y97.694
G2 X69.769 Y99.413 I19.502 J-16.931
X72.668 Y101.749 I17.821 J-19.154
X74.125 Y101.888 I0.853 J-1.234
X75.636 Y101.194 I-21.778 J-49.413
X76.482 Y99.989 I-0.647 J-1.353
G1 X76.487 Y99.94
G2 X76.356 Y93.908 I-23.593 J-2.508
G1 X76.367 Y93.904
X76.369 Y93.902
X76.371 Y93.9
X76.373 Y93.899
X76.375 Y93.897
X76.378 Y93.895
X76.381 Y93.894
X76.383 Y93.893
X76.386 Y93.892
X76.39 Y93.89
X76.392
X76.395 Y93.889
X76.398
X76.401
X76.404
G2 X78.468 Y95.35 I15.607 J-19.862
X81.616 Y97.008 I13.882 J-22.538
X83.083 Y96.872 I0.613 J-1.369
X84.435 Y95.905 I-30.741 J-44.396
X85.037 Y94.562 I-0.891 J-1.206
G1 X85.033 Y94.513
G2 X83.763 Y88.615 I-23.619 J1.998
G1 X83.772 Y88.61
X83.774 Y88.607
X83.776 Y88.604
X83.778 Y88.602
X83.78 Y88.6
X83.783 Y88.598
X83.785 Y88.596
X83.787 Y88.594
X83.789 Y88.593
X83.792 Y88.591
X83.795 Y88.59
X83.798 Y88.589
X83.8 Y88.588
X83.804 Y88.587
X83.806 Y88.586
G2 X85.824 Y89.519 I12.381 J-24.147
X89.518 Y90.663 I9.549 J-24.287
G1 X89.669 Y90.69
X89.823 Y90.702
X89.976 Y90.698
X90.128 Y90.678
X90.278 Y90.643
X90.423 Y90.592
X90.562 Y90.527
X90.694 Y90.448
X90.817 Y90.356
X90.93 Y90.252
G2 X92.074 Y89.047 I-38.588 J-37.775
X92.411 Y87.611 I-1.104 J-1.016
G1 X92.397 Y87.564
G2 X90.034 Y82.015 I-22.81 J6.433
G1 X90.043 Y82.008
X90.044 Y82.005
X90.045 Y82.003
X90.047 Y82
X90.049 Y81.997
X90.05 Y81.995
X90.052 Y81.993
X90.054 Y81.991
X90.056 Y81.989
X90.059 Y81.987
X90.061 Y81.985
X90.064 Y81.983
X90.066 Y81.982
X90.068 Y81.981
X90.072 Y81.979
G2 X92.532 Y82.568 I7.104 J-24.236
X96.073 Y82.938 I4.498 J-25.968
X97.381 Y82.267 I0.058 J-1.499
X98.277 Y80.866 I-45.038 J-29.791
X98.336 Y79.395 I-1.276 J-0.789
G1 X98.314 Y79.351
G2 X94.944 Y74.348 I-21.176 J10.628
G1 X94.95 Y74.34
X94.951 Y74.336
X94.952 Y74.333
X94.953 Y74.331
X94.954 Y74.328
X94.955 Y74.325
X94.956 Y74.323
X94.959 Y74.32
X94.96 Y74.318
X94.962 Y74.316
X94.964 Y74.313
X94.966 Y74.311
X94.968 Y74.309
X94.97 Y74.308
X94.973 Y74.306
X94.976 Y74.304
X94.978 Y74.303
G2 X101.043 Y74.106 I2.283 J-23.121
G1 X101.193 Y74.076
X101.34 Y74.03
X101.481 Y73.97
X101.616 Y73.896
X101.742 Y73.808
X101.858 Y73.708
X101.964 Y73.596
X102.058 Y73.474
X102.138 Y73.343
X102.205 Y73.204
G2 X102.819 Y71.66 I-49.866 J-20.72
X102.606 Y70.213 I-1.402 J-0.533
G1 X102.576 Y70.174
G2 X98.313 Y65.89 I-18.759 J14.407
G1 X98.318 Y65.881
Y65.878
Y65.875
X98.319 Y65.871
Y65.869
X98.32 Y65.866
X98.321 Y65.863
X98.322 Y65.86
X98.323 Y65.857
X98.325 Y65.855
X98.326 Y65.853
X98.328 Y65.85
X98.33 Y65.847
X98.331 Y65.846
X98.334 Y65.844
X98.336 Y65.841
G2 X104.256 Y64.499 I-2.167 J-23.28
G1 X104.398 Y64.441
X104.533 Y64.369
X104.661 Y64.283
X104.779 Y64.184
X104.886 Y64.074
X104.982 Y63.954
X105.064 Y63.824
X105.133 Y63.686
X105.188 Y63.542
X105.227 Y63.393
G2 X105.538 Y61.76 I-52.887 J-10.907
X105.05 Y60.376 I-1.478 J-0.258
G1 X105.013 Y60.343
G2 X100.021 Y56.948 I-15.696 J17.711
G1 X100.024 Y56.938
X100.023 Y56.934
Y56.931
Y56.929
Y56.926
Y56.922
X100.024 Y56.919
Y56.916
X100.025 Y56.913
X100.026 Y56.911
X100.027 Y56.909
X100.028 Y56.905
X100.03 Y56.902
X100.031 Y56.9
X100.032 Y56.898
G2 X101.617 Y56.38 I-11.387 J-37.49
X105.593 Y54.462 I-8.92 J-23.573
G1 X105.722 Y54.377
X105.842 Y54.28
X105.951 Y54.171
X106.049 Y54.052
X106.133 Y53.923
X106.204 Y53.786
X106.261 Y53.642
X106.302 Y53.493
X106.328 Y53.341
X106.338 Y53.187
G2 X106.334 Y51.525 I-53.996 J-0.697
X105.586 Y50.254 I-1.5 J0.027
G1 X105.543 Y50.229
G2 X100.005 Y47.844 I-12.056 J20.372
G1 X100.006 Y47.832
Y47.83
X100.005 Y47.828
X100.004 Y47.824
X100.003 Y47.821
Y47.818
Y47.815
Y47.812
Y47.81
Y47.807
X100.004 Y47.803
Y47.801
X100.005 Y47.798
X100.006 Y47.795
X100.008 Y47.792
G2 X101.983 Y46.659 I-12.328 J-23.786
X105.013 Y44.344 I-14.264 J-21.805
G1 X105.123 Y44.236
X105.221 Y44.118
X105.306 Y43.991
X105.379 Y43.855
X105.436 Y43.713
X105.479 Y43.566
X105.507 Y43.415
X105.519 Y43.261
X105.516 Y43.108
X105.496 Y42.955
G2 X105.178 Y41.324 I-53.15 J9.541
X104.211 Y40.22 I-1.468 J0.31
G1 X104.165 Y40.204
G2 X98.268 Y38.907 I-8.004 J22.338
G1 X98.266 Y38.896
X98.264 Y38.893
X98.263 Y38.891
X98.262 Y38.889
X98.261 Y38.886
X98.26 Y38.883
X98.259 Y38.879
Y38.876
X98.258 Y38.875
Y38.872
Y38.868
Y38.864
X98.259 Y38.862
Y38.859
X98.26 Y38.856
G2 X99.833 Y37.514 I-17.806 J-22.469
X102.523 Y34.52 I-17.729 J-18.637
G1 X102.61 Y34.394
X102.684 Y34.26
X102.744 Y34.119
X102.789 Y33.972
X102.818 Y33.822
X102.832 Y33.669
X102.831 Y33.516
X102.814 Y33.364
X102.781 Y33.214
X102.734 Y33.069
G2 X102.112 Y31.527 I-50.391 J19.41
X100.951 Y30.625 I-1.382 J0.582
G1 X100.902 Y30.618
G2 X94.87 Y30.461 I-3.629 J23.436
G1 X94.867 Y30.451
X94.864 Y30.448
X94.862 Y30.446
X94.86 Y30.443
X94.859 Y30.441
X94.858 Y30.439
X94.856 Y30.436
X94.855 Y30.433
X94.854 Y30.43
Y30.427
X94.853 Y30.425
X94.852 Y30.421
Y30.418
Y30.415
Y30.412
G2 X96.611 Y28.124 I-18.102 J-15.729
X98.217 Y25.351 I-22.309 J-14.783
X98.15 Y23.883 I-1.34 J-0.674
X97.249 Y22.486 I-45.809 J28.593
X95.934 Y21.821 I-1.247 J0.833
G1 X95.885 Y21.823
G2 X89.934 Y22.81 I0.874 J23.697
G1 X89.929 Y22.801
X89.927 Y22.799
X89.924 Y22.797
X89.923 Y22.795
X89.921 Y22.793
X89.918 Y22.79
X89.917 Y22.788
X89.915 Y22.786
X89.914 Y22.783
X89.912 Y22.78
X89.911 Y22.778
X89.91 Y22.775
Y22.772
X89.909 Y22.769
X89.908 Y22.766
G2 X91.163 Y20.278 I-20.893 J-12.094
X92.255 Y17.161 I-24.522 J-10.339
X91.911 Y15.73 I-1.443 J-0.41
X90.761 Y14.53 I-39.569 J36.747
X89.345 Y14.125 I-1.067 J1.054
G1 X89.297 Y14.136
G2 X83.641 Y16.232 I5.334 J23.079
G1 X83.634 Y16.223
X83.631 Y16.222
X83.629 Y16.221
X83.627 Y16.219
X83.624 Y16.217
X83.622 Y16.216
X83.619 Y16.214
X83.617 Y16.211
X83.615 Y16.209
X83.613 Y16.206
X83.612 Y16.204
X83.61 Y16.202
X83.609 Y16.199
X83.608 Y16.197
X83.607 Y16.194
G2 X84.116 Y14.559 I-36.735 J-12.342
X84.849 Y10.246 I-24.606 J-6.396
G1 X84.854 Y10.093
X84.844 Y9.939
X84.818 Y9.788
X84.777 Y9.64
X84.721 Y9.496
X84.651 Y9.36
X84.566 Y9.231
X84.47 Y9.112
X84.361 Y9.003
X84.242 Y8.906
G2 X82.886 Y7.944 I-31.9 J43.57
X81.42 Y7.814 I-0.848 J1.237
G1 X81.375 Y7.835
G2 X76.216 Y10.963 I9.647 J21.725
G1 X76.207 Y10.956
X76.205
X76.202 Y10.955
X76.2 Y10.954
X76.196 Y10.953
X76.193 Y10.951
X76.191 Y10.949
X76.189 Y10.948
X76.187 Y10.946
X76.184 Y10.944
X76.182 Y10.942
X76.18 Y10.939
X76.179 Y10.938
X76.177 Y10.935
X76.175 Y10.932
G2 X76.265 Y4.858 I-23.264 J-3.383
G1 X76.242 Y4.706
X76.204 Y4.558
X76.15 Y4.414
X76.082 Y4.277
X76 Y4.147
X75.906 Y4.026
X75.799 Y3.915
X75.682 Y3.816
X75.555 Y3.729
X75.419 Y3.656
G2 X73.906 Y2.969 I-23.077 J48.82
X72.442 Y3.119 I-0.599 J1.375
G1 X72.401 Y3.147
G2 X67.928 Y7.196 I13.563 J19.483
G1 X67.919 Y7.19
X67.916
X67.913
X67.91 Y7.189
X67.907 Y7.188
X67.904
X67.901 Y7.186
X67.899 Y7.185
X67.896 Y7.184
X67.893 Y7.182
X67.891 Y7.181
X67.889 Y7.179
X67.886 Y7.177
X67.884 Y7.175
X67.882 Y7.173
G2 X67.728 Y5.311 I-31.778 J1.701
X66.824 Y1.187 I-25.217 J3.366
G1 X66.772 Y1.043
X66.706 Y0.905
X66.625 Y0.774
X66.532 Y0.652
X66.427 Y0.54
X66.311 Y0.44
X66.185 Y0.352
X66.051 Y0.277
X65.91 Y0.217
X65.763 Y0.171
G2 X64.147 Y-0.217 I-13.421 J52.306
X62.737 Y0.208 I-0.328 J1.464
G1 X62.702 Y0.243
G2 X59.077 Y5.064 I16.999 J16.557
G1 X59.067 Y5.061
X59.064
X59.061
X59.058
X59.055
X59.052
X59.049 Y5.06
X59.046
X59.043 Y5.059
X59.04 Y5.058
X59.038 Y5.057
X59.035 Y5.055
X59.033 Y5.054
X59.03 Y5.052
X59.028 Y5.05
G2 X58.475 Y3.105 I-28.152 J6.949
X56.857 Y-0.624 I-24.219 J8.291
G1 X56.779 Y-0.756
X56.687 Y-0.88
X56.584 Y-0.994
X56.469 Y-1.096
X56.344 Y-1.186
X56.211 Y-1.263
X56.071 Y-1.326
X55.925 Y-1.374
X55.774 Y-1.407
X55.622 Y-1.424
G2 X53.961 Y-1.499 I-3.28 J53.9
X52.658 Y-0.816 I-0.045 J1.499
G1 X52.631 Y-0.775
G2 X49.983 Y4.646 I19.812 J13.036
G1 X49.972 Y4.645
X49.969 Y4.646
X49.966 Y4.647
X49.963
X49.96 Y4.648
X49.957
X49.954
X49.951
X49.948
X49.945 Y4.647
X49.943 Y4.646
X49.939
X49.936 Y4.644
X49.934 Y4.643
X49.931 Y4.642
X49.929 Y4.641
G2 X46.722 Y-0.517 I-21.288 J9.66
G1 X46.621 Y-0.632
X46.508 Y-0.736
X46.386 Y-0.828
X46.254 Y-0.907
X46.115 Y-0.972
X45.97 Y-1.022
X45.821 Y-1.058
X45.668 Y-1.078
X45.515 Y-1.082
X45.362 Y-1.071
G2 X43.717 Y-0.83 I6.981 J53.547
X42.567 Y0.086 I0.24 J1.481
G1 X42.548 Y0.132
G2 X40.973 Y5.957 I21.944 J9.058
G1 X40.962 Y5.958
X40.96 Y5.959
X40.957 Y5.961
X40.954 Y5.962
X40.952 Y5.963
X40.949 Y5.964
X40.946
X40.943 Y5.965
X40.94
X40.937
X40.934
X40.931
X40.928 Y5.964
X40.925
X40.922 Y5.963
G2 X39.656 Y4.327 I-23.325 J16.742
X36.799 Y1.501 I-19.49 J16.854
G1 X36.677 Y1.408
X36.546 Y1.327
X36.407 Y1.26
X36.263 Y1.208
X36.114 Y1.17
X35.961 Y1.148
X35.808 Y1.142
X35.654 Y1.152
X35.502 Y1.177
X35.354 Y1.218
G2 X33.784 Y1.765 I16.988 J51.258
X32.828 Y2.883 I0.515 J1.409
G1 X32.819 Y2.931
G2 X32.375 Y8.95 I23.262 J4.742
G1 X32.364 Y8.953
X32.362 Y8.954
X32.36 Y8.956
X32.357 Y8.957
X32.355 Y8.959
X32.353 Y8.96
X32.349 Y8.962
X32.346 Y8.963
X32.343
X32.341 Y8.964
X32.338
X32.335 Y8.965
X32.332
X32.329
X32.326 Y8.964
G2 X30.69 Y7.532 I-18.721 J19.728
X27.432 Y5.364 I-15.898 J20.357
G1 X27.295 Y5.295
X27.151 Y5.241
X27.002 Y5.201
X26.85 Y5.177
X26.697 Y5.169
X26.543 Y5.176
X26.391 Y5.199
X26.242 Y5.238
X26.098 Y5.291
X25.96 Y5.36
G2 X24.523 Y6.194 I26.382 J47.117
X23.795 Y7.473 I0.773 J1.286
G1 Y7.523
G2 X24.498 Y13.515 I23.719 J0.255
G1 X24.488 Y13.52
X24.486 Y13.522
X24.485 Y13.524
X24.483 Y13.526
X24.48 Y13.528
X24.478 Y13.53
X24.476 Y13.531
X24.473 Y13.533
X24.47 Y13.534
X24.467 Y13.536
X24.464 Y13.537
X24.461
X24.458 Y13.538
X24.456 Y13.539
X24.453
G2 X22.528 Y12.417 I-14.587 J22.816
X18.967 Y10.93 I-11.769 J23.168
G1 X18.819 Y10.888
X18.667 Y10.862
X18.514 Y10.851
X18.36 Y10.856
X18.208 Y10.877
X18.058 Y10.913
X17.913 Y10.965
X17.774 Y11.031
X17.643 Y11.111
X17.52 Y11.204
G2 X16.266 Y12.295 I34.822 J41.273
X15.795 Y13.69 I1.002 J1.116
G1 X15.804 Y13.739
G2 X17.628 Y19.489 I23.306 J-4.23
G1 X17.619 Y19.495
X17.618 Y19.498
X17.616 Y19.5
X17.614 Y19.503
X17.613 Y19.504
X17.611 Y19.507
X17.608 Y19.509
X17.606 Y19.511
X17.604 Y19.513
X17.601 Y19.515
X17.599 Y19.516
X17.597 Y19.517
X17.593 Y19.519
X17.59 Y19.52
X17.588 Y19.521
G2 X15.246 Y18.715 I-9.426 J23.58
X11.705 Y17.996 I-6.998 J25.398
X10.339 Y18.54 I-0.2 J1.486
X9.314 Y19.849 I42.003 J33.938
X9.114 Y21.307 I1.195 J0.906
G1 X9.133 Y21.353
G2 X12.012 Y26.654 I22.114 J-8.579
G1 X12.005 Y26.662
X12.004 Y26.666
X12.003 Y26.667
X12.002 Y26.67
X12 Y26.673
X11.999 Y26.676
X11.997 Y26.679
X11.995 Y26.681
X11.993 Y26.683
X11.991 Y26.685
X11.989 Y26.687
X11.987 Y26.689
X11.984 Y26.69
X11.982 Y26.692
X11.979 Y26.694
G2 X9.676 Y26.359 I-4.883 J25.493
X5.917 Y26.31 I-2.215 J25.864
G1 X5.764 Y26.326
X5.614 Y26.358
X5.467 Y26.405
X5.326 Y26.467
X5.192 Y26.543
X5.067 Y26.632
X4.951 Y26.734
X4.847 Y26.847
X4.754 Y26.97
X4.675 Y27.102
G2 X3.917 Y28.581 I47.668 J25.373
X3.997 Y30.051 I1.345 J0.664
G1 X4.023 Y30.093
G2 X7.854 Y34.754 I20.11 J-12.624
G1 X7.848 Y34.763
Y34.766
Y34.769
X7.847 Y34.772
X7.846 Y34.774
X7.845 Y34.777
X7.844 Y34.78
X7.842 Y34.783
X7.841 Y34.785
X7.839 Y34.787
X7.837 Y34.79
X7.835 Y34.792
X7.834 Y34.794
X7.831 Y34.796
X7.829 Y34.798
G2 X6.065 Y34.856 I0.234 J33.921
X1.804 Y35.57 I2.029 J25.198
G1 X1.657 Y35.614
X1.515 Y35.674
X1.38 Y35.748
X1.254 Y35.835
X1.136 Y35.935
X1.03 Y36.047
X0.936 Y36.168
X0.855 Y36.299
X0.787 Y36.437
X0.734 Y36.582
G2 X0.27 Y38.178 I51.608 J15.894
X0.626 Y39.606 I1.446 J0.397
G1 X0.66 Y39.642
G2 X5.304 Y43.493 I17.355 J-16.2
G1 X5.3 Y43.503
Y43.506
Y43.509
Y43.512
Y43.515
Y43.518
X5.299 Y43.521
X5.298 Y43.524
X5.297 Y43.527
X5.296 Y43.529
X5.295 Y43.532
X5.293 Y43.535
X5.291 Y43.537
X5.29 Y43.54
X5.288 Y43.542
G2 X3.27 Y44.015 I5.464 J27.838
X-0.484 Y45.44 I7.22 J24.684
G1 X-0.62 Y45.512
X-0.747 Y45.597
X-0.866 Y45.695
X-0.973 Y45.805
X-1.069 Y45.925
X-1.152 Y46.055
X-1.222 Y46.192
X-1.277 Y46.335
X-1.317 Y46.484
X-1.341 Y46.636
G2 X-1.495 Y48.291 I53.683 J5.84
X-0.874 Y49.626 I1.495 J0.116
G1 X-0.834 Y49.655
G2 X4.454 Y52.557 I13.96 J-19.166
G1 X4.452 Y52.568
X4.453 Y52.571
Y52.574
X4.454 Y52.577
Y52.58
Y52.583
Y52.586
Y52.589
X4.453 Y52.592
Y52.595
X4.452 Y52.597
X4.451 Y52.6
X4.45 Y52.603
X4.449 Y52.606
X4.447 Y52.609
X4.446 Y52.611
G2 X-0.858 Y55.568 I8.64 J21.73
G1 X-0.978 Y55.664
X-1.087 Y55.771
X-1.185 Y55.889
X-1.27 Y56.017
X-1.342 Y56.153
X-1.399 Y56.295
X-1.442 Y56.443
X-1.469 Y56.594
X-1.481 Y56.747
X-1.476 Y56.901
G2 X-1.315 Y58.555 I53.818 J-4.425
X-0.452 Y59.749 I1.49 J-0.169
G1 X-0.407 Y59.769
G2 X5.335 Y61.619 I10.08 J-21.46
G1 Y61.63
X5.336 Y61.632
X5.337 Y61.635
X5.338 Y61.638
X5.339 Y61.641
X5.34 Y61.644
Y61.647
X5.341 Y61.65
Y61.653
Y61.656
X5.34 Y61.659
Y61.661
X5.339 Y61.664
Y61.667
X5.338 Y61.67
G2 X3.443 Y63.014 I14.234 J22.076
X0.684 Y65.578 I16.323 J20.336
G1 X0.585 Y65.695
X0.498 Y65.822
X0.425 Y65.957
X0.366 Y66.099
X0.322 Y66.246
X0.293 Y66.397
X0.279 Y66.55
X0.282 Y66.704
X0.3 Y66.856
X0.334 Y67.006
G2 X0.805 Y68.6 I52.008 J-14.53
X1.876 Y69.608 I1.432 J-0.448
G1 X1.924 Y69.62
G2 X7.914 Y70.35 I5.84 J-22.986
G1 X7.916 Y70.36
X7.918 Y70.363
X7.92 Y70.365
X7.922 Y70.368
X7.923 Y70.371
X7.924 Y70.373
X7.925 Y70.376
X7.926 Y70.379
X7.927 Y70.382
Y70.385
X7.928 Y70.388
Y70.391
Y70.394
X7.927 Y70.397
Y70.4
G2 X6.421 Y71.962 I18.986 J19.807
X4.097 Y75.118 I19.624 J16.887
G1 X4.021 Y75.252
X3.96 Y75.393
X3.914 Y75.539
X3.883 Y75.69
X3.868 Y75.843
Y75.996
X3.884 Y76.149
X3.915 Y76.299
X3.962 Y76.446
X4.023 Y76.586
G2 X4.788 Y78.062 I48.319 J-24.11
X6.033 Y78.849 I1.321 J-0.711
G1 X6.083 Y78.852
G2 X12.1 Y78.435 I1.382 J-23.665
G1 X12.104 Y78.445
X12.107 Y78.447
X12.108 Y78.449
X12.11 Y78.451
X12.112 Y78.454
X12.114 Y78.456
X12.115 Y78.458
X12.117 Y78.461
X12.118 Y78.464
X12.119 Y78.466
X12.12 Y78.469
X12.121 Y78.472
Y78.476
X12.122 Y78.479
Y78.481
Y78.484
Y78.487
G2 X9.258 Y83.842 I18.891 J13.543
G1 X9.21 Y83.987
X9.176 Y84.136
X9.158 Y84.288
X9.155 Y84.441
X9.168 Y84.594
X9.197 Y84.744
X9.241 Y84.891
X9.3 Y85.033
X9.373 Y85.168
X9.459 Y85.295
G2 X10.49 Y86.599 I42.885 J-32.816
X11.858 Y87.137 I1.163 J-0.948
G1 X11.907 Y87.13
G2 X17.74 Y85.581 I-3.113 J-23.476
G1 X17.746 Y85.591
X17.748 Y85.592
X17.751 Y85.594
X17.753 Y85.596
X17.755 Y85.597
X17.757 Y85.6
X17.759 Y85.602
X17.761 Y85.605
X17.763 Y85.607
X17.765 Y85.609
X17.766 Y85.612
X17.767 Y85.614
X17.768 Y85.617
X17.769 Y85.62
X17.77 Y85.624
G2 X16.728 Y88.315 I21.701 J9.954
X15.968 Y91.424 I25.609 J7.908
X16.445 Y92.818 I1.475 J0.273
X17.704 Y93.903 I35.897 J-40.341
X19.151 Y94.172 I0.962 J-1.151
G1 X19.198 Y94.156
G2 X24.63 Y91.532 I-7.519 J-22.502
G1 X24.638 Y91.54
X24.64 Y91.541
X24.643 Y91.542
X24.646 Y91.543
X24.648 Y91.545
X24.651 Y91.546
X24.653 Y91.548
X24.656 Y91.55
X24.658 Y91.553
X24.66 Y91.554
X24.662 Y91.556
X24.664 Y91.559
X24.665 Y91.562
X24.667 Y91.564
X24.668 Y91.567
G2 X24.276 Y93.497 I28.971 J6.889
X23.997 Y97.608 I25.251 J3.778
G1 X24.006 Y97.761
X24.031 Y97.913
X24.071 Y98.061
X24.126 Y98.204
X24.196 Y98.341
X24.279 Y98.47
X24.375 Y98.59
X24.483 Y98.699
X24.601 Y98.797
X24.729 Y98.882
G2 X26.17 Y99.71 I27.614 J-46.406
X27.643 Y99.699 I0.727 J-1.312
G1 X27.686 Y99.675
G2 X32.522 Y96.07 I-11.631 J-20.655
G1 X32.532 Y96.077
X32.534
X32.537 Y96.078
X32.54 Y96.079
X32.543 Y96.08
X32.545 Y96.081
X32.548 Y96.082
X32.551 Y96.084
X32.553 Y96.085
X32.556 Y96.087
X32.558 Y96.089
X32.56 Y96.091
X32.562 Y96.093
X32.564 Y96.095
X32.566 Y96.098
X32.567 Y96.1
X32.569 Y96.103
G2 X33.055 Y102.152 I23.163 J1.182
G1 X33.092 Y102.301
X33.144 Y102.445
X33.211 Y102.583
X33.292 Y102.714
X33.385 Y102.836
X33.491 Y102.947
X33.607 Y103.047
X33.734 Y103.135
X33.868 Y103.21
X34.01 Y103.27
G2 X35.582 Y103.81 I18.328 J-50.795
X37.038 Y103.51 I0.465 J-1.426
G1 X37.068 Y103.484
G2 X41.131 Y99.033 I-15.315 J-18.062
G1 X41.14 Y99.038
X41.143
X41.147
X41.15
X41.152 Y99.039
X41.156
X41.159 Y99.04
X41.161 Y99.041
X41.164 Y99.042
X41.166 Y99.043
X41.169 Y99.045
X41.172 Y99.047
X41.174 Y99.049
X41.176 Y99.05
X41.179 Y99.052
G2 X41.628 Y101.39 I25.946 J-3.772
X42.799 Y104.906 I25.432 J-6.516
X43.953 Y105.821 I1.388 J-0.567
X45.599 Y106.054 I8.407 J-53.342
X46.966 Y105.494 I0.188 J-1.488
G1 X46.996 Y105.455
G2 X50.144 Y100.314 I-18.469 J-14.843
G1 X50.155 Y100.317
X50.158 Y100.316
X50.161 Y100.315
X50.164
X50.167
X50.17
X50.173
X50.175 Y100.316
X50.178
X50.181 Y100.317
X50.185 Y100.318
X50.188 Y100.319
X50.19 Y100.32
X50.192 Y100.322
X50.195 Y100.323
X50.197 Y100.325
G2 X52.902 Y105.769 I22.16 J-7.616
G1 X52.988 Y105.887
X53.085 Y105.996
X53.192 Y106.096
X53.309 Y106.184
X53.433 Y106.26
X53.565 Y106.324
X53.702 Y106.375
X53.844 Y106.412
X53.988 Y106.436
X54.134 Y106.445
Z-2 F333.3
X54.2 Y106.444 F1000
G2 X55.861 Y106.362 I-1.843 J-53.968
X57.095 Y105.555 I-0.097 J-1.497
G1 X57.118 Y105.511
G2 X59.237 Y99.865 I-20.924 J-11.075
G1 X59.248 Y99.866
X59.251 Y99.865
X59.254 Y99.864
X59.257 Y99.863
X59.26 Y99.862
X59.262
X59.266 Y99.861
X59.268
X59.271
X59.275
X59.278 Y99.862
X59.28
X59.283 Y99.863
X59.286 Y99.864
X59.289 Y99.865
G2 X60.307 Y101.49 I27.233 J-15.934
X62.977 Y104.706 I20.97 J-14.696
G1 X63.09 Y104.809
X63.212 Y104.9
X63.343 Y104.979
X63.481 Y105.044
X63.625 Y105.094
X63.774 Y105.13
X63.925 Y105.15
X64.078 Y105.154
X64.23 Y105.144
X64.38 Y105.117
G2 X65.995 Y104.722 I-12.024 J-52.644
X67.054 Y103.697 I-0.379 J-1.451
G1 X67.068 Y103.65
G2 X68.081 Y97.704 I-22.645 J-6.917
G1 X68.092 Y97.702
X68.095 Y97.701
X68.097 Y97.699
X68.099 Y97.698
X68.102 Y97.697
X68.105 Y97.696
X68.108 Y97.695
X68.111 Y97.694
X68.114 Y97.693
X68.117
X68.12
X68.122
X68.126
X68.129
X68.132 Y97.694
G2 X69.769 Y99.413 I19.502 J-16.931
X72.668 Y101.749 I17.821 J-19.154
X74.125 Y101.888 I0.853 J-1.234
X75.636 Y101.194 I-21.778 J-49.413
X76.482 Y99.989 I-0.647 J-1.353
G1 X76.487 Y99.94
G2 X76.356 Y93.908 I-23.593 J-2.508
G1 X76.367 Y93.904
X76.369 Y93.902
X76.371 Y93.9
X76.373 Y93.899
X76.375 Y93.897
X76.378 Y93.895
X76.381 Y93.894
X76.383 Y93.893
X76.386 Y93.892
X76.39 Y93.89
X76.392
X76.395 Y93.889
X76.398
X76.401
X76.404
G2 X78.468 Y95.35 I15.607 J-19.862
X81.616 Y97.008 I13.882 J-22.538
X83.083 Y96.872 I0.613 J-1.369
X84.435 Y95.905 I-30.741 J-44.396
X85.037 Y94.562 I-0.891 J-1.206
G1 X85.033 Y94.513
G2 X83.763 Y88.615 I-23.619 J1.998
G1 X83.772 Y88.61
X83.774 Y88.607
X83.776 Y88.604
X83.778 Y88.602
X83.78 Y88.6
X83.783 Y88.598
X83.785 Y88.596
X83.787 Y88.594
X83.789 Y88.593
X83.792 Y88.591
X83.795 Y88.59
X83.798 Y88.589
X83.8 Y88.588
X83.804 Y88.587
X83.806 Y88.586
G2 X85.824 Y89.519 I12.381 J-24.147
X89.518 Y90.663 I9.549 J-24.287
G1 X89.669 Y90.69
X89.823 Y90.702
X89.976 Y90.698
X90.128 Y90.678
X90.278 Y90.643
X90.423 Y90.592
X90.562 Y90.527
X90.694 Y90.448
X90.817 Y90.356
X90.93 Y90.252
G2 X92.074 Y89.047 I-38.588 J-37.775
X92.411 Y87.611 I-1.104 J-1.016
G1 X92.397 Y87.564
G2 X90.034 Y82.015 I-22.81 J6.433
G1 X90.043 Y82.008
X90.044 Y82.005
X90.045 Y82.003
X90.047 Y82
X90.049 Y81.997
X90.05 Y81.995
X90.052 Y81.993
X90.054 Y81.991
X90.056 Y81.989
X90.059 Y81.987
X90.061 Y81.985
X90.064 Y81.983
X90.066 Y81.982
X90.068 Y81.981
X90.072 Y81.979
G2 X92.532 Y82.568 I7.104 J-24.236
X96.073 Y82.938 I4.498 J-25.968
X97.381 Y82.267 I0.058 J-1.499
X98.277 Y80.866 I-45.038 J-29.791
X98.336 Y79.395 I-1.276 J-0.789
G1 X98.314 Y79.351
G2 X94.944 Y74.348 I-21.176 J10.628
G1 X94.95 Y74.34
X94.951 Y74.336
X94.952 Y74.333
X94.953 Y74.331
X94.954 Y74.328
X94.955 Y74.325
X94.956 Y74.323
X94.959 Y74.32
X94.96 Y74.318
X94.962 Y74.316
X94.964 Y74.313
X94.966 Y74.311
X94.968 Y74.309
X94.97 Y74.308
X94.973 Y74.306
X94.976 Y74.304
X94.978 Y74.303
G2 X101.043 Y74.106 I2.283 J-23.121
G1 X101.193 Y74.076
X101.34 Y74.03
X101.481 Y73.97
X101.616 Y73.896
X101.742 Y73.808
X101.858 Y73.708
X101.964 Y73.596
X102.058 Y73.474
X102.138 Y73.343
X102.205 Y73.204
G2 X102.819 Y71.66 I-49.866 J-20.72
X102.606 Y70.213 I-1.402 J-0.533
G1 X102.576 Y70.174
G2 X98.313 Y65.89 I-18.759 J14.407
G1 X98.318 Y65.881
Y65.878
Y65.875
X98.319 Y65.871
Y65.869
X98.32 Y65.866
X98.321 Y65.863
X98.322 Y65.86
X98.323 Y65.857
X98.325 Y65.855
X98.326 Y65.853
X98.328 Y65.85
X98.33 Y65.847
X98.331 Y65.846
X98.334 Y65.844
X98.336 Y65.841
G2 X104.256 Y64.499 I-2.167 J-23.28
G1 X104.398 Y64.441
X104.533 Y64.369
X104.661 Y64.283
X104.779 Y64.184
X104.886 Y64.074
X104.982 Y63.954
X105.064 Y63.824
X105.133 Y63.686
X105.188 Y63.542
X105.227 Y63.393
G2 X105.538 Y61.76 I-52.887 J-10.907
X105.05 Y60.376 I-1.478 J-0.258
G1 X105.013 Y60.343
G2 X100.021 Y56.948 I-15.696 J17.711
G1 X100.024 Y56.938
X100.023 Y56.934
Y56.931
Y56.929
Y56.926
Y56.922
X100.024 Y56.919
Y56.916
X100.025 Y56.913
X100.026 Y56.911
X100.027 Y56.909
X100.028 Y56.905
X100.03 Y56.902
X100.031 Y56.9
X100.032 Y56.898
G2 X101.617 Y56.38 I-11.387 J-37.49
X105.593 Y54.462 I-8.92 J-23.573
G1 X105.722 Y54.377
X105.842 Y54.28
X105.951 Y54.171
X106.049 Y54.052
X106.133 Y53.923
X106.204 Y53.786
X106.261 Y53.642
X106.302 Y53.493
X106.328 Y53.341
X106.338 Y53.187
G2 X106.334 Y51.525 I-53.996 J-0.697
X105.586 Y50.254 I-1.5 J0.027
G1 X105.543 Y50.229
G2 X100.005 Y47.844 I-12.056 J20.372
G1 X100.006 Y47.832
Y47.83
X100.005 Y47.828
X100.004 Y47.824
X100.003 Y47.821
Y47.818
Y47.815
Y47.812
Y47.81
Y47.807
X100.004 Y47.803
Y47.801
X100.005 Y47.798
X100.006 Y47.795
X100.008 Y47.792
G2 X101.983 Y46.659 I-12.328 J-23.786
X105.013 Y44.344 I-14.264 J-21.805
G1 X105.123 Y44.236
X105.221 Y44.118
X105.306 Y43.991
X105.379 Y43.855
X105.436 Y43.713
X105.479 Y43.566
X105.507 Y43.415
X105.519 Y43.261
X105.516 Y43.108
X105.496 Y42.955
G2 X105.178 Y41.324 I-53.15 J9.541
X104.211 Y40.22 I-1.468 J0.31
G1 X104.165 Y40.204
G2 X98.268 Y38.907 I-8.004 J22.338
G1 X98.266 Y38.896
X98.264 Y38.893
X98.263 Y38.891
X98.262 Y38.889
X98.261 Y38.886
X98.26 Y38.883
X98.259 Y38.879
Y38.876
X98.258 Y38.875
Y38.872
Y38.868
Y38.864
X98.259 Y38.862
Y38.859
X98.26 Y38.856
G2 X99.833 Y37.514 I-17.806 J-22.469
X102.523 Y34.52 I-17.729 J-18.637
G1 X102.61 Y34.394
X102.684 Y34.26
X102.744 Y34.119
X102.789 Y33.972
X102.818 Y33.822
X102.832 Y33.669
X102.831 Y33.516
X102.814 Y33.364
X102.781 Y33.214
X102.734 Y33.069
G2 X102.112 Y31.527 I-50.391 J19.41
X100.951 Y30.625 I-1.382 J0.582
G1 X100.902 Y30.618
G2 X94.87 Y30.461 I-3.629 J23.436
G1 X94.867 Y30.451
X94.864 Y30.448
X94.862 Y30.446
X94.86 Y30.443
X94.859 Y30.441
X94.858 Y30.439
X94.856 Y30.436
X94.855 Y30.433
X94.854 Y30.43
Y30.427
X94.853 Y30.425
X94.852 Y30.421
Y30.418
Y30.415
Y30.412
G2 X96.611 Y28.124 I-18.102 J-15.729
X98.217 Y25.351 I-22.309 J-14.783
X98.15 Y23.883 I-1.34 J-0.674
X97.249 Y22.486 I-45.809 J28.593
X95.934 Y21.821 I-1.247 J0.833
G1 X95.885 Y21.823
G2 X89.934 Y22.81 I0.874 J23.697
G1 X89.929 Y22.801
X89.927 Y22.799
X89.924 Y22.797
X89.923 Y22.795
X89.921 Y22.793
X89.918 Y22.79
X89.917 Y22.788
X89.915 Y22.786
X89.914 Y22.783
X89.912 Y22.78
X89.911 Y22.778
X89.91 Y22.775
Y22.772
X89.909 Y22.769
X89.908 Y22.766
G2 X91.163 Y20.278 I-20.893 J-12.094
X92.255 Y17.161 I-24.522 J-10.339
X91.911 Y15.73 I-1.443 J-0.41
X90.761 Y14.53 I-39.569 J36.747
X89.345 Y14.125 I-1.067 J1.054
G1 X89.297 Y14.136
G2 X83.641 Y16.232 I5.334 J23.079
G1 X83.634 Y16.223
X83.631 Y16.222
X83.629 Y16.221
X83.627 Y16.219
X83.624 Y16.217
X83.622 Y16.216
X83.619 Y16.214
X83.617 Y16.211
X83.615 Y16.209
X83.613 Y16.206
X83.612 Y16.204
X83.61 Y16.202
X83.609 Y16.199
X83.608 Y16.197
X83.607 Y16.194
G2 X84.116 Y14.559 I-36.735 J-12.342
X84.849 Y10.246 I-24.606 J-6.396
G1 X84.854 Y10.093
X84.844 Y9.939
X84.818 Y9.788
X84.777 Y9.64
X84.721 Y9.496
X84.651 Y9.36
X84.566 Y9.231
X84.47 Y9.112
X84.361 Y9.003
X84.242 Y8.906
G2 X82.886 Y7.944 I-31.9 J43.57
X81.42 Y7.814 I-0.848 J1.237
G1 X81.375 Y7.835
G2 X76.216 Y10.963 I9.647 J21.725
G1 X76.207 Y10.956
X76.205
X76.202 Y10.955
X76.2 Y10.954
X76.196 Y10.953
X76.193 Y10.951
X76.191 Y10.949
X76.189 Y10.948
X76.187 Y10.946
X76.184 Y10.944
X76.182 Y10.942
X76.18 Y10.939
X76.179 Y10.938
X76.177 Y10.935
X76.175 Y10.932
G2 X76.265 Y4.858 I-23.264 J-3.383
G1 X76.242 Y4.706
X76.204 Y4.558
X76.15 Y4.414
X76.082 Y4.277
X76 Y4.147
X75.906 Y4.026
X75.799 Y3.915
X75.682 Y3.816
X75.555 Y3.729
X75.419 Y3.656
G2 X73.906 Y2.969 I-23.077 J48.82
X72.442 Y3.119 I-0.599 J1.375
G1 X72.401 Y3.147
G2 X67.928 Y7.196 I13.563 J19.483
G1 X67.919 Y7.19
X67.916
X67.913
X67.91 Y7.189
X67.907 Y7.188
X67.904
X67.901 Y7.186
X67.899 Y7.185
X67.896 Y7.184
X67.893 Y7.182
X67.891 Y7.181
X67.889 Y7.179
X67.886 Y7.177
X67.884 Y7.175
X67.882 Y7.173
G2 X67.728 Y5.311 I-31.778 J1.701
X66.824 Y1.187 I-25.217 J3.366
G1 X66.772 Y1.043
X66.706 Y0.905
X66.625 Y0.774
X66.532 Y0.652
X66.427 Y0.54
X66.311 Y0.44
X66.185 Y0.352
X66.051 Y0.277
X65.91 Y0.217
X65.763 Y0.171
G2 X64.147 Y-0.217 I-13.421 J52.306
X62.737 Y0.208 I-0.328 J1.464
G1 X62.702 Y0.243
G2 X59.077 Y5.064 I16.999 J16.557
G1 X59.067 Y5.061
X59.064
X59.061
X59.058
X59.055
X59.052
X59.049 Y5.06
X59.046
X59.043 Y5.059
X59.04 Y5.058
X59.038 Y5.057
X59.035 Y5.055
X59.033 Y5.054
X59.03 Y5.052
X59.028 Y5.05
G2 X58.475 Y3.105 I-28.152 J6.949
X56.857 Y-0.624 I-24.219 J8.291
G1 X56.779 Y-0.756
X56.687 Y-0.88
X56.584 Y-0.994
X56.469 Y-1.096
X56.344 Y-1.186
X56.211 Y-1.263
X56.071 Y-1.326
X55.925 Y-1.374
X55.774 Y-1.407
X55.622 Y-1.424
G2 X53.961 Y-1.499 I-3.28 J53.9
X52.658 Y-0.816 I-0.045 J1.499
G1 X52.631 Y-0.775
G2 X49.983 Y4.646 I19.812 J13.036
G1 X49.972 Y4.645
X49.969 Y4.646
X49.966 Y4.647
X49.963
X49.96 Y4.648
X49.957
X49.954
X49.951
X49.948
X49.945 Y4.647
X49.943 Y4.646
X49.939
X49.936 Y4.644
X49.934 Y4.643
X49.931 Y4.642
X49.929 Y4.641
G2 X46.722 Y-0.517 I-21.288 J9.66
G1 X46.621 Y-0.632
X46.508 Y-0.736
X46.386 Y-0.828
X46.254 Y-0.907
X46.115 Y-0.972
X45.97 Y-1.022
X45.821 Y-1.058
X45.668 Y-1.078
X45.515 Y-1.082
X45.362 Y-1.071
G2 X43.717 Y-0.83 I6.981 J53.547
X42.567 Y0.086 I0.24 J1.481
G1 X42.548 Y0.132
G2 X40.973 Y5.957 I21.944 J9.058
G1 X40.962 Y5.958
X40.96 Y5.959
X40.957 Y5.961
X40.954 Y5.962
X40.952 Y5.963
X40.949 Y5.964
X40.946
X40.943 Y5.965
X40.94
X40.937
X40.934
X40.931
X40.928 Y5.964
X40.925
X40.922 Y5.963
G2 X39.656 Y4.327 I-23.325 J16.742
X36.799 Y1.501 I-19.49 J16.854
G1 X36.677 Y1.408
X36.546 Y1.327
X36.407 Y1.26
X36.263 Y1.208
X36.114 Y1.17
X35.961 Y1.148
X35.808 Y1.142
X35.654 Y1.152
X35.502 Y1.177
X35.354 Y1.218
G2 X33.784 Y1.765 I16.988 J51.258
X32.828 Y2.883 I0.515 J1.409
G1 X32.819 Y2.931
G2 X32.375 Y8.95 I23.262 J4.742
G1 X32.364 Y8.953
X32.362 Y8.954
X32.36 Y8.956
X32.357 Y8.957
X32.355 Y8.959
X32.353 Y8.96
X32.349 Y8.962
X32.346 Y8.963
X32.343
X32.341 Y8.964
X32.338
X32.335 Y8.965
X32.332
X32.329
X32.326 Y8.964
G2 X30.69 Y7.532 I-18.721 J19.728
X27.432 Y5.364 I-15.898 J20.357
G1 X27.295 Y5.295
X27.151 Y5.241
X27.002 Y5.201
X26.85 Y5.177
X26.697 Y5.169
X26.543 Y5.176
X26.391 Y5.199
X26.242 Y5.238
X26.098 Y5.291
X25.96 Y5.36
G2 X24.523 Y6.194 I26.382 J47.117
X23.795 Y7.473 I0.773 J1.286
G1 Y7.523
G2 X24.498 Y13.515 I23.719 J0.255
G1 X24.488 Y13.52
X24.486 Y13.522
X24.485 Y13.524
X24.483 Y13.526
X24.48 Y13.528
X24.478 Y13.53
X24.476 Y13.531
X24.473 Y13.533
X24.47 Y13.534
X24.467 Y13.536
X24.464 Y13.537
X24.461
X24.458 Y13.538
X24.456 Y13.539
X24.453
G2 X22.528 Y12.417 I-14.587 J22.816
X18.967 Y10.93 I-11.769 J23.168
G1 X18.819 Y10.888
X18.667 Y10.862
X18.514 Y10.851
X18.36 Y10.856
X18.208 Y10.877
X18.058 Y10.913
X17.913 Y10.965
X17.774 Y11.031
X17.643 Y11.111
X17.52 Y11.204
G2 X16.266 Y12.295 I34.822 J41.273
X15.795 Y13.69 I1.002 J1.116
G1 X15.804 Y13.739
G2 X17.628 Y19.489 I23.306 J-4.23
G1 X17.619 Y19.495
X17.618 Y19.498
X17.616 Y19.5
X17.614 Y19.503
X17.613 Y19.504
X17.611 Y19.507
X17.608 Y19.509
X17.606 Y19.511
X17.604 Y19.513
X17.601 Y19.515
X17.599 Y19.516
X17.597 Y19.517
X17.593 Y19.519
X17.59 Y19.52
X17.588 Y19.521
G2 X15.246 Y18.715 I-9.426 J23.58
X11.705 Y17.996 I-6.998 J25.398
X10.339 Y18.54 I-0.2 J1.486
X9.314 Y19.849 I42.003 J33.938
X9.114 Y21.307 I1.195 J0.906
G1 X9.133 Y21.353
G2 X12.012 Y26.654 I22.114 J-8.579
G1 X12.005 Y26.662
X12.004 Y26.666
X12.003 Y26.667
X12.002 Y26.67
X12 Y26.673
X11.999 Y26.676
X11.997 Y26.679
X11.995 Y26.681
X11.993 Y26.683
X11.991 Y26.685
X11.989 Y26.687
X11.987 Y26.689
X11.984 Y26.69
X11.982 Y26.692
X11.979 Y26.694
G2 X9.676 Y26.359 I-4.883 J25.493
X5.917 Y26.31 I-2.215 J25.864
G1 X5.764 Y26.326
X5.614 Y26.358
X5.467 Y26.405
X5.326 Y26.467
X5.192 Y26.543
X5.067 Y26.632
X4.951 Y26.734
X4.847 Y26.847
X4.754 Y26.97
X4.675 Y27.102
G2 X3.917 Y28.581 I47.668 J25.373
X3.997 Y30.051 I1.345 J0.664
G1 X4.023 Y30.093
G2 X7.854 Y34.754 I20.11 J-12.624
G1 X7.848 Y34.763
Y34.766
Y34.769
X7.847 Y34.772
X7.846 Y34.774
X7.845 Y34.777
X7.844 Y34.78
X7.842 Y34.783
X7.841 Y34.785
X7.839 Y34.787
X7.837 Y34.79
X7.835 Y34.792
X7.834 Y34.794
X7.831 Y34.796
X7.829 Y34.798
G2 X6.065 Y34.856 I0.234 J33.921
X1.804 Y35.57 I2.029 J25.198
G1 X1.657 Y35.614
X1.515 Y35.674
X1.38 Y35.748
X1.254 Y35.835
X1.136 Y35.935
X1.03 Y36.047
X0.936 Y36.168
X0.855 Y36.299
X0.787 Y36.437
X0.734 Y36.582
G2 X0.27 Y38.178 I51.608 J15.894
X0.626 Y39.606 I1.446 J0.397
G1 X0.66 Y39.642
G2 X5.304 Y43.493 I17.355 J-16.2
G1 X5.3 Y43.503
Y43.506
Y43.509
Y43.512
Y43.515
Y43.518
X5.299 Y43.521
X5.298 Y43.524
X5.297 Y43.527
X5.296 Y43.529
X5.295 Y43.532
X5.293 Y43.535
X5.291 Y43.537
X5.29 Y43.54
X5.288 Y43.542
G2 X3.27 Y44.015 I5.464 J27.838
X-0.484 Y45.44 I7.22 J24.684
G1 X-0.62 Y45.512
X-0.747 Y45.597
X-0.866 Y45.695
X-0.973 Y45.805
X-1.069 Y45.925
X-1.152 Y46.055
X-1.222 Y46.192
X-1.277 Y46.335
X-1.317 Y46.484
X-1.341 Y46.636
G2 X-1.495 Y48.291 I53.683 J5.84
X-0.874 Y49.626 I1.495 J0.116
G1 X-0.834 Y49.655
G2 X4.454 Y52.557 I13.96 J-19.166
G1 X4.452 Y52.568
X4.453 Y52.571
Y52.574
X4.454 Y52.577
Y52.58
Y52.583
Y52.586
Y52.589
X4.453 Y52.592
Y52.595
X4.452 Y52.597
X4.451 Y52.6
X4.45 Y52.603
X4.449 Y52.606
X4.447 Y52.609
X4.446 Y52.611
G2 X-0.858 Y55.568 I8.64 J21.73
G1 X-0.978 Y55.664
X-1.087 Y55.771
X-1.185 Y55.889
X-1.27 Y56.017
X-1.342 Y56.153
X-1.399 Y56.295
X-1.442 Y56.443
X-1.469 Y56.594
X-1.481 Y56.747
X-1.476 Y56.901
G2 X-1.315 Y58.555 I53.818 J-4.425
X-0.452 Y59.749 I1.49 J-0.169
G1 X-0.407 Y59.769
G2 X5.335 Y61.619 I10.08 J-21.46
G1 Y61.63
X5.336 Y61.632
X5.337 Y61.635
X5.338 Y61.638
X5.339 Y61.641
X5.34 Y61.644
Y61.647
X5.341 Y61.65
Y61.653
Y61.656
X5.34 Y61.659
Y61.661
X5.339 Y61.664
Y61.667
X5.338 Y61.67
G2 X3.443 Y63.014 I14.234 J22.076
X0.684 Y65.578 I16.323 J20.336
G1 X0.585 Y65.695
X0.498 Y65.822
X0.425 Y65.957
X0.366 Y66.099
X0.322 Y66.246
X0.293 Y66.397
X0.279 Y66.55
X0.282 Y66.704
X0.3 Y66.856
X0.334 Y67.006
G2 X0.805 Y68.6 I52.008 J-14.53
X1.876 Y69.608 I1.432 J-0.448
G1 X1.924 Y69.62
G2 X7.914 Y70.35 I5.84 J-22.986
G1 X7.916 Y70.36
X7.918 Y70.363
X7.92 Y70.365
X7.922 Y70.368
X7.923 Y70.371
X7.924 Y70.373
X7.925 Y70.376
X7.926 Y70.379
X7.927 Y70.382
Y70.385
X7.928 Y70.388
Y70.391
Y70.394
X7.927 Y70.397
Y70.4
G2 X6.421 Y71.962 I18.986 J19.807
X4.097 Y75.118 I19.624 J16.887
G1 X4.021 Y75.252
X3.96 Y75.393
X3.914 Y75.539
X3.883 Y75.69
X3.868 Y75.843
Y75.996
X3.884 Y76.149
X3.915 Y76.299
X3.962 Y76.446
X4.023 Y76.586
G2 X4.788 Y78.062 I48.319 J-24.11
X6.033 Y78.849 I1.321 J-0.711
G1 X6.083 Y78.852
G2 X12.1 Y78.435 I1.382 J-23.665
G1 X12.104 Y78.445
X12.107 Y78.447
X12.108 Y78.449
X12.11 Y78.451
X12.112 Y78.454
X12.114 Y78.456
X12.115 Y78.458
X12.117 Y78.461
X12.118 Y78.464
X12.119 Y78.466
X12.12 Y78.469
X12.121 Y78.472
Y78.476
X12.122 Y78.479
Y78.481
Y78.484
Y78.487
G2 X9.258 Y83.842 I18.891 J13.543
G1 X9.21 Y83.987
X9.176 Y84.136
X9.158 Y84.288
X9.155 Y84.441
X9.168 Y84.594
X9.197 Y84.744
X9.241 Y84.891
X9.3 Y85.033
X9.373 Y85.168
X9.459 Y85.295
G2 X10.49 Y86.599 I42.885 J-32.816
X11.858 Y87.137 I1.163 J-0.948
G1 X11.907 Y87.13
G2 X17.74 Y85.581 I-3.113 J-23.476
G1 X17.746 Y85.591
X17.748 Y85.592
X17.751 Y85.594
X17.753 Y85.596
X17.755 Y85.597
X17.757 Y85.6
X17.759 Y85.602
X17.761 Y85.605
X17.763 Y85.607
X17.765 Y85.609
X17.766 Y85.612
X17.767 Y85.614
X17.768 Y85.617
X17.769 Y85.62
X17.77 Y85.624
G2 X16.728 Y88.315 I21.701 J9.954
X15.968 Y91.424 I25.609 J7.908
X16.445 Y92.818 I1.475 J0.273
X17.704 Y93.903 I35.897 J-40.341
X19.151 Y94.172 I0.962 J-1.151
G1 X19.198 Y94.156
G2 X24.63 Y91.532 I-7.519 J-22.502
G1 X24.638 Y91.54
X24.64 Y91.541
X24.643 Y91.542
X24.646 Y91.543
X24.648 Y91.545
X24.651 Y91.546
X24.653 Y91.548
X24.656 Y91.55
X24.658 Y91.553
X24.66 Y91.554
X24.662 Y91.556
X24.664 Y91.559
X24.665 Y91.562
X24.667 Y91.564
X24.668 Y91.567
G2 X24.276 Y93.497 I28.971 J6.889
X23.997 Y97.608 I25.251 J3.778
G1 X24.006 Y97.761
X24.031 Y97.913
X24.071 Y98.061
X24.126 Y98.204
X24.196 Y98.341
X24.279 Y98.47
X24.375 Y98.59
X24.483 Y98.699
X24.601 Y98.797
X24.729 Y98.882
G2 X26.17 Y99.71 I27.614 J-46.406
X27.643 Y99.699 I0.727 J-1.312
G1 X27.686 Y99.675
G2 X32.522 Y96.07 I-11.631 J-20.655
G1 X32.532 Y96.077
X32.534
X32.537 Y96.078
X32.54 Y96.079
X32.543 Y96.08
X32.545 Y96.081
X32.548 Y96.082
X32.551 Y96.084
X32.553 Y96.085
X32.556 Y96.087
X32.558 Y96.089
X32.56 Y96.091
X32.562 Y96.093
X32.564 Y96.095
X32.566 Y96.098
X32.567 Y96.1
X32.569 Y96.103
G2 X33.055 Y102.152 I23.163 J1.182
G1 X33.092 Y102.301
X33.144 Y102.445
X33.211 Y102.583
X33.292 Y102.714
X33.385 Y102.836
X33.491 Y102.947
X33.607 Y103.047
X33.734 Y103.135
X33.868 Y103.21
X34.01 Y103.27
G2 X35.582 Y103.81 I18.328 J-50.795
X37.038 Y103.51 I0.465 J-1.426
G1 X37.068 Y103.484
G2 X41.131 Y99.033 I-15.315 J-18.062
G1 X41.14 Y99.038
X41.143
X41.147
X41.15
X41.152 Y99.039
X41.156
X41.159 Y99.04
X41.161 Y99.041
X41.164 Y99.042
X41.166 Y99.043
X41.169 Y99.045
X41.172 Y99.047
X41.174 Y99.049
X41.176 Y99.05
X41.179 Y99.052
G2 X41.628 Y101.39 I25.946 J-3.772
X42.799 Y104.906 I25.432 J-6.516
X43.953 Y105.821 I1.388 J-0.567
X45.599 Y106.054 I8.407 J-53.342
X46.966 Y105.494 I0.188 J-1.488
G1 X46.996 Y105.455
G2 X50.144 Y100.314 I-18.469 J-14.843
G1 X50.155 Y100.317
X50.158 Y100.316
X50.161 Y100.315
X50.164
X50.167
X50.17
X50.173
X50.175 Y100.316
X50.178
X50.181 Y100.317
X50.185 Y100.318
X50.188 Y100.319
X50.19 Y100.32
X50.192 Y100.322
X50.195 Y100.323
X50.197 Y100.325
G2 X52.902 Y105.769 I22.16 J-7.616
G1 X52.988 Y105.887
X53.085 Y105.996
X53.192 Y106.096
X53.309 Y106.184
X53.433 Y106.26
X53.565 Y106.324
X53.702 Y106.375
X53.844 Y106.412
X53.988 Y106.436
X54.134 Y106.445
Z-2.5 F333.3
X54.2 Y106.444 F1000
G2 X55.861 Y106.362 I-1.843 J-53.968
X57.095 Y105.555 I-0.097 J-1.497
G1 X57.118 Y105.511
G2 X59.237 Y99.865 I-20.924 J-11.075
G1 X59.248 Y99.866
X59.251 Y99.865
X59.254 Y99.864
X59.257 Y99.863
X59.26 Y99.862
X59.262
X59.266 Y99.861
X59.268
X59.271
X59.275
X59.278 Y99.862
X59.28
X59.283 Y99.863
X59.286 Y99.864
X59.289 Y99.865
G2 X60.307 Y101.49 I27.233 J-15.934
X62.977 Y104.706 I20.97 J-14.696
G1 X63.09 Y104.809
X63.212 Y104.9
X63.343 Y104.979
X63.481 Y105.044
X63.625 Y105.094
X63.774 Y105.13
X63.925 Y105.15
X64.078 Y105.154
X64.23 Y105.144
X64.38 Y105.117
G2 X65.995 Y104.722 I-12.024 J-52.644
X67.054 Y103.697 I-0.379 J-1.451
G1 X67.068 Y103.65
G2 X68.081 Y97.704 I-22.645 J-6.917
G1 X68.092 Y97.702
X68.095 Y97.701
X68.097 Y97.699
X68.099 Y97.698
X68.102 Y97.697
X68.105 Y97.696
X68.108 Y97.695
X68.111 Y97.694
X68.114 Y97.693
X68.117
X68.12
X68.122
X68.126
X68.129
X68.132 Y97.694
G2 X69.769 Y99.413 I19.502 J-16.931
X72.668 Y101.749 I17.821 J-19.154
X74.125 Y101.888 I0.853 J-1.234
X75.636 Y101.194 I-21.778 J-49.413
X76.482 Y99.989 I-0.647 J-1.353
G1 X76.487 Y99.94
G2 X76.356 Y93.908 I-23.593 J-2.508
G1 X76.367 Y93.904
X76.369 Y93.902
X76.371 Y93.9
X76.373 Y93.899
X76.375 Y93.897
X76.378 Y93.895
X76.381 Y93.894
X76.383 Y93.893
X76.386 Y93.892
X76.39 Y93.89
X76.392
X76.395 Y93.889
X76.398
X76.401
X76.404
G2 X78.468 Y95.35 I15.607 J-19.862
X81.616 Y97.008 I13.882 J-22.538
X83.083 Y96.872 I0.613 J-1.369
X84.435 Y95.905 I-30.741 J-44.396
X85.037 Y94.562 I-0.891 J-1.206
G1 X85.033 Y94.513
G2 X83.763 Y88.615 I-23.619 J1.998
G1 X83.772 Y88.61
X83.774 Y88.607
X83.776 Y88.604
X83.778 Y88.602
X83.78 Y88.6
X83.783 Y88.598
X83.785 Y88.596
X83.787 Y88.594
X83.789 Y88.593
X83.792 Y88.591
X83.795 Y88.59
X83.798 Y88.589
X83.8 Y88.588
X83.804 Y88.587
X83.806 Y88.586
G2 X85.824 Y89.519 I12.381 J-24.147
X89.518 Y90.663 I9.549 J-24.287
G1 X89.669 Y90.69
X89.823 Y90.702
X89.976 Y90.698
X90.128 Y90.678
X90.278 Y90.643
X90.423 Y90.592
X90.562 Y90.527
X90.694 Y90.448
X90.817 Y90.356
X90.93 Y90.252
G2 X92.074 Y89.047 I-38.588 J-37.775
X92.411 Y87.611 I-1.104 J-1.016
G1 X92.397 Y87.564
G2 X90.034 Y82.015 I-22.81 J6.433
G1 X90.043 Y82.008
X90.044 Y82.005
X90.045 Y82.003
X90.047 Y82
X90.049 Y81.997
X90.05 Y81.995
X90.052 Y81.993
X90.054 Y81.991
X90.056 Y81.989
X90.059 Y81.987
X90.061 Y81.985
X90.064 Y81.983
X90.066 Y81.982
X90.068 Y81.981
X90.072 Y81.979
G2 X92.532 Y82.568 I7.104 J-24.236
X96.073 Y82.938 I4.498 J-25.968
X97.381 Y82.267 I0.058 J-1.499
X98.277 Y80.866 I-45.038 J-29.791
X98.336 Y79.395 I-1.276 J-0.789
G1 X98.314 Y79.351
G2 X94.944 Y74.348 I-21.176 J10.628
G1 X94.95 Y74.34
X94.951 Y74.336
X94.952 Y74.333
X94.953 Y74.331
X94.954 Y74.328
X94.955 Y74.325
X94.956 Y74.323
X94.959 Y74.32
X94.96 Y74.318
X94.962 Y74.316
X94.964 Y74.313
X94.966 Y74.311
X94.968 Y74.309
X94.97 Y74.308
X94.973 Y74.306
X94.976 Y74.304
X94.978 Y74.303
G2 X101.043 Y74.106 I2.283 J-23.121
G1 X101.193 Y74.076
X101.34 Y74.03
X101.481 Y73.97
X101.616 Y73.896
X101.742 Y73.808
X101.858 Y73.708
X101.964 Y73.596
X102.058 Y73.474
X102.138 Y73.343
X102.205 Y73.204
G2 X102.819 Y71.66 I-49.866 J-20.72
X102.606 Y70.213 I-1.402 J-0.533
G1 X102.576 Y70.174
G2 X98.313 Y65.89 I-18.759 J14.407
G1 X98.318 Y65.881
Y65.878
Y65.875
X98.319 Y65.871
Y65.869
X98.32 Y65.866
X98.321 Y65.863
X98.322 Y65.86
X98.323 Y65.857
X98.325 Y65.855
X98.326 Y65.853
X98.328 Y65.85
X98.33 Y65.847
X98.331 Y65.846
X98.334 Y65.844
X98.336 Y65.841
G2 X104.256 Y64.499 I-2.167 J-23.28
G1 X104.398 Y64.441
X104.533 Y64.369
X104.661 Y64.283
X104.779 Y64.184
X104.886 Y64.074
X104.982 Y63.954
X105.064 Y63.824
X105.133 Y63.686
X105.188 Y63.542
X105.227 Y63.393
G2 X105.538 Y61.76 I-52.887 J-10.907
X105.05 Y60.376 I-1.478 J-0.258
G1 X105.013 Y60.343
G2 X100.021 Y56.948 I-15.696 J17.711
G1 X100.024 Y56.938
X100.023 Y56.934
Y56.931
Y56.929
Y56.926
Y56.922
X100.024 Y56.919
Y56.916
X100.025 Y56.913
X100.026 Y56.911
X100.027 Y56.909
X100.028 Y56.905
X100.03 Y56.902
X100.031 Y56.9
X100.032 Y56.898
G2 X101.617 Y56.38 I-11.387 J-37.49
X105.593 Y54.462 I-8.92 J-23.573
G1 X105.722 Y54.377
X105.842 Y54.28
X105.951 Y54.171
X106.049 Y54.052
X106.133 Y53.923
X106.204 Y53.786
X106.261 Y53.642
X106.302 Y53.493
X106.328 Y53.341
X106.338 Y53.187
G2 X106.334 Y51.525 I-53.996 J-0.697
X105.586 Y50.254 I-1.5 J0.027
G1 X105.543 Y50.229
G2 X100.005 Y47.844 I-12.056 J20.372
G1 X100.006 Y47.832
Y47.83
X100.005 Y47.828
X100.004 Y47.824
X100.003 Y47.821
Y47.818
Y47.815
Y47.812
Y47.81
Y47.807
X100.004 Y47.803
Y47.801
X100.005 Y47.798
X100.006 Y47.795
X100.008 Y47.792
G2 X101.983 Y46.659 I-12.328 J-23.786
X105.013 Y44.344 I-14.264 J-21.805
G1 X105.123 Y44.236
X105.221 Y44.118
X105.306 Y43.991
X105.379 Y43.855
X105.436 Y43.713
X105.479 Y43.566
X105.507 Y43.415
X105.519 Y43.261
X105.516 Y43.108
X105.496 Y42.955
G2 X105.178 Y41.324 I-53.15 J9.541
X104.211 Y40.22 I-1.468 J0.31
G1 X104.165 Y40.204
G2 X98.268 Y38.907 I-8.004 J22.338
G1 X98.266 Y38.896
X98.264 Y38.893
X98.263 Y38.891
X98.262 Y38.889
X98.261 Y38.886
X98.26 Y38.883
X98.259 Y38.879
Y38.876
X98.258 Y38.875
Y38.872
Y38.868
Y38.864
X98.259 Y38.862
Y38.859
X98.26 Y38.856
G2 X99.833 Y37.514 I-17.806 J-22.469
X102.523 Y34.52 I-17.729 J-18.637
G1 X102.61 Y34.394
X102.684 Y34.26
X102.744 Y34.119
X102.789 Y33.972
X102.818 Y33.822
X102.832 Y33.669
X102.831 Y33.516
X102.814 Y33.364
X102.781 Y33.214
X102.734 Y33.069
G2 X102.112 Y31.527 I-50.391 J19.41
X100.951 Y30.625 I-1.382 J0.582
G1 X100.902 Y30.618
G2 X94.87 Y30.461 I-3.629 J23.436
G1 X94.867 Y30.451
X94.864 Y30.448
X94.862 Y30.446
X94.86 Y30.443
X94.859 Y30.441
X94.858 Y30.439
X94.856 Y30.436
X94.855 Y30.433
X94.854 Y30.43
Y30.427
X94.853 Y30.425
X94.852 Y30.421
Y30.418
Y30.415
Y30.412
G2 X96.611 Y28.124 I-18.102 J-15.729
X98.217 Y25.351 I-22.309 J-14.783
X98.15 Y23.883 I-1.34 J-0.674
X97.249 Y22.486 I-45.809 J28.593
X95.934 Y21.821 I-1.247 J0.833
G1 X95.885 Y21.823
G2 X89.934 Y22.81 I0.874 J23.697
G1 X89.929 Y22.801
X89.927 Y22.799
X89.924 Y22.797
X89.923 Y22.795
X89.921 Y22.793
X89.918 Y22.79
X89.917 Y22.788
X89.915 Y22.786
X89.914 Y22.783
X89.912 Y22.78
X89.911 Y22.778
X89.91 Y22.775
Y22.772
X89.909 Y22.769
X89.908 Y22.766
G2 X91.163 Y20.278 I-20.893 J-12.094
X92.255 Y17.161 I-24.522 J-10.339
X91.911 Y15.73 I-1.443 J-0.41
X90.761 Y14.53 I-39.569 J36.747
X89.345 Y14.125 I-1.067 J1.054
G1 X89.297 Y14.136
G2 X83.641 Y16.232 I5.334 J23.079
G1 X83.634 Y16.223
X83.631 Y16.222
X83.629 Y16.221
X83.627 Y16.219
X83.624 Y16.217
X83.622 Y16.216
X83.619 Y16.214
X83.617 Y16.211
X83.615 Y16.209
X83.613 Y16.206
X83.612 Y16.204
X83.61 Y16.202
X83.609 Y16.199
X83.608 Y16.197
X83.607 Y16.194
G2 X84.116 Y14.559 I-36.735 J-12.342
X84.849 Y10.246 I-24.606 J-6.396
G1 X84.854 Y10.093
X84.844 Y9.939
X84.818 Y9.788
X84.777 Y9.64
X84.721 Y9.496
X84.651 Y9.36
X84.566 Y9.231
X84.47 Y9.112
X84.361 Y9.003
X84.242 Y8.906
G2 X82.886 Y7.944 I-31.9 J43.57
X81.42 Y7.814 I-0.848 J1.237
G1 X81.375 Y7.835
G2 X76.216 Y10.963 I9.647 J21.725
G1 X76.207 Y10.956
X76.205
X76.202 Y10.955
X76.2 Y10.954
X76.196 Y10.953
X76.193 Y10.951
X76.191 Y10.949
X76.189 Y10.948
X76.187 Y10.946
X76.184 Y10.944
X76.182 Y10.942
X76.18 Y10.939
X76.179 Y10.938
X76.177 Y10.935
X76.175 Y10.932
G2 X76.265 Y4.858 I-23.264 J-3.383
G1 X76.242 Y4.706
X76.204 Y4.558
X76.15 Y4.414
X76.082 Y4.277
X76 Y4.147
X75.906 Y4.026
X75.799 Y3.915
X75.682 Y3.816
X75.555 Y3.729
X75.419 Y3.656
G2 X73.906 Y2.969 I-23.077 J48.82
X72.442 Y3.119 I-0.599 J1.375
G1 X72.401 Y3.147
G2 X67.928 Y7.196 I13.563 J19.483
G1 X67.919 Y7.19
X67.916
X67.913
X67.91 Y7.189
X67.907 Y7.188
X67.904
X67.901 Y7.186
X67.899 Y7.185
X67.896 Y7.184
X67.893 Y7.182
X67.891 Y7.181
X67.889 Y7.179
X67.886 Y7.177
X67.884 Y7.175
X67.882 Y7.173
G2 X67.728 Y5.311 I-31.778 J1.701
X66.824 Y1.187 I-25.217 J3.366
G1 X66.772 Y1.043
X66.706 Y0.905
X66.625 Y0.774
X66.532 Y0.652
X66.427 Y0.54
X66.311 Y0.44
X66.185 Y0.352
X66.051 Y0.277
X65.91 Y0.217
X65.763 Y0.171
G2 X64.147 Y-0.217 I-13.421 J52.306
X62.737 Y0.208 I-0.328 J1.464
G1 X62.702 Y0.243
G2 X59.077 Y5.064 I16.999 J16.557
G1 X59.067 Y5.061
X59.064
X59.061
X59.058
X59.055
X59.052
X59.049 Y5.06
X59.046
X59.043 Y5.059
X59.04 Y5.058
X59.038 Y5.057
X59.035 Y5.055
X59.033 Y5.054
X59.03 Y5.052
X59.028 Y5.05
G2 X58.475 Y3.105 I-28.152 J6.949
X56.857 Y-0.624 I-24.219 J8.291
G1 X56.779 Y-0.756
X56.687 Y-0.88
X56.584 Y-0.994
X56.469 Y-1.096
X56.344 Y-1.186
X56.211 Y-1.263
X56.071 Y-1.326
X55.925 Y-1.374
X55.774 Y-1.407
X55.622 Y-1.424
G2 X53.961 Y-1.499 I-3.28 J53.9
X52.658 Y-0.816 I-0.045 J1.499
G1 X52.631 Y-0.775
G2 X49.983 Y4.646 I19.812 J13.036
G1 X49.972 Y4.645
X49.969 Y4.646
X49.966 Y4.647
X49.963
X49.96 Y4.648
X49.957
X49.954
X49.951
X49.948
X49.945 Y4.647
X49.943 Y4.646
X49.939
X49.936 Y4.644
X49.934 Y4.643
X49.931 Y4.642
X49.929 Y4.641
G2 X46.722 Y-0.517 I-21.288 J9.66
G1 X46.621 Y-0.632
X46.508 Y-0.736
X46.386 Y-0.828
X46.254 Y-0.907
X46.115 Y-0.972
X45.97 Y-1.022
X45.821 Y-1.058
X45.668 Y-1.078
X45.515 Y-1.082
X45.362 Y-1.071
G2 X43.717 Y-0.83 I6.981 J53.547
X42.567 Y0.086 I0.24 J1.481
G1 X42.548 Y0.132
G2 X40.973 Y5.957 I21.944 J9.058
G1 X40.962 Y5.958
X40.96 Y5.959
X40.957 Y5.961
X40.954 Y5.962
X40.952 Y5.963
X40.949 Y5.964
X40.946
X40.943 Y5.965
X40.94
X40.937
X40.934
X40.931
X40.928 Y5.964
X40.925
X40.922 Y5.963
G2 X39.656 Y4.327 I-23.325 J16.742
X36.799 Y1.501 I-19.49 J16.854
G1 X36.677 Y1.408
X36.546 Y1.327
X36.407 Y1.26
X36.263 Y1.208
X36.114 Y1.17
X35.961 Y1.148
X35.808 Y1.142
X35.654 Y1.152
X35.502 Y1.177
X35.354 Y1.218
G2 X33.784 Y1.765 I16.988 J51.258
X32.828 Y2.883 I0.515 J1.409
G1 X32.819 Y2.931
G2 X32.375 Y8.95 I23.262 J4.742
G1 X32.364 Y8.953
X32.362 Y8.954
X32.36 Y8.956
X32.357 Y8.957
X32.355 Y8.959
X32.353 Y8.96
X32.349 Y8.962
X32.346 Y8.963
X32.343
X32.341 Y8.964
X32.338
X32.335 Y8.965
X32.332
X32.329
X32.326 Y8.964
G2 X30.69 Y7.532 I-18.721 J19.728
X27.432 Y5.364 I-15.898 J20.357
G1 X27.295 Y5.295
X27.151 Y5.241
X27.002 Y5.201
X26.85 Y5.177
X26.697 Y5.169
X26.543 Y5.176
X26.391 Y5.199
X26.242 Y5.238
X26.098 Y5.291
X25.96 Y5.36
G2 X24.523 Y6.194 I26.382 J47.117
X23.795 Y7.473 I0.773 J1.286
G1 Y7.523
G2 X24.498 Y13.515 I23.719 J0.255
G1 X24.488 Y13.52
X24.486 Y13.522
X24.485 Y13.524
X24.483 Y13.526
X24.48 Y13.528
