(1001)
(Machine)
(  vendor: Autodesk)
(  description: Generic 3-axis)
(T1  D=3 CR=0 - ZMIN=-9.3 - flat end mill)
G90 G94
G17
G21

(2D Contour6)
T1
S10000 M3
G54
M8
G0 X0.006 Y22.55
Z15
Z5
G1 Z1.5 F333.3
Z-0.5
G3 X-0.294 Y22.52 I0 J-1.5 F1000
G1 Y19.58
G3 X0.306 Y19.58 I0.3 J1.47
G1 Y22.52
G3 X0.006 Y22.55 I-0.3 J-1.47
G1 Z-1 F333.3
G3 X-0.294 Y22.52 I0 J-1.5 F1000
G1 Y19.58
G3 X0.306 Y19.58 I0.3 J1.47
G1 Y22.52
G3 X0.006 Y22.55 I-0.3 J-1.47
G1 Z-1.5 F333.3
G3 X-0.294 Y22.52 I0 J-1.5 F1000
G1 Y19.58
G3 X0.306 Y19.58 I0.3 J1.47
G1 Y22.52
G3 X0.006 Y22.55 I-0.3 J-1.47
G1 Z-2 F333.3
G3 X-0.294 Y22.52 I0 J-1.5 F1000
G1 Y19.58
G3 X0.306 Y19.58 I0.3 J1.47
G1 Y22.52
G3 X0.006 Y22.55 I-0.3 J-1.47
G1 Z-2.5 F333.3
G3 X-0.294 Y22.52 I0 J-1.5 F1000
G1 Y19.58
G3 X0.306 Y19.58 I0.3 J1.47
G1 Y22.52
G3 X0.006 Y22.55 I-0.3 J-1.47
G1 Z-3 F333.3
G3 X-0.294 Y22.52 I0 J-1.5 F1000
G1 Y19.58
G3 X0.306 Y19.58 I0.3 J1.47
G1 Y22.52
G3 X0.006 Y22.55 I-0.3 J-1.47
G1 Z-3.5 F333.3
G3 X-0.294 Y22.52 I0 J-1.5 F1000
G1 Y19.58
G3 X0.306 Y19.58 I0.3 J1.47
G1 Y22.52
G3 X0.006 Y22.55 I-0.3 J-1.47
G1 Z-4 F333.3
G3 X-0.294 Y22.52 I0 J-1.5 F1000
G1 Y19.58
G3 X0.306 Y19.58 I0.3 J1.47
G1 Y22.52
G3 X0.006 Y22.55 I-0.3 J-1.47
G1 Z-4.5 F333.3
G3 X-0.294 Y22.52 I0 J-1.5 F1000
G1 Y19.58
G3 X0.306 Y19.58 I0.3 J1.47
G1 Y22.52
G3 X0.006 Y22.55 I-0.3 J-1.47
G1 Z-5 F333.3
G3 X-0.294 Y22.52 I0 J-1.5 F1000
G1 Y19.58
G3 X0.306 Y19.58 I0.3 J1.47
G1 Y22.52
G3 X0.006 Y22.55 I-0.3 J-1.47
G1 Z-5.5 F333.3
G3 X-0.294 Y22.52 I0 J-1.5 F1000
G1 Y19.58
G3 X0.306 Y19.58 I0.3 J1.47
G1 Y22.52
G3 X0.006 Y22.55 I-0.3 J-1.47
G1 Z-6 F333.3
G3 X-0.294 Y22.52 I0 J-1.5 F1000
G1 Y19.58
G3 X0.306 Y19.58 I0.3 J1.47
G1 Y22.52
G3 X0.006 Y22.55 I-0.3 J-1.47
G1 Z-6.5 F333.3
G3 X-0.294 Y22.52 I0 J-1.5 F1000
G1 Y19.58
G3 X0.306 Y19.58 I0.3 J1.47
G1 Y22.52
G3 X0.006 Y22.55 I-0.3 J-1.47
G1 Z-7 F333.3
G3 X-0.294 Y22.52 I0 J-1.5 F1000
G1 Y19.58
G3 X0.306 Y19.58 I0.3 J1.47
G1 Y22.52
G3 X0.006 Y22.55 I-0.3 J-1.47
G1 Z-7.5 F333.3
G3 X-0.294 Y22.52 I0 J-1.5 F1000
G1 Y19.58
G3 X0.306 Y19.58 I0.3 J1.47
G1 Y22.52
G3 X0.006 Y22.55 I-0.3 J-1.47
G1 Z-8 F333.3
G3 X-0.294 Y22.52 I0 J-1.5 F1000
G1 Y19.58
G3 X0.306 Y19.58 I0.3 J1.47
G1 Y22.52
G3 X0.006 Y22.55 I-0.3 J-1.47
G1 Z-8.5 F333.3
G3 X-0.294 Y22.52 I0 J-1.5 F1000
G1 Y19.58
G3 X0.306 Y19.58 I0.3 J1.47
G1 Y22.52
G3 X0.006 Y22.55 I-0.3 J-1.47
G1 Z-9 F333.3
G3 X-0.294 Y22.52 I0 J-1.5 F1000
G1 Y19.58
G3 X0.306 Y19.58 I0.3 J1.47
G1 Y22.52
G3 X0.006 Y22.55 I-0.3 J-1.47
G1 Z-9.3 F333.3
G3 X-0.294 Y22.52 I0 J-1.5 F1000
G1 Y19.58
G3 X0.306 Y19.58 I0.3 J1.47
G1 Y22.52
G3 X0.006 Y22.55 I-0.3 J-1.47
G0 Z5
X1.494 Y66.745
G1 Z1.5 F333.3
Z-0.5
G3 X-0.942 Y67.927 I-1.5 J0.01 F1000
G1 Y65.582
G3 X1.494 Y66.745 I0.936 J1.172
G1 Z-1 F333.3
G3 X-0.942 Y67.927 I-1.5 J0.01 F1000
G1 Y65.582
G3 X1.494 Y66.745 I0.936 J1.172
G1 Z-1.5 F333.3
G3 X-0.942 Y67.927 I-1.5 J0.01 F1000
G1 Y65.582
G3 X1.494 Y66.745 I0.936 J1.172
G1 Z-2 F333.3
G3 X-0.942 Y67.927 I-1.5 J0.01 F1000
G1 Y65.582
G3 X1.494 Y66.745 I0.936 J1.172
G1 Z-2.5 F333.3
G3 X-0.942 Y67.927 I-1.5 J0.01 F1000
G1 Y65.582
G3 X1.494 Y66.745 I0.936 J1.172
G1 Z-3 F333.3
G3 X-0.942 Y67.927 I-1.5 J0.01 F1000
G1 Y65.582
G3 X1.494 Y66.745 I0.936 J1.172
G1 Z-3.5 F333.3
G3 X-0.942 Y67.927 I-1.5 J0.01 F1000
G1 Y65.582
G3 X1.494 Y66.745 I0.936 J1.172
G1 Z-4 F333.3
G3 X-0.942 Y67.927 I-1.5 J0.01 F1000
G1 Y65.582
G3 X1.494 Y66.745 I0.936 J1.172
G1 Z-4.5 F333.3
G3 X-0.942 Y67.927 I-1.5 J0.01 F1000
G1 Y65.582
G3 X1.494 Y66.745 I0.936 J1.172
G1 Z-5 F333.3
G3 X-0.942 Y67.927 I-1.5 J0.01 F1000
G1 Y65.582
G3 X1.494 Y66.745 I0.936 J1.172
G1 Z-5.5 F333.3
G3 X-0.942 Y67.927 I-1.5 J0.01 F1000
G1 Y65.582
G3 X1.494 Y66.745 I0.936 J1.172
G1 Z-6 F333.3
G3 X-0.942 Y67.927 I-1.5 J0.01 F1000
G1 Y65.582
G3 X1.494 Y66.745 I0.936 J1.172
G1 Z-6.5 F333.3
G3 X-0.942 Y67.927 I-1.5 J0.01 F1000
G1 Y65.582
G3 X1.494 Y66.745 I0.936 J1.172
G1 Z-7 F333.3
G3 X-0.942 Y67.927 I-1.5 J0.01 F1000
G1 Y65.582
G3 X1.494 Y66.745 I0.936 J1.172
G1 Z-7.5 F333.3
G3 X-0.942 Y67.927 I-1.5 J0.01 F1000
G1 Y65.582
G3 X1.494 Y66.745 I0.936 J1.172
G1 Z-8 F333.3
G3 X-0.942 Y67.927 I-1.5 J0.01 F1000
G1 Y65.582
G3 X1.494 Y66.745 I0.936 J1.172
G1 Z-8.5 F333.3
G3 X-0.942 Y67.927 I-1.5 J0.01 F1000
G1 Y65.582
G3 X1.494 Y66.745 I0.936 J1.172
G1 Z-9 F333.3
G3 X-0.942 Y67.927 I-1.5 J0.01 F1000
G1 Y65.582
G3 X1.494 Y66.745 I0.936 J1.172
G1 Z-9.3 F333.3
G3 X-0.942 Y67.927 I-1.5 J0.01 F1000
G1 Y65.582
G3 X1.494 Y66.745 I0.936 J1.172
G0 Z15

(2D Contour5)
X0.682 Y43.49
Z14.7
Z6
G1 Z1.5 F333.3
G2 X1.832 Y42.898 I-0.045 J-1.499 F1000
G1 X1.853 Y42.87
G2 X3.867 Y38.98 I-9.58 J-7.425
X4.115 Y37.11 I-7.261 J-1.914
G3 X4.001 Y36.384 I104.105 J-16.724
G1 X4.003 Y36.36
X4.016 Y36.34
X4.037 Y36.328
X4.179 Y36.29
X4.204 Y36.289
X4.225 Y36.3
X4.239 Y36.32
G2 X4.72 Y37.363 I4.041 J-1.233
X7.203 Y39.719 I6.878 J-4.761
X9.376 Y40.873 I6.435 J-9.496
G1 X9.515 Y40.924
X9.658 Y40.961
X9.805 Y40.983
X9.953 Y40.991
X10.101 Y40.985
X10.248 Y40.964
X10.392 Y40.928
X10.531 Y40.878
X10.666 Y40.815
G2 X11.837 Y40.139 I-10.659 J-19.815
X12.536 Y39.052 I-0.789 J-1.276
G1 X12.541 Y39.017
G2 X12.329 Y34.604 I-11.955 J-1.64
X11.608 Y32.881 I-7.115 J1.968
G3 X11.158 Y32.326 I17.577 J-14.727
G1 X11.147 Y32.304
X11.149 Y32.28
X11.161 Y32.259
X11.265 Y32.155
X11.286 Y32.142
X11.31 Y32.141
X11.332 Y32.151
G2 X12.27 Y32.813 I2.888 J-3.096
X15.522 Y33.608 I3.553 J-7.491
X18.058 Y33.525 I0.897 J-11.449
G1 X18.203 Y33.5
X18.346 Y33.46
X18.484 Y33.407
X18.616 Y33.34
X18.741 Y33.26
X18.857 Y33.168
X18.964 Y33.065
X19.06 Y32.952
X19.145 Y32.83
G2 X19.821 Y31.659 I-19.139 J-11.83
X19.883 Y30.368 I-1.321 J-0.711
G1 X19.87 Y30.336
G2 X17.481 Y26.62 I-11.19 J4.568
X15.994 Y25.488 I-5.196 J5.283
G3 X15.327 Y25.233 I6.226 J-17.303
G1 X15.307 Y25.219
X15.296 Y25.197
Y25.173
X15.334 Y25.031
X15.346 Y25.01
X15.366 Y24.996
X15.39 Y24.994
G2 X16.536 Y25.099 I0.952 J-4.116
X19.85 Y24.109 I-0.69 J-8.357
X21.902 Y22.822 I-5.014 J-10.269
G1 X22.016 Y22.727
X22.119 Y22.621
X22.212 Y22.506
X22.293 Y22.381
X22.361 Y22.25
X22.416 Y22.112
X22.457 Y21.97
X22.484 Y21.824
X22.496 Y21.676
G2 X22.496 Y20.324 I-22.49 J-0.676
X21.905 Y19.175 I-1.499 J0.045
G1 X21.876 Y19.153
G2 X17.987 Y17.14 I-7.426 J9.581
X16.115 Y16.892 I-1.913 J7.241
G3 X15.39 Y17.006 I-15.306 J-94.933
G1 X15.366 Y17.004
X15.346 Y16.99
X15.334 Y16.969
X15.296 Y16.827
Y16.803
X15.307 Y16.781
X15.327 Y16.767
G2 X16.37 Y16.285 I-1.239 J-4.054
X18.725 Y13.803 I-4.762 J-6.877
X19.879 Y11.63 I-9.501 J-6.438
G1 X19.93 Y11.491
X19.967 Y11.348
X19.99 Y11.201
X19.998 Y11.053
X19.991 Y10.905
X19.97 Y10.759
X19.934 Y10.615
X19.884 Y10.475
X19.821 Y10.341
G2 X19.145 Y9.17 I-19.815 J10.659
X18.058 Y8.47 I-1.276 J0.789
G1 X18.022 Y8.466
G2 X13.649 Y8.666 I-1.64 J12.014
X11.886 Y9.399 I1.929 J7.133
G3 X11.332 Y9.849 I-11.712 J-13.852
G1 X11.31 Y9.859
X11.286 Y9.858
X11.265 Y9.845
X11.161 Y9.741
X11.149 Y9.72
X11.147 Y9.696
X11.157 Y9.674
G2 X11.82 Y8.735 I-3.094 J-2.887
X12.614 Y5.484 I-7.491 J-3.551
X12.532 Y2.949 I-11.466 J-0.897
G1 X12.506 Y2.803
X12.467 Y2.66
X12.413 Y2.522
X12.346 Y2.39
X12.266 Y2.265
X12.174 Y2.149
X12.072 Y2.042
X11.959 Y1.946
X11.837 Y1.861
G2 X10.666 Y1.185 I-11.831 J19.139
X9.374 Y1.123 I-0.711 J1.321
G1 X9.341 Y1.137
G2 X5.653 Y3.498 I4.587 J11.224
X4.503 Y4.995 I5.334 J5.291
G3 X4.239 Y5.68 I-95.9 J-36.558
G1 X4.225 Y5.7
X4.204 Y5.711
X4.179 Y5.71
X4.037 Y5.672
X4.016 Y5.66
X4.003 Y5.64
X4 Y5.616
G2 X4.105 Y4.472 I-4.12 J-0.953
X3.132 Y1.188 I-8.332 J0.683
X1.828 Y-0.895 I-10.3 J4.995
G1 X1.733 Y-1.009
X1.628 Y-1.113
X1.512 Y-1.205
X1.388 Y-1.286
X1.256 Y-1.355
X1.119 Y-1.41
X0.976 Y-1.451
X0.83 Y-1.478
X0.682 Y-1.49
G2 X-0.67 Y-1.49 I-0.676 J22.49
X-1.819 Y-0.898 I0.045 J1.499
G1 X-1.841 Y-0.87
G2 X-3.854 Y3.02 I9.584 J7.427
X-4.102 Y4.89 I7.265 J1.915
G3 X-3.988 Y5.616 I-112.657 J18.06
G1 X-3.99 Y5.64
X-4.003 Y5.66
X-4.025 Y5.672
X-4.167 Y5.71
X-4.191 Y5.711
X-4.213 Y5.7
X-4.227 Y5.68
G2 X-4.708 Y4.637 I-4.044 J1.235
X-7.193 Y2.28 I-6.875 J4.759
X-9.363 Y1.127 I-6.423 J9.476
G1 X-9.502 Y1.076
X-9.646 Y1.039
X-9.792 Y1.017
X-9.94 Y1.009
X-10.088 Y1.015
X-10.235 Y1.036
X-10.379 Y1.072
X-10.519 Y1.122
X-10.653 Y1.185
G2 X-11.824 Y1.861 I10.659 J19.815
X-12.524 Y2.948 I0.789 J1.276
G1 X-12.528 Y2.983
G2 X-12.317 Y7.397 I11.967 J1.639
X-11.596 Y9.119 I7.131 J-1.975
G3 X-11.145 Y9.674 I-15.522 J13.065
G1 X-11.135 Y9.696
X-11.136 Y9.72
X-11.149 Y9.741
X-11.253 Y9.845
X-11.274 Y9.858
X-11.298 Y9.859
X-11.32 Y9.849
G2 X-12.257 Y9.187 I-2.889 J3.096
X-15.588 Y8.387 I-3.575 J7.556
X-18.045 Y8.475 I-0.824 J11.42
G1 X-18.191 Y8.5
X-18.333 Y8.54
X-18.471 Y8.593
X-18.603 Y8.66
X-18.728 Y8.74
X-18.845 Y8.832
X-18.952 Y8.935
X-19.048 Y9.048
X-19.133 Y9.17
G2 X-19.809 Y10.341 I19.139 J11.831
X-19.871 Y11.632 I1.321 J0.711
G1 X-19.857 Y11.664
G2 X-17.496 Y15.352 I11.209 J-4.578
X-15.982 Y16.512 I5.204 J-5.227
G3 X-15.314 Y16.767 I-6.622 J18.328
G1 X-15.294 Y16.781
X-15.283 Y16.803
X-15.284 Y16.827
X-15.322 Y16.969
X-15.334 Y16.99
X-15.354 Y17.004
X-15.378 Y17.006
G2 X-16.523 Y16.901 I-0.952 J4.116
X-19.77 Y17.856 I0.674 J8.285
X-21.89 Y19.178 I4.991 J10.365
G1 X-22.003 Y19.273
X-22.107 Y19.379
X-22.2 Y19.494
X-22.28 Y19.619
X-22.349 Y19.75
X-22.404 Y19.888
X-22.445 Y20.03
X-22.471 Y20.176
X-22.484 Y20.324
G2 X-22.484 Y21.676 I22.49 J0.676
X-21.892 Y22.825 I1.499 J-0.045
G1 X-21.864 Y22.847
G2 X-17.973 Y24.86 I7.425 J-9.58
X-16.102 Y25.108 I1.912 J-7.241
G3 X-15.378 Y24.994 I15.395 J95.505
G1 X-15.354 Y24.996
X-15.334 Y25.01
X-15.322 Y25.031
X-15.284 Y25.173
X-15.283 Y25.197
X-15.294 Y25.219
X-15.314 Y25.233
G2 X-16.358 Y25.715 I1.237 J4.049
X-18.713 Y28.197 I4.765 J6.88
X-19.867 Y30.37 I9.524 J6.451
G1 X-19.918 Y30.509
X-19.955 Y30.652
X-19.977 Y30.799
X-19.985 Y30.947
X-19.979 Y31.095
X-19.957 Y31.241
X-19.922 Y31.385
X-19.872 Y31.525
X-19.809 Y31.659
G2 X-19.133 Y32.83 I19.815 J-10.659
X-18.046 Y33.53 I1.276 J-0.789
G1 X-18.01 Y33.534
G2 X-13.597 Y33.323 I1.64 J-11.964
X-11.875 Y32.602 I-1.969 J-7.119
G3 X-11.32 Y32.151 I14.654 J17.487
G1 X-11.298 Y32.141
X-11.274 Y32.142
X-11.253 Y32.155
X-11.149 Y32.259
X-11.136 Y32.28
X-11.135 Y32.304
X-11.145 Y32.326
G2 X-11.807 Y33.264 I3.096 J2.889
X-12.605 Y36.558 I7.534 J3.567
X-12.519 Y39.051 I11.455 J0.857
G1 X-12.494 Y39.197
X-12.454 Y39.34
X-12.401 Y39.478
X-12.334 Y39.61
X-12.254 Y39.735
X-12.162 Y39.851
X-12.059 Y39.958
X-11.946 Y40.054
X-11.824 Y40.139
G2 X-10.653 Y40.815 I11.831 J-19.139
X-9.362 Y40.877 I0.711 J-1.321
G1 X-9.329 Y40.863
G2 X-5.642 Y38.502 I-4.587 J-11.224
X-4.481 Y36.987 I-5.256 J-5.227
G3 X-4.227 Y36.32 I16.315 J5.846
G1 X-4.213 Y36.3
X-4.191 Y36.289
X-4.167 Y36.29
X-4.025 Y36.328
X-4.003 Y36.34
X-3.99 Y36.36
X-3.988 Y36.384
G2 X-4.093 Y37.528 I4.121 J0.953
X-3.12 Y40.811 I8.333 J-0.684
X-1.816 Y42.895 I10.296 J-4.991
G1 X-1.721 Y43.009
X-1.615 Y43.113
X-1.5 Y43.205
X-1.376 Y43.286
X-1.244 Y43.355
X-1.106 Y43.41
X-0.964 Y43.451
X-0.818 Y43.478
X-0.67 Y43.49
G2 X0.682 Y43.49 I0.676 J-22.49
G0 Z6
X-0.682 Y44.215
G1 Z1.5 F333.3
G2 X-1.832 Y44.807 I0.045 J1.499 F1000
G1 X-1.853 Y44.835
G2 X-3.866 Y48.723 I9.583 J7.426
X-4.115 Y50.595 I7.261 J1.916
G3 X-4.001 Y51.32 I-103.61 J16.649
G1 X-4.003 Y51.344
X-4.016 Y51.365
X-4.037 Y51.376
X-4.179 Y51.415
X-4.204
X-4.225 Y51.404
X-4.239 Y51.384
G2 X-4.72 Y50.342 I-4.045 J1.235
X-7.206 Y47.984 I-6.877 J4.76
X-9.376 Y46.832 I-6.423 J9.479
G1 X-9.515 Y46.781
X-9.658 Y46.744
X-9.805 Y46.721
X-9.953 Y46.713
X-10.101 Y46.72
X-10.248 Y46.741
X-10.392 Y46.777
X-10.531 Y46.826
X-10.666 Y46.89
G2 X-11.837 Y47.566 I10.659 J19.815
X-12.536 Y48.653 I0.789 J1.276
G1 X-12.541 Y48.688
G2 X-12.329 Y53.101 I11.959 J1.64
X-11.608 Y54.825 I7.137 J-1.976
G3 X-11.158 Y55.378 I-13.45 J11.388
G1 X-11.147 Y55.4
X-11.149 Y55.425
X-11.161 Y55.445
X-11.265 Y55.55
X-11.286 Y55.562
X-11.31 Y55.563
X-11.332 Y55.553
G2 X-12.27 Y54.891 I-2.892 J3.1
X-15.561 Y54.094 I-3.562 J7.518
X-18.058 Y54.179 I-0.862 J11.449
G1 X-18.203 Y54.204
X-18.346 Y54.244
X-18.484 Y54.298
X-18.616 Y54.365
X-18.741 Y54.444
X-18.857 Y54.536
X-18.964 Y54.639
X-19.06 Y54.752
X-19.145 Y54.874
G2 X-19.821 Y56.045 I19.139 J11.83
X-19.883 Y57.338 I1.321 J0.711
G1 X-19.869 Y57.37
G2 X-17.481 Y61.085 I11.185 J-4.566
X-15.994 Y62.217 I5.2 J-5.287
G3 X-15.326 Y62.471 I-6.14 J17.088
G1 X-15.307 Y62.485
X-15.296 Y62.507
Y62.531
X-15.334 Y62.673
X-15.346 Y62.695
X-15.366 Y62.708
X-15.39 Y62.71
G2 X-16.531 Y62.606 I-0.953 J4.118
X-19.787 Y63.563 I0.672 J8.3
X-21.902 Y64.883 I4.986 J10.346
G1 X-22.016 Y64.978
X-22.119 Y65.084
X-22.212 Y65.199
X-22.293 Y65.323
X-22.361 Y65.455
X-22.416 Y65.592
X-22.457 Y65.735
X-22.484 Y65.88
X-22.496 Y66.028
G2 X-22.496 Y67.381 I22.49 J0.676
X-21.902 Y68.532 I1.499 J-0.045
G1 X-21.874 Y68.553
G2 X-17.987 Y70.565 I7.42 J-9.577
X-16.12 Y70.813 I1.916 J-7.259
G1 X-15.391 Y70.699
X-15.366 Y70.701
X-15.346 Y70.714
X-15.334 Y70.735
X-15.296 Y70.878
Y70.902
X-15.307 Y70.924
X-15.327 Y70.937
G2 X-16.37 Y71.419 I1.236 J4.048
X-18.686 Y73.843 I4.718 J6.827
X-19.879 Y76.075 I9.452 J6.486
G1 X-19.93 Y76.214
X-19.967 Y76.357
X-19.99 Y76.503
X-19.998 Y76.651
X-19.991 Y76.799
X-19.97 Y76.946
X-19.934 Y77.09
X-19.884 Y77.23
X-19.821 Y77.364
G2 X-19.145 Y78.535 I19.815 J-10.659
X-18.058 Y79.234 I1.276 J-0.789
G1 X-18.023 Y79.239
G2 X-13.645 Y79.037 I1.64 J-11.994
X-11.886 Y78.306 I-1.933 J-7.132
G3 X-11.332 Y77.856 I11.48 J13.564
G1 X-11.31 Y77.846
X-11.286 Y77.847
X-11.265 Y77.859
X-11.161 Y77.963
X-11.149 Y77.984
X-11.147 Y78.009
X-11.157 Y78.031
G2 X-11.82 Y78.97 I3.093 J2.886
X-12.614 Y82.221 I7.493 J3.551
X-12.532 Y84.756 I11.466 J0.897
G1 X-12.506 Y84.902
X-12.466 Y85.045
X-12.413 Y85.182
X-12.346 Y85.315
X-12.266 Y85.439
X-12.174 Y85.556
X-12.071 Y85.662
X-11.959 Y85.759
X-11.837 Y85.843
G2 X-10.666 Y86.519 I11.831 J-19.139
X-9.374 Y86.581 I0.711 J-1.321
G1 X-9.342 Y86.568
G2 X-5.683 Y84.234 I-4.598 J-11.246
X-4.503 Y82.71 I-5.292 J-5.314
G3 X-4.239 Y82.025 I69.683 J26.442
G1 X-4.225 Y82.005
X-4.204 Y81.994
X-4.179
X-4.037 Y82.032
X-4.016 Y82.044
X-4.003 Y82.065
X-4 Y82.089
G2 X-4.105 Y83.232 I4.12 J0.953
X-3.131 Y86.517 I8.332 J-0.683
X-1.828 Y88.6 I10.297 J-4.993
G1 X-1.733 Y88.713
X-1.628 Y88.817
X-1.512 Y88.91
X-1.388 Y88.991
X-1.256 Y89.059
X-1.119 Y89.114
X-0.976 Y89.155
X-0.83 Y89.182
X-0.682 Y89.194
G2 X0.67 Y89.194 I0.676 J-22.49
X1.819 Y88.602 I-0.045 J-1.499
G1 X1.841 Y88.574
G2 X3.854 Y84.685 I-9.579 J-7.424
X4.102 Y82.815 I-7.258 J-1.914
G3 X3.988 Y82.089 I120.629 J-19.304
G1 X3.99 Y82.065
X4.003 Y82.044
X4.025 Y82.032
X4.167 Y81.994
X4.191
X4.213 Y82.005
X4.227 Y82.025
G2 X4.708 Y83.067 I4.043 J-1.234
X7.194 Y85.425 I6.874 J-4.758
X9.364 Y86.577 I6.406 J-9.448
G1 X9.503 Y86.628
X9.646 Y86.665
X9.792 Y86.688
X9.94 Y86.696
X10.088 Y86.689
X10.235 Y86.668
X10.379 Y86.632
X10.519 Y86.583
X10.653 Y86.519
G2 X11.824 Y85.843 I-10.659 J-19.815
X12.524 Y84.757 I-0.789 J-1.276
G1 X12.528 Y84.722
G2 X12.317 Y80.307 I-11.961 J-1.64
X11.596 Y78.586 I-7.139 J1.978
G3 X11.145 Y78.031 I16.349 J-13.737
G1 X11.135 Y78.009
X11.136 Y77.984
X11.149 Y77.963
X11.253 Y77.859
X11.274 Y77.847
X11.298 Y77.846
X11.32 Y77.856
G2 X12.254 Y78.516 I2.888 J-3.095
X15.552 Y79.315 I3.567 J-7.515
X18.045 Y79.23 I0.856 J-11.449
G1 X18.191 Y79.205
X18.334 Y79.165
X18.472 Y79.111
X18.604 Y79.044
X18.729 Y78.964
X18.845 Y78.873
X18.952 Y78.77
X19.048 Y78.657
X19.133 Y78.535
G2 X19.809 Y77.364 I-19.139 J-11.83
X19.871 Y76.073 I-1.321 J-0.711
G1 X19.857 Y76.04
G2 X17.496 Y72.352 I-11.218 J4.583
X15.997 Y71.2 I-5.276 J5.312
G3 X15.314 Y70.937 I24.026 J-63.417
G1 X15.294 Y70.924
X15.283 Y70.902
X15.284 Y70.878
X15.322 Y70.735
X15.334 Y70.714
X15.354 Y70.701
X15.378 Y70.699
G2 X16.523 Y70.803 I0.954 J-4.129
X19.872 Y69.797 I-0.7 J-8.399
X21.887 Y68.528 I-5.017 J-10.204
G1 X22.001 Y68.433
X22.105 Y68.327
X22.198 Y68.212
X22.279 Y68.088
X22.348 Y67.956
X22.403 Y67.818
X22.444 Y67.675
X22.471 Y67.529
X22.484 Y67.381
G2 X22.484 Y66.028 I-22.49 J-0.676
X21.892 Y64.879 I-1.499 J0.045
G1 X21.864 Y64.858
G2 X17.939 Y62.835 I-7.409 J9.554
X16.083 Y62.597 I-1.86 J7.168
G3 X15.378 Y62.71 I-3.08 J-16.973
G1 X15.354 Y62.708
X15.334 Y62.695
X15.322 Y62.674
X15.284 Y62.531
X15.283 Y62.507
X15.294 Y62.485
X15.314 Y62.471
G2 X16.358 Y61.99 I-1.232 J-4.04
X18.63 Y59.632 I-4.692 J-6.797
X19.866 Y57.336 I-9.541 J-6.616
G1 X19.917 Y57.197
X19.954 Y57.053
X19.977 Y56.907
X19.985 Y56.759
X19.979 Y56.61
X19.957 Y56.464
X19.922 Y56.319
X19.872 Y56.18
X19.809 Y56.045
G2 X19.133 Y54.874 I-19.815 J10.659
X18.046 Y54.175 I-1.276 J0.789
G1 X18.01 Y54.17
G2 X13.597 Y54.381 I-1.64 J11.959
X11.875 Y55.102 I1.986 J7.162
G3 X11.32 Y55.553 I-12.529 J-14.853
G1 X11.298 Y55.563
X11.274 Y55.562
X11.253 Y55.55
X11.149 Y55.446
X11.136 Y55.425
X11.135 Y55.401
X11.145 Y55.378
G2 X11.808 Y54.439 I-3.094 J-2.887
X12.606 Y51.112 I-7.558 J-3.572
X12.519 Y48.653 I-11.378 J-0.829
G1 X12.494 Y48.507
X12.454 Y48.365
X12.401 Y48.227
X12.334 Y48.095
X12.254 Y47.97
X12.162 Y47.853
X12.059 Y47.747
X11.946 Y47.65
X11.824 Y47.566
G2 X10.653 Y46.89 I-11.831 J19.139
X9.362 Y46.827 I-0.711 J1.321
G1 X9.329 Y46.841
G2 X5.642 Y49.202 I4.587 J11.225
X4.491 Y50.699 I5.33 J5.29
G3 X4.227 Y51.384 I-126.738 J-48.444
G1 X4.213 Y51.404
X4.191 Y51.415
X4.167
X4.025 Y51.376
X4.003 Y51.365
X3.99 Y51.344
X3.988 Y51.32
G2 X4.093 Y50.176 I-4.12 J-0.953
X3.12 Y46.894 I-8.333 J0.684
X1.816 Y44.809 I-10.299 J4.994
G1 X1.721 Y44.696
X1.615 Y44.592
X1.5 Y44.499
X1.376 Y44.418
X1.244 Y44.35
X1.106 Y44.295
X0.964 Y44.254
X0.818 Y44.227
X0.67 Y44.215
G2 X-0.682 Y44.215 I-0.676 J22.49
G1 Z1 F333.3
G2 X-1.832 Y44.807 I0.045 J1.499 F1000
G1 X-1.853 Y44.835
G2 X-3.866 Y48.723 I9.583 J7.426
X-4.115 Y50.595 I7.261 J1.916
G3 X-4.001 Y51.32 I-103.61 J16.649
G1 X-4.003 Y51.344
X-4.016 Y51.365
X-4.037 Y51.376
X-4.179 Y51.415
X-4.204
X-4.225 Y51.404
X-4.239 Y51.384
G2 X-4.72 Y50.342 I-4.045 J1.235
X-7.206 Y47.984 I-6.877 J4.76
X-9.376 Y46.832 I-6.423 J9.479
G1 X-9.515 Y46.781
X-9.658 Y46.744
X-9.805 Y46.721
X-9.953 Y46.713
X-10.101 Y46.72
X-10.248 Y46.741
X-10.392 Y46.777
X-10.531 Y46.826
X-10.666 Y46.89
G2 X-11.837 Y47.566 I10.659 J19.815
X-12.536 Y48.653 I0.789 J1.276
G1 X-12.541 Y48.688
G2 X-12.329 Y53.101 I11.959 J1.64
X-11.608 Y54.825 I7.137 J-1.976
G3 X-11.158 Y55.378 I-13.45 J11.388
G1 X-11.147 Y55.4
X-11.149 Y55.425
X-11.161 Y55.445
X-11.265 Y55.55
X-11.286 Y55.562
X-11.31 Y55.563
X-11.332 Y55.553
G2 X-12.27 Y54.891 I-2.892 J3.1
X-15.561 Y54.094 I-3.562 J7.518
X-18.058 Y54.179 I-0.862 J11.449
G1 X-18.203 Y54.204
X-18.346 Y54.244
X-18.484 Y54.298
X-18.616 Y54.365
X-18.741 Y54.444
X-18.857 Y54.536
X-18.964 Y54.639
X-19.06 Y54.752
X-19.145 Y54.874
G2 X-19.821 Y56.045 I19.139 J11.83
X-19.883 Y57.338 I1.321 J0.711
G1 X-19.869 Y57.37
G2 X-17.481 Y61.085 I11.185 J-4.566
X-15.994 Y62.217 I5.2 J-5.287
G3 X-15.326 Y62.471 I-6.14 J17.088
G1 X-15.307 Y62.485
X-15.296 Y62.507
Y62.531
X-15.334 Y62.673
X-15.346 Y62.695
X-15.366 Y62.708
X-15.39 Y62.71
G2 X-16.531 Y62.606 I-0.953 J4.118
X-19.787 Y63.563 I0.672 J8.3
X-21.902 Y64.883 I4.986 J10.346
G1 X-22.016 Y64.978
X-22.119 Y65.084
X-22.212 Y65.199
X-22.293 Y65.323
X-22.361 Y65.455
X-22.416 Y65.592
X-22.457 Y65.735
X-22.484 Y65.88
X-22.496 Y66.028
G2 X-22.496 Y67.381 I22.49 J0.676
X-21.902 Y68.532 I1.499 J-0.045
G1 X-21.874 Y68.553
G2 X-17.987 Y70.565 I7.42 J-9.577
X-16.12 Y70.813 I1.916 J-7.259
G1 X-15.391 Y70.699
X-15.366 Y70.701
X-15.346 Y70.714
X-15.334 Y70.735
X-15.296 Y70.878
Y70.902
X-15.307 Y70.924
X-15.327 Y70.937
G2 X-16.37 Y71.419 I1.236 J4.048
X-18.686 Y73.843 I4.718 J6.827
X-19.879 Y76.075 I9.452 J6.486
G1 X-19.93 Y76.214
X-19.967 Y76.357
X-19.99 Y76.503
X-19.998 Y76.651
X-19.991 Y76.799
X-19.97 Y76.946
X-19.934 Y77.09
X-19.884 Y77.23
X-19.821 Y77.364
G2 X-19.145 Y78.535 I19.815 J-10.659
X-18.058 Y79.234 I1.276 J-0.789
G1 X-18.023 Y79.239
G2 X-13.645 Y79.037 I1.64 J-11.994
X-11.886 Y78.306 I-1.933 J-7.132
G3 X-11.332 Y77.856 I11.48 J13.564
G1 X-11.31 Y77.846
X-11.286 Y77.847
X-11.265 Y77.859
X-11.161 Y77.963
X-11.149 Y77.984
X-11.147 Y78.009
X-11.157 Y78.031
G2 X-11.82 Y78.97 I3.093 J2.886
X-12.614 Y82.221 I7.493 J3.551
X-12.532 Y84.756 I11.466 J0.897
G1 X-12.506 Y84.902
X-12.466 Y85.045
X-12.413 Y85.182
X-12.346 Y85.315
X-12.266 Y85.439
X-12.174 Y85.556
X-12.071 Y85.662
X-11.959 Y85.759
X-11.837 Y85.843
G2 X-10.666 Y86.519 I11.831 J-19.139
X-9.374 Y86.581 I0.711 J-1.321
G1 X-9.342 Y86.568
G2 X-5.683 Y84.234 I-4.598 J-11.246
X-4.503 Y82.71 I-5.292 J-5.314
G3 X-4.239 Y82.025 I69.683 J26.442
G1 X-4.225 Y82.005
X-4.204 Y81.994
X-4.179
X-4.037 Y82.032
X-4.016 Y82.044
X-4.003 Y82.065
X-4 Y82.089
G2 X-4.105 Y83.232 I4.12 J0.953
X-3.131 Y86.517 I8.332 J-0.683
X-1.828 Y88.6 I10.297 J-4.993
G1 X-1.733 Y88.713
X-1.628 Y88.817
X-1.512 Y88.91
X-1.388 Y88.991
X-1.256 Y89.059
X-1.119 Y89.114
X-0.976 Y89.155
X-0.83 Y89.182
X-0.682 Y89.194
G2 X0.67 Y89.194 I0.676 J-22.49
X1.819 Y88.602 I-0.045 J-1.499
G1 X1.841 Y88.574
G2 X3.854 Y84.685 I-9.579 J-7.424
X4.102 Y82.815 I-7.258 J-1.914
G3 X3.988 Y82.089 I120.629 J-19.304
G1 X3.99 Y82.065
X4.003 Y82.044
X4.025 Y82.032
X4.167 Y81.994
X4.191
X4.213 Y82.005
X4.227 Y82.025
G2 X4.708 Y83.067 I4.043 J-1.234
X7.194 Y85.425 I6.874 J-4.758
X9.364 Y86.577 I6.406 J-9.448
G1 X9.503 Y86.628
X9.646 Y86.665
X9.792 Y86.688
X9.94 Y86.696
X10.088 Y86.689
X10.235 Y86.668
X10.379 Y86.632
X10.519 Y86.583
X10.653 Y86.519
G2 X11.824 Y85.843 I-10.659 J-19.815
X12.524 Y84.757 I-0.789 J-1.276
G1 X12.528 Y84.722
G2 X12.317 Y80.307 I-11.961 J-1.64
X11.596 Y78.586 I-7.139 J1.978
G3 X11.145 Y78.031 I16.349 J-13.737
G1 X11.135 Y78.009
X11.136 Y77.984
X11.149 Y77.963
X11.253 Y77.859
X11.274 Y77.847
X11.298 Y77.846
X11.32 Y77.856
G2 X12.254 Y78.516 I2.888 J-3.095
X15.552 Y79.315 I3.567 J-7.515
X18.045 Y79.23 I0.856 J-11.449
G1 X18.191 Y79.205
X18.334 Y79.165
X18.472 Y79.111
X18.604 Y79.044
X18.729 Y78.964
X18.845 Y78.873
X18.952 Y78.77
X19.048 Y78.657
X19.133 Y78.535
G2 X19.809 Y77.364 I-19.139 J-11.83
X19.871 Y76.073 I-1.321 J-0.711
G1 X19.857 Y76.04
G2 X17.496 Y72.352 I-11.218 J4.583
X15.997 Y71.2 I-5.276 J5.312
G3 X15.314 Y70.937 I24.026 J-63.417
G1 X15.294 Y70.924
X15.283 Y70.902
X15.284 Y70.878
X15.322 Y70.735
X15.334 Y70.714
X15.354 Y70.701
X15.378 Y70.699
G2 X16.523 Y70.803 I0.954 J-4.129
X19.872 Y69.797 I-0.7 J-8.399
X21.887 Y68.528 I-5.017 J-10.204
G1 X22.001 Y68.433
X22.105 Y68.327
X22.198 Y68.212
X22.279 Y68.088
X22.348 Y67.956
X22.403 Y67.818
X22.444 Y67.675
X22.471 Y67.529
X22.484 Y67.381
G2 X22.484 Y66.028 I-22.49 J-0.676
X21.892 Y64.879 I-1.499 J0.045
G1 X21.864 Y64.858
G2 X17.939 Y62.835 I-7.409 J9.554
X16.083 Y62.597 I-1.86 J7.168
G3 X15.378 Y62.71 I-3.08 J-16.973
G1 X15.354 Y62.708
X15.334 Y62.695
X15.322 Y62.674
X15.284 Y62.531
X15.283 Y62.507
X15.294 Y62.485
X15.314 Y62.471
G2 X16.358 Y61.99 I-1.232 J-4.04
X18.63 Y59.632 I-4.692 J-6.797
X19.866 Y57.336 I-9.541 J-6.616
G1 X19.917 Y57.197
X19.954 Y57.053
X19.977 Y56.907
X19.985 Y56.759
X19.979 Y56.61
X19.957 Y56.464
X19.922 Y56.319
X19.872 Y56.18
X19.809 Y56.045
G2 X19.133 Y54.874 I-19.815 J10.659
X18.046 Y54.175 I-1.276 J0.789
G1 X18.01 Y54.17
G2 X13.597 Y54.381 I-1.64 J11.959
X11.875 Y55.102 I1.986 J7.162
G3 X11.32 Y55.553 I-12.529 J-14.853
G1 X11.298 Y55.563
X11.274 Y55.562
X11.253 Y55.55
X11.149 Y55.446
X11.136 Y55.425
X11.135 Y55.401
X11.145 Y55.378
G2 X11.808 Y54.439 I-3.094 J-2.887
X12.606 Y51.112 I-7.558 J-3.572
X12.519 Y48.653 I-11.378 J-0.829
G1 X12.494 Y48.507
X12.454 Y48.365
X12.401 Y48.227
X12.334 Y48.095
X12.254 Y47.97
X12.162 Y47.853
X12.059 Y47.747
X11.946 Y47.65
X11.824 Y47.566
G2 X10.653 Y46.89 I-11.831 J19.139
X9.362 Y46.827 I-0.711 J1.321
G1 X9.329 Y46.841
G2 X5.642 Y49.202 I4.587 J11.225
X4.491 Y50.699 I5.33 J5.29
G3 X4.227 Y51.384 I-126.738 J-48.444
G1 X4.213 Y51.404
X4.191 Y51.415
X4.167
X4.025 Y51.376
X4.003 Y51.365
X3.99 Y51.344
X3.988 Y51.32
G2 X4.093 Y50.176 I-4.12 J-0.953
X3.12 Y46.894 I-8.333 J0.684
X1.816 Y44.809 I-10.299 J4.994
G1 X1.721 Y44.696
X1.615 Y44.592
X1.5 Y44.499
X1.376 Y44.418
X1.244 Y44.35
X1.106 Y44.295
X0.964 Y44.254
X0.818 Y44.227
X0.67 Y44.215
G2 X-0.682 Y44.215 I-0.676 J22.49
G0 Z6
X0.682 Y43.49
G1 Z1 F333.3
G2 X1.832 Y42.898 I-0.045 J-1.499 F1000
G1 X1.853 Y42.87
G2 X3.867 Y38.98 I-9.58 J-7.425
X4.115 Y37.11 I-7.261 J-1.914
G3 X4.001 Y36.384 I104.105 J-16.724
G1 X4.003 Y36.36
X4.016 Y36.34
X4.037 Y36.328
X4.179 Y36.29
X4.204 Y36.289
X4.225 Y36.3
X4.239 Y36.32
G2 X4.72 Y37.363 I4.041 J-1.233
X7.203 Y39.719 I6.878 J-4.761
X9.376 Y40.873 I6.435 J-9.496
G1 X9.515 Y40.924
X9.658 Y40.961
X9.805 Y40.983
X9.953 Y40.991
X10.101 Y40.985
X10.248 Y40.964
X10.392 Y40.928
X10.531 Y40.878
X10.666 Y40.815
G2 X11.837 Y40.139 I-10.659 J-19.815
X12.536 Y39.052 I-0.789 J-1.276
G1 X12.541 Y39.017
G2 X12.329 Y34.604 I-11.955 J-1.64
X11.608 Y32.881 I-7.115 J1.968
G3 X11.158 Y32.326 I17.577 J-14.727
G1 X11.147 Y32.304
X11.149 Y32.28
X11.161 Y32.259
X11.265 Y32.155
X11.286 Y32.142
X11.31 Y32.141
X11.332 Y32.151
G2 X12.27 Y32.813 I2.888 J-3.096
X15.522 Y33.608 I3.553 J-7.491
X18.058 Y33.525 I0.897 J-11.449
G1 X18.203 Y33.5
X18.346 Y33.46
X18.484 Y33.407
X18.616 Y33.34
X18.741 Y33.26
X18.857 Y33.168
X18.964 Y33.065
X19.06 Y32.952
X19.145 Y32.83
G2 X19.821 Y31.659 I-19.139 J-11.83
X19.883 Y30.368 I-1.321 J-0.711
G1 X19.87 Y30.336
G2 X17.481 Y26.62 I-11.19 J4.568
X15.994 Y25.488 I-5.196 J5.283
G3 X15.327 Y25.233 I6.226 J-17.303
G1 X15.307 Y25.219
X15.296 Y25.197
Y25.173
X15.334 Y25.031
X15.346 Y25.01
X15.366 Y24.996
X15.39 Y24.994
G2 X16.536 Y25.099 I0.952 J-4.116
X19.85 Y24.109 I-0.69 J-8.357
X21.902 Y22.822 I-5.014 J-10.269
G1 X22.016 Y22.727
X22.119 Y22.621
X22.212 Y22.506
X22.293 Y22.381
X22.361 Y22.25
X22.416 Y22.112
X22.457 Y21.97
X22.484 Y21.824
X22.496 Y21.676
G2 X22.496 Y20.324 I-22.49 J-0.676
X21.905 Y19.175 I-1.499 J0.045
G1 X21.876 Y19.153
G2 X17.987 Y17.14 I-7.426 J9.581
X16.115 Y16.892 I-1.913 J7.241
G3 X15.39 Y17.006 I-15.306 J-94.933
G1 X15.366 Y17.004
X15.346 Y16.99
X15.334 Y16.969
X15.296 Y16.827
Y16.803
X15.307 Y16.781
X15.327 Y16.767
G2 X16.37 Y16.285 I-1.239 J-4.054
X18.725 Y13.803 I-4.762 J-6.877
X19.879 Y11.63 I-9.501 J-6.438
G1 X19.93 Y11.491
X19.967 Y11.348
X19.99 Y11.201
X19.998 Y11.053
X19.991 Y10.905
X19.97 Y10.759
X19.934 Y10.615
X19.884 Y10.475
X19.821 Y10.341
G2 X19.145 Y9.17 I-19.815 J10.659
X18.058 Y8.47 I-1.276 J0.789
G1 X18.022 Y8.466
G2 X13.649 Y8.666 I-1.64 J12.014
X11.886 Y9.399 I1.929 J7.133
G3 X11.332 Y9.849 I-11.712 J-13.852
G1 X11.31 Y9.859
X11.286 Y9.858
X11.265 Y9.845
X11.161 Y9.741
X11.149 Y9.72
X11.147 Y9.696
X11.157 Y9.674
G2 X11.82 Y8.735 I-3.094 J-2.887
X12.614 Y5.484 I-7.491 J-3.551
X12.532 Y2.949 I-11.466 J-0.897
G1 X12.506 Y2.803
X12.467 Y2.66
X12.413 Y2.522
X12.346 Y2.39
X12.266 Y2.265
X12.174 Y2.149
X12.072 Y2.042
X11.959 Y1.946
X11.837 Y1.861
G2 X10.666 Y1.185 I-11.831 J19.139
X9.374 Y1.123 I-0.711 J1.321
G1 X9.341 Y1.137
G2 X5.653 Y3.498 I4.587 J11.224
X4.503 Y4.995 I5.334 J5.291
G3 X4.239 Y5.68 I-95.9 J-36.558
G1 X4.225 Y5.7
X4.204 Y5.711
X4.179 Y5.71
X4.037 Y5.672
X4.016 Y5.66
X4.003 Y5.64
X4 Y5.616
G2 X4.105 Y4.472 I-4.12 J-0.953
X3.132 Y1.188 I-8.332 J0.683
X1.828 Y-0.895 I-10.3 J4.995
G1 X1.733 Y-1.009
X1.628 Y-1.113
X1.512 Y-1.205
X1.388 Y-1.286
X1.256 Y-1.355
X1.119 Y-1.41
X0.976 Y-1.451
X0.83 Y-1.478
X0.682 Y-1.49
G2 X-0.67 Y-1.49 I-0.676 J22.49
X-1.819 Y-0.898 I0.045 J1.499
G1 X-1.841 Y-0.87
G2 X-3.854 Y3.02 I9.584 J7.427
X-4.102 Y4.89 I7.265 J1.915
G3 X-3.988 Y5.616 I-112.657 J18.06
G1 X-3.99 Y5.64
X-4.003 Y5.66
X-4.025 Y5.672
X-4.167 Y5.71
X-4.191 Y5.711
X-4.213 Y5.7
X-4.227 Y5.68
G2 X-4.708 Y4.637 I-4.044 J1.235
X-7.193 Y2.28 I-6.875 J4.759
X-9.363 Y1.127 I-6.423 J9.476
G1 X-9.502 Y1.076
X-9.646 Y1.039
X-9.792 Y1.017
X-9.94 Y1.009
X-10.088 Y1.015
X-10.235 Y1.036
X-10.379 Y1.072
X-10.519 Y1.122
X-10.653 Y1.185
G2 X-11.824 Y1.861 I10.659 J19.815
X-12.524 Y2.948 I0.789 J1.276
G1 X-12.528 Y2.983
G2 X-12.317 Y7.397 I11.967 J1.639
X-11.596 Y9.119 I7.131 J-1.975
G3 X-11.145 Y9.674 I-15.522 J13.065
G1 X-11.135 Y9.696
X-11.136 Y9.72
X-11.149 Y9.741
X-11.253 Y9.845
X-11.274 Y9.858
X-11.298 Y9.859
X-11.32 Y9.849
G2 X-12.257 Y9.187 I-2.889 J3.096
X-15.588 Y8.387 I-3.575 J7.556
X-18.045 Y8.475 I-0.824 J11.42
G1 X-18.191 Y8.5
X-18.333 Y8.54
X-18.471 Y8.593
X-18.603 Y8.66
X-18.728 Y8.74
X-18.845 Y8.832
X-18.952 Y8.935
X-19.048 Y9.048
X-19.133 Y9.17
G2 X-19.809 Y10.341 I19.139 J11.831
X-19.871 Y11.632 I1.321 J0.711
G1 X-19.857 Y11.664
G2 X-17.496 Y15.352 I11.209 J-4.578
X-15.982 Y16.512 I5.204 J-5.227
G3 X-15.314 Y16.767 I-6.622 J18.328
G1 X-15.294 Y16.781
X-15.283 Y16.803
X-15.284 Y16.827
X-15.322 Y16.969
X-15.334 Y16.99
X-15.354 Y17.004
X-15.378 Y17.006
G2 X-16.523 Y16.901 I-0.952 J4.116
X-19.77 Y17.856 I0.674 J8.285
X-21.89 Y19.178 I4.991 J10.365
G1 X-22.003 Y19.273
X-22.107 Y19.379
X-22.2 Y19.494
X-22.28 Y19.619
X-22.349 Y19.75
X-22.404 Y19.888
X-22.445 Y20.03
X-22.471 Y20.176
X-22.484 Y20.324
G2 X-22.484 Y21.676 I22.49 J0.676
X-21.892 Y22.825 I1.499 J-0.045
G1 X-21.864 Y22.847
G2 X-17.973 Y24.86 I7.425 J-9.58
X-16.102 Y25.108 I1.912 J-7.241
G3 X-15.378 Y24.994 I15.395 J95.505
G1 X-15.354 Y24.996
X-15.334 Y25.01
X-15.322 Y25.031
X-15.284 Y25.173
X-15.283 Y25.197
X-15.294 Y25.219
X-15.314 Y25.233
G2 X-16.358 Y25.715 I1.237 J4.049
X-18.713 Y28.197 I4.765 J6.88
X-19.867 Y30.37 I9.524 J6.451
G1 X-19.918 Y30.509
X-19.955 Y30.652
X-19.977 Y30.799
X-19.985 Y30.947
X-19.979 Y31.095
X-19.957 Y31.241
X-19.922 Y31.385
X-19.872 Y31.525
X-19.809 Y31.659
G2 X-19.133 Y32.83 I19.815 J-10.659
X-18.046 Y33.53 I1.276 J-0.789
G1 X-18.01 Y33.534
G2 X-13.597 Y33.323 I1.64 J-11.964
X-11.875 Y32.602 I-1.969 J-7.119
G3 X-11.32 Y32.151 I14.654 J17.487
G1 X-11.298 Y32.141
X-11.274 Y32.142
X-11.253 Y32.155
X-11.149 Y32.259
X-11.136 Y32.28
X-11.135 Y32.304
X-11.145 Y32.326
G2 X-11.807 Y33.264 I3.096 J2.889
X-12.605 Y36.558 I7.534 J3.567
X-12.519 Y39.051 I11.455 J0.857
G1 X-12.494 Y39.197
X-12.454 Y39.34
X-12.401 Y39.478
X-12.334 Y39.61
X-12.254 Y39.735
X-12.162 Y39.851
X-12.059 Y39.958
X-11.946 Y40.054
X-11.824 Y40.139
G2 X-10.653 Y40.815 I11.831 J-19.139
X-9.362 Y40.877 I0.711 J-1.321
G1 X-9.329 Y40.863
G2 X-5.642 Y38.502 I-4.587 J-11.224
X-4.481 Y36.987 I-5.256 J-5.227
G3 X-4.227 Y36.32 I16.315 J5.846
G1 X-4.213 Y36.3
X-4.191 Y36.289
X-4.167 Y36.29
X-4.025 Y36.328
X-4.003 Y36.34
X-3.99 Y36.36
X-3.988 Y36.384
G2 X-4.093 Y37.528 I4.121 J0.953
X-3.12 Y40.811 I8.333 J-0.684
X-1.816 Y42.895 I10.296 J-4.991
G1 X-1.721 Y43.009
X-1.615 Y43.113
X-1.5 Y43.205
X-1.376 Y43.286
X-1.244 Y43.355
X-1.106 Y43.41
X-0.964 Y43.451
X-0.818 Y43.478
X-0.67 Y43.49
G2 X0.682 Y43.49 I0.676 J-22.49
G1 Z0.5 F333.3
G2 X1.832 Y42.898 I-0.045 J-1.499 F1000
G1 X1.853 Y42.87
G2 X3.867 Y38.98 I-9.58 J-7.425
X4.115 Y37.11 I-7.261 J-1.914
G3 X4.001 Y36.384 I104.105 J-16.724
G1 X4.003 Y36.36
X4.016 Y36.34
X4.037 Y36.328
X4.179 Y36.29
X4.204 Y36.289
X4.225 Y36.3
X4.239 Y36.32
G2 X4.72 Y37.363 I4.041 J-1.233
X7.203 Y39.719 I6.878 J-4.761
X9.376 Y40.873 I6.435 J-9.496
G1 X9.515 Y40.924
X9.658 Y40.961
X9.805 Y40.983
X9.953 Y40.991
X10.101 Y40.985
X10.248 Y40.964
X10.392 Y40.928
X10.531 Y40.878
X10.666 Y40.815
G2 X11.837 Y40.139 I-10.659 J-19.815
X12.536 Y39.052 I-0.789 J-1.276
G1 X12.541 Y39.017
G2 X12.329 Y34.604 I-11.955 J-1.64
X11.608 Y32.881 I-7.115 J1.968
G3 X11.158 Y32.326 I17.577 J-14.727
G1 X11.147 Y32.304
X11.149 Y32.28
X11.161 Y32.259
X11.265 Y32.155
X11.286 Y32.142
X11.31 Y32.141
X11.332 Y32.151
G2 X12.27 Y32.813 I2.888 J-3.096
X15.522 Y33.608 I3.553 J-7.491
X18.058 Y33.525 I0.897 J-11.449
G1 X18.203 Y33.5
X18.346 Y33.46
X18.484 Y33.407
X18.616 Y33.34
X18.741 Y33.26
X18.857 Y33.168
X18.964 Y33.065
X19.06 Y32.952
X19.145 Y32.83
G2 X19.821 Y31.659 I-19.139 J-11.83
X19.883 Y30.368 I-1.321 J-0.711
G1 X19.87 Y30.336
G2 X17.481 Y26.62 I-11.19 J4.568
X15.994 Y25.488 I-5.196 J5.283
G3 X15.327 Y25.233 I6.226 J-17.303
G1 X15.307 Y25.219
X15.296 Y25.197
Y25.173
X15.334 Y25.031
X15.346 Y25.01
X15.366 Y24.996
X15.39 Y24.994
G2 X16.536 Y25.099 I0.952 J-4.116
X19.85 Y24.109 I-0.69 J-8.357
X21.902 Y22.822 I-5.014 J-10.269
G1 X22.016 Y22.727
X22.119 Y22.621
X22.212 Y22.506
X22.293 Y22.381
X22.361 Y22.25
X22.416 Y22.112
X22.457 Y21.97
X22.484 Y21.824
X22.496 Y21.676
G2 X22.496 Y20.324 I-22.49 J-0.676
X21.905 Y19.175 I-1.499 J0.045
G1 X21.876 Y19.153
G2 X17.987 Y17.14 I-7.426 J9.581
X16.115 Y16.892 I-1.913 J7.241
G3 X15.39 Y17.006 I-15.306 J-94.933
G1 X15.366 Y17.004
X15.346 Y16.99
X15.334 Y16.969
X15.296 Y16.827
Y16.803
X15.307 Y16.781
X15.327 Y16.767
G2 X16.37 Y16.285 I-1.239 J-4.054
X18.725 Y13.803 I-4.762 J-6.877
X19.879 Y11.63 I-9.501 J-6.438
G1 X19.93 Y11.491
X19.967 Y11.348
X19.99 Y11.201
X19.998 Y11.053
X19.991 Y10.905
X19.97 Y10.759
X19.934 Y10.615
X19.884 Y10.475
X19.821 Y10.341
G2 X19.145 Y9.17 I-19.815 J10.659
X18.058 Y8.47 I-1.276 J0.789
G1 X18.022 Y8.466
G2 X13.649 Y8.666 I-1.64 J12.014
X11.886 Y9.399 I1.929 J7.133
G3 X11.332 Y9.849 I-11.712 J-13.852
G1 X11.31 Y9.859
X11.286 Y9.858
X11.265 Y9.845
X11.161 Y9.741
X11.149 Y9.72
X11.147 Y9.696
X11.157 Y9.674
G2 X11.82 Y8.735 I-3.094 J-2.887
X12.614 Y5.484 I-7.491 J-3.551
X12.532 Y2.949 I-11.466 J-0.897
G1 X12.506 Y2.803
X12.467 Y2.66
X12.413 Y2.522
X12.346 Y2.39
X12.266 Y2.265
X12.174 Y2.149
X12.072 Y2.042
X11.959 Y1.946
X11.837 Y1.861
G2 X10.666 Y1.185 I-11.831 J19.139
X9.374 Y1.123 I-0.711 J1.321
G1 X9.341 Y1.137
G2 X5.653 Y3.498 I4.587 J11.224
X4.503 Y4.995 I5.334 J5.291
G3 X4.239 Y5.68 I-95.9 J-36.558
G1 X4.225 Y5.7
X4.204 Y5.711
X4.179 Y5.71
X4.037 Y5.672
X4.016 Y5.66
X4.003 Y5.64
X4 Y5.616
G2 X4.105 Y4.472 I-4.12 J-0.953
X3.132 Y1.188 I-8.332 J0.683
X1.828 Y-0.895 I-10.3 J4.995
G1 X1.733 Y-1.009
X1.628 Y-1.113
X1.512 Y-1.205
X1.388 Y-1.286
X1.256 Y-1.355
X1.119 Y-1.41
X0.976 Y-1.451
X0.83 Y-1.478
X0.682 Y-1.49
G2 X-0.67 Y-1.49 I-0.676 J22.49
X-1.819 Y-0.898 I0.045 J1.499
G1 X-1.841 Y-0.87
G2 X-3.854 Y3.02 I9.584 J7.427
X-4.102 Y4.89 I7.265 J1.915
G3 X-3.988 Y5.616 I-112.657 J18.06
G1 X-3.99 Y5.64
X-4.003 Y5.66
X-4.025 Y5.672
X-4.167 Y5.71
X-4.191 Y5.711
X-4.213 Y5.7
X-4.227 Y5.68
G2 X-4.708 Y4.637 I-4.044 J1.235
X-7.193 Y2.28 I-6.875 J4.759
X-9.363 Y1.127 I-6.423 J9.476
G1 X-9.502 Y1.076
X-9.646 Y1.039
X-9.792 Y1.017
X-9.94 Y1.009
X-10.088 Y1.015
X-10.235 Y1.036
X-10.379 Y1.072
X-10.519 Y1.122
X-10.653 Y1.185
G2 X-11.824 Y1.861 I10.659 J19.815
X-12.524 Y2.948 I0.789 J1.276
G1 X-12.528 Y2.983
G2 X-12.317 Y7.397 I11.967 J1.639
X-11.596 Y9.119 I7.131 J-1.975
G3 X-11.145 Y9.674 I-15.522 J13.065
G1 X-11.135 Y9.696
X-11.136 Y9.72
X-11.149 Y9.741
X-11.253 Y9.845
X-11.274 Y9.858
X-11.298 Y9.859
X-11.32 Y9.849
G2 X-12.257 Y9.187 I-2.889 J3.096
X-15.588 Y8.387 I-3.575 J7.556
X-18.045 Y8.475 I-0.824 J11.42
G1 X-18.191 Y8.5
X-18.333 Y8.54
X-18.471 Y8.593
X-18.603 Y8.66
X-18.728 Y8.74
X-18.845 Y8.832
X-18.952 Y8.935
X-19.048 Y9.048
X-19.133 Y9.17
G2 X-19.809 Y10.341 I19.139 J11.831
X-19.871 Y11.632 I1.321 J0.711
G1 X-19.857 Y11.664
G2 X-17.496 Y15.352 I11.209 J-4.578
X-15.982 Y16.512 I5.204 J-5.227
G3 X-15.314 Y16.767 I-6.622 J18.328
G1 X-15.294 Y16.781
X-15.283 Y16.803
X-15.284 Y16.827
X-15.322 Y16.969
X-15.334 Y16.99
X-15.354 Y17.004
X-15.378 Y17.006
G2 X-16.523 Y16.901 I-0.952 J4.116
X-19.77 Y17.856 I0.674 J8.285
X-21.89 Y19.178 I4.991 J10.365
G1 X-22.003 Y19.273
X-22.107 Y19.379
X-22.2 Y19.494
X-22.28 Y19.619
X-22.349 Y19.75
X-22.404 Y19.888
X-22.445 Y20.03
X-22.471 Y20.176
X-22.484 Y20.324
G2 X-22.484 Y21.676 I22.49 J0.676
X-21.892 Y22.825 I1.499 J-0.045
G1 X-21.864 Y22.847
G2 X-17.973 Y24.86 I7.425 J-9.58
X-16.102 Y25.108 I1.912 J-7.241
G3 X-15.378 Y24.994 I15.395 J95.505
G1 X-15.354 Y24.996
X-15.334 Y25.01
X-15.322 Y25.031
X-15.284 Y25.173
X-15.283 Y25.197
X-15.294 Y25.219
X-15.314 Y25.233
G2 X-16.358 Y25.715 I1.237 J4.049
X-18.713 Y28.197 I4.765 J6.88
X-19.867 Y30.37 I9.524 J6.451
G1 X-19.918 Y30.509
X-19.955 Y30.652
X-19.977 Y30.799
X-19.985 Y30.947
X-19.979 Y31.095
X-19.957 Y31.241
X-19.922 Y31.385
X-19.872 Y31.525
X-19.809 Y31.659
G2 X-19.133 Y32.83 I19.815 J-10.659
X-18.046 Y33.53 I1.276 J-0.789
G1 X-18.01 Y33.534
G2 X-13.597 Y33.323 I1.64 J-11.964
X-11.875 Y32.602 I-1.969 J-7.119
G3 X-11.32 Y32.151 I14.654 J17.487
G1 X-11.298 Y32.141
X-11.274 Y32.142
X-11.253 Y32.155
X-11.149 Y32.259
X-11.136 Y32.28
X-11.135 Y32.304
X-11.145 Y32.326
G2 X-11.807 Y33.264 I3.096 J2.889
X-12.605 Y36.558 I7.534 J3.567
X-12.519 Y39.051 I11.455 J0.857
G1 X-12.494 Y39.197
X-12.454 Y39.34
X-12.401 Y39.478
X-12.334 Y39.61
X-12.254 Y39.735
X-12.162 Y39.851
X-12.059 Y39.958
X-11.946 Y40.054
X-11.824 Y40.139
G2 X-10.653 Y40.815 I11.831 J-19.139
X-9.362 Y40.877 I0.711 J-1.321
G1 X-9.329 Y40.863
G2 X-5.642 Y38.502 I-4.587 J-11.224
X-4.481 Y36.987 I-5.256 J-5.227
G3 X-4.227 Y36.32 I16.315 J5.846
G1 X-4.213 Y36.3
X-4.191 Y36.289
X-4.167 Y36.29
X-4.025 Y36.328
X-4.003 Y36.34
X-3.99 Y36.36
X-3.988 Y36.384
G2 X-4.093 Y37.528 I4.121 J0.953
X-3.12 Y40.811 I8.333 J-0.684
X-1.816 Y42.895 I10.296 J-4.991
G1 X-1.721 Y43.009
X-1.615 Y43.113
X-1.5 Y43.205
X-1.376 Y43.286
X-1.244 Y43.355
X-1.106 Y43.41
X-0.964 Y43.451
X-0.818 Y43.478
X-0.67 Y43.49
G2 X0.682 Y43.49 I0.676 J-22.49
G0 Z6
X-0.682 Y44.215
G1 Z0.5 F333.3
G2 X-1.832 Y44.807 I0.045 J1.499 F1000
G1 X-1.853 Y44.835
G2 X-3.866 Y48.723 I9.583 J7.426
X-4.115 Y50.595 I7.261 J1.916
G3 X-4.001 Y51.32 I-103.61 J16.649
G1 X-4.003 Y51.344
X-4.016 Y51.365
X-4.037 Y51.376
X-4.179 Y51.415
X-4.204
X-4.225 Y51.404
X-4.239 Y51.384
G2 X-4.72 Y50.342 I-4.045 J1.235
X-7.206 Y47.984 I-6.877 J4.76
X-9.376 Y46.832 I-6.423 J9.479
G1 X-9.515 Y46.781
X-9.658 Y46.744
X-9.805 Y46.721
X-9.953 Y46.713
X-10.101 Y46.72
X-10.248 Y46.741
X-10.392 Y46.777
X-10.531 Y46.826
X-10.666 Y46.89
G2 X-11.837 Y47.566 I10.659 J19.815
X-12.536 Y48.653 I0.789 J1.276
G1 X-12.541 Y48.688
G2 X-12.329 Y53.101 I11.959 J1.64
X-11.608 Y54.825 I7.137 J-1.976
G3 X-11.158 Y55.378 I-13.45 J11.388
G1 X-11.147 Y55.4
X-11.149 Y55.425
X-11.161 Y55.445
X-11.265 Y55.55
X-11.286 Y55.562
X-11.31 Y55.563
X-11.332 Y55.553
G2 X-12.27 Y54.891 I-2.892 J3.1
X-15.561 Y54.094 I-3.562 J7.518
X-18.058 Y54.179 I-0.862 J11.449
G1 X-18.203 Y54.204
X-18.346 Y54.244
X-18.484 Y54.298
X-18.616 Y54.365
X-18.741 Y54.444
X-18.857 Y54.536
X-18.964 Y54.639
X-19.06 Y54.752
X-19.145 Y54.874
G2 X-19.821 Y56.045 I19.139 J11.83
X-19.883 Y57.338 I1.321 J0.711
G1 X-19.869 Y57.37
G2 X-17.481 Y61.085 I11.185 J-4.566
X-15.994 Y62.217 I5.2 J-5.287
G3 X-15.326 Y62.471 I-6.14 J17.088
G1 X-15.307 Y62.485
X-15.296 Y62.507
Y62.531
X-15.334 Y62.673
X-15.346 Y62.695
X-15.366 Y62.708
X-15.39 Y62.71
G2 X-16.531 Y62.606 I-0.953 J4.118
X-19.787 Y63.563 I0.672 J8.3
X-21.902 Y64.883 I4.986 J10.346
G1 X-22.016 Y64.978
X-22.119 Y65.084
X-22.212 Y65.199
X-22.293 Y65.323
X-22.361 Y65.455
X-22.416 Y65.592
X-22.457 Y65.735
X-22.484 Y65.88
X-22.496 Y66.028
G2 X-22.496 Y67.381 I22.49 J0.676
X-21.902 Y68.532 I1.499 J-0.045
G1 X-21.874 Y68.553
G2 X-17.987 Y70.565 I7.42 J-9.577
X-16.12 Y70.813 I1.916 J-7.259
G1 X-15.391 Y70.699
X-15.366 Y70.701
X-15.346 Y70.714
X-15.334 Y70.735
X-15.296 Y70.878
Y70.902
X-15.307 Y70.924
X-15.327 Y70.937
G2 X-16.37 Y71.419 I1.236 J4.048
X-18.686 Y73.843 I4.718 J6.827
X-19.879 Y76.075 I9.452 J6.486
G1 X-19.93 Y76.214
X-19.967 Y76.357
X-19.99 Y76.503
X-19.998 Y76.651
X-19.991 Y76.799
X-19.97 Y76.946
X-19.934 Y77.09
X-19.884 Y77.23
X-19.821 Y77.364
G2 X-19.145 Y78.535 I19.815 J-10.659
X-18.058 Y79.234 I1.276 J-0.789
G1 X-18.023 Y79.239
G2 X-13.645 Y79.037 I1.64 J-11.994
X-11.886 Y78.306 I-1.933 J-7.132
G3 X-11.332 Y77.856 I11.48 J13.564
G1 X-11.31 Y77.846
X-11.286 Y77.847
X-11.265 Y77.859
X-11.161 Y77.963
X-11.149 Y77.984
X-11.147 Y78.009
X-11.157 Y78.031
G2 X-11.82 Y78.97 I3.093 J2.886
X-12.614 Y82.221 I7.493 J3.551
X-12.532 Y84.756 I11.466 J0.897
G1 X-12.506 Y84.902
X-12.466 Y85.045
X-12.413 Y85.182
X-12.346 Y85.315
X-12.266 Y85.439
X-12.174 Y85.556
X-12.071 Y85.662
X-11.959 Y85.759
X-11.837 Y85.843
G2 X-10.666 Y86.519 I11.831 J-19.139
X-9.374 Y86.581 I0.711 J-1.321
G1 X-9.342 Y86.568
G2 X-5.683 Y84.234 I-4.598 J-11.246
X-4.503 Y82.71 I-5.292 J-5.314
G3 X-4.239 Y82.025 I69.683 J26.442
G1 X-4.225 Y82.005
X-4.204 Y81.994
X-4.179
X-4.037 Y82.032
X-4.016 Y82.044
X-4.003 Y82.065
X-4 Y82.089
G2 X-4.105 Y83.232 I4.12 J0.953
X-3.131 Y86.517 I8.332 J-0.683
X-1.828 Y88.6 I10.297 J-4.993
G1 X-1.733 Y88.713
X-1.628 Y88.817
X-1.512 Y88.91
X-1.388 Y88.991
X-1.256 Y89.059
X-1.119 Y89.114
X-0.976 Y89.155
X-0.83 Y89.182
X-0.682 Y89.194
G2 X0.67 Y89.194 I0.676 J-22.49
X1.819 Y88.602 I-0.045 J-1.499
G1 X1.841 Y88.574
G2 X3.854 Y84.685 I-9.579 J-7.424
X4.102 Y82.815 I-7.258 J-1.914
G3 X3.988 Y82.089 I120.629 J-19.304
G1 X3.99 Y82.065
X4.003 Y82.044
X4.025 Y82.032
X4.167 Y81.994
X4.191
X4.213 Y82.005
X4.227 Y82.025
G2 X4.708 Y83.067 I4.043 J-1.234
X7.194 Y85.425 I6.874 J-4.758
X9.364 Y86.577 I6.406 J-9.448
G1 X9.503 Y86.628
X9.646 Y86.665
X9.792 Y86.688
X9.94 Y86.696
X10.088 Y86.689
X10.235 Y86.668
X10.379 Y86.632
X10.519 Y86.583
X10.653 Y86.519
G2 X11.824 Y85.843 I-10.659 J-19.815
X12.524 Y84.757 I-0.789 J-1.276
G1 X12.528 Y84.722
G2 X12.317 Y80.307 I-11.961 J-1.64
X11.596 Y78.586 I-7.139 J1.978
G3 X11.145 Y78.031 I16.349 J-13.737
G1 X11.135 Y78.009
X11.136 Y77.984
X11.149 Y77.963
X11.253 Y77.859
X11.274 Y77.847
X11.298 Y77.846
X11.32 Y77.856
G2 X12.254 Y78.516 I2.888 J-3.095
X15.552 Y79.315 I3.567 J-7.515
X18.045 Y79.23 I0.856 J-11.449
G1 X18.191 Y79.205
X18.334 Y79.165
X18.472 Y79.111
X18.604 Y79.044
X18.729 Y78.964
X18.845 Y78.873
X18.952 Y78.77
X19.048 Y78.657
X19.133 Y78.535
G2 X19.809 Y77.364 I-19.139 J-11.83
X19.871 Y76.073 I-1.321 J-0.711
G1 X19.857 Y76.04
G2 X17.496 Y72.352 I-11.218 J4.583
X15.997 Y71.2 I-5.276 J5.312
G3 X15.314 Y70.937 I24.026 J-63.417
G1 X15.294 Y70.924
X15.283 Y70.902
X15.284 Y70.878
X15.322 Y70.735
X15.334 Y70.714
X15.354 Y70.701
X15.378 Y70.699
G2 X16.523 Y70.803 I0.954 J-4.129
X19.872 Y69.797 I-0.7 J-8.399
X21.887 Y68.528 I-5.017 J-10.204
G1 X22.001 Y68.433
X22.105 Y68.327
X22.198 Y68.212
X22.279 Y68.088
X22.348 Y67.956
X22.403 Y67.818
X22.444 Y67.675
X22.471 Y67.529
X22.484 Y67.381
G2 X22.484 Y66.028 I-22.49 J-0.676
X21.892 Y64.879 I-1.499 J0.045
G1 X21.864 Y64.858
G2 X17.939 Y62.835 I-7.409 J9.554
X16.083 Y62.597 I-1.86 J7.168
G3 X15.378 Y62.71 I-3.08 J-16.973
G1 X15.354 Y62.708
X15.334 Y62.695
X15.322 Y62.674
X15.284 Y62.531
X15.283 Y62.507
X15.294 Y62.485
X15.314 Y62.471
G2 X16.358 Y61.99 I-1.232 J-4.04
X18.63 Y59.632 I-4.692 J-6.797
X19.866 Y57.336 I-9.541 J-6.616
G1 X19.917 Y57.197
X19.954 Y57.053
X19.977 Y56.907
X19.985 Y56.759
X19.979 Y56.61
X19.957 Y56.464
X19.922 Y56.319
X19.872 Y56.18
X19.809 Y56.045
G2 X19.133 Y54.874 I-19.815 J10.659
X18.046 Y54.175 I-1.276 J0.789
G1 X18.01 Y54.17
G2 X13.597 Y54.381 I-1.64 J11.959
X11.875 Y55.102 I1.986 J7.162
G3 X11.32 Y55.553 I-12.529 J-14.853
G1 X11.298 Y55.563
X11.274 Y55.562
X11.253 Y55.55
X11.149 Y55.446
X11.136 Y55.425
X11.135 Y55.401
X11.145 Y55.378
G2 X11.808 Y54.439 I-3.094 J-2.887
X12.606 Y51.112 I-7.558 J-3.572
X12.519 Y48.653 I-11.378 J-0.829
G1 X12.494 Y48.507
X12.454 Y48.365
X12.401 Y48.227
X12.334 Y48.095
X12.254 Y47.97
X12.162 Y47.853
X12.059 Y47.747
X11.946 Y47.65
X11.824 Y47.566
G2 X10.653 Y46.89 I-11.831 J19.139
X9.362 Y46.827 I-0.711 J1.321
G1 X9.329 Y46.841
G2 X5.642 Y49.202 I4.587 J11.225
X4.491 Y50.699 I5.33 J5.29
G3 X4.227 Y51.384 I-126.738 J-48.444
G1 X4.213 Y51.404
X4.191 Y51.415
X4.167
X4.025 Y51.376
X4.003 Y51.365
X3.99 Y51.344
X3.988 Y51.32
G2 X4.093 Y50.176 I-4.12 J-0.953
X3.12 Y46.894 I-8.333 J0.684
X1.816 Y44.809 I-10.299 J4.994
G1 X1.721 Y44.696
X1.615 Y44.592
X1.5 Y44.499
X1.376 Y44.418
X1.244 Y44.35
X1.106 Y44.295
X0.964 Y44.254
X0.818 Y44.227
X0.67 Y44.215
G2 X-0.682 Y44.215 I-0.676 J22.49
G1 Z0 F333.3
G2 X-1.832 Y44.807 I0.045 J1.499 F1000
G1 X-1.853 Y44.835
G2 X-3.866 Y48.723 I9.583 J7.426
X-4.115 Y50.595 I7.261 J1.916
G3 X-4.001 Y51.32 I-103.61 J16.649
G1 X-4.003 Y51.344
X-4.016 Y51.365
X-4.037 Y51.376
X-4.179 Y51.415
X-4.204
X-4.225 Y51.404
X-4.239 Y51.384
G2 X-4.72 Y50.342 I-4.045 J1.235
X-7.206 Y47.984 I-6.877 J4.76
X-9.376 Y46.832 I-6.423 J9.479
G1 X-9.515 Y46.781
X-9.658 Y46.744
X-9.805 Y46.721
X-9.953 Y46.713
X-10.101 Y46.72
X-10.248 Y46.741
X-10.392 Y46.777
X-10.531 Y46.826
X-10.666 Y46.89
G2 X-11.837 Y47.566 I10.659 J19.815
X-12.536 Y48.653 I0.789 J1.276
G1 X-12.541 Y48.688
G2 X-12.329 Y53.101 I11.959 J1.64
X-11.608 Y54.825 I7.137 J-1.976
G3 X-11.158 Y55.378 I-13.45 J11.388
G1 X-11.147 Y55.4
X-11.149 Y55.425
X-11.161 Y55.445
X-11.265 Y55.55
X-11.286 Y55.562
X-11.31 Y55.563
X-11.332 Y55.553
G2 X-12.27 Y54.891 I-2.892 J3.1
X-15.561 Y54.094 I-3.562 J7.518
X-18.058 Y54.179 I-0.862 J11.449
G1 X-18.203 Y54.204
X-18.346 Y54.244
X-18.484 Y54.298
X-18.616 Y54.365
X-18.741 Y54.444
X-18.857 Y54.536
X-18.964 Y54.639
X-19.06 Y54.752
X-19.145 Y54.874
G2 X-19.821 Y56.045 I19.139 J11.83
X-19.883 Y57.338 I1.321 J0.711
G1 X-19.869 Y57.37
G2 X-17.481 Y61.085 I11.185 J-4.566
X-15.994 Y62.217 I5.2 J-5.287
G3 X-15.326 Y62.471 I-6.14 J17.088
G1 X-15.307 Y62.485
X-15.296 Y62.507
Y62.531
X-15.334 Y62.673
X-15.346 Y62.695
X-15.366 Y62.708
X-15.39 Y62.71
G2 X-16.531 Y62.606 I-0.953 J4.118
X-19.787 Y63.563 I0.672 J8.3
X-21.902 Y64.883 I4.986 J10.346
G1 X-22.016 Y64.978
X-22.119 Y65.084
X-22.212 Y65.199
X-22.293 Y65.323
X-22.361 Y65.455
X-22.416 Y65.592
X-22.457 Y65.735
X-22.484 Y65.88
X-22.496 Y66.028
G2 X-22.496 Y67.381 I22.49 J0.676
X-21.902 Y68.532 I1.499 J-0.045
G1 X-21.874 Y68.553
G2 X-17.987 Y70.565 I7.42 J-9.577
X-16.12 Y70.813 I1.916 J-7.259
G1 X-15.391 Y70.699
X-15.366 Y70.701
X-15.346 Y70.714
X-15.334 Y70.735
X-15.296 Y70.878
Y70.902
X-15.307 Y70.924
X-15.327 Y70.937
G2 X-16.37 Y71.419 I1.236 J4.048
X-18.686 Y73.843 I4.718 J6.827
X-19.879 Y76.075 I9.452 J6.486
G1 X-19.93 Y76.214
X-19.967 Y76.357
X-19.99 Y76.503
X-19.998 Y76.651
X-19.991 Y76.799
X-19.97 Y76.946
X-19.934 Y77.09
X-19.884 Y77.23
X-19.821 Y77.364
G2 X-19.145 Y78.535 I19.815 J-10.659
X-18.058 Y79.234 I1.276 J-0.789
G1 X-18.023 Y79.239
G2 X-13.645 Y79.037 I1.64 J-11.994
X-11.886 Y78.306 I-1.933 J-7.132
G3 X-11.332 Y77.856 I11.48 J13.564
G1 X-11.31 Y77.846
X-11.286 Y77.847
X-11.265 Y77.859
X-11.161 Y77.963
X-11.149 Y77.984
X-11.147 Y78.009
X-11.157 Y78.031
G2 X-11.82 Y78.97 I3.093 J2.886
X-12.614 Y82.221 I7.493 J3.551
X-12.532 Y84.756 I11.466 J0.897
G1 X-12.506 Y84.902
X-12.466 Y85.045
X-12.413 Y85.182
X-12.346 Y85.315
X-12.266 Y85.439
X-12.174 Y85.556
X-12.071 Y85.662
X-11.959 Y85.759
X-11.837 Y85.843
G2 X-10.666 Y86.519 I11.831 J-19.139
X-9.374 Y86.581 I0.711 J-1.321
G1 X-9.342 Y86.568
G2 X-5.683 Y84.234 I-4.598 J-11.246
X-4.503 Y82.71 I-5.292 J-5.314
G3 X-4.239 Y82.025 I69.683 J26.442
G1 X-4.225 Y82.005
X-4.204 Y81.994
X-4.179
X-4.037 Y82.032
X-4.016 Y82.044
X-4.003 Y82.065
X-4 Y82.089
G2 X-4.105 Y83.232 I4.12 J0.953
X-3.131 Y86.517 I8.332 J-0.683
X-1.828 Y88.6 I10.297 J-4.993
G1 X-1.733 Y88.713
X-1.628 Y88.817
X-1.512 Y88.91
X-1.388 Y88.991
X-1.256 Y89.059
X-1.119 Y89.114
X-0.976 Y89.155
X-0.83 Y89.182
X-0.682 Y89.194
G2 X0.67 Y89.194 I0.676 J-22.49
X1.819 Y88.602 I-0.045 J-1.499
G1 X1.841 Y88.574
G2 X3.854 Y84.685 I-9.579 J-7.424
X4.102 Y82.815 I-7.258 J-1.914
G3 X3.988 Y82.089 I120.629 J-19.304
G1 X3.99 Y82.065
X4.003 Y82.044
X4.025 Y82.032
X4.167 Y81.994
X4.191
X4.213 Y82.005
X4.227 Y82.025
G2 X4.708 Y83.067 I4.043 J-1.234
X7.194 Y85.425 I6.874 J-4.758
X9.364 Y86.577 I6.406 J-9.448
G1 X9.503 Y86.628
X9.646 Y86.665
X9.792 Y86.688
X9.94 Y86.696
X10.088 Y86.689
X10.235 Y86.668
X10.379 Y86.632
X10.519 Y86.583
X10.653 Y86.519
G2 X11.824 Y85.843 I-10.659 J-19.815
X12.524 Y84.757 I-0.789 J-1.276
G1 X12.528 Y84.722
G2 X12.317 Y80.307 I-11.961 J-1.64
X11.596 Y78.586 I-7.139 J1.978
G3 X11.145 Y78.031 I16.349 J-13.737
G1 X11.135 Y78.009
X11.136 Y77.984
X11.149 Y77.963
X11.253 Y77.859
X11.274 Y77.847
X11.298 Y77.846
X11.32 Y77.856
G2 X12.254 Y78.516 I2.888 J-3.095
X15.552 Y79.315 I3.567 J-7.515
X18.045 Y79.23 I0.856 J-11.449
G1 X18.191 Y79.205
X18.334 Y79.165
X18.472 Y79.111
X18.604 Y79.044
X18.729 Y78.964
X18.845 Y78.873
X18.952 Y78.77
X19.048 Y78.657
X19.133 Y78.535
G2 X19.809 Y77.364 I-19.139 J-11.83
X19.871 Y76.073 I-1.321 J-0.711
G1 X19.857 Y76.04
G2 X17.496 Y72.352 I-11.218 J4.583
X15.997 Y71.2 I-5.276 J5.312
G3 X15.314 Y70.937 I24.026 J-63.417
G1 X15.294 Y70.924
X15.283 Y70.902
X15.284 Y70.878
X15.322 Y70.735
X15.334 Y70.714
X15.354 Y70.701
X15.378 Y70.699
G2 X16.523 Y70.803 I0.954 J-4.129
X19.872 Y69.797 I-0.7 J-8.399
X21.887 Y68.528 I-5.017 J-10.204
G1 X22.001 Y68.433
X22.105 Y68.327
X22.198 Y68.212
X22.279 Y68.088
X22.348 Y67.956
X22.403 Y67.818
X22.444 Y67.675
X22.471 Y67.529
X22.484 Y67.381
G2 X22.484 Y66.028 I-22.49 J-0.676
X21.892 Y64.879 I-1.499 J0.045
G1 X21.864 Y64.858
G2 X17.939 Y62.835 I-7.409 J9.554
X16.083 Y62.597 I-1.86 J7.168
G3 X15.378 Y62.71 I-3.08 J-16.973
G1 X15.354 Y62.708
X15.334 Y62.695
X15.322 Y62.674
X15.284 Y62.531
X15.283 Y62.507
X15.294 Y62.485
X15.314 Y62.471
G2 X16.358 Y61.99 I-1.232 J-4.04
X18.63 Y59.632 I-4.692 J-6.797
X19.866 Y57.336 I-9.541 J-6.616
G1 X19.917 Y57.197
X19.954 Y57.053
X19.977 Y56.907
X19.985 Y56.759
X19.979 Y56.61
X19.957 Y56.464
X19.922 Y56.319
X19.872 Y56.18
X19.809 Y56.045
G2 X19.133 Y54.874 I-19.815 J10.659
X18.046 Y54.175 I-1.276 J0.789
G1 X18.01 Y54.17
G2 X13.597 Y54.381 I-1.64 J11.959
X11.875 Y55.102 I1.986 J7.162
G3 X11.32 Y55.553 I-12.529 J-14.853
G1 X11.298 Y55.563
X11.274 Y55.562
X11.253 Y55.55
X11.149 Y55.446
X11.136 Y55.425
X11.135 Y55.401
X11.145 Y55.378
G2 X11.808 Y54.439 I-3.094 J-2.887
X12.606 Y51.112 I-7.558 J-3.572
X12.519 Y48.653 I-11.378 J-0.829
G1 X12.494 Y48.507
X12.454 Y48.365
X12.401 Y48.227
X12.334 Y48.095
X12.254 Y47.97
X12.162 Y47.853
X12.059 Y47.747
X11.946 Y47.65
X11.824 Y47.566
G2 X10.653 Y46.89 I-11.831 J19.139
X9.362 Y46.827 I-0.711 J1.321
G1 X9.329 Y46.841
G2 X5.642 Y49.202 I4.587 J11.225
X4.491 Y50.699 I5.33 J5.29
G3 X4.227 Y51.384 I-126.738 J-48.444
G1 X4.213 Y51.404
X4.191 Y51.415
X4.167
X4.025 Y51.376
X4.003 Y51.365
X3.99 Y51.344
X3.988 Y51.32
G2 X4.093 Y50.176 I-4.12 J-0.953
X3.12 Y46.894 I-8.333 J0.684
X1.816 Y44.809 I-10.299 J4.994
G1 X1.721 Y44.696
X1.615 Y44.592
X1.5 Y44.499
X1.376 Y44.418
X1.244 Y44.35
X1.106 Y44.295
X0.964 Y44.254
X0.818 Y44.227
X0.67 Y44.215
G2 X-0.682 Y44.215 I-0.676 J22.49
G0 Z6
X0.682 Y43.49
G1 Z0 F333.3
G2 X1.832 Y42.898 I-0.045 J-1.499 F1000
G1 X1.853 Y42.87
G2 X3.867 Y38.98 I-9.58 J-7.425
X4.115 Y37.11 I-7.261 J-1.914
G3 X4.001 Y36.384 I104.105 J-16.724
G1 X4.003 Y36.36
X4.016 Y36.34
X4.037 Y36.328
X4.179 Y36.29
X4.204 Y36.289
X4.225 Y36.3
X4.239 Y36.32
G2 X4.72 Y37.363 I4.041 J-1.233
X7.203 Y39.719 I6.878 J-4.761
X9.376 Y40.873 I6.435 J-9.496
G1 X9.515 Y40.924
X9.658 Y40.961
X9.805 Y40.983
X9.953 Y40.991
X10.101 Y40.985
X10.248 Y40.964
X10.392 Y40.928
X10.531 Y40.878
X10.666 Y40.815
G2 X11.837 Y40.139 I-10.659 J-19.815
X12.536 Y39.052 I-0.789 J-1.276
G1 X12.541 Y39.017
G2 X12.329 Y34.604 I-11.955 J-1.64
X11.608 Y32.881 I-7.115 J1.968
G3 X11.158 Y32.326 I17.577 J-14.727
G1 X11.147 Y32.304
X11.149 Y32.28
X11.161 Y32.259
X11.265 Y32.155
X11.286 Y32.142
X11.31 Y32.141
X11.332 Y32.151
G2 X12.27 Y32.813 I2.888 J-3.096
X15.522 Y33.608 I3.553 J-7.491
X18.058 Y33.525 I0.897 J-11.449
G1 X18.203 Y33.5
X18.346 Y33.46
X18.484 Y33.407
X18.616 Y33.34
X18.741 Y33.26
X18.857 Y33.168
X18.964 Y33.065
X19.06 Y32.952
X19.145 Y32.83
G2 X19.821 Y31.659 I-19.139 J-11.83
X19.883 Y30.368 I-1.321 J-0.711
G1 X19.87 Y30.336
G2 X17.481 Y26.62 I-11.19 J4.568
X15.994 Y25.488 I-5.196 J5.283
G3 X15.327 Y25.233 I6.226 J-17.303
G1 X15.307 Y25.219
X15.296 Y25.197
Y25.173
X15.334 Y25.031
X15.346 Y25.01
X15.366 Y24.996
X15.39 Y24.994
G2 X16.536 Y25.099 I0.952 J-4.116
X19.85 Y24.109 I-0.69 J-8.357
X21.902 Y22.822 I-5.014 J-10.269
G1 X22.016 Y22.727
X22.119 Y22.621
X22.212 Y22.506
X22.293 Y22.381
X22.361 Y22.25
X22.416 Y22.112
X22.457 Y21.97
X22.484 Y21.824
X22.496 Y21.676
G2 X22.496 Y20.324 I-22.49 J-0.676
X21.905 Y19.175 I-1.499 J0.045
G1 X21.876 Y19.153
G2 X17.987 Y17.14 I-7.426 J9.581
X16.115 Y16.892 I-1.913 J7.241
G3 X15.39 Y17.006 I-15.306 J-94.933
G1 X15.366 Y17.004
X15.346 Y16.99
X15.334 Y16.969
X15.296 Y16.827
Y16.803
X15.307 Y16.781
X15.327 Y16.767
G2 X16.37 Y16.285 I-1.239 J-4.054
X18.725 Y13.803 I-4.762 J-6.877
X19.879 Y11.63 I-9.501 J-6.438
G1 X19.93 Y11.491
X19.967 Y11.348
X19.99 Y11.201
X19.998 Y11.053
X19.991 Y10.905
X19.97 Y10.759
X19.934 Y10.615
X19.884 Y10.475
X19.821 Y10.341
G2 X19.145 Y9.17 I-19.815 J10.659
X18.058 Y8.47 I-1.276 J0.789
G1 X18.022 Y8.466
G2 X13.649 Y8.666 I-1.64 J12.014
X11.886 Y9.399 I1.929 J7.133
G3 X11.332 Y9.849 I-11.712 J-13.852
G1 X11.31 Y9.859
X11.286 Y9.858
X11.265 Y9.845
X11.161 Y9.741
X11.149 Y9.72
X11.147 Y9.696
X11.157 Y9.674
G2 X11.82 Y8.735 I-3.094 J-2.887
X12.614 Y5.484 I-7.491 J-3.551
X12.532 Y2.949 I-11.466 J-0.897
G1 X12.506 Y2.803
X12.467 Y2.66
X12.413 Y2.522
X12.346 Y2.39
X12.266 Y2.265
X12.174 Y2.149
X12.072 Y2.042
X11.959 Y1.946
X11.837 Y1.861
G2 X10.666 Y1.185 I-11.831 J19.139
X9.374 Y1.123 I-0.711 J1.321
G1 X9.341 Y1.137
G2 X5.653 Y3.498 I4.587 J11.224
X4.503 Y4.995 I5.334 J5.291
G3 X4.239 Y5.68 I-95.9 J-36.558
G1 X4.225 Y5.7
X4.204 Y5.711
X4.179 Y5.71
X4.037 Y5.672
X4.016 Y5.66
X4.003 Y5.64
X4 Y5.616
G2 X4.105 Y4.472 I-4.12 J-0.953
X3.132 Y1.188 I-8.332 J0.683
X1.828 Y-0.895 I-10.3 J4.995
G1 X1.733 Y-1.009
X1.628 Y-1.113
X1.512 Y-1.205
X1.388 Y-1.286
X1.256 Y-1.355
X1.119 Y-1.41
X0.976 Y-1.451
X0.83 Y-1.478
X0.682 Y-1.49
G2 X-0.67 Y-1.49 I-0.676 J22.49
X-1.819 Y-0.898 I0.045 J1.499
G1 X-1.841 Y-0.87
G2 X-3.854 Y3.02 I9.584 J7.427
X-4.102 Y4.89 I7.265 J1.915
G3 X-3.988 Y5.616 I-112.657 J18.06
G1 X-3.99 Y5.64
X-4.003 Y5.66
X-4.025 Y5.672
X-4.167 Y5.71
X-4.191 Y5.711
X-4.213 Y5.7
X-4.227 Y5.68
G2 X-4.708 Y4.637 I-4.044 J1.235
X-7.193 Y2.28 I-6.875 J4.759
X-9.363 Y1.127 I-6.423 J9.476
G1 X-9.502 Y1.076
X-9.646 Y1.039
X-9.792 Y1.017
X-9.94 Y1.009
X-10.088 Y1.015
X-10.235 Y1.036
X-10.379 Y1.072
X-10.519 Y1.122
X-10.653 Y1.185
G2 X-11.824 Y1.861 I10.659 J19.815
X-12.524 Y2.948 I0.789 J1.276
G1 X-12.528 Y2.983
G2 X-12.317 Y7.397 I11.967 J1.639
X-11.596 Y9.119 I7.131 J-1.975
G3 X-11.145 Y9.674 I-15.522 J13.065
G1 X-11.135 Y9.696
X-11.136 Y9.72
X-11.149 Y9.741
X-11.253 Y9.845
X-11.274 Y9.858
X-11.298 Y9.859
X-11.32 Y9.849
G2 X-12.257 Y9.187 I-2.889 J3.096
X-15.588 Y8.387 I-3.575 J7.556
X-18.045 Y8.475 I-0.824 J11.42
G1 X-18.191 Y8.5
X-18.333 Y8.54
X-18.471 Y8.593
X-18.603 Y8.66
X-18.728 Y8.74
X-18.845 Y8.832
X-18.952 Y8.935
X-19.048 Y9.048
X-19.133 Y9.17
G2 X-19.809 Y10.341 I19.139 J11.831
X-19.871 Y11.632 I1.321 J0.711
G1 X-19.857 Y11.664
G2 X-17.496 Y15.352 I11.209 J-4.578
X-15.982 Y16.512 I5.204 J-5.227
G3 X-15.314 Y16.767 I-6.622 J18.328
G1 X-15.294 Y16.781
X-15.283 Y16.803
X-15.284 Y16.827
X-15.322 Y16.969
X-15.334 Y16.99
X-15.354 Y17.004
X-15.378 Y17.006
G2 X-16.523 Y16.901 I-0.952 J4.116
X-19.77 Y17.856 I0.674 J8.285
X-21.89 Y19.178 I4.991 J10.365
G1 X-22.003 Y19.273
X-22.107 Y19.379
X-22.2 Y19.494
X-22.28 Y19.619
X-22.349 Y19.75
X-22.404 Y19.888
X-22.445 Y20.03
X-22.471 Y20.176
X-22.484 Y20.324
G2 X-22.484 Y21.676 I22.49 J0.676
X-21.892 Y22.825 I1.499 J-0.045
G1 X-21.864 Y22.847
G2 X-17.973 Y24.86 I7.425 J-9.58
X-16.102 Y25.108 I1.912 J-7.241
G3 X-15.378 Y24.994 I15.395 J95.505
G1 X-15.354 Y24.996
X-15.334 Y25.01
X-15.322 Y25.031
X-15.284 Y25.173
X-15.283 Y25.197
X-15.294 Y25.219
X-15.314 Y25.233
G2 X-16.358 Y25.715 I1.237 J4.049
X-18.713 Y28.197 I4.765 J6.88
X-19.867 Y30.37 I9.524 J6.451
G1 X-19.918 Y30.509
X-19.955 Y30.652
X-19.977 Y30.799
X-19.985 Y30.947
X-19.979 Y31.095
X-19.957 Y31.241
X-19.922 Y31.385
X-19.872 Y31.525
X-19.809 Y31.659
G2 X-19.133 Y32.83 I19.815 J-10.659
X-18.046 Y33.53 I1.276 J-0.789
G1 X-18.01 Y33.534
G2 X-13.597 Y33.323 I1.64 J-11.964
X-11.875 Y32.602 I-1.969 J-7.119
G3 X-11.32 Y32.151 I14.654 J17.487
G1 X-11.298 Y32.141
X-11.274 Y32.142
X-11.253 Y32.155
X-11.149 Y32.259
X-11.136 Y32.28
X-11.135 Y32.304
X-11.145 Y32.326
G2 X-11.807 Y33.264 I3.096 J2.889
X-12.605 Y36.558 I7.534 J3.567
X-12.519 Y39.051 I11.455 J0.857
G1 X-12.494 Y39.197
X-12.454 Y39.34
X-12.401 Y39.478
X-12.334 Y39.61
X-12.254 Y39.735
X-12.162 Y39.851
X-12.059 Y39.958
X-11.946 Y40.054
X-11.824 Y40.139
G2 X-10.653 Y40.815 I11.831 J-19.139
X-9.362 Y40.877 I0.711 J-1.321
G1 X-9.329 Y40.863
G2 X-5.642 Y38.502 I-4.587 J-11.224
X-4.481 Y36.987 I-5.256 J-5.227
G3 X-4.227 Y36.32 I16.315 J5.846
G1 X-4.213 Y36.3
X-4.191 Y36.289
X-4.167 Y36.29
X-4.025 Y36.328
X-4.003 Y36.34
X-3.99 Y36.36
X-3.988 Y36.384
G2 X-4.093 Y37.528 I4.121 J0.953
X-3.12 Y40.811 I8.333 J-0.684
X-1.816 Y42.895 I10.296 J-4.991
G1 X-1.721 Y43.009
X-1.615 Y43.113
X-1.5 Y43.205
X-1.376 Y43.286
X-1.244 Y43.355
X-1.106 Y43.41
X-0.964 Y43.451
X-0.818 Y43.478
X-0.67 Y43.49
G2 X0.682 Y43.49 I0.676 J-22.49
G1 Z-0.5 F333.3
G2 X1.832 Y42.898 I-0.045 J-1.499 F1000
G1 X1.853 Y42.87
G2 X3.867 Y38.98 I-9.58 J-7.425
X4.115 Y37.11 I-7.261 J-1.914
G3 X4.001 Y36.384 I104.105 J-16.724
G1 X4.003 Y36.36
X4.016 Y36.34
X4.037 Y36.328
X4.179 Y36.29
X4.204 Y36.289
X4.225 Y36.3
X4.239 Y36.32
G2 X4.72 Y37.363 I4.041 J-1.233
X7.203 Y39.719 I6.878 J-4.761
X9.376 Y40.873 I6.435 J-9.496
G1 X9.515 Y40.924
X9.658 Y40.961
X9.805 Y40.983
X9.953 Y40.991
X10.101 Y40.985
X10.248 Y40.964
X10.392 Y40.928
X10.531 Y40.878
X10.666 Y40.815
G2 X11.837 Y40.139 I-10.659 J-19.815
X12.536 Y39.052 I-0.789 J-1.276
G1 X12.541 Y39.017
G2 X12.329 Y34.604 I-11.955 J-1.64
X11.608 Y32.881 I-7.115 J1.968
G3 X11.158 Y32.326 I17.577 J-14.727
G1 X11.147 Y32.304
X11.149 Y32.28
X11.161 Y32.259
X11.265 Y32.155
X11.286 Y32.142
X11.31 Y32.141
X11.332 Y32.151
G2 X12.27 Y32.813 I2.888 J-3.096
X15.522 Y33.608 I3.553 J-7.491
X18.058 Y33.525 I0.897 J-11.449
G1 X18.203 Y33.5
X18.346 Y33.46
X18.484 Y33.407
X18.616 Y33.34
X18.741 Y33.26
X18.857 Y33.168
X18.964 Y33.065
X19.06 Y32.952
X19.145 Y32.83
G2 X19.821 Y31.659 I-19.139 J-11.83
X19.883 Y30.368 I-1.321 J-0.711
G1 X19.87 Y30.336
G2 X17.481 Y26.62 I-11.19 J4.568
X15.994 Y25.488 I-5.196 J5.283
G3 X15.327 Y25.233 I6.226 J-17.303
G1 X15.307 Y25.219
X15.296 Y25.197
Y25.173
X15.334 Y25.031
X15.346 Y25.01
X15.366 Y24.996
X15.39 Y24.994
G2 X16.536 Y25.099 I0.952 J-4.116
X19.85 Y24.109 I-0.69 J-8.357
X21.902 Y22.822 I-5.014 J-10.269
G1 X22.016 Y22.727
X22.119 Y22.621
X22.212 Y22.506
X22.293 Y22.381
X22.361 Y22.25
X22.416 Y22.112
X22.457 Y21.97
X22.484 Y21.824
X22.496 Y21.676
G2 X22.496 Y20.324 I-22.49 J-0.676
X21.905 Y19.175 I-1.499 J0.045
G1 X21.876 Y19.153
G2 X17.987 Y17.14 I-7.426 J9.581
X16.115 Y16.892 I-1.913 J7.241
G3 X15.39 Y17.006 I-15.306 J-94.933
G1 X15.366 Y17.004
X15.346 Y16.99
X15.334 Y16.969
X15.296 Y16.827
Y16.803
X15.307 Y16.781
X15.327 Y16.767
G2 X16.37 Y16.285 I-1.239 J-4.054
X18.725 Y13.803 I-4.762 J-6.877
X19.879 Y11.63 I-9.501 J-6.438
G1 X19.93 Y11.491
X19.967 Y11.348
X19.99 Y11.201
X19.998 Y11.053
X19.991 Y10.905
X19.97 Y10.759
X19.934 Y10.615
X19.884 Y10.475
X19.821 Y10.341
G2 X19.145 Y9.17 I-19.815 J10.659
X18.058 Y8.47 I-1.276 J0.789
G1 X18.022 Y8.466
G2 X13.649 Y8.666 I-1.64 J12.014
X11.886 Y9.399 I1.929 J7.133
G3 X11.332 Y9.849 I-11.712 J-13.852
G1 X11.31 Y9.859
X11.286 Y9.858
X11.265 Y9.845
X11.161 Y9.741
X11.149 Y9.72
X11.147 Y9.696
X11.157 Y9.674
G2 X11.82 Y8.735 I-3.094 J-2.887
X12.614 Y5.484 I-7.491 J-3.551
X12.532 Y2.949 I-11.466 J-0.897
G1 X12.506 Y2.803
X12.467 Y2.66
X12.413 Y2.522
X12.346 Y2.39
X12.266 Y2.265
X12.174 Y2.149
X12.072 Y2.042
X11.959 Y1.946
X11.837 Y1.861
G2 X10.666 Y1.185 I-11.831 J19.139
X9.374 Y1.123 I-0.711 J1.321
G1 X9.341 Y1.137
G2 X5.653 Y3.498 I4.587 J11.224
X4.503 Y4.995 I5.334 J5.291
G3 X4.239 Y5.68 I-95.9 J-36.558
G1 X4.225 Y5.7
X4.204 Y5.711
X4.179 Y5.71
X4.037 Y5.672
X4.016 Y5.66
X4.003 Y5.64
X4 Y5.616
G2 X4.105 Y4.472 I-4.12 J-0.953
X3.132 Y1.188 I-8.332 J0.683
X1.828 Y-0.895 I-10.3 J4.995
G1 X1.733 Y-1.009
X1.628 Y-1.113
X1.512 Y-1.205
X1.388 Y-1.286
X1.256 Y-1.355
X1.119 Y-1.41
X0.976 Y-1.451
X0.83 Y-1.478
X0.682 Y-1.49
G2 X-0.67 Y-1.49 I-0.676 J22.49
X-1.819 Y-0.898 I0.045 J1.499
G1 X-1.841 Y-0.87
G2 X-3.854 Y3.02 I9.584 J7.427
X-4.102 Y4.89 I7.265 J1.915
G3 X-3.988 Y5.616 I-112.657 J18.06
G1 X-3.99 Y5.64
X-4.003 Y5.66
X-4.025 Y5.672
X-4.167 Y5.71
X-4.191 Y5.711
X-4.213 Y5.7
X-4.227 Y5.68
G2 X-4.708 Y4.637 I-4.044 J1.235
X-7.193 Y2.28 I-6.875 J4.759
X-9.363 Y1.127 I-6.423 J9.476
G1 X-9.502 Y1.076
X-9.646 Y1.039
X-9.792 Y1.017
X-9.94 Y1.009
X-10.088 Y1.015
X-10.235 Y1.036
X-10.379 Y1.072
X-10.519 Y1.122
X-10.653 Y1.185
G2 X-11.824 Y1.861 I10.659 J19.815
X-12.524 Y2.948 I0.789 J1.276
G1 X-12.528 Y2.983
G2 X-12.317 Y7.397 I11.967 J1.639
X-11.596 Y9.119 I7.131 J-1.975
G3 X-11.145 Y9.674 I-15.522 J13.065
G1 X-11.135 Y9.696
X-11.136 Y9.72
X-11.149 Y9.741
X-11.253 Y9.845
X-11.274 Y9.858
X-11.298 Y9.859
X-11.32 Y9.849
G2 X-12.257 Y9.187 I-2.889 J3.096
X-15.588 Y8.387 I-3.575 J7.556
X-18.045 Y8.475 I-0.824 J11.42
G1 X-18.191 Y8.5
X-18.333 Y8.54
X-18.471 Y8.593
X-18.603 Y8.66
X-18.728 Y8.74
X-18.845 Y8.832
X-18.952 Y8.935
X-19.048 Y9.048
X-19.133 Y9.17
G2 X-19.809 Y10.341 I19.139 J11.831
X-19.871 Y11.632 I1.321 J0.711
G1 X-19.857 Y11.664
G2 X-17.496 Y15.352 I11.209 J-4.578
X-15.982 Y16.512 I5.204 J-5.227
G3 X-15.314 Y16.767 I-6.622 J18.328
G1 X-15.294 Y16.781
X-15.283 Y16.803
X-15.284 Y16.827
X-15.322 Y16.969
X-15.334 Y16.99
X-15.354 Y17.004
X-15.378 Y17.006
G2 X-16.523 Y16.901 I-0.952 J4.116
X-19.77 Y17.856 I0.674 J8.285
X-21.89 Y19.178 I4.991 J10.365
G1 X-22.003 Y19.273
X-22.107 Y19.379
X-22.2 Y19.494
X-22.28 Y19.619
X-22.349 Y19.75
X-22.404 Y19.888
X-22.445 Y20.03
X-22.471 Y20.176
X-22.484 Y20.324
G2 X-22.484 Y21.676 I22.49 J0.676
X-21.892 Y22.825 I1.499 J-0.045
G1 X-21.864 Y22.847
G2 X-17.973 Y24.86 I7.425 J-9.58
X-16.102 Y25.108 I1.912 J-7.241
G3 X-15.378 Y24.994 I15.395 J95.505
G1 X-15.354 Y24.996
X-15.334 Y25.01
X-15.322 Y25.031
X-15.284 Y25.173
X-15.283 Y25.197
X-15.294 Y25.219
X-15.314 Y25.233
G2 X-16.358 Y25.715 I1.237 J4.049
X-18.713 Y28.197 I4.765 J6.88
X-19.867 Y30.37 I9.524 J6.451
G1 X-19.918 Y30.509
X-19.955 Y30.652
X-19.977 Y30.799
X-19.985 Y30.947
X-19.979 Y31.095
X-19.957 Y31.241
X-19.922 Y31.385
X-19.872 Y31.525
X-19.809 Y31.659
G2 X-19.133 Y32.83 I19.815 J-10.659
X-18.046 Y33.53 I1.276 J-0.789
G1 X-18.01 Y33.534
G2 X-13.597 Y33.323 I1.64 J-11.964
X-11.875 Y32.602 I-1.969 J-7.119
G3 X-11.32 Y32.151 I14.654 J17.487
G1 X-11.298 Y32.141
X-11.274 Y32.142
X-11.253 Y32.155
X-11.149 Y32.259
X-11.136 Y32.28
X-11.135 Y32.304
X-11.145 Y32.326
G2 X-11.807 Y33.264 I3.096 J2.889
X-12.605 Y36.558 I7.534 J3.567
X-12.519 Y39.051 I11.455 J0.857
G1 X-12.494 Y39.197
X-12.454 Y39.34
X-12.401 Y39.478
X-12.334 Y39.61
X-12.254 Y39.735
X-12.162 Y39.851
X-12.059 Y39.958
X-11.946 Y40.054
X-11.824 Y40.139
G2 X-10.653 Y40.815 I11.831 J-19.139
X-9.362 Y40.877 I0.711 J-1.321
G1 X-9.329 Y40.863
G2 X-5.642 Y38.502 I-4.587 J-11.224
X-4.481 Y36.987 I-5.256 J-5.227
G3 X-4.227 Y36.32 I16.315 J5.846
G1 X-4.213 Y36.3
X-4.191 Y36.289
X-4.167 Y36.29
X-4.025 Y36.328
X-4.003 Y36.34
X-3.99 Y36.36
X-3.988 Y36.384
G2 X-4.093 Y37.528 I4.121 J0.953
X-3.12 Y40.811 I8.333 J-0.684
X-1.816 Y42.895 I10.296 J-4.991
G1 X-1.721 Y43.009
X-1.615 Y43.113
X-1.5 Y43.205
X-1.376 Y43.286
X-1.244 Y43.355
X-1.106 Y43.41
X-0.964 Y43.451
X-0.818 Y43.478
X-0.67 Y43.49
G2 X0.682 Y43.49 I0.676 J-22.49
G0 Z6
X-0.682 Y44.215
G1 Z-0.5 F333.3
G2 X-1.832 Y44.807 I0.045 J1.499 F1000
G1 X-1.853 Y44.835
G2 X-3.866 Y48.723 I9.583 J7.426
X-4.115 Y50.595 I7.261 J1.916
G3 X-4.001 Y51.32 I-103.61 J16.649
G1 X-4.003 Y51.344
X-4.016 Y51.365
X-4.037 Y51.376
X-4.179 Y51.415
X-4.204
X-4.225 Y51.404
X-4.239 Y51.384
G2 X-4.72 Y50.342 I-4.045 J1.235
X-7.206 Y47.984 I-6.877 J4.76
X-9.376 Y46.832 I-6.423 J9.479
G1 X-9.515 Y46.781
X-9.658 Y46.744
X-9.805 Y46.721
X-9.953 Y46.713
X-10.101 Y46.72
X-10.248 Y46.741
X-10.392 Y46.777
X-10.531 Y46.826
X-10.666 Y46.89
G2 X-11.837 Y47.566 I10.659 J19.815
X-12.536 Y48.653 I0.789 J1.276
G1 X-12.541 Y48.688
G2 X-12.329 Y53.101 I11.959 J1.64
X-11.608 Y54.825 I7.137 J-1.976
G3 X-11.158 Y55.378 I-13.45 J11.388
G1 X-11.147 Y55.4
X-11.149 Y55.425
X-11.161 Y55.445
X-11.265 Y55.55
X-11.286 Y55.562
X-11.31 Y55.563
X-11.332 Y55.553
G2 X-12.27 Y54.891 I-2.892 J3.1
X-15.561 Y54.094 I-3.562 J7.518
X-18.058 Y54.179 I-0.862 J11.449
G1 X-18.203 Y54.204
X-18.346 Y54.244
X-18.484 Y54.298
X-18.616 Y54.365
X-18.741 Y54.444
X-18.857 Y54.536
X-18.964 Y54.639
X-19.06 Y54.752
X-19.145 Y54.874
G2 X-19.821 Y56.045 I19.139 J11.83
X-19.883 Y57.338 I1.321 J0.711
G1 X-19.869 Y57.37
G2 X-17.481 Y61.085 I11.185 J-4.566
X-15.994 Y62.217 I5.2 J-5.287
G3 X-15.326 Y62.471 I-6.14 J17.088
G1 X-15.307 Y62.485
X-15.296 Y62.507
Y62.531
X-15.334 Y62.673
X-15.346 Y62.695
X-15.366 Y62.708
X-15.39 Y62.71
G2 X-16.531 Y62.606 I-0.953 J4.118
X-19.787 Y63.563 I0.672 J8.3
X-21.902 Y64.883 I4.986 J10.346
G1 X-22.016 Y64.978
X-22.119 Y65.084
X-22.212 Y65.199
X-22.293 Y65.323
X-22.361 Y65.455
X-22.416 Y65.592
X-22.457 Y65.735
X-22.484 Y65.88
X-22.496 Y66.028
G2 X-22.496 Y67.381 I22.49 J0.676
X-21.902 Y68.532 I1.499 J-0.045
G1 X-21.874 Y68.553
G2 X-17.987 Y70.565 I7.42 J-9.577
X-16.12 Y70.813 I1.916 J-7.259
G1 X-15.391 Y70.699
X-15.366 Y70.701
X-15.346 Y70.714
X-15.334 Y70.735
X-15.296 Y70.878
Y70.902
X-15.307 Y70.924
X-15.327 Y70.937
G2 X-16.37 Y71.419 I1.236 J4.048
X-18.686 Y73.843 I4.718 J6.827
X-19.879 Y76.075 I9.452 J6.486
G1 X-19.93 Y76.214
X-19.967 Y76.357
X-19.99 Y76.503
X-19.998 Y76.651
X-19.991 Y76.799
X-19.97 Y76.946
X-19.934 Y77.09
X-19.884 Y77.23
X-19.821 Y77.364
G2 X-19.145 Y78.535 I19.815 J-10.659
X-18.058 Y79.234 I1.276 J-0.789
G1 X-18.023 Y79.239
G2 X-13.645 Y79.037 I1.64 J-11.994
X-11.886 Y78.306 I-1.933 J-7.132
G3 X-11.332 Y77.856 I11.48 J13.564
G1 X-11.31 Y77.846
X-11.286 Y77.847
X-11.265 Y77.859
X-11.161 Y77.963
X-11.149 Y77.984
X-11.147 Y78.009
X-11.157 Y78.031
G2 X-11.82 Y78.97 I3.093 J2.886
X-12.614 Y82.221 I7.493 J3.551
X-12.532 Y84.756 I11.466 J0.897
G1 X-12.506 Y84.902
X-12.466 Y85.045
X-12.413 Y85.182
X-12.346 Y85.315
X-12.266 Y85.439
X-12.174 Y85.556
X-12.071 Y85.662
X-11.959 Y85.759
X-11.837 Y85.843
G2 X-10.666 Y86.519 I11.831 J-19.139
X-9.374 Y86.581 I0.711 J-1.321
G1 X-9.342 Y86.568
G2 X-5.683 Y84.234 I-4.598 J-11.246
X-4.503 Y82.71 I-5.292 J-5.314
G3 X-4.239 Y82.025 I69.683 J26.442
G1 X-4.225 Y82.005
X-4.204 Y81.994
X-4.179
X-4.037 Y82.032
X-4.016 Y82.044
X-4.003 Y82.065
X-4 Y82.089
G2 X-4.105 Y83.232 I4.12 J0.953
X-3.131 Y86.517 I8.332 J-0.683
X-1.828 Y88.6 I10.297 J-4.993
G1 X-1.733 Y88.713
X-1.628 Y88.817
X-1.512 Y88.91
X-1.388 Y88.991
X-1.256 Y89.059
X-1.119 Y89.114
X-0.976 Y89.155
X-0.83 Y89.182
X-0.682 Y89.194
G2 X0.67 Y89.194 I0.676 J-22.49
X1.819 Y88.602 I-0.045 J-1.499
G1 X1.841 Y88.574
G2 X3.854 Y84.685 I-9.579 J-7.424
X4.102 Y82.815 I-7.258 J-1.914
G3 X3.988 Y82.089 I120.629 J-19.304
G1 X3.99 Y82.065
X4.003 Y82.044
X4.025 Y82.032
X4.167 Y81.994
X4.191
X4.213 Y82.005
X4.227 Y82.025
G2 X4.708 Y83.067 I4.043 J-1.234
X7.194 Y85.425 I6.874 J-4.758
X9.364 Y86.577 I6.406 J-9.448
G1 X9.503 Y86.628
X9.646 Y86.665
X9.792 Y86.688
X9.94 Y86.696
X10.088 Y86.689
X10.235 Y86.668
X10.379 Y86.632
X10.519 Y86.583
X10.653 Y86.519
G2 X11.824 Y85.843 I-10.659 J-19.815
X12.524 Y84.757 I-0.789 J-1.276
G1 X12.528 Y84.722
G2 X12.317 Y80.307 I-11.961 J-1.64
X11.596 Y78.586 I-7.139 J1.978
G3 X11.145 Y78.031 I16.349 J-13.737
G1 X11.135 Y78.009
X11.136 Y77.984
X11.149 Y77.963
X11.253 Y77.859
X11.274 Y77.847
X11.298 Y77.846
X11.32 Y77.856
G2 X12.254 Y78.516 I2.888 J-3.095
X15.552 Y79.315 I3.567 J-7.515
X18.045 Y79.23 I0.856 J-11.449
G1 X18.191 Y79.205
X18.334 Y79.165
X18.472 Y79.111
X18.604 Y79.044
X18.729 Y78.964
X18.845 Y78.873
X18.952 Y78.77
X19.048 Y78.657
X19.133 Y78.535
G2 X19.809 Y77.364 I-19.139 J-11.83
X19.871 Y76.073 I-1.321 J-0.711
G1 X19.857 Y76.04
G2 X17.496 Y72.352 I-11.218 J4.583
X15.997 Y71.2 I-5.276 J5.312
G3 X15.314 Y70.937 I24.026 J-63.417
G1 X15.294 Y70.924
X15.283 Y70.902
X15.284 Y70.878
X15.322 Y70.735
X15.334 Y70.714
X15.354 Y70.701
X15.378 Y70.699
G2 X16.523 Y70.803 I0.954 J-4.129
X19.872 Y69.797 I-0.7 J-8.399
X21.887 Y68.528 I-5.017 J-10.204
G1 X22.001 Y68.433
X22.105 Y68.327
X22.198 Y68.212
X22.279 Y68.088
X22.348 Y67.956
X22.403 Y67.818
X22.444 Y67.675
X22.471 Y67.529
X22.484 Y67.381
G2 X22.484 Y66.028 I-22.49 J-0.676
X21.892 Y64.879 I-1.499 J0.045
G1 X21.864 Y64.858
G2 X17.939 Y62.835 I-7.409 J9.554
X16.083 Y62.597 I-1.86 J7.168
G3 X15.378 Y62.71 I-3.08 J-16.973
G1 X15.354 Y62.708
X15.334 Y62.695
X15.322 Y62.674
X15.284 Y62.531
X15.283 Y62.507
X15.294 Y62.485
X15.314 Y62.471
G2 X16.358 Y61.99 I-1.232 J-4.04
X18.63 Y59.632 I-4.692 J-6.797
X19.866 Y57.336 I-9.541 J-6.616
G1 X19.917 Y57.197
X19.954 Y57.053
X19.977 Y56.907
X19.985 Y56.759
X19.979 Y56.61
X19.957 Y56.464
X19.922 Y56.319
X19.872 Y56.18
X19.809 Y56.045
G2 X19.133 Y54.874 I-19.815 J10.659
X18.046 Y54.175 I-1.276 J0.789
G1 X18.01 Y54.17
G2 X13.597 Y54.381 I-1.64 J11.959
X11.875 Y55.102 I1.986 J7.162
G3 X11.32 Y55.553 I-12.529 J-14.853
G1 X11.298 Y55.563
X11.274 Y55.562
X11.253 Y55.55
X11.149 Y55.446
X11.136 Y55.425
X11.135 Y55.401
X11.145 Y55.378
G2 X11.808 Y54.439 I-3.094 J-2.887
X12.606 Y51.112 I-7.558 J-3.572
X12.519 Y48.653 I-11.378 J-0.829
G1 X12.494 Y48.507
X12.454 Y48.365
X12.401 Y48.227
X12.334 Y48.095
X12.254 Y47.97
X12.162 Y47.853
X12.059 Y47.747
X11.946 Y47.65
X11.824 Y47.566
G2 X10.653 Y46.89 I-11.831 J19.139
X9.362 Y46.827 I-0.711 J1.321
G1 X9.329 Y46.841
G2 X5.642 Y49.202 I4.587 J11.225
X4.491 Y50.699 I5.33 J5.29
G3 X4.227 Y51.384 I-126.738 J-48.444
G1 X4.213 Y51.404
X4.191 Y51.415
X4.167
X4.025 Y51.376
X4.003 Y51.365
X3.99 Y51.344
X3.988 Y51.32
G2 X4.093 Y50.176 I-4.12 J-0.953
X3.12 Y46.894 I-8.333 J0.684
X1.816 Y44.809 I-10.299 J4.994
G1 X1.721 Y44.696
X1.615 Y44.592
X1.5 Y44.499
X1.376 Y44.418
X1.244 Y44.35
X1.106 Y44.295
X0.964 Y44.254
X0.818 Y44.227
X0.67 Y44.215
G2 X-0.682 Y44.215 I-0.676 J22.49
G1 Z-1 F333.3
G2 X-1.832 Y44.807 I0.045 J1.499 F1000
G1 X-1.853 Y44.835
G2 X-3.866 Y48.723 I9.583 J7.426
X-4.115 Y50.595 I7.261 J1.916
G3 X-4.001 Y51.32 I-103.61 J16.649
G1 X-4.003 Y51.344
X-4.016 Y51.365
X-4.037 Y51.376
X-4.179 Y51.415
X-4.204
X-4.225 Y51.404
X-4.239 Y51.384
G2 X-4.72 Y50.342 I-4.045 J1.235
X-7.206 Y47.984 I-6.877 J4.76
X-9.376 Y46.832 I-6.423 J9.479
G1 X-9.515 Y46.781
X-9.658 Y46.744
X-9.805 Y46.721
X-9.953 Y46.713
X-10.101 Y46.72
X-10.248 Y46.741
X-10.392 Y46.777
X-10.531 Y46.826
X-10.666 Y46.89
G2 X-11.837 Y47.566 I10.659 J19.815
X-12.536 Y48.653 I0.789 J1.276
G1 X-12.541 Y48.688
G2 X-12.329 Y53.101 I11.959 J1.64
X-11.608 Y54.825 I7.137 J-1.976
G3 X-11.158 Y55.378 I-13.45 J11.388
G1 X-11.147 Y55.4
X-11.149 Y55.425
X-11.161 Y55.445
X-11.265 Y55.55
X-11.286 Y55.562
X-11.31 Y55.563
X-11.332 Y55.553
G2 X-12.27 Y54.891 I-2.892 J3.1
X-15.561 Y54.094 I-3.562 J7.518
X-18.058 Y54.179 I-0.862 J11.449
G1 X-18.203 Y54.204
X-18.346 Y54.244
X-18.484 Y54.298
X-18.616 Y54.365
X-18.741 Y54.444
X-18.857 Y54.536
X-18.964 Y54.639
X-19.06 Y54.752
X-19.145 Y54.874
G2 X-19.821 Y56.045 I19.139 J11.83
X-19.883 Y57.338 I1.321 J0.711
G1 X-19.869 Y57.37
G2 X-17.481 Y61.085 I11.185 J-4.566
X-15.994 Y62.217 I5.2 J-5.287
G3 X-15.326 Y62.471 I-6.14 J17.088
G1 X-15.307 Y62.485
X-15.296 Y62.507
Y62.531
X-15.334 Y62.673
X-15.346 Y62.695
X-15.366 Y62.708
X-15.39 Y62.71
G2 X-16.531 Y62.606 I-0.953 J4.118
X-19.787 Y63.563 I0.672 J8.3
X-21.902 Y64.883 I4.986 J10.346
G1 X-22.016 Y64.978
X-22.119 Y65.084
X-22.212 Y65.199
X-22.293 Y65.323
X-22.361 Y65.455
X-22.416 Y65.592
X-22.457 Y65.735
X-22.484 Y65.88
X-22.496 Y66.028
G2 X-22.496 Y67.381 I22.49 J0.676
X-21.902 Y68.532 I1.499 J-0.045
G1 X-21.874 Y68.553
G2 X-17.987 Y70.565 I7.42 J-9.577
X-16.12 Y70.813 I1.916 J-7.259
G1 X-15.391 Y70.699
X-15.366 Y70.701
X-15.346 Y70.714
X-15.334 Y70.735
X-15.296 Y70.878
Y70.902
X-15.307 Y70.924
X-15.327 Y70.937
G2 X-16.37 Y71.419 I1.236 J4.048
X-18.686 Y73.843 I4.718 J6.827
X-19.879 Y76.075 I9.452 J6.486
G1 X-19.93 Y76.214
X-19.967 Y76.357
X-19.99 Y76.503
X-19.998 Y76.651
X-19.991 Y76.799
X-19.97 Y76.946
X-19.934 Y77.09
X-19.884 Y77.23
X-19.821 Y77.364
G2 X-19.145 Y78.535 I19.815 J-10.659
X-18.058 Y79.234 I1.276 J-0.789
G1 X-18.023 Y79.239
G2 X-13.645 Y79.037 I1.64 J-11.994
X-11.886 Y78.306 I-1.933 J-7.132
G3 X-11.332 Y77.856 I11.48 J13.564
G1 X-11.31 Y77.846
X-11.286 Y77.847
X-11.265 Y77.859
X-11.161 Y77.963
X-11.149 Y77.984
X-11.147 Y78.009
X-11.157 Y78.031
G2 X-11.82 Y78.97 I3.093 J2.886
X-12.614 Y82.221 I7.493 J3.551
X-12.532 Y84.756 I11.466 J0.897
G1 X-12.506 Y84.902
X-12.466 Y85.045
X-12.413 Y85.182
X-12.346 Y85.315
X-12.266 Y85.439
X-12.174 Y85.556
X-12.071 Y85.662
X-11.959 Y85.759
X-11.837 Y85.843
G2 X-10.666 Y86.519 I11.831 J-19.139
X-9.374 Y86.581 I0.711 J-1.321
G1 X-9.342 Y86.568
G2 X-5.683 Y84.234 I-4.598 J-11.246
X-4.503 Y82.71 I-5.292 J-5.314
G3 X-4.239 Y82.025 I69.683 J26.442
G1 X-4.225 Y82.005
X-4.204 Y81.994
X-4.179
X-4.037 Y82.032
X-4.016 Y82.044
X-4.003 Y82.065
X-4 Y82.089
G2 X-4.105 Y83.232 I4.12 J0.953
X-3.131 Y86.517 I8.332 J-0.683
X-1.828 Y88.6 I10.297 J-4.993
G1 X-1.733 Y88.713
X-1.628 Y88.817
X-1.512 Y88.91
X-1.388 Y88.991
X-1.256 Y89.059
X-1.119 Y89.114
X-0.976 Y89.155
X-0.83 Y89.182
X-0.682 Y89.194
G2 X0.67 Y89.194 I0.676 J-22.49
X1.819 Y88.602 I-0.045 J-1.499
G1 X1.841 Y88.574
G2 X3.854 Y84.685 I-9.579 J-7.424
X4.102 Y82.815 I-7.258 J-1.914
G3 X3.988 Y82.089 I120.629 J-19.304
G1 X3.99 Y82.065
X4.003 Y82.044
X4.025 Y82.032
X4.167 Y81.994
X4.191
X4.213 Y82.005
X4.227 Y82.025
G2 X4.708 Y83.067 I4.043 J-1.234
X7.194 Y85.425 I6.874 J-4.758
X9.364 Y86.577 I6.406 J-9.448
G1 X9.503 Y86.628
X9.646 Y86.665
X9.792 Y86.688
X9.94 Y86.696
X10.088 Y86.689
X10.235 Y86.668
X10.379 Y86.632
X10.519 Y86.583
X10.653 Y86.519
G2 X11.824 Y85.843 I-10.659 J-19.815
X12.524 Y84.757 I-0.789 J-1.276
G1 X12.528 Y84.722
G2 X12.317 Y80.307 I-11.961 J-1.64
X11.596 Y78.586 I-7.139 J1.978
G3 X11.145 Y78.031 I16.349 J-13.737
G1 X11.135 Y78.009
X11.136 Y77.984
X11.149 Y77.963
X11.253 Y77.859
X11.274 Y77.847
X11.298 Y77.846
X11.32 Y77.856
G2 X12.254 Y78.516 I2.888 J-3.095
X15.552 Y79.315 I3.567 J-7.515
X18.045 Y79.23 I0.856 J-11.449
G1 X18.191 Y79.205
X18.334 Y79.165
X18.472 Y79.111
X18.604 Y79.044
X18.729 Y78.964
X18.845 Y78.873
X18.952 Y78.77
X19.048 Y78.657
X19.133 Y78.535
G2 X19.809 Y77.364 I-19.139 J-11.83
X19.871 Y76.073 I-1.321 J-0.711
G1 X19.857 Y76.04
G2 X17.496 Y72.352 I-11.218 J4.583
X15.997 Y71.2 I-5.276 J5.312
G3 X15.314 Y70.937 I24.026 J-63.417
G1 X15.294 Y70.924
X15.283 Y70.902
X15.284 Y70.878
X15.322 Y70.735
X15.334 Y70.714
X15.354 Y70.701
X15.378 Y70.699
G2 X16.523 Y70.803 I0.954 J-4.129
X19.872 Y69.797 I-0.7 J-8.399
X21.887 Y68.528 I-5.017 J-10.204
G1 X22.001 Y68.433
X22.105 Y68.327
X22.198 Y68.212
X22.279 Y68.088
X22.348 Y67.956
X22.403 Y67.818
X22.444 Y67.675
X22.471 Y67.529
X22.484 Y67.381
G2 X22.484 Y66.028 I-22.49 J-0.676
X21.892 Y64.879 I-1.499 J0.045
G1 X21.864 Y64.858
G2 X17.939 Y62.835 I-7.409 J9.554
X16.083 Y62.597 I-1.86 J7.168
G3 X15.378 Y62.71 I-3.08 J-16.973
G1 X15.354 Y62.708
X15.334 Y62.695
X15.322 Y62.674
X15.284 Y62.531
X15.283 Y62.507
X15.294 Y62.485
X15.314 Y62.471
G2 X16.358 Y61.99 I-1.232 J-4.04
X18.63 Y59.632 I-4.692 J-6.797
X19.866 Y57.336 I-9.541 J-6.616
G1 X19.917 Y57.197
X19.954 Y57.053
X19.977 Y56.907
X19.985 Y56.759
X19.979 Y56.61
X19.957 Y56.464
X19.922 Y56.319
X19.872 Y56.18
X19.809 Y56.045
G2 X19.133 Y54.874 I-19.815 J10.659
X18.046 Y54.175 I-1.276 J0.789
G1 X18.01 Y54.17
G2 X13.597 Y54.381 I-1.64 J11.959
X11.875 Y55.102 I1.986 J7.162
G3 X11.32 Y55.553 I-12.529 J-14.853
G1 X11.298 Y55.563
X11.274 Y55.562
X11.253 Y55.55
X11.149 Y55.446
X11.136 Y55.425
X11.135 Y55.401
X11.145 Y55.378
G2 X11.808 Y54.439 I-3.094 J-2.887
X12.606 Y51.112 I-7.558 J-3.572
X12.519 Y48.653 I-11.378 J-0.829
G1 X12.494 Y48.507
X12.454 Y48.365
X12.401 Y48.227
X12.334 Y48.095
X12.254 Y47.97
X12.162 Y47.853
X12.059 Y47.747
X11.946 Y47.65
X11.824 Y47.566
G2 X10.653 Y46.89 I-11.831 J19.139
X9.362 Y46.827 I-0.711 J1.321
G1 X9.329 Y46.841
G2 X5.642 Y49.202 I4.587 J11.225
X4.491 Y50.699 I5.33 J5.29
G3 X4.227 Y51.384 I-126.738 J-48.444
G1 X4.213 Y51.404
X4.191 Y51.415
X4.167
X4.025 Y51.376
X4.003 Y51.365
X3.99 Y51.344
X3.988 Y51.32
G2 X4.093 Y50.176 I-4.12 J-0.953
X3.12 Y46.894 I-8.333 J0.684
X1.816 Y44.809 I-10.299 J4.994
G1 X1.721 Y44.696
X1.615 Y44.592
X1.5 Y44.499
X1.376 Y44.418
X1.244 Y44.35
X1.106 Y44.295
X0.964 Y44.254
X0.818 Y44.227
X0.67 Y44.215
G2 X-0.682 Y44.215 I-0.676 J22.49
G0 Z6
X0.682 Y43.49
G1 Z-1 F333.3
G2 X1.832 Y42.898 I-0.045 J-1.499 F1000
G1 X1.853 Y42.87
G2 X3.867 Y38.98 I-9.58 J-7.425
X4.115 Y37.11 I-7.261 J-1.914
G3 X4.001 Y36.384 I104.105 J-16.724
G1 X4.003 Y36.36
X4.016 Y36.34
X4.037 Y36.328
X4.179 Y36.29
X4.204 Y36.289
X4.225 Y36.3
X4.239 Y36.32
G2 X4.72 Y37.363 I4.041 J-1.233
X7.203 Y39.719 I6.878 J-4.761
X9.376 Y40.873 I6.435 J-9.496
G1 X9.515 Y40.924
X9.658 Y40.961
X9.805 Y40.983
X9.953 Y40.991
X10.101 Y40.985
X10.248 Y40.964
X10.392 Y40.928
X10.531 Y40.878
X10.666 Y40.815
G2 X11.837 Y40.139 I-10.659 J-19.815
X12.536 Y39.052 I-0.789 J-1.276
G1 X12.541 Y39.017
G2 X12.329 Y34.604 I-11.955 J-1.64
X11.608 Y32.881 I-7.115 J1.968
G3 X11.158 Y32.326 I17.577 J-14.727
G1 X11.147 Y32.304
X11.149 Y32.28
X11.161 Y32.259
X11.265 Y32.155
X11.286 Y32.142
X11.31 Y32.141
X11.332 Y32.151
G2 X12.27 Y32.813 I2.888 J-3.096
X15.522 Y33.608 I3.553 J-7.491
X18.058 Y33.525 I0.897 J-11.449
G1 X18.203 Y33.5
X18.346 Y33.46
X18.484 Y33.407
X18.616 Y33.34
X18.741 Y33.26
X18.857 Y33.168
X18.964 Y33.065
X19.06 Y32.952
X19.145 Y32.83
G2 X19.821 Y31.659 I-19.139 J-11.83
X19.883 Y30.368 I-1.321 J-0.711
G1 X19.87 Y30.336
G2 X17.481 Y26.62 I-11.19 J4.568
X15.994 Y25.488 I-5.196 J5.283
G3 X15.327 Y25.233 I6.226 J-17.303
G1 X15.307 Y25.219
X15.296 Y25.197
Y25.173
X15.334 Y25.031
X15.346 Y25.01
X15.366 Y24.996
X15.39 Y24.994
G2 X16.536 Y25.099 I0.952 J-4.116
X19.85 Y24.109 I-0.69 J-8.357
X21.902 Y22.822 I-5.014 J-10.269
G1 X22.016 Y22.727
X22.119 Y22.621
X22.212 Y22.506
X22.293 Y22.381
X22.361 Y22.25
X22.416 Y22.112
X22.457 Y21.97
X22.484 Y21.824
X22.496 Y21.676
G2 X22.496 Y20.324 I-22.49 J-0.676
X21.905 Y19.175 I-1.499 J0.045
G1 X21.876 Y19.153
G2 X17.987 Y17.14 I-7.426 J9.581
X16.115 Y16.892 I-1.913 J7.241
G3 X15.39 Y17.006 I-15.306 J-94.933
G1 X15.366 Y17.004
X15.346 Y16.99
X15.334 Y16.969
X15.296 Y16.827
Y16.803
X15.307 Y16.781
X15.327 Y16.767
G2 X16.37 Y16.285 I-1.239 J-4.054
X18.725 Y13.803 I-4.762 J-6.877
X19.879 Y11.63 I-9.501 J-6.438
G1 X19.93 Y11.491
X19.967 Y11.348
X19.99 Y11.201
X19.998 Y11.053
X19.991 Y10.905
X19.97 Y10.759
X19.934 Y10.615
X19.884 Y10.475
X19.821 Y10.341
G2 X19.145 Y9.17 I-19.815 J10.659
X18.058 Y8.47 I-1.276 J0.789
G1 X18.022 Y8.466
G2 X13.649 Y8.666 I-1.64 J12.014
X11.886 Y9.399 I1.929 J7.133
G3 X11.332 Y9.849 I-11.712 J-13.852
G1 X11.31 Y9.859
X11.286 Y9.858
X11.265 Y9.845
X11.161 Y9.741
X11.149 Y9.72
X11.147 Y9.696
X11.157 Y9.674
G2 X11.82 Y8.735 I-3.094 J-2.887
X12.614 Y5.484 I-7.491 J-3.551
X12.532 Y2.949 I-11.466 J-0.897
G1 X12.506 Y2.803
X12.467 Y2.66
X12.413 Y2.522
X12.346 Y2.39
X12.266 Y2.265
X12.174 Y2.149
X12.072 Y2.042
X11.959 Y1.946
X11.837 Y1.861
G2 X10.666 Y1.185 I-11.831 J19.139
X9.374 Y1.123 I-0.711 J1.321
G1 X9.341 Y1.137
G2 X5.653 Y3.498 I4.587 J11.224
X4.503 Y4.995 I5.334 J5.291
G3 X4.239 Y5.68 I-95.9 J-36.558
G1 X4.225 Y5.7
X4.204 Y5.711
X4.179 Y5.71
X4.037 Y5.672
X4.016 Y5.66
X4.003 Y5.64
X4 Y5.616
G2 X4.105 Y4.472 I-4.12 J-0.953
X3.132 Y1.188 I-8.332 J0.683
X1.828 Y-0.895 I-10.3 J4.995
G1 X1.733 Y-1.009
X1.628 Y-1.113
X1.512 Y-1.205
X1.388 Y-1.286
X1.256 Y-1.355
X1.119 Y-1.41
X0.976 Y-1.451
X0.83 Y-1.478
X0.682 Y-1.49
G2 X-0.67 Y-1.49 I-0.676 J22.49
X-1.819 Y-0.898 I0.045 J1.499
G1 X-1.841 Y-0.87
G2 X-3.854 Y3.02 I9.584 J7.427
X-4.102 Y4.89 I7.265 J1.915
G3 X-3.988 Y5.616 I-112.657 J18.06
G1 X-3.99 Y5.64
X-4.003 Y5.66
X-4.025 Y5.672
X-4.167 Y5.71
X-4.191 Y5.711
X-4.213 Y5.7
X-4.227 Y5.68
G2 X-4.708 Y4.637 I-4.044 J1.235
X-7.193 Y2.28 I-6.875 J4.759
X-9.363 Y1.127 I-6.423 J9.476
G1 X-9.502 Y1.076
X-9.646 Y1.039
X-9.792 Y1.017
X-9.94 Y1.009
X-10.088 Y1.015
X-10.235 Y1.036
X-10.379 Y1.072
X-10.519 Y1.122
X-10.653 Y1.185
G2 X-11.824 Y1.861 I10.659 J19.815
X-12.524 Y2.948 I0.789 J1.276
G1 X-12.528 Y2.983
G2 X-12.317 Y7.397 I11.967 J1.639
X-11.596 Y9.119 I7.131 J-1.975
G3 X-11.145 Y9.674 I-15.522 J13.065
G1 X-11.135 Y9.696
X-11.136 Y9.72
X-11.149 Y9.741
X-11.253 Y9.845
X-11.274 Y9.858
X-11.298 Y9.859
X-11.32 Y9.849
G2 X-12.257 Y9.187 I-2.889 J3.096
X-15.588 Y8.387 I-3.575 J7.556
X-18.045 Y8.475 I-0.824 J11.42
G1 X-18.191 Y8.5
X-18.333 Y8.54
X-18.471 Y8.593
X-18.603 Y8.66
X-18.728 Y8.74
X-18.845 Y8.832
X-18.952 Y8.935
X-19.048 Y9.048
X-19.133 Y9.17
G2 X-19.809 Y10.341 I19.139 J11.831
X-19.871 Y11.632 I1.321 J0.711
G1 X-19.857 Y11.664
G2 X-17.496 Y15.352 I11.209 J-4.578
X-15.982 Y16.512 I5.204 J-5.227
G3 X-15.314 Y16.767 I-6.622 J18.328
G1 X-15.294 Y16.781
X-15.283 Y16.803
X-15.284 Y16.827
X-15.322 Y16.969
X-15.334 Y16.99
X-15.354 Y17.004
X-15.378 Y17.006
G2 X-16.523 Y16.901 I-0.952 J4.116
X-19.77 Y17.856 I0.674 J8.285
X-21.89 Y19.178 I4.991 J10.365
G1 X-22.003 Y19.273
X-22.107 Y19.379
X-22.2 Y19.494
X-22.28 Y19.619
X-22.349 Y19.75
X-22.404 Y19.888
X-22.445 Y20.03
X-22.471 Y20.176
X-22.484 Y20.324
G2 X-22.484 Y21.676 I22.49 J0.676
X-21.892 Y22.825 I1.499 J-0.045
G1 X-21.864 Y22.847
G2 X-17.973 Y24.86 I7.425 J-9.58
X-16.102 Y25.108 I1.912 J-7.241
G3 X-15.378 Y24.994 I15.395 J95.505
G1 X-15.354 Y24.996
X-15.334 Y25.01
X-15.322 Y25.031
X-15.284 Y25.173
X-15.283 Y25.197
X-15.294 Y25.219
X-15.314 Y25.233
G2 X-16.358 Y25.715 I1.237 J4.049
X-18.713 Y28.197 I4.765 J6.88
X-19.867 Y30.37 I9.524 J6.451
G1 X-19.918 Y30.509
X-19.955 Y30.652
X-19.977 Y30.799
X-19.985 Y30.947
X-19.979 Y31.095
X-19.957 Y31.241
X-19.922 Y31.385
X-19.872 Y31.525
X-19.809 Y31.659
G2 X-19.133 Y32.83 I19.815 J-10.659
X-18.046 Y33.53 I1.276 J-0.789
G1 X-18.01 Y33.534
G2 X-13.597 Y33.323 I1.64 J-11.964
X-11.875 Y32.602 I-1.969 J-7.119
G3 X-11.32 Y32.151 I14.654 J17.487
G1 X-11.298 Y32.141
X-11.274 Y32.142
X-11.253 Y32.155
X-11.149 Y32.259
X-11.136 Y32.28
X-11.135 Y32.304
X-11.145 Y32.326
G2 X-11.807 Y33.264 I3.096 J2.889
X-12.605 Y36.558 I7.534 J3.567
X-12.519 Y39.051 I11.455 J0.857
G1 X-12.494 Y39.197
X-12.454 Y39.34
X-12.401 Y39.478
X-12.334 Y39.61
X-12.254 Y39.735
X-12.162 Y39.851
X-12.059 Y39.958
X-11.946 Y40.054
X-11.824 Y40.139
G2 X-10.653 Y40.815 I11.831 J-19.139
X-9.362 Y40.877 I0.711 J-1.321
G1 X-9.329 Y40.863
G2 X-5.642 Y38.502 I-4.587 J-11.224
X-4.481 Y36.987 I-5.256 J-5.227
G3 X-4.227 Y36.32 I16.315 J5.846
G1 X-4.213 Y36.3
X-4.191 Y36.289
X-4.167 Y36.29
X-4.025 Y36.328
X-4.003 Y36.34
X-3.99 Y36.36
X-3.988 Y36.384
G2 X-4.093 Y37.528 I4.121 J0.953
X-3.12 Y40.811 I8.333 J-0.684
X-1.816 Y42.895 I10.296 J-4.991
G1 X-1.721 Y43.009
X-1.615 Y43.113
X-1.5 Y43.205
X-1.376 Y43.286
X-1.244 Y43.355
X-1.106 Y43.41
X-0.964 Y43.451
X-0.818 Y43.478
X-0.67 Y43.49
G2 X0.682 Y43.49 I0.676 J-22.49
G1 Z-1.5 F333.3
G2 X1.832 Y42.898 I-0.045 J-1.499 F1000
G1 X1.853 Y42.87
G2 X3.867 Y38.98 I-9.58 J-7.425
X4.115 Y37.11 I-7.261 J-1.914
G3 X4.001 Y36.384 I104.105 J-16.724
G1 X4.003 Y36.36
X4.016 Y36.34
X4.037 Y36.328
X4.179 Y36.29
X4.204 Y36.289
X4.225 Y36.3
X4.239 Y36.32
G2 X4.72 Y37.363 I4.041 J-1.233
X7.203 Y39.719 I6.878 J-4.761
X9.376 Y40.873 I6.435 J-9.496
G1 X9.515 Y40.924
X9.658 Y40.961
X9.805 Y40.983
X9.953 Y40.991
X10.101 Y40.985
X10.248 Y40.964
X10.392 Y40.928
X10.531 Y40.878
X10.666 Y40.815
G2 X11.837 Y40.139 I-10.659 J-19.815
X12.536 Y39.052 I-0.789 J-1.276
G1 X12.541 Y39.017
G2 X12.329 Y34.604 I-11.955 J-1.64
X11.608 Y32.881 I-7.115 J1.968
G3 X11.158 Y32.326 I17.577 J-14.727
G1 X11.147 Y32.304
X11.149 Y32.28
X11.161 Y32.259
X11.265 Y32.155
X11.286 Y32.142
X11.31 Y32.141
X11.332 Y32.151
G2 X12.27 Y32.813 I2.888 J-3.096
X15.522 Y33.608 I3.553 J-7.491
X18.058 Y33.525 I0.897 J-11.449
G1 X18.203 Y33.5
X18.346 Y33.46
X18.484 Y33.407
X18.616 Y33.34
X18.741 Y33.26
X18.857 Y33.168
X18.964 Y33.065
X19.06 Y32.952
X19.145 Y32.83
G2 X19.821 Y31.659 I-19.139 J-11.83
X19.883 Y30.368 I-1.321 J-0.711
G1 X19.87 Y30.336
G2 X17.481 Y26.62 I-11.19 J4.568
X15.994 Y25.488 I-5.196 J5.283
G3 X15.327 Y25.233 I6.226 J-17.303
G1 X15.307 Y25.219
X15.296 Y25.197
Y25.173
X15.334 Y25.031
X15.346 Y25.01
X15.366 Y24.996
X15.39 Y24.994
G2 X16.536 Y25.099 I0.952 J-4.116
X19.85 Y24.109 I-0.69 J-8.357
X21.902 Y22.822 I-5.014 J-10.269
G1 X22.016 Y22.727
X22.119 Y22.621
X22.212 Y22.506
X22.293 Y22.381
X22.361 Y22.25
X22.416 Y22.112
X22.457 Y21.97
X22.484 Y21.824
X22.496 Y21.676
G2 X22.496 Y20.324 I-22.49 J-0.676
X21.905 Y19.175 I-1.499 J0.045
G1 X21.876 Y19.153
G2 X17.987 Y17.14 I-7.426 J9.581
X16.115 Y16.892 I-1.913 J7.241
G3 X15.39 Y17.006 I-15.306 J-94.933
G1 X15.366 Y17.004
X15.346 Y16.99
X15.334 Y16.969
X15.296 Y16.827
Y16.803
X15.307 Y16.781
X15.327 Y16.767
G2 X16.37 Y16.285 I-1.239 J-4.054
X18.725 Y13.803 I-4.762 J-6.877
X19.879 Y11.63 I-9.501 J-6.438
G1 X19.93 Y11.491
X19.967 Y11.348
X19.99 Y11.201
X19.998 Y11.053
X19.991 Y10.905
X19.97 Y10.759
X19.934 Y10.615
X19.884 Y10.475
X19.821 Y10.341
G2 X19.145 Y9.17 I-19.815 J10.659
X18.058 Y8.47 I-1.276 J0.789
G1 X18.022 Y8.466
G2 X13.649 Y8.666 I-1.64 J12.014
X11.886 Y9.399 I1.929 J7.133
G3 X11.332 Y9.849 I-11.712 J-13.852
G1 X11.31 Y9.859
X11.286 Y9.858
X11.265 Y9.845
X11.161 Y9.741
X11.149 Y9.72
X11.147 Y9.696
X11.157 Y9.674
G2 X11.82 Y8.735 I-3.094 J-2.887
X12.614 Y5.484 I-7.491 J-3.551
X12.532 Y2.949 I-11.466 J-0.897
G1 X12.506 Y2.803
X12.467 Y2.66
X12.413 Y2.522
X12.346 Y2.39
X12.266 Y2.265
X12.174 Y2.149
X12.072 Y2.042
X11.959 Y1.946
X11.837 Y1.861
G2 X10.666 Y1.185 I-11.831 J19.139
X9.374 Y1.123 I-0.711 J1.321
G1 X9.341 Y1.137
G2 X5.653 Y3.498 I4.587 J11.224
X4.503 Y4.995 I5.334 J5.291
G3 X4.239 Y5.68 I-95.9 J-36.558
G1 X4.225 Y5.7
X4.204 Y5.711
X4.179 Y5.71
X4.037 Y5.672
X4.016 Y5.66
X4.003 Y5.64
X4 Y5.616
G2 X4.105 Y4.472 I-4.12 J-0.953
X3.132 Y1.188 I-8.332 J0.683
X1.828 Y-0.895 I-10.3 J4.995
G1 X1.733 Y-1.009
X1.628 Y-1.113
X1.512 Y-1.205
X1.388 Y-1.286
X1.256 Y-1.355
X1.119 Y-1.41
X0.976 Y-1.451
X0.83 Y-1.478
X0.682 Y-1.49
G2 X-0.67 Y-1.49 I-0.676 J22.49
X-1.819 Y-0.898 I0.045 J1.499
G1 X-1.841 Y-0.87
G2 X-3.854 Y3.02 I9.584 J7.427
X-4.102 Y4.89 I7.265 J1.915
G3 X-3.988 Y5.616 I-112.657 J18.06
G1 X-3.99 Y5.64
X-4.003 Y5.66
X-4.025 Y5.672
X-4.167 Y5.71
X-4.191 Y5.711
X-4.213 Y5.7
X-4.227 Y5.68
G2 X-4.708 Y4.637 I-4.044 J1.235
X-7.193 Y2.28 I-6.875 J4.759
X-9.363 Y1.127 I-6.423 J9.476
G1 X-9.502 Y1.076
X-9.646 Y1.039
X-9.792 Y1.017
X-9.94 Y1.009
X-10.088 Y1.015
X-10.235 Y1.036
X-10.379 Y1.072
X-10.519 Y1.122
X-10.653 Y1.185
G2 X-11.824 Y1.861 I10.659 J19.815
X-12.524 Y2.948 I0.789 J1.276
G1 X-12.528 Y2.983
G2 X-12.317 Y7.397 I11.967 J1.639
X-11.596 Y9.119 I7.131 J-1.975
G3 X-11.145 Y9.674 I-15.522 J13.065
G1 X-11.135 Y9.696
X-11.136 Y9.72
X-11.149 Y9.741
X-11.253 Y9.845
X-11.274 Y9.858
X-11.298 Y9.859
X-11.32 Y9.849
G2 X-12.257 Y9.187 I-2.889 J3.096
X-15.588 Y8.387 I-3.575 J7.556
X-18.045 Y8.475 I-0.824 J11.42
G1 X-18.191 Y8.5
X-18.333 Y8.54
X-18.471 Y8.593
X-18.603 Y8.66
X-18.728 Y8.74
X-18.845 Y8.832
X-18.952 Y8.935
X-19.048 Y9.048
X-19.133 Y9.17
G2 X-19.809 Y10.341 I19.139 J11.831
X-19.871 Y11.632 I1.321 J0.711
G1 X-19.857 Y11.664
G2 X-17.496 Y15.352 I11.209 J-4.578
X-15.982 Y16.512 I5.204 J-5.227
G3 X-15.314 Y16.767 I-6.622 J18.328
G1 X-15.294 Y16.781
X-15.283 Y16.803
X-15.284 Y16.827
X-15.322 Y16.969
X-15.334 Y16.99
X-15.354 Y17.004
X-15.378 Y17.006
G2 X-16.523 Y16.901 I-0.952 J4.116
X-19.77 Y17.856 I0.674 J8.285
X-21.89 Y19.178 I4.991 J10.365
G1 X-22.003 Y19.273
X-22.107 Y19.379
X-22.2 Y19.494
X-22.28 Y19.619
X-22.349 Y19.75
X-22.404 Y19.888
X-22.445 Y20.03
X-22.471 Y20.176
X-22.484 Y20.324
G2 X-22.484 Y21.676 I22.49 J0.676
X-21.892 Y22.825 I1.499 J-0.045
G1 X-21.864 Y22.847
G2 X-17.973 Y24.86 I7.425 J-9.58
X-16.102 Y25.108 I1.912 J-7.241
G3 X-15.378 Y24.994 I15.395 J95.505
G1 X-15.354 Y24.996
X-15.334 Y25.01
X-15.322 Y25.031
X-15.284 Y25.173
X-15.283 Y25.197
X-15.294 Y25.219
X-15.314 Y25.233
G2 X-16.358 Y25.715 I1.237 J4.049
X-18.713 Y28.197 I4.765 J6.88
X-19.867 Y30.37 I9.524 J6.451
G1 X-19.918 Y30.509
X-19.955 Y30.652
X-19.977 Y30.799
X-19.985 Y30.947
X-19.979 Y31.095
X-19.957 Y31.241
X-19.922 Y31.385
X-19.872 Y31.525
X-19.809 Y31.659
G2 X-19.133 Y32.83 I19.815 J-10.659
X-18.046 Y33.53 I1.276 J-0.789
G1 X-18.01 Y33.534
G2 X-13.597 Y33.323 I1.64 J-11.964
X-11.875 Y32.602 I-1.969 J-7.119
G3 X-11.32 Y32.151 I14.654 J17.487
G1 X-11.298 Y32.141
X-11.274 Y32.142
X-11.253 Y32.155
X-11.149 Y32.259
X-11.136 Y32.28
X-11.135 Y32.304
X-11.145 Y32.326
G2 X-11.807 Y33.264 I3.096 J2.889
X-12.605 Y36.558 I7.534 J3.567
X-12.519 Y39.051 I11.455 J0.857
G1 X-12.494 Y39.197
X-12.454 Y39.34
X-12.401 Y39.478
X-12.334 Y39.61
X-12.254 Y39.735
X-12.162 Y39.851
X-12.059 Y39.958
X-11.946 Y40.054
X-11.824 Y40.139
G2 X-10.653 Y40.815 I11.831 J-19.139
X-9.362 Y40.877 I0.711 J-1.321
G1 X-9.329 Y40.863
G2 X-5.642 Y38.502 I-4.587 J-11.224
X-4.481 Y36.987 I-5.256 J-5.227
G3 X-4.227 Y36.32 I16.315 J5.846
G1 X-4.213 Y36.3
X-4.191 Y36.289
X-4.167 Y36.29
X-4.025 Y36.328
X-4.003 Y36.34
X-3.99 Y36.36
X-3.988 Y36.384
G2 X-4.093 Y37.528 I4.121 J0.953
X-3.12 Y40.811 I8.333 J-0.684
X-1.816 Y42.895 I10.296 J-4.991
G1 X-1.721 Y43.009
X-1.615 Y43.113
X-1.5 Y43.205
X-1.376 Y43.286
X-1.244 Y43.355
X-1.106 Y43.41
X-0.964 Y43.451
X-0.818 Y43.478
X-0.67 Y43.49
G2 X0.682 Y43.49 I0.676 J-22.49
G0 Z6
X-0.682 Y44.215
G1 Z-1.5 F333.3
G2 X-1.832 Y44.807 I0.045 J1.499 F1000
G1 X-1.853 Y44.835
G2 X-3.866 Y48.723 I9.583 J7.426
X-4.115 Y50.595 I7.261 J1.916
G3 X-4.001 Y51.32 I-103.61 J16.649
G1 X-4.003 Y51.344
X-4.016 Y51.365
X-4.037 Y51.376
X-4.179 Y51.415
X-4.204
X-4.225 Y51.404
X-4.239 Y51.384
G2 X-4.72 Y50.342 I-4.045 J1.235
X-7.206 Y47.984 I-6.877 J4.76
X-9.376 Y46.832 I-6.423 J9.479
G1 X-9.515 Y46.781
X-9.658 Y46.744
X-9.805 Y46.721
X-9.953 Y46.713
X-10.101 Y46.72
X-10.248 Y46.741
X-10.392 Y46.777
X-10.531 Y46.826
X-10.666 Y46.89
G2 X-11.837 Y47.566 I10.659 J19.815
X-12.536 Y48.653 I0.789 J1.276
G1 X-12.541 Y48.688
G2 X-12.329 Y53.101 I11.959 J1.64
X-11.608 Y54.825 I7.137 J-1.976
G3 X-11.158 Y55.378 I-13.45 J11.388
G1 X-11.147 Y55.4
X-11.149 Y55.425
X-11.161 Y55.445
X-11.265 Y55.55
X-11.286 Y55.562
X-11.31 Y55.563
X-11.332 Y55.553
G2 X-12.27 Y54.891 I-2.892 J3.1
X-15.561 Y54.094 I-3.562 J7.518
X-18.058 Y54.179 I-0.862 J11.449
G1 X-18.203 Y54.204
X-18.346 Y54.244
X-18.484 Y54.298
X-18.616 Y54.365
X-18.741 Y54.444
X-18.857 Y54.536
X-18.964 Y54.639
X-19.06 Y54.752
X-19.145 Y54.874
G2 X-19.821 Y56.045 I19.139 J11.83
X-19.883 Y57.338 I1.321 J0.711
G1 X-19.869 Y57.37
G2 X-17.481 Y61.085 I11.185 J-4.566
X-15.994 Y62.217 I5.2 J-5.287
G3 X-15.326 Y62.471 I-6.14 J17.088
G1 X-15.307 Y62.485
X-15.296 Y62.507
Y62.531
X-15.334 Y62.673
X-15.346 Y62.695
X-15.366 Y62.708
X-15.39 Y62.71
G2 X-16.531 Y62.606 I-0.953 J4.118
X-19.787 Y63.563 I0.672 J8.3
X-21.902 Y64.883 I4.986 J10.346
G1 X-22.016 Y64.978
X-22.119 Y65.084
X-22.212 Y65.199
X-22.293 Y65.323
X-22.361 Y65.455
X-22.416 Y65.592
X-22.457 Y65.735
X-22.484 Y65.88
X-22.496 Y66.028
G2 X-22.496 Y67.381 I22.49 J0.676
X-21.902 Y68.532 I1.499 J-0.045
G1 X-21.874 Y68.553
G2 X-17.987 Y70.565 I7.42 J-9.577
X-16.12 Y70.813 I1.916 J-7.259
G1 X-15.391 Y70.699
X-15.366 Y70.701
X-15.346 Y70.714
X-15.334 Y70.735
X-15.296 Y70.878
Y70.902
X-15.307 Y70.924
X-15.327 Y70.937
G2 X-16.37 Y71.419 I1.236 J4.048
X-18.686 Y73.843 I4.718 J6.827
X-19.879 Y76.075 I9.452 J6.486
G1 X-19.93 Y76.214
X-19.967 Y76.357
X-19.99 Y76.503
X-19.998 Y76.651
X-19.991 Y76.799
X-19.97 Y76.946
X-19.934 Y77.09
X-19.884 Y77.23
X-19.821 Y77.364
G2 X-19.145 Y78.535 I19.815 J-10.659
X-18.058 Y79.234 I1.276 J-0.789
G1 X-18.023 Y79.239
G2 X-13.645 Y79.037 I1.64 J-11.994
X-11.886 Y78.306 I-1.933 J-7.132
G3 X-11.332 Y77.856 I11.48 J13.564
G1 X-11.31 Y77.846
X-11.286 Y77.847
X-11.265 Y77.859
X-11.161 Y77.963
X-11.149 Y77.984
X-11.147 Y78.009
X-11.157 Y78.031
G2 X-11.82 Y78.97 I3.093 J2.886
X-12.614 Y82.221 I7.493 J3.551
X-12.532 Y84.756 I11.466 J0.897
G1 X-12.506 Y84.902
X-12.466 Y85.045
X-12.413 Y85.182
X-12.346 Y85.315
X-12.266 Y85.439
X-12.174 Y85.556
X-12.071 Y85.662
X-11.959 Y85.759
X-11.837 Y85.843
G2 X-10.666 Y86.519 I11.831 J-19.139
X-9.374 Y86.581 I0.711 J-1.321
G1 X-9.342 Y86.568
G2 X-5.683 Y84.234 I-4.598 J-11.246
X-4.503 Y82.71 I-5.292 J-5.314
G3 X-4.239 Y82.025 I69.683 J26.442
G1 X-4.225 Y82.005
X-4.204 Y81.994
X-4.179
X-4.037 Y82.032
X-4.016 Y82.044
X-4.003 Y82.065
X-4 Y82.089
G2 X-4.105 Y83.232 I4.12 J0.953
X-3.131 Y86.517 I8.332 J-0.683
X-1.828 Y88.6 I10.297 J-4.993
G1 X-1.733 Y88.713
X-1.628 Y88.817
X-1.512 Y88.91
X-1.388 Y88.991
X-1.256 Y89.059
X-1.119 Y89.114
X-0.976 Y89.155
X-0.83 Y89.182
X-0.682 Y89.194
G2 X0.67 Y89.194 I0.676 J-22.49
X1.819 Y88.602 I-0.045 J-1.499
G1 X1.841 Y88.574
G2 X3.854 Y84.685 I-9.579 J-7.424
X4.102 Y82.815 I-7.258 J-1.914
G3 X3.988 Y82.089 I120.629 J-19.304
G1 X3.99 Y82.065
X4.003 Y82.044
X4.025 Y82.032
X4.167 Y81.994
X4.191
X4.213 Y82.005
X4.227 Y82.025
G2 X4.708 Y83.067 I4.043 J-1.234
X7.194 Y85.425 I6.874 J-4.758
X9.364 Y86.577 I6.406 J-9.448
G1 X9.503 Y86.628
X9.646 Y86.665
X9.792 Y86.688
X9.94 Y86.696
X10.088 Y86.689
X10.235 Y86.668
X10.379 Y86.632
X10.519 Y86.583
X10.653 Y86.519
G2 X11.824 Y85.843 I-10.659 J-19.815
X12.524 Y84.757 I-0.789 J-1.276
G1 X12.528 Y84.722
G2 X12.317 Y80.307 I-11.961 J-1.64
X11.596 Y78.586 I-7.139 J1.978
G3 X11.145 Y78.031 I16.349 J-13.737
G1 X11.135 Y78.009
X11.136 Y77.984
X11.149 Y77.963
X11.253 Y77.859
X11.274 Y77.847
X11.298 Y77.846
X11.32 Y77.856
G2 X12.254 Y78.516 I2.888 J-3.095
X15.552 Y79.315 I3.567 J-7.515
X18.045 Y79.23 I0.856 J-11.449
G1 X18.191 Y79.205
X18.334 Y79.165
X18.472 Y79.111
X18.604 Y79.044
X18.729 Y78.964
X18.845 Y78.873
X18.952 Y78.77
X19.048 Y78.657
X19.133 Y78.535
G2 X19.809 Y77.364 I-19.139 J-11.83
X19.871 Y76.073 I-1.321 J-0.711
G1 X19.857 Y76.04
G2 X17.496 Y72.352 I-11.218 J4.583
X15.997 Y71.2 I-5.276 J5.312
G3 X15.314 Y70.937 I24.026 J-63.417
G1 X15.294 Y70.924
X15.283 Y70.902
X15.284 Y70.878
X15.322 Y70.735
X15.334 Y70.714
X15.354 Y70.701
X15.378 Y70.699
G2 X16.523 Y70.803 I0.954 J-4.129
X19.872 Y69.797 I-0.7 J-8.399
X21.887 Y68.528 I-5.017 J-10.204
G1 X22.001 Y68.433
X22.105 Y68.327
X22.198 Y68.212
X22.279 Y68.088
X22.348 Y67.956
X22.403 Y67.818
X22.444 Y67.675
X22.471 Y67.529
X22.484 Y67.381
G2 X22.484 Y66.028 I-22.49 J-0.676
X21.892 Y64.879 I-1.499 J0.045
G1 X21.864 Y64.858
G2 X17.939 Y62.835 I-7.409 J9.554
X16.083 Y62.597 I-1.86 J7.168
G3 X15.378 Y62.71 I-3.08 J-16.973
G1 X15.354 Y62.708
X15.334 Y62.695
X15.322 Y62.674
X15.284 Y62.531
X15.283 Y62.507
X15.294 Y62.485
X15.314 Y62.471
G2 X16.358 Y61.99 I-1.232 J-4.04
X18.63 Y59.632 I-4.692 J-6.797
X19.866 Y57.336 I-9.541 J-6.616
G1 X19.917 Y57.197
X19.954 Y57.053
X19.977 Y56.907
X19.985 Y56.759
X19.979 Y56.61
X19.957 Y56.464
X19.922 Y56.319
X19.872 Y56.18
X19.809 Y56.045
G2 X19.133 Y54.874 I-19.815 J10.659
X18.046 Y54.175 I-1.276 J0.789
G1 X18.01 Y54.17
G2 X13.597 Y54.381 I-1.64 J11.959
X11.875 Y55.102 I1.986 J7.162
G3 X11.32 Y55.553 I-12.529 J-14.853
G1 X11.298 Y55.563
X11.274 Y55.562
X11.253 Y55.55
X11.149 Y55.446
X11.136 Y55.425
X11.135 Y55.401
X11.145 Y55.378
G2 X11.808 Y54.439 I-3.094 J-2.887
X12.606 Y51.112 I-7.558 J-3.572
X12.519 Y48.653 I-11.378 J-0.829
G1 X12.494 Y48.507
X12.454 Y48.365
X12.401 Y48.227
X12.334 Y48.095
X12.254 Y47.97
X12.162 Y47.853
X12.059 Y47.747
X11.946 Y47.65
X11.824 Y47.566
G2 X10.653 Y46.89 I-11.831 J19.139
X9.362 Y46.827 I-0.711 J1.321
G1 X9.329 Y46.841
G2 X5.642 Y49.202 I4.587 J11.225
X4.491 Y50.699 I5.33 J5.29
G3 X4.227 Y51.384 I-126.738 J-48.444
G1 X4.213 Y51.404
X4.191 Y51.415
X4.167
X4.025 Y51.376
X4.003 Y51.365
X3.99 Y51.344
X3.988 Y51.32
G2 X4.093 Y50.176 I-4.12 J-0.953
X3.12 Y46.894 I-8.333 J0.684
X1.816 Y44.809 I-10.299 J4.994
G1 X1.721 Y44.696
X1.615 Y44.592
X1.5 Y44.499
X1.376 Y44.418
X1.244 Y44.35
X1.106 Y44.295
X0.964 Y44.254
X0.818 Y44.227
X0.67 Y44.215
G2 X-0.682 Y44.215 I-0.676 J22.49
G1 Z-2 F333.3
G2 X-1.832 Y44.807 I0.045 J1.499 F1000
G1 X-1.853 Y44.835
G2 X-3.866 Y48.723 I9.583 J7.426
X-4.115 Y50.595 I7.261 J1.916
G3 X-4.001 Y51.32 I-103.61 J16.649
G1 X-4.003 Y51.344
X-4.016 Y51.365
X-4.037 Y51.376
X-4.179 Y51.415
X-4.204
X-4.225 Y51.404
X-4.239 Y51.384
G2 X-4.72 Y50.342 I-4.045 J1.235
X-7.206 Y47.984 I-6.877 J4.76
X-9.376 Y46.832 I-6.423 J9.479
G1 X-9.515 Y46.781
X-9.658 Y46.744
X-9.805 Y46.721
X-9.953 Y46.713
X-10.101 Y46.72
X-10.248 Y46.741
X-10.392 Y46.777
X-10.531 Y46.826
X-10.666 Y46.89
G2 X-11.837 Y47.566 I10.659 J19.815
X-12.536 Y48.653 I0.789 J1.276
G1 X-12.541 Y48.688
G2 X-12.329 Y53.101 I11.959 J1.64
X-11.608 Y54.825 I7.137 J-1.976
G3 X-11.158 Y55.378 I-13.45 J11.388
G1 X-11.147 Y55.4
X-11.149 Y55.425
X-11.161 Y55.445
X-11.265 Y55.55
X-11.286 Y55.562
X-11.31 Y55.563
X-11.332 Y55.553
G2 X-12.27 Y54.891 I-2.892 J3.1
X-15.561 Y54.094 I-3.562 J7.518
X-18.058 Y54.179 I-0.862 J11.449
G1 X-18.203 Y54.204
X-18.346 Y54.244
X-18.484 Y54.298
X-18.616 Y54.365
X-18.741 Y54.444
X-18.857 Y54.536
X-18.964 Y54.639
X-19.06 Y54.752
X-19.145 Y54.874
G2 X-19.821 Y56.045 I19.139 J11.83
X-19.883 Y57.338 I1.321 J0.711
G1 X-19.869 Y57.37
G2 X-17.481 Y61.085 I11.185 J-4.566
X-15.994 Y62.217 I5.2 J-5.287
G3 X-15.326 Y62.471 I-6.14 J17.088
G1 X-15.307 Y62.485
X-15.296 Y62.507
Y62.531
X-15.334 Y62.673
X-15.346 Y62.695
X-15.366 Y62.708
X-15.39 Y62.71
G2 X-16.531 Y62.606 I-0.953 J4.118
X-19.787 Y63.563 I0.672 J8.3
X-21.902 Y64.883 I4.986 J10.346
G1 X-22.016 Y64.978
X-22.119 Y65.084
X-22.212 Y65.199
X-22.293 Y65.323
X-22.361 Y65.455
X-22.416 Y65.592
X-22.457 Y65.735
X-22.484 Y65.88
X-22.496 Y66.028
G2 X-22.496 Y67.381 I22.49 J0.676
X-21.902 Y68.532 I1.499 J-0.045
G1 X-21.874 Y68.553
G2 X-17.987 Y70.565 I7.42 J-9.577
X-16.12 Y70.813 I1.916 J-7.259
G1 X-15.391 Y70.699
X-15.366 Y70.701
X-15.346 Y70.714
X-15.334 Y70.735
X-15.296 Y70.878
Y70.902
X-15.307 Y70.924
X-15.327 Y70.937
G2 X-16.37 Y71.419 I1.236 J4.048
X-18.686 Y73.843 I4.718 J6.827
X-19.879 Y76.075 I9.452 J6.486
G1 X-19.93 Y76.214
X-19.967 Y76.357
X-19.99 Y76.503
X-19.998 Y76.651
X-19.991 Y76.799
X-19.97 Y76.946
X-19.934 Y77.09
X-19.884 Y77.23
X-19.821 Y77.364
G2 X-19.145 Y78.535 I19.815 J-10.659
X-18.058 Y79.234 I1.276 J-0.789
G1 X-18.023 Y79.239
G2 X-13.645 Y79.037 I1.64 J-11.994
X-11.886 Y78.306 I-1.933 J-7.132
G3 X-11.332 Y77.856 I11.48 J13.564
G1 X-11.31 Y77.846
X-11.286 Y77.847
X-11.265 Y77.859
X-11.161 Y77.963
X-11.149 Y77.984
X-11.147 Y78.009
X-11.157 Y78.031
G2 X-11.82 Y78.97 I3.093 J2.886
X-12.614 Y82.221 I7.493 J3.551
X-12.532 Y84.756 I11.466 J0.897
G1 X-12.506 Y84.902
X-12.466 Y85.045
X-12.413 Y85.182
X-12.346 Y85.315
X-12.266 Y85.439
X-12.174 Y85.556
X-12.071 Y85.662
X-11.959 Y85.759
X-11.837 Y85.843
G2 X-10.666 Y86.519 I11.831 J-19.139
X-9.374 Y86.581 I0.711 J-1.321
G1 X-9.342 Y86.568
G2 X-5.683 Y84.234 I-4.598 J-11.246
X-4.503 Y82.71 I-5.292 J-5.314
G3 X-4.239 Y82.025 I69.683 J26.442
G1 X-4.225 Y82.005
X-4.204 Y81.994
X-4.179
X-4.037 Y82.032
X-4.016 Y82.044
X-4.003 Y82.065
X-4 Y82.089
G2 X-4.105 Y83.232 I4.12 J0.953
X-3.131 Y86.517 I8.332 J-0.683
X-1.828 Y88.6 I10.297 J-4.993
G1 X-1.733 Y88.713
X-1.628 Y88.817
X-1.512 Y88.91
X-1.388 Y88.991
X-1.256 Y89.059
X-1.119 Y89.114
X-0.976 Y89.155
X-0.83 Y89.182
X-0.682 Y89.194
G2 X0.67 Y89.194 I0.676 J-22.49
X1.819 Y88.602 I-0.045 J-1.499
G1 X1.841 Y88.574
G2 X3.854 Y84.685 I-9.579 J-7.424
X4.102 Y82.815 I-7.258 J-1.914
G3 X3.988 Y82.089 I120.629 J-19.304
G1 X3.99 Y82.065
X4.003 Y82.044
X4.025 Y82.032
X4.167 Y81.994
X4.191
X4.213 Y82.005
X4.227 Y82.025
G2 X4.708 Y83.067 I4.043 J-1.234
X7.194 Y85.425 I6.874 J-4.758
X9.364 Y86.577 I6.406 J-9.448
G1 X9.503 Y86.628
X9.646 Y86.665
X9.792 Y86.688
X9.94 Y86.696
X10.088 Y86.689
X10.235 Y86.668
X10.379 Y86.632
X10.519 Y86.583
X10.653 Y86.519
G2 X11.824 Y85.843 I-10.659 J-19.815
X12.524 Y84.757 I-0.789 J-1.276
G1 X12.528 Y84.722
G2 X12.317 Y80.307 I-11.961 J-1.64
X11.596 Y78.586 I-7.139 J1.978
G3 X11.145 Y78.031 I16.349 J-13.737
G1 X11.135 Y78.009
X11.136 Y77.984
X11.149 Y77.963
X11.253 Y77.859
X11.274 Y77.847
X11.298 Y77.846
X11.32 Y77.856
G2 X12.254 Y78.516 I2.888 J-3.095
X15.552 Y79.315 I3.567 J-7.515
X18.045 Y79.23 I0.856 J-11.449
G1 X18.191 Y79.205
X18.334 Y79.165
X18.472 Y79.111
X18.604 Y79.044
X18.729 Y78.964
X18.845 Y78.873
X18.952 Y78.77
X19.048 Y78.657
X19.133 Y78.535
G2 X19.809 Y77.364 I-19.139 J-11.83
X19.871 Y76.073 I-1.321 J-0.711
G1 X19.857 Y76.04
G2 X17.496 Y72.352 I-11.218 J4.583
X15.997 Y71.2 I-5.276 J5.312
G3 X15.314 Y70.937 I24.026 J-63.417
G1 X15.294 Y70.924
X15.283 Y70.902
X15.284 Y70.878
X15.322 Y70.735
X15.334 Y70.714
X15.354 Y70.701
X15.378 Y70.699
G2 X16.523 Y70.803 I0.954 J-4.129
X19.872 Y69.797 I-0.7 J-8.399
X21.887 Y68.528 I-5.017 J-10.204
G1 X22.001 Y68.433
X22.105 Y68.327
X22.198 Y68.212
X22.279 Y68.088
X22.348 Y67.956
X22.403 Y67.818
X22.444 Y67.675
X22.471 Y67.529
X22.484 Y67.381
G2 X22.484 Y66.028 I-22.49 J-0.676
X21.892 Y64.879 I-1.499 J0.045
G1 X21.864 Y64.858
G2 X17.939 Y62.835 I-7.409 J9.554
X16.083 Y62.597 I-1.86 J7.168
G3 X15.378 Y62.71 I-3.08 J-16.973
G1 X15.354 Y62.708
X15.334 Y62.695
X15.322 Y62.674
X15.284 Y62.531
X15.283 Y62.507
X15.294 Y62.485
X15.314 Y62.471
G2 X16.358 Y61.99 I-1.232 J-4.04
