(1001)
(T3  D=3 CR=0 - ZMIN=-7.2 - flat end mill)
G90 G94
G17
G21

(2D Contour26)
T3
S1000 M3
G54
M8
G0 X0 Y-1.5
Z16
Z6
G1 Z2.5 F333.3
Z0.5
G2 X0 Y73 I0 J37.25 F1000
X0 Y-1.5 I0 J-37.25
G1 Z0 F333.3
G2 X0 Y73 I0 J37.25 F1000
X0 Y-1.5 I0 J-37.25
G1 Z-0.5 F333.3
G2 X0 Y73 I0 J37.25 F1000
X0 Y-1.5 I0 J-37.25
G1 Z-1 F333.3
G2 X0 Y73 I0 J37.25 F1000
X0 Y-1.5 I0 J-37.25
G1 Z-1.5 F333.3
G2 X0 Y73 I0 J37.25 F1000
X0 Y-1.5 I0 J-37.25
G1 Z-2 F333.3
G2 X0 Y73 I0 J37.25 F1000
X0 Y-1.5 I0 J-37.25
G1 Z-2.5 F333.3
G2 X0 Y73 I0 J37.25 F1000
X0 Y-1.5 I0 J-37.25
G1 Z-3 F333.3
G2 X0 Y73 I0 J37.25 F1000
X0 Y-1.5 I0 J-37.25
G1 Z-3.5 F333.3
G2 X0 Y73 I0 J37.25 F1000
X0 Y-1.5 I0 J-37.25
G1 Z-4 F333.3
G2 X0 Y73 I0 J37.25 F1000
X0 Y-1.5 I0 J-37.25
G1 Z-4.5 F333.3
G2 X0 Y73 I0 J37.25 F1000
X0 Y-1.5 I0 J-37.25
G1 Z-5 F333.3
G2 X0 Y73 I0 J37.25 F1000
X0 Y-1.5 I0 J-37.25
G1 Z-5.5 F333.3
G2 X0 Y73 I0 J37.25 F1000
X0 Y-1.5 I0 J-37.25
G1 Z-6 F333.3
G2 X0 Y73 I0 J37.25 F1000
X0 Y-1.5 I0 J-37.25
G1 Z-6.5 F333.3
G2 X0 Y73 I0 J37.25 F1000
X0 Y-1.5 I0 J-37.25
G1 Z-7 F333.3
G2 X0 Y73 I0 J37.25 F1000
X0 Y-1.5 I0 J-37.25
G1 Z-7.2 F333.3
G2 X0 Y73 I0 J37.25 F1000
X0 Y-1.5 I0 J-37.25
G0 Z16
M9
M5
M30
