(1001)
(T1  D=0.1 CR=0.1 - ZMIN=0 - bullnose end mill)
G90 G94
G17
G21

(2D Contour1)
T1
S1 M3
G54
M8
G0 X-1.326 Y-1.39
Z15
Z5
G1 Z0.01 F1000
Z0
Y-0.712
X-2.711
Y-2.068
X-1.326
Y-1.39
X-1.329 Y-1.383
X-1.336 Y-1.38
X-1.346
X-1.353 Z0.003
X-1.356 Z0.01
G0 Z5
X-3.553 Y-0.612
G1 Z0.01 F1000
Z0
X-2.811
Y0.628
X-4.173
Y-0.612
X-3.553
X-3.546 Y-0.609
X-3.543 Y-0.602
Y-0.592
Y-0.585 Z0.003
Y-0.582 Z0.01
G0 Z5
X-4.965 Y-0.712
G1 Z0.01 F1000
Z0
X-5.631
Y-2.045
X-4.273
Y-0.712
X-4.965
X-4.972 Y-0.715
X-4.975 Y-0.722
Y-0.732
Y-0.739 Z0.003
Y-0.742 Z0.01
G0 Z5
X-5.731 Y0.009
G1 Z0.01 F1000
Z0
Y0.613
X-6.939
Y-0.612
X-5.731
Y0.009
X-5.734 Y0.016
X-5.741 Y0.019
X-5.751
X-5.758 Z0.003
X-5.761 Z0.01
G0 Z5
X-4.954 Y0.728
G1 Z0.01 F1000
Z0
X-4.273
Y2.075
X-5.628
Y0.728
X-4.954
X-4.947 Y0.731
X-4.944 Y0.738
Y0.748
Y0.755 Z0.003
Y0.758 Z0.01
G0 Z5
X-7.039 Y1.382
G1 Z0.01 F1000
Z0
Y2.051
X-8.378
Y0.713
X-7.039
Y1.382
X-7.042 Y1.389
X-7.049 Y1.392
X-7.059
X-7.066 Z0.003
X-7.069 Z0.01
G0 Z5
X-19.314 Y3.464
G1 Z0.01 F1000
Z0
X-19.29 Y3.471
X22.076
X22.101 Y3.464
X22.119 Y3.446
X22.126 Y3.421
Y0.618
X22.119 Y0.593
X22.101 Y0.575
X22.076 Y0.568
X20.815
Y-0.601
X20.809 Y-0.626
X20.79 Y-0.644
X20.765 Y-0.651
X19.416
Y-2.083
X19.41 Y-2.108
X19.391 Y-2.127
X19.366 Y-2.133
X9.504
X9.479 Y-2.127
X9.461 Y-2.108
X9.454 Y-2.083
Y-0.651
X8.2
X8.175 Y-0.644
X8.157 Y-0.626
X8.15 Y-0.601
Y0.614
X5.542
Y-0.838
X5.536 Y-0.863
X5.517 Y-0.882
X5.492 Y-0.888
X4.297
Y-2.049
X4.291 Y-2.074
X4.272 Y-2.092
X4.247 Y-2.099
X2.834
Y-3.421
X2.827 Y-3.446
X2.809 Y-3.464
X2.784 Y-3.471
X-6.984
X-7.009 Y-3.464
X-7.027 Y-3.446
X-7.034 Y-3.421
Y-2.099
X-8.454
X-8.479 Y-2.092
X-8.497 Y-2.074
X-8.504 Y-2.049
Y-0.694
X-9.777
X-9.802 Y-0.687
X-9.82 Y-0.669
X-9.827 Y-0.644
Y0.612
X-11.198
X-11.223 Y0.619
X-11.241 Y0.637
X-11.248 Y0.662
Y1.984
X-19.2
Y0.662
X-19.207 Y0.637
X-19.225 Y0.619
X-19.25 Y0.612
X-22.076
X-22.101 Y0.619
X-22.119 Y0.637
X-22.126 Y0.662
Y2.034
X-22.119 Y2.059
X-22.101 Y2.078
X-22.076 Y2.084
X-19.34
Y3.421
X-19.333 Y3.446
X-19.314 Y3.464
X-19.31 Y3.471
X-19.311 Y3.478
X-19.315 Y3.487
X-19.319 Y3.493 Z0.003
X-19.32 Y3.496 Z0.01
G0 Z5
X10.953 Y1.375
G1 Z0.01 F1000
Z0
Y2.075
X9.598
Y0.698
X10.953
Y1.375
X10.95 Y1.383
X10.943 Y1.385
X10.933
X10.926 Z0.003
X10.923 Z0.01
G0 Z5
X11.658 Y-0.612
G1 Z0.01 F1000
Z0
X12.264
Y0.598
X11.053
Y-0.612
X11.658
X11.665 Y-0.609
X11.668 Y-0.602
Y-0.592
Y-0.585 Z0.003
Y-0.582 Z0.01
G0 Z5
X13.689 Y1.36
G1 Z0.01 F1000
Z0
Y2.023
X12.364
Y0.698
X13.689
Y1.36
X13.686 Y1.367
X13.679 Y1.37
X13.669
X13.662 Z0.003
X13.659 Z0.01
G0 Z5
X14.398 Y-0.621
G1 Z0.01 F1000
Z0
X15.031
Y0.598
X13.789
Y-0.621
X14.398
X14.405 Y-0.618
X14.408 Y-0.611
Y-0.601
Y-0.594 Z0.003
Y-0.591 Z0.01
G0 Z15
M9
M5
M30
