(1001)
(T2  D=0.02 CR=0 TAPER=5deg - ZMIN=-0.054 - chamfer mill)
G90 G94
G17
G21

(Engrave1)
T2
S5000 M3
G54
M8
G0 X22.066 Y3.411
Z15
G1 Z5 F1000
Z-0.054
Y0.628
X20.765
X20.759 Y0.625
X20.756 Y0.618
Y-0.591
X19.366
X19.359 Y-0.594
X19.356 Y-0.601
Y-2.074
X9.514
Y-0.601
X9.511 Y-0.594
X9.504 Y-0.591
X8.21
Y0.664
X8.207 Y0.671
X8.2 Y0.674
X5.492
X5.486 Y0.671
X5.483 Y0.664
Y-0.828
X4.247
X4.24 Y-0.831
X4.238 Y-0.838
Y-2.039
X2.784
X2.777 Y-2.042
X2.774 Y-2.049
Y-3.411
X-6.974
Y-2.049
X-6.977 Y-2.042
X-6.984 Y-2.039
X-8.444
Y-0.644
X-8.447 Y-0.637
X-8.454 Y-0.634
X-9.767
Y0.662
X-9.77 Y0.669
X-9.777 Y0.672
X-11.188
Y2.034
X-11.191 Y2.041
X-11.198 Y2.044
X-19.25
X-19.257 Y2.041
X-19.26 Y2.034
Y0.672
X-22.066
Y2.025
X-19.29
X-19.283 Y2.028
X-19.28 Y2.034
Y3.411
X22.066
Z5
X-4.233 Y0.669
Z-0.054
Y-0.652
X-5.672
Y0.663
X-5.673 Y0.669
X-4.233
Z5
X-5.673
Z-0.054
X-5.678 Y0.67 Z-0.036
X-5.679 Y0.671 Z-0.033
X-5.686 Y0.673 Z-0.054
X-5.687 Y0.678
Y2.125
X-5.684 Y2.132
X-5.678 Y2.135
X-4.223
X-4.216 Y2.132
X-4.213 Y2.125
Y0.688
X-2.761
X-2.754 Y0.685
X-2.751 Y0.678
Y-0.652
X-1.276
X-1.269 Y-0.655
X-1.266 Y-0.662
Y-2.118
X-1.269 Y-2.125
X-1.276 Y-2.128
X-2.761
X-2.767 Y-2.125
X-2.77 Y-2.118
Y-0.672
X-4.213
Y-2.095
X-4.216 Y-2.102
X-4.223 Y-2.105
X-5.681
X-5.688 Y-2.102
X-5.691 Y-2.095
Y-0.672
X-6.989
X-6.996 Y-0.669
X-6.999 Y-0.662
Y0.653
X-8.428
X-8.435 Y0.656
X-8.438 Y0.663
Y2.101
X-8.435 Y2.108
X-8.428 Y2.111
X-6.989
X-6.983 Y2.108
X-6.98 Y2.101
Y0.673
X-5.686
Z5
X9.538
Z-0.054
Y0.648
X9.541 Y0.641
X9.548 Y0.638
X10.993
Y-0.662
X10.996 Y-0.669
X11.003 Y-0.672
X12.314
X12.321 Y-0.669
X12.324 Y-0.662
Y0.638
X13.729
Y-0.671
X13.732 Y-0.678
X13.739 Y-0.681
X15.08
X15.087 Y-0.678
X15.09 Y-0.671
Y0.648
X15.087 Y0.655
X15.08 Y0.658
X13.749
Y2.073
X13.746 Y2.08
X13.739 Y2.082
X12.314
X12.307 Y2.08
X12.305 Y2.073
Y0.658
X11.012
Y2.125
X11.01 Y2.132
X11.003 Y2.135
X9.548
X9.541 Y2.132
X9.538 Y2.125
Y0.673
Z15
M9
M5
M30
