(1001)
(T3  D=3 CR=0 - ZMIN=-7.2 - flat end mill)
G90 G94
G17
G21

(2D Contour11)
T3
S1000 M3
G54
M8
G0 X9.75 Y53.25
Z15
Z5
G1 Z2.5 F333.3
Z-1.5
G3 X-9.75 Y53.25 I-9.75 J0 F400
X9.75 Y53.25 I9.75 J0
G1 Z-3 F333.3
G3 X-9.75 Y53.25 I-9.75 J0 F400
X9.75 Y53.25 I9.75 J0
G1 Z-4.5 F333.3
G3 X-9.75 Y53.25 I-9.75 J0 F400
X9.75 Y53.25 I9.75 J0
G1 Z-6 F333.3
G3 X-9.75 Y53.25 I-9.75 J0 F400
X9.75 Y53.25 I9.75 J0
G1 Z-7.2 F333.3
G3 X-9.75 Y53.25 I-9.75 J0 F400
X9.75 Y53.25 I9.75 J0
G0 Z5
X27.25 Y35.75
G1 Z2.5 F333.3
Z-1.5
G3 X7.75 Y35.75 I-9.75 J0 F400
X27.25 Y35.75 I9.75 J0
G1 Z-3 F333.3
G3 X7.75 Y35.75 I-9.75 J0 F400
X27.25 Y35.75 I9.75 J0
G1 Z-4.5 F333.3
G3 X7.75 Y35.75 I-9.75 J0 F400
X27.25 Y35.75 I9.75 J0
G1 Z-6 F333.3
G3 X7.75 Y35.75 I-9.75 J0 F400
X27.25 Y35.75 I9.75 J0
G1 Z-7.2 F333.3
G3 X7.75 Y35.75 I-9.75 J0 F400
X27.25 Y35.75 I9.75 J0
G0 Z5
X9.75 Y18.25
G1 Z2.5 F333.3
Z-1.5
G3 X-9.75 Y18.25 I-9.75 J0 F400
X9.75 Y18.25 I9.75 J0
G1 Z-3 F333.3
G3 X-9.75 Y18.25 I-9.75 J0 F400
X9.75 Y18.25 I9.75 J0
G1 Z-4.5 F333.3
G3 X-9.75 Y18.25 I-9.75 J0 F400
X9.75 Y18.25 I9.75 J0
G1 Z-6 F333.3
G3 X-9.75 Y18.25 I-9.75 J0 F400
X9.75 Y18.25 I9.75 J0
G1 Z-7.2 F333.3
G3 X-9.75 Y18.25 I-9.75 J0 F400
X9.75 Y18.25 I9.75 J0
G0 Z5
X-7.75 Y35.75
G1 Z2.5 F333.3
Z-1.5
G3 X-27.25 Y35.75 I-9.75 J0 F400
X-7.75 Y35.75 I9.75 J0
G1 Z-3 F333.3
G3 X-27.25 Y35.75 I-9.75 J0 F400
X-7.75 Y35.75 I9.75 J0
G1 Z-4.5 F333.3
G3 X-27.25 Y35.75 I-9.75 J0 F400
X-7.75 Y35.75 I9.75 J0
G1 Z-6 F333.3
G3 X-27.25 Y35.75 I-9.75 J0 F400
X-7.75 Y35.75 I9.75 J0
G1 Z-7.2 F333.3
G3 X-27.25 Y35.75 I-9.75 J0 F400
X-7.75 Y35.75 I9.75 J0
G0 Z15

(2D Contour12)
X0.3 Y-2.4
Z15
Z5
G1 Z2.5 F333.3
Z-1.2
G19 G3 Y-2.1 Z-1.5 J0.3 K0 F400
G1 Y-1.8
G17 G3 X0 Y-1.5 I-0.3 J0
G2 X0 Y73 I0 J37.25
X0 Y-1.5 I0 J-37.25
G3 X-0.3 Y-1.8 I0 J-0.3
G1 Y-2.1
G19 G2 Y-2.4 Z-1.2 J0 K0.3
G0 Z5
X0.3
G1 Z1 F333.3
Z-2.7
G3 Y-2.1 Z-3 J0.3 K0 F400
G1 Y-1.8
G17 G3 X0 Y-1.5 I-0.3 J0
G2 X0 Y73 I0 J37.25
X0 Y-1.5 I0 J-37.25
G3 X-0.3 Y-1.8 I0 J-0.3
G1 Y-2.1
G19 G2 Y-2.4 Z-2.7 J0 K0.3
G0 Z5
X0.3
G1 Z-0.5 F333.3
Z-4.2
G3 Y-2.1 Z-4.5 J0.3 K0 F400
G1 Y-1.8
G17 G3 X0 Y-1.5 I-0.3 J0
G2 X0 Y73 I0 J37.25
X0 Y-1.5 I0 J-37.25
G3 X-0.3 Y-1.8 I0 J-0.3
G1 Y-2.1
G19 G2 Y-2.4 Z-4.2 J0 K0.3
G0 Z5
X0.3
G1 Z-2 F333.3
Z-5.7
G3 Y-2.1 Z-6 J0.3 K0 F400
G1 Y-1.8
G17 G3 X0 Y-1.5 I-0.3 J0
G2 X0 Y73 I0 J37.25
X0 Y-1.5 I0 J-37.25
G3 X-0.3 Y-1.8 I0 J-0.3
G1 Y-2.1
G19 G2 Y-2.4 Z-5.7 J0 K0.3
G0 Z5
X0.3
G1 Z-3.5 F333.3
Z-6.9
G3 Y-2.1 Z-7.2 J0.3 K0 F400
G1 Y-1.8
G17 G3 X0 Y-1.5 I-0.3 J0
G2 X0 Y73 I0 J37.25
X0 Y-1.5 I0 J-37.25
G3 X-0.3 Y-1.8 I0 J-0.3
G1 Y-2.1
G19 G2 Y-2.4 Z-6.9 J0 K0.3
G0 Z15
G17
M9
M5
M30
