(1001)
(T3  D=3 CR=0 - ZMIN=-7.2 - flat end mill)
G90 G94
G17
G21

(2D Contour13)
T3
S1000 M3
G54
M8
G0 X27.25 Y35.75
Z15
Z5
G1 Z1.5 F333.3
Z-0.5
G3 X11.25 Y35.75 I-8 J0 F400
X27.25 Y35.75 I8 J0
X11.25 Y35.75 I-8 J0
X27.25 Y35.75 I8 J0
G1 Z-1 F333.3
G3 X11.25 Y35.75 I-8 J0 F400
X27.25 Y35.75 I8 J0
X11.25 Y35.75 I-8 J0
X27.25 Y35.75 I8 J0
G1 Z-1.5 F333.3
G3 X11.25 Y35.75 I-8 J0 F400
X27.25 Y35.75 I8 J0
X11.25 Y35.75 I-8 J0
X27.25 Y35.75 I8 J0
G1 Z-2 F333.3
G3 X11.25 Y35.75 I-8 J0 F400
X27.25 Y35.75 I8 J0
X11.25 Y35.75 I-8 J0
X27.25 Y35.75 I8 J0
G1 Z-2.5 F333.3
G3 X11.25 Y35.75 I-8 J0 F400
X27.25 Y35.75 I8 J0
X11.25 Y35.75 I-8 J0
X27.25 Y35.75 I8 J0
G1 Z-3 F333.3
G3 X11.25 Y35.75 I-8 J0 F400
X27.25 Y35.75 I8 J0
X11.25 Y35.75 I-8 J0
X27.25 Y35.75 I8 J0
G1 Z-3.5 F333.3
G3 X11.25 Y35.75 I-8 J0 F400
X27.25 Y35.75 I8 J0
X11.25 Y35.75 I-8 J0
X27.25 Y35.75 I8 J0
G1 Z-4 F333.3
G3 X11.25 Y35.75 I-8 J0 F400
X27.25 Y35.75 I8 J0
X11.25 Y35.75 I-8 J0
X27.25 Y35.75 I8 J0
G1 Z-4.5 F333.3
G3 X11.25 Y35.75 I-8 J0 F400
X27.25 Y35.75 I8 J0
X11.25 Y35.75 I-8 J0
X27.25 Y35.75 I8 J0
G1 Z-5 F333.3
G3 X11.25 Y35.75 I-8 J0 F400
X27.25 Y35.75 I8 J0
X11.25 Y35.75 I-8 J0
X27.25 Y35.75 I8 J0
G1 Z-5.5 F333.3
G3 X11.25 Y35.75 I-8 J0 F400
X27.25 Y35.75 I8 J0
X11.25 Y35.75 I-8 J0
X27.25 Y35.75 I8 J0
G1 Z-6 F333.3
G3 X11.25 Y35.75 I-8 J0 F400
X27.25 Y35.75 I8 J0
X11.25 Y35.75 I-8 J0
X27.25 Y35.75 I8 J0
G1 Z-6.5 F333.3
G3 X11.25 Y35.75 I-8 J0 F400
X27.25 Y35.75 I8 J0
X11.25 Y35.75 I-8 J0
X27.25 Y35.75 I8 J0
G1 Z-7 F333.3
G3 X11.25 Y35.75 I-8 J0 F400
X27.25 Y35.75 I8 J0
X11.25 Y35.75 I-8 J0
X27.25 Y35.75 I8 J0
G1 Z-7.2 F333.3
G3 X11.25 Y35.75 I-8 J0 F400
X27.25 Y35.75 I8 J0
X11.25 Y35.75 I-8 J0
X27.25 Y35.75 I8 J0
G0 Z5
X13.557 Y51.586
G1 Z1.5 F333.3
Z-0.5
G3 X-1.66 Y56.53 I-7.608 J2.472 F400
X13.557 Y51.586 I7.608 J-2.472
X-1.66 Y56.53 I-7.608 J2.472
X13.557 Y51.586 I7.608 J-2.472
G1 Z-1 F333.3
G3 X-1.66 Y56.53 I-7.608 J2.472 F400
X13.557 Y51.586 I7.608 J-2.472
X-1.66 Y56.53 I-7.608 J2.472
X13.557 Y51.586 I7.608 J-2.472
G1 Z-1.5 F333.3
G3 X-1.66 Y56.53 I-7.608 J2.472 F400
X13.557 Y51.586 I7.608 J-2.472
X-1.66 Y56.53 I-7.608 J2.472
X13.557 Y51.586 I7.608 J-2.472
G1 Z-2 F333.3
G3 X-1.66 Y56.53 I-7.608 J2.472 F400
X13.557 Y51.586 I7.608 J-2.472
X-1.66 Y56.53 I-7.608 J2.472
X13.557 Y51.586 I7.608 J-2.472
G1 Z-2.5 F333.3
G3 X-1.66 Y56.53 I-7.608 J2.472 F400
X13.557 Y51.586 I7.608 J-2.472
X-1.66 Y56.53 I-7.608 J2.472
X13.557 Y51.586 I7.608 J-2.472
G1 Z-3 F333.3
G3 X-1.66 Y56.53 I-7.608 J2.472 F400
X13.557 Y51.586 I7.608 J-2.472
X-1.66 Y56.53 I-7.608 J2.472
X13.557 Y51.586 I7.608 J-2.472
G1 Z-3.5 F333.3
G3 X-1.66 Y56.53 I-7.608 J2.472 F400
X13.557 Y51.586 I7.608 J-2.472
X-1.66 Y56.53 I-7.608 J2.472
X13.557 Y51.586 I7.608 J-2.472
G1 Z-4 F333.3
G3 X-1.66 Y56.53 I-7.608 J2.472 F400
X13.557 Y51.586 I7.608 J-2.472
X-1.66 Y56.53 I-7.608 J2.472
X13.557 Y51.586 I7.608 J-2.472
G1 Z-4.5 F333.3
G3 X-1.66 Y56.53 I-7.608 J2.472 F400
X13.557 Y51.586 I7.608 J-2.472
X-1.66 Y56.53 I-7.608 J2.472
X13.557 Y51.586 I7.608 J-2.472
G1 Z-5 F333.3
G3 X-1.66 Y56.53 I-7.608 J2.472 F400
X13.557 Y51.586 I7.608 J-2.472
X-1.66 Y56.53 I-7.608 J2.472
X13.557 Y51.586 I7.608 J-2.472
G1 Z-5.5 F333.3
G3 X-1.66 Y56.53 I-7.608 J2.472 F400
X13.557 Y51.586 I7.608 J-2.472
X-1.66 Y56.53 I-7.608 J2.472
X13.557 Y51.586 I7.608 J-2.472
G1 Z-6 F333.3
G3 X-1.66 Y56.53 I-7.608 J2.472 F400
X13.557 Y51.586 I7.608 J-2.472
X-1.66 Y56.53 I-7.608 J2.472
X13.557 Y51.586 I7.608 J-2.472
G1 Z-6.5 F333.3
G3 X-1.66 Y56.53 I-7.608 J2.472 F400
X13.557 Y51.586 I7.608 J-2.472
X-1.66 Y56.53 I-7.608 J2.472
X13.557 Y51.586 I7.608 J-2.472
G1 Z-7 F333.3
G3 X-1.66 Y56.53 I-7.608 J2.472 F400
X13.557 Y51.586 I7.608 J-2.472
X-1.66 Y56.53 I-7.608 J2.472
X13.557 Y51.586 I7.608 J-2.472
G1 Z-7.2 F333.3
G3 X-1.66 Y56.53 I-7.608 J2.472 F400
X13.557 Y51.586 I7.608 J-2.472
X-1.66 Y56.53 I-7.608 J2.472
X13.557 Y51.586 I7.608 J-2.472
G0 Z5
X-9.101 Y42.363
G1 Z1.5 F333.3
Z-0.5
G3 X-22.046 Y51.767 I-6.472 J4.702 F400
X-9.101 Y42.363 I6.472 J-4.702
X-22.046 Y51.767 I-6.472 J4.702
X-9.101 Y42.363 I6.472 J-4.702
G1 Z-1 F333.3
G3 X-22.046 Y51.767 I-6.472 J4.702 F400
X-9.101 Y42.363 I6.472 J-4.702
X-22.046 Y51.767 I-6.472 J4.702
X-9.101 Y42.363 I6.472 J-4.702
G1 Z-1.5 F333.3
G3 X-22.046 Y51.767 I-6.472 J4.702 F400
X-9.101 Y42.363 I6.472 J-4.702
X-22.046 Y51.767 I-6.472 J4.702
X-9.101 Y42.363 I6.472 J-4.702
G1 Z-2 F333.3
G3 X-22.046 Y51.767 I-6.472 J4.702 F400
X-9.101 Y42.363 I6.472 J-4.702
X-22.046 Y51.767 I-6.472 J4.702
X-9.101 Y42.363 I6.472 J-4.702
G1 Z-2.5 F333.3
G3 X-22.046 Y51.767 I-6.472 J4.702 F400
X-9.101 Y42.363 I6.472 J-4.702
X-22.046 Y51.767 I-6.472 J4.702
X-9.101 Y42.363 I6.472 J-4.702
G1 Z-3 F333.3
G3 X-22.046 Y51.767 I-6.472 J4.702 F400
X-9.101 Y42.363 I6.472 J-4.702
X-22.046 Y51.767 I-6.472 J4.702
X-9.101 Y42.363 I6.472 J-4.702
G1 Z-3.5 F333.3
G3 X-22.046 Y51.767 I-6.472 J4.702 F400
X-9.101 Y42.363 I6.472 J-4.702
X-22.046 Y51.767 I-6.472 J4.702
X-9.101 Y42.363 I6.472 J-4.702
G1 Z-4 F333.3
G3 X-22.046 Y51.767 I-6.472 J4.702 F400
X-9.101 Y42.363 I6.472 J-4.702
X-22.046 Y51.767 I-6.472 J4.702
X-9.101 Y42.363 I6.472 J-4.702
G1 Z-4.5 F333.3
G3 X-22.046 Y51.767 I-6.472 J4.702 F400
X-9.101 Y42.363 I6.472 J-4.702
X-22.046 Y51.767 I-6.472 J4.702
X-9.101 Y42.363 I6.472 J-4.702
G1 Z-5 F333.3
G3 X-22.046 Y51.767 I-6.472 J4.702 F400
X-9.101 Y42.363 I6.472 J-4.702
X-22.046 Y51.767 I-6.472 J4.702
X-9.101 Y42.363 I6.472 J-4.702
G1 Z-5.5 F333.3
G3 X-22.046 Y51.767 I-6.472 J4.702 F400
X-9.101 Y42.363 I6.472 J-4.702
X-22.046 Y51.767 I-6.472 J4.702
X-9.101 Y42.363 I6.472 J-4.702
G1 Z-6 F333.3
G3 X-22.046 Y51.767 I-6.472 J4.702 F400
X-9.101 Y42.363 I6.472 J-4.702
X-22.046 Y51.767 I-6.472 J4.702
X-9.101 Y42.363 I6.472 J-4.702
G1 Z-6.5 F333.3
G3 X-22.046 Y51.767 I-6.472 J4.702 F400
X-9.101 Y42.363 I6.472 J-4.702
X-22.046 Y51.767 I-6.472 J4.702
X-9.101 Y42.363 I6.472 J-4.702
G1 Z-7 F333.3
G3 X-22.046 Y51.767 I-6.472 J4.702 F400
X-9.101 Y42.363 I6.472 J-4.702
X-22.046 Y51.767 I-6.472 J4.702
X-9.101 Y42.363 I6.472 J-4.702
G1 Z-7.2 F333.3
G3 X-22.046 Y51.767 I-6.472 J4.702 F400
X-9.101 Y42.363 I6.472 J-4.702
X-22.046 Y51.767 I-6.472 J4.702
X-9.101 Y42.363 I6.472 J-4.702
G0 Z5
X-7.574 Y24.434
G1 Z1.5 F333.3
Z-0.5
G3 X-23.573 Y24.436 I-8 J0.001 F400
X-7.574 Y24.434 I8 J-0.001
X-23.573 Y24.436 I-8 J0.001
X-7.574 Y24.434 I8 J-0.001
G1 Z-1 F333.3
G3 X-23.573 Y24.436 I-8 J0.001 F400
X-7.574 Y24.434 I8 J-0.001
X-23.573 Y24.436 I-8 J0.001
X-7.574 Y24.434 I8 J-0.001
G1 Z-1.5 F333.3
G3 X-23.573 Y24.436 I-8 J0.001 F400
X-7.574 Y24.434 I8 J-0.001
X-23.573 Y24.436 I-8 J0.001
X-7.574 Y24.434 I8 J-0.001
G1 Z-2 F333.3
G3 X-23.573 Y24.436 I-8 J0.001 F400
X-7.574 Y24.434 I8 J-0.001
X-23.573 Y24.436 I-8 J0.001
X-7.574 Y24.434 I8 J-0.001
G1 Z-2.5 F333.3
G3 X-23.573 Y24.436 I-8 J0.001 F400
X-7.574 Y24.434 I8 J-0.001
X-23.573 Y24.436 I-8 J0.001
X-7.574 Y24.434 I8 J-0.001
G1 Z-3 F333.3
G3 X-23.573 Y24.436 I-8 J0.001 F400
X-7.574 Y24.434 I8 J-0.001
X-23.573 Y24.436 I-8 J0.001
X-7.574 Y24.434 I8 J-0.001
G1 Z-3.5 F333.3
G3 X-23.573 Y24.436 I-8 J0.001 F400
X-7.574 Y24.434 I8 J-0.001
X-23.573 Y24.436 I-8 J0.001
X-7.574 Y24.434 I8 J-0.001
G1 Z-4 F333.3
G3 X-23.573 Y24.436 I-8 J0.001 F400
X-7.574 Y24.434 I8 J-0.001
X-23.573 Y24.436 I-8 J0.001
X-7.574 Y24.434 I8 J-0.001
G1 Z-4.5 F333.3
G3 X-23.573 Y24.436 I-8 J0.001 F400
X-7.574 Y24.434 I8 J-0.001
X-23.573 Y24.436 I-8 J0.001
X-7.574 Y24.434 I8 J-0.001
G1 Z-5 F333.3
G3 X-23.573 Y24.436 I-8 J0.001 F400
X-7.574 Y24.434 I8 J-0.001
X-23.573 Y24.436 I-8 J0.001
X-7.574 Y24.434 I8 J-0.001
G1 Z-5.5 F333.3
G3 X-23.573 Y24.436 I-8 J0.001 F400
X-7.574 Y24.434 I8 J-0.001
X-23.573 Y24.436 I-8 J0.001
X-7.574 Y24.434 I8 J-0.001
G1 Z-6 F333.3
G3 X-23.573 Y24.436 I-8 J0.001 F400
X-7.574 Y24.434 I8 J-0.001
X-23.573 Y24.436 I-8 J0.001
X-7.574 Y24.434 I8 J-0.001
G1 Z-6.5 F333.3
G3 X-23.573 Y24.436 I-8 J0.001 F400
X-7.574 Y24.434 I8 J-0.001
X-23.573 Y24.436 I-8 J0.001
X-7.574 Y24.434 I8 J-0.001
G1 Z-7 F333.3
G3 X-23.573 Y24.436 I-8 J0.001 F400
X-7.574 Y24.434 I8 J-0.001
X-23.573 Y24.436 I-8 J0.001
X-7.574 Y24.434 I8 J-0.001
G1 Z-7.2 F333.3
G3 X-23.573 Y24.436 I-8 J0.001 F400
X-7.574 Y24.434 I8 J-0.001
X-23.573 Y24.436 I-8 J0.001
X-7.574 Y24.434 I8 J-0.001
G0 Z5
X13.949 Y17.442
G1 Z1.5 F333.3
Z-0.5
G3 X-2.051 Y17.442 I-8 J0 F400
X13.949 Y17.442 I8 J0
X-2.051 Y17.442 I-8 J0
X13.949 Y17.442 I8 J0
G1 Z-1 F333.3
G3 X-2.051 Y17.442 I-8 J0 F400
X13.949 Y17.442 I8 J0
X-2.051 Y17.442 I-8 J0
X13.949 Y17.442 I8 J0
G1 Z-1.5 F333.3
G3 X-2.051 Y17.442 I-8 J0 F400
X13.949 Y17.442 I8 J0
X-2.051 Y17.442 I-8 J0
X13.949 Y17.442 I8 J0
G1 Z-2 F333.3
G3 X-2.051 Y17.442 I-8 J0 F400
X13.949 Y17.442 I8 J0
X-2.051 Y17.442 I-8 J0
X13.949 Y17.442 I8 J0
G1 Z-2.5 F333.3
G3 X-2.051 Y17.442 I-8 J0 F400
X13.949 Y17.442 I8 J0
X-2.051 Y17.442 I-8 J0
X13.949 Y17.442 I8 J0
G1 Z-3 F333.3
G3 X-2.051 Y17.442 I-8 J0 F400
X13.949 Y17.442 I8 J0
X-2.051 Y17.442 I-8 J0
X13.949 Y17.442 I8 J0
G1 Z-3.5 F333.3
G3 X-2.051 Y17.442 I-8 J0 F400
X13.949 Y17.442 I8 J0
X-2.051 Y17.442 I-8 J0
X13.949 Y17.442 I8 J0
G1 Z-4 F333.3
G3 X-2.051 Y17.442 I-8 J0 F400
X13.949 Y17.442 I8 J0
X-2.051 Y17.442 I-8 J0
X13.949 Y17.442 I8 J0
G1 Z-4.5 F333.3
G3 X-2.051 Y17.442 I-8 J0 F400
X13.949 Y17.442 I8 J0
X-2.051 Y17.442 I-8 J0
X13.949 Y17.442 I8 J0
G1 Z-5 F333.3
G3 X-2.051 Y17.442 I-8 J0 F400
X13.949 Y17.442 I8 J0
X-2.051 Y17.442 I-8 J0
X13.949 Y17.442 I8 J0
G1 Z-5.5 F333.3
G3 X-2.051 Y17.442 I-8 J0 F400
X13.949 Y17.442 I8 J0
X-2.051 Y17.442 I-8 J0
X13.949 Y17.442 I8 J0
G1 Z-6 F333.3
G3 X-2.051 Y17.442 I-8 J0 F400
X13.949 Y17.442 I8 J0
X-2.051 Y17.442 I-8 J0
X13.949 Y17.442 I8 J0
G1 Z-6.5 F333.3
G3 X-2.051 Y17.442 I-8 J0 F400
X13.949 Y17.442 I8 J0
X-2.051 Y17.442 I-8 J0
X13.949 Y17.442 I8 J0
G1 Z-7 F333.3
G3 X-2.051 Y17.442 I-8 J0 F400
X13.949 Y17.442 I8 J0
X-2.051 Y17.442 I-8 J0
X13.949 Y17.442 I8 J0
G1 Z-7.2 F333.3
G3 X-2.051 Y17.442 I-8 J0 F400
X13.949 Y17.442 I8 J0
X-2.051 Y17.442 I-8 J0
X13.949 Y17.442 I8 J0
G0 Z15

(2D Contour14)
X0.3 Y-2.4
Z15
Z5
G1 Z2.5 F333.3
Z-1.2
G19 G3 Y-2.1 Z-1.5 J0.3 K0 F400
G1 Y-1.8
G17 G3 X0 Y-1.5 I-0.3 J0
G2 X0 Y73 I0 J37.25
X0 Y-1.5 I0 J-37.25
G3 X-0.3 Y-1.8 I0 J-0.3
G1 Y-2.1
G19 G2 Y-2.4 Z-1.2 J0 K0.3
G0 Z5
X0.3
G1 Z1 F333.3
Z-2.7
G3 Y-2.1 Z-3 J0.3 K0 F400
G1 Y-1.8
G17 G3 X0 Y-1.5 I-0.3 J0
G2 X0 Y73 I0 J37.25
X0 Y-1.5 I0 J-37.25
G3 X-0.3 Y-1.8 I0 J-0.3
G1 Y-2.1
G19 G2 Y-2.4 Z-2.7 J0 K0.3
G0 Z5
X0.3
G1 Z-0.5 F333.3
Z-4.2
G3 Y-2.1 Z-4.5 J0.3 K0 F400
G1 Y-1.8
G17 G3 X0 Y-1.5 I-0.3 J0
G2 X0 Y73 I0 J37.25
X0 Y-1.5 I0 J-37.25
G3 X-0.3 Y-1.8 I0 J-0.3
G1 Y-2.1
G19 G2 Y-2.4 Z-4.2 J0 K0.3
G0 Z5
X0.3
G1 Z-2 F333.3
Z-5.7
G3 Y-2.1 Z-6 J0.3 K0 F400
G1 Y-1.8
G17 G3 X0 Y-1.5 I-0.3 J0
G2 X0 Y73 I0 J37.25
X0 Y-1.5 I0 J-37.25
G3 X-0.3 Y-1.8 I0 J-0.3
G1 Y-2.1
G19 G2 Y-2.4 Z-5.7 J0 K0.3
G0 Z5
X0.3
G1 Z-3.5 F333.3
Z-6.9
G3 Y-2.1 Z-7.2 J0.3 K0 F400
G1 Y-1.8
G17 G3 X0 Y-1.5 I-0.3 J0
G2 X0 Y73 I0 J37.25
X0 Y-1.5 I0 J-37.25
G3 X-0.3 Y-1.8 I0 J-0.3
G1 Y-2.1
G19 G2 Y-2.4 Z-6.9 J0 K0.3
G0 Z15
G17
M9
M5
M30
