(1001)
(T3  D=3 CR=0 - ZMIN=-7.2 - flat end mill)
G90 G94
G17
G21

(2D Pocket9)
T3
S1000 M3
G54
M8
G0 X4.068 Y35.451
Z15
Z5
G1 Z2.5 F400
G3 X1.282 Y36.049 Z1.711 I-1.393 J0.299 F333.3
X4.068 Y35.451 Z0.921 I1.393 J-0.299
X1.282 Y36.049 Z0.132 I-1.393 J0.299
X4.068 Y35.451 Z-0.658 I1.393 J-0.299
X2.825 Y37.167 Z-1.079 I-1.393 J0.299
X1.25 Y35.75 Z-1.5 I-0.15 J-1.417
X1.6 Y35.75 I0.175 J0 F400
X-1.6 Y35.75 I-1.6 J0
X4.45 Y35.75 I3.025 J0
X-4.45 Y35.75 I-4.45 J0
X7.3 Y35.75 I5.875 J0
X-7.3 Y35.75 I-7.3 J0
X10.15 Y35.75 I8.725 J0
X-10.15 Y35.75 I-10.15 J0
X13 Y35.75 I11.575 J0
X-13 Y35.75 I-13 J0
X15.85 Y35.75 I14.425 J0
X-15.85 Y35.75 I-15.85 J0
X18.7 Y35.75 I17.275 J0
X-18.7 Y35.75 I-18.7 J0
X21.55 Y35.75 I20.125 J0
X-21.55 Y35.75 I-21.55 J0
X24.4 Y35.75 I22.975 J0
X-24.4 Y35.75 I-24.4 J0
X27.25 Y35.75 I25.825 J0
X-27.25 Y35.75 I-27.25 J0
X27.25 Y35.75 I27.25 J0
X25.701 Y37.21 I-1.462 J0
G1 X14.388 Y36.538
G2 X14.124 Y36.546 I-0.087 J1.46
G1 X14.034 Y36.554
X2.797 Y37.221
G3 X1.319 Y35.311 I-0.087 J-1.46
X4.031 Y36.189 Z-2.289 I1.356 J0.439 F333.3
X1.25 Y35.75 Z-3 I-1.356 J-0.439
X1.6 Y35.75 I0.175 J0 F400
X-1.6 Y35.75 I-1.6 J0
X4.45 Y35.75 I3.025 J0
X-4.45 Y35.75 I-4.45 J0
X7.3 Y35.75 I5.875 J0
X-7.3 Y35.75 I-7.3 J0
X10.15 Y35.75 I8.725 J0
X-10.15 Y35.75 I-10.15 J0
X13 Y35.75 I11.575 J0
X-13 Y35.75 I-13 J0
X15.85 Y35.75 I14.425 J0
X-15.85 Y35.75 I-15.85 J0
X18.7 Y35.75 I17.275 J0
X-18.7 Y35.75 I-18.7 J0
X21.55 Y35.75 I20.125 J0
X-21.55 Y35.75 I-21.55 J0
X24.4 Y35.75 I22.975 J0
X-24.4 Y35.75 I-24.4 J0
X27.25 Y35.75 I25.825 J0
X-27.25 Y35.75 I-27.25 J0
X27.25 Y35.75 I27.25 J0
X25.447 Y37.172 I-1.462 J0
G1 X6.244 Y32.57
X6.15 Y32.544
G2 X4.258 Y33.831 I-0.434 J1.397
G1 X4.106 Y35.835
G3 X3.714 Y36.725 I-1.458 J-0.11
X1.25 Y35.75 Z-3.6 I-1.039 J-0.975 F333.3
X1.6 Y35.75 I0.175 J0 F400
X-1.6 Y35.75 I-1.6 J0
X4.45 Y35.75 I3.025 J0
X-4.45 Y35.75 I-4.45 J0
X7.3 Y35.75 I5.875 J0
X-7.3 Y35.75 I-7.3 J0
X10.15 Y35.75 I8.725 J0
X-10.15 Y35.75 I-10.15 J0
X13 Y35.75 I11.575 J0
X-13 Y35.75 I-13 J0
X15.85 Y35.75 I14.425 J0
X-15.85 Y35.75 I-15.85 J0
X18.7 Y35.75 I17.275 J0
X-18.7 Y35.75 I-18.7 J0
X21.55 Y35.75 I20.125 J0
X-21.55 Y35.75 I-21.55 J0
X24.4 Y35.75 I22.975 J0
X-24.4 Y35.75 I-24.4 J0
X27.25 Y35.75 I25.825 J0
X-27.25 Y35.75 I-27.25 J0
X27.25 Y35.75 I27.25 J0
G0 Z15
X-20.018 Y36.049
Z5
G1 Z2.5 F400
G3 X-17.232 Y35.451 Z1.711 I1.393 J-0.299 F333.3
X-20.018 Y36.049 Z0.921 I-1.393 J0.299
X-17.232 Y35.451 Z0.132 I1.393 J-0.299
X-20.018 Y36.049 Z-0.658 I-1.393 J0.299
X-18.775 Y34.333 Z-1.079 I1.393 J-0.299
X-17.2 Y35.75 Z-1.5 I0.15 J1.417
X-18.7 Y35.75 I-0.75 J0 F400
X-14.35 Y35.75 I2.175 J0
X-21.55 Y35.75 I-3.6 J0
X-11.5 Y35.75 I5.025 J0
X-24.4 Y35.75 I-6.45 J0
X-8.65 Y35.75 I7.875 J0
X-27.25 Y35.75 I-9.3 J0
X-8.65 Y35.75 I9.3 J0
X-10.788 Y36.984 Z-1.911 I-1.425 J0 F333.3
G1 X-15.063 Y34.516 Z-2.589
G2 X-17.2 Y35.75 Z-3 I-0.712 J1.234
G3 X-18.7 Y35.75 I-0.75 J0 F400
X-14.35 Y35.75 I2.175 J0
X-21.55 Y35.75 I-3.6 J0
X-11.5 Y35.75 I5.025 J0
X-24.4 Y35.75 I-6.45 J0
X-8.65 Y35.75 I7.875 J0
X-27.25 Y35.75 I-9.3 J0
X-8.65 Y35.75 I9.3 J0
X-10.788 Y36.984 Z-3.411 I-1.425 J0 F333.3
G1 X-15.063 Y34.516 Z-4.089
G2 X-17.2 Y35.75 Z-4.5 I-0.712 J1.234
G3 X-18.7 Y35.75 I-0.75 J0 F400
X-14.35 Y35.75 I2.175 J0
X-21.55 Y35.75 I-3.6 J0
X-11.5 Y35.75 I5.025 J0
X-24.4 Y35.75 I-6.45 J0
X-8.65 Y35.75 I7.875 J0
X-27.25 Y35.75 I-9.3 J0
X-8.65 Y35.75 I9.3 J0
X-10.788 Y36.984 Z-4.911 I-1.425 J0 F333.3
G1 X-15.063 Y34.516 Z-5.589
G2 X-17.2 Y35.75 Z-6 I-0.712 J1.234
G3 X-18.7 Y35.75 I-0.75 J0 F400
X-14.35 Y35.75 I2.175 J0
X-21.55 Y35.75 I-3.6 J0
X-11.5 Y35.75 I5.025 J0
X-24.4 Y35.75 I-6.45 J0
X-8.65 Y35.75 I7.875 J0
X-27.25 Y35.75 I-9.3 J0
X-8.65 Y35.75 I9.3 J0
X-10.788 Y36.984 Z-6.328 I-1.425 J0 F333.3
G1 X-15.063 Y34.516 Z-6.872
G2 X-17.2 Y35.75 Z-7.2 I-0.712 J1.234
G3 X-18.7 Y35.75 I-0.75 J0 F400
X-14.35 Y35.75 I2.175 J0
X-21.55 Y35.75 I-3.6 J0
X-11.5 Y35.75 I5.025 J0
X-24.4 Y35.75 I-6.45 J0
X-8.65 Y35.75 I7.875 J0
X-27.25 Y35.75 I-9.3 J0
X-8.65 Y35.75 I9.3 J0
G0 Z5
X-2.068 Y18.099
G1 Z2.5 F400
G3 X0.718 Y17.501 Z1.711 I1.393 J-0.299 F333.3
X-2.068 Y18.099 Z0.921 I-1.393 J0.299
X0.718 Y17.501 Z0.132 I1.393 J-0.299
X-2.068 Y18.099 Z-0.658 I-1.393 J0.299
X-0.825 Y16.383 Z-1.079 I1.393 J-0.299
X0.75 Y17.8 Z-1.5 I0.15 J1.417
X-0.75 Y17.8 I-0.75 J0 F400
X3.6 Y17.8 I2.175 J0
X-3.6 Y17.8 I-3.6 J0
X6.45 Y17.8 I5.025 J0
X-6.45 Y17.8 I-6.45 J0
X9.3 Y17.8 I7.875 J0
X-9.3 Y17.8 I-9.3 J0
X9.3 Y17.8 I9.3 J0
X7.162 Y19.034 Z-1.911 I-1.425 J0 F333.3
G1 X2.888 Y16.566 Z-2.589
G2 X0.75 Y17.8 Z-3 I-0.713 J1.234
G3 X-0.75 Y17.8 I-0.75 J0 F400
X3.6 Y17.8 I2.175 J0
X-3.6 Y17.8 I-3.6 J0
X6.45 Y17.8 I5.025 J0
X-6.45 Y17.8 I-6.45 J0
X9.3 Y17.8 I7.875 J0
X-9.3 Y17.8 I-9.3 J0
X9.3 Y17.8 I9.3 J0
X7.162 Y19.034 Z-3.411 I-1.425 J0 F333.3
G1 X2.888 Y16.566 Z-4.089
G2 X0.75 Y17.8 Z-4.5 I-0.713 J1.234
G3 X-0.75 Y17.8 I-0.75 J0 F400
X3.6 Y17.8 I2.175 J0
X-3.6 Y17.8 I-3.6 J0
X6.45 Y17.8 I5.025 J0
X-6.45 Y17.8 I-6.45 J0
X9.3 Y17.8 I7.875 J0
X-9.3 Y17.8 I-9.3 J0
X9.3 Y17.8 I9.3 J0
X7.162 Y19.034 Z-4.911 I-1.425 J0 F333.3
G1 X2.888 Y16.566 Z-5.589
G2 X0.75 Y17.8 Z-6 I-0.713 J1.234
G3 X-0.75 Y17.8 I-0.75 J0 F400
X3.6 Y17.8 I2.175 J0
X-3.6 Y17.8 I-3.6 J0
X6.45 Y17.8 I5.025 J0
X-6.45 Y17.8 I-6.45 J0
X9.3 Y17.8 I7.875 J0
X-9.3 Y17.8 I-9.3 J0
X9.3 Y17.8 I9.3 J0
X7.162 Y19.034 Z-6.328 I-1.425 J0 F333.3
G1 X2.888 Y16.566 Z-6.872
G2 X0.75 Y17.8 Z-7.2 I-0.713 J1.234
G3 X-0.75 Y17.8 I-0.75 J0 F400
X3.6 Y17.8 I2.175 J0
X-3.6 Y17.8 I-3.6 J0
X6.45 Y17.8 I5.025 J0
X-6.45 Y17.8 I-6.45 J0
X9.3 Y17.8 I7.875 J0
X-9.3 Y17.8 I-9.3 J0
X9.3 Y17.8 I9.3 J0
G0 Z5
X15.882 Y36.049
G1 Z2.5 F400
G3 X18.668 Y35.451 Z1.711 I1.393 J-0.299 F333.3
X15.882 Y36.049 Z0.921 I-1.393 J0.299
X18.668 Y35.451 Z0.132 I1.393 J-0.299
X15.882 Y36.049 Z-0.658 I-1.393 J0.299
X17.125 Y34.333 Z-1.079 I1.393 J-0.299
X18.7 Y35.75 Z-1.5 I0.15 J1.417
X17.2 Y35.75 I-0.75 J0 F400
X21.55 Y35.75 I2.175 J0
X14.35 Y35.75 I-3.6 J0
X24.4 Y35.75 I5.025 J0
X11.5 Y35.75 I-6.45 J0
X27.25 Y35.75 I7.875 J0
X8.65 Y35.75 I-9.3 J0
X27.25 Y35.75 I9.3 J0
X25.112 Y36.984 Z-1.911 I-1.425 J0 F333.3
G1 X20.837 Y34.516 Z-2.589
G2 X18.7 Y35.75 Z-3 I-0.712 J1.234
G3 X17.2 Y35.75 I-0.75 J0 F400
X21.55 Y35.75 I2.175 J0
X14.35 Y35.75 I-3.6 J0
X24.4 Y35.75 I5.025 J0
X11.5 Y35.75 I-6.45 J0
X27.25 Y35.75 I7.875 J0
X8.65 Y35.75 I-9.3 J0
X27.25 Y35.75 I9.3 J0
X25.112 Y36.984 Z-3.411 I-1.425 J0 F333.3
G1 X20.837 Y34.516 Z-4.089
G2 X18.7 Y35.75 Z-4.5 I-0.712 J1.234
G3 X17.2 Y35.75 I-0.75 J0 F400
X21.55 Y35.75 I2.175 J0
X14.35 Y35.75 I-3.6 J0
X24.4 Y35.75 I5.025 J0
X11.5 Y35.75 I-6.45 J0
X27.25 Y35.75 I7.875 J0
X8.65 Y35.75 I-9.3 J0
X27.25 Y35.75 I9.3 J0
X25.112 Y36.984 Z-4.911 I-1.425 J0 F333.3
G1 X20.837 Y34.516 Z-5.589
G2 X18.7 Y35.75 Z-6 I-0.712 J1.234
G3 X17.2 Y35.75 I-0.75 J0 F400
X21.55 Y35.75 I2.175 J0
X14.35 Y35.75 I-3.6 J0
X24.4 Y35.75 I5.025 J0
X11.5 Y35.75 I-6.45 J0
X27.25 Y35.75 I7.875 J0
X8.65 Y35.75 I-9.3 J0
X27.25 Y35.75 I9.3 J0
X25.112 Y36.984 Z-6.328 I-1.425 J0 F333.3
G1 X20.837 Y34.516 Z-6.872
G2 X18.7 Y35.75 Z-7.2 I-0.712 J1.234
G3 X17.2 Y35.75 I-0.75 J0 F400
X21.55 Y35.75 I2.175 J0
X14.35 Y35.75 I-3.6 J0
X24.4 Y35.75 I5.025 J0
X11.5 Y35.75 I-6.45 J0
X27.25 Y35.75 I7.875 J0
X8.65 Y35.75 I-9.3 J0
X27.25 Y35.75 I9.3 J0
G0 Z5
X-2.068 Y53.999
G1 Z2.5 F400
G3 X0.718 Y53.401 Z1.711 I1.393 J-0.299 F333.3
X-2.068 Y53.999 Z0.921 I-1.393 J0.299
X0.718 Y53.401 Z0.132 I1.393 J-0.299
X-2.068 Y53.999 Z-0.658 I-1.393 J0.299
X-0.825 Y52.283 Z-1.079 I1.393 J-0.299
X0.75 Y53.7 Z-1.5 I0.15 J1.417
X-0.75 Y53.7 I-0.75 J0 F400
X3.6 Y53.7 I2.175 J0
X-3.6 Y53.7 I-3.6 J0
X6.45 Y53.7 I5.025 J0
X-6.45 Y53.7 I-6.45 J0
X9.3 Y53.7 I7.875 J0
X-9.3 Y53.7 I-9.3 J0
X9.3 Y53.7 I9.3 J0
X7.162 Y54.934 Z-1.911 I-1.425 J0 F333.3
G1 X2.888 Y52.466 Z-2.589
G2 X0.75 Y53.7 Z-3 I-0.713 J1.234
G3 X-0.75 Y53.7 I-0.75 J0 F400
X3.6 Y53.7 I2.175 J0
X-3.6 Y53.7 I-3.6 J0
X6.45 Y53.7 I5.025 J0
X-6.45 Y53.7 I-6.45 J0
X9.3 Y53.7 I7.875 J0
X-9.3 Y53.7 I-9.3 J0
X9.3 Y53.7 I9.3 J0
X7.162 Y54.934 Z-3.411 I-1.425 J0 F333.3
G1 X2.888 Y52.466 Z-4.089
G2 X0.75 Y53.7 Z-4.5 I-0.713 J1.234
G3 X-0.75 Y53.7 I-0.75 J0 F400
X3.6 Y53.7 I2.175 J0
X-3.6 Y53.7 I-3.6 J0
X6.45 Y53.7 I5.025 J0
X-6.45 Y53.7 I-6.45 J0
X9.3 Y53.7 I7.875 J0
X-9.3 Y53.7 I-9.3 J0
X9.3 Y53.7 I9.3 J0
X7.162 Y54.934 Z-4.911 I-1.425 J0 F333.3
G1 X2.888 Y52.466 Z-5.589
G2 X0.75 Y53.7 Z-6 I-0.713 J1.234
G3 X-0.75 Y53.7 I-0.75 J0 F400
X3.6 Y53.7 I2.175 J0
X-3.6 Y53.7 I-3.6 J0
X6.45 Y53.7 I5.025 J0
X-6.45 Y53.7 I-6.45 J0
X9.3 Y53.7 I7.875 J0
X-9.3 Y53.7 I-9.3 J0
X9.3 Y53.7 I9.3 J0
X7.162 Y54.934 Z-6.328 I-1.425 J0 F333.3
G1 X2.888 Y52.466 Z-6.872
G2 X0.75 Y53.7 Z-7.2 I-0.713 J1.234
G3 X-0.75 Y53.7 I-0.75 J0 F400
X3.6 Y53.7 I2.175 J0
X-3.6 Y53.7 I-3.6 J0
X6.45 Y53.7 I5.025 J0
X-6.45 Y53.7 I-6.45 J0
X9.3 Y53.7 I7.875 J0
X-9.3 Y53.7 I-9.3 J0
X9.3 Y53.7 I9.3 J0
G0 Z15

(2D Contour10)
X0 Y-1.5
Z15
Z5
G1 Z2.5 F333.3
Z-1.5
G2 X0 Y73 I0 J37.25 F400
X0 Y-1.5 I0 J-37.25
G1 Z-3 F333.3
G2 X0 Y73 I0 J37.25 F400
X0 Y-1.5 I0 J-37.25
G1 Z-4.5 F333.3
G2 X0 Y73 I0 J37.25 F400
X0 Y-1.5 I0 J-37.25
G1 Z-6 F333.3
G2 X0 Y73 I0 J37.25 F400
X0 Y-1.5 I0 J-37.25
G1 Z-7.2 F333.3
G2 X-28.275 Y11.499 I0 J37.25 F400
G1 Z-6.9
G2 X-31.801 Y16.353 I28.275 J24.251
G1 Z-7.2 F333.3
G2 X-31.801 Y55.147 I31.801 J19.397 F400
G1 Z-6.9
G2 X-28.275 Y60.001 I31.801 J-19.397
G1 Z-7.2 F333.3
G2 X8.62 Y71.989 I28.275 J-24.251 F400
G1 Z-6.9
G2 X14.327 Y70.135 I-8.62 J-36.239
G1 Z-7.2 F333.3
G2 X37.129 Y38.75 I-14.327 J-34.385 F400
G1 Z-6.9
G2 X37.129 Y32.75 I-37.129 J-3
G1 Z-7.2 F333.3
G2 X14.327 Y1.365 I-37.129 J3 F400
G1 Z-6.9
G2 X8.62 Y-0.489 I-14.327 J34.385
G1 Z-7.2 F333.3
G2 X0 Y-1.5 I-8.62 J36.239 F400
G0 Z15
M9
M5
M30
