(1001)
(T3  D=3 CR=0 - ZMIN=-8.3 - flat end mill)
G90 G94
G17
G21

(2D Pocket7)
T3
S1000 M3
G54
M8
G0 X20.508 Y37.123
Z16
Z6
G1 Z3.5 F400
G3 X19.742 Y34.377 Z3.344 I-0.383 J-1.373 F333.3
X20.508 Y37.123 Z3.187 I0.383 J1.373
X19.742 Y34.377 Z3.031 I-0.383 J-1.373
X20.508 Y37.123 Z2.875 I0.383 J1.373
X19.742 Y34.377 Z2.718 I-0.383 J-1.373
X20.508 Y37.123 Z2.562 I0.383 J1.373
X19.742 Y34.377 Z2.406 I-0.383 J-1.373
X20.508 Y37.123 Z2.249 I0.383 J1.373
X19.742 Y34.377 Z2.093 I-0.383 J-1.373
X20.508 Y37.123 Z1.937 I0.383 J1.373
X19.742 Y34.377 Z1.78 I-0.383 J-1.373
X20.508 Y37.123 Z1.624 I0.383 J1.373
X19.742 Y34.377 Z1.468 I-0.383 J-1.373
X20.508 Y37.123 Z1.311 I0.383 J1.373
X19.742 Y34.377 Z1.155 I-0.383 J-1.373
X20.508 Y37.123 Z0.999 I0.383 J1.373
X19.742 Y34.377 Z0.842 I-0.383 J-1.373
X20.508 Y37.123 Z0.686 I0.383 J1.373
X19.742 Y34.377 Z0.53 I-0.383 J-1.373
X20.508 Y37.123 Z0.373 I0.383 J1.373
X19.742 Y34.377 Z0.217 I-0.383 J-1.373
X20.508 Y37.123 Z0.061 I0.383 J1.373
X19.742 Y34.377 Z-0.096 I-0.383 J-1.373
X20.508 Y37.123 Z-0.252 I0.383 J1.373
X19.742 Y34.377 Z-0.408 I-0.383 J-1.373
X21.55 Y35.75 Z-0.5 I0.383 J1.373
X19.7 Y35.75 I-0.925 J0 F400
X24.4 Y35.75 I2.35 J0
X16.85 Y35.75 I-3.775 J0
X27.25 Y35.75 I5.2 J0
X14 Y35.75 I-6.625 J0
X27.25 Y35.75 I6.625 J0
X26.139 Y36.544 I-0.84 J0
G1 X22.365 Y35.254
G2 X21.279 Y35.845 I-0.272 J0.794
G1 X21.112 Y36.513
G3 X20.544 Y37.112 I-0.814 J-0.204
X19.706 Y34.388 Z-0.656 I-0.419 J-1.362 F333.3
X20.544 Y37.112 Z-0.813 I0.419 J1.362
X19.706 Y34.388 Z-0.969 I-0.419 J-1.362
X20.544 Y37.112 Z-1.125 I0.419 J1.362
X19.706 Y34.388 Z-1.282 I-0.419 J-1.362
X20.544 Y37.112 Z-1.438 I0.419 J1.362
X19.706 Y34.388 Z-1.594 I-0.419 J-1.362
X20.544 Y37.112 Z-1.751 I0.419 J1.362
X19.706 Y34.388 Z-1.907 I-0.419 J-1.362
X21.55 Y35.75 Z-2 I0.419 J1.362
X19.7 Y35.75 I-0.925 J0 F400
X24.4 Y35.75 I2.35 J0
X16.85 Y35.75 I-3.775 J0
X27.25 Y35.75 I5.2 J0
X14 Y35.75 I-6.625 J0
X27.25 Y35.75 I6.625 J0
X26.139 Y36.544 I-0.84 J0
G1 X22.365 Y35.254
G2 X21.279 Y35.845 I-0.272 J0.794
G1 X21.112 Y36.513
G3 X20.544 Y37.112 I-0.814 J-0.204
X19.706 Y34.388 Z-2.156 I-0.419 J-1.362 F333.3
X20.544 Y37.112 Z-2.313 I0.419 J1.362
X19.706 Y34.388 Z-2.469 I-0.419 J-1.362
X20.544 Y37.112 Z-2.625 I0.419 J1.362
X19.706 Y34.388 Z-2.782 I-0.419 J-1.362
X20.544 Y37.112 Z-2.938 I0.419 J1.362
X19.706 Y34.388 Z-3.094 I-0.419 J-1.362
X20.544 Y37.112 Z-3.251 I0.419 J1.362
X19.706 Y34.388 Z-3.407 I-0.419 J-1.362
X21.55 Y35.75 Z-3.5 I0.419 J1.362
X19.7 Y35.75 I-0.925 J0 F400
X24.4 Y35.75 I2.35 J0
X16.85 Y35.75 I-3.775 J0
X27.25 Y35.75 I5.2 J0
X14 Y35.75 I-6.625 J0
X27.25 Y35.75 I6.625 J0
X26.139 Y36.544 I-0.84 J0
G1 X22.365 Y35.254
G2 X21.279 Y35.845 I-0.272 J0.794
G1 X21.112 Y36.513
G3 X20.544 Y37.112 I-0.814 J-0.204
X19.706 Y34.388 Z-3.656 I-0.419 J-1.362 F333.3
X20.544 Y37.112 Z-3.813 I0.419 J1.362
X19.706 Y34.388 Z-3.969 I-0.419 J-1.362
X20.544 Y37.112 Z-4.125 I0.419 J1.362
X19.706 Y34.388 Z-4.282 I-0.419 J-1.362
X20.544 Y37.112 Z-4.438 I0.419 J1.362
X19.706 Y34.388 Z-4.594 I-0.419 J-1.362
X20.544 Y37.112 Z-4.751 I0.419 J1.362
X19.706 Y34.388 Z-4.907 I-0.419 J-1.362
X21.55 Y35.75 Z-5 I0.419 J1.362
X19.7 Y35.75 I-0.925 J0 F400
X24.4 Y35.75 I2.35 J0
X16.85 Y35.75 I-3.775 J0
X27.25 Y35.75 I5.2 J0
X14 Y35.75 I-6.625 J0
X27.25 Y35.75 I6.625 J0
X26.139 Y36.544 I-0.84 J0
G1 X22.365 Y35.254
G2 X21.279 Y35.845 I-0.272 J0.794
G1 X21.112 Y36.513
G3 X20.544 Y37.112 I-0.814 J-0.204
X19.706 Y34.388 Z-5.156 I-0.419 J-1.362 F333.3
X20.544 Y37.112 Z-5.313 I0.419 J1.362
X19.706 Y34.388 Z-5.469 I-0.419 J-1.362
X20.544 Y37.112 Z-5.625 I0.419 J1.362
X19.706 Y34.388 Z-5.782 I-0.419 J-1.362
X20.544 Y37.112 Z-5.938 I0.419 J1.362
X19.706 Y34.388 Z-6.094 I-0.419 J-1.362
X20.544 Y37.112 Z-6.251 I0.419 J1.362
X19.706 Y34.388 Z-6.407 I-0.419 J-1.362
X21.55 Y35.75 Z-6.5 I0.419 J1.362
X19.7 Y35.75 I-0.925 J0 F400
X24.4 Y35.75 I2.35 J0
X16.85 Y35.75 I-3.775 J0
X27.25 Y35.75 I5.2 J0
X14 Y35.75 I-6.625 J0
X27.25 Y35.75 I6.625 J0
X26.078 Y36.612 I-0.903 J0
G1 X21.991 Y35.335
X21.931 Y35.319
X21.87 Y35.306
G3 X22.165 Y33.525 I0.148 J-0.891
X22.691 Y35.017 I-0.148 J0.891
G1 X21.154 Y36.735
G3 X19.096 Y34.765 Z-6.656 I-1.029 J-0.985 F333.3
X21.154 Y36.735 Z-6.813 I1.029 J0.985
X19.096 Y34.765 Z-6.969 I-1.029 J-0.985
X21.154 Y36.735 Z-7.125 I1.029 J0.985
X19.096 Y34.765 Z-7.282 I-1.029 J-0.985
X21.55 Y35.75 Z-7.4 I1.029 J0.985
X19.7 Y35.75 I-0.925 J0 F400
X24.4 Y35.75 I2.35 J0
X16.85 Y35.75 I-3.775 J0
X27.25 Y35.75 I5.2 J0
X14 Y35.75 I-6.625 J0
X27.25 Y35.75 I6.625 J0
X26.078 Y36.612 I-0.903 J0
G1 X21.991 Y35.335
X21.931 Y35.319
X21.87 Y35.306
G3 X22.165 Y33.525 I0.148 J-0.891
X22.691 Y35.017 I-0.148 J0.891
G1 X21.154 Y36.735
G3 X19.096 Y34.765 Z-7.556 I-1.029 J-0.985 F333.3
X21.154 Y36.735 Z-7.713 I1.029 J0.985
X19.096 Y34.765 Z-7.869 I-1.029 J-0.985
X21.154 Y36.735 Z-8.025 I1.029 J0.985
X19.096 Y34.765 Z-8.182 I-1.029 J-0.985
X21.55 Y35.75 Z-8.3 I1.029 J0.985
X19.7 Y35.75 I-0.925 J0 F400
X24.4 Y35.75 I2.35 J0
X16.85 Y35.75 I-3.775 J0
X27.25 Y35.75 I5.2 J0
X14 Y35.75 I-6.625 J0
X27.25 Y35.75 I6.625 J0
G0 Z6
X6.256 Y17.507
G1 Z3.5 F400
G3 X5.491 Y14.762 Z3.344 I-0.383 J-1.373 F333.3
X6.256 Y17.507 Z3.187 I0.383 J1.373
X5.491 Y14.762 Z3.031 I-0.383 J-1.373
X6.256 Y17.507 Z2.875 I0.383 J1.373
X5.491 Y14.762 Z2.718 I-0.383 J-1.373
X6.256 Y17.507 Z2.562 I0.383 J1.373
X5.491 Y14.762 Z2.406 I-0.383 J-1.373
X6.256 Y17.507 Z2.249 I0.383 J1.373
X5.491 Y14.762 Z2.093 I-0.383 J-1.373
X6.256 Y17.507 Z1.937 I0.383 J1.373
X5.491 Y14.762 Z1.78 I-0.383 J-1.373
X6.256 Y17.507 Z1.624 I0.383 J1.373
X5.491 Y14.762 Z1.468 I-0.383 J-1.373
X6.256 Y17.507 Z1.311 I0.383 J1.373
X5.491 Y14.762 Z1.155 I-0.383 J-1.373
X6.256 Y17.507 Z0.999 I0.383 J1.373
X5.491 Y14.762 Z0.842 I-0.383 J-1.373
X6.256 Y17.507 Z0.686 I0.383 J1.373
X5.491 Y14.762 Z0.53 I-0.383 J-1.373
X6.256 Y17.507 Z0.373 I0.383 J1.373
X5.491 Y14.762 Z0.217 I-0.383 J-1.373
X6.256 Y17.507 Z0.061 I0.383 J1.373
X5.491 Y14.762 Z-0.096 I-0.383 J-1.373
X6.256 Y17.507 Z-0.252 I0.383 J1.373
X5.491 Y14.762 Z-0.408 I-0.383 J-1.373
X7.299 Y16.134 Z-0.5 I0.383 J1.373
X5.449 Y16.134 I-0.925 J0 F400
X10.149 Y16.134 I2.35 J0
X2.599 Y16.134 I-3.775 J0
X12.999 Y16.134 I5.2 J0
X-0.251 Y16.134 I-6.625 J0
X12.999 Y16.134 I6.625 J0
X11.887 Y16.929 I-0.84 J0
G1 X8.113 Y15.639
G2 X7.027 Y16.229 I-0.272 J0.794
G1 X6.86 Y16.898
G3 X6.292 Y17.497 I-0.814 J-0.204
X5.455 Y14.772 Z-0.656 I-0.419 J-1.362 F333.3
X6.292 Y17.497 Z-0.813 I0.419 J1.362
X5.455 Y14.772 Z-0.969 I-0.419 J-1.362
X6.292 Y17.497 Z-1.125 I0.419 J1.362
X5.455 Y14.772 Z-1.282 I-0.419 J-1.362
X6.292 Y17.497 Z-1.438 I0.419 J1.362
X5.455 Y14.772 Z-1.594 I-0.419 J-1.362
X6.292 Y17.497 Z-1.751 I0.419 J1.362
X5.455 Y14.772 Z-1.907 I-0.419 J-1.362
X7.299 Y16.134 Z-2 I0.419 J1.362
X5.449 Y16.134 I-0.925 J0 F400
X10.149 Y16.134 I2.35 J0
X2.599 Y16.134 I-3.775 J0
X12.999 Y16.134 I5.2 J0
X-0.251 Y16.134 I-6.625 J0
X12.999 Y16.134 I6.625 J0
X11.887 Y16.929 I-0.84 J0
G1 X8.113 Y15.639
G2 X7.027 Y16.229 I-0.272 J0.794
G1 X6.86 Y16.898
G3 X6.292 Y17.497 I-0.814 J-0.204
X5.455 Y14.772 Z-2.156 I-0.419 J-1.362 F333.3
X6.292 Y17.497 Z-2.313 I0.419 J1.362
X5.455 Y14.772 Z-2.469 I-0.419 J-1.362
X6.292 Y17.497 Z-2.625 I0.419 J1.362
X5.455 Y14.772 Z-2.782 I-0.419 J-1.362
X6.292 Y17.497 Z-2.938 I0.419 J1.362
X5.455 Y14.772 Z-3.094 I-0.419 J-1.362
X6.292 Y17.497 Z-3.251 I0.419 J1.362
X5.455 Y14.772 Z-3.407 I-0.419 J-1.362
X7.299 Y16.134 Z-3.5 I0.419 J1.362
X5.449 Y16.134 I-0.925 J0 F400
X10.149 Y16.134 I2.35 J0
X2.599 Y16.134 I-3.775 J0
X12.999 Y16.134 I5.2 J0
X-0.251 Y16.134 I-6.625 J0
X12.999 Y16.134 I6.625 J0
X11.887 Y16.929 I-0.84 J0
G1 X8.113 Y15.639
G2 X7.027 Y16.229 I-0.272 J0.794
G1 X6.86 Y16.898
G3 X6.292 Y17.497 I-0.814 J-0.204
X5.455 Y14.772 Z-3.656 I-0.419 J-1.362 F333.3
X6.292 Y17.497 Z-3.813 I0.419 J1.362
X5.455 Y14.772 Z-3.969 I-0.419 J-1.362
X6.292 Y17.497 Z-4.125 I0.419 J1.362
X5.455 Y14.772 Z-4.282 I-0.419 J-1.362
X6.292 Y17.497 Z-4.438 I0.419 J1.362
X5.455 Y14.772 Z-4.594 I-0.419 J-1.362
X6.292 Y17.497 Z-4.751 I0.419 J1.362
X5.455 Y14.772 Z-4.907 I-0.419 J-1.362
X7.299 Y16.134 Z-5 I0.419 J1.362
X5.449 Y16.134 I-0.925 J0 F400
X10.149 Y16.134 I2.35 J0
X2.599 Y16.134 I-3.775 J0
X12.999 Y16.134 I5.2 J0
X-0.251 Y16.134 I-6.625 J0
X12.999 Y16.134 I6.625 J0
X11.887 Y16.929 I-0.84 J0
G1 X8.113 Y15.639
G2 X7.027 Y16.229 I-0.272 J0.794
G1 X6.86 Y16.898
G3 X6.292 Y17.497 I-0.814 J-0.204
X5.455 Y14.772 Z-5.156 I-0.419 J-1.362 F333.3
X6.292 Y17.497 Z-5.313 I0.419 J1.362
X5.455 Y14.772 Z-5.469 I-0.419 J-1.362
X6.292 Y17.497 Z-5.625 I0.419 J1.362
X5.455 Y14.772 Z-5.782 I-0.419 J-1.362
X6.292 Y17.497 Z-5.938 I0.419 J1.362
X5.455 Y14.772 Z-6.094 I-0.419 J-1.362
X6.292 Y17.497 Z-6.251 I0.419 J1.362
X5.455 Y14.772 Z-6.407 I-0.419 J-1.362
X7.299 Y16.134 Z-6.5 I0.419 J1.362
X5.449 Y16.134 I-0.925 J0 F400
X10.149 Y16.134 I2.35 J0
X2.599 Y16.134 I-3.775 J0
X12.999 Y16.134 I5.2 J0
X-0.251 Y16.134 I-6.625 J0
X12.999 Y16.134 I6.625 J0
X11.827 Y16.996 I-0.903 J0
G1 X7.739 Y15.72
X7.679 Y15.703
X7.618 Y15.691
G3 X7.914 Y13.91 I0.148 J-0.891
X8.439 Y15.402 I-0.148 J0.891
G1 X6.903 Y17.12
G3 X4.844 Y15.149 Z-6.656 I-1.029 J-0.985 F333.3
X6.903 Y17.12 Z-6.813 I1.029 J0.985
X4.844 Y15.149 Z-6.969 I-1.029 J-0.985
X6.903 Y17.12 Z-7.125 I1.029 J0.985
X4.844 Y15.149 Z-7.282 I-1.029 J-0.985
X7.299 Y16.134 Z-7.4 I1.029 J0.985
X5.449 Y16.134 I-0.925 J0 F400
X10.149 Y16.134 I2.35 J0
X2.599 Y16.134 I-3.775 J0
X12.999 Y16.134 I5.2 J0
X-0.251 Y16.134 I-6.625 J0
X12.999 Y16.134 I6.625 J0
X11.827 Y16.996 I-0.903 J0
G1 X7.739 Y15.72
X7.679 Y15.703
X7.618 Y15.691
G3 X7.914 Y13.91 I0.148 J-0.891
X8.439 Y15.402 I-0.148 J0.891
G1 X6.903 Y17.12
G3 X4.844 Y15.149 Z-7.556 I-1.029 J-0.985 F333.3
X6.903 Y17.12 Z-7.713 I1.029 J0.985
X4.844 Y15.149 Z-7.869 I-1.029 J-0.985
X6.903 Y17.12 Z-8.025 I1.029 J0.985
X4.844 Y15.149 Z-8.182 I-1.029 J-0.985
X7.299 Y16.134 Z-8.3 I1.029 J0.985
X5.449 Y16.134 I-0.925 J0 F400
X10.149 Y16.134 I2.35 J0
X2.599 Y16.134 I-3.775 J0
X12.999 Y16.134 I5.2 J0
X-0.251 Y16.134 I-6.625 J0
X12.999 Y16.134 I6.625 J0
G0 Z6
X-16.803 Y25
G1 Z3.5 F400
G3 X-17.569 Y22.254 Z3.344 I-0.383 J-1.373 F333.3
X-16.803 Y25 Z3.187 I0.383 J1.373
X-17.569 Y22.254 Z3.031 I-0.383 J-1.373
X-16.803 Y25 Z2.875 I0.383 J1.373
X-17.569 Y22.254 Z2.718 I-0.383 J-1.373
X-16.803 Y25 Z2.562 I0.383 J1.373
X-17.569 Y22.254 Z2.406 I-0.383 J-1.373
X-16.803 Y25 Z2.249 I0.383 J1.373
X-17.569 Y22.254 Z2.093 I-0.383 J-1.373
X-16.803 Y25 Z1.937 I0.383 J1.373
X-17.569 Y22.254 Z1.78 I-0.383 J-1.373
X-16.803 Y25 Z1.624 I0.383 J1.373
X-17.569 Y22.254 Z1.468 I-0.383 J-1.373
X-16.803 Y25 Z1.311 I0.383 J1.373
X-17.569 Y22.254 Z1.155 I-0.383 J-1.373
X-16.803 Y25 Z0.999 I0.383 J1.373
X-17.569 Y22.254 Z0.842 I-0.383 J-1.373
X-16.803 Y25 Z0.686 I0.383 J1.373
X-17.569 Y22.254 Z0.53 I-0.383 J-1.373
X-16.803 Y25 Z0.373 I0.383 J1.373
X-17.569 Y22.254 Z0.217 I-0.383 J-1.373
X-16.803 Y25 Z0.061 I0.383 J1.373
X-17.569 Y22.254 Z-0.096 I-0.383 J-1.373
X-16.803 Y25 Z-0.252 I0.383 J1.373
X-17.569 Y22.254 Z-0.408 I-0.383 J-1.373
X-15.761 Y23.627 Z-0.5 I0.383 J1.373
X-17.611 Y23.627 I-0.925 J0 F400
X-12.911 Y23.627 I2.35 J0
X-20.461 Y23.627 I-3.775 J0
X-10.061 Y23.627 I5.2 J0
X-23.311 Y23.627 I-6.625 J0
X-10.061 Y23.627 I6.625 J0
X-11.172 Y24.421 I-0.84 J0
G1 X-14.946 Y23.131
G2 X-16.032 Y23.722 I-0.272 J0.794
G1 X-16.199 Y24.39
G3 X-16.767 Y24.989 I-0.814 J-0.204
X-17.605 Y22.265 Z-0.656 I-0.419 J-1.362 F333.3
X-16.767 Y24.989 Z-0.813 I0.419 J1.362
X-17.605 Y22.265 Z-0.969 I-0.419 J-1.362
X-16.767 Y24.989 Z-1.125 I0.419 J1.362
X-17.605 Y22.265 Z-1.282 I-0.419 J-1.362
X-16.767 Y24.989 Z-1.438 I0.419 J1.362
X-17.605 Y22.265 Z-1.594 I-0.419 J-1.362
X-16.767 Y24.989 Z-1.751 I0.419 J1.362
X-17.605 Y22.265 Z-1.907 I-0.419 J-1.362
X-15.761 Y23.627 Z-2 I0.419 J1.362
X-17.611 Y23.627 I-0.925 J0 F400
X-12.911 Y23.627 I2.35 J0
X-20.461 Y23.627 I-3.775 J0
X-10.061 Y23.627 I5.2 J0
X-23.311 Y23.627 I-6.625 J0
X-10.061 Y23.627 I6.625 J0
X-11.172 Y24.421 I-0.84 J0
G1 X-14.946 Y23.131
G2 X-16.032 Y23.722 I-0.272 J0.794
G1 X-16.199 Y24.39
G3 X-16.767 Y24.989 I-0.814 J-0.204
X-17.605 Y22.265 Z-2.156 I-0.419 J-1.362 F333.3
X-16.767 Y24.989 Z-2.313 I0.419 J1.362
X-17.605 Y22.265 Z-2.469 I-0.419 J-1.362
X-16.767 Y24.989 Z-2.625 I0.419 J1.362
X-17.605 Y22.265 Z-2.782 I-0.419 J-1.362
X-16.767 Y24.989 Z-2.938 I0.419 J1.362
X-17.605 Y22.265 Z-3.094 I-0.419 J-1.362
X-16.767 Y24.989 Z-3.251 I0.419 J1.362
X-17.605 Y22.265 Z-3.407 I-0.419 J-1.362
X-15.761 Y23.627 Z-3.5 I0.419 J1.362
X-17.611 Y23.627 I-0.925 J0 F400
X-12.911 Y23.627 I2.35 J0
X-20.461 Y23.627 I-3.775 J0
X-10.061 Y23.627 I5.2 J0
X-23.311 Y23.627 I-6.625 J0
X-10.061 Y23.627 I6.625 J0
X-11.172 Y24.421 I-0.84 J0
G1 X-14.946 Y23.131
G2 X-16.032 Y23.722 I-0.272 J0.794
G1 X-16.199 Y24.39
G3 X-16.767 Y24.989 I-0.814 J-0.204
X-17.605 Y22.265 Z-3.656 I-0.419 J-1.362 F333.3
X-16.767 Y24.989 Z-3.813 I0.419 J1.362
X-17.605 Y22.265 Z-3.969 I-0.419 J-1.362
X-16.767 Y24.989 Z-4.125 I0.419 J1.362
X-17.605 Y22.265 Z-4.282 I-0.419 J-1.362
X-16.767 Y24.989 Z-4.438 I0.419 J1.362
X-17.605 Y22.265 Z-4.594 I-0.419 J-1.362
X-16.767 Y24.989 Z-4.751 I0.419 J1.362
X-17.605 Y22.265 Z-4.907 I-0.419 J-1.362
X-15.761 Y23.627 Z-5 I0.419 J1.362
X-17.611 Y23.627 I-0.925 J0 F400
X-12.911 Y23.627 I2.35 J0
X-20.461 Y23.627 I-3.775 J0
X-10.061 Y23.627 I5.2 J0
X-23.311 Y23.627 I-6.625 J0
X-10.061 Y23.627 I6.625 J0
X-11.172 Y24.421 I-0.84 J0
G1 X-14.946 Y23.131
G2 X-16.032 Y23.722 I-0.272 J0.794
G1 X-16.199 Y24.39
G3 X-16.767 Y24.989 I-0.814 J-0.204
X-17.605 Y22.265 Z-5.156 I-0.419 J-1.362 F333.3
X-16.767 Y24.989 Z-5.313 I0.419 J1.362
X-17.605 Y22.265 Z-5.469 I-0.419 J-1.362
X-16.767 Y24.989 Z-5.625 I0.419 J1.362
X-17.605 Y22.265 Z-5.782 I-0.419 J-1.362
X-16.767 Y24.989 Z-5.938 I0.419 J1.362
X-17.605 Y22.265 Z-6.094 I-0.419 J-1.362
X-16.767 Y24.989 Z-6.251 I0.419 J1.362
X-17.605 Y22.265 Z-6.407 I-0.419 J-1.362
X-15.761 Y23.627 Z-6.5 I0.419 J1.362
X-17.611 Y23.627 I-0.925 J0 F400
X-12.911 Y23.627 I2.35 J0
X-20.461 Y23.627 I-3.775 J0
X-10.061 Y23.627 I5.2 J0
X-23.311 Y23.627 I-6.625 J0
X-10.061 Y23.627 I6.625 J0
X-11.233 Y24.489 I-0.903 J0
G1 X-15.32 Y23.212
X-15.38 Y23.196
X-15.441 Y23.183
G3 X-15.145 Y21.402 I0.148 J-0.891
X-14.62 Y22.894 I-0.148 J0.891
G1 X-16.156 Y24.612
G3 X-18.215 Y22.642 Z-6.656 I-1.029 J-0.985 F333.3
X-16.156 Y24.612 Z-6.813 I1.029 J0.985
X-18.215 Y22.642 Z-6.969 I-1.029 J-0.985
X-16.156 Y24.612 Z-7.125 I1.029 J0.985
X-18.215 Y22.642 Z-7.282 I-1.029 J-0.985
X-15.761 Y23.627 Z-7.4 I1.029 J0.985
X-17.611 Y23.627 I-0.925 J0 F400
X-12.911 Y23.627 I2.35 J0
X-20.461 Y23.627 I-3.775 J0
X-10.061 Y23.627 I5.2 J0
X-23.311 Y23.627 I-6.625 J0
X-10.061 Y23.627 I6.625 J0
X-11.233 Y24.489 I-0.903 J0
G1 X-15.32 Y23.212
X-15.38 Y23.196
X-15.441 Y23.183
G3 X-15.145 Y21.402 I0.148 J-0.891
X-14.62 Y22.894 I-0.148 J0.891
G1 X-16.156 Y24.612
G3 X-18.215 Y22.642 Z-7.556 I-1.029 J-0.985 F333.3
X-16.156 Y24.612 Z-7.713 I1.029 J0.985
X-18.215 Y22.642 Z-7.869 I-1.029 J-0.985
X-16.156 Y24.612 Z-8.025 I1.029 J0.985
X-18.215 Y22.642 Z-8.182 I-1.029 J-0.985
X-15.761 Y23.627 Z-8.3 I1.029 J0.985
X-17.611 Y23.627 I-0.925 J0 F400
X-12.911 Y23.627 I2.35 J0
X-20.461 Y23.627 I-3.775 J0
X-10.061 Y23.627 I5.2 J0
X-23.311 Y23.627 I-6.625 J0
X-10.061 Y23.627 I6.625 J0
G0 Z6
X-16.803 Y49.246
G1 Z3.5 F400
G3 X-17.569 Y46.5 Z3.344 I-0.383 J-1.373 F333.3
X-16.803 Y49.246 Z3.187 I0.383 J1.373
X-17.569 Y46.5 Z3.031 I-0.383 J-1.373
X-16.803 Y49.246 Z2.875 I0.383 J1.373
X-17.569 Y46.5 Z2.718 I-0.383 J-1.373
X-16.803 Y49.246 Z2.562 I0.383 J1.373
X-17.569 Y46.5 Z2.406 I-0.383 J-1.373
X-16.803 Y49.246 Z2.249 I0.383 J1.373
X-17.569 Y46.5 Z2.093 I-0.383 J-1.373
X-16.803 Y49.246 Z1.937 I0.383 J1.373
X-17.569 Y46.5 Z1.78 I-0.383 J-1.373
X-16.803 Y49.246 Z1.624 I0.383 J1.373
X-17.569 Y46.5 Z1.468 I-0.383 J-1.373
X-16.803 Y49.246 Z1.311 I0.383 J1.373
X-17.569 Y46.5 Z1.155 I-0.383 J-1.373
X-16.803 Y49.246 Z0.999 I0.383 J1.373
X-17.569 Y46.5 Z0.842 I-0.383 J-1.373
X-16.803 Y49.246 Z0.686 I0.383 J1.373
X-17.569 Y46.5 Z0.53 I-0.383 J-1.373
X-16.803 Y49.246 Z0.373 I0.383 J1.373
X-17.569 Y46.5 Z0.217 I-0.383 J-1.373
X-16.803 Y49.246 Z0.061 I0.383 J1.373
X-17.569 Y46.5 Z-0.096 I-0.383 J-1.373
X-16.803 Y49.246 Z-0.252 I0.383 J1.373
X-17.569 Y46.5 Z-0.408 I-0.383 J-1.373
X-15.761 Y47.873 Z-0.5 I0.383 J1.373
X-17.611 Y47.873 I-0.925 J0 F400
X-12.911 Y47.873 I2.35 J0
X-20.461 Y47.873 I-3.775 J0
X-10.061 Y47.873 I5.2 J0
X-23.311 Y47.873 I-6.625 J0
X-10.061 Y47.873 I6.625 J0
X-11.172 Y48.668 I-0.84 J0
G1 X-14.946 Y47.377
G2 X-16.032 Y47.968 I-0.272 J0.794
G1 X-16.199 Y48.636
G3 X-16.767 Y49.235 I-0.814 J-0.204
X-17.605 Y46.511 Z-0.656 I-0.419 J-1.362 F333.3
X-16.767 Y49.235 Z-0.813 I0.419 J1.362
X-17.605 Y46.511 Z-0.969 I-0.419 J-1.362
X-16.767 Y49.235 Z-1.125 I0.419 J1.362
X-17.605 Y46.511 Z-1.282 I-0.419 J-1.362
X-16.767 Y49.235 Z-1.438 I0.419 J1.362
X-17.605 Y46.511 Z-1.594 I-0.419 J-1.362
X-16.767 Y49.235 Z-1.751 I0.419 J1.362
X-17.605 Y46.511 Z-1.907 I-0.419 J-1.362
X-15.761 Y47.873 Z-2 I0.419 J1.362
X-17.611 Y47.873 I-0.925 J0 F400
X-12.911 Y47.873 I2.35 J0
X-20.461 Y47.873 I-3.775 J0
X-10.061 Y47.873 I5.2 J0
X-23.311 Y47.873 I-6.625 J0
X-10.061 Y47.873 I6.625 J0
X-11.172 Y48.668 I-0.84 J0
G1 X-14.946 Y47.377
G2 X-16.032 Y47.968 I-0.272 J0.794
G1 X-16.199 Y48.636
G3 X-16.767 Y49.235 I-0.814 J-0.204
X-17.605 Y46.511 Z-2.156 I-0.419 J-1.362 F333.3
X-16.767 Y49.235 Z-2.313 I0.419 J1.362
X-17.605 Y46.511 Z-2.469 I-0.419 J-1.362
X-16.767 Y49.235 Z-2.625 I0.419 J1.362
X-17.605 Y46.511 Z-2.782 I-0.419 J-1.362
X-16.767 Y49.235 Z-2.938 I0.419 J1.362
X-17.605 Y46.511 Z-3.094 I-0.419 J-1.362
X-16.767 Y49.235 Z-3.251 I0.419 J1.362
X-17.605 Y46.511 Z-3.407 I-0.419 J-1.362
X-15.761 Y47.873 Z-3.5 I0.419 J1.362
X-17.611 Y47.873 I-0.925 J0 F400
X-12.911 Y47.873 I2.35 J0
X-20.461 Y47.873 I-3.775 J0
X-10.061 Y47.873 I5.2 J0
X-23.311 Y47.873 I-6.625 J0
X-10.061 Y47.873 I6.625 J0
X-11.172 Y48.668 I-0.84 J0
G1 X-14.946 Y47.377
G2 X-16.032 Y47.968 I-0.272 J0.794
G1 X-16.199 Y48.636
G3 X-16.767 Y49.235 I-0.814 J-0.204
X-17.605 Y46.511 Z-3.656 I-0.419 J-1.362 F333.3
X-16.767 Y49.235 Z-3.813 I0.419 J1.362
X-17.605 Y46.511 Z-3.969 I-0.419 J-1.362
X-16.767 Y49.235 Z-4.125 I0.419 J1.362
X-17.605 Y46.511 Z-4.282 I-0.419 J-1.362
X-16.767 Y49.235 Z-4.438 I0.419 J1.362
X-17.605 Y46.511 Z-4.594 I-0.419 J-1.362
X-16.767 Y49.235 Z-4.751 I0.419 J1.362
X-17.605 Y46.511 Z-4.907 I-0.419 J-1.362
X-15.761 Y47.873 Z-5 I0.419 J1.362
X-17.611 Y47.873 I-0.925 J0 F400
X-12.911 Y47.873 I2.35 J0
X-20.461 Y47.873 I-3.775 J0
X-10.061 Y47.873 I5.2 J0
X-23.311 Y47.873 I-6.625 J0
X-10.061 Y47.873 I6.625 J0
X-11.172 Y48.668 I-0.84 J0
G1 X-14.946 Y47.377
G2 X-16.032 Y47.968 I-0.272 J0.794
G1 X-16.199 Y48.636
G3 X-16.767 Y49.235 I-0.814 J-0.204
X-17.605 Y46.511 Z-5.156 I-0.419 J-1.362 F333.3
X-16.767 Y49.235 Z-5.313 I0.419 J1.362
X-17.605 Y46.511 Z-5.469 I-0.419 J-1.362
X-16.767 Y49.235 Z-5.625 I0.419 J1.362
X-17.605 Y46.511 Z-5.782 I-0.419 J-1.362
X-16.767 Y49.235 Z-5.938 I0.419 J1.362
X-17.605 Y46.511 Z-6.094 I-0.419 J-1.362
X-16.767 Y49.235 Z-6.251 I0.419 J1.362
X-17.605 Y46.511 Z-6.407 I-0.419 J-1.362
X-15.761 Y47.873 Z-6.5 I0.419 J1.362
X-17.611 Y47.873 I-0.925 J0 F400
X-12.911 Y47.873 I2.35 J0
X-20.461 Y47.873 I-3.775 J0
X-10.061 Y47.873 I5.2 J0
X-23.311 Y47.873 I-6.625 J0
X-10.061 Y47.873 I6.625 J0
X-11.233 Y48.735 I-0.903 J0
G1 X-15.32 Y47.458
X-15.38 Y47.442
X-15.441 Y47.429
G3 X-15.145 Y45.648 I0.148 J-0.891
X-14.62 Y47.14 I-0.148 J0.891
G1 X-16.156 Y48.858
G3 X-18.215 Y46.888 Z-6.656 I-1.029 J-0.985 F333.3
X-16.156 Y48.858 Z-6.813 I1.029 J0.985
X-18.215 Y46.888 Z-6.969 I-1.029 J-0.985
X-16.156 Y48.858 Z-7.125 I1.029 J0.985
X-18.215 Y46.888 Z-7.282 I-1.029 J-0.985
X-15.761 Y47.873 Z-7.4 I1.029 J0.985
X-17.611 Y47.873 I-0.925 J0 F400
X-12.911 Y47.873 I2.35 J0
X-20.461 Y47.873 I-3.775 J0
X-10.061 Y47.873 I5.2 J0
X-23.311 Y47.873 I-6.625 J0
X-10.061 Y47.873 I6.625 J0
X-11.233 Y48.735 I-0.903 J0
G1 X-15.32 Y47.458
X-15.38 Y47.442
X-15.441 Y47.429
G3 X-15.145 Y45.648 I0.148 J-0.891
X-14.62 Y47.14 I-0.148 J0.891
G1 X-16.156 Y48.858
G3 X-18.215 Y46.888 Z-7.556 I-1.029 J-0.985 F333.3
X-16.156 Y48.858 Z-7.713 I1.029 J0.985
X-18.215 Y46.888 Z-7.869 I-1.029 J-0.985
X-16.156 Y48.858 Z-8.025 I1.029 J0.985
X-18.215 Y46.888 Z-8.182 I-1.029 J-0.985
X-15.761 Y47.873 Z-8.3 I1.029 J0.985
X-17.611 Y47.873 I-0.925 J0 F400
X-12.911 Y47.873 I2.35 J0
X-20.461 Y47.873 I-3.775 J0
X-10.061 Y47.873 I5.2 J0
X-23.311 Y47.873 I-6.625 J0
X-10.061 Y47.873 I6.625 J0
G0 Z6
X6.256 Y56.738
G1 Z3.5 F400
G3 X5.491 Y53.993 Z3.344 I-0.383 J-1.373 F333.3
X6.256 Y56.738 Z3.187 I0.383 J1.373
X5.491 Y53.993 Z3.031 I-0.383 J-1.373
X6.256 Y56.738 Z2.875 I0.383 J1.373
X5.491 Y53.993 Z2.718 I-0.383 J-1.373
X6.256 Y56.738 Z2.562 I0.383 J1.373
X5.491 Y53.993 Z2.406 I-0.383 J-1.373
X6.256 Y56.738 Z2.249 I0.383 J1.373
X5.491 Y53.993 Z2.093 I-0.383 J-1.373
X6.256 Y56.738 Z1.937 I0.383 J1.373
X5.491 Y53.993 Z1.78 I-0.383 J-1.373
X6.256 Y56.738 Z1.624 I0.383 J1.373
X5.491 Y53.993 Z1.468 I-0.383 J-1.373
X6.256 Y56.738 Z1.311 I0.383 J1.373
X5.491 Y53.993 Z1.155 I-0.383 J-1.373
X6.256 Y56.738 Z0.999 I0.383 J1.373
X5.491 Y53.993 Z0.842 I-0.383 J-1.373
X6.256 Y56.738 Z0.686 I0.383 J1.373
X5.491 Y53.993 Z0.53 I-0.383 J-1.373
X6.256 Y56.738 Z0.373 I0.383 J1.373
X5.491 Y53.993 Z0.217 I-0.383 J-1.373
X6.256 Y56.738 Z0.061 I0.383 J1.373
X5.491 Y53.993 Z-0.096 I-0.383 J-1.373
X6.256 Y56.738 Z-0.252 I0.383 J1.373
X5.491 Y53.993 Z-0.408 I-0.383 J-1.373
X7.299 Y55.366 Z-0.5 I0.383 J1.373
X5.449 Y55.366 I-0.925 J0 F400
X10.149 Y55.366 I2.35 J0
X2.599 Y55.366 I-3.775 J0
X12.999 Y55.366 I5.2 J0
X-0.251 Y55.366 I-6.625 J0
X12.999 Y55.366 I6.625 J0
X11.887 Y56.16 I-0.84 J0
G1 X8.113 Y54.87
G2 X7.027 Y55.46 I-0.272 J0.794
G1 X6.86 Y56.129
G3 X6.292 Y56.728 I-0.814 J-0.204
X5.455 Y54.003 Z-0.656 I-0.419 J-1.362 F333.3
X6.292 Y56.728 Z-0.813 I0.419 J1.362
X5.455 Y54.003 Z-0.969 I-0.419 J-1.362
X6.292 Y56.728 Z-1.125 I0.419 J1.362
X5.455 Y54.003 Z-1.282 I-0.419 J-1.362
X6.292 Y56.728 Z-1.438 I0.419 J1.362
X5.455 Y54.003 Z-1.594 I-0.419 J-1.362
X6.292 Y56.728 Z-1.751 I0.419 J1.362
X5.455 Y54.003 Z-1.907 I-0.419 J-1.362
X7.299 Y55.366 Z-2 I0.419 J1.362
X5.449 Y55.366 I-0.925 J0 F400
X10.149 Y55.366 I2.35 J0
X2.599 Y55.366 I-3.775 J0
X12.999 Y55.366 I5.2 J0
X-0.251 Y55.366 I-6.625 J0
X12.999 Y55.366 I6.625 J0
X11.887 Y56.16 I-0.84 J0
G1 X8.113 Y54.87
G2 X7.027 Y55.46 I-0.272 J0.794
G1 X6.86 Y56.129
G3 X6.292 Y56.728 I-0.814 J-0.204
X5.455 Y54.003 Z-2.156 I-0.419 J-1.362 F333.3
X6.292 Y56.728 Z-2.313 I0.419 J1.362
X5.455 Y54.003 Z-2.469 I-0.419 J-1.362
X6.292 Y56.728 Z-2.625 I0.419 J1.362
X5.455 Y54.003 Z-2.782 I-0.419 J-1.362
X6.292 Y56.728 Z-2.938 I0.419 J1.362
X5.455 Y54.003 Z-3.094 I-0.419 J-1.362
X6.292 Y56.728 Z-3.251 I0.419 J1.362
X5.455 Y54.003 Z-3.407 I-0.419 J-1.362
X7.299 Y55.366 Z-3.5 I0.419 J1.362
X5.449 Y55.366 I-0.925 J0 F400
X10.149 Y55.366 I2.35 J0
X2.599 Y55.366 I-3.775 J0
X12.999 Y55.366 I5.2 J0
X-0.251 Y55.366 I-6.625 J0
X12.999 Y55.366 I6.625 J0
X11.887 Y56.16 I-0.84 J0
G1 X8.113 Y54.87
G2 X7.027 Y55.46 I-0.272 J0.794
G1 X6.86 Y56.129
G3 X6.292 Y56.728 I-0.814 J-0.204
X5.455 Y54.003 Z-3.656 I-0.419 J-1.362 F333.3
X6.292 Y56.728 Z-3.813 I0.419 J1.362
X5.455 Y54.003 Z-3.969 I-0.419 J-1.362
X6.292 Y56.728 Z-4.125 I0.419 J1.362
X5.455 Y54.003 Z-4.282 I-0.419 J-1.362
X6.292 Y56.728 Z-4.438 I0.419 J1.362
X5.455 Y54.003 Z-4.594 I-0.419 J-1.362
X6.292 Y56.728 Z-4.751 I0.419 J1.362
X5.455 Y54.003 Z-4.907 I-0.419 J-1.362
X7.299 Y55.366 Z-5 I0.419 J1.362
X5.449 Y55.366 I-0.925 J0 F400
X10.149 Y55.366 I2.35 J0
X2.599 Y55.366 I-3.775 J0
X12.999 Y55.366 I5.2 J0
X-0.251 Y55.366 I-6.625 J0
X12.999 Y55.366 I6.625 J0
X11.887 Y56.16 I-0.84 J0
G1 X8.113 Y54.87
G2 X7.027 Y55.46 I-0.272 J0.794
G1 X6.86 Y56.129
G3 X6.292 Y56.728 I-0.814 J-0.204
X5.455 Y54.003 Z-5.156 I-0.419 J-1.362 F333.3
X6.292 Y56.728 Z-5.313 I0.419 J1.362
X5.455 Y54.003 Z-5.469 I-0.419 J-1.362
X6.292 Y56.728 Z-5.625 I0.419 J1.362
X5.455 Y54.003 Z-5.782 I-0.419 J-1.362
X6.292 Y56.728 Z-5.938 I0.419 J1.362
X5.455 Y54.003 Z-6.094 I-0.419 J-1.362
X6.292 Y56.728 Z-6.251 I0.419 J1.362
X5.455 Y54.003 Z-6.407 I-0.419 J-1.362
X7.299 Y55.366 Z-6.5 I0.419 J1.362
X5.449 Y55.366 I-0.925 J0 F400
X10.149 Y55.366 I2.35 J0
X2.599 Y55.366 I-3.775 J0
X12.999 Y55.366 I5.2 J0
X-0.251 Y55.366 I-6.625 J0
X12.999 Y55.366 I6.625 J0
X11.827 Y56.227 I-0.903 J0
G1 X7.739 Y54.951
X7.679 Y54.934
X7.618 Y54.922
G3 X7.914 Y53.141 I0.148 J-0.891
X8.439 Y54.633 I-0.148 J0.891
G1 X6.903 Y56.351
G3 X4.844 Y54.38 Z-6.656 I-1.029 J-0.985 F333.3
X6.903 Y56.351 Z-6.813 I1.029 J0.985
X4.844 Y54.38 Z-6.969 I-1.029 J-0.985
X6.903 Y56.351 Z-7.125 I1.029 J0.985
X4.844 Y54.38 Z-7.282 I-1.029 J-0.985
X7.299 Y55.366 Z-7.4 I1.029 J0.985
X5.449 Y55.366 I-0.925 J0 F400
X10.149 Y55.366 I2.35 J0
X2.599 Y55.366 I-3.775 J0
X12.999 Y55.366 I5.2 J0
X-0.251 Y55.366 I-6.625 J0
X12.999 Y55.366 I6.625 J0
X11.827 Y56.227 I-0.903 J0
G1 X7.739 Y54.951
X7.679 Y54.934
X7.618 Y54.922
G3 X7.914 Y53.141 I0.148 J-0.891
X8.439 Y54.633 I-0.148 J0.891
G1 X6.903 Y56.351
G3 X4.844 Y54.38 Z-7.556 I-1.029 J-0.985 F333.3
X6.903 Y56.351 Z-7.713 I1.029 J0.985
X4.844 Y54.38 Z-7.869 I-1.029 J-0.985
X6.903 Y56.351 Z-8.025 I1.029 J0.985
X4.844 Y54.38 Z-8.182 I-1.029 J-0.985
X7.299 Y55.366 Z-8.3 I1.029 J0.985
X5.449 Y55.366 I-0.925 J0 F400
X10.149 Y55.366 I2.35 J0
X2.599 Y55.366 I-3.775 J0
X12.999 Y55.366 I5.2 J0
X-0.251 Y55.366 I-6.625 J0
X12.999 Y55.366 I6.625 J0
G0 Z16

(2D Pocket5)
X6.908 Y37.123
Z16
Z6
G1 Z3.5 F400
G3 X6.142 Y34.377 Z3.344 I-0.383 J-1.373 F333.3
X6.908 Y37.123 Z3.187 I0.383 J1.373
X6.142 Y34.377 Z3.031 I-0.383 J-1.373
X6.908 Y37.123 Z2.875 I0.383 J1.373
X6.142 Y34.377 Z2.718 I-0.383 J-1.373
X6.908 Y37.123 Z2.562 I0.383 J1.373
X6.142 Y34.377 Z2.406 I-0.383 J-1.373
X6.908 Y37.123 Z2.249 I0.383 J1.373
X6.142 Y34.377 Z2.093 I-0.383 J-1.373
X6.908 Y37.123 Z1.937 I0.383 J1.373
X6.142 Y34.377 Z1.78 I-0.383 J-1.373
X6.908 Y37.123 Z1.624 I0.383 J1.373
X6.142 Y34.377 Z1.468 I-0.383 J-1.373
X6.908 Y37.123 Z1.311 I0.383 J1.373
X6.142 Y34.377 Z1.155 I-0.383 J-1.373
X6.908 Y37.123 Z0.999 I0.383 J1.373
X6.142 Y34.377 Z0.842 I-0.383 J-1.373
X6.908 Y37.123 Z0.686 I0.383 J1.373
X6.142 Y34.377 Z0.53 I-0.383 J-1.373
X6.908 Y37.123 Z0.373 I0.383 J1.373
X6.142 Y34.377 Z0.217 I-0.383 J-1.373
X6.908 Y37.123 Z0.061 I0.383 J1.373
X6.142 Y34.377 Z-0.096 I-0.383 J-1.373
X6.908 Y37.123 Z-0.252 I0.383 J1.373
X6.142 Y34.377 Z-0.408 I-0.383 J-1.373
X7.95 Y35.75 Z-0.5 I0.383 J1.373
X-7.95 Y35.75 I-7.95 J0 F400
X7.95 Y35.75 I7.95 J0
G2 X9.127 Y37.667 I2.149 J0
G3 X9.915 Y39.774 I-0.752 J1.482
X-9.915 Y31.726 I-9.915 J-4.024
X9.915 Y39.774 I9.915 J4.024
G2 X10.31 Y42.037 I2.01 J0.815
G3 X10.354 Y44.334 I-1.31 J1.175
X-10.354 Y27.166 I-10.354 J-8.584
X10.354 Y44.334 I10.354 J8.584
G2 X10.055 Y46.644 I1.679 J1.392
G3 X9.465 Y48.897 I-1.658 J0.77
X-9.465 Y22.603 I-9.465 J-13.147
X9.465 Y48.897 I9.465 J13.147
G2 X8.593 Y51.081 I1.279 J1.777
G3 X7.489 Y53.157 I-1.847 J0.35
X-7.489 Y18.343 I-7.489 J-17.407
X7.489 Y53.157 I7.489 J17.407
G2 X6.162 Y55.119 I0.868 J2.017
G3 X4.655 Y56.945 I-1.919 J-0.048
X-4.655 Y14.555 I-4.655 J-21.195
X4.655 Y56.945 I4.655 J21.195
G2 X2.976 Y58.632 I0.472 J2.149
G3 X1.16 Y60.172 I-1.908 J-0.409
X-1.16 Y11.328 I-1.16 J-24.422
X1.16 Y60.172 I1.16 J24.422
G2 X-0.819 Y61.587 I0.106 J2.241
G3 X-2.901 Y62.845 I-1.868 J-0.74
X-22.046 Y51.767 I2.901 J-27.095
X-22.046 Y19.733 I22.046 J-16.017
X8.421 Y9.834 I22.046 J16.017
X27.25 Y35.75 I-8.421 J25.916
X8.421 Y61.666 I-27.25 J0
X-2.901 Y62.845 I-8.421 J-25.916
X-4.176 Y61.089 I0.156 J-1.454
G1 X0.818 Y37.462
G3 X1.63 Y36.408 I1.438 J0.268
G1 X5.888 Y34.392
G3 X7.877 Y35.185 I0.626 J1.322
X6.944 Y37.112 I-1.363 J0.529
X6.106 Y34.388 Z-0.656 I-0.419 J-1.362 F333.3
X6.944 Y37.112 Z-0.813 I0.419 J1.362
X6.106 Y34.388 Z-0.969 I-0.419 J-1.362
X6.944 Y37.112 Z-1.125 I0.419 J1.362
X6.106 Y34.388 Z-1.282 I-0.419 J-1.362
X6.944 Y37.112 Z-1.438 I0.419 J1.362
X6.106 Y34.388 Z-1.594 I-0.419 J-1.362
X6.944 Y37.112 Z-1.751 I0.419 J1.362
X6.106 Y34.388 Z-1.907 I-0.419 J-1.362
X7.95 Y35.75 Z-2 I0.419 J1.362
X-7.95 Y35.75 I-7.95 J0 F400
X7.95 Y35.75 I7.95 J0
G2 X9.127 Y37.667 I2.149 J0
G3 X9.915 Y39.774 I-0.752 J1.482
X-9.915 Y31.726 I-9.915 J-4.024
X9.915 Y39.774 I9.915 J4.024
G2 X10.31 Y42.037 I2.01 J0.815
G3 X10.354 Y44.334 I-1.31 J1.175
X-10.354 Y27.166 I-10.354 J-8.584
X10.354 Y44.334 I10.354 J8.584
G2 X10.055 Y46.644 I1.679 J1.392
G3 X9.465 Y48.897 I-1.658 J0.77
X-9.465 Y22.603 I-9.465 J-13.147
X9.465 Y48.897 I9.465 J13.147
G2 X8.593 Y51.081 I1.279 J1.777
G3 X7.489 Y53.157 I-1.847 J0.35
X-7.489 Y18.343 I-7.489 J-17.407
X7.489 Y53.157 I7.489 J17.407
G2 X6.162 Y55.119 I0.868 J2.017
G3 X4.655 Y56.945 I-1.919 J-0.048
X-4.655 Y14.555 I-4.655 J-21.195
X4.655 Y56.945 I4.655 J21.195
G2 X2.976 Y58.632 I0.472 J2.149
G3 X1.16 Y60.172 I-1.908 J-0.409
X-1.16 Y11.328 I-1.16 J-24.422
X1.16 Y60.172 I1.16 J24.422
G2 X-0.819 Y61.587 I0.106 J2.241
G3 X-2.901 Y62.845 I-1.868 J-0.74
X-22.046 Y51.767 I2.901 J-27.095
X-22.046 Y19.733 I22.046 J-16.017
X8.421 Y9.834 I22.046 J16.017
X27.25 Y35.75 I-8.421 J25.916
X8.421 Y61.666 I-27.25 J0
X-2.901 Y62.845 I-8.421 J-25.916
X-4.176 Y61.089 I0.156 J-1.454
G1 X0.818 Y37.462
G3 X1.63 Y36.408 I1.438 J0.268
G1 X5.888 Y34.392
G3 X7.877 Y35.185 I0.626 J1.322
X6.944 Y37.112 I-1.363 J0.529
X6.106 Y34.388 Z-2.156 I-0.419 J-1.362 F333.3
X6.944 Y37.112 Z-2.313 I0.419 J1.362
X6.106 Y34.388 Z-2.469 I-0.419 J-1.362
X6.944 Y37.112 Z-2.625 I0.419 J1.362
X6.106 Y34.388 Z-2.782 I-0.419 J-1.362
X6.944 Y37.112 Z-2.938 I0.419 J1.362
X6.106 Y34.388 Z-3.094 I-0.419 J-1.362
X6.944 Y37.112 Z-3.251 I0.419 J1.362
X6.106 Y34.388 Z-3.407 I-0.419 J-1.362
X7.95 Y35.75 Z-3.5 I0.419 J1.362
X-7.95 Y35.75 I-7.95 J0 F400
X7.95 Y35.75 I7.95 J0
G2 X9.127 Y37.667 I2.149 J0
G3 X9.915 Y39.774 I-0.752 J1.482
X-9.915 Y31.726 I-9.915 J-4.024
X9.915 Y39.774 I9.915 J4.024
G2 X10.31 Y42.037 I2.01 J0.815
G3 X10.354 Y44.334 I-1.31 J1.175
X-10.354 Y27.166 I-10.354 J-8.584
X10.354 Y44.334 I10.354 J8.584
G2 X10.055 Y46.644 I1.679 J1.392
G3 X9.465 Y48.897 I-1.658 J0.77
X-9.465 Y22.603 I-9.465 J-13.147
X9.465 Y48.897 I9.465 J13.147
G2 X8.593 Y51.081 I1.279 J1.777
G3 X7.489 Y53.157 I-1.847 J0.35
X-7.489 Y18.343 I-7.489 J-17.407
X7.489 Y53.157 I7.489 J17.407
G2 X6.162 Y55.119 I0.868 J2.017
G3 X4.655 Y56.945 I-1.919 J-0.048
X-4.655 Y14.555 I-4.655 J-21.195
X4.655 Y56.945 I4.655 J21.195
G2 X2.976 Y58.632 I0.472 J2.149
G3 X1.16 Y60.172 I-1.908 J-0.409
X-1.16 Y11.328 I-1.16 J-24.422
X1.16 Y60.172 I1.16 J24.422
G2 X-0.819 Y61.587 I0.106 J2.241
G3 X-2.901 Y62.845 I-1.868 J-0.74
X-22.046 Y51.767 I2.901 J-27.095
X-22.046 Y19.733 I22.046 J-16.017
X8.421 Y9.834 I22.046 J16.017
X27.25 Y35.75 I-8.421 J25.916
X8.421 Y61.666 I-27.25 J0
X-2.901 Y62.845 I-8.421 J-25.916
X-4.089 Y60.944 Z-3.55 I0.152 J-1.417 F333.3
G1 X5.185 Y35.266 Z-4.074
G3 X7.95 Y35.75 Z-4.15 I1.34 J0.484
X-7.95 Y35.75 I-7.95 J0 F400
X7.95 Y35.75 I7.95 J0
G2 X9.127 Y37.667 I2.149 J0
G3 X9.915 Y39.774 I-0.752 J1.482
X-9.915 Y31.726 I-9.915 J-4.024
X9.915 Y39.774 I9.915 J4.024
G2 X10.31 Y42.037 I2.01 J0.815
G3 X10.354 Y44.334 I-1.31 J1.175
X-10.354 Y27.166 I-10.354 J-8.584
X10.354 Y44.334 I10.354 J8.584
G2 X10.055 Y46.644 I1.679 J1.392
G3 X9.465 Y48.897 I-1.658 J0.77
X-9.465 Y22.603 I-9.465 J-13.147
X9.465 Y48.897 I9.465 J13.147
G2 X8.593 Y51.081 I1.279 J1.777
G3 X7.489 Y53.157 I-1.847 J0.35
X-7.489 Y18.343 I-7.489 J-17.407
X7.489 Y53.157 I7.489 J17.407
G2 X6.162 Y55.119 I0.868 J2.017
G3 X4.655 Y56.945 I-1.919 J-0.048
X-4.655 Y14.555 I-4.655 J-21.195
X4.655 Y56.945 I4.655 J21.195
G2 X2.976 Y58.632 I0.472 J2.149
G3 X1.16 Y60.172 I-1.908 J-0.409
X-1.16 Y11.328 I-1.16 J-24.422
X1.16 Y60.172 I1.16 J24.422
G2 X-0.819 Y61.587 I0.106 J2.241
G3 X-2.901 Y62.845 I-1.868 J-0.74
X-22.046 Y51.767 I2.901 J-27.095
X-22.046 Y19.733 I22.046 J-16.017
X8.421 Y9.834 I22.046 J16.017
X27.25 Y35.75 I-8.421 J25.916
X8.421 Y61.666 I-27.25 J0
X-2.901 Y62.845 I-8.421 J-25.916
G0 Z16
X-0.117 Y37.123
Z6
G1 Z3.5 F400
G3 X-0.883 Y34.377 Z3.344 I-0.383 J-1.373 F333.3
X-0.117 Y37.123 Z3.187 I0.383 J1.373
X-0.883 Y34.377 Z3.031 I-0.383 J-1.373
X-0.117 Y37.123 Z2.875 I0.383 J1.373
X-0.883 Y34.377 Z2.718 I-0.383 J-1.373
X-0.117 Y37.123 Z2.562 I0.383 J1.373
X-0.883 Y34.377 Z2.406 I-0.383 J-1.373
X-0.117 Y37.123 Z2.249 I0.383 J1.373
X-0.883 Y34.377 Z2.093 I-0.383 J-1.373
X-0.117 Y37.123 Z1.937 I0.383 J1.373
X-0.883 Y34.377 Z1.78 I-0.383 J-1.373
X-0.117 Y37.123 Z1.624 I0.383 J1.373
X-0.883 Y34.377 Z1.468 I-0.383 J-1.373
X-0.117 Y37.123 Z1.311 I0.383 J1.373
X-0.883 Y34.377 Z1.155 I-0.383 J-1.373
X-0.117 Y37.123 Z0.999 I0.383 J1.373
X-0.883 Y34.377 Z0.842 I-0.383 J-1.373
X-0.117 Y37.123 Z0.686 I0.383 J1.373
X-0.883 Y34.377 Z0.53 I-0.383 J-1.373
X-0.117 Y37.123 Z0.373 I0.383 J1.373
X-0.883 Y34.377 Z0.217 I-0.383 J-1.373
X-0.117 Y37.123 Z0.061 I0.383 J1.373
X-0.883 Y34.377 Z-0.096 I-0.383 J-1.373
X-0.117 Y37.123 Z-0.252 I0.383 J1.373
X-0.883 Y34.377 Z-0.408 I-0.383 J-1.373
X0.925 Y35.75 Z-0.5 I0.383 J1.373
X-0.925 Y35.75 I-0.925 J0 F400
X3.775 Y35.75 I2.35 J0
X-3.775 Y35.75 I-3.775 J0
X6.625 Y35.75 I5.2 J0
X-6.625 Y35.75 I-6.625 J0
X6.625 Y35.75 I6.625 J0
X5.514 Y36.544 I-0.84 J0
G1 X1.74 Y35.254
G2 X0.654 Y35.845 I-0.272 J0.794
G1 X0.487 Y36.513
G3 X-0.081 Y37.112 I-0.814 J-0.204
X-0.919 Y34.388 Z-0.656 I-0.419 J-1.362 F333.3
X-0.081 Y37.112 Z-0.813 I0.419 J1.362
X-0.919 Y34.388 Z-0.969 I-0.419 J-1.362
X-0.081 Y37.112 Z-1.125 I0.419 J1.362
X-0.919 Y34.388 Z-1.282 I-0.419 J-1.362
X-0.081 Y37.112 Z-1.438 I0.419 J1.362
X-0.919 Y34.388 Z-1.594 I-0.419 J-1.362
X-0.081 Y37.112 Z-1.751 I0.419 J1.362
X-0.919 Y34.388 Z-1.907 I-0.419 J-1.362
X0.925 Y35.75 Z-2 I0.419 J1.362
X-0.925 Y35.75 I-0.925 J0 F400
X3.775 Y35.75 I2.35 J0
X-3.775 Y35.75 I-3.775 J0
X6.625 Y35.75 I5.2 J0
X-6.625 Y35.75 I-6.625 J0
X6.625 Y35.75 I6.625 J0
X5.514 Y36.544 I-0.84 J0
G1 X1.74 Y35.254
G2 X0.654 Y35.845 I-0.272 J0.794
G1 X0.487 Y36.513
G3 X-0.081 Y37.112 I-0.814 J-0.204
X-0.919 Y34.388 Z-2.156 I-0.419 J-1.362 F333.3
X-0.081 Y37.112 Z-2.313 I0.419 J1.362
X-0.919 Y34.388 Z-2.469 I-0.419 J-1.362
X-0.081 Y37.112 Z-2.625 I0.419 J1.362
X-0.919 Y34.388 Z-2.782 I-0.419 J-1.362
X-0.081 Y37.112 Z-2.938 I0.419 J1.362
X-0.919 Y34.388 Z-3.094 I-0.419 J-1.362
X-0.081 Y37.112 Z-3.251 I0.419 J1.362
X-0.919 Y34.388 Z-3.407 I-0.419 J-1.362
X0.925 Y35.75 Z-3.5 I0.419 J1.362
X-0.925 Y35.75 I-0.925 J0 F400
X3.775 Y35.75 I2.35 J0
X-3.775 Y35.75 I-3.775 J0
X6.625 Y35.75 I5.2 J0
X-6.625 Y35.75 I-6.625 J0
X6.625 Y35.75 I6.625 J0
X5.514 Y36.544 I-0.84 J0
G1 X1.74 Y35.254
G2 X0.654 Y35.845 I-0.272 J0.794
G1 X0.487 Y36.513
G3 X-0.081 Y37.112 I-0.814 J-0.204
X-0.919 Y34.388 Z-3.656 I-0.419 J-1.362 F333.3
X-0.081 Y37.112 Z-3.813 I0.419 J1.362
X-0.919 Y34.388 Z-3.969 I-0.419 J-1.362
X-0.081 Y37.112 Z-4.125 I0.419 J1.362
X-0.919 Y34.388 Z-4.282 I-0.419 J-1.362
X-0.081 Y37.112 Z-4.438 I0.419 J1.362
X-0.919 Y34.388 Z-4.594 I-0.419 J-1.362
X-0.081 Y37.112 Z-4.751 I0.419 J1.362
X-0.919 Y34.388 Z-4.907 I-0.419 J-1.362
X0.925 Y35.75 Z-5 I0.419 J1.362
X-0.925 Y35.75 I-0.925 J0 F400
X3.775 Y35.75 I2.35 J0
X-3.775 Y35.75 I-3.775 J0
X6.625 Y35.75 I5.2 J0
X-6.625 Y35.75 I-6.625 J0
X6.625 Y35.75 I6.625 J0
X5.514 Y36.544 I-0.84 J0
G1 X1.74 Y35.254
G2 X0.654 Y35.845 I-0.272 J0.794
G1 X0.487 Y36.513
G3 X-0.081 Y37.112 I-0.814 J-0.204
X-0.919 Y34.388 Z-5.156 I-0.419 J-1.362 F333.3
X-0.081 Y37.112 Z-5.313 I0.419 J1.362
X-0.919 Y34.388 Z-5.469 I-0.419 J-1.362
X-0.081 Y37.112 Z-5.625 I0.419 J1.362
X-0.919 Y34.388 Z-5.782 I-0.419 J-1.362
X-0.081 Y37.112 Z-5.938 I0.419 J1.362
X-0.919 Y34.388 Z-6.094 I-0.419 J-1.362
X-0.081 Y37.112 Z-6.251 I0.419 J1.362
X-0.919 Y34.388 Z-6.407 I-0.419 J-1.362
X0.925 Y35.75 Z-6.5 I0.419 J1.362
X-0.925 Y35.75 I-0.925 J0 F400
X3.775 Y35.75 I2.35 J0
X-3.775 Y35.75 I-3.775 J0
X6.625 Y35.75 I5.2 J0
X-6.625 Y35.75 I-6.625 J0
X6.625 Y35.75 I6.625 J0
X5.453 Y36.612 I-0.903 J0
G1 X1.366 Y35.335
X1.306 Y35.319
X1.245 Y35.306
G3 X1.54 Y33.525 I0.148 J-0.891
X2.066 Y35.017 I-0.148 J0.891
G1 X0.529 Y36.735
G3 X-1.529 Y34.765 Z-6.656 I-1.029 J-0.985 F333.3
X0.529 Y36.735 Z-6.813 I1.029 J0.985
X-1.529 Y34.765 Z-6.969 I-1.029 J-0.985
X0.529 Y36.735 Z-7.125 I1.029 J0.985
X-1.529 Y34.765 Z-7.282 I-1.029 J-0.985
X0.925 Y35.75 Z-7.4 I1.029 J0.985
X-0.925 Y35.75 I-0.925 J0 F400
X3.775 Y35.75 I2.35 J0
X-3.775 Y35.75 I-3.775 J0
X6.625 Y35.75 I5.2 J0
X-6.625 Y35.75 I-6.625 J0
X6.625 Y35.75 I6.625 J0
X5.453 Y36.612 I-0.903 J0
G1 X1.366 Y35.335
X1.306 Y35.319
X1.245 Y35.306
G3 X1.54 Y33.525 I0.148 J-0.891
X2.066 Y35.017 I-0.148 J0.891
G1 X0.529 Y36.735
G3 X-1.529 Y34.765 Z-7.556 I-1.029 J-0.985 F333.3
X0.529 Y36.735 Z-7.713 I1.029 J0.985
X-1.529 Y34.765 Z-7.869 I-1.029 J-0.985
X0.529 Y36.735 Z-8.025 I1.029 J0.985
X-1.529 Y34.765 Z-8.182 I-1.029 J-0.985
X0.925 Y35.75 Z-8.3 I1.029 J0.985
X-0.925 Y35.75 I-0.925 J0 F400
X3.775 Y35.75 I2.35 J0
X-3.775 Y35.75 I-3.775 J0
X6.625 Y35.75 I5.2 J0
X-6.625 Y35.75 I-6.625 J0
X6.625 Y35.75 I6.625 J0
G0 Z16

(2D Pocket6)
X-20.394 Y10.026
Z16
Z6
G1 Z3.5 F400
Z-0.5 F333.3
X-12.016 Y5.188 F400
X-11.941 Y5.318
X-20.384 Y10.193
X-20.459 Y10.063
X-20.394 Y10.026
Z2
Z-2 F333.3
X-12.016 Y5.188 F400
X-11.941 Y5.318
X-20.384 Y10.193
X-20.459 Y10.063
X-20.394 Y10.026
Z0.5
Z-3.5 F333.3
X-12.016 Y5.188 F400
X-11.941 Y5.318
X-20.384 Y10.193
X-20.459 Y10.063
X-20.394 Y10.026
Z-1
Z-4.05 F333.3
X-12.016 Y5.188 F400
X-11.941 Y5.318
X-20.384 Y10.193
X-20.459 Y10.063
X-20.394 Y10.026
G0 Z16
X-12.081 Y66.274
Z6
G1 Z3.5 F400
Z-0.5 F333.3
X-20.459 Y61.437 F400
X-20.384 Y61.307
X-11.941 Y66.182
X-12.016 Y66.312
X-12.081 Y66.274
Z2
Z-2 F333.3
X-20.459 Y61.437 F400
X-20.384 Y61.307
X-11.941 Y66.182
X-12.016 Y66.312
X-12.081 Y66.274
Z0.5
Z-3.5 F333.3
X-20.459 Y61.437 F400
X-20.384 Y61.307
X-11.941 Y66.182
X-12.016 Y66.312
X-12.081 Y66.274
Z-1
Z-4.05 F333.3
X-20.459 Y61.437 F400
X-20.384 Y61.307
X-11.941 Y66.182
X-12.016 Y66.312
X-12.081 Y66.274
G0 Z16
X32.4 Y39.377
Z6
G1 Z3.5 F400
Y40.55 Z3.459 F333.3
Y31.102 Z3.129
Y40.55 Z2.799
Y31.102 Z2.469
Y40.55 Z2.139
Y31.102 Z1.809
Y40.55 Z1.48
Y31.102 Z1.15
Y40.55 Z0.82
Y31.102 Z0.49
Y40.55 Z0.16
Y31.102 Z-0.17
Y40.55 Z-0.5
Y40.625
X32.325 F400
Y30.875
X32.475
Y40.625
X32.4
Y35.386
Y40.55 Z-0.68 F333.3
Y31.102 Z-1.01
Y40.55 Z-1.34
Y31.102 Z-1.67
Y40.55 Z-2
Y40.625
X32.325 F400
Y30.875
X32.475
Y40.625
X32.4
Y35.386
Y40.55 Z-2.18 F333.3
Y31.102 Z-2.51
Y40.55 Z-2.84
Y31.102 Z-3.17
Y40.55 Z-3.5
Y40.625
X32.325 F400
Y30.875
X32.475
Y40.625
X32.4
Y37.405
Y31.102 Z-3.72 F333.3
Y40.55 Z-4.05
Y40.625
X32.325 F400
Y30.875
X32.475
Y40.625
X32.4
G0 Z16

(2D Contour8)
X0.3 Y-2.4
Z16
Z6
G1 Z3.5 F333.3
Z-0.2
G19 G3 Y-2.1 Z-0.5 J0.3 K0 F400
G1 Y-1.8
G17 G3 X0 Y-1.5 I-0.3 J0
G2 X0 Y73 I0 J37.25
X0 Y-1.5 I0 J-37.25
G3 X-0.3 Y-1.8 I0 J-0.3
G1 Y-2.1
G19 G2 Y-2.4 Z-0.2 J0 K0.3
G0 Z6
X0.3
G1 Z2 F333.3
Z-1.7
G3 Y-2.1 Z-2 J0.3 K0 F400
G1 Y-1.8
G17 G3 X0 Y-1.5 I-0.3 J0
G2 X0 Y73 I0 J37.25
X0 Y-1.5 I0 J-37.25
G3 X-0.3 Y-1.8 I0 J-0.3
G1 Y-2.1
G19 G2 Y-2.4 Z-1.7 J0 K0.3
G0 Z6
X0.3
G1 Z0.5 F333.3
Z-3.2
G3 Y-2.1 Z-3.5 J0.3 K0 F400
G1 Y-1.8
G17 G3 X0 Y-1.5 I-0.3 J0
G2 X0 Y73 I0 J37.25
X0 Y-1.5 I0 J-37.25
G3 X-0.3 Y-1.8 I0 J-0.3
G1 Y-2.1
G19 G2 Y-2.4 Z-3.2 J0 K0.3
G0 Z6
X0.3
G1 Z-1 F333.3
Z-4.7
G3 Y-2.1 Z-5 J0.3 K0 F400
G1 Y-1.8
G17 G3 X0 Y-1.5 I-0.3 J0
G2 X0 Y73 I0 J37.25
X0 Y-1.5 I0 J-37.25
G3 X-0.3 Y-1.8 I0 J-0.3
G1 Y-2.1
G19 G2 Y-2.4 Z-4.7 J0 K0.3
G0 Z6
X0.3
G1 Z-2.5 F333.3
Z-6.2
G3 Y-2.1 Z-6.5 J0.3 K0 F400
G1 Y-1.8
G17 G3 X0 Y-1.5 I-0.3 J0
G2 X0 Y73 I0 J37.25
X0 Y-1.5 I0 J-37.25
G3 X-0.3 Y-1.8 I0 J-0.3
G1 Y-2.1
G19 G2 Y-2.4 Z-6.2 J0 K0.3
G0 Z6
X0.3
G1 Z-4 F333.3
Z-7.1
G3 Y-2.1 Z-7.4 J0.3 K0 F400
G1 Y-1.8
G17 G3 X0 Y-1.5 I-0.3 J0
G2 X0 Y73 I0 J37.25
X0 Y-1.5 I0 J-37.25
G3 X-0.3 Y-1.8 I0 J-0.3
G1 Y-2.1
G19 G2 Y-2.4 Z-7.1 J0 K0.3
G0 Z6
X0.3
G1 Z-4.9 F333.3
Z-8
G3 Y-2.1 Z-8.3 J0.3 K0 F400
G1 Y-1.8
G17 G3 X0 Y-1.5 I-0.3 J0
G2 X0 Y73 I0 J37.25
X0 Y-1.5 I0 J-37.25
G3 X-0.3 Y-1.8 I0 J-0.3
G1 Y-2.1
G19 G2 Y-2.4 Z-8 J0 K0.3
G0 Z16
G17
M9
M5
M30
