(1001)
(Machine)
(  vendor: Autodesk)
(  description: Generic 3-axis)
(T1  D=3 CR=0 - ZMIN=-17.3 - flat end mill)
G90 G94
G17
G21

(2D Contour11)
T1
S10000 M3
G54
M8
G0 X28.679 Y-36.689
Z6
Z2
G1 Z1.5 F333.3
Z-0.5
X28.764 Y-36.576 F1000
X30.348 Y-34.688
G3 X11.287 Y-18.702 I-11.959 J5.098
G1 X9.701 Y-20.594
X9.606 Y-20.697
G3 X8.102 Y-22.49 I8.784 J-8.893
G1 X8.017 Y-22.602
X6.431 Y-24.493
G3 X5.552 Y-31.639 I11.959 J-5.097
G2 X5.22 Y-32.839 I-1.481 J-0.236
G1 X1.256 Y-37.564
X2.788 Y-38.849
G2 X2.973 Y-40.962 I-0.964 J-1.149
G1 X2.692 Y-41.297
X9.586 Y-47.082
X9.867 Y-46.748
G2 X11.981 Y-46.563 I1.149 J-0.964
G1 X13.513 Y-47.848
X17.477 Y-43.124
G2 X18.601 Y-42.588 I1.149 J-0.964
G3 X25.487 Y-40.482 I-0.212 J12.998
G1 X27.071 Y-38.594
X27.167 Y-38.49
G3 X28.679 Y-36.689 I-8.777 J8.9
G1 Z-1 F333.3
X28.764 Y-36.576 F1000
X30.348 Y-34.688
G3 X11.287 Y-18.702 I-11.959 J5.098
G1 X9.701 Y-20.594
X9.606 Y-20.697
G3 X8.102 Y-22.49 I8.784 J-8.893
G1 X8.017 Y-22.602
X6.431 Y-24.493
G3 X5.552 Y-31.639 I11.959 J-5.097
G2 X5.22 Y-32.839 I-1.481 J-0.236
G1 X1.256 Y-37.564
X2.788 Y-38.849
G2 X2.973 Y-40.962 I-0.964 J-1.149
G1 X2.692 Y-41.297
X9.586 Y-47.082
X9.867 Y-46.748
G2 X11.981 Y-46.563 I1.149 J-0.964
G1 X13.513 Y-47.848
X17.477 Y-43.124
G2 X18.601 Y-42.588 I1.149 J-0.964
G3 X25.487 Y-40.482 I-0.212 J12.998
G1 X27.071 Y-38.594
X27.167 Y-38.49
G3 X28.679 Y-36.689 I-8.777 J8.9
G1 Z-1.5 F333.3
X28.764 Y-36.576 F1000
X30.348 Y-34.688
G3 X11.287 Y-18.702 I-11.959 J5.098
G1 X9.701 Y-20.594
X9.606 Y-20.697
G3 X8.102 Y-22.49 I8.784 J-8.893
G1 X8.017 Y-22.602
X6.431 Y-24.493
G3 X5.552 Y-31.639 I11.959 J-5.097
G2 X5.22 Y-32.839 I-1.481 J-0.236
G1 X1.256 Y-37.564
X2.788 Y-38.849
G2 X2.973 Y-40.962 I-0.964 J-1.149
G1 X2.692 Y-41.297
X9.586 Y-47.082
X9.867 Y-46.748
G2 X11.981 Y-46.563 I1.149 J-0.964
G1 X13.513 Y-47.848
X17.477 Y-43.124
G2 X18.601 Y-42.588 I1.149 J-0.964
G3 X25.487 Y-40.482 I-0.212 J12.998
G1 X27.071 Y-38.594
X27.167 Y-38.49
G3 X28.679 Y-36.689 I-8.777 J8.9
G1 Z-2 F333.3
X28.764 Y-36.576 F1000
X30.348 Y-34.688
G3 X11.287 Y-18.702 I-11.959 J5.098
G1 X9.701 Y-20.594
X9.606 Y-20.697
G3 X8.102 Y-22.49 I8.784 J-8.893
G1 X8.017 Y-22.602
X6.431 Y-24.493
G3 X5.552 Y-31.639 I11.959 J-5.097
G2 X5.22 Y-32.839 I-1.481 J-0.236
G1 X1.256 Y-37.564
X2.788 Y-38.849
G2 X2.973 Y-40.962 I-0.964 J-1.149
G1 X2.692 Y-41.297
X9.586 Y-47.082
X9.867 Y-46.748
G2 X11.981 Y-46.563 I1.149 J-0.964
G1 X13.513 Y-47.848
X17.477 Y-43.124
G2 X18.601 Y-42.588 I1.149 J-0.964
G3 X25.487 Y-40.482 I-0.212 J12.998
G1 X27.071 Y-38.594
X27.167 Y-38.49
G3 X28.679 Y-36.689 I-8.777 J8.9
G1 Z-2.5 F333.3
X28.764 Y-36.576 F1000
X30.348 Y-34.688
G3 X11.287 Y-18.702 I-11.959 J5.098
G1 X9.701 Y-20.594
X9.606 Y-20.697
G3 X8.102 Y-22.49 I8.784 J-8.893
G1 X8.017 Y-22.602
X6.431 Y-24.493
G3 X5.552 Y-31.639 I11.959 J-5.097
G2 X5.22 Y-32.839 I-1.481 J-0.236
G1 X1.256 Y-37.564
X2.788 Y-38.849
G2 X2.973 Y-40.962 I-0.964 J-1.149
G1 X2.692 Y-41.297
X9.586 Y-47.082
X9.867 Y-46.748
G2 X11.981 Y-46.563 I1.149 J-0.964
G1 X13.513 Y-47.848
X17.477 Y-43.124
G2 X18.601 Y-42.588 I1.149 J-0.964
G3 X25.487 Y-40.482 I-0.212 J12.998
G1 X27.071 Y-38.594
X27.167 Y-38.49
G3 X28.679 Y-36.689 I-8.777 J8.9
G1 Z-3 F333.3
X28.764 Y-36.576 F1000
X30.348 Y-34.688
G3 X11.287 Y-18.702 I-11.959 J5.098
G1 X9.701 Y-20.594
X9.606 Y-20.697
G3 X8.102 Y-22.49 I8.784 J-8.893
G1 X8.017 Y-22.602
X6.431 Y-24.493
G3 X5.552 Y-31.639 I11.959 J-5.097
G2 X5.22 Y-32.839 I-1.481 J-0.236
G1 X1.256 Y-37.564
X2.788 Y-38.849
G2 X2.973 Y-40.962 I-0.964 J-1.149
G1 X2.692 Y-41.297
X9.586 Y-47.082
X9.867 Y-46.748
G2 X11.981 Y-46.563 I1.149 J-0.964
G1 X13.513 Y-47.848
X17.477 Y-43.124
G2 X18.601 Y-42.588 I1.149 J-0.964
G3 X25.487 Y-40.482 I-0.212 J12.998
G1 X27.071 Y-38.594
X27.167 Y-38.49
G3 X28.679 Y-36.689 I-8.777 J8.9
G1 Z-3.5 F333.3
X28.764 Y-36.576 F1000
X30.348 Y-34.688
G3 X11.287 Y-18.702 I-11.959 J5.098
G1 X9.701 Y-20.594
X9.606 Y-20.697
G3 X8.102 Y-22.49 I8.784 J-8.893
G1 X8.017 Y-22.602
X6.431 Y-24.493
G3 X5.552 Y-31.639 I11.959 J-5.097
G2 X5.22 Y-32.839 I-1.481 J-0.236
G1 X1.256 Y-37.564
X2.788 Y-38.849
G2 X2.973 Y-40.962 I-0.964 J-1.149
G1 X2.692 Y-41.297
X9.586 Y-47.082
X9.867 Y-46.748
G2 X11.981 Y-46.563 I1.149 J-0.964
G1 X13.513 Y-47.848
X17.477 Y-43.124
G2 X18.601 Y-42.588 I1.149 J-0.964
G3 X25.487 Y-40.482 I-0.212 J12.998
G1 X27.071 Y-38.594
X27.167 Y-38.49
G3 X28.679 Y-36.689 I-8.777 J8.9
G1 Z-4 F333.3
X28.764 Y-36.576 F1000
X30.348 Y-34.688
G3 X11.287 Y-18.702 I-11.959 J5.098
G1 X9.701 Y-20.594
X9.606 Y-20.697
G3 X8.102 Y-22.49 I8.784 J-8.893
G1 X8.017 Y-22.602
X6.431 Y-24.493
G3 X5.552 Y-31.639 I11.959 J-5.097
G2 X5.22 Y-32.839 I-1.481 J-0.236
G1 X1.256 Y-37.564
X2.788 Y-38.849
G2 X2.973 Y-40.962 I-0.964 J-1.149
G1 X2.692 Y-41.297
X9.586 Y-47.082
X9.867 Y-46.748
G2 X11.981 Y-46.563 I1.149 J-0.964
G1 X13.513 Y-47.848
X17.477 Y-43.124
G2 X18.601 Y-42.588 I1.149 J-0.964
G3 X25.487 Y-40.482 I-0.212 J12.998
G1 X27.071 Y-38.594
X27.167 Y-38.49
G3 X28.679 Y-36.689 I-8.777 J8.9
G1 Z-4.5 F333.3
X28.764 Y-36.576 F1000
X30.348 Y-34.688
G3 X11.287 Y-18.702 I-11.959 J5.098
G1 X9.701 Y-20.594
X9.606 Y-20.697
G3 X8.102 Y-22.49 I8.784 J-8.893
G1 X8.017 Y-22.602
X6.431 Y-24.493
G3 X5.552 Y-31.639 I11.959 J-5.097
G2 X5.22 Y-32.839 I-1.481 J-0.236
G1 X1.256 Y-37.564
X2.788 Y-38.849
G2 X2.973 Y-40.962 I-0.964 J-1.149
G1 X2.692 Y-41.297
X9.586 Y-47.082
X9.867 Y-46.748
G2 X11.981 Y-46.563 I1.149 J-0.964
G1 X13.513 Y-47.848
X17.477 Y-43.124
G2 X18.601 Y-42.588 I1.149 J-0.964
G3 X25.487 Y-40.482 I-0.212 J12.998
G1 X27.071 Y-38.594
X27.167 Y-38.49
G3 X28.679 Y-36.689 I-8.777 J8.9
G1 Z-5 F333.3
X28.764 Y-36.576 F1000
X30.348 Y-34.688
G3 X11.287 Y-18.702 I-11.959 J5.098
G1 X9.701 Y-20.594
X9.606 Y-20.697
G3 X8.102 Y-22.49 I8.784 J-8.893
G1 X8.017 Y-22.602
X6.431 Y-24.493
G3 X5.552 Y-31.639 I11.959 J-5.097
G2 X5.22 Y-32.839 I-1.481 J-0.236
G1 X1.256 Y-37.564
X2.788 Y-38.849
G2 X2.973 Y-40.962 I-0.964 J-1.149
G1 X2.692 Y-41.297
X9.586 Y-47.082
X9.867 Y-46.748
G2 X11.981 Y-46.563 I1.149 J-0.964
G1 X13.513 Y-47.848
X17.477 Y-43.124
G2 X18.601 Y-42.588 I1.149 J-0.964
G3 X25.487 Y-40.482 I-0.212 J12.998
G1 X27.071 Y-38.594
X27.167 Y-38.49
G3 X28.679 Y-36.689 I-8.777 J8.9
G1 Z-5.5 F333.3
X28.764 Y-36.576 F1000
X30.348 Y-34.688
G3 X11.287 Y-18.702 I-11.959 J5.098
G1 X9.701 Y-20.594
X9.606 Y-20.697
G3 X8.102 Y-22.49 I8.784 J-8.893
G1 X8.017 Y-22.602
X6.431 Y-24.493
G3 X5.552 Y-31.639 I11.959 J-5.097
G2 X5.22 Y-32.839 I-1.481 J-0.236
G1 X1.256 Y-37.564
X2.788 Y-38.849
G2 X2.973 Y-40.962 I-0.964 J-1.149
G1 X2.692 Y-41.297
X9.586 Y-47.082
X9.867 Y-46.748
G2 X11.981 Y-46.563 I1.149 J-0.964
G1 X13.513 Y-47.848
X17.477 Y-43.124
G2 X18.601 Y-42.588 I1.149 J-0.964
G3 X25.487 Y-40.482 I-0.212 J12.998
G1 X27.071 Y-38.594
X27.167 Y-38.49
G3 X28.679 Y-36.689 I-8.777 J8.9
G1 Z-6 F333.3
X28.764 Y-36.576 F1000
X30.348 Y-34.688
G3 X11.287 Y-18.702 I-11.959 J5.098
G1 X9.701 Y-20.594
X9.606 Y-20.697
G3 X8.102 Y-22.49 I8.784 J-8.893
G1 X8.017 Y-22.602
X6.431 Y-24.493
G3 X5.552 Y-31.639 I11.959 J-5.097
G2 X5.22 Y-32.839 I-1.481 J-0.236
G1 X1.256 Y-37.564
X2.788 Y-38.849
G2 X2.973 Y-40.962 I-0.964 J-1.149
G1 X2.692 Y-41.297
X9.586 Y-47.082
X9.867 Y-46.748
G2 X11.981 Y-46.563 I1.149 J-0.964
G1 X13.513 Y-47.848
X17.477 Y-43.124
G2 X18.601 Y-42.588 I1.149 J-0.964
G3 X25.487 Y-40.482 I-0.212 J12.998
G1 X27.071 Y-38.594
X27.167 Y-38.49
G3 X28.679 Y-36.689 I-8.777 J8.9
G1 Z-6.5 F333.3
X28.764 Y-36.576 F1000
X30.348 Y-34.688
G3 X11.287 Y-18.702 I-11.959 J5.098
G1 X9.701 Y-20.594
X9.606 Y-20.697
G3 X8.102 Y-22.49 I8.784 J-8.893
G1 X8.017 Y-22.602
X6.431 Y-24.493
G3 X5.552 Y-31.639 I11.959 J-5.097
G2 X5.22 Y-32.839 I-1.481 J-0.236
G1 X1.256 Y-37.564
X2.788 Y-38.849
G2 X2.973 Y-40.962 I-0.964 J-1.149
G1 X2.692 Y-41.297
X9.586 Y-47.082
X9.867 Y-46.748
G2 X11.981 Y-46.563 I1.149 J-0.964
G1 X13.513 Y-47.848
X17.477 Y-43.124
G2 X18.601 Y-42.588 I1.149 J-0.964
G3 X25.487 Y-40.482 I-0.212 J12.998
G1 X27.071 Y-38.594
X27.167 Y-38.49
G3 X28.679 Y-36.689 I-8.777 J8.9
G1 Z-7 F333.3
X28.764 Y-36.576 F1000
X30.348 Y-34.688
G3 X11.287 Y-18.702 I-11.959 J5.098
G1 X9.701 Y-20.594
X9.606 Y-20.697
G3 X8.102 Y-22.49 I8.784 J-8.893
G1 X8.017 Y-22.602
X6.431 Y-24.493
G3 X5.552 Y-31.639 I11.959 J-5.097
G2 X5.22 Y-32.839 I-1.481 J-0.236
G1 X1.256 Y-37.564
X2.788 Y-38.849
G2 X2.973 Y-40.962 I-0.964 J-1.149
G1 X2.692 Y-41.297
X9.586 Y-47.082
X9.867 Y-46.748
G2 X11.981 Y-46.563 I1.149 J-0.964
G1 X13.513 Y-47.848
X17.477 Y-43.124
G2 X18.601 Y-42.588 I1.149 J-0.964
G3 X25.487 Y-40.482 I-0.212 J12.998
G1 X27.071 Y-38.594
X27.167 Y-38.49
G3 X28.679 Y-36.689 I-8.777 J8.9
G1 Z-7.5 F333.3
X28.764 Y-36.576 F1000
X30.348 Y-34.688
G3 X11.287 Y-18.702 I-11.959 J5.098
G1 X9.701 Y-20.594
X9.606 Y-20.697
G3 X8.102 Y-22.49 I8.784 J-8.893
G1 X8.017 Y-22.602
X6.431 Y-24.493
G3 X5.552 Y-31.639 I11.959 J-5.097
G2 X5.22 Y-32.839 I-1.481 J-0.236
G1 X1.256 Y-37.564
X2.788 Y-38.849
G2 X2.973 Y-40.962 I-0.964 J-1.149
G1 X2.692 Y-41.297
X9.586 Y-47.082
X9.867 Y-46.748
G2 X11.981 Y-46.563 I1.149 J-0.964
G1 X13.513 Y-47.848
X17.477 Y-43.124
G2 X18.601 Y-42.588 I1.149 J-0.964
G3 X25.487 Y-40.482 I-0.212 J12.998
G1 X27.071 Y-38.594
X27.167 Y-38.49
G3 X28.679 Y-36.689 I-8.777 J8.9
G1 Z-8 F333.3
X28.764 Y-36.576 F1000
X30.348 Y-34.688
G3 X11.287 Y-18.702 I-11.959 J5.098
G1 X9.701 Y-20.594
X9.606 Y-20.697
G3 X8.102 Y-22.49 I8.784 J-8.893
G1 X8.017 Y-22.602
X6.431 Y-24.493
G3 X5.552 Y-31.639 I11.959 J-5.097
G2 X5.22 Y-32.839 I-1.481 J-0.236
G1 X1.256 Y-37.564
X2.788 Y-38.849
G2 X2.973 Y-40.962 I-0.964 J-1.149
G1 X2.692 Y-41.297
X9.586 Y-47.082
X9.867 Y-46.748
G2 X11.981 Y-46.563 I1.149 J-0.964
G1 X13.513 Y-47.848
X17.477 Y-43.124
G2 X18.601 Y-42.588 I1.149 J-0.964
G3 X25.487 Y-40.482 I-0.212 J12.998
G1 X27.071 Y-38.594
X27.167 Y-38.49
G3 X28.679 Y-36.689 I-8.777 J8.9
G1 Z-8.5 F333.3
X28.764 Y-36.576 F1000
X30.348 Y-34.688
G3 X11.287 Y-18.702 I-11.959 J5.098
G1 X9.701 Y-20.594
X9.606 Y-20.697
G3 X8.102 Y-22.49 I8.784 J-8.893
G1 X8.017 Y-22.602
X6.431 Y-24.493
G3 X5.552 Y-31.639 I11.959 J-5.097
G2 X5.22 Y-32.839 I-1.481 J-0.236
G1 X1.256 Y-37.564
X2.788 Y-38.849
G2 X2.973 Y-40.962 I-0.964 J-1.149
G1 X2.692 Y-41.297
X9.586 Y-47.082
X9.867 Y-46.748
G2 X11.981 Y-46.563 I1.149 J-0.964
G1 X13.513 Y-47.848
X17.477 Y-43.124
G2 X18.601 Y-42.588 I1.149 J-0.964
G3 X25.487 Y-40.482 I-0.212 J12.998
G1 X27.071 Y-38.594
X27.167 Y-38.49
G3 X28.679 Y-36.689 I-8.777 J8.9
G1 Z-9 F333.3
X28.764 Y-36.576 F1000
X30.348 Y-34.688
G3 X11.287 Y-18.702 I-11.959 J5.098
G1 X9.701 Y-20.594
X9.606 Y-20.697
G3 X8.102 Y-22.49 I8.784 J-8.893
G1 X8.017 Y-22.602
X6.431 Y-24.493
G3 X5.552 Y-31.639 I11.959 J-5.097
G2 X5.22 Y-32.839 I-1.481 J-0.236
G1 X1.256 Y-37.564
X2.788 Y-38.849
G2 X2.973 Y-40.962 I-0.964 J-1.149
G1 X2.692 Y-41.297
X9.586 Y-47.082
X9.867 Y-46.748
G2 X11.981 Y-46.563 I1.149 J-0.964
G1 X13.513 Y-47.848
X17.477 Y-43.124
G2 X18.601 Y-42.588 I1.149 J-0.964
G3 X25.487 Y-40.482 I-0.212 J12.998
G1 X27.071 Y-38.594
X27.167 Y-38.49
G3 X28.679 Y-36.689 I-8.777 J8.9
G1 Z-9.5 F333.3
X28.764 Y-36.576 F1000
X30.348 Y-34.688
G3 X11.287 Y-18.702 I-11.959 J5.098
G1 X9.701 Y-20.594
X9.606 Y-20.697
G3 X8.102 Y-22.49 I8.784 J-8.893
G1 X8.017 Y-22.602
X6.431 Y-24.493
G3 X5.552 Y-31.639 I11.959 J-5.097
G2 X5.22 Y-32.839 I-1.481 J-0.236
G1 X1.256 Y-37.564
X2.788 Y-38.849
G2 X2.973 Y-40.962 I-0.964 J-1.149
G1 X2.692 Y-41.297
X9.586 Y-47.082
X9.867 Y-46.748
G2 X11.981 Y-46.563 I1.149 J-0.964
G1 X13.513 Y-47.848
X17.477 Y-43.124
G2 X18.601 Y-42.588 I1.149 J-0.964
G3 X25.487 Y-40.482 I-0.212 J12.998
G1 X27.071 Y-38.594
X27.167 Y-38.49
G3 X28.679 Y-36.689 I-8.777 J8.9
G1 Z-10 F333.3
X28.764 Y-36.576 F1000
X30.348 Y-34.688
G3 X11.287 Y-18.702 I-11.959 J5.098
G1 X9.701 Y-20.594
X9.606 Y-20.697
G3 X8.102 Y-22.49 I8.784 J-8.893
G1 X8.017 Y-22.602
X6.431 Y-24.493
G3 X5.552 Y-31.639 I11.959 J-5.097
G2 X5.22 Y-32.839 I-1.481 J-0.236
G1 X1.256 Y-37.564
X2.788 Y-38.849
G2 X2.973 Y-40.962 I-0.964 J-1.149
G1 X2.692 Y-41.297
X9.586 Y-47.082
X9.867 Y-46.748
G2 X11.981 Y-46.563 I1.149 J-0.964
G1 X13.513 Y-47.848
X17.477 Y-43.124
G2 X18.601 Y-42.588 I1.149 J-0.964
G3 X25.487 Y-40.482 I-0.212 J12.998
G1 X27.071 Y-38.594
X27.167 Y-38.49
G3 X28.679 Y-36.689 I-8.777 J8.9
G1 Z-10.5 F333.3
X28.764 Y-36.576 F1000
X30.348 Y-34.688
G3 X11.287 Y-18.702 I-11.959 J5.098
G1 X9.701 Y-20.594
X9.606 Y-20.697
G3 X8.102 Y-22.49 I8.784 J-8.893
G1 X8.017 Y-22.602
X6.431 Y-24.493
G3 X5.552 Y-31.639 I11.959 J-5.097
G2 X5.22 Y-32.839 I-1.481 J-0.236
G1 X1.256 Y-37.564
X2.788 Y-38.849
G2 X2.973 Y-40.962 I-0.964 J-1.149
G1 X2.692 Y-41.297
X9.586 Y-47.082
X9.867 Y-46.748
G2 X11.981 Y-46.563 I1.149 J-0.964
G1 X13.513 Y-47.848
X17.477 Y-43.124
G2 X18.601 Y-42.588 I1.149 J-0.964
G3 X25.487 Y-40.482 I-0.212 J12.998
G1 X27.071 Y-38.594
X27.167 Y-38.49
G3 X28.679 Y-36.689 I-8.777 J8.9
G1 Z-11 F333.3
X28.764 Y-36.576 F1000
X30.348 Y-34.688
G3 X11.287 Y-18.702 I-11.959 J5.098
G1 X9.701 Y-20.594
X9.606 Y-20.697
G3 X8.102 Y-22.49 I8.784 J-8.893
G1 X8.017 Y-22.602
X6.431 Y-24.493
G3 X5.552 Y-31.639 I11.959 J-5.097
G2 X5.22 Y-32.839 I-1.481 J-0.236
G1 X1.256 Y-37.564
X2.788 Y-38.849
G2 X2.973 Y-40.962 I-0.964 J-1.149
G1 X2.692 Y-41.297
X9.586 Y-47.082
X9.867 Y-46.748
G2 X11.981 Y-46.563 I1.149 J-0.964
G1 X13.513 Y-47.848
X17.477 Y-43.124
G2 X18.601 Y-42.588 I1.149 J-0.964
G3 X25.487 Y-40.482 I-0.212 J12.998
G1 X27.071 Y-38.594
X27.167 Y-38.49
G3 X28.679 Y-36.689 I-8.777 J8.9
G1 Z-11.5 F333.3
X28.764 Y-36.576 F1000
X30.348 Y-34.688
G3 X11.287 Y-18.702 I-11.959 J5.098
G1 X9.701 Y-20.594
X9.606 Y-20.697
G3 X8.102 Y-22.49 I8.784 J-8.893
G1 X8.017 Y-22.602
X6.431 Y-24.493
G3 X5.552 Y-31.639 I11.959 J-5.097
G2 X5.22 Y-32.839 I-1.481 J-0.236
G1 X1.256 Y-37.564
X2.788 Y-38.849
G2 X2.973 Y-40.962 I-0.964 J-1.149
G1 X2.692 Y-41.297
X9.586 Y-47.082
X9.867 Y-46.748
G2 X11.981 Y-46.563 I1.149 J-0.964
G1 X13.513 Y-47.848
X17.477 Y-43.124
G2 X18.601 Y-42.588 I1.149 J-0.964
G3 X25.487 Y-40.482 I-0.212 J12.998
G1 X27.071 Y-38.594
X27.167 Y-38.49
G3 X28.679 Y-36.689 I-8.777 J8.9
G1 Z-12 F333.3
X28.764 Y-36.576 F1000
X30.348 Y-34.688
G3 X11.287 Y-18.702 I-11.959 J5.098
G1 X9.701 Y-20.594
X9.606 Y-20.697
G3 X8.102 Y-22.49 I8.784 J-8.893
G1 X8.017 Y-22.602
X6.431 Y-24.493
G3 X5.552 Y-31.639 I11.959 J-5.097
G2 X5.22 Y-32.839 I-1.481 J-0.236
G1 X1.256 Y-37.564
X2.788 Y-38.849
G2 X2.973 Y-40.962 I-0.964 J-1.149
G1 X2.692 Y-41.297
X9.586 Y-47.082
X9.867 Y-46.748
G2 X11.981 Y-46.563 I1.149 J-0.964
G1 X13.513 Y-47.848
X17.477 Y-43.124
G2 X18.601 Y-42.588 I1.149 J-0.964
G3 X25.487 Y-40.482 I-0.212 J12.998
G1 X27.071 Y-38.594
X27.167 Y-38.49
G3 X28.679 Y-36.689 I-8.777 J8.9
G1 Z-12.5 F333.3
X28.764 Y-36.576 F1000
X30.348 Y-34.688
G3 X11.287 Y-18.702 I-11.959 J5.098
G1 X9.701 Y-20.594
X9.606 Y-20.697
G3 X8.102 Y-22.49 I8.784 J-8.893
G1 X8.017 Y-22.602
X6.431 Y-24.493
G3 X5.552 Y-31.639 I11.959 J-5.097
G2 X5.22 Y-32.839 I-1.481 J-0.236
G1 X1.256 Y-37.564
X2.788 Y-38.849
G2 X2.973 Y-40.962 I-0.964 J-1.149
G1 X2.692 Y-41.297
X9.586 Y-47.082
X9.867 Y-46.748
G2 X11.981 Y-46.563 I1.149 J-0.964
G1 X13.513 Y-47.848
X17.477 Y-43.124
G2 X18.601 Y-42.588 I1.149 J-0.964
G3 X25.487 Y-40.482 I-0.212 J12.998
G1 X27.071 Y-38.594
X27.167 Y-38.49
G3 X28.679 Y-36.689 I-8.777 J8.9
G1 Z-13 F333.3
X28.764 Y-36.576 F1000
X30.348 Y-34.688
G3 X11.287 Y-18.702 I-11.959 J5.098
G1 X9.701 Y-20.594
X9.606 Y-20.697
G3 X8.102 Y-22.49 I8.784 J-8.893
G1 X8.017 Y-22.602
X6.431 Y-24.493
G3 X5.552 Y-31.639 I11.959 J-5.097
G2 X5.22 Y-32.839 I-1.481 J-0.236
G1 X1.256 Y-37.564
X2.788 Y-38.849
G2 X2.973 Y-40.962 I-0.964 J-1.149
G1 X2.692 Y-41.297
X9.586 Y-47.082
X9.867 Y-46.748
G2 X11.981 Y-46.563 I1.149 J-0.964
G1 X13.513 Y-47.848
X17.477 Y-43.124
G2 X18.601 Y-42.588 I1.149 J-0.964
G3 X25.487 Y-40.482 I-0.212 J12.998
G1 X27.071 Y-38.594
X27.167 Y-38.49
G3 X28.679 Y-36.689 I-8.777 J8.9
G1 Z-13.5 F333.3
X28.764 Y-36.576 F1000
X30.348 Y-34.688
G3 X11.287 Y-18.702 I-11.959 J5.098
G1 X9.701 Y-20.594
X9.606 Y-20.697
G3 X8.102 Y-22.49 I8.784 J-8.893
G1 X8.017 Y-22.602
X6.431 Y-24.493
G3 X5.552 Y-31.639 I11.959 J-5.097
G2 X5.22 Y-32.839 I-1.481 J-0.236
G1 X1.256 Y-37.564
X2.788 Y-38.849
G2 X2.973 Y-40.962 I-0.964 J-1.149
G1 X2.692 Y-41.297
X9.586 Y-47.082
X9.867 Y-46.748
G2 X11.981 Y-46.563 I1.149 J-0.964
G1 X13.513 Y-47.848
X17.477 Y-43.124
G2 X18.601 Y-42.588 I1.149 J-0.964
G3 X25.487 Y-40.482 I-0.212 J12.998
G1 X27.071 Y-38.594
X27.167 Y-38.49
G3 X28.679 Y-36.689 I-8.777 J8.9
G1 Z-14 F333.3
X28.764 Y-36.576 F1000
X30.348 Y-34.688
G3 X11.287 Y-18.702 I-11.959 J5.098
G1 X9.701 Y-20.594
X9.606 Y-20.697
G3 X8.102 Y-22.49 I8.784 J-8.893
G1 X8.017 Y-22.602
X6.431 Y-24.493
G3 X5.552 Y-31.639 I11.959 J-5.097
G2 X5.22 Y-32.839 I-1.481 J-0.236
G1 X1.256 Y-37.564
X2.788 Y-38.849
G2 X2.973 Y-40.962 I-0.964 J-1.149
G1 X2.692 Y-41.297
X9.586 Y-47.082
X9.867 Y-46.748
G2 X11.981 Y-46.563 I1.149 J-0.964
G1 X13.513 Y-47.848
X17.477 Y-43.124
G2 X18.601 Y-42.588 I1.149 J-0.964
G3 X25.487 Y-40.482 I-0.212 J12.998
G1 X27.071 Y-38.594
X27.167 Y-38.49
G3 X28.679 Y-36.689 I-8.777 J8.9
G1 Z-14.5 F333.3
X28.764 Y-36.576 F1000
X30.348 Y-34.688
G3 X11.287 Y-18.702 I-11.959 J5.098
G1 X9.701 Y-20.594
X9.606 Y-20.697
G3 X8.102 Y-22.49 I8.784 J-8.893
G1 X8.017 Y-22.602
X6.431 Y-24.493
G3 X5.552 Y-31.639 I11.959 J-5.097
G2 X5.22 Y-32.839 I-1.481 J-0.236
G1 X1.256 Y-37.564
X2.788 Y-38.849
G2 X2.973 Y-40.962 I-0.964 J-1.149
G1 X2.692 Y-41.297
X9.586 Y-47.082
X9.867 Y-46.748
G2 X11.981 Y-46.563 I1.149 J-0.964
G1 X13.513 Y-47.848
X17.477 Y-43.124
G2 X18.601 Y-42.588 I1.149 J-0.964
G3 X25.487 Y-40.482 I-0.212 J12.998
G1 X27.071 Y-38.594
X27.167 Y-38.49
G3 X28.679 Y-36.689 I-8.777 J8.9
G1 Z-15 F333.3
X28.764 Y-36.576 F1000
X30.348 Y-34.688
G3 X11.287 Y-18.702 I-11.959 J5.098
G1 X9.701 Y-20.594
X9.606 Y-20.697
G3 X8.102 Y-22.49 I8.784 J-8.893
G1 X8.017 Y-22.602
X6.431 Y-24.493
G3 X5.552 Y-31.639 I11.959 J-5.097
G2 X5.22 Y-32.839 I-1.481 J-0.236
G1 X1.256 Y-37.564
X2.788 Y-38.849
G2 X2.973 Y-40.962 I-0.964 J-1.149
G1 X2.692 Y-41.297
X9.586 Y-47.082
X9.867 Y-46.748
G2 X11.981 Y-46.563 I1.149 J-0.964
G1 X13.513 Y-47.848
X17.477 Y-43.124
G2 X18.601 Y-42.588 I1.149 J-0.964
G3 X25.487 Y-40.482 I-0.212 J12.998
G1 X27.071 Y-38.594
X27.167 Y-38.49
G3 X28.679 Y-36.689 I-8.777 J8.9
G1 Z-15.5 F333.3
X28.764 Y-36.576 F1000
X30.348 Y-34.688
G3 X11.287 Y-18.702 I-11.959 J5.098
G1 X9.701 Y-20.594
X9.606 Y-20.697
G3 X8.102 Y-22.49 I8.784 J-8.893
G1 X8.017 Y-22.602
X6.431 Y-24.493
G3 X5.552 Y-31.639 I11.959 J-5.097
G2 X5.22 Y-32.839 I-1.481 J-0.236
G1 X1.256 Y-37.564
X2.788 Y-38.849
G2 X2.973 Y-40.962 I-0.964 J-1.149
G1 X2.692 Y-41.297
X9.586 Y-47.082
X9.867 Y-46.748
G2 X11.981 Y-46.563 I1.149 J-0.964
G1 X13.513 Y-47.848
X17.477 Y-43.124
G2 X18.601 Y-42.588 I1.149 J-0.964
G3 X25.487 Y-40.482 I-0.212 J12.998
G1 X27.071 Y-38.594
X27.167 Y-38.49
G3 X28.679 Y-36.689 I-8.777 J8.9
G1 Z-16 F333.3
X28.764 Y-36.576 F1000
X30.348 Y-34.688
G3 X11.287 Y-18.702 I-11.959 J5.098
G1 X9.701 Y-20.594
X9.606 Y-20.697
G3 X8.102 Y-22.49 I8.784 J-8.893
G1 X8.017 Y-22.602
X6.431 Y-24.493
G3 X5.552 Y-31.639 I11.959 J-5.097
G2 X5.22 Y-32.839 I-1.481 J-0.236
G1 X1.256 Y-37.564
X2.788 Y-38.849
G2 X2.973 Y-40.962 I-0.964 J-1.149
G1 X2.692 Y-41.297
X9.586 Y-47.082
X9.867 Y-46.748
G2 X11.981 Y-46.563 I1.149 J-0.964
G1 X13.513 Y-47.848
X17.477 Y-43.124
G2 X18.601 Y-42.588 I1.149 J-0.964
G3 X25.487 Y-40.482 I-0.212 J12.998
G1 X27.071 Y-38.594
X27.167 Y-38.49
G3 X28.679 Y-36.689 I-8.777 J8.9
G1 Z-16.5 F333.3
X28.764 Y-36.576 F1000
X30.348 Y-34.688
G3 X11.287 Y-18.702 I-11.959 J5.098
G1 X9.701 Y-20.594
X9.606 Y-20.697
G3 X8.102 Y-22.49 I8.784 J-8.893
G1 X8.017 Y-22.602
X6.431 Y-24.493
G3 X5.552 Y-31.639 I11.959 J-5.097
G2 X5.22 Y-32.839 I-1.481 J-0.236
G1 X1.256 Y-37.564
X2.788 Y-38.849
G2 X2.973 Y-40.962 I-0.964 J-1.149
G1 X2.692 Y-41.297
X9.586 Y-47.082
X9.867 Y-46.748
G2 X11.981 Y-46.563 I1.149 J-0.964
G1 X13.513 Y-47.848
X17.477 Y-43.124
G2 X18.601 Y-42.588 I1.149 J-0.964
G3 X25.487 Y-40.482 I-0.212 J12.998
G1 X27.071 Y-38.594
X27.167 Y-38.49
G3 X28.679 Y-36.689 I-8.777 J8.9
G1 Z-17 F333.3
X28.764 Y-36.576 F1000
X30.348 Y-34.688
G3 X11.287 Y-18.702 I-11.959 J5.098
G1 X9.701 Y-20.594
X9.606 Y-20.697
G3 X8.102 Y-22.49 I8.784 J-8.893
G1 X8.017 Y-22.602
X6.431 Y-24.493
G3 X5.552 Y-31.639 I11.959 J-5.097
G2 X5.22 Y-32.839 I-1.481 J-0.236
G1 X1.256 Y-37.564
X2.788 Y-38.849
G2 X2.973 Y-40.962 I-0.964 J-1.149
G1 X2.692 Y-41.297
X9.586 Y-47.082
X9.867 Y-46.748
G2 X11.981 Y-46.563 I1.149 J-0.964
G1 X13.513 Y-47.848
X17.477 Y-43.124
G2 X18.601 Y-42.588 I1.149 J-0.964
G3 X25.487 Y-40.482 I-0.212 J12.998
G1 X27.071 Y-38.594
X27.167 Y-38.49
G3 X28.679 Y-36.689 I-8.777 J8.9
G1 Z-17.3 F333.3
X28.764 Y-36.576 F1000
X30.348 Y-34.688
G3 X11.287 Y-18.702 I-11.959 J5.098
G1 X9.701 Y-20.594
X9.606 Y-20.697
G3 X8.102 Y-22.49 I8.784 J-8.893
G1 X8.017 Y-22.602
X6.431 Y-24.493
G3 X5.552 Y-31.639 I11.959 J-5.097
G2 X5.22 Y-32.839 I-1.481 J-0.236
G1 X1.256 Y-37.564
X2.788 Y-38.849
G2 X2.973 Y-40.962 I-0.964 J-1.149
G1 X2.692 Y-41.297
X9.586 Y-47.082
X9.867 Y-46.748
G2 X11.981 Y-46.563 I1.149 J-0.964
G1 X13.513 Y-47.848
X17.477 Y-43.124
G2 X18.601 Y-42.588 I1.149 J-0.964
G3 X25.487 Y-40.482 I-0.212 J12.998
G1 X27.071 Y-38.594
X27.167 Y-38.49
G3 X28.679 Y-36.689 I-8.777 J8.9
G0 Z4
X-5.56 Y-31.69
Z2
G1 Z1.5 F333.3
Z-0.5
X-5.552 Y-31.639 F1000
G3 X-6.431 Y-24.492 I-12.838 J2.049
G1 X-8.015 Y-22.604
X-8.101 Y-22.492
G3 X-9.613 Y-20.69 I-10.289 J-7.099
G1 X-9.708 Y-20.586
X-11.292 Y-18.698
G3 X-30.346 Y-34.694 I-7.097 J-10.892
G1 X-28.759 Y-36.585
X-28.673 Y-36.696
G3 X-27.169 Y-38.489 I10.284 J7.106
G1 X-27.073 Y-38.592
X-25.486 Y-40.483
G3 X-18.601 Y-42.588 I7.096 J10.893
G2 X-17.477 Y-43.124 I-0.024 J-1.5
G1 X-13.513 Y-47.848
X-11.981 Y-46.563
G2 X-9.867 Y-46.748 I0.964 J-1.149
G1 X-9.586 Y-47.082
X-2.692 Y-41.297
X-2.973 Y-40.962
G2 X-2.788 Y-38.849 I1.149 J0.964
G1 X-1.256 Y-37.564
X-5.22 Y-32.839
G2 X-5.56 Y-31.69 I1.149 J0.964
G1 Z-1 F333.3
X-5.552 Y-31.639 F1000
G3 X-6.431 Y-24.492 I-12.838 J2.049
G1 X-8.015 Y-22.604
X-8.101 Y-22.492
G3 X-9.613 Y-20.69 I-10.289 J-7.099
G1 X-9.708 Y-20.586
X-11.292 Y-18.698
G3 X-30.346 Y-34.694 I-7.097 J-10.892
G1 X-28.759 Y-36.585
X-28.673 Y-36.696
G3 X-27.169 Y-38.489 I10.284 J7.106
G1 X-27.073 Y-38.592
X-25.486 Y-40.483
G3 X-18.601 Y-42.588 I7.096 J10.893
G2 X-17.477 Y-43.124 I-0.024 J-1.5
G1 X-13.513 Y-47.848
X-11.981 Y-46.563
G2 X-9.867 Y-46.748 I0.964 J-1.149
G1 X-9.586 Y-47.082
X-2.692 Y-41.297
X-2.973 Y-40.962
G2 X-2.788 Y-38.849 I1.149 J0.964
G1 X-1.256 Y-37.564
X-5.22 Y-32.839
G2 X-5.56 Y-31.69 I1.149 J0.964
G1 Z-1.5 F333.3
X-5.552 Y-31.639 F1000
G3 X-6.431 Y-24.492 I-12.838 J2.049
G1 X-8.015 Y-22.604
X-8.101 Y-22.492
G3 X-9.613 Y-20.69 I-10.289 J-7.099
G1 X-9.708 Y-20.586
X-11.292 Y-18.698
G3 X-30.346 Y-34.694 I-7.097 J-10.892
G1 X-28.759 Y-36.585
X-28.673 Y-36.696
G3 X-27.169 Y-38.489 I10.284 J7.106
G1 X-27.073 Y-38.592
X-25.486 Y-40.483
G3 X-18.601 Y-42.588 I7.096 J10.893
G2 X-17.477 Y-43.124 I-0.024 J-1.5
G1 X-13.513 Y-47.848
X-11.981 Y-46.563
G2 X-9.867 Y-46.748 I0.964 J-1.149
G1 X-9.586 Y-47.082
X-2.692 Y-41.297
X-2.973 Y-40.962
G2 X-2.788 Y-38.849 I1.149 J0.964
G1 X-1.256 Y-37.564
X-5.22 Y-32.839
G2 X-5.56 Y-31.69 I1.149 J0.964
G1 Z-2 F333.3
X-5.552 Y-31.639 F1000
G3 X-6.431 Y-24.492 I-12.838 J2.049
G1 X-8.015 Y-22.604
X-8.101 Y-22.492
G3 X-9.613 Y-20.69 I-10.289 J-7.099
G1 X-9.708 Y-20.586
X-11.292 Y-18.698
G3 X-30.346 Y-34.694 I-7.097 J-10.892
G1 X-28.759 Y-36.585
X-28.673 Y-36.696
G3 X-27.169 Y-38.489 I10.284 J7.106
G1 X-27.073 Y-38.592
X-25.486 Y-40.483
G3 X-18.601 Y-42.588 I7.096 J10.893
G2 X-17.477 Y-43.124 I-0.024 J-1.5
G1 X-13.513 Y-47.848
X-11.981 Y-46.563
G2 X-9.867 Y-46.748 I0.964 J-1.149
G1 X-9.586 Y-47.082
X-2.692 Y-41.297
X-2.973 Y-40.962
G2 X-2.788 Y-38.849 I1.149 J0.964
G1 X-1.256 Y-37.564
X-5.22 Y-32.839
G2 X-5.56 Y-31.69 I1.149 J0.964
G1 Z-2.5 F333.3
X-5.552 Y-31.639 F1000
G3 X-6.431 Y-24.492 I-12.838 J2.049
G1 X-8.015 Y-22.604
X-8.101 Y-22.492
G3 X-9.613 Y-20.69 I-10.289 J-7.099
G1 X-9.708 Y-20.586
X-11.292 Y-18.698
G3 X-30.346 Y-34.694 I-7.097 J-10.892
G1 X-28.759 Y-36.585
X-28.673 Y-36.696
G3 X-27.169 Y-38.489 I10.284 J7.106
G1 X-27.073 Y-38.592
X-25.486 Y-40.483
G3 X-18.601 Y-42.588 I7.096 J10.893
G2 X-17.477 Y-43.124 I-0.024 J-1.5
G1 X-13.513 Y-47.848
X-11.981 Y-46.563
G2 X-9.867 Y-46.748 I0.964 J-1.149
G1 X-9.586 Y-47.082
X-2.692 Y-41.297
X-2.973 Y-40.962
G2 X-2.788 Y-38.849 I1.149 J0.964
G1 X-1.256 Y-37.564
X-5.22 Y-32.839
G2 X-5.56 Y-31.69 I1.149 J0.964
G1 Z-3 F333.3
X-5.552 Y-31.639 F1000
G3 X-6.431 Y-24.492 I-12.838 J2.049
G1 X-8.015 Y-22.604
X-8.101 Y-22.492
G3 X-9.613 Y-20.69 I-10.289 J-7.099
G1 X-9.708 Y-20.586
X-11.292 Y-18.698
G3 X-30.346 Y-34.694 I-7.097 J-10.892
G1 X-28.759 Y-36.585
X-28.673 Y-36.696
G3 X-27.169 Y-38.489 I10.284 J7.106
G1 X-27.073 Y-38.592
X-25.486 Y-40.483
G3 X-18.601 Y-42.588 I7.096 J10.893
G2 X-17.477 Y-43.124 I-0.024 J-1.5
G1 X-13.513 Y-47.848
X-11.981 Y-46.563
G2 X-9.867 Y-46.748 I0.964 J-1.149
G1 X-9.586 Y-47.082
X-2.692 Y-41.297
X-2.973 Y-40.962
G2 X-2.788 Y-38.849 I1.149 J0.964
G1 X-1.256 Y-37.564
X-5.22 Y-32.839
G2 X-5.56 Y-31.69 I1.149 J0.964
G1 Z-3.5 F333.3
X-5.552 Y-31.639 F1000
G3 X-6.431 Y-24.492 I-12.838 J2.049
G1 X-8.015 Y-22.604
X-8.101 Y-22.492
G3 X-9.613 Y-20.69 I-10.289 J-7.099
G1 X-9.708 Y-20.586
X-11.292 Y-18.698
G3 X-30.346 Y-34.694 I-7.097 J-10.892
G1 X-28.759 Y-36.585
X-28.673 Y-36.696
G3 X-27.169 Y-38.489 I10.284 J7.106
G1 X-27.073 Y-38.592
X-25.486 Y-40.483
G3 X-18.601 Y-42.588 I7.096 J10.893
G2 X-17.477 Y-43.124 I-0.024 J-1.5
G1 X-13.513 Y-47.848
X-11.981 Y-46.563
G2 X-9.867 Y-46.748 I0.964 J-1.149
G1 X-9.586 Y-47.082
X-2.692 Y-41.297
X-2.973 Y-40.962
G2 X-2.788 Y-38.849 I1.149 J0.964
G1 X-1.256 Y-37.564
X-5.22 Y-32.839
G2 X-5.56 Y-31.69 I1.149 J0.964
G1 Z-4 F333.3
X-5.552 Y-31.639 F1000
G3 X-6.431 Y-24.492 I-12.838 J2.049
G1 X-8.015 Y-22.604
X-8.101 Y-22.492
G3 X-9.613 Y-20.69 I-10.289 J-7.099
G1 X-9.708 Y-20.586
X-11.292 Y-18.698
G3 X-30.346 Y-34.694 I-7.097 J-10.892
G1 X-28.759 Y-36.585
X-28.673 Y-36.696
G3 X-27.169 Y-38.489 I10.284 J7.106
G1 X-27.073 Y-38.592
X-25.486 Y-40.483
G3 X-18.601 Y-42.588 I7.096 J10.893
G2 X-17.477 Y-43.124 I-0.024 J-1.5
G1 X-13.513 Y-47.848
X-11.981 Y-46.563
G2 X-9.867 Y-46.748 I0.964 J-1.149
G1 X-9.586 Y-47.082
X-2.692 Y-41.297
X-2.973 Y-40.962
G2 X-2.788 Y-38.849 I1.149 J0.964
G1 X-1.256 Y-37.564
X-5.22 Y-32.839
G2 X-5.56 Y-31.69 I1.149 J0.964
G1 Z-4.5 F333.3
X-5.552 Y-31.639 F1000
G3 X-6.431 Y-24.492 I-12.838 J2.049
G1 X-8.015 Y-22.604
X-8.101 Y-22.492
G3 X-9.613 Y-20.69 I-10.289 J-7.099
G1 X-9.708 Y-20.586
X-11.292 Y-18.698
G3 X-30.346 Y-34.694 I-7.097 J-10.892
G1 X-28.759 Y-36.585
X-28.673 Y-36.696
G3 X-27.169 Y-38.489 I10.284 J7.106
G1 X-27.073 Y-38.592
X-25.486 Y-40.483
G3 X-18.601 Y-42.588 I7.096 J10.893
G2 X-17.477 Y-43.124 I-0.024 J-1.5
G1 X-13.513 Y-47.848
X-11.981 Y-46.563
G2 X-9.867 Y-46.748 I0.964 J-1.149
G1 X-9.586 Y-47.082
X-2.692 Y-41.297
X-2.973 Y-40.962
G2 X-2.788 Y-38.849 I1.149 J0.964
G1 X-1.256 Y-37.564
X-5.22 Y-32.839
G2 X-5.56 Y-31.69 I1.149 J0.964
G1 Z-5 F333.3
X-5.552 Y-31.639 F1000
G3 X-6.431 Y-24.492 I-12.838 J2.049
G1 X-8.015 Y-22.604
X-8.101 Y-22.492
G3 X-9.613 Y-20.69 I-10.289 J-7.099
G1 X-9.708 Y-20.586
X-11.292 Y-18.698
G3 X-30.346 Y-34.694 I-7.097 J-10.892
G1 X-28.759 Y-36.585
X-28.673 Y-36.696
G3 X-27.169 Y-38.489 I10.284 J7.106
G1 X-27.073 Y-38.592
X-25.486 Y-40.483
G3 X-18.601 Y-42.588 I7.096 J10.893
G2 X-17.477 Y-43.124 I-0.024 J-1.5
G1 X-13.513 Y-47.848
X-11.981 Y-46.563
G2 X-9.867 Y-46.748 I0.964 J-1.149
G1 X-9.586 Y-47.082
X-2.692 Y-41.297
X-2.973 Y-40.962
G2 X-2.788 Y-38.849 I1.149 J0.964
G1 X-1.256 Y-37.564
X-5.22 Y-32.839
G2 X-5.56 Y-31.69 I1.149 J0.964
G1 Z-5.5 F333.3
X-5.552 Y-31.639 F1000
G3 X-6.431 Y-24.492 I-12.838 J2.049
G1 X-8.015 Y-22.604
X-8.101 Y-22.492
G3 X-9.613 Y-20.69 I-10.289 J-7.099
G1 X-9.708 Y-20.586
X-11.292 Y-18.698
G3 X-30.346 Y-34.694 I-7.097 J-10.892
G1 X-28.759 Y-36.585
X-28.673 Y-36.696
G3 X-27.169 Y-38.489 I10.284 J7.106
G1 X-27.073 Y-38.592
X-25.486 Y-40.483
G3 X-18.601 Y-42.588 I7.096 J10.893
G2 X-17.477 Y-43.124 I-0.024 J-1.5
G1 X-13.513 Y-47.848
X-11.981 Y-46.563
G2 X-9.867 Y-46.748 I0.964 J-1.149
G1 X-9.586 Y-47.082
X-2.692 Y-41.297
X-2.973 Y-40.962
G2 X-2.788 Y-38.849 I1.149 J0.964
G1 X-1.256 Y-37.564
X-5.22 Y-32.839
G2 X-5.56 Y-31.69 I1.149 J0.964
G1 Z-6 F333.3
X-5.552 Y-31.639 F1000
G3 X-6.431 Y-24.492 I-12.838 J2.049
G1 X-8.015 Y-22.604
X-8.101 Y-22.492
G3 X-9.613 Y-20.69 I-10.289 J-7.099
G1 X-9.708 Y-20.586
X-11.292 Y-18.698
G3 X-30.346 Y-34.694 I-7.097 J-10.892
G1 X-28.759 Y-36.585
X-28.673 Y-36.696
G3 X-27.169 Y-38.489 I10.284 J7.106
G1 X-27.073 Y-38.592
X-25.486 Y-40.483
G3 X-18.601 Y-42.588 I7.096 J10.893
G2 X-17.477 Y-43.124 I-0.024 J-1.5
G1 X-13.513 Y-47.848
X-11.981 Y-46.563
G2 X-9.867 Y-46.748 I0.964 J-1.149
G1 X-9.586 Y-47.082
X-2.692 Y-41.297
X-2.973 Y-40.962
G2 X-2.788 Y-38.849 I1.149 J0.964
G1 X-1.256 Y-37.564
X-5.22 Y-32.839
G2 X-5.56 Y-31.69 I1.149 J0.964
G1 Z-6.5 F333.3
X-5.552 Y-31.639 F1000
G3 X-6.431 Y-24.492 I-12.838 J2.049
G1 X-8.015 Y-22.604
X-8.101 Y-22.492
G3 X-9.613 Y-20.69 I-10.289 J-7.099
G1 X-9.708 Y-20.586
X-11.292 Y-18.698
G3 X-30.346 Y-34.694 I-7.097 J-10.892
G1 X-28.759 Y-36.585
X-28.673 Y-36.696
G3 X-27.169 Y-38.489 I10.284 J7.106
G1 X-27.073 Y-38.592
X-25.486 Y-40.483
G3 X-18.601 Y-42.588 I7.096 J10.893
G2 X-17.477 Y-43.124 I-0.024 J-1.5
G1 X-13.513 Y-47.848
X-11.981 Y-46.563
G2 X-9.867 Y-46.748 I0.964 J-1.149
G1 X-9.586 Y-47.082
X-2.692 Y-41.297
X-2.973 Y-40.962
G2 X-2.788 Y-38.849 I1.149 J0.964
G1 X-1.256 Y-37.564
X-5.22 Y-32.839
G2 X-5.56 Y-31.69 I1.149 J0.964
G1 Z-7 F333.3
X-5.552 Y-31.639 F1000
G3 X-6.431 Y-24.492 I-12.838 J2.049
G1 X-8.015 Y-22.604
X-8.101 Y-22.492
G3 X-9.613 Y-20.69 I-10.289 J-7.099
G1 X-9.708 Y-20.586
X-11.292 Y-18.698
G3 X-30.346 Y-34.694 I-7.097 J-10.892
G1 X-28.759 Y-36.585
X-28.673 Y-36.696
G3 X-27.169 Y-38.489 I10.284 J7.106
G1 X-27.073 Y-38.592
X-25.486 Y-40.483
G3 X-18.601 Y-42.588 I7.096 J10.893
G2 X-17.477 Y-43.124 I-0.024 J-1.5
G1 X-13.513 Y-47.848
X-11.981 Y-46.563
G2 X-9.867 Y-46.748 I0.964 J-1.149
G1 X-9.586 Y-47.082
X-2.692 Y-41.297
X-2.973 Y-40.962
G2 X-2.788 Y-38.849 I1.149 J0.964
G1 X-1.256 Y-37.564
X-5.22 Y-32.839
G2 X-5.56 Y-31.69 I1.149 J0.964
G1 Z-7.5 F333.3
X-5.552 Y-31.639 F1000
G3 X-6.431 Y-24.492 I-12.838 J2.049
G1 X-8.015 Y-22.604
X-8.101 Y-22.492
G3 X-9.613 Y-20.69 I-10.289 J-7.099
G1 X-9.708 Y-20.586
X-11.292 Y-18.698
G3 X-30.346 Y-34.694 I-7.097 J-10.892
G1 X-28.759 Y-36.585
X-28.673 Y-36.696
G3 X-27.169 Y-38.489 I10.284 J7.106
G1 X-27.073 Y-38.592
X-25.486 Y-40.483
G3 X-18.601 Y-42.588 I7.096 J10.893
G2 X-17.477 Y-43.124 I-0.024 J-1.5
G1 X-13.513 Y-47.848
X-11.981 Y-46.563
G2 X-9.867 Y-46.748 I0.964 J-1.149
G1 X-9.586 Y-47.082
X-2.692 Y-41.297
X-2.973 Y-40.962
G2 X-2.788 Y-38.849 I1.149 J0.964
G1 X-1.256 Y-37.564
X-5.22 Y-32.839
G2 X-5.56 Y-31.69 I1.149 J0.964
G1 Z-8 F333.3
X-5.552 Y-31.639 F1000
G3 X-6.431 Y-24.492 I-12.838 J2.049
G1 X-8.015 Y-22.604
X-8.101 Y-22.492
G3 X-9.613 Y-20.69 I-10.289 J-7.099
G1 X-9.708 Y-20.586
X-11.292 Y-18.698
G3 X-30.346 Y-34.694 I-7.097 J-10.892
G1 X-28.759 Y-36.585
X-28.673 Y-36.696
G3 X-27.169 Y-38.489 I10.284 J7.106
G1 X-27.073 Y-38.592
X-25.486 Y-40.483
G3 X-18.601 Y-42.588 I7.096 J10.893
G2 X-17.477 Y-43.124 I-0.024 J-1.5
G1 X-13.513 Y-47.848
X-11.981 Y-46.563
G2 X-9.867 Y-46.748 I0.964 J-1.149
G1 X-9.586 Y-47.082
X-2.692 Y-41.297
X-2.973 Y-40.962
G2 X-2.788 Y-38.849 I1.149 J0.964
G1 X-1.256 Y-37.564
X-5.22 Y-32.839
G2 X-5.56 Y-31.69 I1.149 J0.964
G1 Z-8.5 F333.3
X-5.552 Y-31.639 F1000
G3 X-6.431 Y-24.492 I-12.838 J2.049
G1 X-8.015 Y-22.604
X-8.101 Y-22.492
G3 X-9.613 Y-20.69 I-10.289 J-7.099
G1 X-9.708 Y-20.586
X-11.292 Y-18.698
G3 X-30.346 Y-34.694 I-7.097 J-10.892
G1 X-28.759 Y-36.585
X-28.673 Y-36.696
G3 X-27.169 Y-38.489 I10.284 J7.106
G1 X-27.073 Y-38.592
X-25.486 Y-40.483
G3 X-18.601 Y-42.588 I7.096 J10.893
G2 X-17.477 Y-43.124 I-0.024 J-1.5
G1 X-13.513 Y-47.848
X-11.981 Y-46.563
G2 X-9.867 Y-46.748 I0.964 J-1.149
G1 X-9.586 Y-47.082
X-2.692 Y-41.297
X-2.973 Y-40.962
G2 X-2.788 Y-38.849 I1.149 J0.964
G1 X-1.256 Y-37.564
X-5.22 Y-32.839
G2 X-5.56 Y-31.69 I1.149 J0.964
G1 Z-9 F333.3
X-5.552 Y-31.639 F1000
G3 X-6.431 Y-24.492 I-12.838 J2.049
G1 X-8.015 Y-22.604
X-8.101 Y-22.492
G3 X-9.613 Y-20.69 I-10.289 J-7.099
G1 X-9.708 Y-20.586
X-11.292 Y-18.698
G3 X-30.346 Y-34.694 I-7.097 J-10.892
G1 X-28.759 Y-36.585
X-28.673 Y-36.696
G3 X-27.169 Y-38.489 I10.284 J7.106
G1 X-27.073 Y-38.592
X-25.486 Y-40.483
G3 X-18.601 Y-42.588 I7.096 J10.893
G2 X-17.477 Y-43.124 I-0.024 J-1.5
G1 X-13.513 Y-47.848
X-11.981 Y-46.563
G2 X-9.867 Y-46.748 I0.964 J-1.149
G1 X-9.586 Y-47.082
X-2.692 Y-41.297
X-2.973 Y-40.962
G2 X-2.788 Y-38.849 I1.149 J0.964
G1 X-1.256 Y-37.564
X-5.22 Y-32.839
G2 X-5.56 Y-31.69 I1.149 J0.964
G1 Z-9.5 F333.3
X-5.552 Y-31.639 F1000
G3 X-6.431 Y-24.492 I-12.838 J2.049
G1 X-8.015 Y-22.604
X-8.101 Y-22.492
G3 X-9.613 Y-20.69 I-10.289 J-7.099
G1 X-9.708 Y-20.586
X-11.292 Y-18.698
G3 X-30.346 Y-34.694 I-7.097 J-10.892
G1 X-28.759 Y-36.585
X-28.673 Y-36.696
G3 X-27.169 Y-38.489 I10.284 J7.106
G1 X-27.073 Y-38.592
X-25.486 Y-40.483
G3 X-18.601 Y-42.588 I7.096 J10.893
G2 X-17.477 Y-43.124 I-0.024 J-1.5
G1 X-13.513 Y-47.848
X-11.981 Y-46.563
G2 X-9.867 Y-46.748 I0.964 J-1.149
G1 X-9.586 Y-47.082
X-2.692 Y-41.297
X-2.973 Y-40.962
G2 X-2.788 Y-38.849 I1.149 J0.964
G1 X-1.256 Y-37.564
X-5.22 Y-32.839
G2 X-5.56 Y-31.69 I1.149 J0.964
G1 Z-10 F333.3
X-5.552 Y-31.639 F1000
G3 X-6.431 Y-24.492 I-12.838 J2.049
G1 X-8.015 Y-22.604
X-8.101 Y-22.492
G3 X-9.613 Y-20.69 I-10.289 J-7.099
G1 X-9.708 Y-20.586
X-11.292 Y-18.698
G3 X-30.346 Y-34.694 I-7.097 J-10.892
G1 X-28.759 Y-36.585
X-28.673 Y-36.696
G3 X-27.169 Y-38.489 I10.284 J7.106
G1 X-27.073 Y-38.592
X-25.486 Y-40.483
G3 X-18.601 Y-42.588 I7.096 J10.893
G2 X-17.477 Y-43.124 I-0.024 J-1.5
G1 X-13.513 Y-47.848
X-11.981 Y-46.563
G2 X-9.867 Y-46.748 I0.964 J-1.149
G1 X-9.586 Y-47.082
X-2.692 Y-41.297
X-2.973 Y-40.962
G2 X-2.788 Y-38.849 I1.149 J0.964
G1 X-1.256 Y-37.564
X-5.22 Y-32.839
G2 X-5.56 Y-31.69 I1.149 J0.964
G1 Z-10.5 F333.3
X-5.552 Y-31.639 F1000
G3 X-6.431 Y-24.492 I-12.838 J2.049
G1 X-8.015 Y-22.604
X-8.101 Y-22.492
G3 X-9.613 Y-20.69 I-10.289 J-7.099
G1 X-9.708 Y-20.586
X-11.292 Y-18.698
G3 X-30.346 Y-34.694 I-7.097 J-10.892
G1 X-28.759 Y-36.585
X-28.673 Y-36.696
G3 X-27.169 Y-38.489 I10.284 J7.106
G1 X-27.073 Y-38.592
X-25.486 Y-40.483
G3 X-18.601 Y-42.588 I7.096 J10.893
G2 X-17.477 Y-43.124 I-0.024 J-1.5
G1 X-13.513 Y-47.848
X-11.981 Y-46.563
G2 X-9.867 Y-46.748 I0.964 J-1.149
G1 X-9.586 Y-47.082
X-2.692 Y-41.297
X-2.973 Y-40.962
G2 X-2.788 Y-38.849 I1.149 J0.964
G1 X-1.256 Y-37.564
X-5.22 Y-32.839
G2 X-5.56 Y-31.69 I1.149 J0.964
G1 Z-11 F333.3
X-5.552 Y-31.639 F1000
G3 X-6.431 Y-24.492 I-12.838 J2.049
G1 X-8.015 Y-22.604
X-8.101 Y-22.492
G3 X-9.613 Y-20.69 I-10.289 J-7.099
G1 X-9.708 Y-20.586
X-11.292 Y-18.698
G3 X-30.346 Y-34.694 I-7.097 J-10.892
G1 X-28.759 Y-36.585
X-28.673 Y-36.696
G3 X-27.169 Y-38.489 I10.284 J7.106
G1 X-27.073 Y-38.592
X-25.486 Y-40.483
G3 X-18.601 Y-42.588 I7.096 J10.893
G2 X-17.477 Y-43.124 I-0.024 J-1.5
G1 X-13.513 Y-47.848
X-11.981 Y-46.563
G2 X-9.867 Y-46.748 I0.964 J-1.149
G1 X-9.586 Y-47.082
X-2.692 Y-41.297
X-2.973 Y-40.962
G2 X-2.788 Y-38.849 I1.149 J0.964
G1 X-1.256 Y-37.564
X-5.22 Y-32.839
G2 X-5.56 Y-31.69 I1.149 J0.964
G1 Z-11.5 F333.3
X-5.552 Y-31.639 F1000
G3 X-6.431 Y-24.492 I-12.838 J2.049
G1 X-8.015 Y-22.604
X-8.101 Y-22.492
G3 X-9.613 Y-20.69 I-10.289 J-7.099
G1 X-9.708 Y-20.586
X-11.292 Y-18.698
G3 X-30.346 Y-34.694 I-7.097 J-10.892
G1 X-28.759 Y-36.585
X-28.673 Y-36.696
G3 X-27.169 Y-38.489 I10.284 J7.106
G1 X-27.073 Y-38.592
X-25.486 Y-40.483
G3 X-18.601 Y-42.588 I7.096 J10.893
G2 X-17.477 Y-43.124 I-0.024 J-1.5
G1 X-13.513 Y-47.848
X-11.981 Y-46.563
G2 X-9.867 Y-46.748 I0.964 J-1.149
G1 X-9.586 Y-47.082
X-2.692 Y-41.297
X-2.973 Y-40.962
G2 X-2.788 Y-38.849 I1.149 J0.964
G1 X-1.256 Y-37.564
X-5.22 Y-32.839
G2 X-5.56 Y-31.69 I1.149 J0.964
G1 Z-12 F333.3
X-5.552 Y-31.639 F1000
G3 X-6.431 Y-24.492 I-12.838 J2.049
G1 X-8.015 Y-22.604
X-8.101 Y-22.492
G3 X-9.613 Y-20.69 I-10.289 J-7.099
G1 X-9.708 Y-20.586
X-11.292 Y-18.698
G3 X-30.346 Y-34.694 I-7.097 J-10.892
G1 X-28.759 Y-36.585
X-28.673 Y-36.696
G3 X-27.169 Y-38.489 I10.284 J7.106
G1 X-27.073 Y-38.592
X-25.486 Y-40.483
G3 X-18.601 Y-42.588 I7.096 J10.893
G2 X-17.477 Y-43.124 I-0.024 J-1.5
G1 X-13.513 Y-47.848
X-11.981 Y-46.563
G2 X-9.867 Y-46.748 I0.964 J-1.149
G1 X-9.586 Y-47.082
X-2.692 Y-41.297
X-2.973 Y-40.962
G2 X-2.788 Y-38.849 I1.149 J0.964
G1 X-1.256 Y-37.564
X-5.22 Y-32.839
G2 X-5.56 Y-31.69 I1.149 J0.964
G1 Z-12.5 F333.3
X-5.552 Y-31.639 F1000
G3 X-6.431 Y-24.492 I-12.838 J2.049
G1 X-8.015 Y-22.604
X-8.101 Y-22.492
G3 X-9.613 Y-20.69 I-10.289 J-7.099
G1 X-9.708 Y-20.586
X-11.292 Y-18.698
G3 X-30.346 Y-34.694 I-7.097 J-10.892
G1 X-28.759 Y-36.585
X-28.673 Y-36.696
G3 X-27.169 Y-38.489 I10.284 J7.106
G1 X-27.073 Y-38.592
X-25.486 Y-40.483
G3 X-18.601 Y-42.588 I7.096 J10.893
G2 X-17.477 Y-43.124 I-0.024 J-1.5
G1 X-13.513 Y-47.848
X-11.981 Y-46.563
G2 X-9.867 Y-46.748 I0.964 J-1.149
G1 X-9.586 Y-47.082
X-2.692 Y-41.297
X-2.973 Y-40.962
G2 X-2.788 Y-38.849 I1.149 J0.964
G1 X-1.256 Y-37.564
X-5.22 Y-32.839
G2 X-5.56 Y-31.69 I1.149 J0.964
G1 Z-13 F333.3
X-5.552 Y-31.639 F1000
G3 X-6.431 Y-24.492 I-12.838 J2.049
G1 X-8.015 Y-22.604
X-8.101 Y-22.492
G3 X-9.613 Y-20.69 I-10.289 J-7.099
G1 X-9.708 Y-20.586
X-11.292 Y-18.698
G3 X-30.346 Y-34.694 I-7.097 J-10.892
G1 X-28.759 Y-36.585
X-28.673 Y-36.696
G3 X-27.169 Y-38.489 I10.284 J7.106
G1 X-27.073 Y-38.592
X-25.486 Y-40.483
G3 X-18.601 Y-42.588 I7.096 J10.893
G2 X-17.477 Y-43.124 I-0.024 J-1.5
G1 X-13.513 Y-47.848
X-11.981 Y-46.563
G2 X-9.867 Y-46.748 I0.964 J-1.149
G1 X-9.586 Y-47.082
X-2.692 Y-41.297
X-2.973 Y-40.962
G2 X-2.788 Y-38.849 I1.149 J0.964
G1 X-1.256 Y-37.564
X-5.22 Y-32.839
G2 X-5.56 Y-31.69 I1.149 J0.964
G1 Z-13.5 F333.3
X-5.552 Y-31.639 F1000
G3 X-6.431 Y-24.492 I-12.838 J2.049
G1 X-8.015 Y-22.604
X-8.101 Y-22.492
G3 X-9.613 Y-20.69 I-10.289 J-7.099
G1 X-9.708 Y-20.586
X-11.292 Y-18.698
G3 X-30.346 Y-34.694 I-7.097 J-10.892
G1 X-28.759 Y-36.585
X-28.673 Y-36.696
G3 X-27.169 Y-38.489 I10.284 J7.106
G1 X-27.073 Y-38.592
X-25.486 Y-40.483
G3 X-18.601 Y-42.588 I7.096 J10.893
G2 X-17.477 Y-43.124 I-0.024 J-1.5
G1 X-13.513 Y-47.848
X-11.981 Y-46.563
G2 X-9.867 Y-46.748 I0.964 J-1.149
G1 X-9.586 Y-47.082
X-2.692 Y-41.297
X-2.973 Y-40.962
G2 X-2.788 Y-38.849 I1.149 J0.964
G1 X-1.256 Y-37.564
X-5.22 Y-32.839
G2 X-5.56 Y-31.69 I1.149 J0.964
G1 Z-14 F333.3
X-5.552 Y-31.639 F1000
G3 X-6.431 Y-24.492 I-12.838 J2.049
G1 X-8.015 Y-22.604
X-8.101 Y-22.492
G3 X-9.613 Y-20.69 I-10.289 J-7.099
G1 X-9.708 Y-20.586
X-11.292 Y-18.698
G3 X-30.346 Y-34.694 I-7.097 J-10.892
G1 X-28.759 Y-36.585
X-28.673 Y-36.696
G3 X-27.169 Y-38.489 I10.284 J7.106
G1 X-27.073 Y-38.592
X-25.486 Y-40.483
G3 X-18.601 Y-42.588 I7.096 J10.893
G2 X-17.477 Y-43.124 I-0.024 J-1.5
G1 X-13.513 Y-47.848
X-11.981 Y-46.563
G2 X-9.867 Y-46.748 I0.964 J-1.149
G1 X-9.586 Y-47.082
X-2.692 Y-41.297
X-2.973 Y-40.962
G2 X-2.788 Y-38.849 I1.149 J0.964
G1 X-1.256 Y-37.564
X-5.22 Y-32.839
G2 X-5.56 Y-31.69 I1.149 J0.964
G1 Z-14.5 F333.3
X-5.552 Y-31.639 F1000
G3 X-6.431 Y-24.492 I-12.838 J2.049
G1 X-8.015 Y-22.604
X-8.101 Y-22.492
G3 X-9.613 Y-20.69 I-10.289 J-7.099
G1 X-9.708 Y-20.586
X-11.292 Y-18.698
G3 X-30.346 Y-34.694 I-7.097 J-10.892
G1 X-28.759 Y-36.585
X-28.673 Y-36.696
G3 X-27.169 Y-38.489 I10.284 J7.106
G1 X-27.073 Y-38.592
X-25.486 Y-40.483
G3 X-18.601 Y-42.588 I7.096 J10.893
G2 X-17.477 Y-43.124 I-0.024 J-1.5
G1 X-13.513 Y-47.848
X-11.981 Y-46.563
G2 X-9.867 Y-46.748 I0.964 J-1.149
G1 X-9.586 Y-47.082
X-2.692 Y-41.297
X-2.973 Y-40.962
G2 X-2.788 Y-38.849 I1.149 J0.964
G1 X-1.256 Y-37.564
X-5.22 Y-32.839
G2 X-5.56 Y-31.69 I1.149 J0.964
G1 Z-15 F333.3
X-5.552 Y-31.639 F1000
G3 X-6.431 Y-24.492 I-12.838 J2.049
G1 X-8.015 Y-22.604
X-8.101 Y-22.492
G3 X-9.613 Y-20.69 I-10.289 J-7.099
G1 X-9.708 Y-20.586
X-11.292 Y-18.698
G3 X-30.346 Y-34.694 I-7.097 J-10.892
G1 X-28.759 Y-36.585
X-28.673 Y-36.696
G3 X-27.169 Y-38.489 I10.284 J7.106
G1 X-27.073 Y-38.592
X-25.486 Y-40.483
G3 X-18.601 Y-42.588 I7.096 J10.893
G2 X-17.477 Y-43.124 I-0.024 J-1.5
G1 X-13.513 Y-47.848
X-11.981 Y-46.563
G2 X-9.867 Y-46.748 I0.964 J-1.149
G1 X-9.586 Y-47.082
X-2.692 Y-41.297
X-2.973 Y-40.962
G2 X-2.788 Y-38.849 I1.149 J0.964
G1 X-1.256 Y-37.564
X-5.22 Y-32.839
G2 X-5.56 Y-31.69 I1.149 J0.964
G1 Z-15.5 F333.3
X-5.552 Y-31.639 F1000
G3 X-6.431 Y-24.492 I-12.838 J2.049
G1 X-8.015 Y-22.604
X-8.101 Y-22.492
G3 X-9.613 Y-20.69 I-10.289 J-7.099
G1 X-9.708 Y-20.586
X-11.292 Y-18.698
G3 X-30.346 Y-34.694 I-7.097 J-10.892
G1 X-28.759 Y-36.585
X-28.673 Y-36.696
G3 X-27.169 Y-38.489 I10.284 J7.106
G1 X-27.073 Y-38.592
X-25.486 Y-40.483
G3 X-18.601 Y-42.588 I7.096 J10.893
G2 X-17.477 Y-43.124 I-0.024 J-1.5
G1 X-13.513 Y-47.848
X-11.981 Y-46.563
G2 X-9.867 Y-46.748 I0.964 J-1.149
G1 X-9.586 Y-47.082
X-2.692 Y-41.297
X-2.973 Y-40.962
G2 X-2.788 Y-38.849 I1.149 J0.964
G1 X-1.256 Y-37.564
X-5.22 Y-32.839
G2 X-5.56 Y-31.69 I1.149 J0.964
G1 Z-16 F333.3
X-5.552 Y-31.639 F1000
G3 X-6.431 Y-24.492 I-12.838 J2.049
G1 X-8.015 Y-22.604
X-8.101 Y-22.492
G3 X-9.613 Y-20.69 I-10.289 J-7.099
G1 X-9.708 Y-20.586
X-11.292 Y-18.698
G3 X-30.346 Y-34.694 I-7.097 J-10.892
G1 X-28.759 Y-36.585
X-28.673 Y-36.696
G3 X-27.169 Y-38.489 I10.284 J7.106
G1 X-27.073 Y-38.592
X-25.486 Y-40.483
G3 X-18.601 Y-42.588 I7.096 J10.893
G2 X-17.477 Y-43.124 I-0.024 J-1.5
G1 X-13.513 Y-47.848
X-11.981 Y-46.563
G2 X-9.867 Y-46.748 I0.964 J-1.149
G1 X-9.586 Y-47.082
X-2.692 Y-41.297
X-2.973 Y-40.962
G2 X-2.788 Y-38.849 I1.149 J0.964
G1 X-1.256 Y-37.564
X-5.22 Y-32.839
G2 X-5.56 Y-31.69 I1.149 J0.964
G1 Z-16.5 F333.3
X-5.552 Y-31.639 F1000
G3 X-6.431 Y-24.492 I-12.838 J2.049
G1 X-8.015 Y-22.604
X-8.101 Y-22.492
G3 X-9.613 Y-20.69 I-10.289 J-7.099
G1 X-9.708 Y-20.586
X-11.292 Y-18.698
G3 X-30.346 Y-34.694 I-7.097 J-10.892
G1 X-28.759 Y-36.585
X-28.673 Y-36.696
G3 X-27.169 Y-38.489 I10.284 J7.106
G1 X-27.073 Y-38.592
X-25.486 Y-40.483
G3 X-18.601 Y-42.588 I7.096 J10.893
G2 X-17.477 Y-43.124 I-0.024 J-1.5
G1 X-13.513 Y-47.848
X-11.981 Y-46.563
G2 X-9.867 Y-46.748 I0.964 J-1.149
G1 X-9.586 Y-47.082
X-2.692 Y-41.297
X-2.973 Y-40.962
G2 X-2.788 Y-38.849 I1.149 J0.964
G1 X-1.256 Y-37.564
X-5.22 Y-32.839
G2 X-5.56 Y-31.69 I1.149 J0.964
G1 Z-17 F333.3
X-5.552 Y-31.639 F1000
G3 X-6.431 Y-24.492 I-12.838 J2.049
G1 X-8.015 Y-22.604
X-8.101 Y-22.492
G3 X-9.613 Y-20.69 I-10.289 J-7.099
G1 X-9.708 Y-20.586
X-11.292 Y-18.698
G3 X-30.346 Y-34.694 I-7.097 J-10.892
G1 X-28.759 Y-36.585
X-28.673 Y-36.696
G3 X-27.169 Y-38.489 I10.284 J7.106
G1 X-27.073 Y-38.592
X-25.486 Y-40.483
G3 X-18.601 Y-42.588 I7.096 J10.893
G2 X-17.477 Y-43.124 I-0.024 J-1.5
G1 X-13.513 Y-47.848
X-11.981 Y-46.563
G2 X-9.867 Y-46.748 I0.964 J-1.149
G1 X-9.586 Y-47.082
X-2.692 Y-41.297
X-2.973 Y-40.962
G2 X-2.788 Y-38.849 I1.149 J0.964
G1 X-1.256 Y-37.564
X-5.22 Y-32.839
G2 X-5.56 Y-31.69 I1.149 J0.964
G1 Z-17.3 F333.3
X-5.552 Y-31.639 F1000
G3 X-6.431 Y-24.492 I-12.838 J2.049
G1 X-8.015 Y-22.604
X-8.101 Y-22.492
G3 X-9.613 Y-20.69 I-10.289 J-7.099
G1 X-9.708 Y-20.586
X-11.292 Y-18.698
G3 X-30.346 Y-34.694 I-7.097 J-10.892
G1 X-28.759 Y-36.585
X-28.673 Y-36.696
G3 X-27.169 Y-38.489 I10.284 J7.106
G1 X-27.073 Y-38.592
X-25.486 Y-40.483
G3 X-18.601 Y-42.588 I7.096 J10.893
G2 X-17.477 Y-43.124 I-0.024 J-1.5
G1 X-13.513 Y-47.848
X-11.981 Y-46.563
G2 X-9.867 Y-46.748 I0.964 J-1.149
G1 X-9.586 Y-47.082
X-2.692 Y-41.297
X-2.973 Y-40.962
G2 X-2.788 Y-38.849 I1.149 J0.964
G1 X-1.256 Y-37.564
X-5.22 Y-32.839
G2 X-5.56 Y-31.69 I1.149 J0.964
G0 Z4
X-15.5 Y4.596
Z2
G1 Z1.5 F333.3
Z-0.5
G2 X-14.983 Y5.729 I1.5 J0 F1000
G3 X-11.062 Y11.769 I-8.517 J9.821
G1 Y14.233
X-11.055 Y14.374
G3 X-11.055 Y16.726 I-12.445 J1.176
G1 X-11.062 Y16.867
Y19.331
G3 X-35.94 Y19.326 I-12.438 J-3.781
G1 X-35.939 Y16.857
X-35.945 Y16.716
G3 X-35.945 Y14.376 I12.445 J-1.167
G1 X-35.938 Y14.236
X-35.937 Y11.767
G3 X-32.017 Y5.729 I12.437 J3.783
G2 X-31.5 Y4.596 I-0.983 J-1.133
G1 Y-1.572
X-29.5
G2 X-28 Y-3.072 I0 J-1.5
G1 Y-3.509
X-19
Y-3.072
G2 X-17.5 Y-1.572 I1.5 J0
G1 X-15.5
Y4.596
Z-1 F333.3
G2 X-14.983 Y5.729 I1.5 J0 F1000
G3 X-11.062 Y11.769 I-8.517 J9.821
G1 Y14.233
X-11.055 Y14.374
G3 X-11.055 Y16.726 I-12.445 J1.176
G1 X-11.062 Y16.867
Y19.331
G3 X-35.94 Y19.326 I-12.438 J-3.781
G1 X-35.939 Y16.857
X-35.945 Y16.716
G3 X-35.945 Y14.376 I12.445 J-1.167
G1 X-35.938 Y14.236
X-35.937 Y11.767
G3 X-32.017 Y5.729 I12.437 J3.783
G2 X-31.5 Y4.596 I-0.983 J-1.133
G1 Y-1.572
X-29.5
G2 X-28 Y-3.072 I0 J-1.5
G1 Y-3.509
X-19
Y-3.072
G2 X-17.5 Y-1.572 I1.5 J0
G1 X-15.5
Y4.596
Z-1.5 F333.3
G2 X-14.983 Y5.729 I1.5 J0 F1000
G3 X-11.062 Y11.769 I-8.517 J9.821
G1 Y14.233
X-11.055 Y14.374
G3 X-11.055 Y16.726 I-12.445 J1.176
G1 X-11.062 Y16.867
Y19.331
G3 X-35.94 Y19.326 I-12.438 J-3.781
G1 X-35.939 Y16.857
X-35.945 Y16.716
G3 X-35.945 Y14.376 I12.445 J-1.167
G1 X-35.938 Y14.236
X-35.937 Y11.767
G3 X-32.017 Y5.729 I12.437 J3.783
G2 X-31.5 Y4.596 I-0.983 J-1.133
G1 Y-1.572
X-29.5
G2 X-28 Y-3.072 I0 J-1.5
G1 Y-3.509
X-19
Y-3.072
G2 X-17.5 Y-1.572 I1.5 J0
G1 X-15.5
Y4.596
Z-2 F333.3
G2 X-14.983 Y5.729 I1.5 J0 F1000
G3 X-11.062 Y11.769 I-8.517 J9.821
G1 Y14.233
X-11.055 Y14.374
G3 X-11.055 Y16.726 I-12.445 J1.176
G1 X-11.062 Y16.867
Y19.331
G3 X-35.94 Y19.326 I-12.438 J-3.781
G1 X-35.939 Y16.857
X-35.945 Y16.716
G3 X-35.945 Y14.376 I12.445 J-1.167
G1 X-35.938 Y14.236
X-35.937 Y11.767
G3 X-32.017 Y5.729 I12.437 J3.783
G2 X-31.5 Y4.596 I-0.983 J-1.133
G1 Y-1.572
X-29.5
G2 X-28 Y-3.072 I0 J-1.5
G1 Y-3.509
X-19
Y-3.072
G2 X-17.5 Y-1.572 I1.5 J0
G1 X-15.5
Y4.596
Z-2.5 F333.3
G2 X-14.983 Y5.729 I1.5 J0 F1000
G3 X-11.062 Y11.769 I-8.517 J9.821
G1 Y14.233
X-11.055 Y14.374
G3 X-11.055 Y16.726 I-12.445 J1.176
G1 X-11.062 Y16.867
Y19.331
G3 X-35.94 Y19.326 I-12.438 J-3.781
G1 X-35.939 Y16.857
X-35.945 Y16.716
G3 X-35.945 Y14.376 I12.445 J-1.167
G1 X-35.938 Y14.236
X-35.937 Y11.767
G3 X-32.017 Y5.729 I12.437 J3.783
G2 X-31.5 Y4.596 I-0.983 J-1.133
G1 Y-1.572
X-29.5
G2 X-28 Y-3.072 I0 J-1.5
G1 Y-3.509
X-19
Y-3.072
G2 X-17.5 Y-1.572 I1.5 J0
G1 X-15.5
Y4.596
Z-3 F333.3
G2 X-14.983 Y5.729 I1.5 J0 F1000
G3 X-11.062 Y11.769 I-8.517 J9.821
G1 Y14.233
X-11.055 Y14.374
G3 X-11.055 Y16.726 I-12.445 J1.176
G1 X-11.062 Y16.867
Y19.331
G3 X-35.94 Y19.326 I-12.438 J-3.781
G1 X-35.939 Y16.857
X-35.945 Y16.716
G3 X-35.945 Y14.376 I12.445 J-1.167
G1 X-35.938 Y14.236
X-35.937 Y11.767
G3 X-32.017 Y5.729 I12.437 J3.783
G2 X-31.5 Y4.596 I-0.983 J-1.133
G1 Y-1.572
X-29.5
G2 X-28 Y-3.072 I0 J-1.5
G1 Y-3.509
X-19
Y-3.072
G2 X-17.5 Y-1.572 I1.5 J0
G1 X-15.5
Y4.596
Z-3.5 F333.3
G2 X-14.983 Y5.729 I1.5 J0 F1000
G3 X-11.062 Y11.769 I-8.517 J9.821
G1 Y14.233
X-11.055 Y14.374
G3 X-11.055 Y16.726 I-12.445 J1.176
G1 X-11.062 Y16.867
Y19.331
G3 X-35.94 Y19.326 I-12.438 J-3.781
G1 X-35.939 Y16.857
X-35.945 Y16.716
G3 X-35.945 Y14.376 I12.445 J-1.167
G1 X-35.938 Y14.236
X-35.937 Y11.767
G3 X-32.017 Y5.729 I12.437 J3.783
G2 X-31.5 Y4.596 I-0.983 J-1.133
G1 Y-1.572
X-29.5
G2 X-28 Y-3.072 I0 J-1.5
G1 Y-3.509
X-19
Y-3.072
G2 X-17.5 Y-1.572 I1.5 J0
G1 X-15.5
Y4.596
Z-4 F333.3
G2 X-14.983 Y5.729 I1.5 J0 F1000
G3 X-11.062 Y11.769 I-8.517 J9.821
G1 Y14.233
X-11.055 Y14.374
G3 X-11.055 Y16.726 I-12.445 J1.176
G1 X-11.062 Y16.867
Y19.331
G3 X-35.94 Y19.326 I-12.438 J-3.781
G1 X-35.939 Y16.857
X-35.945 Y16.716
G3 X-35.945 Y14.376 I12.445 J-1.167
G1 X-35.938 Y14.236
X-35.937 Y11.767
G3 X-32.017 Y5.729 I12.437 J3.783
G2 X-31.5 Y4.596 I-0.983 J-1.133
G1 Y-1.572
X-29.5
G2 X-28 Y-3.072 I0 J-1.5
G1 Y-3.509
X-19
Y-3.072
G2 X-17.5 Y-1.572 I1.5 J0
G1 X-15.5
Y4.596
Z-4.5 F333.3
G2 X-14.983 Y5.729 I1.5 J0 F1000
G3 X-11.062 Y11.769 I-8.517 J9.821
G1 Y14.233
X-11.055 Y14.374
G3 X-11.055 Y16.726 I-12.445 J1.176
G1 X-11.062 Y16.867
Y19.331
G3 X-35.94 Y19.326 I-12.438 J-3.781
G1 X-35.939 Y16.857
X-35.945 Y16.716
G3 X-35.945 Y14.376 I12.445 J-1.167
G1 X-35.938 Y14.236
X-35.937 Y11.767
G3 X-32.017 Y5.729 I12.437 J3.783
G2 X-31.5 Y4.596 I-0.983 J-1.133
G1 Y-1.572
X-29.5
G2 X-28 Y-3.072 I0 J-1.5
G1 Y-3.509
X-19
Y-3.072
G2 X-17.5 Y-1.572 I1.5 J0
G1 X-15.5
Y4.596
Z-5 F333.3
G2 X-14.983 Y5.729 I1.5 J0 F1000
G3 X-11.062 Y11.769 I-8.517 J9.821
G1 Y14.233
X-11.055 Y14.374
G3 X-11.055 Y16.726 I-12.445 J1.176
G1 X-11.062 Y16.867
Y19.331
G3 X-35.94 Y19.326 I-12.438 J-3.781
G1 X-35.939 Y16.857
X-35.945 Y16.716
G3 X-35.945 Y14.376 I12.445 J-1.167
G1 X-35.938 Y14.236
X-35.937 Y11.767
G3 X-32.017 Y5.729 I12.437 J3.783
G2 X-31.5 Y4.596 I-0.983 J-1.133
G1 Y-1.572
X-29.5
G2 X-28 Y-3.072 I0 J-1.5
G1 Y-3.509
X-19
Y-3.072
G2 X-17.5 Y-1.572 I1.5 J0
G1 X-15.5
Y4.596
Z-5.5 F333.3
G2 X-14.983 Y5.729 I1.5 J0 F1000
G3 X-11.062 Y11.769 I-8.517 J9.821
G1 Y14.233
X-11.055 Y14.374
G3 X-11.055 Y16.726 I-12.445 J1.176
G1 X-11.062 Y16.867
Y19.331
G3 X-35.94 Y19.326 I-12.438 J-3.781
G1 X-35.939 Y16.857
X-35.945 Y16.716
G3 X-35.945 Y14.376 I12.445 J-1.167
G1 X-35.938 Y14.236
X-35.937 Y11.767
G3 X-32.017 Y5.729 I12.437 J3.783
G2 X-31.5 Y4.596 I-0.983 J-1.133
G1 Y-1.572
X-29.5
G2 X-28 Y-3.072 I0 J-1.5
G1 Y-3.509
X-19
Y-3.072
G2 X-17.5 Y-1.572 I1.5 J0
G1 X-15.5
Y4.596
Z-6 F333.3
G2 X-14.983 Y5.729 I1.5 J0 F1000
G3 X-11.062 Y11.769 I-8.517 J9.821
G1 Y14.233
X-11.055 Y14.374
G3 X-11.055 Y16.726 I-12.445 J1.176
G1 X-11.062 Y16.867
Y19.331
G3 X-35.94 Y19.326 I-12.438 J-3.781
G1 X-35.939 Y16.857
X-35.945 Y16.716
G3 X-35.945 Y14.376 I12.445 J-1.167
G1 X-35.938 Y14.236
X-35.937 Y11.767
G3 X-32.017 Y5.729 I12.437 J3.783
G2 X-31.5 Y4.596 I-0.983 J-1.133
G1 Y-1.572
X-29.5
G2 X-28 Y-3.072 I0 J-1.5
G1 Y-3.509
X-19
Y-3.072
G2 X-17.5 Y-1.572 I1.5 J0
G1 X-15.5
Y4.596
Z-6.5 F333.3
G2 X-14.983 Y5.729 I1.5 J0 F1000
G3 X-11.062 Y11.769 I-8.517 J9.821
G1 Y14.233
X-11.055 Y14.374
G3 X-11.055 Y16.726 I-12.445 J1.176
G1 X-11.062 Y16.867
Y19.331
G3 X-35.94 Y19.326 I-12.438 J-3.781
G1 X-35.939 Y16.857
X-35.945 Y16.716
G3 X-35.945 Y14.376 I12.445 J-1.167
G1 X-35.938 Y14.236
X-35.937 Y11.767
G3 X-32.017 Y5.729 I12.437 J3.783
G2 X-31.5 Y4.596 I-0.983 J-1.133
G1 Y-1.572
X-29.5
G2 X-28 Y-3.072 I0 J-1.5
G1 Y-3.509
X-19
Y-3.072
G2 X-17.5 Y-1.572 I1.5 J0
G1 X-15.5
Y4.596
Z-7 F333.3
G2 X-14.983 Y5.729 I1.5 J0 F1000
G3 X-11.062 Y11.769 I-8.517 J9.821
G1 Y14.233
X-11.055 Y14.374
G3 X-11.055 Y16.726 I-12.445 J1.176
G1 X-11.062 Y16.867
Y19.331
G3 X-35.94 Y19.326 I-12.438 J-3.781
G1 X-35.939 Y16.857
X-35.945 Y16.716
G3 X-35.945 Y14.376 I12.445 J-1.167
G1 X-35.938 Y14.236
X-35.937 Y11.767
G3 X-32.017 Y5.729 I12.437 J3.783
G2 X-31.5 Y4.596 I-0.983 J-1.133
G1 Y-1.572
X-29.5
G2 X-28 Y-3.072 I0 J-1.5
G1 Y-3.509
X-19
Y-3.072
G2 X-17.5 Y-1.572 I1.5 J0
G1 X-15.5
Y4.596
Z-7.5 F333.3
G2 X-14.983 Y5.729 I1.5 J0 F1000
G3 X-11.062 Y11.769 I-8.517 J9.821
G1 Y14.233
X-11.055 Y14.374
G3 X-11.055 Y16.726 I-12.445 J1.176
G1 X-11.062 Y16.867
Y19.331
G3 X-35.94 Y19.326 I-12.438 J-3.781
G1 X-35.939 Y16.857
X-35.945 Y16.716
G3 X-35.945 Y14.376 I12.445 J-1.167
G1 X-35.938 Y14.236
X-35.937 Y11.767
G3 X-32.017 Y5.729 I12.437 J3.783
G2 X-31.5 Y4.596 I-0.983 J-1.133
G1 Y-1.572
X-29.5
G2 X-28 Y-3.072 I0 J-1.5
G1 Y-3.509
X-19
Y-3.072
G2 X-17.5 Y-1.572 I1.5 J0
G1 X-15.5
Y4.596
Z-8 F333.3
G2 X-14.983 Y5.729 I1.5 J0 F1000
G3 X-11.062 Y11.769 I-8.517 J9.821
G1 Y14.233
X-11.055 Y14.374
G3 X-11.055 Y16.726 I-12.445 J1.176
G1 X-11.062 Y16.867
Y19.331
G3 X-35.94 Y19.326 I-12.438 J-3.781
G1 X-35.939 Y16.857
X-35.945 Y16.716
G3 X-35.945 Y14.376 I12.445 J-1.167
G1 X-35.938 Y14.236
X-35.937 Y11.767
G3 X-32.017 Y5.729 I12.437 J3.783
G2 X-31.5 Y4.596 I-0.983 J-1.133
G1 Y-1.572
X-29.5
G2 X-28 Y-3.072 I0 J-1.5
G1 Y-3.509
X-19
Y-3.072
G2 X-17.5 Y-1.572 I1.5 J0
G1 X-15.5
Y4.596
Z-8.5 F333.3
G2 X-14.983 Y5.729 I1.5 J0 F1000
G3 X-11.062 Y11.769 I-8.517 J9.821
G1 Y14.233
X-11.055 Y14.374
G3 X-11.055 Y16.726 I-12.445 J1.176
G1 X-11.062 Y16.867
Y19.331
G3 X-35.94 Y19.326 I-12.438 J-3.781
G1 X-35.939 Y16.857
X-35.945 Y16.716
G3 X-35.945 Y14.376 I12.445 J-1.167
G1 X-35.938 Y14.236
X-35.937 Y11.767
G3 X-32.017 Y5.729 I12.437 J3.783
G2 X-31.5 Y4.596 I-0.983 J-1.133
G1 Y-1.572
X-29.5
G2 X-28 Y-3.072 I0 J-1.5
G1 Y-3.509
X-19
Y-3.072
G2 X-17.5 Y-1.572 I1.5 J0
G1 X-15.5
Y4.596
Z-9 F333.3
G2 X-14.983 Y5.729 I1.5 J0 F1000
G3 X-11.062 Y11.769 I-8.517 J9.821
G1 Y14.233
X-11.055 Y14.374
G3 X-11.055 Y16.726 I-12.445 J1.176
G1 X-11.062 Y16.867
Y19.331
G3 X-35.94 Y19.326 I-12.438 J-3.781
G1 X-35.939 Y16.857
X-35.945 Y16.716
G3 X-35.945 Y14.376 I12.445 J-1.167
G1 X-35.938 Y14.236
X-35.937 Y11.767
G3 X-32.017 Y5.729 I12.437 J3.783
G2 X-31.5 Y4.596 I-0.983 J-1.133
G1 Y-1.572
X-29.5
G2 X-28 Y-3.072 I0 J-1.5
G1 Y-3.509
X-19
Y-3.072
G2 X-17.5 Y-1.572 I1.5 J0
G1 X-15.5
Y4.596
Z-9.5 F333.3
G2 X-14.983 Y5.729 I1.5 J0 F1000
G3 X-11.062 Y11.769 I-8.517 J9.821
G1 Y14.233
X-11.055 Y14.374
G3 X-11.055 Y16.726 I-12.445 J1.176
G1 X-11.062 Y16.867
Y19.331
G3 X-35.94 Y19.326 I-12.438 J-3.781
G1 X-35.939 Y16.857
X-35.945 Y16.716
G3 X-35.945 Y14.376 I12.445 J-1.167
G1 X-35.938 Y14.236
X-35.937 Y11.767
G3 X-32.017 Y5.729 I12.437 J3.783
G2 X-31.5 Y4.596 I-0.983 J-1.133
G1 Y-1.572
X-29.5
G2 X-28 Y-3.072 I0 J-1.5
G1 Y-3.509
X-19
Y-3.072
G2 X-17.5 Y-1.572 I1.5 J0
G1 X-15.5
Y4.596
Z-10 F333.3
G2 X-14.983 Y5.729 I1.5 J0 F1000
G3 X-11.062 Y11.769 I-8.517 J9.821
G1 Y14.233
X-11.055 Y14.374
G3 X-11.055 Y16.726 I-12.445 J1.176
G1 X-11.062 Y16.867
Y19.331
G3 X-35.94 Y19.326 I-12.438 J-3.781
G1 X-35.939 Y16.857
X-35.945 Y16.716
G3 X-35.945 Y14.376 I12.445 J-1.167
G1 X-35.938 Y14.236
X-35.937 Y11.767
G3 X-32.017 Y5.729 I12.437 J3.783
G2 X-31.5 Y4.596 I-0.983 J-1.133
G1 Y-1.572
X-29.5
G2 X-28 Y-3.072 I0 J-1.5
G1 Y-3.509
X-19
Y-3.072
G2 X-17.5 Y-1.572 I1.5 J0
G1 X-15.5
Y4.596
Z-10.5 F333.3
G2 X-14.983 Y5.729 I1.5 J0 F1000
G3 X-11.062 Y11.769 I-8.517 J9.821
G1 Y14.233
X-11.055 Y14.374
G3 X-11.055 Y16.726 I-12.445 J1.176
G1 X-11.062 Y16.867
Y19.331
G3 X-35.94 Y19.326 I-12.438 J-3.781
G1 X-35.939 Y16.857
X-35.945 Y16.716
G3 X-35.945 Y14.376 I12.445 J-1.167
G1 X-35.938 Y14.236
X-35.937 Y11.767
G3 X-32.017 Y5.729 I12.437 J3.783
G2 X-31.5 Y4.596 I-0.983 J-1.133
G1 Y-1.572
X-29.5
G2 X-28 Y-3.072 I0 J-1.5
G1 Y-3.509
X-19
Y-3.072
G2 X-17.5 Y-1.572 I1.5 J0
G1 X-15.5
Y4.596
Z-11 F333.3
G2 X-14.983 Y5.729 I1.5 J0 F1000
G3 X-11.062 Y11.769 I-8.517 J9.821
G1 Y14.233
X-11.055 Y14.374
G3 X-11.055 Y16.726 I-12.445 J1.176
G1 X-11.062 Y16.867
Y19.331
G3 X-35.94 Y19.326 I-12.438 J-3.781
G1 X-35.939 Y16.857
X-35.945 Y16.716
G3 X-35.945 Y14.376 I12.445 J-1.167
G1 X-35.938 Y14.236
X-35.937 Y11.767
G3 X-32.017 Y5.729 I12.437 J3.783
G2 X-31.5 Y4.596 I-0.983 J-1.133
G1 Y-1.572
X-29.5
G2 X-28 Y-3.072 I0 J-1.5
G1 Y-3.509
X-19
Y-3.072
G2 X-17.5 Y-1.572 I1.5 J0
G1 X-15.5
Y4.596
Z-11.5 F333.3
G2 X-14.983 Y5.729 I1.5 J0 F1000
G3 X-11.062 Y11.769 I-8.517 J9.821
G1 Y14.233
X-11.055 Y14.374
G3 X-11.055 Y16.726 I-12.445 J1.176
G1 X-11.062 Y16.867
Y19.331
G3 X-35.94 Y19.326 I-12.438 J-3.781
G1 X-35.939 Y16.857
X-35.945 Y16.716
G3 X-35.945 Y14.376 I12.445 J-1.167
G1 X-35.938 Y14.236
X-35.937 Y11.767
G3 X-32.017 Y5.729 I12.437 J3.783
G2 X-31.5 Y4.596 I-0.983 J-1.133
G1 Y-1.572
X-29.5
G2 X-28 Y-3.072 I0 J-1.5
G1 Y-3.509
X-19
Y-3.072
G2 X-17.5 Y-1.572 I1.5 J0
G1 X-15.5
Y4.596
Z-12 F333.3
G2 X-14.983 Y5.729 I1.5 J0 F1000
G3 X-11.062 Y11.769 I-8.517 J9.821
G1 Y14.233
X-11.055 Y14.374
G3 X-11.055 Y16.726 I-12.445 J1.176
G1 X-11.062 Y16.867
Y19.331
G3 X-35.94 Y19.326 I-12.438 J-3.781
G1 X-35.939 Y16.857
X-35.945 Y16.716
G3 X-35.945 Y14.376 I12.445 J-1.167
G1 X-35.938 Y14.236
X-35.937 Y11.767
G3 X-32.017 Y5.729 I12.437 J3.783
G2 X-31.5 Y4.596 I-0.983 J-1.133
G1 Y-1.572
X-29.5
G2 X-28 Y-3.072 I0 J-1.5
G1 Y-3.509
X-19
Y-3.072
G2 X-17.5 Y-1.572 I1.5 J0
G1 X-15.5
Y4.596
Z-12.5 F333.3
G2 X-14.983 Y5.729 I1.5 J0 F1000
G3 X-11.062 Y11.769 I-8.517 J9.821
G1 Y14.233
X-11.055 Y14.374
G3 X-11.055 Y16.726 I-12.445 J1.176
G1 X-11.062 Y16.867
Y19.331
G3 X-35.94 Y19.326 I-12.438 J-3.781
G1 X-35.939 Y16.857
X-35.945 Y16.716
G3 X-35.945 Y14.376 I12.445 J-1.167
G1 X-35.938 Y14.236
X-35.937 Y11.767
G3 X-32.017 Y5.729 I12.437 J3.783
G2 X-31.5 Y4.596 I-0.983 J-1.133
G1 Y-1.572
X-29.5
G2 X-28 Y-3.072 I0 J-1.5
G1 Y-3.509
X-19
Y-3.072
G2 X-17.5 Y-1.572 I1.5 J0
G1 X-15.5
Y4.596
Z-13 F333.3
G2 X-14.983 Y5.729 I1.5 J0 F1000
G3 X-11.062 Y11.769 I-8.517 J9.821
G1 Y14.233
X-11.055 Y14.374
G3 X-11.055 Y16.726 I-12.445 J1.176
G1 X-11.062 Y16.867
Y19.331
G3 X-35.94 Y19.326 I-12.438 J-3.781
G1 X-35.939 Y16.857
X-35.945 Y16.716
G3 X-35.945 Y14.376 I12.445 J-1.167
G1 X-35.938 Y14.236
X-35.937 Y11.767
G3 X-32.017 Y5.729 I12.437 J3.783
G2 X-31.5 Y4.596 I-0.983 J-1.133
G1 Y-1.572
X-29.5
G2 X-28 Y-3.072 I0 J-1.5
G1 Y-3.509
X-19
Y-3.072
G2 X-17.5 Y-1.572 I1.5 J0
G1 X-15.5
Y4.596
Z-13.5 F333.3
G2 X-14.983 Y5.729 I1.5 J0 F1000
G3 X-11.062 Y11.769 I-8.517 J9.821
G1 Y14.233
X-11.055 Y14.374
G3 X-11.055 Y16.726 I-12.445 J1.176
G1 X-11.062 Y16.867
Y19.331
G3 X-35.94 Y19.326 I-12.438 J-3.781
G1 X-35.939 Y16.857
X-35.945 Y16.716
G3 X-35.945 Y14.376 I12.445 J-1.167
G1 X-35.938 Y14.236
X-35.937 Y11.767
G3 X-32.017 Y5.729 I12.437 J3.783
G2 X-31.5 Y4.596 I-0.983 J-1.133
G1 Y-1.572
X-29.5
G2 X-28 Y-3.072 I0 J-1.5
G1 Y-3.509
X-19
Y-3.072
G2 X-17.5 Y-1.572 I1.5 J0
G1 X-15.5
Y4.596
Z-14 F333.3
G2 X-14.983 Y5.729 I1.5 J0 F1000
G3 X-11.062 Y11.769 I-8.517 J9.821
G1 Y14.233
X-11.055 Y14.374
G3 X-11.055 Y16.726 I-12.445 J1.176
G1 X-11.062 Y16.867
Y19.331
G3 X-35.94 Y19.326 I-12.438 J-3.781
G1 X-35.939 Y16.857
X-35.945 Y16.716
G3 X-35.945 Y14.376 I12.445 J-1.167
G1 X-35.938 Y14.236
X-35.937 Y11.767
G3 X-32.017 Y5.729 I12.437 J3.783
G2 X-31.5 Y4.596 I-0.983 J-1.133
G1 Y-1.572
X-29.5
G2 X-28 Y-3.072 I0 J-1.5
G1 Y-3.509
X-19
Y-3.072
G2 X-17.5 Y-1.572 I1.5 J0
G1 X-15.5
Y4.596
Z-14.5 F333.3
G2 X-14.983 Y5.729 I1.5 J0 F1000
G3 X-11.062 Y11.769 I-8.517 J9.821
G1 Y14.233
X-11.055 Y14.374
G3 X-11.055 Y16.726 I-12.445 J1.176
G1 X-11.062 Y16.867
Y19.331
G3 X-35.94 Y19.326 I-12.438 J-3.781
G1 X-35.939 Y16.857
X-35.945 Y16.716
G3 X-35.945 Y14.376 I12.445 J-1.167
G1 X-35.938 Y14.236
X-35.937 Y11.767
G3 X-32.017 Y5.729 I12.437 J3.783
G2 X-31.5 Y4.596 I-0.983 J-1.133
G1 Y-1.572
X-29.5
G2 X-28 Y-3.072 I0 J-1.5
G1 Y-3.509
X-19
Y-3.072
G2 X-17.5 Y-1.572 I1.5 J0
G1 X-15.5
Y4.596
Z-15 F333.3
G2 X-14.983 Y5.729 I1.5 J0 F1000
G3 X-11.062 Y11.769 I-8.517 J9.821
G1 Y14.233
X-11.055 Y14.374
G3 X-11.055 Y16.726 I-12.445 J1.176
G1 X-11.062 Y16.867
Y19.331
G3 X-35.94 Y19.326 I-12.438 J-3.781
G1 X-35.939 Y16.857
X-35.945 Y16.716
G3 X-35.945 Y14.376 I12.445 J-1.167
G1 X-35.938 Y14.236
X-35.937 Y11.767
G3 X-32.017 Y5.729 I12.437 J3.783
G2 X-31.5 Y4.596 I-0.983 J-1.133
G1 Y-1.572
X-29.5
G2 X-28 Y-3.072 I0 J-1.5
G1 Y-3.509
X-19
Y-3.072
G2 X-17.5 Y-1.572 I1.5 J0
G1 X-15.5
Y4.596
Z-15.5 F333.3
G2 X-14.983 Y5.729 I1.5 J0 F1000
G3 X-11.062 Y11.769 I-8.517 J9.821
G1 Y14.233
X-11.055 Y14.374
G3 X-11.055 Y16.726 I-12.445 J1.176
G1 X-11.062 Y16.867
Y19.331
G3 X-35.94 Y19.326 I-12.438 J-3.781
G1 X-35.939 Y16.857
X-35.945 Y16.716
G3 X-35.945 Y14.376 I12.445 J-1.167
G1 X-35.938 Y14.236
X-35.937 Y11.767
G3 X-32.017 Y5.729 I12.437 J3.783
G2 X-31.5 Y4.596 I-0.983 J-1.133
G1 Y-1.572
X-29.5
G2 X-28 Y-3.072 I0 J-1.5
G1 Y-3.509
X-19
Y-3.072
G2 X-17.5 Y-1.572 I1.5 J0
G1 X-15.5
Y4.596
Z-16 F333.3
G2 X-14.983 Y5.729 I1.5 J0 F1000
G3 X-11.062 Y11.769 I-8.517 J9.821
G1 Y14.233
X-11.055 Y14.374
G3 X-11.055 Y16.726 I-12.445 J1.176
G1 X-11.062 Y16.867
Y19.331
G3 X-35.94 Y19.326 I-12.438 J-3.781
G1 X-35.939 Y16.857
X-35.945 Y16.716
G3 X-35.945 Y14.376 I12.445 J-1.167
G1 X-35.938 Y14.236
X-35.937 Y11.767
G3 X-32.017 Y5.729 I12.437 J3.783
G2 X-31.5 Y4.596 I-0.983 J-1.133
G1 Y-1.572
X-29.5
G2 X-28 Y-3.072 I0 J-1.5
G1 Y-3.509
X-19
Y-3.072
G2 X-17.5 Y-1.572 I1.5 J0
G1 X-15.5
Y4.596
Z-16.5 F333.3
G2 X-14.983 Y5.729 I1.5 J0 F1000
G3 X-11.062 Y11.769 I-8.517 J9.821
G1 Y14.233
X-11.055 Y14.374
G3 X-11.055 Y16.726 I-12.445 J1.176
G1 X-11.062 Y16.867
Y19.331
G3 X-35.94 Y19.326 I-12.438 J-3.781
G1 X-35.939 Y16.857
X-35.945 Y16.716
G3 X-35.945 Y14.376 I12.445 J-1.167
G1 X-35.938 Y14.236
X-35.937 Y11.767
G3 X-32.017 Y5.729 I12.437 J3.783
G2 X-31.5 Y4.596 I-0.983 J-1.133
G1 Y-1.572
X-29.5
G2 X-28 Y-3.072 I0 J-1.5
G1 Y-3.509
X-19
Y-3.072
G2 X-17.5 Y-1.572 I1.5 J0
G1 X-15.5
Y4.596
Z-17 F333.3
G2 X-14.983 Y5.729 I1.5 J0 F1000
G3 X-11.062 Y11.769 I-8.517 J9.821
G1 Y14.233
X-11.055 Y14.374
G3 X-11.055 Y16.726 I-12.445 J1.176
G1 X-11.062 Y16.867
Y19.331
G3 X-35.94 Y19.326 I-12.438 J-3.781
G1 X-35.939 Y16.857
X-35.945 Y16.716
G3 X-35.945 Y14.376 I12.445 J-1.167
G1 X-35.938 Y14.236
X-35.937 Y11.767
G3 X-32.017 Y5.729 I12.437 J3.783
G2 X-31.5 Y4.596 I-0.983 J-1.133
G1 Y-1.572
X-29.5
G2 X-28 Y-3.072 I0 J-1.5
G1 Y-3.509
X-19
Y-3.072
G2 X-17.5 Y-1.572 I1.5 J0
G1 X-15.5
Y4.596
Z-17.3 F333.3
G2 X-14.983 Y5.729 I1.5 J0 F1000
G3 X-11.062 Y11.769 I-8.517 J9.821
G1 Y14.233
X-11.055 Y14.374
G3 X-11.055 Y16.726 I-12.445 J1.176
G1 X-11.062 Y16.867
Y19.331
G3 X-35.94 Y19.326 I-12.438 J-3.781
G1 X-35.939 Y16.857
X-35.945 Y16.716
G3 X-35.945 Y14.376 I12.445 J-1.167
G1 X-35.938 Y14.236
X-35.937 Y11.767
G3 X-32.017 Y5.729 I12.437 J3.783
G2 X-31.5 Y4.596 I-0.983 J-1.133
G1 Y-1.572
X-29.5
G2 X-28 Y-3.072 I0 J-1.5
G1 Y-3.509
X-19
Y-3.072
G2 X-17.5 Y-1.572 I1.5 J0
G1 X-15.5
Y4.596
G0 Z4
X31.5
Z2
G1 Z1.5 F333.3
Z-0.5
G2 X32.017 Y5.729 I1.5 J0 F1000
G3 X35.938 Y11.769 I-8.517 J9.821
G1 Y14.233
X35.945 Y14.374
G3 X35.945 Y16.726 I-12.445 J1.176
G1 X35.938 Y16.867
Y19.331
G3 X11.06 Y19.326 I-12.438 J-3.781
G1 X11.061 Y16.857
X11.055 Y16.716
G3 X11.055 Y14.376 I12.445 J-1.166
G1 X11.062 Y14.236
X11.063 Y11.767
G3 X14.983 Y5.729 I12.437 J3.783
G2 X15.5 Y4.596 I-0.983 J-1.133
G1 Y-1.572
X17.5
G2 X19 Y-3.072 I0 J-1.5
G1 Y-3.509
X28
Y-3.072
G2 X29.5 Y-1.572 I1.5 J0
G1 X31.5
Y4.596
Z-1 F333.3
G2 X32.017 Y5.729 I1.5 J0 F1000
G3 X35.938 Y11.769 I-8.517 J9.821
G1 Y14.233
X35.945 Y14.374
G3 X35.945 Y16.726 I-12.445 J1.176
G1 X35.938 Y16.867
Y19.331
G3 X11.06 Y19.326 I-12.438 J-3.781
G1 X11.061 Y16.857
X11.055 Y16.716
G3 X11.055 Y14.376 I12.445 J-1.166
G1 X11.062 Y14.236
X11.063 Y11.767
G3 X14.983 Y5.729 I12.437 J3.783
G2 X15.5 Y4.596 I-0.983 J-1.133
G1 Y-1.572
X17.5
G2 X19 Y-3.072 I0 J-1.5
G1 Y-3.509
X28
Y-3.072
G2 X29.5 Y-1.572 I1.5 J0
G1 X31.5
Y4.596
Z-1.5 F333.3
G2 X32.017 Y5.729 I1.5 J0 F1000
G3 X35.938 Y11.769 I-8.517 J9.821
G1 Y14.233
X35.945 Y14.374
G3 X35.945 Y16.726 I-12.445 J1.176
G1 X35.938 Y16.867
Y19.331
G3 X11.06 Y19.326 I-12.438 J-3.781
G1 X11.061 Y16.857
X11.055 Y16.716
G3 X11.055 Y14.376 I12.445 J-1.166
G1 X11.062 Y14.236
X11.063 Y11.767
G3 X14.983 Y5.729 I12.437 J3.783
G2 X15.5 Y4.596 I-0.983 J-1.133
G1 Y-1.572
X17.5
G2 X19 Y-3.072 I0 J-1.5
G1 Y-3.509
X28
Y-3.072
G2 X29.5 Y-1.572 I1.5 J0
G1 X31.5
Y4.596
Z-2 F333.3
G2 X32.017 Y5.729 I1.5 J0 F1000
G3 X35.938 Y11.769 I-8.517 J9.821
G1 Y14.233
X35.945 Y14.374
G3 X35.945 Y16.726 I-12.445 J1.176
G1 X35.938 Y16.867
Y19.331
G3 X11.06 Y19.326 I-12.438 J-3.781
G1 X11.061 Y16.857
X11.055 Y16.716
G3 X11.055 Y14.376 I12.445 J-1.166
G1 X11.062 Y14.236
X11.063 Y11.767
G3 X14.983 Y5.729 I12.437 J3.783
G2 X15.5 Y4.596 I-0.983 J-1.133
G1 Y-1.572
X17.5
G2 X19 Y-3.072 I0 J-1.5
G1 Y-3.509
X28
Y-3.072
G2 X29.5 Y-1.572 I1.5 J0
G1 X31.5
Y4.596
Z-2.5 F333.3
G2 X32.017 Y5.729 I1.5 J0 F1000
G3 X35.938 Y11.769 I-8.517 J9.821
G1 Y14.233
X35.945 Y14.374
G3 X35.945 Y16.726 I-12.445 J1.176
G1 X35.938 Y16.867
Y19.331
G3 X11.06 Y19.326 I-12.438 J-3.781
G1 X11.061 Y16.857
X11.055 Y16.716
G3 X11.055 Y14.376 I12.445 J-1.166
G1 X11.062 Y14.236
X11.063 Y11.767
G3 X14.983 Y5.729 I12.437 J3.783
G2 X15.5 Y4.596 I-0.983 J-1.133
G1 Y-1.572
X17.5
G2 X19 Y-3.072 I0 J-1.5
G1 Y-3.509
X28
Y-3.072
G2 X29.5 Y-1.572 I1.5 J0
G1 X31.5
Y4.596
Z-3 F333.3
G2 X32.017 Y5.729 I1.5 J0 F1000
G3 X35.938 Y11.769 I-8.517 J9.821
G1 Y14.233
X35.945 Y14.374
G3 X35.945 Y16.726 I-12.445 J1.176
G1 X35.938 Y16.867
Y19.331
G3 X11.06 Y19.326 I-12.438 J-3.781
G1 X11.061 Y16.857
X11.055 Y16.716
G3 X11.055 Y14.376 I12.445 J-1.166
G1 X11.062 Y14.236
X11.063 Y11.767
G3 X14.983 Y5.729 I12.437 J3.783
G2 X15.5 Y4.596 I-0.983 J-1.133
G1 Y-1.572
X17.5
G2 X19 Y-3.072 I0 J-1.5
G1 Y-3.509
X28
Y-3.072
G2 X29.5 Y-1.572 I1.5 J0
G1 X31.5
Y4.596
Z-3.5 F333.3
G2 X32.017 Y5.729 I1.5 J0 F1000
G3 X35.938 Y11.769 I-8.517 J9.821
G1 Y14.233
X35.945 Y14.374
G3 X35.945 Y16.726 I-12.445 J1.176
G1 X35.938 Y16.867
Y19.331
G3 X11.06 Y19.326 I-12.438 J-3.781
G1 X11.061 Y16.857
X11.055 Y16.716
G3 X11.055 Y14.376 I12.445 J-1.166
G1 X11.062 Y14.236
X11.063 Y11.767
G3 X14.983 Y5.729 I12.437 J3.783
G2 X15.5 Y4.596 I-0.983 J-1.133
G1 Y-1.572
X17.5
G2 X19 Y-3.072 I0 J-1.5
G1 Y-3.509
X28
Y-3.072
G2 X29.5 Y-1.572 I1.5 J0
G1 X31.5
Y4.596
Z-4 F333.3
G2 X32.017 Y5.729 I1.5 J0 F1000
G3 X35.938 Y11.769 I-8.517 J9.821
G1 Y14.233
X35.945 Y14.374
G3 X35.945 Y16.726 I-12.445 J1.176
G1 X35.938 Y16.867
Y19.331
G3 X11.06 Y19.326 I-12.438 J-3.781
G1 X11.061 Y16.857
X11.055 Y16.716
G3 X11.055 Y14.376 I12.445 J-1.166
G1 X11.062 Y14.236
X11.063 Y11.767
G3 X14.983 Y5.729 I12.437 J3.783
G2 X15.5 Y4.596 I-0.983 J-1.133
G1 Y-1.572
X17.5
G2 X19 Y-3.072 I0 J-1.5
G1 Y-3.509
X28
Y-3.072
G2 X29.5 Y-1.572 I1.5 J0
G1 X31.5
Y4.596
Z-4.5 F333.3
G2 X32.017 Y5.729 I1.5 J0 F1000
G3 X35.938 Y11.769 I-8.517 J9.821
G1 Y14.233
X35.945 Y14.374
G3 X35.945 Y16.726 I-12.445 J1.176
G1 X35.938 Y16.867
Y19.331
G3 X11.06 Y19.326 I-12.438 J-3.781
G1 X11.061 Y16.857
X11.055 Y16.716
G3 X11.055 Y14.376 I12.445 J-1.166
G1 X11.062 Y14.236
X11.063 Y11.767
G3 X14.983 Y5.729 I12.437 J3.783
G2 X15.5 Y4.596 I-0.983 J-1.133
G1 Y-1.572
X17.5
G2 X19 Y-3.072 I0 J-1.5
G1 Y-3.509
X28
Y-3.072
G2 X29.5 Y-1.572 I1.5 J0
G1 X31.5
Y4.596
Z-5 F333.3
G2 X32.017 Y5.729 I1.5 J0 F1000
G3 X35.938 Y11.769 I-8.517 J9.821
G1 Y14.233
X35.945 Y14.374
G3 X35.945 Y16.726 I-12.445 J1.176
G1 X35.938 Y16.867
Y19.331
G3 X11.06 Y19.326 I-12.438 J-3.781
G1 X11.061 Y16.857
X11.055 Y16.716
G3 X11.055 Y14.376 I12.445 J-1.166
G1 X11.062 Y14.236
X11.063 Y11.767
G3 X14.983 Y5.729 I12.437 J3.783
G2 X15.5 Y4.596 I-0.983 J-1.133
G1 Y-1.572
X17.5
G2 X19 Y-3.072 I0 J-1.5
G1 Y-3.509
X28
Y-3.072
G2 X29.5 Y-1.572 I1.5 J0
G1 X31.5
Y4.596
Z-5.5 F333.3
G2 X32.017 Y5.729 I1.5 J0 F1000
G3 X35.938 Y11.769 I-8.517 J9.821
G1 Y14.233
X35.945 Y14.374
G3 X35.945 Y16.726 I-12.445 J1.176
G1 X35.938 Y16.867
Y19.331
G3 X11.06 Y19.326 I-12.438 J-3.781
G1 X11.061 Y16.857
X11.055 Y16.716
G3 X11.055 Y14.376 I12.445 J-1.166
G1 X11.062 Y14.236
X11.063 Y11.767
G3 X14.983 Y5.729 I12.437 J3.783
G2 X15.5 Y4.596 I-0.983 J-1.133
G1 Y-1.572
X17.5
G2 X19 Y-3.072 I0 J-1.5
G1 Y-3.509
X28
Y-3.072
G2 X29.5 Y-1.572 I1.5 J0
G1 X31.5
Y4.596
Z-6 F333.3
G2 X32.017 Y5.729 I1.5 J0 F1000
G3 X35.938 Y11.769 I-8.517 J9.821
G1 Y14.233
X35.945 Y14.374
G3 X35.945 Y16.726 I-12.445 J1.176
G1 X35.938 Y16.867
Y19.331
G3 X11.06 Y19.326 I-12.438 J-3.781
G1 X11.061 Y16.857
X11.055 Y16.716
G3 X11.055 Y14.376 I12.445 J-1.166
G1 X11.062 Y14.236
X11.063 Y11.767
G3 X14.983 Y5.729 I12.437 J3.783
G2 X15.5 Y4.596 I-0.983 J-1.133
G1 Y-1.572
X17.5
G2 X19 Y-3.072 I0 J-1.5
G1 Y-3.509
X28
Y-3.072
G2 X29.5 Y-1.572 I1.5 J0
G1 X31.5
Y4.596
Z-6.5 F333.3
G2 X32.017 Y5.729 I1.5 J0 F1000
G3 X35.938 Y11.769 I-8.517 J9.821
G1 Y14.233
X35.945 Y14.374
G3 X35.945 Y16.726 I-12.445 J1.176
G1 X35.938 Y16.867
Y19.331
G3 X11.06 Y19.326 I-12.438 J-3.781
G1 X11.061 Y16.857
X11.055 Y16.716
G3 X11.055 Y14.376 I12.445 J-1.166
G1 X11.062 Y14.236
X11.063 Y11.767
G3 X14.983 Y5.729 I12.437 J3.783
G2 X15.5 Y4.596 I-0.983 J-1.133
G1 Y-1.572
X17.5
G2 X19 Y-3.072 I0 J-1.5
G1 Y-3.509
X28
Y-3.072
G2 X29.5 Y-1.572 I1.5 J0
G1 X31.5
Y4.596
Z-7 F333.3
G2 X32.017 Y5.729 I1.5 J0 F1000
G3 X35.938 Y11.769 I-8.517 J9.821
G1 Y14.233
X35.945 Y14.374
G3 X35.945 Y16.726 I-12.445 J1.176
G1 X35.938 Y16.867
Y19.331
G3 X11.06 Y19.326 I-12.438 J-3.781
G1 X11.061 Y16.857
X11.055 Y16.716
G3 X11.055 Y14.376 I12.445 J-1.166
G1 X11.062 Y14.236
X11.063 Y11.767
G3 X14.983 Y5.729 I12.437 J3.783
G2 X15.5 Y4.596 I-0.983 J-1.133
G1 Y-1.572
X17.5
G2 X19 Y-3.072 I0 J-1.5
G1 Y-3.509
X28
Y-3.072
G2 X29.5 Y-1.572 I1.5 J0
G1 X31.5
Y4.596
Z-7.5 F333.3
G2 X32.017 Y5.729 I1.5 J0 F1000
G3 X35.938 Y11.769 I-8.517 J9.821
G1 Y14.233
X35.945 Y14.374
G3 X35.945 Y16.726 I-12.445 J1.176
G1 X35.938 Y16.867
Y19.331
G3 X11.06 Y19.326 I-12.438 J-3.781
G1 X11.061 Y16.857
X11.055 Y16.716
G3 X11.055 Y14.376 I12.445 J-1.166
G1 X11.062 Y14.236
X11.063 Y11.767
G3 X14.983 Y5.729 I12.437 J3.783
G2 X15.5 Y4.596 I-0.983 J-1.133
G1 Y-1.572
X17.5
G2 X19 Y-3.072 I0 J-1.5
G1 Y-3.509
X28
Y-3.072
G2 X29.5 Y-1.572 I1.5 J0
G1 X31.5
Y4.596
Z-8 F333.3
G2 X32.017 Y5.729 I1.5 J0 F1000
G3 X35.938 Y11.769 I-8.517 J9.821
G1 Y14.233
X35.945 Y14.374
G3 X35.945 Y16.726 I-12.445 J1.176
G1 X35.938 Y16.867
Y19.331
G3 X11.06 Y19.326 I-12.438 J-3.781
G1 X11.061 Y16.857
X11.055 Y16.716
G3 X11.055 Y14.376 I12.445 J-1.166
G1 X11.062 Y14.236
X11.063 Y11.767
G3 X14.983 Y5.729 I12.437 J3.783
G2 X15.5 Y4.596 I-0.983 J-1.133
G1 Y-1.572
X17.5
G2 X19 Y-3.072 I0 J-1.5
G1 Y-3.509
X28
Y-3.072
G2 X29.5 Y-1.572 I1.5 J0
G1 X31.5
Y4.596
Z-8.5 F333.3
G2 X32.017 Y5.729 I1.5 J0 F1000
G3 X35.938 Y11.769 I-8.517 J9.821
G1 Y14.233
X35.945 Y14.374
G3 X35.945 Y16.726 I-12.445 J1.176
G1 X35.938 Y16.867
Y19.331
G3 X11.06 Y19.326 I-12.438 J-3.781
G1 X11.061 Y16.857
X11.055 Y16.716
G3 X11.055 Y14.376 I12.445 J-1.166
G1 X11.062 Y14.236
X11.063 Y11.767
G3 X14.983 Y5.729 I12.437 J3.783
G2 X15.5 Y4.596 I-0.983 J-1.133
G1 Y-1.572
X17.5
G2 X19 Y-3.072 I0 J-1.5
G1 Y-3.509
X28
Y-3.072
G2 X29.5 Y-1.572 I1.5 J0
G1 X31.5
Y4.596
Z-9 F333.3
G2 X32.017 Y5.729 I1.5 J0 F1000
G3 X35.938 Y11.769 I-8.517 J9.821
G1 Y14.233
X35.945 Y14.374
G3 X35.945 Y16.726 I-12.445 J1.176
G1 X35.938 Y16.867
Y19.331
G3 X11.06 Y19.326 I-12.438 J-3.781
G1 X11.061 Y16.857
X11.055 Y16.716
G3 X11.055 Y14.376 I12.445 J-1.166
G1 X11.062 Y14.236
X11.063 Y11.767
G3 X14.983 Y5.729 I12.437 J3.783
G2 X15.5 Y4.596 I-0.983 J-1.133
G1 Y-1.572
X17.5
G2 X19 Y-3.072 I0 J-1.5
G1 Y-3.509
X28
Y-3.072
G2 X29.5 Y-1.572 I1.5 J0
G1 X31.5
Y4.596
Z-9.5 F333.3
G2 X32.017 Y5.729 I1.5 J0 F1000
G3 X35.938 Y11.769 I-8.517 J9.821
G1 Y14.233
X35.945 Y14.374
G3 X35.945 Y16.726 I-12.445 J1.176
G1 X35.938 Y16.867
Y19.331
G3 X11.06 Y19.326 I-12.438 J-3.781
G1 X11.061 Y16.857
X11.055 Y16.716
G3 X11.055 Y14.376 I12.445 J-1.166
G1 X11.062 Y14.236
X11.063 Y11.767
G3 X14.983 Y5.729 I12.437 J3.783
G2 X15.5 Y4.596 I-0.983 J-1.133
G1 Y-1.572
X17.5
G2 X19 Y-3.072 I0 J-1.5
G1 Y-3.509
X28
Y-3.072
G2 X29.5 Y-1.572 I1.5 J0
G1 X31.5
Y4.596
Z-10 F333.3
G2 X32.017 Y5.729 I1.5 J0 F1000
G3 X35.938 Y11.769 I-8.517 J9.821
G1 Y14.233
X35.945 Y14.374
G3 X35.945 Y16.726 I-12.445 J1.176
G1 X35.938 Y16.867
Y19.331
G3 X11.06 Y19.326 I-12.438 J-3.781
G1 X11.061 Y16.857
X11.055 Y16.716
G3 X11.055 Y14.376 I12.445 J-1.166
G1 X11.062 Y14.236
X11.063 Y11.767
G3 X14.983 Y5.729 I12.437 J3.783
G2 X15.5 Y4.596 I-0.983 J-1.133
G1 Y-1.572
X17.5
G2 X19 Y-3.072 I0 J-1.5
G1 Y-3.509
X28
Y-3.072
G2 X29.5 Y-1.572 I1.5 J0
G1 X31.5
Y4.596
Z-10.5 F333.3
G2 X32.017 Y5.729 I1.5 J0 F1000
G3 X35.938 Y11.769 I-8.517 J9.821
G1 Y14.233
X35.945 Y14.374
G3 X35.945 Y16.726 I-12.445 J1.176
G1 X35.938 Y16.867
Y19.331
G3 X11.06 Y19.326 I-12.438 J-3.781
G1 X11.061 Y16.857
X11.055 Y16.716
G3 X11.055 Y14.376 I12.445 J-1.166
G1 X11.062 Y14.236
X11.063 Y11.767
G3 X14.983 Y5.729 I12.437 J3.783
G2 X15.5 Y4.596 I-0.983 J-1.133
G1 Y-1.572
X17.5
G2 X19 Y-3.072 I0 J-1.5
G1 Y-3.509
X28
Y-3.072
G2 X29.5 Y-1.572 I1.5 J0
G1 X31.5
Y4.596
Z-11 F333.3
G2 X32.017 Y5.729 I1.5 J0 F1000
G3 X35.938 Y11.769 I-8.517 J9.821
G1 Y14.233
X35.945 Y14.374
G3 X35.945 Y16.726 I-12.445 J1.176
G1 X35.938 Y16.867
Y19.331
G3 X11.06 Y19.326 I-12.438 J-3.781
G1 X11.061 Y16.857
X11.055 Y16.716
G3 X11.055 Y14.376 I12.445 J-1.166
G1 X11.062 Y14.236
X11.063 Y11.767
G3 X14.983 Y5.729 I12.437 J3.783
G2 X15.5 Y4.596 I-0.983 J-1.133
G1 Y-1.572
X17.5
G2 X19 Y-3.072 I0 J-1.5
G1 Y-3.509
X28
Y-3.072
G2 X29.5 Y-1.572 I1.5 J0
G1 X31.5
Y4.596
Z-11.5 F333.3
G2 X32.017 Y5.729 I1.5 J0 F1000
G3 X35.938 Y11.769 I-8.517 J9.821
G1 Y14.233
X35.945 Y14.374
G3 X35.945 Y16.726 I-12.445 J1.176
G1 X35.938 Y16.867
Y19.331
G3 X11.06 Y19.326 I-12.438 J-3.781
G1 X11.061 Y16.857
X11.055 Y16.716
G3 X11.055 Y14.376 I12.445 J-1.166
G1 X11.062 Y14.236
X11.063 Y11.767
G3 X14.983 Y5.729 I12.437 J3.783
G2 X15.5 Y4.596 I-0.983 J-1.133
G1 Y-1.572
X17.5
G2 X19 Y-3.072 I0 J-1.5
G1 Y-3.509
X28
Y-3.072
G2 X29.5 Y-1.572 I1.5 J0
G1 X31.5
Y4.596
Z-12 F333.3
G2 X32.017 Y5.729 I1.5 J0 F1000
G3 X35.938 Y11.769 I-8.517 J9.821
G1 Y14.233
X35.945 Y14.374
G3 X35.945 Y16.726 I-12.445 J1.176
G1 X35.938 Y16.867
Y19.331
G3 X11.06 Y19.326 I-12.438 J-3.781
G1 X11.061 Y16.857
X11.055 Y16.716
G3 X11.055 Y14.376 I12.445 J-1.166
G1 X11.062 Y14.236
X11.063 Y11.767
G3 X14.983 Y5.729 I12.437 J3.783
G2 X15.5 Y4.596 I-0.983 J-1.133
G1 Y-1.572
X17.5
G2 X19 Y-3.072 I0 J-1.5
G1 Y-3.509
X28
Y-3.072
G2 X29.5 Y-1.572 I1.5 J0
G1 X31.5
Y4.596
Z-12.5 F333.3
G2 X32.017 Y5.729 I1.5 J0 F1000
G3 X35.938 Y11.769 I-8.517 J9.821
G1 Y14.233
X35.945 Y14.374
G3 X35.945 Y16.726 I-12.445 J1.176
G1 X35.938 Y16.867
Y19.331
G3 X11.06 Y19.326 I-12.438 J-3.781
G1 X11.061 Y16.857
X11.055 Y16.716
G3 X11.055 Y14.376 I12.445 J-1.166
G1 X11.062 Y14.236
X11.063 Y11.767
G3 X14.983 Y5.729 I12.437 J3.783
G2 X15.5 Y4.596 I-0.983 J-1.133
G1 Y-1.572
X17.5
G2 X19 Y-3.072 I0 J-1.5
G1 Y-3.509
X28
Y-3.072
G2 X29.5 Y-1.572 I1.5 J0
G1 X31.5
Y4.596
Z-13 F333.3
G2 X32.017 Y5.729 I1.5 J0 F1000
G3 X35.938 Y11.769 I-8.517 J9.821
G1 Y14.233
X35.945 Y14.374
G3 X35.945 Y16.726 I-12.445 J1.176
G1 X35.938 Y16.867
Y19.331
G3 X11.06 Y19.326 I-12.438 J-3.781
G1 X11.061 Y16.857
X11.055 Y16.716
G3 X11.055 Y14.376 I12.445 J-1.166
G1 X11.062 Y14.236
X11.063 Y11.767
G3 X14.983 Y5.729 I12.437 J3.783
G2 X15.5 Y4.596 I-0.983 J-1.133
G1 Y-1.572
X17.5
G2 X19 Y-3.072 I0 J-1.5
G1 Y-3.509
X28
Y-3.072
G2 X29.5 Y-1.572 I1.5 J0
G1 X31.5
Y4.596
Z-13.5 F333.3
G2 X32.017 Y5.729 I1.5 J0 F1000
G3 X35.938 Y11.769 I-8.517 J9.821
G1 Y14.233
X35.945 Y14.374
G3 X35.945 Y16.726 I-12.445 J1.176
G1 X35.938 Y16.867
Y19.331
G3 X11.06 Y19.326 I-12.438 J-3.781
G1 X11.061 Y16.857
X11.055 Y16.716
G3 X11.055 Y14.376 I12.445 J-1.166
G1 X11.062 Y14.236
X11.063 Y11.767
G3 X14.983 Y5.729 I12.437 J3.783
G2 X15.5 Y4.596 I-0.983 J-1.133
G1 Y-1.572
X17.5
G2 X19 Y-3.072 I0 J-1.5
G1 Y-3.509
X28
Y-3.072
G2 X29.5 Y-1.572 I1.5 J0
G1 X31.5
Y4.596
Z-14 F333.3
G2 X32.017 Y5.729 I1.5 J0 F1000
G3 X35.938 Y11.769 I-8.517 J9.821
G1 Y14.233
X35.945 Y14.374
G3 X35.945 Y16.726 I-12.445 J1.176
G1 X35.938 Y16.867
Y19.331
G3 X11.06 Y19.326 I-12.438 J-3.781
G1 X11.061 Y16.857
X11.055 Y16.716
G3 X11.055 Y14.376 I12.445 J-1.166
G1 X11.062 Y14.236
X11.063 Y11.767
G3 X14.983 Y5.729 I12.437 J3.783
G2 X15.5 Y4.596 I-0.983 J-1.133
G1 Y-1.572
X17.5
G2 X19 Y-3.072 I0 J-1.5
G1 Y-3.509
X28
Y-3.072
G2 X29.5 Y-1.572 I1.5 J0
G1 X31.5
Y4.596
Z-14.5 F333.3
G2 X32.017 Y5.729 I1.5 J0 F1000
G3 X35.938 Y11.769 I-8.517 J9.821
G1 Y14.233
X35.945 Y14.374
G3 X35.945 Y16.726 I-12.445 J1.176
G1 X35.938 Y16.867
Y19.331
G3 X11.06 Y19.326 I-12.438 J-3.781
G1 X11.061 Y16.857
X11.055 Y16.716
G3 X11.055 Y14.376 I12.445 J-1.166
G1 X11.062 Y14.236
X11.063 Y11.767
G3 X14.983 Y5.729 I12.437 J3.783
G2 X15.5 Y4.596 I-0.983 J-1.133
G1 Y-1.572
X17.5
G2 X19 Y-3.072 I0 J-1.5
G1 Y-3.509
X28
Y-3.072
G2 X29.5 Y-1.572 I1.5 J0
G1 X31.5
Y4.596
Z-15 F333.3
G2 X32.017 Y5.729 I1.5 J0 F1000
G3 X35.938 Y11.769 I-8.517 J9.821
G1 Y14.233
X35.945 Y14.374
G3 X35.945 Y16.726 I-12.445 J1.176
G1 X35.938 Y16.867
Y19.331
G3 X11.06 Y19.326 I-12.438 J-3.781
G1 X11.061 Y16.857
X11.055 Y16.716
G3 X11.055 Y14.376 I12.445 J-1.166
G1 X11.062 Y14.236
X11.063 Y11.767
G3 X14.983 Y5.729 I12.437 J3.783
G2 X15.5 Y4.596 I-0.983 J-1.133
G1 Y-1.572
X17.5
G2 X19 Y-3.072 I0 J-1.5
G1 Y-3.509
X28
Y-3.072
G2 X29.5 Y-1.572 I1.5 J0
G1 X31.5
Y4.596
Z-15.5 F333.3
G2 X32.017 Y5.729 I1.5 J0 F1000
G3 X35.938 Y11.769 I-8.517 J9.821
G1 Y14.233
X35.945 Y14.374
G3 X35.945 Y16.726 I-12.445 J1.176
G1 X35.938 Y16.867
Y19.331
G3 X11.06 Y19.326 I-12.438 J-3.781
G1 X11.061 Y16.857
X11.055 Y16.716
G3 X11.055 Y14.376 I12.445 J-1.166
G1 X11.062 Y14.236
X11.063 Y11.767
G3 X14.983 Y5.729 I12.437 J3.783
G2 X15.5 Y4.596 I-0.983 J-1.133
G1 Y-1.572
X17.5
G2 X19 Y-3.072 I0 J-1.5
G1 Y-3.509
X28
Y-3.072
G2 X29.5 Y-1.572 I1.5 J0
G1 X31.5
Y4.596
Z-16 F333.3
G2 X32.017 Y5.729 I1.5 J0 F1000
G3 X35.938 Y11.769 I-8.517 J9.821
G1 Y14.233
X35.945 Y14.374
G3 X35.945 Y16.726 I-12.445 J1.176
G1 X35.938 Y16.867
Y19.331
G3 X11.06 Y19.326 I-12.438 J-3.781
G1 X11.061 Y16.857
X11.055 Y16.716
G3 X11.055 Y14.376 I12.445 J-1.166
G1 X11.062 Y14.236
X11.063 Y11.767
G3 X14.983 Y5.729 I12.437 J3.783
G2 X15.5 Y4.596 I-0.983 J-1.133
G1 Y-1.572
X17.5
G2 X19 Y-3.072 I0 J-1.5
G1 Y-3.509
X28
Y-3.072
G2 X29.5 Y-1.572 I1.5 J0
G1 X31.5
Y4.596
Z-16.5 F333.3
G2 X32.017 Y5.729 I1.5 J0 F1000
G3 X35.938 Y11.769 I-8.517 J9.821
G1 Y14.233
X35.945 Y14.374
G3 X35.945 Y16.726 I-12.445 J1.176
G1 X35.938 Y16.867
Y19.331
G3 X11.06 Y19.326 I-12.438 J-3.781
G1 X11.061 Y16.857
X11.055 Y16.716
G3 X11.055 Y14.376 I12.445 J-1.166
G1 X11.062 Y14.236
X11.063 Y11.767
G3 X14.983 Y5.729 I12.437 J3.783
G2 X15.5 Y4.596 I-0.983 J-1.133
G1 Y-1.572
X17.5
G2 X19 Y-3.072 I0 J-1.5
G1 Y-3.509
X28
Y-3.072
G2 X29.5 Y-1.572 I1.5 J0
G1 X31.5
Y4.596
Z-17 F333.3
G2 X32.017 Y5.729 I1.5 J0 F1000
G3 X35.938 Y11.769 I-8.517 J9.821
G1 Y14.233
X35.945 Y14.374
G3 X35.945 Y16.726 I-12.445 J1.176
G1 X35.938 Y16.867
Y19.331
G3 X11.06 Y19.326 I-12.438 J-3.781
G1 X11.061 Y16.857
X11.055 Y16.716
G3 X11.055 Y14.376 I12.445 J-1.166
G1 X11.062 Y14.236
X11.063 Y11.767
G3 X14.983 Y5.729 I12.437 J3.783
G2 X15.5 Y4.596 I-0.983 J-1.133
G1 Y-1.572
X17.5
G2 X19 Y-3.072 I0 J-1.5
G1 Y-3.509
X28
Y-3.072
G2 X29.5 Y-1.572 I1.5 J0
G1 X31.5
Y4.596
Z-17.3 F333.3
G2 X32.017 Y5.729 I1.5 J0 F1000
G3 X35.938 Y11.769 I-8.517 J9.821
G1 Y14.233
X35.945 Y14.374
G3 X35.945 Y16.726 I-12.445 J1.176
G1 X35.938 Y16.867
Y19.331
G3 X11.06 Y19.326 I-12.438 J-3.781
G1 X11.061 Y16.857
X11.055 Y16.716
G3 X11.055 Y14.376 I12.445 J-1.166
G1 X11.062 Y14.236
X11.063 Y11.767
G3 X14.983 Y5.729 I12.437 J3.783
G2 X15.5 Y4.596 I-0.983 J-1.133
G1 Y-1.572
X17.5
G2 X19 Y-3.072 I0 J-1.5
G1 Y-3.509
X28
Y-3.072
G2 X29.5 Y-1.572 I1.5 J0
G1 X31.5
Y4.596
G0 Z6
M9
M5
M30
