(1001)
(Machine)
(  vendor: Autodesk)
(  description: Generic 3-axis)
(T1  D=3 CR=0 - ZMIN=-13.3 - flat end mill)
G90 G94
G17
G21

(2D Pocket9)
T1
S10000 M3
G54
M8
G0 X-68.467 Y-0.037
Z6
Z2
G1 Z1.8 F1000
G3 X-65.618 Y0.037 Z1.644 I1.425 J0.037 F333.3
X-68.467 Y-0.037 Z1.487 I-1.425 J-0.037
X-65.618 Y0.037 Z1.331 I1.425 J0.037
X-68.467 Y-0.037 Z1.175 I-1.425 J-0.037
X-65.618 Y0.037 Z1.018 I1.425 J0.037
X-68.467 Y-0.037 Z0.862 I-1.425 J-0.037
X-65.618 Y0.037 Z0.706 I1.425 J0.037
X-68.467 Y-0.037 Z0.549 I-1.425 J-0.037
X-65.618 Y0.037 Z0.393 I1.425 J0.037
X-68.467 Y-0.037 Z0.237 I-1.425 J-0.037
X-65.618 Y0.037 Z0.08 I1.425 J0.037
X-68.467 Y-0.037 Z-0.076 I-1.425 J-0.037
X-65.618 Y0.037 Z-0.232 I1.425 J0.037
X-68.467 Y-0.037 Z-0.389 I-1.425 J-0.037
X-65.618 Y0.037 Z-0.545 I1.425 J0.037
X-68.468 Y0 Z-0.7 I-1.425 J-0.037
X-66.344 Y0 I1.062 J0
G2 X-56.567 Y34.751 I66.692 J-0.012 F1000
X65.589 Y-10.277 I56.574 J-34.732
X-40.019 Y-52.972 I-65.621 J10.357
X-58.795 Y-30.833 I40.194 J53.12
X-66.344 Y0 I59.143 J30.822
X-65.792 Y0.824 I0.891 J0
G3 X-65.229 Y1.64 I-0.345 J0.84
G2 X0 Y65.25 I65.229 J-1.64
G1 X0.18
G2 X65.25 Y0 I-0.18 J-65.25
X-0.82 Y-65.245 I-65.25 J0
X-65.229 Y1.64 I0.82 J65.245
G3 X-65.43 Y1.845 I-0.2 J0.005
G1 X-67.137 Y1.841
G3 X-67.336 Y1.647 I0 J-0.2
X-67.301 Y-2.857 I67.384 J-1.72
X-59.648 Y-31.3 I67.53 J2.918
X-3.236 Y-67.283 I59.835 J31.594
X29.248 Y60.68 I3.271 J67.275
X-67.336 Y1.647 I-29.2 J-60.753
G2 X-67.923 Y0.807 I-0.928 J0.024
G3 X-68.5 Y-0.04 I0.334 J-0.847
G1 Y-0.18
G3 X0 Y-68.5 I68.5 J0.18
X0 Y68.5 I0 J68.5
X-68.5 Y0 I0 J-68.5
G1 Y-0.04
G3 X-68.294 Y-0.266 I0.227 J0
G1 X-67.327 Y-0.359
X-67.279 Y-0.369
X-67.234 Y-0.39
X-67.194 Y-0.42
X-67.161 Y-0.457
X-67.138 Y-0.501
X-66.827 Y-1.279
G3 X-66.6 Y-1.422 I0.211 J0.084
X-66.797 Y1.421 Z-0.856 I-0.098 J1.422 F333.3
X-66.6 Y-1.422 Z-1.013 I0.098 J-1.422
X-66.797 Y1.421 Z-1.169 I-0.098 J1.422
X-66.6 Y-1.422 Z-1.325 I0.098 J-1.422
X-65.273 Y-0.002 Z-1.4 I-0.098 J1.422
X-67.358 Y0.001 I-1.042 J0.001
X-67.301 Y-2.857 I67.406 J-0.073 F1000
X-59.648 Y-31.3 I67.53 J2.918
X-3.236 Y-67.283 I59.835 J31.594
X29.248 Y60.68 I3.271 J67.275
X-67.358 Y0.001 I-29.2 J-60.753
G2 X-67.924 Y-0.852 I-0.926 J0.001
G3 X-68.479 Y-1.711 I0.353 J-0.837
X0 Y-68.5 I68.479 J1.711
X0 Y68.5 I0 J68.5
X-68.5 Y0 I0 J-68.5
G1 Y-0.18
G3 X-68.479 Y-1.711 I68.5 J0.18
X-68.27 Y-1.906 I0.2 J0.005
G1 X-66.515 Y-1.826
G3 X-66.324 Y-1.621 I-0.009 J0.2
G2 X-56.567 Y34.751 I66.673 J1.61
X65.589 Y-10.277 I56.574 J-34.732
X-40.019 Y-52.972 I-65.621 J10.357
X-58.795 Y-30.833 I40.194 J53.12
X-66.324 Y-1.621 I59.143 J30.822
X-65.792 Y-0.784 I0.891 J0.022
G3 X-65.25 Y0.046 I-0.366 J0.831
G2 X0 Y65.25 I65.25 J-0.046
G1 X0.18
G2 X65.25 Y0 I-0.18 J-65.25
X-0.023 Y-65.25 I-65.25 J0
X-65.25 Y0.046 I0.023 J65.25
G3 X-65.603 Y0.296 I-0.265 J0
G1 X-66.819 Y-0.13
X-68.091 Y-0.303
G3 X-68.287 Y-0.694 I0.035 J-0.262
X-65.798 Y0.694 Z-1.556 I1.244 J0.694 F333.3
X-68.287 Y-0.694 Z-1.713 I-1.244 J-0.694
X-65.798 Y0.694 Z-1.869 I1.244 J0.694
X-68.468 Y0 Z-2 I-1.244 J-0.694
X-66.344 Y0 I1.062 J0
G2 X-56.567 Y34.751 I66.692 J-0.012 F1000
X65.589 Y-10.277 I56.574 J-34.732
X-40.019 Y-52.972 I-65.621 J10.357
X-58.795 Y-30.833 I40.194 J53.12
X-66.344 Y0 I59.143 J30.822
X-65.792 Y0.824 I0.891 J0
G3 X-65.229 Y1.64 I-0.345 J0.84
G2 X0 Y65.25 I65.229 J-1.64
G1 X0.18
G2 X65.25 Y0 I-0.18 J-65.25
X-0.82 Y-65.245 I-65.25 J0
X-65.229 Y1.64 I0.82 J65.245
G3 X-65.43 Y1.845 I-0.2 J0.005
G1 X-67.137 Y1.841
G3 X-67.336 Y1.647 I0 J-0.2
X-67.301 Y-2.857 I67.384 J-1.72
X-59.648 Y-31.3 I67.53 J2.918
X-3.236 Y-67.283 I59.835 J31.594
X29.248 Y60.68 I3.271 J67.275
X-67.336 Y1.647 I-29.2 J-60.753
G2 X-67.923 Y0.807 I-0.928 J0.024
G3 X-68.5 Y-0.04 I0.334 J-0.847
G1 Y-0.18
G3 X0 Y-68.5 I68.5 J0.18
X0 Y68.5 I0 J68.5
X-68.5 Y0 I0 J-68.5
G1 Y-0.04
G0 Z6
X18.894 Y-28.931
Z2
G1 Z1.8 F1000
G3 X17.12 Y-31.161 Z1.644 I-0.887 J-1.115 F333.3
X18.894 Y-28.931 Z1.487 I0.887 J1.115
X17.12 Y-31.161 Z1.331 I-0.887 J-1.115
X18.894 Y-28.931 Z1.175 I0.887 J1.115
X17.12 Y-31.161 Z1.018 I-0.887 J-1.115
X18.894 Y-28.931 Z0.862 I0.887 J1.115
X17.12 Y-31.161 Z0.706 I-0.887 J-1.115
X18.894 Y-28.931 Z0.549 I0.887 J1.115
X17.12 Y-31.161 Z0.393 I-0.887 J-1.115
X18.894 Y-28.931 Z0.237 I0.887 J1.115
X17.12 Y-31.161 Z0.08 I-0.887 J-1.115
X18.894 Y-28.931 Z-0.076 I0.887 J1.115
X17.12 Y-31.161 Z-0.232 I-0.887 J-1.115
X18.894 Y-28.931 Z-0.389 I0.887 J1.115
X17.12 Y-31.161 Z-0.545 I-0.887 J-1.115
X18.923 Y-28.954 Z-0.7 I0.887 J1.115
X17.905 Y-28.893 I-0.551 J-0.656 F1000
X17.562 Y-29.853 I0.459 J-0.706
G1 X17.588 Y-29.948
X17.614 Y-30.042
G3 X18.079 Y-30.433 I0.53 J0.16
G1 X18.177 Y-30.442
X18.275 Y-30.451
G3 X19.161 Y-29.946 I0.111 J0.834
X18.923 Y-28.954 I-0.789 J0.335
G2 X18.303 Y-27.461 I1.128 J1.344
G3 X16.979 Y-26.532 I-0.932 J0.08
X15.179 Y-30.609 I1.411 J-3.058
G2 X15.419 Y-31.597 I-6.93 J-2.199
X15.562 Y-32.604 I-19.378 J-3.273
G3 X15.913 Y-32.898 I0.331 J0.038
G2 X16.929 Y-32.865 I1.157 J-19.618
X17.944 Y-32.929 I0.052 J-7.271
G3 X18.836 Y-26.252 I0.446 J3.338
X16.979 Y-26.532 I-0.446 J-3.338
G2 X15.19 Y-26.36 I-0.747 J1.619
G3 X13.434 Y-26.739 I-0.707 J-0.982
X12.94 Y-31.32 I4.956 J-2.851
G2 X13.3 Y-33.504 I-7.337 J-2.329
X13.066 Y-35.705 I-8.911 J-0.167
G3 X13.292 Y-35.895 I0.161 J-0.038
G2 X15.419 Y-35.283 I3.51 J-8.192
X17.633 Y-35.257 I1.194 J-7.605
G3 X19.147 Y-23.923 I0.757 J5.667
X13.434 Y-26.739 I-0.757 J-5.667
G2 X12.072 Y-27.477 I-1.281 J0.737
G3 X10.87 Y-28.455 I-0.063 J-1.15
X11.141 Y-31.891 I7.52 J-1.135
G2 X11.393 Y-34.391 I-5.83 J-1.85
X10.658 Y-36.795 I-6.613 J0.707
G3 X10.605 Y-37.571 I0.846 J-0.448
G2 X10.801 Y-38.211 I-5.963 J-2.18
G3 X11.218 Y-38.56 I0.449 J0.112
G2 X11.881 Y-38.643 I-0.448 J-6.334
G3 X12.637 Y-38.456 I0.168 J0.943
G2 X14.877 Y-37.315 I4.084 J-5.249
X17.383 Y-37.129 I1.697 J-5.876
G3 X19.397 Y-22.052 I1.007 J7.538
X10.87 Y-28.455 I-1.007 J-7.538
G2 X9.576 Y-29.983 I-1.884 J0.284
G3 X8.581 Y-31.718 I0.463 J-1.419
X8.823 Y-32.626 I9.809 J2.128
G2 X8.92 Y-34.588 I-3.674 J-1.166
X8.06 Y-36.355 I-3.961 J0.836
X7.871 Y-36.566 I-3.477 J2.918
G3 X7.682 Y-36.777 I3.288 J-3.129
X7.679 Y-37.277 I0.301 J-0.252
G2 X8.55 Y-40.018 I-3.037 J-2.474
G3 X8.833 Y-40.684 I0.796 J-0.054
G1 X9.124 Y-40.928
G3 X9.829 Y-41.091 I0.513 J0.612
G2 X12.679 Y-41.473 I0.941 J-3.803
G3 X13.171 Y-41.383 I0.191 J0.343
X13.346 Y-41.16 I-3.478 J2.918
G2 X13.522 Y-40.937 I3.653 J-2.695
X15.112 Y-39.784 I3.101 J-2.602
X17.061 Y-39.539 I1.439 J-3.576
G3 X19.719 Y-19.641 I1.329 J9.949
X8.581 Y-31.718 I-1.329 J-9.949
G2 X7.508 Y-33.995 I-2.021 J-0.439
G3 X5.542 Y-35.567 I2.931 J-5.681
G1 X4.074 Y-37.317
X5.606 Y-38.603
G2 X5.791 Y-40.716 I-0.964 J-1.149
G1 X5.51 Y-41.051
X9.34 Y-44.265
X9.621 Y-43.93
G2 X11.734 Y-43.745 I1.149 J-0.964
G1 X13.266 Y-45.031
X15.387 Y-42.503
G2 X16.735 Y-41.98 I1.149 J-0.964
G3 X20.045 Y-17.2 I1.655 J12.39
X6.475 Y-33.371 I-1.655 J-12.39
G2 X6.195 Y-34.789 I-1.43 J-0.454
G1 X5.542 Y-35.567
G3 X5.765 Y-35.883 I0.153 J-0.129
G1 X19.068 Y-30.953
X19.103 Y-30.936
X19.134 Y-30.912
X19.16 Y-30.883
G3 X16.854 Y-29.209 Z-0.856 I-1.153 J0.837 F333.3
X19.16 Y-30.883 Z-1.013 I1.153 J-0.837
X16.854 Y-29.209 Z-1.169 I-1.153 J0.837
X19.16 Y-30.883 Z-1.325 I1.153 J-0.837
X18.923 Y-28.954 Z-1.4 I-1.153 J0.837
X17.905 Y-28.893 I-0.551 J-0.656 F1000
X17.562 Y-29.853 I0.459 J-0.706
G1 X17.588 Y-29.948
X17.614 Y-30.042
G3 X18.079 Y-30.433 I0.53 J0.16
G1 X18.177 Y-30.442
X18.275 Y-30.451
G3 X19.161 Y-29.946 I0.111 J0.834
X18.923 Y-28.954 I-0.789 J0.335
G2 X18.303 Y-27.461 I1.128 J1.344
G3 X16.979 Y-26.532 I-0.932 J0.08
X15.179 Y-30.609 I1.411 J-3.058
G2 X15.419 Y-31.597 I-6.93 J-2.199
X15.562 Y-32.604 I-19.378 J-3.273
G3 X15.913 Y-32.898 I0.331 J0.038
G2 X16.929 Y-32.865 I1.157 J-19.618
X17.944 Y-32.929 I0.052 J-7.271
G3 X18.836 Y-26.252 I0.446 J3.338
X16.979 Y-26.532 I-0.446 J-3.338
G2 X15.19 Y-26.36 I-0.747 J1.619
G3 X13.434 Y-26.739 I-0.707 J-0.982
X12.94 Y-31.32 I4.956 J-2.851
G2 X13.3 Y-33.504 I-7.337 J-2.329
X13.066 Y-35.705 I-8.911 J-0.167
G3 X13.292 Y-35.895 I0.161 J-0.038
G2 X15.419 Y-35.283 I3.51 J-8.192
X17.633 Y-35.257 I1.194 J-7.605
G3 X19.147 Y-23.923 I0.757 J5.667
X13.434 Y-26.739 I-0.757 J-5.667
G2 X12.072 Y-27.477 I-1.281 J0.737
G3 X10.87 Y-28.455 I-0.063 J-1.15
X11.141 Y-31.891 I7.52 J-1.135
G2 X11.393 Y-34.391 I-5.83 J-1.85
X10.658 Y-36.795 I-6.613 J0.707
G3 X10.605 Y-37.571 I0.846 J-0.448
G2 X10.801 Y-38.211 I-5.963 J-2.18
G3 X11.218 Y-38.56 I0.449 J0.112
G2 X11.881 Y-38.643 I-0.448 J-6.334
G3 X12.637 Y-38.456 I0.168 J0.943
G2 X14.877 Y-37.315 I4.084 J-5.249
X17.383 Y-37.129 I1.697 J-5.876
G3 X19.397 Y-22.052 I1.007 J7.538
X10.87 Y-28.455 I-1.007 J-7.538
G2 X9.576 Y-29.983 I-1.884 J0.284
G3 X8.581 Y-31.718 I0.463 J-1.419
X8.823 Y-32.626 I9.809 J2.128
G2 X8.92 Y-34.588 I-3.674 J-1.166
X8.06 Y-36.355 I-3.961 J0.836
X7.871 Y-36.566 I-3.477 J2.918
G3 X7.682 Y-36.777 I3.288 J-3.129
X7.679 Y-37.277 I0.301 J-0.252
G2 X8.55 Y-40.018 I-3.037 J-2.474
G3 X8.833 Y-40.684 I0.796 J-0.054
G1 X9.124 Y-40.928
G3 X9.829 Y-41.091 I0.513 J0.612
G2 X12.679 Y-41.473 I0.941 J-3.803
G3 X13.171 Y-41.383 I0.191 J0.343
X13.346 Y-41.16 I-3.478 J2.918
G2 X13.522 Y-40.937 I3.653 J-2.695
X15.112 Y-39.784 I3.101 J-2.602
X17.061 Y-39.539 I1.439 J-3.576
G3 X19.719 Y-19.641 I1.329 J9.949
X8.581 Y-31.718 I-1.329 J-9.949
G2 X7.508 Y-33.995 I-2.021 J-0.439
G3 X5.542 Y-35.567 I2.931 J-5.681
G1 X4.074 Y-37.317
X5.606 Y-38.603
G2 X5.791 Y-40.716 I-0.964 J-1.149
G1 X5.51 Y-41.051
X9.34 Y-44.265
X9.621 Y-43.93
G2 X11.734 Y-43.745 I1.149 J-0.964
G1 X13.266 Y-45.031
X15.387 Y-42.503
G2 X16.735 Y-41.98 I1.149 J-0.964
G3 X20.045 Y-17.2 I1.655 J12.39
X6.475 Y-33.371 I-1.655 J-12.39
G2 X6.195 Y-34.789 I-1.43 J-0.454
G1 X5.542 Y-35.567
G3 X5.765 Y-35.883 I0.153 J-0.129
G1 X19.068 Y-30.953
X19.103 Y-30.936
X19.134 Y-30.912
X19.16 Y-30.883
G3 X16.854 Y-29.209 Z-1.556 I-1.153 J0.837 F333.3
X19.16 Y-30.883 Z-1.713 I1.153 J-0.837
X16.854 Y-29.209 Z-1.869 I-1.153 J0.837
X19.16 Y-30.883 Z-2.025 I1.153 J-0.837
X18.923 Y-28.954 Z-2.1 I-1.153 J0.837
X17.905 Y-28.893 I-0.551 J-0.656 F1000
X17.562 Y-29.853 I0.459 J-0.706
G1 X17.588 Y-29.948
X17.614 Y-30.042
G3 X18.079 Y-30.433 I0.53 J0.16
G1 X18.177 Y-30.442
X18.275 Y-30.451
G3 X19.161 Y-29.946 I0.111 J0.834
X18.923 Y-28.954 I-0.789 J0.335
G2 X18.303 Y-27.461 I1.128 J1.344
G3 X16.979 Y-26.532 I-0.932 J0.08
X15.179 Y-30.609 I1.411 J-3.058
G2 X15.419 Y-31.597 I-6.93 J-2.199
X15.562 Y-32.604 I-19.378 J-3.273
G3 X15.913 Y-32.898 I0.331 J0.038
G2 X16.929 Y-32.865 I1.157 J-19.618
X17.944 Y-32.929 I0.052 J-7.271
G3 X18.836 Y-26.252 I0.446 J3.338
X16.979 Y-26.532 I-0.446 J-3.338
G2 X15.19 Y-26.36 I-0.747 J1.619
G3 X13.434 Y-26.739 I-0.707 J-0.982
X12.94 Y-31.32 I4.956 J-2.851
G2 X13.3 Y-33.504 I-7.337 J-2.329
X13.066 Y-35.705 I-8.911 J-0.167
G3 X13.292 Y-35.895 I0.161 J-0.038
G2 X15.419 Y-35.283 I3.51 J-8.192
X17.633 Y-35.257 I1.194 J-7.605
G3 X19.147 Y-23.923 I0.757 J5.667
X13.434 Y-26.739 I-0.757 J-5.667
G2 X12.072 Y-27.477 I-1.281 J0.737
G3 X10.87 Y-28.455 I-0.063 J-1.15
X11.141 Y-31.891 I7.52 J-1.135
G2 X11.393 Y-34.391 I-5.83 J-1.85
X10.658 Y-36.795 I-6.613 J0.707
G3 X10.605 Y-37.571 I0.846 J-0.448
G2 X10.801 Y-38.211 I-5.963 J-2.18
G3 X11.218 Y-38.56 I0.449 J0.112
G2 X11.881 Y-38.643 I-0.448 J-6.334
G3 X12.637 Y-38.456 I0.168 J0.943
G2 X14.877 Y-37.315 I4.084 J-5.249
X17.383 Y-37.129 I1.697 J-5.876
G3 X19.397 Y-22.052 I1.007 J7.538
X10.87 Y-28.455 I-1.007 J-7.538
G2 X9.576 Y-29.983 I-1.884 J0.284
G3 X8.581 Y-31.718 I0.463 J-1.419
X8.823 Y-32.626 I9.809 J2.128
G2 X8.92 Y-34.588 I-3.674 J-1.166
X8.06 Y-36.355 I-3.961 J0.836
X7.871 Y-36.566 I-3.477 J2.918
G3 X7.682 Y-36.777 I3.288 J-3.129
X7.679 Y-37.277 I0.301 J-0.252
G2 X8.55 Y-40.018 I-3.037 J-2.474
G3 X8.833 Y-40.684 I0.796 J-0.054
G1 X9.124 Y-40.928
G3 X9.829 Y-41.091 I0.513 J0.612
G2 X12.679 Y-41.473 I0.941 J-3.803
G3 X13.171 Y-41.383 I0.191 J0.343
X13.346 Y-41.16 I-3.478 J2.918
G2 X13.522 Y-40.937 I3.653 J-2.695
X15.112 Y-39.784 I3.101 J-2.602
X17.061 Y-39.539 I1.439 J-3.576
G3 X19.719 Y-19.641 I1.329 J9.949
X8.581 Y-31.718 I-1.329 J-9.949
G2 X7.508 Y-33.995 I-2.021 J-0.439
G3 X5.542 Y-35.567 I2.931 J-5.681
G1 X4.074 Y-37.317
X5.606 Y-38.603
G2 X5.791 Y-40.716 I-0.964 J-1.149
G1 X5.51 Y-41.051
X9.34 Y-44.265
X9.621 Y-43.93
G2 X11.734 Y-43.745 I1.149 J-0.964
G1 X13.266 Y-45.031
X15.387 Y-42.503
G2 X16.735 Y-41.98 I1.149 J-0.964
G3 X20.045 Y-17.2 I1.655 J12.39
X6.475 Y-33.371 I-1.655 J-12.39
G2 X6.195 Y-34.789 I-1.43 J-0.454
G1 X5.542 Y-35.567
G3 X5.765 Y-35.883 I0.153 J-0.129
G1 X19.068 Y-30.953
X19.103 Y-30.936
X19.134 Y-30.912
X19.16 Y-30.883
G3 X16.854 Y-29.209 Z-2.256 I-1.153 J0.837 F333.3
X19.16 Y-30.883 Z-2.413 I1.153 J-0.837
X16.854 Y-29.209 Z-2.569 I-1.153 J0.837
X19.16 Y-30.883 Z-2.725 I1.153 J-0.837
X18.923 Y-28.954 Z-2.8 I-1.153 J0.837
X17.905 Y-28.893 I-0.551 J-0.656 F1000
X17.562 Y-29.853 I0.459 J-0.706
G1 X17.588 Y-29.948
X17.614 Y-30.042
G3 X18.079 Y-30.433 I0.53 J0.16
G1 X18.177 Y-30.442
X18.275 Y-30.451
G3 X19.161 Y-29.946 I0.111 J0.834
X18.923 Y-28.954 I-0.789 J0.335
G2 X18.303 Y-27.461 I1.128 J1.344
G3 X16.979 Y-26.532 I-0.932 J0.08
X15.179 Y-30.609 I1.411 J-3.058
G2 X15.419 Y-31.597 I-6.93 J-2.199
X15.562 Y-32.604 I-19.378 J-3.273
G3 X15.913 Y-32.898 I0.331 J0.038
G2 X16.929 Y-32.865 I1.157 J-19.618
X17.944 Y-32.929 I0.052 J-7.271
G3 X18.836 Y-26.252 I0.446 J3.338
X16.979 Y-26.532 I-0.446 J-3.338
G2 X15.19 Y-26.36 I-0.747 J1.619
G3 X13.434 Y-26.739 I-0.707 J-0.982
X12.94 Y-31.32 I4.956 J-2.851
G2 X13.3 Y-33.504 I-7.337 J-2.329
X13.066 Y-35.705 I-8.911 J-0.167
G3 X13.292 Y-35.895 I0.161 J-0.038
G2 X15.419 Y-35.283 I3.51 J-8.192
X17.633 Y-35.257 I1.194 J-7.605
G3 X19.147 Y-23.923 I0.757 J5.667
X13.434 Y-26.739 I-0.757 J-5.667
G2 X12.072 Y-27.477 I-1.281 J0.737
G3 X10.87 Y-28.455 I-0.063 J-1.15
X11.141 Y-31.891 I7.52 J-1.135
G2 X11.393 Y-34.391 I-5.83 J-1.85
X10.658 Y-36.795 I-6.613 J0.707
G3 X10.605 Y-37.571 I0.846 J-0.448
G2 X10.801 Y-38.211 I-5.963 J-2.18
G3 X11.218 Y-38.56 I0.449 J0.112
G2 X11.881 Y-38.643 I-0.448 J-6.334
G3 X12.637 Y-38.456 I0.168 J0.943
G2 X14.877 Y-37.315 I4.084 J-5.249
X17.383 Y-37.129 I1.697 J-5.876
G3 X19.397 Y-22.052 I1.007 J7.538
X10.87 Y-28.455 I-1.007 J-7.538
G2 X9.576 Y-29.983 I-1.884 J0.284
G3 X8.581 Y-31.718 I0.463 J-1.419
X8.823 Y-32.626 I9.809 J2.128
G2 X8.92 Y-34.588 I-3.674 J-1.166
X8.06 Y-36.355 I-3.961 J0.836
X7.871 Y-36.566 I-3.477 J2.918
G3 X7.682 Y-36.777 I3.288 J-3.129
X7.679 Y-37.277 I0.301 J-0.252
G2 X8.55 Y-40.018 I-3.037 J-2.474
G3 X8.833 Y-40.684 I0.796 J-0.054
G1 X9.124 Y-40.928
G3 X9.829 Y-41.091 I0.513 J0.612
G2 X12.679 Y-41.473 I0.941 J-3.803
G3 X13.171 Y-41.383 I0.191 J0.343
X13.346 Y-41.16 I-3.478 J2.918
G2 X13.522 Y-40.937 I3.653 J-2.695
X15.112 Y-39.784 I3.101 J-2.602
X17.061 Y-39.539 I1.439 J-3.576
G3 X19.719 Y-19.641 I1.329 J9.949
X8.581 Y-31.718 I-1.329 J-9.949
G2 X7.508 Y-33.995 I-2.021 J-0.439
G3 X5.542 Y-35.567 I2.931 J-5.681
G1 X4.074 Y-37.317
X5.606 Y-38.603
G2 X5.791 Y-40.716 I-0.964 J-1.149
G1 X5.51 Y-41.051
X9.34 Y-44.265
X9.621 Y-43.93
G2 X11.734 Y-43.745 I1.149 J-0.964
G1 X13.266 Y-45.031
X15.387 Y-42.503
G2 X16.735 Y-41.98 I1.149 J-0.964
G3 X20.045 Y-17.2 I1.655 J12.39
X6.475 Y-33.371 I-1.655 J-12.39
G2 X6.195 Y-34.789 I-1.43 J-0.454
G1 X5.542 Y-35.567
G3 X5.765 Y-35.883 I0.153 J-0.129
G1 X19.068 Y-30.953
X19.103 Y-30.936
X19.134 Y-30.912
X19.16 Y-30.883
G3 X16.854 Y-29.209 Z-2.956 I-1.153 J0.837 F333.3
X19.16 Y-30.883 Z-3.113 I1.153 J-0.837
X16.854 Y-29.209 Z-3.269 I-1.153 J0.837
X19.16 Y-30.883 Z-3.425 I1.153 J-0.837
X18.923 Y-28.954 Z-3.5 I-1.153 J0.837
X17.905 Y-28.893 I-0.551 J-0.656 F1000
X17.562 Y-29.853 I0.459 J-0.706
G1 X17.588 Y-29.948
X17.614 Y-30.042
G3 X18.079 Y-30.433 I0.53 J0.16
G1 X18.177 Y-30.442
X18.275 Y-30.451
G3 X19.161 Y-29.946 I0.111 J0.834
X18.923 Y-28.954 I-0.789 J0.335
G2 X18.303 Y-27.461 I1.128 J1.344
G3 X16.979 Y-26.532 I-0.932 J0.08
X15.179 Y-30.609 I1.411 J-3.058
G2 X15.419 Y-31.597 I-6.93 J-2.199
X15.562 Y-32.604 I-19.378 J-3.273
G3 X15.913 Y-32.898 I0.331 J0.038
G2 X16.929 Y-32.865 I1.157 J-19.618
X17.944 Y-32.929 I0.052 J-7.271
G3 X18.836 Y-26.252 I0.446 J3.338
X16.979 Y-26.532 I-0.446 J-3.338
G2 X15.19 Y-26.36 I-0.747 J1.619
G3 X13.434 Y-26.739 I-0.707 J-0.982
X12.94 Y-31.32 I4.956 J-2.851
G2 X13.3 Y-33.504 I-7.337 J-2.329
X13.066 Y-35.705 I-8.911 J-0.167
G3 X13.292 Y-35.895 I0.161 J-0.038
G2 X15.419 Y-35.283 I3.51 J-8.192
X17.633 Y-35.257 I1.194 J-7.605
G3 X19.147 Y-23.923 I0.757 J5.667
X13.434 Y-26.739 I-0.757 J-5.667
G2 X12.072 Y-27.477 I-1.281 J0.737
G3 X10.87 Y-28.455 I-0.063 J-1.15
X11.141 Y-31.891 I7.52 J-1.135
G2 X11.393 Y-34.391 I-5.83 J-1.85
X10.658 Y-36.795 I-6.613 J0.707
G3 X10.605 Y-37.571 I0.846 J-0.448
G2 X10.801 Y-38.211 I-5.963 J-2.18
G3 X11.218 Y-38.56 I0.449 J0.112
G2 X11.881 Y-38.643 I-0.448 J-6.334
G3 X12.637 Y-38.456 I0.168 J0.943
G2 X14.877 Y-37.315 I4.084 J-5.249
X17.383 Y-37.129 I1.697 J-5.876
G3 X19.397 Y-22.052 I1.007 J7.538
X10.87 Y-28.455 I-1.007 J-7.538
G2 X9.576 Y-29.983 I-1.884 J0.284
G3 X8.581 Y-31.718 I0.463 J-1.419
X8.823 Y-32.626 I9.809 J2.128
G2 X8.92 Y-34.588 I-3.674 J-1.166
X8.06 Y-36.355 I-3.961 J0.836
X7.871 Y-36.566 I-3.477 J2.918
G3 X7.682 Y-36.777 I3.288 J-3.129
X7.679 Y-37.277 I0.301 J-0.252
G2 X8.55 Y-40.018 I-3.037 J-2.474
G3 X8.833 Y-40.684 I0.796 J-0.054
G1 X9.124 Y-40.928
G3 X9.829 Y-41.091 I0.513 J0.612
G2 X12.679 Y-41.473 I0.941 J-3.803
G3 X13.171 Y-41.383 I0.191 J0.343
X13.346 Y-41.16 I-3.478 J2.918
G2 X13.522 Y-40.937 I3.653 J-2.695
X15.112 Y-39.784 I3.101 J-2.602
X17.061 Y-39.539 I1.439 J-3.576
G3 X19.719 Y-19.641 I1.329 J9.949
X8.581 Y-31.718 I-1.329 J-9.949
G2 X7.508 Y-33.995 I-2.021 J-0.439
G3 X5.542 Y-35.567 I2.931 J-5.681
G1 X4.074 Y-37.317
X5.606 Y-38.603
G2 X5.791 Y-40.716 I-0.964 J-1.149
G1 X5.51 Y-41.051
X9.34 Y-44.265
X9.621 Y-43.93
G2 X11.734 Y-43.745 I1.149 J-0.964
G1 X13.266 Y-45.031
X15.387 Y-42.503
G2 X16.735 Y-41.98 I1.149 J-0.964
G3 X20.045 Y-17.2 I1.655 J12.39
X6.475 Y-33.371 I-1.655 J-12.39
G2 X6.195 Y-34.789 I-1.43 J-0.454
G1 X5.542 Y-35.567
G3 X5.765 Y-35.883 I0.153 J-0.129
G1 X19.068 Y-30.953
X19.103 Y-30.936
X19.134 Y-30.912
X19.16 Y-30.883
G3 X16.854 Y-29.209 Z-3.656 I-1.153 J0.837 F333.3
X19.16 Y-30.883 Z-3.813 I1.153 J-0.837
X16.854 Y-29.209 Z-3.969 I-1.153 J0.837
X19.16 Y-30.883 Z-4.125 I1.153 J-0.837
X18.923 Y-28.954 Z-4.2 I-1.153 J0.837
X17.905 Y-28.893 I-0.551 J-0.656 F1000
X17.562 Y-29.853 I0.459 J-0.706
G1 X17.588 Y-29.948
X17.614 Y-30.042
G3 X18.079 Y-30.433 I0.53 J0.16
G1 X18.177 Y-30.442
X18.275 Y-30.451
G3 X19.161 Y-29.946 I0.111 J0.834
X18.923 Y-28.954 I-0.789 J0.335
G2 X18.303 Y-27.461 I1.128 J1.344
G3 X16.979 Y-26.532 I-0.932 J0.08
X15.179 Y-30.609 I1.411 J-3.058
G2 X15.419 Y-31.597 I-6.93 J-2.199
X15.562 Y-32.604 I-19.378 J-3.273
G3 X15.913 Y-32.898 I0.331 J0.038
G2 X16.929 Y-32.865 I1.157 J-19.618
X17.944 Y-32.929 I0.052 J-7.271
G3 X18.836 Y-26.252 I0.446 J3.338
X16.979 Y-26.532 I-0.446 J-3.338
G2 X15.19 Y-26.36 I-0.747 J1.619
G3 X13.434 Y-26.739 I-0.707 J-0.982
X12.94 Y-31.32 I4.956 J-2.851
G2 X13.3 Y-33.504 I-7.337 J-2.329
X13.066 Y-35.705 I-8.911 J-0.167
G3 X13.292 Y-35.895 I0.161 J-0.038
G2 X15.419 Y-35.283 I3.51 J-8.192
X17.633 Y-35.257 I1.194 J-7.605
G3 X19.147 Y-23.923 I0.757 J5.667
X13.434 Y-26.739 I-0.757 J-5.667
G2 X12.072 Y-27.477 I-1.281 J0.737
G3 X10.87 Y-28.455 I-0.063 J-1.15
X11.141 Y-31.891 I7.52 J-1.135
G2 X11.393 Y-34.391 I-5.83 J-1.85
X10.658 Y-36.795 I-6.613 J0.707
G3 X10.605 Y-37.571 I0.846 J-0.448
G2 X10.801 Y-38.211 I-5.963 J-2.18
G3 X11.218 Y-38.56 I0.449 J0.112
G2 X11.881 Y-38.643 I-0.448 J-6.334
G3 X12.637 Y-38.456 I0.168 J0.943
G2 X14.877 Y-37.315 I4.084 J-5.249
X17.383 Y-37.129 I1.697 J-5.876
G3 X19.397 Y-22.052 I1.007 J7.538
X10.87 Y-28.455 I-1.007 J-7.538
G2 X9.576 Y-29.983 I-1.884 J0.284
G3 X8.581 Y-31.718 I0.463 J-1.419
X8.823 Y-32.626 I9.809 J2.128
G2 X8.92 Y-34.588 I-3.674 J-1.166
X8.06 Y-36.355 I-3.961 J0.836
X7.871 Y-36.566 I-3.477 J2.918
G3 X7.682 Y-36.777 I3.288 J-3.129
X7.679 Y-37.277 I0.301 J-0.252
G2 X8.55 Y-40.018 I-3.037 J-2.474
G3 X8.833 Y-40.684 I0.796 J-0.054
G1 X9.124 Y-40.928
G3 X9.829 Y-41.091 I0.513 J0.612
G2 X12.679 Y-41.473 I0.941 J-3.803
G3 X13.171 Y-41.383 I0.191 J0.343
X13.346 Y-41.16 I-3.478 J2.918
G2 X13.522 Y-40.937 I3.653 J-2.695
X15.112 Y-39.784 I3.101 J-2.602
X17.061 Y-39.539 I1.439 J-3.576
G3 X19.719 Y-19.641 I1.329 J9.949
X8.581 Y-31.718 I-1.329 J-9.949
G2 X7.508 Y-33.995 I-2.021 J-0.439
G3 X5.542 Y-35.567 I2.931 J-5.681
G1 X4.074 Y-37.317
X5.606 Y-38.603
G2 X5.791 Y-40.716 I-0.964 J-1.149
G1 X5.51 Y-41.051
X9.34 Y-44.265
X9.621 Y-43.93
G2 X11.734 Y-43.745 I1.149 J-0.964
G1 X13.266 Y-45.031
X15.387 Y-42.503
G2 X16.735 Y-41.98 I1.149 J-0.964
G3 X20.045 Y-17.2 I1.655 J12.39
X6.475 Y-33.371 I-1.655 J-12.39
G2 X6.195 Y-34.789 I-1.43 J-0.454
G1 X5.542 Y-35.567
G3 X5.765 Y-35.883 I0.153 J-0.129
G1 X19.068 Y-30.953
X19.103 Y-30.936
X19.134 Y-30.912
X19.16 Y-30.883
G3 X16.854 Y-29.209 Z-4.356 I-1.153 J0.837 F333.3
X19.16 Y-30.883 Z-4.513 I1.153 J-0.837
X16.854 Y-29.209 Z-4.669 I-1.153 J0.837
X19.16 Y-30.883 Z-4.825 I1.153 J-0.837
X18.923 Y-28.954 Z-4.9 I-1.153 J0.837
X17.905 Y-28.893 I-0.551 J-0.656 F1000
X17.562 Y-29.853 I0.459 J-0.706
G1 X17.588 Y-29.948
X17.614 Y-30.042
G3 X18.079 Y-30.433 I0.53 J0.16
G1 X18.177 Y-30.442
X18.275 Y-30.451
G3 X19.161 Y-29.946 I0.111 J0.834
X18.923 Y-28.954 I-0.789 J0.335
G2 X18.303 Y-27.461 I1.128 J1.344
G3 X16.979 Y-26.532 I-0.932 J0.08
X15.179 Y-30.609 I1.411 J-3.058
G2 X15.419 Y-31.597 I-6.93 J-2.199
X15.562 Y-32.604 I-19.378 J-3.273
G3 X15.913 Y-32.898 I0.331 J0.038
G2 X16.929 Y-32.865 I1.157 J-19.618
X17.944 Y-32.929 I0.052 J-7.271
G3 X18.836 Y-26.252 I0.446 J3.338
X16.979 Y-26.532 I-0.446 J-3.338
G2 X15.19 Y-26.36 I-0.747 J1.619
G3 X13.434 Y-26.739 I-0.707 J-0.982
X12.94 Y-31.32 I4.956 J-2.851
G2 X13.3 Y-33.504 I-7.337 J-2.329
X13.066 Y-35.705 I-8.911 J-0.167
G3 X13.292 Y-35.895 I0.161 J-0.038
G2 X15.419 Y-35.283 I3.51 J-8.192
X17.633 Y-35.257 I1.194 J-7.605
G3 X19.147 Y-23.923 I0.757 J5.667
X13.434 Y-26.739 I-0.757 J-5.667
G2 X12.072 Y-27.477 I-1.281 J0.737
G3 X10.87 Y-28.455 I-0.063 J-1.15
X11.141 Y-31.891 I7.52 J-1.135
G2 X11.393 Y-34.391 I-5.83 J-1.85
X10.658 Y-36.795 I-6.613 J0.707
G3 X10.605 Y-37.571 I0.846 J-0.448
G2 X10.801 Y-38.211 I-5.963 J-2.18
G3 X11.218 Y-38.56 I0.449 J0.112
G2 X11.881 Y-38.643 I-0.448 J-6.334
G3 X12.637 Y-38.456 I0.168 J0.943
G2 X14.877 Y-37.315 I4.084 J-5.249
X17.383 Y-37.129 I1.697 J-5.876
G3 X19.397 Y-22.052 I1.007 J7.538
X10.87 Y-28.455 I-1.007 J-7.538
G2 X9.576 Y-29.983 I-1.884 J0.284
G3 X8.581 Y-31.718 I0.463 J-1.419
X8.823 Y-32.626 I9.809 J2.128
G2 X8.92 Y-34.588 I-3.674 J-1.166
X8.06 Y-36.355 I-3.961 J0.836
X7.871 Y-36.566 I-3.477 J2.918
G3 X7.682 Y-36.777 I3.288 J-3.129
X7.679 Y-37.277 I0.301 J-0.252
G2 X8.55 Y-40.018 I-3.037 J-2.474
G3 X8.833 Y-40.684 I0.796 J-0.054
G1 X9.124 Y-40.928
G3 X9.829 Y-41.091 I0.513 J0.612
G2 X12.679 Y-41.473 I0.941 J-3.803
G3 X13.171 Y-41.383 I0.191 J0.343
X13.346 Y-41.16 I-3.478 J2.918
G2 X13.522 Y-40.937 I3.653 J-2.695
X15.112 Y-39.784 I3.101 J-2.602
X17.061 Y-39.539 I1.439 J-3.576
G3 X19.719 Y-19.641 I1.329 J9.949
X8.581 Y-31.718 I-1.329 J-9.949
G2 X7.508 Y-33.995 I-2.021 J-0.439
G3 X5.542 Y-35.567 I2.931 J-5.681
G1 X4.074 Y-37.317
X5.606 Y-38.603
G2 X5.791 Y-40.716 I-0.964 J-1.149
G1 X5.51 Y-41.051
X9.34 Y-44.265
X9.621 Y-43.93
G2 X11.734 Y-43.745 I1.149 J-0.964
G1 X13.266 Y-45.031
X15.387 Y-42.503
G2 X16.735 Y-41.98 I1.149 J-0.964
G3 X20.045 Y-17.2 I1.655 J12.39
X6.475 Y-33.371 I-1.655 J-12.39
G2 X6.195 Y-34.789 I-1.43 J-0.454
G1 X5.542 Y-35.567
G3 X5.765 Y-35.883 I0.153 J-0.129
G1 X19.068 Y-30.953
X19.103 Y-30.936
X19.134 Y-30.912
X19.16 Y-30.883
G3 X16.854 Y-29.209 Z-5.056 I-1.153 J0.837 F333.3
X19.16 Y-30.883 Z-5.213 I1.153 J-0.837
X16.854 Y-29.209 Z-5.369 I-1.153 J0.837
X19.16 Y-30.883 Z-5.525 I1.153 J-0.837
X18.923 Y-28.954 Z-5.6 I-1.153 J0.837
X17.905 Y-28.893 I-0.551 J-0.656 F1000
X17.562 Y-29.853 I0.459 J-0.706
G1 X17.588 Y-29.948
X17.614 Y-30.042
G3 X18.079 Y-30.433 I0.53 J0.16
G1 X18.177 Y-30.442
X18.275 Y-30.451
G3 X19.161 Y-29.946 I0.111 J0.834
X18.923 Y-28.954 I-0.789 J0.335
G2 X18.303 Y-27.461 I1.128 J1.344
G3 X16.979 Y-26.532 I-0.932 J0.08
X15.179 Y-30.609 I1.411 J-3.058
G2 X15.419 Y-31.597 I-6.93 J-2.199
X15.562 Y-32.604 I-19.378 J-3.273
G3 X15.913 Y-32.898 I0.331 J0.038
G2 X16.929 Y-32.865 I1.157 J-19.618
X17.944 Y-32.929 I0.052 J-7.271
G3 X18.836 Y-26.252 I0.446 J3.338
X16.979 Y-26.532 I-0.446 J-3.338
G2 X15.19 Y-26.36 I-0.747 J1.619
G3 X13.434 Y-26.739 I-0.707 J-0.982
X12.94 Y-31.32 I4.956 J-2.851
G2 X13.3 Y-33.504 I-7.337 J-2.329
X13.066 Y-35.705 I-8.911 J-0.167
G3 X13.292 Y-35.895 I0.161 J-0.038
G2 X15.419 Y-35.283 I3.51 J-8.192
X17.633 Y-35.257 I1.194 J-7.605
G3 X19.147 Y-23.923 I0.757 J5.667
X13.434 Y-26.739 I-0.757 J-5.667
G2 X12.072 Y-27.477 I-1.281 J0.737
G3 X10.87 Y-28.455 I-0.063 J-1.15
X11.141 Y-31.891 I7.52 J-1.135
G2 X11.393 Y-34.391 I-5.83 J-1.85
X10.658 Y-36.795 I-6.613 J0.707
G3 X10.605 Y-37.571 I0.846 J-0.448
G2 X10.801 Y-38.211 I-5.963 J-2.18
G3 X11.218 Y-38.56 I0.449 J0.112
G2 X11.881 Y-38.643 I-0.448 J-6.334
G3 X12.637 Y-38.456 I0.168 J0.943
G2 X14.877 Y-37.315 I4.084 J-5.249
X17.383 Y-37.129 I1.697 J-5.876
G3 X19.397 Y-22.052 I1.007 J7.538
X10.87 Y-28.455 I-1.007 J-7.538
G2 X9.576 Y-29.983 I-1.884 J0.284
G3 X8.581 Y-31.718 I0.463 J-1.419
X8.823 Y-32.626 I9.809 J2.128
G2 X8.92 Y-34.588 I-3.674 J-1.166
X8.06 Y-36.355 I-3.961 J0.836
X7.871 Y-36.566 I-3.477 J2.918
G3 X7.682 Y-36.777 I3.288 J-3.129
X7.679 Y-37.277 I0.301 J-0.252
G2 X8.55 Y-40.018 I-3.037 J-2.474
G3 X8.833 Y-40.684 I0.796 J-0.054
G1 X9.124 Y-40.928
G3 X9.829 Y-41.091 I0.513 J0.612
G2 X12.679 Y-41.473 I0.941 J-3.803
G3 X13.171 Y-41.383 I0.191 J0.343
X13.346 Y-41.16 I-3.478 J2.918
G2 X13.522 Y-40.937 I3.653 J-2.695
X15.112 Y-39.784 I3.101 J-2.602
X17.061 Y-39.539 I1.439 J-3.576
G3 X19.719 Y-19.641 I1.329 J9.949
X8.581 Y-31.718 I-1.329 J-9.949
G2 X7.508 Y-33.995 I-2.021 J-0.439
G3 X5.542 Y-35.567 I2.931 J-5.681
G1 X4.074 Y-37.317
X5.606 Y-38.603
G2 X5.791 Y-40.716 I-0.964 J-1.149
G1 X5.51 Y-41.051
X9.34 Y-44.265
X9.621 Y-43.93
G2 X11.734 Y-43.745 I1.149 J-0.964
G1 X13.266 Y-45.031
X15.387 Y-42.503
G2 X16.735 Y-41.98 I1.149 J-0.964
G3 X20.045 Y-17.2 I1.655 J12.39
X6.475 Y-33.371 I-1.655 J-12.39
G2 X6.195 Y-34.789 I-1.43 J-0.454
G1 X5.542 Y-35.567
G3 X5.765 Y-35.883 I0.153 J-0.129
G1 X19.068 Y-30.953
X19.103 Y-30.936
X19.134 Y-30.912
X19.16 Y-30.883
G3 X16.854 Y-29.209 Z-5.756 I-1.153 J0.837 F333.3
X19.16 Y-30.883 Z-5.913 I1.153 J-0.837
X16.854 Y-29.209 Z-6.069 I-1.153 J0.837
X19.16 Y-30.883 Z-6.225 I1.153 J-0.837
X18.923 Y-28.954 Z-6.3 I-1.153 J0.837
X17.905 Y-28.893 I-0.551 J-0.656 F1000
X17.562 Y-29.853 I0.459 J-0.706
G1 X17.588 Y-29.948
X17.614 Y-30.042
G3 X18.079 Y-30.433 I0.53 J0.16
G1 X18.177 Y-30.442
X18.275 Y-30.451
G3 X19.161 Y-29.946 I0.111 J0.834
X18.923 Y-28.954 I-0.789 J0.335
G2 X18.303 Y-27.461 I1.128 J1.344
G3 X16.979 Y-26.532 I-0.932 J0.08
X15.179 Y-30.609 I1.411 J-3.058
G2 X15.419 Y-31.597 I-6.93 J-2.199
X15.562 Y-32.604 I-19.378 J-3.273
G3 X15.913 Y-32.898 I0.331 J0.038
G2 X16.929 Y-32.865 I1.157 J-19.618
X17.944 Y-32.929 I0.052 J-7.271
G3 X18.836 Y-26.252 I0.446 J3.338
X16.979 Y-26.532 I-0.446 J-3.338
G2 X15.19 Y-26.36 I-0.747 J1.619
G3 X13.434 Y-26.739 I-0.707 J-0.982
X12.94 Y-31.32 I4.956 J-2.851
G2 X13.3 Y-33.504 I-7.337 J-2.329
X13.066 Y-35.705 I-8.911 J-0.167
G3 X13.292 Y-35.895 I0.161 J-0.038
G2 X15.419 Y-35.283 I3.51 J-8.192
X17.633 Y-35.257 I1.194 J-7.605
G3 X19.147 Y-23.923 I0.757 J5.667
X13.434 Y-26.739 I-0.757 J-5.667
G2 X12.072 Y-27.477 I-1.281 J0.737
G3 X10.87 Y-28.455 I-0.063 J-1.15
X11.141 Y-31.891 I7.52 J-1.135
G2 X11.393 Y-34.391 I-5.83 J-1.85
X10.658 Y-36.795 I-6.613 J0.707
G3 X10.605 Y-37.571 I0.846 J-0.448
G2 X10.801 Y-38.211 I-5.963 J-2.18
G3 X11.218 Y-38.56 I0.449 J0.112
G2 X11.881 Y-38.643 I-0.448 J-6.334
G3 X12.637 Y-38.456 I0.168 J0.943
G2 X14.877 Y-37.315 I4.084 J-5.249
X17.383 Y-37.129 I1.697 J-5.876
G3 X19.397 Y-22.052 I1.007 J7.538
X10.87 Y-28.455 I-1.007 J-7.538
G2 X9.576 Y-29.983 I-1.884 J0.284
G3 X8.581 Y-31.718 I0.463 J-1.419
X8.823 Y-32.626 I9.809 J2.128
G2 X8.92 Y-34.588 I-3.674 J-1.166
X8.06 Y-36.355 I-3.961 J0.836
X7.871 Y-36.566 I-3.477 J2.918
G3 X7.682 Y-36.777 I3.288 J-3.129
X7.679 Y-37.277 I0.301 J-0.252
G2 X8.55 Y-40.018 I-3.037 J-2.474
G3 X8.833 Y-40.684 I0.796 J-0.054
G1 X9.124 Y-40.928
G3 X9.829 Y-41.091 I0.513 J0.612
G2 X12.679 Y-41.473 I0.941 J-3.803
G3 X13.171 Y-41.383 I0.191 J0.343
X13.346 Y-41.16 I-3.478 J2.918
G2 X13.522 Y-40.937 I3.653 J-2.695
X15.112 Y-39.784 I3.101 J-2.602
X17.061 Y-39.539 I1.439 J-3.576
G3 X19.719 Y-19.641 I1.329 J9.949
X8.581 Y-31.718 I-1.329 J-9.949
G2 X7.508 Y-33.995 I-2.021 J-0.439
G3 X5.542 Y-35.567 I2.931 J-5.681
G1 X4.074 Y-37.317
X5.606 Y-38.603
G2 X5.791 Y-40.716 I-0.964 J-1.149
G1 X5.51 Y-41.051
X9.34 Y-44.265
X9.621 Y-43.93
G2 X11.734 Y-43.745 I1.149 J-0.964
G1 X13.266 Y-45.031
X15.387 Y-42.503
G2 X16.735 Y-41.98 I1.149 J-0.964
G3 X20.045 Y-17.2 I1.655 J12.39
X6.475 Y-33.371 I-1.655 J-12.39
G2 X6.195 Y-34.789 I-1.43 J-0.454
G1 X5.542 Y-35.567
G3 X5.765 Y-35.883 I0.153 J-0.129
G1 X19.068 Y-30.953
X19.103 Y-30.936
X19.134 Y-30.912
X19.16 Y-30.883
G3 X16.854 Y-29.209 Z-6.456 I-1.153 J0.837 F333.3
X19.16 Y-30.883 Z-6.613 I1.153 J-0.837
X16.854 Y-29.209 Z-6.769 I-1.153 J0.837
X19.16 Y-30.883 Z-6.925 I1.153 J-0.837
X18.923 Y-28.954 Z-7 I-1.153 J0.837
X17.905 Y-28.893 I-0.551 J-0.656 F1000
X17.562 Y-29.853 I0.459 J-0.706
G1 X17.588 Y-29.948
X17.614 Y-30.042
G3 X18.079 Y-30.433 I0.53 J0.16
G1 X18.177 Y-30.442
X18.275 Y-30.451
G3 X19.161 Y-29.946 I0.111 J0.834
X18.923 Y-28.954 I-0.789 J0.335
G2 X18.303 Y-27.461 I1.128 J1.344
G3 X16.979 Y-26.532 I-0.932 J0.08
X15.179 Y-30.609 I1.411 J-3.058
G2 X15.419 Y-31.597 I-6.93 J-2.199
X15.562 Y-32.604 I-19.378 J-3.273
G3 X15.913 Y-32.898 I0.331 J0.038
G2 X16.929 Y-32.865 I1.157 J-19.618
X17.944 Y-32.929 I0.052 J-7.271
G3 X18.836 Y-26.252 I0.446 J3.338
X16.979 Y-26.532 I-0.446 J-3.338
G2 X15.19 Y-26.36 I-0.747 J1.619
G3 X13.434 Y-26.739 I-0.707 J-0.982
X12.94 Y-31.32 I4.956 J-2.851
G2 X13.3 Y-33.504 I-7.337 J-2.329
X13.066 Y-35.705 I-8.911 J-0.167
G3 X13.292 Y-35.895 I0.161 J-0.038
G2 X15.419 Y-35.283 I3.51 J-8.192
X17.633 Y-35.257 I1.194 J-7.605
G3 X19.147 Y-23.923 I0.757 J5.667
X13.434 Y-26.739 I-0.757 J-5.667
G2 X12.072 Y-27.477 I-1.281 J0.737
G3 X10.87 Y-28.455 I-0.063 J-1.15
X11.141 Y-31.891 I7.52 J-1.135
G2 X11.393 Y-34.391 I-5.83 J-1.85
X10.658 Y-36.795 I-6.613 J0.707
G3 X10.605 Y-37.571 I0.846 J-0.448
G2 X10.801 Y-38.211 I-5.963 J-2.18
G3 X11.218 Y-38.56 I0.449 J0.112
G2 X11.881 Y-38.643 I-0.448 J-6.334
G3 X12.637 Y-38.456 I0.168 J0.943
G2 X14.877 Y-37.315 I4.084 J-5.249
X17.383 Y-37.129 I1.697 J-5.876
G3 X19.397 Y-22.052 I1.007 J7.538
X10.87 Y-28.455 I-1.007 J-7.538
G2 X9.576 Y-29.983 I-1.884 J0.284
G3 X8.581 Y-31.718 I0.463 J-1.419
X8.823 Y-32.626 I9.809 J2.128
G2 X8.92 Y-34.588 I-3.674 J-1.166
X8.06 Y-36.355 I-3.961 J0.836
X7.871 Y-36.566 I-3.477 J2.918
G3 X7.682 Y-36.777 I3.288 J-3.129
X7.679 Y-37.277 I0.301 J-0.252
G2 X8.55 Y-40.018 I-3.037 J-2.474
G3 X8.833 Y-40.684 I0.796 J-0.054
G1 X9.124 Y-40.928
G3 X9.829 Y-41.091 I0.513 J0.612
G2 X12.679 Y-41.473 I0.941 J-3.803
G3 X13.171 Y-41.383 I0.191 J0.343
X13.346 Y-41.16 I-3.478 J2.918
G2 X13.522 Y-40.937 I3.653 J-2.695
X15.112 Y-39.784 I3.101 J-2.602
X17.061 Y-39.539 I1.439 J-3.576
G3 X19.719 Y-19.641 I1.329 J9.949
X8.581 Y-31.718 I-1.329 J-9.949
G2 X7.508 Y-33.995 I-2.021 J-0.439
G3 X5.542 Y-35.567 I2.931 J-5.681
G1 X4.074 Y-37.317
X5.606 Y-38.603
G2 X5.791 Y-40.716 I-0.964 J-1.149
G1 X5.51 Y-41.051
X9.34 Y-44.265
X9.621 Y-43.93
G2 X11.734 Y-43.745 I1.149 J-0.964
G1 X13.266 Y-45.031
X15.387 Y-42.503
G2 X16.735 Y-41.98 I1.149 J-0.964
G3 X20.045 Y-17.2 I1.655 J12.39
X6.475 Y-33.371 I-1.655 J-12.39
G2 X6.195 Y-34.789 I-1.43 J-0.454
G1 X5.542 Y-35.567
G3 X5.765 Y-35.883 I0.153 J-0.129
G1 X19.068 Y-30.953
X19.103 Y-30.936
X19.134 Y-30.912
X19.16 Y-30.883
G3 X16.854 Y-29.209 Z-7.156 I-1.153 J0.837 F333.3
X19.16 Y-30.883 Z-7.313 I1.153 J-0.837
X16.854 Y-29.209 Z-7.469 I-1.153 J0.837
X19.16 Y-30.883 Z-7.625 I1.153 J-0.837
X18.923 Y-28.954 Z-7.7 I-1.153 J0.837
X17.905 Y-28.893 I-0.551 J-0.656 F1000
X17.562 Y-29.853 I0.459 J-0.706
G1 X17.588 Y-29.948
X17.614 Y-30.042
G3 X18.079 Y-30.433 I0.53 J0.16
G1 X18.177 Y-30.442
X18.275 Y-30.451
G3 X19.161 Y-29.946 I0.111 J0.834
X18.923 Y-28.954 I-0.789 J0.335
G2 X18.303 Y-27.461 I1.128 J1.344
G3 X16.979 Y-26.532 I-0.932 J0.08
X15.179 Y-30.609 I1.411 J-3.058
G2 X15.419 Y-31.597 I-6.93 J-2.199
X15.562 Y-32.604 I-19.378 J-3.273
G3 X15.913 Y-32.898 I0.331 J0.038
G2 X16.929 Y-32.865 I1.157 J-19.618
X17.944 Y-32.929 I0.052 J-7.271
G3 X18.836 Y-26.252 I0.446 J3.338
X16.979 Y-26.532 I-0.446 J-3.338
G2 X15.19 Y-26.36 I-0.747 J1.619
G3 X13.434 Y-26.739 I-0.707 J-0.982
X12.94 Y-31.32 I4.956 J-2.851
G2 X13.3 Y-33.504 I-7.337 J-2.329
X13.066 Y-35.705 I-8.911 J-0.167
G3 X13.292 Y-35.895 I0.161 J-0.038
G2 X15.419 Y-35.283 I3.51 J-8.192
X17.633 Y-35.257 I1.194 J-7.605
G3 X19.147 Y-23.923 I0.757 J5.667
X13.434 Y-26.739 I-0.757 J-5.667
G2 X12.072 Y-27.477 I-1.281 J0.737
G3 X10.87 Y-28.455 I-0.063 J-1.15
X11.141 Y-31.891 I7.52 J-1.135
G2 X11.393 Y-34.391 I-5.83 J-1.85
X10.658 Y-36.795 I-6.613 J0.707
G3 X10.605 Y-37.571 I0.846 J-0.448
G2 X10.801 Y-38.211 I-5.963 J-2.18
G3 X11.218 Y-38.56 I0.449 J0.112
G2 X11.881 Y-38.643 I-0.448 J-6.334
G3 X12.637 Y-38.456 I0.168 J0.943
G2 X14.877 Y-37.315 I4.084 J-5.249
X17.383 Y-37.129 I1.697 J-5.876
G3 X19.397 Y-22.052 I1.007 J7.538
X10.87 Y-28.455 I-1.007 J-7.538
G2 X9.576 Y-29.983 I-1.884 J0.284
G3 X8.581 Y-31.718 I0.463 J-1.419
X8.823 Y-32.626 I9.809 J2.128
G2 X8.92 Y-34.588 I-3.674 J-1.166
X8.06 Y-36.355 I-3.961 J0.836
X7.871 Y-36.566 I-3.477 J2.918
G3 X7.682 Y-36.777 I3.288 J-3.129
X7.679 Y-37.277 I0.301 J-0.252
G2 X8.55 Y-40.018 I-3.037 J-2.474
G3 X8.833 Y-40.684 I0.796 J-0.054
G1 X9.124 Y-40.928
G3 X9.829 Y-41.091 I0.513 J0.612
G2 X12.679 Y-41.473 I0.941 J-3.803
G3 X13.171 Y-41.383 I0.191 J0.343
X13.346 Y-41.16 I-3.478 J2.918
G2 X13.522 Y-40.937 I3.653 J-2.695
X15.112 Y-39.784 I3.101 J-2.602
X17.061 Y-39.539 I1.439 J-3.576
G3 X19.719 Y-19.641 I1.329 J9.949
X8.581 Y-31.718 I-1.329 J-9.949
G2 X7.508 Y-33.995 I-2.021 J-0.439
G3 X5.542 Y-35.567 I2.931 J-5.681
G1 X4.074 Y-37.317
X5.606 Y-38.603
G2 X5.791 Y-40.716 I-0.964 J-1.149
G1 X5.51 Y-41.051
X9.34 Y-44.265
X9.621 Y-43.93
G2 X11.734 Y-43.745 I1.149 J-0.964
G1 X13.266 Y-45.031
X15.387 Y-42.503
G2 X16.735 Y-41.98 I1.149 J-0.964
G3 X20.045 Y-17.2 I1.655 J12.39
X6.475 Y-33.371 I-1.655 J-12.39
G2 X6.195 Y-34.789 I-1.43 J-0.454
G1 X5.542 Y-35.567
G3 X5.765 Y-35.883 I0.153 J-0.129
G1 X19.068 Y-30.953
X19.103 Y-30.936
X19.134 Y-30.912
X19.16 Y-30.883
G3 X16.854 Y-29.209 Z-7.856 I-1.153 J0.837 F333.3
X19.16 Y-30.883 Z-8.013 I1.153 J-0.837
X16.854 Y-29.209 Z-8.169 I-1.153 J0.837
X19.16 Y-30.883 Z-8.325 I1.153 J-0.837
X18.923 Y-28.954 Z-8.4 I-1.153 J0.837
X17.905 Y-28.893 I-0.551 J-0.656 F1000
X17.562 Y-29.853 I0.459 J-0.706
G1 X17.588 Y-29.948
X17.614 Y-30.042
G3 X18.079 Y-30.433 I0.53 J0.16
G1 X18.177 Y-30.442
X18.275 Y-30.451
G3 X19.161 Y-29.946 I0.111 J0.834
X18.923 Y-28.954 I-0.789 J0.335
G2 X18.303 Y-27.461 I1.128 J1.344
G3 X16.979 Y-26.532 I-0.932 J0.08
X15.179 Y-30.609 I1.411 J-3.058
G2 X15.419 Y-31.597 I-6.93 J-2.199
X15.562 Y-32.604 I-19.378 J-3.273
G3 X15.913 Y-32.898 I0.331 J0.038
G2 X16.929 Y-32.865 I1.157 J-19.618
X17.944 Y-32.929 I0.052 J-7.271
G3 X18.836 Y-26.252 I0.446 J3.338
X16.979 Y-26.532 I-0.446 J-3.338
G2 X15.19 Y-26.36 I-0.747 J1.619
G3 X13.434 Y-26.739 I-0.707 J-0.982
X12.94 Y-31.32 I4.956 J-2.851
G2 X13.3 Y-33.504 I-7.337 J-2.329
X13.066 Y-35.705 I-8.911 J-0.167
G3 X13.292 Y-35.895 I0.161 J-0.038
G2 X15.419 Y-35.283 I3.51 J-8.192
X17.633 Y-35.257 I1.194 J-7.605
G3 X19.147 Y-23.923 I0.757 J5.667
X13.434 Y-26.739 I-0.757 J-5.667
G2 X12.072 Y-27.477 I-1.281 J0.737
G3 X10.87 Y-28.455 I-0.063 J-1.15
X11.141 Y-31.891 I7.52 J-1.135
G2 X11.393 Y-34.391 I-5.83 J-1.85
X10.658 Y-36.795 I-6.613 J0.707
G3 X10.605 Y-37.571 I0.846 J-0.448
G2 X10.801 Y-38.211 I-5.963 J-2.18
G3 X11.218 Y-38.56 I0.449 J0.112
G2 X11.881 Y-38.643 I-0.448 J-6.334
G3 X12.637 Y-38.456 I0.168 J0.943
G2 X14.877 Y-37.315 I4.084 J-5.249
X17.383 Y-37.129 I1.697 J-5.876
G3 X19.397 Y-22.052 I1.007 J7.538
X10.87 Y-28.455 I-1.007 J-7.538
G2 X9.576 Y-29.983 I-1.884 J0.284
G3 X8.581 Y-31.718 I0.463 J-1.419
X8.823 Y-32.626 I9.809 J2.128
G2 X8.92 Y-34.588 I-3.674 J-1.166
X8.06 Y-36.355 I-3.961 J0.836
X7.871 Y-36.566 I-3.477 J2.918
G3 X7.682 Y-36.777 I3.288 J-3.129
X7.679 Y-37.277 I0.301 J-0.252
G2 X8.55 Y-40.018 I-3.037 J-2.474
G3 X8.833 Y-40.684 I0.796 J-0.054
G1 X9.124 Y-40.928
G3 X9.829 Y-41.091 I0.513 J0.612
G2 X12.679 Y-41.473 I0.941 J-3.803
G3 X13.171 Y-41.383 I0.191 J0.343
X13.346 Y-41.16 I-3.478 J2.918
G2 X13.522 Y-40.937 I3.653 J-2.695
X15.112 Y-39.784 I3.101 J-2.602
X17.061 Y-39.539 I1.439 J-3.576
G3 X19.719 Y-19.641 I1.329 J9.949
X8.581 Y-31.718 I-1.329 J-9.949
G2 X7.508 Y-33.995 I-2.021 J-0.439
G3 X5.542 Y-35.567 I2.931 J-5.681
G1 X4.074 Y-37.317
X5.606 Y-38.603
G2 X5.791 Y-40.716 I-0.964 J-1.149
G1 X5.51 Y-41.051
X9.34 Y-44.265
X9.621 Y-43.93
G2 X11.734 Y-43.745 I1.149 J-0.964
G1 X13.266 Y-45.031
X15.387 Y-42.503
G2 X16.735 Y-41.98 I1.149 J-0.964
G3 X20.045 Y-17.2 I1.655 J12.39
X6.475 Y-33.371 I-1.655 J-12.39
G2 X6.195 Y-34.789 I-1.43 J-0.454
G1 X5.542 Y-35.567
G3 X5.765 Y-35.883 I0.153 J-0.129
G1 X19.068 Y-30.953
X19.103 Y-30.936
X19.134 Y-30.912
X19.16 Y-30.883
G3 X16.854 Y-29.209 Z-8.556 I-1.153 J0.837 F333.3
X19.16 Y-30.883 Z-8.713 I1.153 J-0.837
X16.854 Y-29.209 Z-8.869 I-1.153 J0.837
X19.16 Y-30.883 Z-9.025 I1.153 J-0.837
X18.923 Y-28.954 Z-9.1 I-1.153 J0.837
X17.905 Y-28.893 I-0.551 J-0.656 F1000
X17.562 Y-29.853 I0.459 J-0.706
G1 X17.588 Y-29.948
X17.614 Y-30.042
G3 X18.079 Y-30.433 I0.53 J0.16
G1 X18.177 Y-30.442
X18.275 Y-30.451
G3 X19.161 Y-29.946 I0.111 J0.834
X18.923 Y-28.954 I-0.789 J0.335
G2 X18.303 Y-27.461 I1.128 J1.344
G3 X16.979 Y-26.532 I-0.932 J0.08
X15.179 Y-30.609 I1.411 J-3.058
G2 X15.419 Y-31.597 I-6.93 J-2.199
X15.562 Y-32.604 I-19.378 J-3.273
G3 X15.913 Y-32.898 I0.331 J0.038
G2 X16.929 Y-32.865 I1.157 J-19.618
X17.944 Y-32.929 I0.052 J-7.271
G3 X18.836 Y-26.252 I0.446 J3.338
X16.979 Y-26.532 I-0.446 J-3.338
G2 X15.19 Y-26.36 I-0.747 J1.619
G3 X13.434 Y-26.739 I-0.707 J-0.982
X12.94 Y-31.32 I4.956 J-2.851
G2 X13.3 Y-33.504 I-7.337 J-2.329
X13.066 Y-35.705 I-8.911 J-0.167
G3 X13.292 Y-35.895 I0.161 J-0.038
G2 X15.419 Y-35.283 I3.51 J-8.192
X17.633 Y-35.257 I1.194 J-7.605
G3 X19.147 Y-23.923 I0.757 J5.667
X13.434 Y-26.739 I-0.757 J-5.667
G2 X12.072 Y-27.477 I-1.281 J0.737
G3 X10.87 Y-28.455 I-0.063 J-1.15
X11.141 Y-31.891 I7.52 J-1.135
G2 X11.393 Y-34.391 I-5.83 J-1.85
X10.658 Y-36.795 I-6.613 J0.707
G3 X10.605 Y-37.571 I0.846 J-0.448
G2 X10.801 Y-38.211 I-5.963 J-2.18
G3 X11.218 Y-38.56 I0.449 J0.112
G2 X11.881 Y-38.643 I-0.448 J-6.334
G3 X12.637 Y-38.456 I0.168 J0.943
G2 X14.877 Y-37.315 I4.084 J-5.249
X17.383 Y-37.129 I1.697 J-5.876
G3 X19.397 Y-22.052 I1.007 J7.538
X10.87 Y-28.455 I-1.007 J-7.538
G2 X9.576 Y-29.983 I-1.884 J0.284
G3 X8.581 Y-31.718 I0.463 J-1.419
X8.823 Y-32.626 I9.809 J2.128
G2 X8.92 Y-34.588 I-3.674 J-1.166
X8.06 Y-36.355 I-3.961 J0.836
X7.871 Y-36.566 I-3.477 J2.918
G3 X7.682 Y-36.777 I3.288 J-3.129
X7.679 Y-37.277 I0.301 J-0.252
G2 X8.55 Y-40.018 I-3.037 J-2.474
G3 X8.833 Y-40.684 I0.796 J-0.054
G1 X9.124 Y-40.928
G3 X9.829 Y-41.091 I0.513 J0.612
G2 X12.679 Y-41.473 I0.941 J-3.803
G3 X13.171 Y-41.383 I0.191 J0.343
X13.346 Y-41.16 I-3.478 J2.918
G2 X13.522 Y-40.937 I3.653 J-2.695
X15.112 Y-39.784 I3.101 J-2.602
X17.061 Y-39.539 I1.439 J-3.576
G3 X19.719 Y-19.641 I1.329 J9.949
X8.581 Y-31.718 I-1.329 J-9.949
G2 X7.508 Y-33.995 I-2.021 J-0.439
G3 X5.542 Y-35.567 I2.931 J-5.681
G1 X4.074 Y-37.317
X5.606 Y-38.603
G2 X5.791 Y-40.716 I-0.964 J-1.149
G1 X5.51 Y-41.051
X9.34 Y-44.265
X9.621 Y-43.93
G2 X11.734 Y-43.745 I1.149 J-0.964
G1 X13.266 Y-45.031
X15.387 Y-42.503
G2 X16.735 Y-41.98 I1.149 J-0.964
G3 X20.045 Y-17.2 I1.655 J12.39
X6.475 Y-33.371 I-1.655 J-12.39
G2 X6.195 Y-34.789 I-1.43 J-0.454
G1 X5.542 Y-35.567
G3 X5.765 Y-35.883 I0.153 J-0.129
G1 X19.068 Y-30.953
X19.103 Y-30.936
X19.134 Y-30.912
X19.16 Y-30.883
G3 X16.854 Y-29.209 Z-9.256 I-1.153 J0.837 F333.3
X19.16 Y-30.883 Z-9.413 I1.153 J-0.837
X16.854 Y-29.209 Z-9.569 I-1.153 J0.837
X19.16 Y-30.883 Z-9.725 I1.153 J-0.837
X18.923 Y-28.954 Z-9.8 I-1.153 J0.837
X17.905 Y-28.893 I-0.551 J-0.656 F1000
X17.562 Y-29.853 I0.459 J-0.706
G1 X17.588 Y-29.948
X17.614 Y-30.042
G3 X18.079 Y-30.433 I0.53 J0.16
G1 X18.177 Y-30.442
X18.275 Y-30.451
G3 X19.161 Y-29.946 I0.111 J0.834
X18.923 Y-28.954 I-0.789 J0.335
G2 X18.303 Y-27.461 I1.128 J1.344
G3 X16.979 Y-26.532 I-0.932 J0.08
X15.179 Y-30.609 I1.411 J-3.058
G2 X15.419 Y-31.597 I-6.93 J-2.199
X15.562 Y-32.604 I-19.378 J-3.273
G3 X15.913 Y-32.898 I0.331 J0.038
G2 X16.929 Y-32.865 I1.157 J-19.618
X17.944 Y-32.929 I0.052 J-7.271
G3 X18.836 Y-26.252 I0.446 J3.338
X16.979 Y-26.532 I-0.446 J-3.338
G2 X15.19 Y-26.36 I-0.747 J1.619
G3 X13.434 Y-26.739 I-0.707 J-0.982
X12.94 Y-31.32 I4.956 J-2.851
G2 X13.3 Y-33.504 I-7.337 J-2.329
X13.066 Y-35.705 I-8.911 J-0.167
G3 X13.292 Y-35.895 I0.161 J-0.038
G2 X15.419 Y-35.283 I3.51 J-8.192
X17.633 Y-35.257 I1.194 J-7.605
G3 X19.147 Y-23.923 I0.757 J5.667
X13.434 Y-26.739 I-0.757 J-5.667
G2 X12.072 Y-27.477 I-1.281 J0.737
G3 X10.87 Y-28.455 I-0.063 J-1.15
X11.141 Y-31.891 I7.52 J-1.135
G2 X11.393 Y-34.391 I-5.83 J-1.85
X10.658 Y-36.795 I-6.613 J0.707
G3 X10.605 Y-37.571 I0.846 J-0.448
G2 X10.801 Y-38.211 I-5.963 J-2.18
G3 X11.218 Y-38.56 I0.449 J0.112
G2 X11.881 Y-38.643 I-0.448 J-6.334
G3 X12.637 Y-38.456 I0.168 J0.943
G2 X14.877 Y-37.315 I4.084 J-5.249
X17.383 Y-37.129 I1.697 J-5.876
G3 X19.397 Y-22.052 I1.007 J7.538
X10.87 Y-28.455 I-1.007 J-7.538
G2 X9.576 Y-29.983 I-1.884 J0.284
G3 X8.581 Y-31.718 I0.463 J-1.419
X8.823 Y-32.626 I9.809 J2.128
G2 X8.92 Y-34.588 I-3.674 J-1.166
X8.06 Y-36.355 I-3.961 J0.836
X7.871 Y-36.566 I-3.477 J2.918
G3 X7.682 Y-36.777 I3.288 J-3.129
X7.679 Y-37.277 I0.301 J-0.252
G2 X8.55 Y-40.018 I-3.037 J-2.474
G3 X8.833 Y-40.684 I0.796 J-0.054
G1 X9.124 Y-40.928
G3 X9.829 Y-41.091 I0.513 J0.612
G2 X12.679 Y-41.473 I0.941 J-3.803
G3 X13.171 Y-41.383 I0.191 J0.343
X13.346 Y-41.16 I-3.478 J2.918
G2 X13.522 Y-40.937 I3.653 J-2.695
X15.112 Y-39.784 I3.101 J-2.602
X17.061 Y-39.539 I1.439 J-3.576
G3 X19.719 Y-19.641 I1.329 J9.949
X8.581 Y-31.718 I-1.329 J-9.949
G2 X7.508 Y-33.995 I-2.021 J-0.439
G3 X5.542 Y-35.567 I2.931 J-5.681
G1 X4.074 Y-37.317
X5.606 Y-38.603
G2 X5.791 Y-40.716 I-0.964 J-1.149
G1 X5.51 Y-41.051
X9.34 Y-44.265
X9.621 Y-43.93
G2 X11.734 Y-43.745 I1.149 J-0.964
G1 X13.266 Y-45.031
X15.387 Y-42.503
G2 X16.735 Y-41.98 I1.149 J-0.964
G3 X20.045 Y-17.2 I1.655 J12.39
X6.475 Y-33.371 I-1.655 J-12.39
G2 X6.195 Y-34.789 I-1.43 J-0.454
G1 X5.542 Y-35.567
G3 X5.765 Y-35.883 I0.153 J-0.129
G1 X19.068 Y-30.953
X19.103 Y-30.936
X19.134 Y-30.912
X19.16 Y-30.883
G3 X16.854 Y-29.209 Z-9.956 I-1.153 J0.837 F333.3
X19.16 Y-30.883 Z-10.113 I1.153 J-0.837
X16.854 Y-29.209 Z-10.269 I-1.153 J0.837
X19.16 Y-30.883 Z-10.425 I1.153 J-0.837
X18.923 Y-28.954 Z-10.5 I-1.153 J0.837
X17.905 Y-28.893 I-0.551 J-0.656 F1000
X17.562 Y-29.853 I0.459 J-0.706
G1 X17.588 Y-29.948
X17.614 Y-30.042
G3 X18.079 Y-30.433 I0.53 J0.16
G1 X18.177 Y-30.442
X18.275 Y-30.451
G3 X19.161 Y-29.946 I0.111 J0.834
X18.923 Y-28.954 I-0.789 J0.335
G2 X18.303 Y-27.461 I1.128 J1.344
G3 X16.979 Y-26.532 I-0.932 J0.08
X15.179 Y-30.609 I1.411 J-3.058
G2 X15.419 Y-31.597 I-6.93 J-2.199
X15.562 Y-32.604 I-19.378 J-3.273
G3 X15.913 Y-32.898 I0.331 J0.038
G2 X16.929 Y-32.865 I1.157 J-19.618
X17.944 Y-32.929 I0.052 J-7.271
G3 X18.836 Y-26.252 I0.446 J3.338
X16.979 Y-26.532 I-0.446 J-3.338
G2 X15.19 Y-26.36 I-0.747 J1.619
G3 X13.434 Y-26.739 I-0.707 J-0.982
X12.94 Y-31.32 I4.956 J-2.851
G2 X13.3 Y-33.504 I-7.337 J-2.329
X13.066 Y-35.705 I-8.911 J-0.167
G3 X13.292 Y-35.895 I0.161 J-0.038
G2 X15.419 Y-35.283 I3.51 J-8.192
X17.633 Y-35.257 I1.194 J-7.605
G3 X19.147 Y-23.923 I0.757 J5.667
X13.434 Y-26.739 I-0.757 J-5.667
G2 X12.072 Y-27.477 I-1.281 J0.737
G3 X10.87 Y-28.455 I-0.063 J-1.15
X11.141 Y-31.891 I7.52 J-1.135
G2 X11.393 Y-34.391 I-5.83 J-1.85
X10.658 Y-36.795 I-6.613 J0.707
G3 X10.605 Y-37.571 I0.846 J-0.448
G2 X10.801 Y-38.211 I-5.963 J-2.18
G3 X11.218 Y-38.56 I0.449 J0.112
G2 X11.881 Y-38.643 I-0.448 J-6.334
G3 X12.637 Y-38.456 I0.168 J0.943
G2 X14.877 Y-37.315 I4.084 J-5.249
X17.383 Y-37.129 I1.697 J-5.876
G3 X19.397 Y-22.052 I1.007 J7.538
X10.87 Y-28.455 I-1.007 J-7.538
G2 X9.576 Y-29.983 I-1.884 J0.284
G3 X8.581 Y-31.718 I0.463 J-1.419
X8.823 Y-32.626 I9.809 J2.128
G2 X8.92 Y-34.588 I-3.674 J-1.166
X8.06 Y-36.355 I-3.961 J0.836
X7.871 Y-36.566 I-3.477 J2.918
G3 X7.682 Y-36.777 I3.288 J-3.129
X7.679 Y-37.277 I0.301 J-0.252
G2 X8.55 Y-40.018 I-3.037 J-2.474
G3 X8.833 Y-40.684 I0.796 J-0.054
G1 X9.124 Y-40.928
G3 X9.829 Y-41.091 I0.513 J0.612
G2 X12.679 Y-41.473 I0.941 J-3.803
G3 X13.171 Y-41.383 I0.191 J0.343
X13.346 Y-41.16 I-3.478 J2.918
G2 X13.522 Y-40.937 I3.653 J-2.695
X15.112 Y-39.784 I3.101 J-2.602
X17.061 Y-39.539 I1.439 J-3.576
G3 X19.719 Y-19.641 I1.329 J9.949
X8.581 Y-31.718 I-1.329 J-9.949
G2 X7.508 Y-33.995 I-2.021 J-0.439
G3 X5.542 Y-35.567 I2.931 J-5.681
G1 X4.074 Y-37.317
X5.606 Y-38.603
G2 X5.791 Y-40.716 I-0.964 J-1.149
G1 X5.51 Y-41.051
X9.34 Y-44.265
X9.621 Y-43.93
G2 X11.734 Y-43.745 I1.149 J-0.964
G1 X13.266 Y-45.031
X15.387 Y-42.503
G2 X16.735 Y-41.98 I1.149 J-0.964
G3 X20.045 Y-17.2 I1.655 J12.39
X6.475 Y-33.371 I-1.655 J-12.39
G2 X6.195 Y-34.789 I-1.43 J-0.454
G1 X5.542 Y-35.567
G3 X5.765 Y-35.883 I0.153 J-0.129
G1 X19.068 Y-30.953
X19.103 Y-30.936
X19.134 Y-30.912
X19.16 Y-30.883
G3 X16.854 Y-29.209 Z-10.656 I-1.153 J0.837 F333.3
X19.16 Y-30.883 Z-10.813 I1.153 J-0.837
X16.854 Y-29.209 Z-10.969 I-1.153 J0.837
X19.16 Y-30.883 Z-11.125 I1.153 J-0.837
X18.923 Y-28.954 Z-11.2 I-1.153 J0.837
X17.905 Y-28.893 I-0.551 J-0.656 F1000
X17.562 Y-29.853 I0.459 J-0.706
G1 X17.588 Y-29.948
X17.614 Y-30.042
G3 X18.079 Y-30.433 I0.53 J0.16
G1 X18.177 Y-30.442
X18.275 Y-30.451
G3 X19.161 Y-29.946 I0.111 J0.834
X18.923 Y-28.954 I-0.789 J0.335
G2 X18.303 Y-27.461 I1.128 J1.344
G3 X16.979 Y-26.532 I-0.932 J0.08
X15.179 Y-30.609 I1.411 J-3.058
G2 X15.419 Y-31.597 I-6.93 J-2.199
X15.562 Y-32.604 I-19.378 J-3.273
G3 X15.913 Y-32.898 I0.331 J0.038
G2 X16.929 Y-32.865 I1.157 J-19.618
X17.944 Y-32.929 I0.052 J-7.271
G3 X18.836 Y-26.252 I0.446 J3.338
X16.979 Y-26.532 I-0.446 J-3.338
G2 X15.19 Y-26.36 I-0.747 J1.619
G3 X13.434 Y-26.739 I-0.707 J-0.982
X12.94 Y-31.32 I4.956 J-2.851
G2 X13.3 Y-33.504 I-7.337 J-2.329
X13.066 Y-35.705 I-8.911 J-0.167
G3 X13.292 Y-35.895 I0.161 J-0.038
G2 X15.419 Y-35.283 I3.51 J-8.192
X17.633 Y-35.257 I1.194 J-7.605
G3 X19.147 Y-23.923 I0.757 J5.667
X13.434 Y-26.739 I-0.757 J-5.667
G2 X12.072 Y-27.477 I-1.281 J0.737
G3 X10.87 Y-28.455 I-0.063 J-1.15
X11.141 Y-31.891 I7.52 J-1.135
G2 X11.393 Y-34.391 I-5.83 J-1.85
X10.658 Y-36.795 I-6.613 J0.707
G3 X10.605 Y-37.571 I0.846 J-0.448
G2 X10.801 Y-38.211 I-5.963 J-2.18
G3 X11.218 Y-38.56 I0.449 J0.112
G2 X11.881 Y-38.643 I-0.448 J-6.334
G3 X12.637 Y-38.456 I0.168 J0.943
G2 X14.877 Y-37.315 I4.084 J-5.249
X17.383 Y-37.129 I1.697 J-5.876
G3 X19.397 Y-22.052 I1.007 J7.538
X10.87 Y-28.455 I-1.007 J-7.538
G2 X9.576 Y-29.983 I-1.884 J0.284
G3 X8.581 Y-31.718 I0.463 J-1.419
X8.823 Y-32.626 I9.809 J2.128
G2 X8.92 Y-34.588 I-3.674 J-1.166
X8.06 Y-36.355 I-3.961 J0.836
X7.871 Y-36.566 I-3.477 J2.918
G3 X7.682 Y-36.777 I3.288 J-3.129
X7.679 Y-37.277 I0.301 J-0.252
G2 X8.55 Y-40.018 I-3.037 J-2.474
G3 X8.833 Y-40.684 I0.796 J-0.054
G1 X9.124 Y-40.928
G3 X9.829 Y-41.091 I0.513 J0.612
G2 X12.679 Y-41.473 I0.941 J-3.803
G3 X13.171 Y-41.383 I0.191 J0.343
X13.346 Y-41.16 I-3.478 J2.918
G2 X13.522 Y-40.937 I3.653 J-2.695
X15.112 Y-39.784 I3.101 J-2.602
X17.061 Y-39.539 I1.439 J-3.576
G3 X19.719 Y-19.641 I1.329 J9.949
X8.581 Y-31.718 I-1.329 J-9.949
G2 X7.508 Y-33.995 I-2.021 J-0.439
G3 X5.542 Y-35.567 I2.931 J-5.681
G1 X4.074 Y-37.317
X5.606 Y-38.603
G2 X5.791 Y-40.716 I-0.964 J-1.149
G1 X5.51 Y-41.051
X9.34 Y-44.265
X9.621 Y-43.93
G2 X11.734 Y-43.745 I1.149 J-0.964
G1 X13.266 Y-45.031
X15.387 Y-42.503
G2 X16.735 Y-41.98 I1.149 J-0.964
G3 X20.045 Y-17.2 I1.655 J12.39
X6.475 Y-33.371 I-1.655 J-12.39
G2 X6.195 Y-34.789 I-1.43 J-0.454
G1 X5.542 Y-35.567
G3 X5.765 Y-35.883 I0.153 J-0.129
G1 X19.068 Y-30.953
X19.103 Y-30.936
X19.134 Y-30.912
X19.16 Y-30.883
G3 X16.854 Y-29.209 Z-11.356 I-1.153 J0.837 F333.3
X19.16 Y-30.883 Z-11.513 I1.153 J-0.837
X16.854 Y-29.209 Z-11.669 I-1.153 J0.837
X19.16 Y-30.883 Z-11.825 I1.153 J-0.837
X18.923 Y-28.954 Z-11.9 I-1.153 J0.837
X17.905 Y-28.893 I-0.551 J-0.656 F1000
X17.562 Y-29.853 I0.459 J-0.706
G1 X17.588 Y-29.948
X17.614 Y-30.042
G3 X18.079 Y-30.433 I0.53 J0.16
G1 X18.177 Y-30.442
X18.275 Y-30.451
G3 X19.161 Y-29.946 I0.111 J0.834
X18.923 Y-28.954 I-0.789 J0.335
G2 X18.303 Y-27.461 I1.128 J1.344
G3 X16.979 Y-26.532 I-0.932 J0.08
X15.179 Y-30.609 I1.411 J-3.058
G2 X15.419 Y-31.597 I-6.93 J-2.199
X15.562 Y-32.604 I-19.378 J-3.273
G3 X15.913 Y-32.898 I0.331 J0.038
G2 X16.929 Y-32.865 I1.157 J-19.618
X17.944 Y-32.929 I0.052 J-7.271
G3 X18.836 Y-26.252 I0.446 J3.338
X16.979 Y-26.532 I-0.446 J-3.338
G2 X15.19 Y-26.36 I-0.747 J1.619
G3 X13.434 Y-26.739 I-0.707 J-0.982
X12.94 Y-31.32 I4.956 J-2.851
G2 X13.3 Y-33.504 I-7.337 J-2.329
X13.066 Y-35.705 I-8.911 J-0.167
G3 X13.292 Y-35.895 I0.161 J-0.038
G2 X15.419 Y-35.283 I3.51 J-8.192
X17.633 Y-35.257 I1.194 J-7.605
G3 X19.147 Y-23.923 I0.757 J5.667
X13.434 Y-26.739 I-0.757 J-5.667
G2 X12.072 Y-27.477 I-1.281 J0.737
G3 X10.87 Y-28.455 I-0.063 J-1.15
X11.141 Y-31.891 I7.52 J-1.135
G2 X11.393 Y-34.391 I-5.83 J-1.85
X10.658 Y-36.795 I-6.613 J0.707
G3 X10.605 Y-37.571 I0.846 J-0.448
G2 X10.801 Y-38.211 I-5.963 J-2.18
G3 X11.218 Y-38.56 I0.449 J0.112
G2 X11.881 Y-38.643 I-0.448 J-6.334
G3 X12.637 Y-38.456 I0.168 J0.943
G2 X14.877 Y-37.315 I4.084 J-5.249
X17.383 Y-37.129 I1.697 J-5.876
G3 X19.397 Y-22.052 I1.007 J7.538
X10.87 Y-28.455 I-1.007 J-7.538
G2 X9.576 Y-29.983 I-1.884 J0.284
G3 X8.581 Y-31.718 I0.463 J-1.419
X8.823 Y-32.626 I9.809 J2.128
G2 X8.92 Y-34.588 I-3.674 J-1.166
X8.06 Y-36.355 I-3.961 J0.836
X7.871 Y-36.566 I-3.477 J2.918
G3 X7.682 Y-36.777 I3.288 J-3.129
X7.679 Y-37.277 I0.301 J-0.252
G2 X8.55 Y-40.018 I-3.037 J-2.474
G3 X8.833 Y-40.684 I0.796 J-0.054
G1 X9.124 Y-40.928
G3 X9.829 Y-41.091 I0.513 J0.612
G2 X12.679 Y-41.473 I0.941 J-3.803
G3 X13.171 Y-41.383 I0.191 J0.343
X13.346 Y-41.16 I-3.478 J2.918
G2 X13.522 Y-40.937 I3.653 J-2.695
X15.112 Y-39.784 I3.101 J-2.602
X17.061 Y-39.539 I1.439 J-3.576
G3 X19.719 Y-19.641 I1.329 J9.949
X8.581 Y-31.718 I-1.329 J-9.949
G2 X7.508 Y-33.995 I-2.021 J-0.439
G3 X5.542 Y-35.567 I2.931 J-5.681
G1 X4.074 Y-37.317
X5.606 Y-38.603
G2 X5.791 Y-40.716 I-0.964 J-1.149
G1 X5.51 Y-41.051
X9.34 Y-44.265
X9.621 Y-43.93
G2 X11.734 Y-43.745 I1.149 J-0.964
G1 X13.266 Y-45.031
X15.387 Y-42.503
G2 X16.735 Y-41.98 I1.149 J-0.964
G3 X20.045 Y-17.2 I1.655 J12.39
X6.475 Y-33.371 I-1.655 J-12.39
G2 X6.195 Y-34.789 I-1.43 J-0.454
G1 X5.542 Y-35.567
G3 X5.765 Y-35.883 I0.153 J-0.129
G1 X19.068 Y-30.953
X19.103 Y-30.936
X19.134 Y-30.912
X19.16 Y-30.883
G3 X16.854 Y-29.209 Z-12.056 I-1.153 J0.837 F333.3
X19.16 Y-30.883 Z-12.213 I1.153 J-0.837
X16.854 Y-29.209 Z-12.369 I-1.153 J0.837
X19.16 Y-30.883 Z-12.525 I1.153 J-0.837
X18.923 Y-28.954 Z-12.6 I-1.153 J0.837
X17.905 Y-28.893 I-0.551 J-0.656 F1000
X17.562 Y-29.853 I0.459 J-0.706
G1 X17.588 Y-29.948
X17.614 Y-30.042
G3 X18.079 Y-30.433 I0.53 J0.16
G1 X18.177 Y-30.442
X18.275 Y-30.451
G3 X19.161 Y-29.946 I0.111 J0.834
X18.923 Y-28.954 I-0.789 J0.335
G2 X18.303 Y-27.461 I1.128 J1.344
G3 X16.979 Y-26.532 I-0.932 J0.08
X15.179 Y-30.609 I1.411 J-3.058
G2 X15.419 Y-31.597 I-6.93 J-2.199
X15.562 Y-32.604 I-19.378 J-3.273
G3 X15.913 Y-32.898 I0.331 J0.038
G2 X16.929 Y-32.865 I1.157 J-19.618
X17.944 Y-32.929 I0.052 J-7.271
G3 X18.836 Y-26.252 I0.446 J3.338
X16.979 Y-26.532 I-0.446 J-3.338
G2 X15.19 Y-26.36 I-0.747 J1.619
G3 X13.434 Y-26.739 I-0.707 J-0.982
X12.94 Y-31.32 I4.956 J-2.851
G2 X13.3 Y-33.504 I-7.337 J-2.329
X13.066 Y-35.705 I-8.911 J-0.167
G3 X13.292 Y-35.895 I0.161 J-0.038
G2 X15.419 Y-35.283 I3.51 J-8.192
X17.633 Y-35.257 I1.194 J-7.605
G3 X19.147 Y-23.923 I0.757 J5.667
X13.434 Y-26.739 I-0.757 J-5.667
G2 X12.072 Y-27.477 I-1.281 J0.737
G3 X10.87 Y-28.455 I-0.063 J-1.15
X11.141 Y-31.891 I7.52 J-1.135
G2 X11.393 Y-34.391 I-5.83 J-1.85
X10.658 Y-36.795 I-6.613 J0.707
G3 X10.605 Y-37.571 I0.846 J-0.448
G2 X10.801 Y-38.211 I-5.963 J-2.18
G3 X11.218 Y-38.56 I0.449 J0.112
G2 X11.881 Y-38.643 I-0.448 J-6.334
G3 X12.637 Y-38.456 I0.168 J0.943
G2 X14.877 Y-37.315 I4.084 J-5.249
X17.383 Y-37.129 I1.697 J-5.876
G3 X19.397 Y-22.052 I1.007 J7.538
X10.87 Y-28.455 I-1.007 J-7.538
G2 X9.576 Y-29.983 I-1.884 J0.284
G3 X8.581 Y-31.718 I0.463 J-1.419
X8.823 Y-32.626 I9.809 J2.128
G2 X8.92 Y-34.588 I-3.674 J-1.166
X8.06 Y-36.355 I-3.961 J0.836
X7.871 Y-36.566 I-3.477 J2.918
G3 X7.682 Y-36.777 I3.288 J-3.129
X7.679 Y-37.277 I0.301 J-0.252
G2 X8.55 Y-40.018 I-3.037 J-2.474
G3 X8.833 Y-40.684 I0.796 J-0.054
G1 X9.124 Y-40.928
G3 X9.829 Y-41.091 I0.513 J0.612
G2 X12.679 Y-41.473 I0.941 J-3.803
G3 X13.171 Y-41.383 I0.191 J0.343
X13.346 Y-41.16 I-3.478 J2.918
G2 X13.522 Y-40.937 I3.653 J-2.695
X15.112 Y-39.784 I3.101 J-2.602
X17.061 Y-39.539 I1.439 J-3.576
G3 X19.719 Y-19.641 I1.329 J9.949
X8.581 Y-31.718 I-1.329 J-9.949
G2 X7.508 Y-33.995 I-2.021 J-0.439
G3 X5.542 Y-35.567 I2.931 J-5.681
G1 X4.074 Y-37.317
X5.606 Y-38.603
G2 X5.791 Y-40.716 I-0.964 J-1.149
G1 X5.51 Y-41.051
X9.34 Y-44.265
X9.621 Y-43.93
G2 X11.734 Y-43.745 I1.149 J-0.964
G1 X13.266 Y-45.031
X15.387 Y-42.503
G2 X16.735 Y-41.98 I1.149 J-0.964
G3 X20.045 Y-17.2 I1.655 J12.39
X6.475 Y-33.371 I-1.655 J-12.39
G2 X6.195 Y-34.789 I-1.43 J-0.454
G1 X5.542 Y-35.567
G3 X5.765 Y-35.883 I0.153 J-0.129
G1 X19.068 Y-30.953
X19.103 Y-30.936
X19.134 Y-30.912
X19.16 Y-30.883
G3 X16.854 Y-29.209 Z-12.756 I-1.153 J0.837 F333.3
X19.16 Y-30.883 Z-12.913 I1.153 J-0.837
X16.854 Y-29.209 Z-13.069 I-1.153 J0.837
X19.16 Y-30.883 Z-13.225 I1.153 J-0.837
X18.923 Y-28.954 Z-13.3 I-1.153 J0.837
X17.905 Y-28.893 I-0.551 J-0.656 F1000
X17.562 Y-29.853 I0.459 J-0.706
G1 X17.588 Y-29.948
X17.614 Y-30.042
G3 X18.079 Y-30.433 I0.53 J0.16
G1 X18.177 Y-30.442
X18.275 Y-30.451
G3 X19.161 Y-29.946 I0.111 J0.834
X18.923 Y-28.954 I-0.789 J0.335
G2 X18.303 Y-27.461 I1.128 J1.344
G3 X16.979 Y-26.532 I-0.932 J0.08
X15.179 Y-30.609 I1.411 J-3.058
G2 X15.419 Y-31.597 I-6.93 J-2.199
X15.562 Y-32.604 I-19.378 J-3.273
G3 X15.913 Y-32.898 I0.331 J0.038
G2 X16.929 Y-32.865 I1.157 J-19.618
X17.944 Y-32.929 I0.052 J-7.271
G3 X18.836 Y-26.252 I0.446 J3.338
X16.979 Y-26.532 I-0.446 J-3.338
G2 X15.19 Y-26.36 I-0.747 J1.619
G3 X13.434 Y-26.739 I-0.707 J-0.982
X12.94 Y-31.32 I4.956 J-2.851
G2 X13.3 Y-33.504 I-7.337 J-2.329
X13.066 Y-35.705 I-8.911 J-0.167
G3 X13.292 Y-35.895 I0.161 J-0.038
G2 X15.419 Y-35.283 I3.51 J-8.192
X17.633 Y-35.257 I1.194 J-7.605
G3 X19.147 Y-23.923 I0.757 J5.667
X13.434 Y-26.739 I-0.757 J-5.667
G2 X12.072 Y-27.477 I-1.281 J0.737
G3 X10.87 Y-28.455 I-0.063 J-1.15
X11.141 Y-31.891 I7.52 J-1.135
G2 X11.393 Y-34.391 I-5.83 J-1.85
X10.658 Y-36.795 I-6.613 J0.707
G3 X10.605 Y-37.571 I0.846 J-0.448
G2 X10.801 Y-38.211 I-5.963 J-2.18
G3 X11.218 Y-38.56 I0.449 J0.112
G2 X11.881 Y-38.643 I-0.448 J-6.334
G3 X12.637 Y-38.456 I0.168 J0.943
G2 X14.877 Y-37.315 I4.084 J-5.249
X17.383 Y-37.129 I1.697 J-5.876
G3 X19.397 Y-22.052 I1.007 J7.538
X10.87 Y-28.455 I-1.007 J-7.538
G2 X9.576 Y-29.983 I-1.884 J0.284
G3 X8.581 Y-31.718 I0.463 J-1.419
X8.823 Y-32.626 I9.809 J2.128
G2 X8.92 Y-34.588 I-3.674 J-1.166
X8.06 Y-36.355 I-3.961 J0.836
X7.871 Y-36.566 I-3.477 J2.918
G3 X7.682 Y-36.777 I3.288 J-3.129
X7.679 Y-37.277 I0.301 J-0.252
G2 X8.55 Y-40.018 I-3.037 J-2.474
G3 X8.833 Y-40.684 I0.796 J-0.054
G1 X9.124 Y-40.928
G3 X9.829 Y-41.091 I0.513 J0.612
G2 X12.679 Y-41.473 I0.941 J-3.803
G3 X13.171 Y-41.383 I0.191 J0.343
X13.346 Y-41.16 I-3.478 J2.918
G2 X13.522 Y-40.937 I3.653 J-2.695
X15.112 Y-39.784 I3.101 J-2.602
X17.061 Y-39.539 I1.439 J-3.576
G3 X19.719 Y-19.641 I1.329 J9.949
X8.581 Y-31.718 I-1.329 J-9.949
G2 X7.508 Y-33.995 I-2.021 J-0.439
G3 X5.542 Y-35.567 I2.931 J-5.681
G1 X4.074 Y-37.317
X5.606 Y-38.603
G2 X5.791 Y-40.716 I-0.964 J-1.149
G1 X5.51 Y-41.051
X9.34 Y-44.265
X9.621 Y-43.93
G2 X11.734 Y-43.745 I1.149 J-0.964
G1 X13.266 Y-45.031
X15.387 Y-42.503
G2 X16.735 Y-41.98 I1.149 J-0.964
G3 X20.045 Y-17.2 I1.655 J12.39
X6.475 Y-33.371 I-1.655 J-12.39
G2 X6.195 Y-34.789 I-1.43 J-0.454
G1 X5.542 Y-35.567
G0 Z4
X-18.952 Y-28.979
Z2
G1 Z1.8 F1000
G3 X-17.063 Y-31.113 Z1.644 I0.945 J-1.067 F333.3
X-18.952 Y-28.979 Z1.487 I-0.945 J1.067
X-17.063 Y-31.113 Z1.331 I0.945 J-1.067
X-18.952 Y-28.979 Z1.175 I-0.945 J1.067
X-17.063 Y-31.113 Z1.018 I0.945 J-1.067
X-18.952 Y-28.979 Z0.862 I-0.945 J1.067
X-17.063 Y-31.113 Z0.706 I0.945 J-1.067
X-18.952 Y-28.979 Z0.549 I-0.945 J1.067
X-17.063 Y-31.113 Z0.393 I0.945 J-1.067
X-18.952 Y-28.979 Z0.237 I-0.945 J1.067
X-17.063 Y-31.113 Z0.08 I0.945 J-1.067
X-18.952 Y-28.979 Z-0.076 I-0.945 J1.067
X-17.063 Y-31.113 Z-0.232 I0.945 J-1.067
X-18.952 Y-28.979 Z-0.389 I-0.945 J1.067
X-17.063 Y-31.113 Z-0.545 I0.945 J-1.067
X-18.923 Y-28.954 Z-0.7 I-0.945 J1.067
X-19.161 Y-29.946 I0.551 J-0.656 F1000
X-18.275 Y-30.451 I0.775 J0.33
G1 X-18.177 Y-30.442
X-18.079 Y-30.433
G3 X-17.614 Y-30.042 I-0.065 J0.55
G1 X-17.588 Y-29.948
X-17.562 Y-29.853
G3 X-17.905 Y-28.893 I-0.802 J0.255
X-18.923 Y-28.954 I-0.467 J-0.718
G2 X-20.502 Y-29.306 I-1.128 J1.344
G3 X-21.647 Y-30.449 I-0.24 J-0.904
X-17.944 Y-32.929 I3.257 J0.859
G2 X-16.929 Y-32.865 I0.963 J-7.207
X-15.913 Y-32.898 I-0.141 J-19.652
G3 X-15.562 Y-32.604 I0.02 J0.333
G2 X-15.419 Y-31.597 I19.521 J-2.267
X-15.179 Y-30.609 I7.169 J-1.211
G3 X-21.6 Y-28.571 I-3.21 J1.019
X-21.647 Y-30.449 I3.21 J-1.019
G2 X-22.126 Y-32.18 I-1.724 J-0.454
G3 X-22.058 Y-33.975 I0.845 J-0.867
X-17.633 Y-35.257 I3.669 J4.385
G2 X-15.419 Y-35.283 I1.019 J-7.63
X-13.292 Y-35.895 I-1.383 J-8.805
G3 X-13.066 Y-35.705 I0.065 J0.152
G2 X-13.3 Y-33.504 I8.677 J2.034
X-12.94 Y-31.32 I7.696 J-0.144
G3 X-23.839 Y-27.861 I-5.45 J1.729
X-22.058 Y-33.975 I5.45 J-1.729
G2 X-21.568 Y-35.445 I-0.948 J-1.134
G3 X-20.813 Y-36.799 I1.121 J-0.262
X-17.383 Y-37.129 I2.423 J7.209
G2 X-14.877 Y-37.315 I0.81 J-6.063
X-12.637 Y-38.456 I-1.845 J-6.39
G3 X-11.881 Y-38.643 I0.588 J0.756
G2 X-11.218 Y-38.56 I1.112 J-6.252
G3 X-10.801 Y-38.211 I-0.033 J0.462
G2 X-10.605 Y-37.571 I6.16 J-1.541
G3 X-10.658 Y-36.795 I-0.899 J0.329
G2 X-11.393 Y-34.391 I5.879 J3.111
X-11.141 Y-31.891 I6.082 J0.65
G3 X-25.639 Y-27.289 I-7.249 J2.301
X-20.813 Y-36.799 I7.249 J-2.301
G2 X-19.534 Y-38.338 I-0.607 J-1.806
G3 X-17.997 Y-39.62 I1.478 J0.21
X-17.061 Y-39.539 I-0.393 J10.03
G2 X-15.112 Y-39.784 I0.51 J-3.821
X-13.522 Y-40.937 I-1.511 J-3.756
X-13.346 Y-41.16 I-3.478 J-2.918
G3 X-13.171 Y-41.383 I3.653 J2.695
X-12.679 Y-41.473 I0.301 J0.252
G2 X-9.829 Y-41.091 I1.909 J-3.421
G3 X-9.124 Y-40.928 I0.192 J0.775
G1 X-8.833 Y-40.684
G3 X-8.55 Y-40.018 I-0.513 J0.612
G2 X-7.679 Y-37.277 I3.909 J0.266
G3 X-7.682 Y-36.777 I-0.304 J0.248
X-7.871 Y-36.566 I-3.477 J-2.918
G2 X-8.06 Y-36.355 I3.288 J3.129
X-8.92 Y-34.588 I3.101 J2.602
X-8.823 Y-32.626 I3.772 J0.796
G3 X-27.957 Y-26.554 I-9.567 J3.036
X-17.997 Y-39.62 I9.567 J-3.036
G2 X-15.941 Y-41.072 I0.081 J-2.067
G3 X-14.735 Y-43.28 I6.103 J1.9
G1 X-13.266 Y-45.031
X-11.734 Y-43.745
G2 X-9.621 Y-43.93 I0.964 J-1.149
G1 X-9.34 Y-44.265
X-5.51 Y-41.051
X-5.791 Y-40.716
G2 X-5.606 Y-38.603 I1.149 J0.964
G1 X-4.074 Y-37.317
X-6.195 Y-34.789
G2 X-6.475 Y-33.371 I1.149 J0.964
G3 X-30.304 Y-25.809 I-11.914 J3.781
X-16.735 Y-41.98 I11.914 J-3.781
G2 X-15.387 Y-42.503 I0.199 J-1.487
G1 X-14.735 Y-43.28
G3 X-14.385 Y-43.116 I0.153 J0.129
G1 X-16.93 Y-29.159
X-16.94 Y-29.121
X-16.958 Y-29.086
X-16.983 Y-29.056
G3 X-19.032 Y-31.036 Z-0.856 I-1.025 J-0.99 F333.3
X-16.983 Y-29.056 Z-1.013 I1.025 J0.99
X-19.032 Y-31.036 Z-1.169 I-1.025 J-0.99
X-16.983 Y-29.056 Z-1.325 I1.025 J0.99
X-18.923 Y-28.954 Z-1.4 I-1.025 J-0.99
X-19.161 Y-29.946 I0.551 J-0.656 F1000
X-18.275 Y-30.451 I0.775 J0.33
G1 X-18.177 Y-30.442
X-18.079 Y-30.433
G3 X-17.614 Y-30.042 I-0.065 J0.55
G1 X-17.588 Y-29.948
X-17.562 Y-29.853
G3 X-17.905 Y-28.893 I-0.802 J0.255
X-18.923 Y-28.954 I-0.467 J-0.718
G2 X-20.502 Y-29.306 I-1.128 J1.344
G3 X-21.647 Y-30.449 I-0.24 J-0.904
X-17.944 Y-32.929 I3.257 J0.859
G2 X-16.929 Y-32.865 I0.963 J-7.207
X-15.913 Y-32.898 I-0.141 J-19.652
G3 X-15.562 Y-32.604 I0.02 J0.333
G2 X-15.419 Y-31.597 I19.521 J-2.267
X-15.179 Y-30.609 I7.169 J-1.211
G3 X-21.6 Y-28.571 I-3.21 J1.019
X-21.647 Y-30.449 I3.21 J-1.019
G2 X-22.126 Y-32.18 I-1.724 J-0.454
G3 X-22.058 Y-33.975 I0.845 J-0.867
X-17.633 Y-35.257 I3.669 J4.385
G2 X-15.419 Y-35.283 I1.019 J-7.63
X-13.292 Y-35.895 I-1.383 J-8.805
G3 X-13.066 Y-35.705 I0.065 J0.152
G2 X-13.3 Y-33.504 I8.677 J2.034
X-12.94 Y-31.32 I7.696 J-0.144
G3 X-23.839 Y-27.861 I-5.45 J1.729
X-22.058 Y-33.975 I5.45 J-1.729
G2 X-21.568 Y-35.445 I-0.948 J-1.134
G3 X-20.813 Y-36.799 I1.121 J-0.262
X-17.383 Y-37.129 I2.423 J7.209
G2 X-14.877 Y-37.315 I0.81 J-6.063
X-12.637 Y-38.456 I-1.845 J-6.39
G3 X-11.881 Y-38.643 I0.588 J0.756
G2 X-11.218 Y-38.56 I1.112 J-6.252
G3 X-10.801 Y-38.211 I-0.033 J0.462
G2 X-10.605 Y-37.571 I6.16 J-1.541
G3 X-10.658 Y-36.795 I-0.899 J0.329
G2 X-11.393 Y-34.391 I5.879 J3.111
X-11.141 Y-31.891 I6.082 J0.65
G3 X-25.639 Y-27.289 I-7.249 J2.301
X-20.813 Y-36.799 I7.249 J-2.301
G2 X-19.534 Y-38.338 I-0.607 J-1.806
G3 X-17.997 Y-39.62 I1.478 J0.21
X-17.061 Y-39.539 I-0.393 J10.03
G2 X-15.112 Y-39.784 I0.51 J-3.821
X-13.522 Y-40.937 I-1.511 J-3.756
X-13.346 Y-41.16 I-3.478 J-2.918
G3 X-13.171 Y-41.383 I3.653 J2.695
X-12.679 Y-41.473 I0.301 J0.252
G2 X-9.829 Y-41.091 I1.909 J-3.421
G3 X-9.124 Y-40.928 I0.192 J0.775
G1 X-8.833 Y-40.684
G3 X-8.55 Y-40.018 I-0.513 J0.612
G2 X-7.679 Y-37.277 I3.909 J0.266
G3 X-7.682 Y-36.777 I-0.304 J0.248
X-7.871 Y-36.566 I-3.477 J-2.918
G2 X-8.06 Y-36.355 I3.288 J3.129
X-8.92 Y-34.588 I3.101 J2.602
X-8.823 Y-32.626 I3.772 J0.796
G3 X-27.957 Y-26.554 I-9.567 J3.036
X-17.997 Y-39.62 I9.567 J-3.036
G2 X-15.941 Y-41.072 I0.081 J-2.067
G3 X-14.735 Y-43.28 I6.103 J1.9
G1 X-13.266 Y-45.031
X-11.734 Y-43.745
G2 X-9.621 Y-43.93 I0.964 J-1.149
G1 X-9.34 Y-44.265
X-5.51 Y-41.051
X-5.791 Y-40.716
G2 X-5.606 Y-38.603 I1.149 J0.964
G1 X-4.074 Y-37.317
X-6.195 Y-34.789
G2 X-6.475 Y-33.371 I1.149 J0.964
G3 X-30.304 Y-25.809 I-11.914 J3.781
X-16.735 Y-41.98 I11.914 J-3.781
G2 X-15.387 Y-42.503 I0.199 J-1.487
G1 X-14.735 Y-43.28
G3 X-14.385 Y-43.116 I0.153 J0.129
G1 X-16.93 Y-29.159
X-16.94 Y-29.121
X-16.958 Y-29.086
X-16.983 Y-29.056
G3 X-19.032 Y-31.036 Z-1.556 I-1.025 J-0.99 F333.3
X-16.983 Y-29.056 Z-1.713 I1.025 J0.99
X-19.032 Y-31.036 Z-1.869 I-1.025 J-0.99
X-16.983 Y-29.056 Z-2.025 I1.025 J0.99
X-18.923 Y-28.954 Z-2.1 I-1.025 J-0.99
X-19.161 Y-29.946 I0.551 J-0.656 F1000
X-18.275 Y-30.451 I0.775 J0.33
G1 X-18.177 Y-30.442
X-18.079 Y-30.433
G3 X-17.614 Y-30.042 I-0.065 J0.55
G1 X-17.588 Y-29.948
X-17.562 Y-29.853
G3 X-17.905 Y-28.893 I-0.802 J0.255
X-18.923 Y-28.954 I-0.467 J-0.718
G2 X-20.502 Y-29.306 I-1.128 J1.344
G3 X-21.647 Y-30.449 I-0.24 J-0.904
X-17.944 Y-32.929 I3.257 J0.859
G2 X-16.929 Y-32.865 I0.963 J-7.207
X-15.913 Y-32.898 I-0.141 J-19.652
G3 X-15.562 Y-32.604 I0.02 J0.333
G2 X-15.419 Y-31.597 I19.521 J-2.267
X-15.179 Y-30.609 I7.169 J-1.211
G3 X-21.6 Y-28.571 I-3.21 J1.019
X-21.647 Y-30.449 I3.21 J-1.019
G2 X-22.126 Y-32.18 I-1.724 J-0.454
G3 X-22.058 Y-33.975 I0.845 J-0.867
X-17.633 Y-35.257 I3.669 J4.385
G2 X-15.419 Y-35.283 I1.019 J-7.63
X-13.292 Y-35.895 I-1.383 J-8.805
G3 X-13.066 Y-35.705 I0.065 J0.152
G2 X-13.3 Y-33.504 I8.677 J2.034
X-12.94 Y-31.32 I7.696 J-0.144
G3 X-23.839 Y-27.861 I-5.45 J1.729
X-22.058 Y-33.975 I5.45 J-1.729
G2 X-21.568 Y-35.445 I-0.948 J-1.134
G3 X-20.813 Y-36.799 I1.121 J-0.262
X-17.383 Y-37.129 I2.423 J7.209
G2 X-14.877 Y-37.315 I0.81 J-6.063
X-12.637 Y-38.456 I-1.845 J-6.39
G3 X-11.881 Y-38.643 I0.588 J0.756
G2 X-11.218 Y-38.56 I1.112 J-6.252
G3 X-10.801 Y-38.211 I-0.033 J0.462
G2 X-10.605 Y-37.571 I6.16 J-1.541
G3 X-10.658 Y-36.795 I-0.899 J0.329
G2 X-11.393 Y-34.391 I5.879 J3.111
X-11.141 Y-31.891 I6.082 J0.65
G3 X-25.639 Y-27.289 I-7.249 J2.301
X-20.813 Y-36.799 I7.249 J-2.301
G2 X-19.534 Y-38.338 I-0.607 J-1.806
G3 X-17.997 Y-39.62 I1.478 J0.21
X-17.061 Y-39.539 I-0.393 J10.03
G2 X-15.112 Y-39.784 I0.51 J-3.821
X-13.522 Y-40.937 I-1.511 J-3.756
X-13.346 Y-41.16 I-3.478 J-2.918
G3 X-13.171 Y-41.383 I3.653 J2.695
X-12.679 Y-41.473 I0.301 J0.252
G2 X-9.829 Y-41.091 I1.909 J-3.421
G3 X-9.124 Y-40.928 I0.192 J0.775
G1 X-8.833 Y-40.684
G3 X-8.55 Y-40.018 I-0.513 J0.612
G2 X-7.679 Y-37.277 I3.909 J0.266
G3 X-7.682 Y-36.777 I-0.304 J0.248
X-7.871 Y-36.566 I-3.477 J-2.918
G2 X-8.06 Y-36.355 I3.288 J3.129
X-8.92 Y-34.588 I3.101 J2.602
X-8.823 Y-32.626 I3.772 J0.796
G3 X-27.957 Y-26.554 I-9.567 J3.036
X-17.997 Y-39.62 I9.567 J-3.036
G2 X-15.941 Y-41.072 I0.081 J-2.067
G3 X-14.735 Y-43.28 I6.103 J1.9
G1 X-13.266 Y-45.031
X-11.734 Y-43.745
G2 X-9.621 Y-43.93 I0.964 J-1.149
G1 X-9.34 Y-44.265
X-5.51 Y-41.051
X-5.791 Y-40.716
G2 X-5.606 Y-38.603 I1.149 J0.964
G1 X-4.074 Y-37.317
X-6.195 Y-34.789
G2 X-6.475 Y-33.371 I1.149 J0.964
G3 X-30.304 Y-25.809 I-11.914 J3.781
X-16.735 Y-41.98 I11.914 J-3.781
G2 X-15.387 Y-42.503 I0.199 J-1.487
G1 X-14.735 Y-43.28
G3 X-14.385 Y-43.116 I0.153 J0.129
G1 X-16.93 Y-29.159
X-16.94 Y-29.121
X-16.958 Y-29.086
X-16.983 Y-29.056
G3 X-19.032 Y-31.036 Z-2.256 I-1.025 J-0.99 F333.3
X-16.983 Y-29.056 Z-2.413 I1.025 J0.99
X-19.032 Y-31.036 Z-2.569 I-1.025 J-0.99
X-16.983 Y-29.056 Z-2.725 I1.025 J0.99
X-18.923 Y-28.954 Z-2.8 I-1.025 J-0.99
X-19.161 Y-29.946 I0.551 J-0.656 F1000
X-18.275 Y-30.451 I0.775 J0.33
G1 X-18.177 Y-30.442
X-18.079 Y-30.433
G3 X-17.614 Y-30.042 I-0.065 J0.55
G1 X-17.588 Y-29.948
X-17.562 Y-29.853
G3 X-17.905 Y-28.893 I-0.802 J0.255
X-18.923 Y-28.954 I-0.467 J-0.718
G2 X-20.502 Y-29.306 I-1.128 J1.344
G3 X-21.647 Y-30.449 I-0.24 J-0.904
X-17.944 Y-32.929 I3.257 J0.859
G2 X-16.929 Y-32.865 I0.963 J-7.207
X-15.913 Y-32.898 I-0.141 J-19.652
G3 X-15.562 Y-32.604 I0.02 J0.333
G2 X-15.419 Y-31.597 I19.521 J-2.267
X-15.179 Y-30.609 I7.169 J-1.211
G3 X-21.6 Y-28.571 I-3.21 J1.019
X-21.647 Y-30.449 I3.21 J-1.019
G2 X-22.126 Y-32.18 I-1.724 J-0.454
G3 X-22.058 Y-33.975 I0.845 J-0.867
X-17.633 Y-35.257 I3.669 J4.385
G2 X-15.419 Y-35.283 I1.019 J-7.63
X-13.292 Y-35.895 I-1.383 J-8.805
G3 X-13.066 Y-35.705 I0.065 J0.152
G2 X-13.3 Y-33.504 I8.677 J2.034
X-12.94 Y-31.32 I7.696 J-0.144
G3 X-23.839 Y-27.861 I-5.45 J1.729
X-22.058 Y-33.975 I5.45 J-1.729
G2 X-21.568 Y-35.445 I-0.948 J-1.134
G3 X-20.813 Y-36.799 I1.121 J-0.262
X-17.383 Y-37.129 I2.423 J7.209
G2 X-14.877 Y-37.315 I0.81 J-6.063
X-12.637 Y-38.456 I-1.845 J-6.39
G3 X-11.881 Y-38.643 I0.588 J0.756
G2 X-11.218 Y-38.56 I1.112 J-6.252
G3 X-10.801 Y-38.211 I-0.033 J0.462
G2 X-10.605 Y-37.571 I6.16 J-1.541
G3 X-10.658 Y-36.795 I-0.899 J0.329
G2 X-11.393 Y-34.391 I5.879 J3.111
X-11.141 Y-31.891 I6.082 J0.65
G3 X-25.639 Y-27.289 I-7.249 J2.301
X-20.813 Y-36.799 I7.249 J-2.301
G2 X-19.534 Y-38.338 I-0.607 J-1.806
G3 X-17.997 Y-39.62 I1.478 J0.21
X-17.061 Y-39.539 I-0.393 J10.03
G2 X-15.112 Y-39.784 I0.51 J-3.821
X-13.522 Y-40.937 I-1.511 J-3.756
X-13.346 Y-41.16 I-3.478 J-2.918
G3 X-13.171 Y-41.383 I3.653 J2.695
X-12.679 Y-41.473 I0.301 J0.252
G2 X-9.829 Y-41.091 I1.909 J-3.421
G3 X-9.124 Y-40.928 I0.192 J0.775
G1 X-8.833 Y-40.684
G3 X-8.55 Y-40.018 I-0.513 J0.612
G2 X-7.679 Y-37.277 I3.909 J0.266
G3 X-7.682 Y-36.777 I-0.304 J0.248
X-7.871 Y-36.566 I-3.477 J-2.918
G2 X-8.06 Y-36.355 I3.288 J3.129
X-8.92 Y-34.588 I3.101 J2.602
X-8.823 Y-32.626 I3.772 J0.796
G3 X-27.957 Y-26.554 I-9.567 J3.036
X-17.997 Y-39.62 I9.567 J-3.036
G2 X-15.941 Y-41.072 I0.081 J-2.067
G3 X-14.735 Y-43.28 I6.103 J1.9
G1 X-13.266 Y-45.031
X-11.734 Y-43.745
G2 X-9.621 Y-43.93 I0.964 J-1.149
G1 X-9.34 Y-44.265
X-5.51 Y-41.051
X-5.791 Y-40.716
G2 X-5.606 Y-38.603 I1.149 J0.964
G1 X-4.074 Y-37.317
X-6.195 Y-34.789
G2 X-6.475 Y-33.371 I1.149 J0.964
G3 X-30.304 Y-25.809 I-11.914 J3.781
X-16.735 Y-41.98 I11.914 J-3.781
G2 X-15.387 Y-42.503 I0.199 J-1.487
G1 X-14.735 Y-43.28
G3 X-14.385 Y-43.116 I0.153 J0.129
G1 X-16.93 Y-29.159
X-16.94 Y-29.121
X-16.958 Y-29.086
X-16.983 Y-29.056
G3 X-19.032 Y-31.036 Z-2.956 I-1.025 J-0.99 F333.3
X-16.983 Y-29.056 Z-3.113 I1.025 J0.99
X-19.032 Y-31.036 Z-3.269 I-1.025 J-0.99
X-16.983 Y-29.056 Z-3.425 I1.025 J0.99
X-18.923 Y-28.954 Z-3.5 I-1.025 J-0.99
X-19.161 Y-29.946 I0.551 J-0.656 F1000
X-18.275 Y-30.451 I0.775 J0.33
G1 X-18.177 Y-30.442
X-18.079 Y-30.433
G3 X-17.614 Y-30.042 I-0.065 J0.55
G1 X-17.588 Y-29.948
X-17.562 Y-29.853
G3 X-17.905 Y-28.893 I-0.802 J0.255
X-18.923 Y-28.954 I-0.467 J-0.718
G2 X-20.502 Y-29.306 I-1.128 J1.344
G3 X-21.647 Y-30.449 I-0.24 J-0.904
X-17.944 Y-32.929 I3.257 J0.859
G2 X-16.929 Y-32.865 I0.963 J-7.207
X-15.913 Y-32.898 I-0.141 J-19.652
G3 X-15.562 Y-32.604 I0.02 J0.333
G2 X-15.419 Y-31.597 I19.521 J-2.267
X-15.179 Y-30.609 I7.169 J-1.211
G3 X-21.6 Y-28.571 I-3.21 J1.019
X-21.647 Y-30.449 I3.21 J-1.019
G2 X-22.126 Y-32.18 I-1.724 J-0.454
G3 X-22.058 Y-33.975 I0.845 J-0.867
X-17.633 Y-35.257 I3.669 J4.385
G2 X-15.419 Y-35.283 I1.019 J-7.63
X-13.292 Y-35.895 I-1.383 J-8.805
G3 X-13.066 Y-35.705 I0.065 J0.152
G2 X-13.3 Y-33.504 I8.677 J2.034
X-12.94 Y-31.32 I7.696 J-0.144
G3 X-23.839 Y-27.861 I-5.45 J1.729
X-22.058 Y-33.975 I5.45 J-1.729
G2 X-21.568 Y-35.445 I-0.948 J-1.134
G3 X-20.813 Y-36.799 I1.121 J-0.262
X-17.383 Y-37.129 I2.423 J7.209
G2 X-14.877 Y-37.315 I0.81 J-6.063
X-12.637 Y-38.456 I-1.845 J-6.39
G3 X-11.881 Y-38.643 I0.588 J0.756
G2 X-11.218 Y-38.56 I1.112 J-6.252
G3 X-10.801 Y-38.211 I-0.033 J0.462
G2 X-10.605 Y-37.571 I6.16 J-1.541
G3 X-10.658 Y-36.795 I-0.899 J0.329
G2 X-11.393 Y-34.391 I5.879 J3.111
X-11.141 Y-31.891 I6.082 J0.65
G3 X-25.639 Y-27.289 I-7.249 J2.301
X-20.813 Y-36.799 I7.249 J-2.301
G2 X-19.534 Y-38.338 I-0.607 J-1.806
G3 X-17.997 Y-39.62 I1.478 J0.21
X-17.061 Y-39.539 I-0.393 J10.03
G2 X-15.112 Y-39.784 I0.51 J-3.821
X-13.522 Y-40.937 I-1.511 J-3.756
X-13.346 Y-41.16 I-3.478 J-2.918
G3 X-13.171 Y-41.383 I3.653 J2.695
X-12.679 Y-41.473 I0.301 J0.252
G2 X-9.829 Y-41.091 I1.909 J-3.421
G3 X-9.124 Y-40.928 I0.192 J0.775
G1 X-8.833 Y-40.684
G3 X-8.55 Y-40.018 I-0.513 J0.612
G2 X-7.679 Y-37.277 I3.909 J0.266
G3 X-7.682 Y-36.777 I-0.304 J0.248
X-7.871 Y-36.566 I-3.477 J-2.918
G2 X-8.06 Y-36.355 I3.288 J3.129
X-8.92 Y-34.588 I3.101 J2.602
X-8.823 Y-32.626 I3.772 J0.796
G3 X-27.957 Y-26.554 I-9.567 J3.036
X-17.997 Y-39.62 I9.567 J-3.036
G2 X-15.941 Y-41.072 I0.081 J-2.067
G3 X-14.735 Y-43.28 I6.103 J1.9
G1 X-13.266 Y-45.031
X-11.734 Y-43.745
G2 X-9.621 Y-43.93 I0.964 J-1.149
G1 X-9.34 Y-44.265
X-5.51 Y-41.051
X-5.791 Y-40.716
G2 X-5.606 Y-38.603 I1.149 J0.964
G1 X-4.074 Y-37.317
X-6.195 Y-34.789
G2 X-6.475 Y-33.371 I1.149 J0.964
G3 X-30.304 Y-25.809 I-11.914 J3.781
X-16.735 Y-41.98 I11.914 J-3.781
G2 X-15.387 Y-42.503 I0.199 J-1.487
G1 X-14.735 Y-43.28
G3 X-14.385 Y-43.116 I0.153 J0.129
G1 X-16.93 Y-29.159
X-16.94 Y-29.121
X-16.958 Y-29.086
X-16.983 Y-29.056
G3 X-19.032 Y-31.036 Z-3.656 I-1.025 J-0.99 F333.3
X-16.983 Y-29.056 Z-3.813 I1.025 J0.99
X-19.032 Y-31.036 Z-3.969 I-1.025 J-0.99
X-16.983 Y-29.056 Z-4.125 I1.025 J0.99
X-18.923 Y-28.954 Z-4.2 I-1.025 J-0.99
X-19.161 Y-29.946 I0.551 J-0.656 F1000
X-18.275 Y-30.451 I0.775 J0.33
G1 X-18.177 Y-30.442
X-18.079 Y-30.433
G3 X-17.614 Y-30.042 I-0.065 J0.55
G1 X-17.588 Y-29.948
X-17.562 Y-29.853
G3 X-17.905 Y-28.893 I-0.802 J0.255
X-18.923 Y-28.954 I-0.467 J-0.718
G2 X-20.502 Y-29.306 I-1.128 J1.344
G3 X-21.647 Y-30.449 I-0.24 J-0.904
X-17.944 Y-32.929 I3.257 J0.859
G2 X-16.929 Y-32.865 I0.963 J-7.207
X-15.913 Y-32.898 I-0.141 J-19.652
G3 X-15.562 Y-32.604 I0.02 J0.333
G2 X-15.419 Y-31.597 I19.521 J-2.267
X-15.179 Y-30.609 I7.169 J-1.211
G3 X-21.6 Y-28.571 I-3.21 J1.019
X-21.647 Y-30.449 I3.21 J-1.019
G2 X-22.126 Y-32.18 I-1.724 J-0.454
G3 X-22.058 Y-33.975 I0.845 J-0.867
X-17.633 Y-35.257 I3.669 J4.385
G2 X-15.419 Y-35.283 I1.019 J-7.63
X-13.292 Y-35.895 I-1.383 J-8.805
G3 X-13.066 Y-35.705 I0.065 J0.152
G2 X-13.3 Y-33.504 I8.677 J2.034
X-12.94 Y-31.32 I7.696 J-0.144
G3 X-23.839 Y-27.861 I-5.45 J1.729
X-22.058 Y-33.975 I5.45 J-1.729
G2 X-21.568 Y-35.445 I-0.948 J-1.134
G3 X-20.813 Y-36.799 I1.121 J-0.262
X-17.383 Y-37.129 I2.423 J7.209
G2 X-14.877 Y-37.315 I0.81 J-6.063
X-12.637 Y-38.456 I-1.845 J-6.39
G3 X-11.881 Y-38.643 I0.588 J0.756
G2 X-11.218 Y-38.56 I1.112 J-6.252
G3 X-10.801 Y-38.211 I-0.033 J0.462
G2 X-10.605 Y-37.571 I6.16 J-1.541
G3 X-10.658 Y-36.795 I-0.899 J0.329
G2 X-11.393 Y-34.391 I5.879 J3.111
X-11.141 Y-31.891 I6.082 J0.65
G3 X-25.639 Y-27.289 I-7.249 J2.301
X-20.813 Y-36.799 I7.249 J-2.301
G2 X-19.534 Y-38.338 I-0.607 J-1.806
G3 X-17.997 Y-39.62 I1.478 J0.21
X-17.061 Y-39.539 I-0.393 J10.03
G2 X-15.112 Y-39.784 I0.51 J-3.821
X-13.522 Y-40.937 I-1.511 J-3.756
X-13.346 Y-41.16 I-3.478 J-2.918
G3 X-13.171 Y-41.383 I3.653 J2.695
X-12.679 Y-41.473 I0.301 J0.252
G2 X-9.829 Y-41.091 I1.909 J-3.421
G3 X-9.124 Y-40.928 I0.192 J0.775
G1 X-8.833 Y-40.684
G3 X-8.55 Y-40.018 I-0.513 J0.612
G2 X-7.679 Y-37.277 I3.909 J0.266
G3 X-7.682 Y-36.777 I-0.304 J0.248
X-7.871 Y-36.566 I-3.477 J-2.918
G2 X-8.06 Y-36.355 I3.288 J3.129
X-8.92 Y-34.588 I3.101 J2.602
X-8.823 Y-32.626 I3.772 J0.796
G3 X-27.957 Y-26.554 I-9.567 J3.036
X-17.997 Y-39.62 I9.567 J-3.036
G2 X-15.941 Y-41.072 I0.081 J-2.067
G3 X-14.735 Y-43.28 I6.103 J1.9
G1 X-13.266 Y-45.031
X-11.734 Y-43.745
G2 X-9.621 Y-43.93 I0.964 J-1.149
G1 X-9.34 Y-44.265
X-5.51 Y-41.051
X-5.791 Y-40.716
G2 X-5.606 Y-38.603 I1.149 J0.964
G1 X-4.074 Y-37.317
X-6.195 Y-34.789
G2 X-6.475 Y-33.371 I1.149 J0.964
G3 X-30.304 Y-25.809 I-11.914 J3.781
X-16.735 Y-41.98 I11.914 J-3.781
G2 X-15.387 Y-42.503 I0.199 J-1.487
G1 X-14.735 Y-43.28
G3 X-14.385 Y-43.116 I0.153 J0.129
G1 X-16.93 Y-29.159
X-16.94 Y-29.121
X-16.958 Y-29.086
X-16.983 Y-29.056
G3 X-19.032 Y-31.036 Z-4.356 I-1.025 J-0.99 F333.3
X-16.983 Y-29.056 Z-4.513 I1.025 J0.99
X-19.032 Y-31.036 Z-4.669 I-1.025 J-0.99
X-16.983 Y-29.056 Z-4.825 I1.025 J0.99
X-18.923 Y-28.954 Z-4.9 I-1.025 J-0.99
X-19.161 Y-29.946 I0.551 J-0.656 F1000
X-18.275 Y-30.451 I0.775 J0.33
G1 X-18.177 Y-30.442
X-18.079 Y-30.433
G3 X-17.614 Y-30.042 I-0.065 J0.55
G1 X-17.588 Y-29.948
X-17.562 Y-29.853
G3 X-17.905 Y-28.893 I-0.802 J0.255
X-18.923 Y-28.954 I-0.467 J-0.718
G2 X-20.502 Y-29.306 I-1.128 J1.344
G3 X-21.647 Y-30.449 I-0.24 J-0.904
X-17.944 Y-32.929 I3.257 J0.859
G2 X-16.929 Y-32.865 I0.963 J-7.207
X-15.913 Y-32.898 I-0.141 J-19.652
G3 X-15.562 Y-32.604 I0.02 J0.333
G2 X-15.419 Y-31.597 I19.521 J-2.267
X-15.179 Y-30.609 I7.169 J-1.211
G3 X-21.6 Y-28.571 I-3.21 J1.019
X-21.647 Y-30.449 I3.21 J-1.019
G2 X-22.126 Y-32.18 I-1.724 J-0.454
G3 X-22.058 Y-33.975 I0.845 J-0.867
X-17.633 Y-35.257 I3.669 J4.385
G2 X-15.419 Y-35.283 I1.019 J-7.63
X-13.292 Y-35.895 I-1.383 J-8.805
G3 X-13.066 Y-35.705 I0.065 J0.152
G2 X-13.3 Y-33.504 I8.677 J2.034
X-12.94 Y-31.32 I7.696 J-0.144
G3 X-23.839 Y-27.861 I-5.45 J1.729
X-22.058 Y-33.975 I5.45 J-1.729
G2 X-21.568 Y-35.445 I-0.948 J-1.134
G3 X-20.813 Y-36.799 I1.121 J-0.262
X-17.383 Y-37.129 I2.423 J7.209
G2 X-14.877 Y-37.315 I0.81 J-6.063
X-12.637 Y-38.456 I-1.845 J-6.39
G3 X-11.881 Y-38.643 I0.588 J0.756
G2 X-11.218 Y-38.56 I1.112 J-6.252
G3 X-10.801 Y-38.211 I-0.033 J0.462
G2 X-10.605 Y-37.571 I6.16 J-1.541
G3 X-10.658 Y-36.795 I-0.899 J0.329
G2 X-11.393 Y-34.391 I5.879 J3.111
X-11.141 Y-31.891 I6.082 J0.65
G3 X-25.639 Y-27.289 I-7.249 J2.301
X-20.813 Y-36.799 I7.249 J-2.301
G2 X-19.534 Y-38.338 I-0.607 J-1.806
G3 X-17.997 Y-39.62 I1.478 J0.21
X-17.061 Y-39.539 I-0.393 J10.03
G2 X-15.112 Y-39.784 I0.51 J-3.821
X-13.522 Y-40.937 I-1.511 J-3.756
X-13.346 Y-41.16 I-3.478 J-2.918
G3 X-13.171 Y-41.383 I3.653 J2.695
X-12.679 Y-41.473 I0.301 J0.252
G2 X-9.829 Y-41.091 I1.909 J-3.421
G3 X-9.124 Y-40.928 I0.192 J0.775
G1 X-8.833 Y-40.684
G3 X-8.55 Y-40.018 I-0.513 J0.612
G2 X-7.679 Y-37.277 I3.909 J0.266
G3 X-7.682 Y-36.777 I-0.304 J0.248
X-7.871 Y-36.566 I-3.477 J-2.918
G2 X-8.06 Y-36.355 I3.288 J3.129
X-8.92 Y-34.588 I3.101 J2.602
X-8.823 Y-32.626 I3.772 J0.796
G3 X-27.957 Y-26.554 I-9.567 J3.036
X-17.997 Y-39.62 I9.567 J-3.036
G2 X-15.941 Y-41.072 I0.081 J-2.067
G3 X-14.735 Y-43.28 I6.103 J1.9
G1 X-13.266 Y-45.031
X-11.734 Y-43.745
G2 X-9.621 Y-43.93 I0.964 J-1.149
G1 X-9.34 Y-44.265
X-5.51 Y-41.051
X-5.791 Y-40.716
G2 X-5.606 Y-38.603 I1.149 J0.964
G1 X-4.074 Y-37.317
X-6.195 Y-34.789
G2 X-6.475 Y-33.371 I1.149 J0.964
G3 X-30.304 Y-25.809 I-11.914 J3.781
X-16.735 Y-41.98 I11.914 J-3.781
G2 X-15.387 Y-42.503 I0.199 J-1.487
G1 X-14.735 Y-43.28
G3 X-14.385 Y-43.116 I0.153 J0.129
G1 X-16.93 Y-29.159
X-16.94 Y-29.121
X-16.958 Y-29.086
X-16.983 Y-29.056
G3 X-19.032 Y-31.036 Z-5.056 I-1.025 J-0.99 F333.3
X-16.983 Y-29.056 Z-5.213 I1.025 J0.99
X-19.032 Y-31.036 Z-5.369 I-1.025 J-0.99
X-16.983 Y-29.056 Z-5.525 I1.025 J0.99
X-18.923 Y-28.954 Z-5.6 I-1.025 J-0.99
X-19.161 Y-29.946 I0.551 J-0.656 F1000
X-18.275 Y-30.451 I0.775 J0.33
G1 X-18.177 Y-30.442
X-18.079 Y-30.433
G3 X-17.614 Y-30.042 I-0.065 J0.55
G1 X-17.588 Y-29.948
X-17.562 Y-29.853
G3 X-17.905 Y-28.893 I-0.802 J0.255
X-18.923 Y-28.954 I-0.467 J-0.718
G2 X-20.502 Y-29.306 I-1.128 J1.344
G3 X-21.647 Y-30.449 I-0.24 J-0.904
X-17.944 Y-32.929 I3.257 J0.859
G2 X-16.929 Y-32.865 I0.963 J-7.207
X-15.913 Y-32.898 I-0.141 J-19.652
G3 X-15.562 Y-32.604 I0.02 J0.333
G2 X-15.419 Y-31.597 I19.521 J-2.267
X-15.179 Y-30.609 I7.169 J-1.211
G3 X-21.6 Y-28.571 I-3.21 J1.019
X-21.647 Y-30.449 I3.21 J-1.019
G2 X-22.126 Y-32.18 I-1.724 J-0.454
G3 X-22.058 Y-33.975 I0.845 J-0.867
X-17.633 Y-35.257 I3.669 J4.385
G2 X-15.419 Y-35.283 I1.019 J-7.63
X-13.292 Y-35.895 I-1.383 J-8.805
G3 X-13.066 Y-35.705 I0.065 J0.152
G2 X-13.3 Y-33.504 I8.677 J2.034
X-12.94 Y-31.32 I7.696 J-0.144
G3 X-23.839 Y-27.861 I-5.45 J1.729
X-22.058 Y-33.975 I5.45 J-1.729
G2 X-21.568 Y-35.445 I-0.948 J-1.134
G3 X-20.813 Y-36.799 I1.121 J-0.262
X-17.383 Y-37.129 I2.423 J7.209
G2 X-14.877 Y-37.315 I0.81 J-6.063
X-12.637 Y-38.456 I-1.845 J-6.39
G3 X-11.881 Y-38.643 I0.588 J0.756
G2 X-11.218 Y-38.56 I1.112 J-6.252
G3 X-10.801 Y-38.211 I-0.033 J0.462
G2 X-10.605 Y-37.571 I6.16 J-1.541
G3 X-10.658 Y-36.795 I-0.899 J0.329
G2 X-11.393 Y-34.391 I5.879 J3.111
X-11.141 Y-31.891 I6.082 J0.65
G3 X-25.639 Y-27.289 I-7.249 J2.301
X-20.813 Y-36.799 I7.249 J-2.301
G2 X-19.534 Y-38.338 I-0.607 J-1.806
G3 X-17.997 Y-39.62 I1.478 J0.21
X-17.061 Y-39.539 I-0.393 J10.03
G2 X-15.112 Y-39.784 I0.51 J-3.821
X-13.522 Y-40.937 I-1.511 J-3.756
X-13.346 Y-41.16 I-3.478 J-2.918
G3 X-13.171 Y-41.383 I3.653 J2.695
X-12.679 Y-41.473 I0.301 J0.252
G2 X-9.829 Y-41.091 I1.909 J-3.421
G3 X-9.124 Y-40.928 I0.192 J0.775
G1 X-8.833 Y-40.684
G3 X-8.55 Y-40.018 I-0.513 J0.612
G2 X-7.679 Y-37.277 I3.909 J0.266
G3 X-7.682 Y-36.777 I-0.304 J0.248
X-7.871 Y-36.566 I-3.477 J-2.918
G2 X-8.06 Y-36.355 I3.288 J3.129
X-8.92 Y-34.588 I3.101 J2.602
X-8.823 Y-32.626 I3.772 J0.796
G3 X-27.957 Y-26.554 I-9.567 J3.036
X-17.997 Y-39.62 I9.567 J-3.036
G2 X-15.941 Y-41.072 I0.081 J-2.067
G3 X-14.735 Y-43.28 I6.103 J1.9
G1 X-13.266 Y-45.031
X-11.734 Y-43.745
G2 X-9.621 Y-43.93 I0.964 J-1.149
G1 X-9.34 Y-44.265
X-5.51 Y-41.051
X-5.791 Y-40.716
G2 X-5.606 Y-38.603 I1.149 J0.964
G1 X-4.074 Y-37.317
X-6.195 Y-34.789
G2 X-6.475 Y-33.371 I1.149 J0.964
G3 X-30.304 Y-25.809 I-11.914 J3.781
X-16.735 Y-41.98 I11.914 J-3.781
G2 X-15.387 Y-42.503 I0.199 J-1.487
G1 X-14.735 Y-43.28
G3 X-14.385 Y-43.116 I0.153 J0.129
G1 X-16.93 Y-29.159
X-16.94 Y-29.121
X-16.958 Y-29.086
X-16.983 Y-29.056
G3 X-19.032 Y-31.036 Z-5.756 I-1.025 J-0.99 F333.3
X-16.983 Y-29.056 Z-5.913 I1.025 J0.99
X-19.032 Y-31.036 Z-6.069 I-1.025 J-0.99
X-16.983 Y-29.056 Z-6.225 I1.025 J0.99
X-18.923 Y-28.954 Z-6.3 I-1.025 J-0.99
X-19.161 Y-29.946 I0.551 J-0.656 F1000
X-18.275 Y-30.451 I0.775 J0.33
G1 X-18.177 Y-30.442
X-18.079 Y-30.433
G3 X-17.614 Y-30.042 I-0.065 J0.55
G1 X-17.588 Y-29.948
X-17.562 Y-29.853
G3 X-17.905 Y-28.893 I-0.802 J0.255
X-18.923 Y-28.954 I-0.467 J-0.718
G2 X-20.502 Y-29.306 I-1.128 J1.344
G3 X-21.647 Y-30.449 I-0.24 J-0.904
X-17.944 Y-32.929 I3.257 J0.859
G2 X-16.929 Y-32.865 I0.963 J-7.207
X-15.913 Y-32.898 I-0.141 J-19.652
G3 X-15.562 Y-32.604 I0.02 J0.333
G2 X-15.419 Y-31.597 I19.521 J-2.267
X-15.179 Y-30.609 I7.169 J-1.211
G3 X-21.6 Y-28.571 I-3.21 J1.019
X-21.647 Y-30.449 I3.21 J-1.019
G2 X-22.126 Y-32.18 I-1.724 J-0.454
G3 X-22.058 Y-33.975 I0.845 J-0.867
X-17.633 Y-35.257 I3.669 J4.385
G2 X-15.419 Y-35.283 I1.019 J-7.63
X-13.292 Y-35.895 I-1.383 J-8.805
G3 X-13.066 Y-35.705 I0.065 J0.152
G2 X-13.3 Y-33.504 I8.677 J2.034
X-12.94 Y-31.32 I7.696 J-0.144
G3 X-23.839 Y-27.861 I-5.45 J1.729
X-22.058 Y-33.975 I5.45 J-1.729
G2 X-21.568 Y-35.445 I-0.948 J-1.134
G3 X-20.813 Y-36.799 I1.121 J-0.262
X-17.383 Y-37.129 I2.423 J7.209
G2 X-14.877 Y-37.315 I0.81 J-6.063
X-12.637 Y-38.456 I-1.845 J-6.39
G3 X-11.881 Y-38.643 I0.588 J0.756
G2 X-11.218 Y-38.56 I1.112 J-6.252
G3 X-10.801 Y-38.211 I-0.033 J0.462
G2 X-10.605 Y-37.571 I6.16 J-1.541
G3 X-10.658 Y-36.795 I-0.899 J0.329
G2 X-11.393 Y-34.391 I5.879 J3.111
X-11.141 Y-31.891 I6.082 J0.65
G3 X-25.639 Y-27.289 I-7.249 J2.301
X-20.813 Y-36.799 I7.249 J-2.301
G2 X-19.534 Y-38.338 I-0.607 J-1.806
G3 X-17.997 Y-39.62 I1.478 J0.21
X-17.061 Y-39.539 I-0.393 J10.03
G2 X-15.112 Y-39.784 I0.51 J-3.821
X-13.522 Y-40.937 I-1.511 J-3.756
X-13.346 Y-41.16 I-3.478 J-2.918
G3 X-13.171 Y-41.383 I3.653 J2.695
X-12.679 Y-41.473 I0.301 J0.252
G2 X-9.829 Y-41.091 I1.909 J-3.421
G3 X-9.124 Y-40.928 I0.192 J0.775
G1 X-8.833 Y-40.684
G3 X-8.55 Y-40.018 I-0.513 J0.612
G2 X-7.679 Y-37.277 I3.909 J0.266
G3 X-7.682 Y-36.777 I-0.304 J0.248
X-7.871 Y-36.566 I-3.477 J-2.918
G2 X-8.06 Y-36.355 I3.288 J3.129
X-8.92 Y-34.588 I3.101 J2.602
X-8.823 Y-32.626 I3.772 J0.796
G3 X-27.957 Y-26.554 I-9.567 J3.036
X-17.997 Y-39.62 I9.567 J-3.036
G2 X-15.941 Y-41.072 I0.081 J-2.067
G3 X-14.735 Y-43.28 I6.103 J1.9
G1 X-13.266 Y-45.031
X-11.734 Y-43.745
G2 X-9.621 Y-43.93 I0.964 J-1.149
G1 X-9.34 Y-44.265
X-5.51 Y-41.051
X-5.791 Y-40.716
G2 X-5.606 Y-38.603 I1.149 J0.964
G1 X-4.074 Y-37.317
X-6.195 Y-34.789
G2 X-6.475 Y-33.371 I1.149 J0.964
G3 X-30.304 Y-25.809 I-11.914 J3.781
X-16.735 Y-41.98 I11.914 J-3.781
G2 X-15.387 Y-42.503 I0.199 J-1.487
G1 X-14.735 Y-43.28
G3 X-14.385 Y-43.116 I0.153 J0.129
G1 X-16.93 Y-29.159
X-16.94 Y-29.121
X-16.958 Y-29.086
X-16.983 Y-29.056
G3 X-19.032 Y-31.036 Z-6.456 I-1.025 J-0.99 F333.3
X-16.983 Y-29.056 Z-6.613 I1.025 J0.99
X-19.032 Y-31.036 Z-6.769 I-1.025 J-0.99
X-16.983 Y-29.056 Z-6.925 I1.025 J0.99
X-18.923 Y-28.954 Z-7 I-1.025 J-0.99
X-19.161 Y-29.946 I0.551 J-0.656 F1000
X-18.275 Y-30.451 I0.775 J0.33
G1 X-18.177 Y-30.442
X-18.079 Y-30.433
G3 X-17.614 Y-30.042 I-0.065 J0.55
G1 X-17.588 Y-29.948
X-17.562 Y-29.853
G3 X-17.905 Y-28.893 I-0.802 J0.255
X-18.923 Y-28.954 I-0.467 J-0.718
G2 X-20.502 Y-29.306 I-1.128 J1.344
G3 X-21.647 Y-30.449 I-0.24 J-0.904
X-17.944 Y-32.929 I3.257 J0.859
G2 X-16.929 Y-32.865 I0.963 J-7.207
X-15.913 Y-32.898 I-0.141 J-19.652
G3 X-15.562 Y-32.604 I0.02 J0.333
G2 X-15.419 Y-31.597 I19.521 J-2.267
X-15.179 Y-30.609 I7.169 J-1.211
G3 X-21.6 Y-28.571 I-3.21 J1.019
X-21.647 Y-30.449 I3.21 J-1.019
G2 X-22.126 Y-32.18 I-1.724 J-0.454
G3 X-22.058 Y-33.975 I0.845 J-0.867
X-17.633 Y-35.257 I3.669 J4.385
G2 X-15.419 Y-35.283 I1.019 J-7.63
X-13.292 Y-35.895 I-1.383 J-8.805
G3 X-13.066 Y-35.705 I0.065 J0.152
G2 X-13.3 Y-33.504 I8.677 J2.034
X-12.94 Y-31.32 I7.696 J-0.144
G3 X-23.839 Y-27.861 I-5.45 J1.729
X-22.058 Y-33.975 I5.45 J-1.729
G2 X-21.568 Y-35.445 I-0.948 J-1.134
G3 X-20.813 Y-36.799 I1.121 J-0.262
X-17.383 Y-37.129 I2.423 J7.209
G2 X-14.877 Y-37.315 I0.81 J-6.063
X-12.637 Y-38.456 I-1.845 J-6.39
G3 X-11.881 Y-38.643 I0.588 J0.756
G2 X-11.218 Y-38.56 I1.112 J-6.252
G3 X-10.801 Y-38.211 I-0.033 J0.462
G2 X-10.605 Y-37.571 I6.16 J-1.541
G3 X-10.658 Y-36.795 I-0.899 J0.329
G2 X-11.393 Y-34.391 I5.879 J3.111
X-11.141 Y-31.891 I6.082 J0.65
G3 X-25.639 Y-27.289 I-7.249 J2.301
X-20.813 Y-36.799 I7.249 J-2.301
G2 X-19.534 Y-38.338 I-0.607 J-1.806
G3 X-17.997 Y-39.62 I1.478 J0.21
X-17.061 Y-39.539 I-0.393 J10.03
G2 X-15.112 Y-39.784 I0.51 J-3.821
X-13.522 Y-40.937 I-1.511 J-3.756
X-13.346 Y-41.16 I-3.478 J-2.918
G3 X-13.171 Y-41.383 I3.653 J2.695
X-12.679 Y-41.473 I0.301 J0.252
G2 X-9.829 Y-41.091 I1.909 J-3.421
G3 X-9.124 Y-40.928 I0.192 J0.775
G1 X-8.833 Y-40.684
G3 X-8.55 Y-40.018 I-0.513 J0.612
G2 X-7.679 Y-37.277 I3.909 J0.266
G3 X-7.682 Y-36.777 I-0.304 J0.248
X-7.871 Y-36.566 I-3.477 J-2.918
G2 X-8.06 Y-36.355 I3.288 J3.129
X-8.92 Y-34.588 I3.101 J2.602
X-8.823 Y-32.626 I3.772 J0.796
G3 X-27.957 Y-26.554 I-9.567 J3.036
X-17.997 Y-39.62 I9.567 J-3.036
G2 X-15.941 Y-41.072 I0.081 J-2.067
G3 X-14.735 Y-43.28 I6.103 J1.9
G1 X-13.266 Y-45.031
X-11.734 Y-43.745
G2 X-9.621 Y-43.93 I0.964 J-1.149
G1 X-9.34 Y-44.265
X-5.51 Y-41.051
X-5.791 Y-40.716
G2 X-5.606 Y-38.603 I1.149 J0.964
G1 X-4.074 Y-37.317
X-6.195 Y-34.789
G2 X-6.475 Y-33.371 I1.149 J0.964
G3 X-30.304 Y-25.809 I-11.914 J3.781
X-16.735 Y-41.98 I11.914 J-3.781
G2 X-15.387 Y-42.503 I0.199 J-1.487
G1 X-14.735 Y-43.28
G3 X-14.385 Y-43.116 I0.153 J0.129
G1 X-16.93 Y-29.159
X-16.94 Y-29.121
X-16.958 Y-29.086
X-16.983 Y-29.056
G3 X-19.032 Y-31.036 Z-7.156 I-1.025 J-0.99 F333.3
X-16.983 Y-29.056 Z-7.313 I1.025 J0.99
X-19.032 Y-31.036 Z-7.469 I-1.025 J-0.99
X-16.983 Y-29.056 Z-7.625 I1.025 J0.99
X-18.923 Y-28.954 Z-7.7 I-1.025 J-0.99
X-19.161 Y-29.946 I0.551 J-0.656 F1000
X-18.275 Y-30.451 I0.775 J0.33
G1 X-18.177 Y-30.442
X-18.079 Y-30.433
G3 X-17.614 Y-30.042 I-0.065 J0.55
G1 X-17.588 Y-29.948
X-17.562 Y-29.853
G3 X-17.905 Y-28.893 I-0.802 J0.255
X-18.923 Y-28.954 I-0.467 J-0.718
G2 X-20.502 Y-29.306 I-1.128 J1.344
G3 X-21.647 Y-30.449 I-0.24 J-0.904
X-17.944 Y-32.929 I3.257 J0.859
G2 X-16.929 Y-32.865 I0.963 J-7.207
X-15.913 Y-32.898 I-0.141 J-19.652
G3 X-15.562 Y-32.604 I0.02 J0.333
G2 X-15.419 Y-31.597 I19.521 J-2.267
X-15.179 Y-30.609 I7.169 J-1.211
G3 X-21.6 Y-28.571 I-3.21 J1.019
X-21.647 Y-30.449 I3.21 J-1.019
G2 X-22.126 Y-32.18 I-1.724 J-0.454
G3 X-22.058 Y-33.975 I0.845 J-0.867
X-17.633 Y-35.257 I3.669 J4.385
G2 X-15.419 Y-35.283 I1.019 J-7.63
X-13.292 Y-35.895 I-1.383 J-8.805
G3 X-13.066 Y-35.705 I0.065 J0.152
G2 X-13.3 Y-33.504 I8.677 J2.034
X-12.94 Y-31.32 I7.696 J-0.144
G3 X-23.839 Y-27.861 I-5.45 J1.729
X-22.058 Y-33.975 I5.45 J-1.729
G2 X-21.568 Y-35.445 I-0.948 J-1.134
G3 X-20.813 Y-36.799 I1.121 J-0.262
X-17.383 Y-37.129 I2.423 J7.209
G2 X-14.877 Y-37.315 I0.81 J-6.063
X-12.637 Y-38.456 I-1.845 J-6.39
G3 X-11.881 Y-38.643 I0.588 J0.756
G2 X-11.218 Y-38.56 I1.112 J-6.252
G3 X-10.801 Y-38.211 I-0.033 J0.462
G2 X-10.605 Y-37.571 I6.16 J-1.541
G3 X-10.658 Y-36.795 I-0.899 J0.329
G2 X-11.393 Y-34.391 I5.879 J3.111
X-11.141 Y-31.891 I6.082 J0.65
G3 X-25.639 Y-27.289 I-7.249 J2.301
X-20.813 Y-36.799 I7.249 J-2.301
G2 X-19.534 Y-38.338 I-0.607 J-1.806
G3 X-17.997 Y-39.62 I1.478 J0.21
X-17.061 Y-39.539 I-0.393 J10.03
G2 X-15.112 Y-39.784 I0.51 J-3.821
X-13.522 Y-40.937 I-1.511 J-3.756
X-13.346 Y-41.16 I-3.478 J-2.918
G3 X-13.171 Y-41.383 I3.653 J2.695
X-12.679 Y-41.473 I0.301 J0.252
G2 X-9.829 Y-41.091 I1.909 J-3.421
G3 X-9.124 Y-40.928 I0.192 J0.775
G1 X-8.833 Y-40.684
G3 X-8.55 Y-40.018 I-0.513 J0.612
G2 X-7.679 Y-37.277 I3.909 J0.266
G3 X-7.682 Y-36.777 I-0.304 J0.248
X-7.871 Y-36.566 I-3.477 J-2.918
G2 X-8.06 Y-36.355 I3.288 J3.129
X-8.92 Y-34.588 I3.101 J2.602
X-8.823 Y-32.626 I3.772 J0.796
G3 X-27.957 Y-26.554 I-9.567 J3.036
X-17.997 Y-39.62 I9.567 J-3.036
G2 X-15.941 Y-41.072 I0.081 J-2.067
G3 X-14.735 Y-43.28 I6.103 J1.9
G1 X-13.266 Y-45.031
X-11.734 Y-43.745
G2 X-9.621 Y-43.93 I0.964 J-1.149
G1 X-9.34 Y-44.265
X-5.51 Y-41.051
X-5.791 Y-40.716
G2 X-5.606 Y-38.603 I1.149 J0.964
G1 X-4.074 Y-37.317
X-6.195 Y-34.789
G2 X-6.475 Y-33.371 I1.149 J0.964
G3 X-30.304 Y-25.809 I-11.914 J3.781
X-16.735 Y-41.98 I11.914 J-3.781
G2 X-15.387 Y-42.503 I0.199 J-1.487
G1 X-14.735 Y-43.28
G3 X-14.385 Y-43.116 I0.153 J0.129
G1 X-16.93 Y-29.159
X-16.94 Y-29.121
X-16.958 Y-29.086
X-16.983 Y-29.056
G3 X-19.032 Y-31.036 Z-7.856 I-1.025 J-0.99 F333.3
X-16.983 Y-29.056 Z-8.013 I1.025 J0.99
X-19.032 Y-31.036 Z-8.169 I-1.025 J-0.99
X-16.983 Y-29.056 Z-8.325 I1.025 J0.99
X-18.923 Y-28.954 Z-8.4 I-1.025 J-0.99
X-19.161 Y-29.946 I0.551 J-0.656 F1000
X-18.275 Y-30.451 I0.775 J0.33
G1 X-18.177 Y-30.442
X-18.079 Y-30.433
G3 X-17.614 Y-30.042 I-0.065 J0.55
G1 X-17.588 Y-29.948
X-17.562 Y-29.853
G3 X-17.905 Y-28.893 I-0.802 J0.255
X-18.923 Y-28.954 I-0.467 J-0.718
G2 X-20.502 Y-29.306 I-1.128 J1.344
G3 X-21.647 Y-30.449 I-0.24 J-0.904
X-17.944 Y-32.929 I3.257 J0.859
G2 X-16.929 Y-32.865 I0.963 J-7.207
X-15.913 Y-32.898 I-0.141 J-19.652
G3 X-15.562 Y-32.604 I0.02 J0.333
G2 X-15.419 Y-31.597 I19.521 J-2.267
X-15.179 Y-30.609 I7.169 J-1.211
G3 X-21.6 Y-28.571 I-3.21 J1.019
X-21.647 Y-30.449 I3.21 J-1.019
G2 X-22.126 Y-32.18 I-1.724 J-0.454
G3 X-22.058 Y-33.975 I0.845 J-0.867
X-17.633 Y-35.257 I3.669 J4.385
G2 X-15.419 Y-35.283 I1.019 J-7.63
X-13.292 Y-35.895 I-1.383 J-8.805
G3 X-13.066 Y-35.705 I0.065 J0.152
G2 X-13.3 Y-33.504 I8.677 J2.034
X-12.94 Y-31.32 I7.696 J-0.144
G3 X-23.839 Y-27.861 I-5.45 J1.729
X-22.058 Y-33.975 I5.45 J-1.729
G2 X-21.568 Y-35.445 I-0.948 J-1.134
G3 X-20.813 Y-36.799 I1.121 J-0.262
X-17.383 Y-37.129 I2.423 J7.209
G2 X-14.877 Y-37.315 I0.81 J-6.063
X-12.637 Y-38.456 I-1.845 J-6.39
G3 X-11.881 Y-38.643 I0.588 J0.756
G2 X-11.218 Y-38.56 I1.112 J-6.252
G3 X-10.801 Y-38.211 I-0.033 J0.462
G2 X-10.605 Y-37.571 I6.16 J-1.541
G3 X-10.658 Y-36.795 I-0.899 J0.329
G2 X-11.393 Y-34.391 I5.879 J3.111
X-11.141 Y-31.891 I6.082 J0.65
G3 X-25.639 Y-27.289 I-7.249 J2.301
X-20.813 Y-36.799 I7.249 J-2.301
G2 X-19.534 Y-38.338 I-0.607 J-1.806
G3 X-17.997 Y-39.62 I1.478 J0.21
X-17.061 Y-39.539 I-0.393 J10.03
G2 X-15.112 Y-39.784 I0.51 J-3.821
X-13.522 Y-40.937 I-1.511 J-3.756
X-13.346 Y-41.16 I-3.478 J-2.918
G3 X-13.171 Y-41.383 I3.653 J2.695
X-12.679 Y-41.473 I0.301 J0.252
G2 X-9.829 Y-41.091 I1.909 J-3.421
G3 X-9.124 Y-40.928 I0.192 J0.775
G1 X-8.833 Y-40.684
G3 X-8.55 Y-40.018 I-0.513 J0.612
G2 X-7.679 Y-37.277 I3.909 J0.266
G3 X-7.682 Y-36.777 I-0.304 J0.248
X-7.871 Y-36.566 I-3.477 J-2.918
G2 X-8.06 Y-36.355 I3.288 J3.129
X-8.92 Y-34.588 I3.101 J2.602
X-8.823 Y-32.626 I3.772 J0.796
G3 X-27.957 Y-26.554 I-9.567 J3.036
X-17.997 Y-39.62 I9.567 J-3.036
G2 X-15.941 Y-41.072 I0.081 J-2.067
G3 X-14.735 Y-43.28 I6.103 J1.9
G1 X-13.266 Y-45.031
X-11.734 Y-43.745
G2 X-9.621 Y-43.93 I0.964 J-1.149
G1 X-9.34 Y-44.265
X-5.51 Y-41.051
X-5.791 Y-40.716
G2 X-5.606 Y-38.603 I1.149 J0.964
G1 X-4.074 Y-37.317
X-6.195 Y-34.789
G2 X-6.475 Y-33.371 I1.149 J0.964
G3 X-30.304 Y-25.809 I-11.914 J3.781
X-16.735 Y-41.98 I11.914 J-3.781
G2 X-15.387 Y-42.503 I0.199 J-1.487
G1 X-14.735 Y-43.28
G3 X-14.385 Y-43.116 I0.153 J0.129
G1 X-16.93 Y-29.159
X-16.94 Y-29.121
X-16.958 Y-29.086
X-16.983 Y-29.056
G3 X-19.032 Y-31.036 Z-8.556 I-1.025 J-0.99 F333.3
X-16.983 Y-29.056 Z-8.713 I1.025 J0.99
X-19.032 Y-31.036 Z-8.869 I-1.025 J-0.99
X-16.983 Y-29.056 Z-9.025 I1.025 J0.99
X-18.923 Y-28.954 Z-9.1 I-1.025 J-0.99
X-19.161 Y-29.946 I0.551 J-0.656 F1000
X-18.275 Y-30.451 I0.775 J0.33
G1 X-18.177 Y-30.442
X-18.079 Y-30.433
G3 X-17.614 Y-30.042 I-0.065 J0.55
G1 X-17.588 Y-29.948
X-17.562 Y-29.853
G3 X-17.905 Y-28.893 I-0.802 J0.255
X-18.923 Y-28.954 I-0.467 J-0.718
G2 X-20.502 Y-29.306 I-1.128 J1.344
G3 X-21.647 Y-30.449 I-0.24 J-0.904
X-17.944 Y-32.929 I3.257 J0.859
G2 X-16.929 Y-32.865 I0.963 J-7.207
X-15.913 Y-32.898 I-0.141 J-19.652
G3 X-15.562 Y-32.604 I0.02 J0.333
G2 X-15.419 Y-31.597 I19.521 J-2.267
X-15.179 Y-30.609 I7.169 J-1.211
G3 X-21.6 Y-28.571 I-3.21 J1.019
X-21.647 Y-30.449 I3.21 J-1.019
G2 X-22.126 Y-32.18 I-1.724 J-0.454
G3 X-22.058 Y-33.975 I0.845 J-0.867
X-17.633 Y-35.257 I3.669 J4.385
G2 X-15.419 Y-35.283 I1.019 J-7.63
X-13.292 Y-35.895 I-1.383 J-8.805
G3 X-13.066 Y-35.705 I0.065 J0.152
G2 X-13.3 Y-33.504 I8.677 J2.034
X-12.94 Y-31.32 I7.696 J-0.144
G3 X-23.839 Y-27.861 I-5.45 J1.729
X-22.058 Y-33.975 I5.45 J-1.729
G2 X-21.568 Y-35.445 I-0.948 J-1.134
G3 X-20.813 Y-36.799 I1.121 J-0.262
X-17.383 Y-37.129 I2.423 J7.209
G2 X-14.877 Y-37.315 I0.81 J-6.063
X-12.637 Y-38.456 I-1.845 J-6.39
G3 X-11.881 Y-38.643 I0.588 J0.756
G2 X-11.218 Y-38.56 I1.112 J-6.252
G3 X-10.801 Y-38.211 I-0.033 J0.462
G2 X-10.605 Y-37.571 I6.16 J-1.541
G3 X-10.658 Y-36.795 I-0.899 J0.329
G2 X-11.393 Y-34.391 I5.879 J3.111
X-11.141 Y-31.891 I6.082 J0.65
G3 X-25.639 Y-27.289 I-7.249 J2.301
X-20.813 Y-36.799 I7.249 J-2.301
G2 X-19.534 Y-38.338 I-0.607 J-1.806
G3 X-17.997 Y-39.62 I1.478 J0.21
X-17.061 Y-39.539 I-0.393 J10.03
G2 X-15.112 Y-39.784 I0.51 J-3.821
X-13.522 Y-40.937 I-1.511 J-3.756
X-13.346 Y-41.16 I-3.478 J-2.918
G3 X-13.171 Y-41.383 I3.653 J2.695
X-12.679 Y-41.473 I0.301 J0.252
G2 X-9.829 Y-41.091 I1.909 J-3.421
G3 X-9.124 Y-40.928 I0.192 J0.775
G1 X-8.833 Y-40.684
G3 X-8.55 Y-40.018 I-0.513 J0.612
G2 X-7.679 Y-37.277 I3.909 J0.266
G3 X-7.682 Y-36.777 I-0.304 J0.248
X-7.871 Y-36.566 I-3.477 J-2.918
G2 X-8.06 Y-36.355 I3.288 J3.129
X-8.92 Y-34.588 I3.101 J2.602
X-8.823 Y-32.626 I3.772 J0.796
G3 X-27.957 Y-26.554 I-9.567 J3.036
X-17.997 Y-39.62 I9.567 J-3.036
G2 X-15.941 Y-41.072 I0.081 J-2.067
G3 X-14.735 Y-43.28 I6.103 J1.9
G1 X-13.266 Y-45.031
X-11.734 Y-43.745
G2 X-9.621 Y-43.93 I0.964 J-1.149
G1 X-9.34 Y-44.265
X-5.51 Y-41.051
X-5.791 Y-40.716
G2 X-5.606 Y-38.603 I1.149 J0.964
G1 X-4.074 Y-37.317
X-6.195 Y-34.789
G2 X-6.475 Y-33.371 I1.149 J0.964
G3 X-30.304 Y-25.809 I-11.914 J3.781
X-16.735 Y-41.98 I11.914 J-3.781
G2 X-15.387 Y-42.503 I0.199 J-1.487
G1 X-14.735 Y-43.28
G3 X-14.385 Y-43.116 I0.153 J0.129
G1 X-16.93 Y-29.159
X-16.94 Y-29.121
X-16.958 Y-29.086
X-16.983 Y-29.056
G3 X-19.032 Y-31.036 Z-9.256 I-1.025 J-0.99 F333.3
X-16.983 Y-29.056 Z-9.413 I1.025 J0.99
X-19.032 Y-31.036 Z-9.569 I-1.025 J-0.99
X-16.983 Y-29.056 Z-9.725 I1.025 J0.99
X-18.923 Y-28.954 Z-9.8 I-1.025 J-0.99
X-19.161 Y-29.946 I0.551 J-0.656 F1000
X-18.275 Y-30.451 I0.775 J0.33
G1 X-18.177 Y-30.442
X-18.079 Y-30.433
G3 X-17.614 Y-30.042 I-0.065 J0.55
G1 X-17.588 Y-29.948
X-17.562 Y-29.853
G3 X-17.905 Y-28.893 I-0.802 J0.255
X-18.923 Y-28.954 I-0.467 J-0.718
G2 X-20.502 Y-29.306 I-1.128 J1.344
G3 X-21.647 Y-30.449 I-0.24 J-0.904
X-17.944 Y-32.929 I3.257 J0.859
G2 X-16.929 Y-32.865 I0.963 J-7.207
X-15.913 Y-32.898 I-0.141 J-19.652
G3 X-15.562 Y-32.604 I0.02 J0.333
G2 X-15.419 Y-31.597 I19.521 J-2.267
X-15.179 Y-30.609 I7.169 J-1.211
G3 X-21.6 Y-28.571 I-3.21 J1.019
X-21.647 Y-30.449 I3.21 J-1.019
G2 X-22.126 Y-32.18 I-1.724 J-0.454
G3 X-22.058 Y-33.975 I0.845 J-0.867
X-17.633 Y-35.257 I3.669 J4.385
G2 X-15.419 Y-35.283 I1.019 J-7.63
X-13.292 Y-35.895 I-1.383 J-8.805
G3 X-13.066 Y-35.705 I0.065 J0.152
G2 X-13.3 Y-33.504 I8.677 J2.034
X-12.94 Y-31.32 I7.696 J-0.144
G3 X-23.839 Y-27.861 I-5.45 J1.729
X-22.058 Y-33.975 I5.45 J-1.729
G2 X-21.568 Y-35.445 I-0.948 J-1.134
G3 X-20.813 Y-36.799 I1.121 J-0.262
X-17.383 Y-37.129 I2.423 J7.209
G2 X-14.877 Y-37.315 I0.81 J-6.063
X-12.637 Y-38.456 I-1.845 J-6.39
G3 X-11.881 Y-38.643 I0.588 J0.756
G2 X-11.218 Y-38.56 I1.112 J-6.252
G3 X-10.801 Y-38.211 I-0.033 J0.462
G2 X-10.605 Y-37.571 I6.16 J-1.541
G3 X-10.658 Y-36.795 I-0.899 J0.329
G2 X-11.393 Y-34.391 I5.879 J3.111
X-11.141 Y-31.891 I6.082 J0.65
G3 X-25.639 Y-27.289 I-7.249 J2.301
X-20.813 Y-36.799 I7.249 J-2.301
G2 X-19.534 Y-38.338 I-0.607 J-1.806
G3 X-17.997 Y-39.62 I1.478 J0.21
X-17.061 Y-39.539 I-0.393 J10.03
G2 X-15.112 Y-39.784 I0.51 J-3.821
X-13.522 Y-40.937 I-1.511 J-3.756
X-13.346 Y-41.16 I-3.478 J-2.918
G3 X-13.171 Y-41.383 I3.653 J2.695
X-12.679 Y-41.473 I0.301 J0.252
G2 X-9.829 Y-41.091 I1.909 J-3.421
G3 X-9.124 Y-40.928 I0.192 J0.775
G1 X-8.833 Y-40.684
G3 X-8.55 Y-40.018 I-0.513 J0.612
G2 X-7.679 Y-37.277 I3.909 J0.266
G3 X-7.682 Y-36.777 I-0.304 J0.248
X-7.871 Y-36.566 I-3.477 J-2.918
G2 X-8.06 Y-36.355 I3.288 J3.129
X-8.92 Y-34.588 I3.101 J2.602
X-8.823 Y-32.626 I3.772 J0.796
G3 X-27.957 Y-26.554 I-9.567 J3.036
X-17.997 Y-39.62 I9.567 J-3.036
G2 X-15.941 Y-41.072 I0.081 J-2.067
G3 X-14.735 Y-43.28 I6.103 J1.9
G1 X-13.266 Y-45.031
X-11.734 Y-43.745
G2 X-9.621 Y-43.93 I0.964 J-1.149
G1 X-9.34 Y-44.265
X-5.51 Y-41.051
X-5.791 Y-40.716
G2 X-5.606 Y-38.603 I1.149 J0.964
G1 X-4.074 Y-37.317
X-6.195 Y-34.789
G2 X-6.475 Y-33.371 I1.149 J0.964
G3 X-30.304 Y-25.809 I-11.914 J3.781
X-16.735 Y-41.98 I11.914 J-3.781
G2 X-15.387 Y-42.503 I0.199 J-1.487
G1 X-14.735 Y-43.28
G3 X-14.385 Y-43.116 I0.153 J0.129
G1 X-16.93 Y-29.159
X-16.94 Y-29.121
X-16.958 Y-29.086
X-16.983 Y-29.056
G3 X-19.032 Y-31.036 Z-9.956 I-1.025 J-0.99 F333.3
X-16.983 Y-29.056 Z-10.113 I1.025 J0.99
X-19.032 Y-31.036 Z-10.269 I-1.025 J-0.99
X-16.983 Y-29.056 Z-10.425 I1.025 J0.99
X-18.923 Y-28.954 Z-10.5 I-1.025 J-0.99
X-19.161 Y-29.946 I0.551 J-0.656 F1000
X-18.275 Y-30.451 I0.775 J0.33
G1 X-18.177 Y-30.442
X-18.079 Y-30.433
G3 X-17.614 Y-30.042 I-0.065 J0.55
G1 X-17.588 Y-29.948
X-17.562 Y-29.853
G3 X-17.905 Y-28.893 I-0.802 J0.255
X-18.923 Y-28.954 I-0.467 J-0.718
G2 X-20.502 Y-29.306 I-1.128 J1.344
G3 X-21.647 Y-30.449 I-0.24 J-0.904
X-17.944 Y-32.929 I3.257 J0.859
G2 X-16.929 Y-32.865 I0.963 J-7.207
X-15.913 Y-32.898 I-0.141 J-19.652
G3 X-15.562 Y-32.604 I0.02 J0.333
G2 X-15.419 Y-31.597 I19.521 J-2.267
X-15.179 Y-30.609 I7.169 J-1.211
G3 X-21.6 Y-28.571 I-3.21 J1.019
X-21.647 Y-30.449 I3.21 J-1.019
G2 X-22.126 Y-32.18 I-1.724 J-0.454
G3 X-22.058 Y-33.975 I0.845 J-0.867
X-17.633 Y-35.257 I3.669 J4.385
G2 X-15.419 Y-35.283 I1.019 J-7.63
X-13.292 Y-35.895 I-1.383 J-8.805
G3 X-13.066 Y-35.705 I0.065 J0.152
G2 X-13.3 Y-33.504 I8.677 J2.034
X-12.94 Y-31.32 I7.696 J-0.144
G3 X-23.839 Y-27.861 I-5.45 J1.729
X-22.058 Y-33.975 I5.45 J-1.729
G2 X-21.568 Y-35.445 I-0.948 J-1.134
G3 X-20.813 Y-36.799 I1.121 J-0.262
X-17.383 Y-37.129 I2.423 J7.209
G2 X-14.877 Y-37.315 I0.81 J-6.063
X-12.637 Y-38.456 I-1.845 J-6.39
G3 X-11.881 Y-38.643 I0.588 J0.756
G2 X-11.218 Y-38.56 I1.112 J-6.252
G3 X-10.801 Y-38.211 I-0.033 J0.462
G2 X-10.605 Y-37.571 I6.16 J-1.541
G3 X-10.658 Y-36.795 I-0.899 J0.329
G2 X-11.393 Y-34.391 I5.879 J3.111
X-11.141 Y-31.891 I6.082 J0.65
G3 X-25.639 Y-27.289 I-7.249 J2.301
X-20.813 Y-36.799 I7.249 J-2.301
G2 X-19.534 Y-38.338 I-0.607 J-1.806
G3 X-17.997 Y-39.62 I1.478 J0.21
X-17.061 Y-39.539 I-0.393 J10.03
G2 X-15.112 Y-39.784 I0.51 J-3.821
X-13.522 Y-40.937 I-1.511 J-3.756
X-13.346 Y-41.16 I-3.478 J-2.918
G3 X-13.171 Y-41.383 I3.653 J2.695
X-12.679 Y-41.473 I0.301 J0.252
G2 X-9.829 Y-41.091 I1.909 J-3.421
G3 X-9.124 Y-40.928 I0.192 J0.775
G1 X-8.833 Y-40.684
G3 X-8.55 Y-40.018 I-0.513 J0.612
G2 X-7.679 Y-37.277 I3.909 J0.266
G3 X-7.682 Y-36.777 I-0.304 J0.248
X-7.871 Y-36.566 I-3.477 J-2.918
G2 X-8.06 Y-36.355 I3.288 J3.129
X-8.92 Y-34.588 I3.101 J2.602
X-8.823 Y-32.626 I3.772 J0.796
G3 X-27.957 Y-26.554 I-9.567 J3.036
X-17.997 Y-39.62 I9.567 J-3.036
G2 X-15.941 Y-41.072 I0.081 J-2.067
G3 X-14.735 Y-43.28 I6.103 J1.9
G1 X-13.266 Y-45.031
X-11.734 Y-43.745
G2 X-9.621 Y-43.93 I0.964 J-1.149
G1 X-9.34 Y-44.265
X-5.51 Y-41.051
X-5.791 Y-40.716
G2 X-5.606 Y-38.603 I1.149 J0.964
G1 X-4.074 Y-37.317
X-6.195 Y-34.789
G2 X-6.475 Y-33.371 I1.149 J0.964
G3 X-30.304 Y-25.809 I-11.914 J3.781
X-16.735 Y-41.98 I11.914 J-3.781
G2 X-15.387 Y-42.503 I0.199 J-1.487
G1 X-14.735 Y-43.28
G3 X-14.385 Y-43.116 I0.153 J0.129
G1 X-16.93 Y-29.159
X-16.94 Y-29.121
X-16.958 Y-29.086
X-16.983 Y-29.056
G3 X-19.032 Y-31.036 Z-10.656 I-1.025 J-0.99 F333.3
X-16.983 Y-29.056 Z-10.813 I1.025 J0.99
X-19.032 Y-31.036 Z-10.969 I-1.025 J-0.99
X-16.983 Y-29.056 Z-11.125 I1.025 J0.99
X-18.923 Y-28.954 Z-11.2 I-1.025 J-0.99
X-19.161 Y-29.946 I0.551 J-0.656 F1000
X-18.275 Y-30.451 I0.775 J0.33
G1 X-18.177 Y-30.442
X-18.079 Y-30.433
G3 X-17.614 Y-30.042 I-0.065 J0.55
G1 X-17.588 Y-29.948
X-17.562 Y-29.853
G3 X-17.905 Y-28.893 I-0.802 J0.255
X-18.923 Y-28.954 I-0.467 J-0.718
G2 X-20.502 Y-29.306 I-1.128 J1.344
G3 X-21.647 Y-30.449 I-0.24 J-0.904
X-17.944 Y-32.929 I3.257 J0.859
G2 X-16.929 Y-32.865 I0.963 J-7.207
X-15.913 Y-32.898 I-0.141 J-19.652
G3 X-15.562 Y-32.604 I0.02 J0.333
G2 X-15.419 Y-31.597 I19.521 J-2.267
X-15.179 Y-30.609 I7.169 J-1.211
G3 X-21.6 Y-28.571 I-3.21 J1.019
