(1001)
(Machine)
(  vendor: Autodesk)
(  description: Generic 3-axis)
(T1  D=3 CR=0 - ZMIN=-18.4 - flat end mill)
G90 G94
G17
G21

(2D Pocket11)
T1
S10000 M3
G54
M8
G0 X-66.161 Y1.12
Z6
Z2
G1 Z1.8 F1000
G3 X-67.924 Y-1.12 Z1.644 I-0.882 J-1.12 F333.3
X-66.161 Y1.12 Z1.487 I0.882 J1.12
X-67.924 Y-1.12 Z1.331 I-0.882 J-1.12
X-66.161 Y1.12 Z1.175 I0.882 J1.12
X-67.924 Y-1.12 Z1.018 I-0.882 J-1.12
X-66.161 Y1.12 Z0.862 I0.882 J1.12
X-67.924 Y-1.12 Z0.706 I-0.882 J-1.12
X-66.161 Y1.12 Z0.549 I0.882 J1.12
X-67.924 Y-1.12 Z0.393 I-0.882 J-1.12
X-66.161 Y1.12 Z0.237 I0.882 J1.12
X-67.924 Y-1.12 Z0.08 I-0.882 J-1.12
X-66.161 Y1.12 Z-0.076 I0.882 J1.12
X-67.924 Y-1.12 Z-0.232 I-0.882 J-1.12
X-66.161 Y1.12 Z-0.389 I0.882 J1.12
X-68.468 Y0 Z-0.5 I-0.882 J-1.12
X-66.344 Y0 I1.062 J0
G2 X-56.567 Y34.751 I66.692 J-0.012 F1000
X65.589 Y-10.277 I56.574 J-34.732
X-40.019 Y-52.972 I-65.621 J10.357
X-58.795 Y-30.833 I40.194 J53.12
X-66.344 Y0 I59.143 J30.822
X-65.792 Y0.824 I0.891 J0
G3 X-65.229 Y1.64 I-0.345 J0.84
G2 X65.229 Y-1.64 I65.229 J-1.64
X0 Y-65.25 I-65.229 J1.64
G1 X-0.18
G2 X-65.25 Y0 I0.18 J65.25
X-65.229 Y1.64 I65.25 J0
G3 X-65.43 Y1.845 I-0.2 J0.005
G1 X-67.137 Y1.841
G3 X-67.336 Y1.647 I0 J-0.2
X-67.301 Y-2.857 I67.384 J-1.72
X-59.648 Y-31.3 I67.53 J2.918
X-3.236 Y-67.283 I59.835 J31.594
X29.248 Y60.68 I3.271 J67.275
X-67.336 Y1.647 I-29.2 J-60.753
G2 X-67.924 Y0.807 I-0.927 J0.024
G3 X-68.5 Y-0.04 I0.333 J-0.846
X68.5 Y0 I68.5 J0.04
G1 Y0.18
G3 X0 Y68.5 I-68.5 J-0.18
X-68.5 Y-0.04 I0 J-68.5
X-68.144 Y-0.165 I0.2 J0
G1 X-67.537 Y0.59
G3 X-67.571 Y0.875 I-0.156 J0.125
X-67.855 Y0.833 I-0.121 J-0.159
X-65.542 Y-0.833 Z-0.656 I1.156 J-0.833 F333.3
X-67.855 Y0.833 Z-0.813 I-1.156 J0.833
X-65.542 Y-0.833 Z-0.969 I1.156 J-0.833
X-65.273 Y-0.002 Z-1 I-1.156 J0.833
X-67.358 Y0.001 I-1.042 J0.001
X-67.301 Y-2.857 I67.406 J-0.073 F1000
X-59.648 Y-31.3 I67.53 J2.918
X-3.236 Y-67.283 I59.835 J31.594
X29.248 Y60.68 I3.271 J67.275
X-67.358 Y0.001 I-29.2 J-60.753
G2 X-67.924 Y-0.852 I-0.926 J0.001
G3 X-68.479 Y-1.711 I0.353 J-0.837
X68.5 Y0 I68.479 J1.711
G1 Y0.18
G3 X0 Y68.5 I-68.5 J-0.18
X-68.479 Y-1.711 I0 J-68.5
X-68.27 Y-1.906 I0.2 J0.005
G1 X-66.515 Y-1.826
G3 X-66.324 Y-1.621 I-0.009 J0.2
G2 X-56.567 Y34.751 I66.673 J1.61
X65.589 Y-10.277 I56.574 J-34.732
X-40.019 Y-52.972 I-65.621 J10.357
X-58.795 Y-30.833 I40.194 J53.12
X-66.324 Y-1.621 I59.143 J30.822
X-65.792 Y-0.784 I0.891 J0.022
G3 X-65.25 Y0.046 I-0.366 J0.831
G2 X65.25 Y-0.046 I65.25 J-0.046
X0 Y-65.25 I-65.25 J0.046
G1 X-0.18
G2 X-65.25 Y0 I0.18 J65.25
G1 Y0.046
G3 X-65.607 Y0.17 I-0.2 J0
G1 X-66.205 Y-0.591
G3 X-66.168 Y-0.875 I0.157 J-0.124
X-65.885 Y-0.832 I0.12 J0.16
X-68.2 Y0.832 Z-1.156 I-1.157 J0.832 F333.3
X-65.885 Y-0.832 Z-1.313 I1.157 J-0.832
X-68.2 Y0.832 Z-1.469 I-1.157 J0.832
X-68.468 Y0 Z-1.5 I1.157 J-0.832
X-66.344 Y0 I1.062 J0
G2 X-56.567 Y34.751 I66.692 J-0.012 F1000
X65.589 Y-10.277 I56.574 J-34.732
X-40.019 Y-52.972 I-65.621 J10.357
X-58.795 Y-30.833 I40.194 J53.12
X-66.344 Y0 I59.143 J30.822
X-65.792 Y0.824 I0.891 J0
G3 X-65.229 Y1.64 I-0.345 J0.84
G2 X65.229 Y-1.64 I65.229 J-1.64
X0 Y-65.25 I-65.229 J1.64
G1 X-0.18
G2 X-65.25 Y0 I0.18 J65.25
X-65.229 Y1.64 I65.25 J0
G3 X-65.43 Y1.845 I-0.2 J0.005
G1 X-67.137 Y1.841
G3 X-67.336 Y1.647 I0 J-0.2
X-67.301 Y-2.857 I67.384 J-1.72
X-59.648 Y-31.3 I67.53 J2.918
X-3.236 Y-67.283 I59.835 J31.594
X29.248 Y60.68 I3.271 J67.275
X-67.336 Y1.647 I-29.2 J-60.753
G2 X-67.924 Y0.807 I-0.927 J0.024
G3 X-68.5 Y-0.04 I0.333 J-0.846
X68.5 Y0 I68.5 J0.04
G1 Y0.18
G3 X0 Y68.5 I-68.5 J-0.18
X-68.5 Y-0.04 I0 J-68.5
X-68.144 Y-0.165 I0.2 J0
G1 X-67.537 Y0.59
G3 X-67.571 Y0.875 I-0.156 J0.125
X-67.855 Y0.833 I-0.121 J-0.159
X-65.542 Y-0.833 Z-1.656 I1.156 J-0.833 F333.3
X-67.855 Y0.833 Z-1.813 I-1.156 J0.833
X-65.542 Y-0.833 Z-1.969 I1.156 J-0.833
X-65.273 Y-0.002 Z-2 I-1.156 J0.833
X-67.358 Y0.001 I-1.042 J0.001
X-67.301 Y-2.857 I67.406 J-0.073 F1000
X-59.648 Y-31.3 I67.53 J2.918
X-3.236 Y-67.283 I59.835 J31.594
X29.248 Y60.68 I3.271 J67.275
X-67.358 Y0.001 I-29.2 J-60.753
G2 X-67.924 Y-0.852 I-0.926 J0.001
G3 X-68.479 Y-1.711 I0.353 J-0.837
X68.5 Y0 I68.479 J1.711
G1 Y0.18
G3 X0 Y68.5 I-68.5 J-0.18
X-68.479 Y-1.711 I0 J-68.5
X-68.27 Y-1.906 I0.2 J0.005
G1 X-66.515 Y-1.826
G3 X-66.324 Y-1.621 I-0.009 J0.2
G2 X-56.567 Y34.751 I66.673 J1.61
X65.589 Y-10.277 I56.574 J-34.732
X-40.019 Y-52.972 I-65.621 J10.357
X-58.795 Y-30.833 I40.194 J53.12
X-66.324 Y-1.621 I59.143 J30.822
X-65.792 Y-0.784 I0.891 J0.022
G3 X-65.25 Y0.046 I-0.366 J0.831
G2 X65.25 Y-0.046 I65.25 J-0.046
X0 Y-65.25 I-65.25 J0.046
G1 X-0.18
G2 X-65.25 Y0 I0.18 J65.25
G1 Y0.046
G0 Z6
X31.606 Y1.12
Z2
G1 Z1.8 F1000
G3 X29.844 Y-1.12 Z1.644 I-0.881 J-1.12 F333.3
X31.606 Y1.12 Z1.487 I0.881 J1.12
X29.844 Y-1.12 Z1.331 I-0.881 J-1.12
X31.606 Y1.12 Z1.175 I0.881 J1.12
X29.844 Y-1.12 Z1.018 I-0.881 J-1.12
X31.606 Y1.12 Z0.862 I0.881 J1.12
X29.844 Y-1.12 Z0.706 I-0.881 J-1.12
X31.606 Y1.12 Z0.549 I0.881 J1.12
X29.844 Y-1.12 Z0.393 I-0.881 J-1.12
X31.606 Y1.12 Z0.237 I0.881 J1.12
X29.844 Y-1.12 Z0.08 I-0.881 J-1.12
X31.606 Y1.12 Z-0.076 I0.881 J1.12
X29.844 Y-1.12 Z-0.232 I-0.881 J-1.12
X31.606 Y1.12 Z-0.389 I0.881 J1.12
X29.3 Y0 Z-0.5 I-0.881 J-1.12
G2 X16.168 Y-24.436 I-29.3 J0 F1000
X-13.849 Y-25.821 I-16.169 J24.47
X0 Y29.3 I13.885 J25.812
X29.3 Y0 I0 J-29.3
X27.847 Y-2.11 I-2.259 J0
G3 X26.233 Y-4.101 I0.911 J-2.387
G2 X25.591 Y-7.072 I-26.223 J4.117
X-26.127 Y-4.721 I-25.593 J7.037
X-16.531 Y20.776 I26.032 J4.757
X26.233 Y-4.101 I16.541 J-20.76
X24.447 Y-5.979 I-2.251 J0.353
G3 X22.504 Y-7.693 I0.534 J-2.564
G2 X-14.817 Y-18.625 I-22.524 J7.722
X1.069 Y23.776 I14.835 J18.618
X22.94 Y6.342 I-1.116 J-23.836
X22.504 Y-7.693 I-22.959 J-6.312
X20.419 Y-9.226 I-2.147 J0.736
G3 X18.193 Y-10.547 I0.072 J-2.656
G2 X-13.103 Y-16.474 I-18.213 J10.577
X0.94 Y21.029 I13.122 J16.468
X20.288 Y5.613 I-0.988 J-21.089
X18.193 Y-10.547 I-20.308 J-5.583
X15.822 Y-11.65 I-1.975 J1.147
G3 X13.342 Y-12.477 I-0.476 J-2.702
G2 X-8.637 Y-16.134 I-13.375 J12.512
X0 Y18.3 I8.674 J16.124
X16.479 Y7.958 I0 J-18.3
X13.342 Y-12.477 I-16.512 J-7.924
X10.82 Y-13.007 I-1.639 J1.533
G3 X8.251 Y-13.208 I-1.093 J-2.553
G2 X-15.55 Y0 I-8.261 J13.162
X12.598 Y9.116 I15.55 J0
X13.999 Y-6.769 I-12.54 J-9.111
X8.251 Y-13.208 I-14.01 J6.723
X5.52 Y-13.043 I-1.251 J1.992
G3 X2.854 Y-12.426 I-1.966 J-2.428
G2 X0 Y-12.75 I-2.854 J12.426
X-1.712 Y-12.635 I0 J12.75
X1.712 Y12.634 I1.712 J12.634
X2.854 Y-12.426 I-1.712 J-12.634
G3 X2.699 Y-12.635 I0.045 J-0.195
G1 X3.944 Y-30.284
G3 X4.126 Y-30.469 I0.2 J0.014
G1 X4.177 Y-30.468
X4.227 Y-30.456
G2 X9.501 Y-29.252 I7.128 J-19.076
G1 X9.551 Y-29.242
X9.598 Y-29.22
G2 X14.572 Y-27.095 I10.419 J-17.494
G1 X14.62 Y-27.075
X14.662 Y-27.046
G2 X19.177 Y-24.066 I13.375 J-15.352
G1 X19.22 Y-24.039
X19.256 Y-24.002
G2 X23.167 Y-20.264 I15.904 J-12.72
G1 X23.204 Y-20.229
X23.234 Y-20.187
G2 X26.413 Y-15.811 I17.919 J-9.675
G1 X26.444 Y-15.77
X26.466 Y-15.723
G2 X28.813 Y-10.85 I19.355 J-6.319
G1 X28.836 Y-10.804
X28.848 Y-10.754
G2 X30.288 Y-5.539 I20.173 J-2.762
G1 X30.302 Y-5.49
X30.306 Y-5.439
G2 X30.791 Y-0.051 I20.345 J0.885
G1 X30.796 Y0
X30.791 Y0.051
G2 X30.306 Y5.439 I19.859 J4.503
G1 X30.302 Y5.49
X30.288 Y5.539
G2 X28.849 Y10.754 I18.736 J7.977
G1 X28.836 Y10.804
X28.813 Y10.849
G2 X26.466 Y15.723 I17.012 J11.195
G1 X26.444 Y15.77
X26.413 Y15.811
G2 X23.234 Y20.187 I14.739 J14.052
G1 X23.204 Y20.229
X23.166 Y20.264
G2 X19.256 Y24.002 I11.993 J16.457
G1 X19.22 Y24.039
X19.177 Y24.066
G2 X14.662 Y27.046 I8.862 J18.335
G1 X14.62 Y27.075
X14.572 Y27.094
G2 X9.598 Y29.221 I5.445 J19.62
G1 X9.551 Y29.242
X9.501 Y29.252
G2 X4.227 Y30.456 I1.854 J20.281
G1 X4.177 Y30.468
X4.126 Y30.469
G2 X-1.278 Y30.712 I-1.796 J20.282
G1 X-1.329 Y30.716
X-1.38 Y30.708
G2 X-6.741 Y29.981 I-5.389 J19.636
G1 X-6.792 Y29.976
X-6.84 Y29.959
G2 X-11.985 Y28.287 I-8.809 J18.359
G1 X-12.034 Y28.272
X-12.079 Y28.247
G2 X-16.843 Y25.684 I-11.946 J16.492
G1 X-16.888 Y25.66
X-16.928 Y25.627
G2 X-21.157 Y22.255 I-14.7 J14.094
G1 X-21.198 Y22.223
X-21.231 Y22.184
G2 X-24.79 Y18.11 I-16.98 J11.243
G1 X-24.824 Y18.072
X-24.85 Y18.028
G2 X-27.624 Y13.384 I-18.713 J8.03
G1 X-27.652 Y13.34
X-27.669 Y13.292
G2 X-29.569 Y8.227 I-19.848 J4.56
G1 X-29.588 Y8.18
X-29.597 Y8.129
G2 X-30.562 Y2.806 I-20.341 J0.942
G1 X-30.573 Y2.756
X-30.572 Y2.705
G2 X-30.572 Y-2.705 I-20.183 J-2.705
G1 X-30.573 Y-2.756
X-30.563 Y-2.806
G2 X-29.597 Y-8.129 I-19.376 J-6.265
G1 X-29.588 Y-8.18
X-29.569 Y-8.227
G2 X-27.669 Y-13.292 I-17.946 J-9.624
G1 X-27.652 Y-13.34
X-27.624 Y-13.384
G2 X-24.85 Y-18.028 I-15.94 J-12.675
G1 X-24.824 Y-18.072
X-24.79 Y-18.11
G2 X-21.231 Y-22.184 I-13.42 J-15.316
G1 X-21.198 Y-22.223
X-21.157 Y-22.254
G2 X-16.928 Y-25.627 I-10.468 J-17.464
G1 X-16.888 Y-25.66
X-16.843 Y-25.683
G2 X-12.079 Y-28.247 I-7.182 J-19.054
G1 X-12.034 Y-28.272
X-11.985 Y-28.287
G2 X-6.84 Y-29.959 I-3.664 J-20.029
G1 X-6.792 Y-29.976
X-6.741 Y-29.981
G2 X-1.38 Y-30.708 I-0.029 J-20.362
G1 X-1.33 Y-30.716
X-1.278 Y-30.712
G2 X4.126 Y-30.469 I3.608 J-20.04
X5.641 Y-31.335 I-0.184 J-2.082
G3 X7.275 Y-31.951 I1.278 J0.915
G2 X9.742 Y-31.556 I4.077 J-17.562
G3 X10.757 Y-31.226 I-0.214 J2.385
G2 X15.22 Y-29.319 I9.252 J-15.471
G3 X16.161 Y-28.813 I-0.636 J2.309
G2 X20.212 Y-26.139 I11.865 J-13.57
G3 X21.047 Y-25.473 I-1.038 J2.158
G2 X24.555 Y-22.119 I14.1 J-11.235
G3 X25.258 Y-21.314 I-1.407 J1.938
G2 X28.111 Y-17.388 I15.879 J-8.537
G3 X28.658 Y-16.471 I-1.73 J1.656
G2 X30.764 Y-12.098 I17.145 J-5.563
G3 X31.14 Y-11.098 I-1.998 J1.32
G2 X32.431 Y-6.419 I17.863 J-2.412
G3 X32.622 Y-5.368 I-2.202 J0.942
G2 X33.057 Y-0.534 I18.01 J0.816
G3 X33.057 Y0.534 I-2.335 J0.534
G2 X32.622 Y5.368 I17.574 J4.018
G3 X32.431 Y6.419 I-2.393 J0.109
G2 X31.14 Y11.098 I16.575 J7.092
G3 X30.765 Y12.098 I-2.373 J-0.32
G2 X28.658 Y16.471 I15.043 J9.938
G3 X28.111 Y17.388 I-2.278 J-0.739
G2 X25.258 Y21.314 I13.026 J12.464
G3 X24.555 Y22.118 I-2.11 J-1.134
G2 X21.047 Y25.473 I10.591 J14.589
G3 X20.212 Y26.139 I-1.873 J-1.492
G2 X16.161 Y28.812 I7.816 J16.246
G3 X15.221 Y29.319 I-1.577 J-1.803
G2 X10.757 Y31.226 I4.789 J17.379
G3 X9.742 Y31.556 I-1.229 J-2.055
G2 X5.01 Y32.636 I1.609 J17.958
G3 X3.952 Y32.78 I-0.843 J-2.242
G2 X-0.897 Y32.997 I-1.623 J17.953
G3 X-1.964 Y32.95 I-0.429 J-2.356
G2 X-6.774 Y32.298 I-4.803 J17.375
G3 X-7.815 Y32.06 I-0.001 J-2.395
G2 X-12.431 Y30.56 I-7.828 J16.239
G3 X-13.413 Y30.141 I0.427 J-2.357
G2 X-17.688 Y27.841 I-10.602 J14.581
G3 X-18.579 Y27.252 I0.84 J-2.243
G2 X-22.374 Y24.226 I-13.036 J12.454
G3 X-23.146 Y23.488 I1.227 J-2.057
G2 X-26.339 Y19.833 I-15.05 J9.926
G3 X-26.967 Y18.969 I1.575 J-1.804
G2 X-29.456 Y14.802 I-16.579 J7.079
G3 X-29.92 Y13.84 I1.872 J-1.494
G2 X-31.625 Y9.296 I-17.579 J4.005
G3 X-31.909 Y8.266 I2.108 J-1.136
G2 X-32.776 Y3.491 I-18.01 J0.802
G3 X-32.872 Y2.427 I2.277 J-0.741
G2 X-32.872 Y-2.427 I-17.864 J-2.427
G3 X-32.776 Y-3.49 I2.373 J-0.323
G2 X-31.909 Y-8.266 I-17.144 J-5.578
G3 X-31.625 Y-9.296 I2.393 J0.106
G2 X-29.92 Y-13.84 I-15.872 J-8.549
G3 X-29.456 Y-14.802 I2.335 J0.532
G2 X-26.967 Y-18.969 I-14.092 J-11.247
G3 X-26.339 Y-19.833 I2.203 J0.94
G2 X-23.146 Y-23.488 I-11.856 J-13.581
G3 X-22.374 Y-24.226 I1.999 J1.318
G2 X-18.579 Y-27.252 I-9.239 J-15.478
G3 X-17.688 Y-27.841 I1.732 J1.654
G2 X-13.414 Y-30.141 I-6.327 J-16.88
G3 X-12.432 Y-30.56 I1.409 J1.937
G2 X-7.815 Y-32.06 I-3.212 J-17.738
G3 X-6.774 Y-32.298 I1.04 J2.157
G2 X-1.965 Y-32.95 I0.007 J-18.027
G3 X-0.898 Y-32.997 I0.638 J2.308
G2 X3.951 Y-32.78 I3.226 J-17.736
G3 X5.01 Y-32.636 I0.216 J2.385
G2 X7.275 Y-31.951 I6.341 J-16.877
X9.507 Y-33.045 I0.445 J-1.918
G3 X11.889 Y-33.757 I1.505 J0.694
G2 X16.471 Y-31.836 I8.236 J-13.212
G3 X17.573 Y-31.243 I-0.578 J2.395
G2 X21.891 Y-28.392 I10.617 J-11.388
G3 X22.87 Y-27.612 I-0.997 J2.253
G2 X26.61 Y-24.036 I12.481 J-9.31
G3 X27.433 Y-23.093 I-1.383 J2.039
G2 X30.475 Y-18.907 I13.94 J-6.93
G3 X31.117 Y-17.833 I-1.725 J1.76
G2 X33.362 Y-13.171 I14.955 J-4.33
G3 X33.802 Y-11.999 I-2.011 J1.423
G2 X35.178 Y-7.011 I15.489 J-1.59
G3 X35.402 Y-5.78 I-2.233 J1.041
G2 X35.865 Y-0.626 I15.522 J1.201
G3 X35.866 Y0.626 I-2.383 J0.626
G2 X35.402 Y5.779 I15.058 J3.953
G3 X35.178 Y7.011 I-2.456 J0.19
G2 X33.802 Y11.999 I14.11 J6.578
G3 X33.362 Y13.17 I-2.451 J-0.251
G2 X31.117 Y17.832 I12.71 J8.993
G3 X30.475 Y18.907 I-2.366 J-0.685
G2 X27.433 Y23.093 I10.9 J11.117
G3 X26.61 Y24.036 I-2.206 J-1.096
G2 X22.87 Y27.612 I8.741 J12.886
G3 X21.891 Y28.392 I-1.975 J-1.473
G2 X17.573 Y31.242 I6.299 J14.239
G3 X16.471 Y31.835 I-1.681 J-1.802
G2 X11.713 Y33.869 I3.655 J15.134
G3 X10.523 Y34.256 I-1.332 J-2.073
G2 X5.478 Y35.407 I0.894 J15.543
G3 X4.238 Y35.575 I-0.94 J-2.278
G2 X-0.932 Y35.807 I-1.896 J15.454
G3 X-2.182 Y35.751 I-0.518 J-2.408
G2 X-7.309 Y35.057 I-4.624 J14.865
G3 X-8.53 Y34.778 I-0.08 J-2.463
G2 X-13.451 Y33.179 I-7.205 J13.802
G3 X-14.602 Y32.687 I0.361 J-2.437
G2 X-19.158 Y30.235 I-9.554 J12.295
G3 X-20.203 Y29.546 I0.791 J-2.334
G2 X-24.248 Y26.32 I-11.595 J10.39
G3 X-25.153 Y25.455 I1.195 J-2.155
G2 X-28.557 Y21.558 I-13.264 J8.153
G3 X-29.293 Y20.546 I1.56 J-1.907
G2 X-31.947 Y16.104 I-14.507 J5.653
G3 X-32.49 Y14.976 I1.875 J-1.598
G2 X-34.308 Y10.131 I-15.283 J2.972
G3 X-34.641 Y8.925 I2.13 J-1.237
G2 X-35.565 Y3.834 I-15.569 J0.196
G3 X-35.677 Y2.587 I2.317 J-0.837
G2 X-35.677 Y-2.587 I-15.353 J-2.588
G3 X-35.565 Y-3.834 I2.429 J-0.41
G2 X-34.641 Y-8.925 I-14.644 J-5.287
G3 X-34.308 Y-10.131 I2.463 J0.031
G2 X-32.49 Y-14.976 I-13.465 J-7.817
G3 X-31.947 Y-16.103 I2.418 J0.47
G2 X-29.293 Y-20.546 I-11.853 J-10.096
G3 X-28.558 Y-21.558 I2.296 J0.894
G2 X-25.153 Y-25.455 I-9.86 J-12.05
G3 X-24.249 Y-26.32 I2.099 J1.29
G2 X-20.203 Y-29.546 I-7.55 J-13.617
G3 X-19.159 Y-30.235 I1.835 J1.644
G2 X-14.602 Y-32.687 I-4.997 J-14.746
G3 X-13.451 Y-33.179 I1.512 J1.945
G2 X-8.53 Y-34.778 I-2.284 J-15.402
G3 X-7.31 Y-35.057 I1.14 J2.184
G2 X-2.182 Y-35.751 I0.503 J-15.562
G3 X-0.932 Y-35.808 I0.732 J2.352
G2 X4.237 Y-35.575 I3.274 J-15.222
G3 X5.478 Y-35.407 I0.3 J2.445
G2 X10.522 Y-34.256 I5.939 J-14.392
G3 X11.713 Y-33.869 I-0.141 J2.46
G1 X11.889 Y-33.757
G2 X14.541 Y-33.919 I1.212 J-1.945
G3 X17.133 Y-34.505 I1.892 J2.343
G2 X17.949 Y-34.338 I2.958 J-12.382
G3 X18.847 Y-33.855 I-0.269 J1.576
G2 X23.793 Y-30.59 I9.293 J-8.7
G3 X24.59 Y-29.954 I-0.546 J1.503
G2 X28.873 Y-25.86 I10.697 J-6.901
G3 X29.545 Y-25.091 I-0.806 J1.382
G2 X33.027 Y-20.297 I11.758 J-4.88
G3 X33.551 Y-19.422 I-1.039 J1.215
G2 X36.122 Y-14.083 I12.44 J-2.702
G3 X36.48 Y-13.128 I-1.24 J1.01
G2 X38.057 Y-7.416 I12.723 J-0.438
G3 X38.239 Y-6.412 I-1.4 J0.772
G2 X38.77 Y-0.51 I12.596 J1.841
G3 X38.77 Y0.51 I-1.515 J0.51
G2 X38.239 Y6.411 I12.065 J4.061
G3 X38.057 Y7.416 I-1.583 J0.231
G2 X36.48 Y13.127 I11.146 J6.149
G3 X36.122 Y14.083 I-1.599 J-0.055
G2 X33.551 Y19.421 I9.868 J8.041
G3 X33.027 Y20.298 I-1.564 J-0.34
G2 X29.545 Y25.091 I8.275 J9.674
G3 X28.873 Y25.86 I-1.477 J-0.613
G2 X24.59 Y29.954 I6.414 J10.996
G3 X23.793 Y30.59 I-1.344 J-0.867
G2 X18.847 Y33.855 I4.348 J11.965
G3 X17.949 Y34.338 I-1.168 J-1.093
G2 X12.5 Y36.667 I2.142 J12.549
G3 X11.53 Y36.982 I-0.954 J-1.284
G2 X5.753 Y38.301 I-0.134 J12.729
G3 X4.742 Y38.438 I-0.709 J-1.433
G2 X-1.177 Y38.704 I-2.404 J12.501
G3 X-2.197 Y38.658 I-0.442 J-1.538
G2 X-8.069 Y37.863 I-4.598 J11.871
G3 X-9.063 Y37.636 I-0.16 J-1.591
G2 X-14.699 Y35.804 I-6.644 J10.859
G3 X-15.637 Y35.404 I0.126 J-1.594
G2 X-20.855 Y32.596 I-8.476 J9.499
G3 X-21.706 Y32.034 I0.409 J-1.545
G2 X-26.339 Y28.339 I-10.036 J7.832
G3 X-27.077 Y27.634 I0.679 J-1.448
G2 X-30.975 Y23.172 I-11.273 J5.915
G3 X-31.575 Y22.346 I0.926 J-1.303
G2 X-34.614 Y17.26 I-12.147 J3.806
G3 X-35.057 Y16.34 I1.144 J-1.117
G2 X-37.139 Y10.793 I-12.631 J1.576
G3 X-37.41 Y9.809 I1.326 J-0.896
G2 X-38.468 Y3.979 I-12.711 J-0.704
G3 X-38.56 Y2.963 I1.464 J-0.644
G2 X-38.56 Y-2.963 I-12.381 J-2.963
G3 X-38.468 Y-3.979 I1.555 J-0.372
G2 X-37.41 Y-9.809 I-11.652 J-5.126
G3 X-37.139 Y-10.793 I1.598 J-0.089
G2 X-35.057 Y-16.34 I-10.551 J-7.124
G3 X-34.614 Y-17.26 I1.587 J0.198
G2 X-31.575 Y-22.346 I-9.108 J-8.893
G3 X-30.975 Y-23.172 I1.526 J0.478
G2 X-27.077 Y-27.634 I-7.374 J-10.376
G3 X-26.339 Y-28.339 I1.416 J0.743
G2 X-21.706 Y-32.033 I-5.403 J-11.527
G3 X-20.855 Y-32.596 I1.261 J0.984
G2 X-15.637 Y-35.403 I-3.258 J-12.306
G3 X-14.699 Y-35.804 I1.065 J1.193
G2 X-9.063 Y-37.636 I-1.008 J-12.69
G3 X-8.069 Y-37.863 I0.834 J1.363
G2 X-2.197 Y-38.658 I1.274 J-12.666
G3 X-1.178 Y-38.704 I0.578 J1.491
G2 X4.742 Y-38.438 I3.515 J-12.234
G3 X5.753 Y-38.301 I0.302 J1.571
G2 X11.53 Y-36.982 I5.643 J-11.41
G3 X12.5 Y-36.667 I0.017 J1.599
G2 X17.133 Y-34.505 I7.59 J-10.22
X19.091 Y-35.212 I0.441 J-1.845
G3 X21.166 Y-35.373 I1.108 J0.831
G2 X22.555 Y-34.239 I7.152 J-7.344
X25.577 Y-32.872 I5.443 J-8.006
G1 X25.656 Y-32.854
X25.734 Y-32.837
G3 X26.348 Y-32.347 I-0.229 J0.917
G2 X28.306 Y-29.671 I9.143 J-4.636
X31.034 Y-27.787 I6.786 J-6.905
G1 X31.109 Y-27.755
X31.185 Y-27.723
G3 X31.701 Y-27.132 I-0.389 J0.861
G2 X33.152 Y-24.147 I9.824 J-2.928
X35.502 Y-21.805 I7.907 J-5.584
G1 X35.568 Y-21.761
X35.635 Y-21.718
G3 X36.037 Y-21.044 I-0.536 J0.778
G2 X36.932 Y-17.848 I10.189 J-1.127
X38.827 Y-15.123 I8.775 J-4.082
G1 X38.884 Y-15.069
X38.941 Y-15.015
G3 X39.217 Y-14.28 I-0.667 J0.67
G2 X39.525 Y-10.978 I10.226 J0.71
X40.901 Y-7.961 I9.367 J-2.448
G1 X40.949 Y-7.895
X40.997 Y-7.83
G3 X41.137 Y-7.057 I-0.775 J0.54
G2 X40.851 Y-3.752 I9.934 J2.525
X41.666 Y-0.537 I9.653 J-0.737
G1 X41.702 Y-0.465
X41.737 Y-0.393
G3 X41.737 Y0.392 I-0.859 J0.393
G2 X40.865 Y3.592 I9.325 J4.258
X41.093 Y6.9 I9.63 J1
G1 X41.115 Y6.978
X41.137 Y7.057
G3 X40.997 Y7.83 I-0.916 J0.233
G2 X39.567 Y10.826 I8.414 J5.854
X39.202 Y14.125 I9.294 J2.699
G1 X39.209 Y14.203
X39.217 Y14.28
G3 X38.941 Y15.015 I-0.943 J0.066
G2 X37 Y17.706 I7.234 J7.263
X36.051 Y20.886 I8.663 J4.317
G1 X36.044 Y20.965
X36.037 Y21.044
G3 X35.635 Y21.718 I-0.939 J-0.104
G2 X33.244 Y24.02 I5.82 J8.437
X31.742 Y26.98 I7.754 J5.793
G1 X31.722 Y27.056
X31.701 Y27.132
G3 X31.185 Y27.723 I-0.905 J-0.27
G2 X28.424 Y29.559 I4.221 J9.342
X26.419 Y32.199 I6.594 J7.09
G1 X26.384 Y32.273
X26.348 Y32.347
G3 X25.734 Y32.837 I-0.843 J-0.427
G2 X22.686 Y34.152 I2.485 J9.945
X20.24 Y36.397 I5.224 J8.147
G1 X20.195 Y36.46
X20.15 Y36.523
G3 X19.458 Y36.895 I-0.753 J-0.571
G2 X16.227 Y37.645 I0.669 J10.229
X13.42 Y39.414 I3.684 J8.952
G1 X13.363 Y39.47
X13.305 Y39.525
G3 X12.559 Y39.768 I-0.639 J-0.696
G2 X9.246 Y39.928 I-1.168 J10.184
X6.169 Y41.167 I2.025 J9.467
G1 X6.102 Y41.212
X6.035 Y41.257
G3 X5.257 Y41.362 I-0.504 J-0.799
G2 X1.965 Y40.928 I-2.968 J9.811
X-1.286 Y41.601 I0.306 J9.673
G1 X-1.357 Y41.632
X-1.428 Y41.662
G3 X-2.212 Y41.627 I-0.354 J-0.876
G2 X-5.369 Y40.613 I-4.672 J9.124
X-8.684 Y40.692 I-1.431 J9.576
G1 X-8.764 Y40.71
X-8.843 Y40.729
G3 X-9.609 Y40.554 I-0.192 J-0.925
G2 X-12.533 Y38.993 I-6.226 J8.144
X-15.808 Y38.478 I-3.119 J9.167
G1 X-15.89 Y38.482
X-15.973 Y38.486
G3 X-16.695 Y38.178 I-0.023 J-0.944
G2 X-19.294 Y36.119 I-7.58 J6.9
X-22.425 Y35.028 I-4.705 J8.462
G1 X-22.506 Y35.018
X-22.588 Y35.007
G3 X-23.243 Y34.574 I0.146 J-0.933
G2 X-25.434 Y32.084 I-8.691 J5.436
X-28.322 Y30.451 I-6.138 J7.486
G1 X-28.398 Y30.427
X-28.474 Y30.402
G3 X-29.042 Y29.86 I0.31 J-0.892
G2 X-30.752 Y27.02 I-9.522 J3.797
X-33.299 Y24.898 I-7.379 J6.269
G1 X-33.372 Y24.859
X-33.445 Y24.82
G3 X-33.906 Y24.185 I0.465 J-0.823
G2 X-35.082 Y21.084 I-10.047 J2.036
X-37.212 Y18.54 I-8.377 J4.852
G1 X-37.275 Y18.491
X-37.338 Y18.441
G3 X-37.679 Y17.734 I0.604 J-0.727
G2 X-38.284 Y14.468 I-10.248 J0.209
X-39.929 Y11.583 I-9.104 J3.28
G1 X-39.98 Y11.526
X-40.03 Y11.469
G3 X-40.239 Y10.712 I0.724 J-0.607
G2 X-40.25 Y7.395 I-10.122 J-1.624
X-41.351 Y4.265 I-9.547 J1.599
G1 X-41.392 Y4.196
X-41.434 Y4.128
G3 X-41.504 Y3.346 I0.821 J-0.468
G2 X-40.923 Y0.079 I-9.669 J-3.405
X-41.447 Y-3.197 I-9.679 J-0.131
G1 X-41.476 Y-3.271
X-41.504 Y-3.346
G3 X-41.434 Y-4.128 I0.891 J-0.314
G2 X-40.278 Y-7.242 I-8.905 J-5.077
X-40.211 Y-10.563 I-9.497 J-1.853
G1 X-40.225 Y-10.637
X-40.239 Y-10.712
G3 X-40.03 Y-11.469 I0.933 J-0.15
G2 X-38.339 Y-14.32 I-7.856 J-6.585
X-37.678 Y-17.568 I-9.018 J-3.528
G1 Y-17.651
X-37.679 Y-17.734
G3 X-37.338 Y-18.441 I0.945 J0.019
G2 X-35.162 Y-20.951 I-6.554 J-7.882
X-33.932 Y-24.037 I-8.241 J-5.071
G1 X-33.919 Y-24.111
X-33.906 Y-24.185
G3 X-33.445 Y-24.82 I0.926 J0.188
G2 X-30.859 Y-26.896 I-5.041 J-8.926
X-29.099 Y-29.706 I-7.203 J-6.47
G1 X-29.07 Y-29.783
X-29.042 Y-29.86
G3 X-28.474 Y-30.402 I0.878 J0.35
G2 X-25.556 Y-31.986 I-3.366 J-9.682
X-23.321 Y-34.441 I-5.933 J-7.646
G1 X-23.282 Y-34.508
X-23.243 Y-34.574
G3 X-22.588 Y-35.007 I0.801 J0.501
G2 X-19.435 Y-36.043 I-1.583 J-10.128
X-16.799 Y-38.058 I-4.472 J-8.585
G1 X-16.747 Y-38.118
X-16.695 Y-38.178
G3 X-15.973 Y-38.486 I0.699 J0.636
G2 X-12.69 Y-38.942 I0.251 J-10.248
X-9.738 Y-40.45 I-2.865 J-9.249
G1 X-9.673 Y-40.502
X-9.609 Y-40.554
G3 X-8.844 Y-40.729 I0.574 J0.75
G2 X-5.529 Y-40.592 I2.076 J-10.039
X-2.353 Y-41.551 I-1.169 J-9.609
G1 X-2.283 Y-41.589
X-2.212 Y-41.627
G3 X-1.428 Y-41.662 I0.431 J0.841
G2 X1.809 Y-40.935 I3.836 J-9.507
X5.105 Y-41.312 I0.565 J-9.663
G1 X5.181 Y-41.337
X5.257 Y-41.362
G3 X6.035 Y-41.257 I0.274 J0.904
G2 X9.088 Y-39.964 I5.471 J-8.669
X12.396 Y-39.745 I2.284 J-9.409
G1 X12.477 Y-39.756
X12.559 Y-39.768
G3 X13.305 Y-39.525 I0.108 J0.939
G2 X16.082 Y-37.707 I6.931 J-7.552
X19.302 Y-36.901 I3.923 J-8.848
G1 X19.38 Y-36.898
X19.458 Y-36.895
G3 X20.15 Y-36.523 I-0.062 J0.943
G2 X21.166 Y-35.373 I8.169 J-6.194
X23.804 Y-35.02 I1.556 J-1.598
G3 X26.441 Y-35.384 I1.789 J3.226
G2 X27.77 Y-35.196 I1.689 J-7.155
G3 X28.196 Y-34.857 I-0.023 J0.465
G2 X33.609 Y-29.681 I7.079 J-1.985
G3 X33.967 Y-29.271 I-0.105 J0.454
G2 X38.37 Y-23.212 I7.32 J-0.689
G3 X38.649 Y-22.745 I-0.185 J0.427
G2 X41.898 Y-15.997 I7.325 J0.629
G3 X42.09 Y-15.487 I-0.258 J0.388
G2 X44.082 Y-8.267 I7.095 J1.927
G3 X44.179 Y-7.732 I-0.323 J0.335
G2 X44.851 Y-0.272 I6.637 J3.163
G3 X44.851 Y0.272 I-0.378 J0.272
G2 X44.179 Y7.732 I5.966 J4.297
G3 X44.082 Y8.267 I-0.42 J0.2
G2 X42.09 Y15.487 I5.103 J5.293
G3 X41.898 Y15.997 I-0.449 J0.122
G2 X38.649 Y22.745 I4.076 J6.119
G3 X38.37 Y23.212 I-0.464 J0.04
G2 X33.967 Y29.271 I2.918 J6.749
G3 X33.609 Y29.681 I-0.464 J-0.044
G2 X28.196 Y34.857 I1.666 J7.161
G3 X27.77 Y35.196 I-0.448 J-0.126
G2 X21.519 Y39.322 I0.36 J7.343
G3 X21.04 Y39.58 I-0.419 J-0.204
G2 X14.153 Y42.524 I-0.957 J7.29
G3 X13.635 Y42.692 I-0.376 J-0.275
G2 X6.334 Y44.359 I-2.243 J7.002
G3 X5.794 Y44.432 I-0.321 J-0.338
G2 X-1.688 Y44.768 I-3.457 J6.489
G3 X-2.232 Y44.743 I-0.255 J-0.39
G2 X-9.654 Y43.738 I-4.56 J5.767
G3 X-10.184 Y43.617 I-0.181 J-0.429
G2 X-17.307 Y41.303 I-5.517 J4.86
G3 X-17.808 Y41.089 I-0.102 J-0.454
G2 X-24.403 Y37.54 I-6.296 J3.797
G3 X-24.858 Y37.24 I-0.019 J-0.465
G2 X-30.713 Y32.57 I-6.873 J2.612
G3 X-31.107 Y32.194 I0.064 J-0.461
G2 X-36.034 Y26.554 I-7.228 J1.343
G3 X-36.355 Y26.113 I0.146 J-0.442
G2 X-40.196 Y19.684 I-7.352 J0.03
G3 X-40.432 Y19.193 I0.222 J-0.409
G2 X-43.064 Y12.181 I-7.239 J-1.283
G3 X-43.209 Y11.656 I0.292 J-0.363
G2 X-44.546 Y4.287 I-6.894 J-2.555
G3 X-44.595 Y3.745 I0.352 J-0.305
G2 X-44.595 Y-3.745 I-6.327 J-3.745
G3 X-44.546 Y-4.287 I0.401 J-0.237
G2 X-43.209 Y-11.656 I-5.557 J-4.814
G3 X-43.064 Y-12.181 I0.437 J-0.162
G2 X-40.432 Y-19.193 I-4.608 J-5.729
G3 X-40.196 Y-19.684 I0.459 J-0.081
G2 X-36.355 Y-26.113 I-3.511 J-6.46
G3 X-36.035 Y-26.554 I0.466 J0.002
G2 X-31.107 Y-32.194 I-2.301 J-6.983
G3 X-30.713 Y-32.57 I0.458 J0.085
G2 X-24.858 Y-37.239 I-1.017 J-7.282
G3 X-24.403 Y-37.54 I0.436 J0.165
G2 X-17.808 Y-41.088 I0.299 J-7.346
G3 X-17.307 Y-41.303 I0.399 J0.24
G2 X-10.185 Y-43.617 I1.606 J-7.175
G3 X-9.654 Y-43.738 I0.35 J0.308
G2 X-2.232 Y-44.743 I2.862 J-6.773
G3 X-1.688 Y-44.768 I0.289 J0.365
G2 X5.794 Y-44.432 I4.025 J-6.153
G3 X6.334 Y-44.359 I0.219 J0.411
G2 X13.635 Y-42.692 I5.059 J-5.335
G3 X14.153 Y-42.524 I0.142 J0.444
G2 X21.04 Y-39.58 I5.93 J-4.346
G3 X21.519 Y-39.322 I0.061 J0.462
G2 X26.441 Y-35.384 I6.611 J-3.217
X28.28 Y-36.457 I0.355 J-1.504
G3 X30.4 Y-36.271 I1.042 J0.303
G2 X36.622 Y-32.141 I4.829 J-0.524
G3 X36.809 Y-31.927 I0.045 J0.15
G2 X41.774 Y-25.094 I4.423 J2.006
G3 X41.919 Y-24.85 I0.018 J0.155
G2 X45.584 Y-17.241 I3.99 J2.766
G3 X45.684 Y-16.975 I-0.011 J0.156
G2 X47.931 Y-8.833 I3.433 J3.433
G3 X47.981 Y-8.554 I-0.038 J0.151
G2 X48.738 Y-0.142 I2.767 J3.991
G3 X48.738 Y0.142 I-0.065 J0.142
G2 X47.981 Y8.554 I2.008 J4.421
G3 X47.931 Y8.834 I-0.089 J0.128
G2 X45.684 Y16.975 I1.188 J4.708
G3 X45.584 Y17.241 I-0.11 J0.11
G2 X41.919 Y24.85 I0.328 J4.845
G3 X41.774 Y25.094 I-0.128 J0.089
G2 X36.809 Y31.927 I-0.541 J4.826
G3 X36.622 Y32.141 I-0.142 J0.064
G2 X30.518 Y37.978 I-1.396 J4.651
G3 X30.296 Y38.155 I-0.151 J0.038
G2 X23.247 Y42.807 I-2.206 J4.324
G3 X22.997 Y42.942 I-0.156 J0.011
G2 X15.231 Y46.261 I-2.941 J3.863
G3 X14.96 Y46.349 I-0.155 J-0.017
G2 X6.726 Y48.229 I-3.584 J3.276
G3 X6.445 Y48.267 I-0.149 J-0.045
G2 X-1.992 Y48.646 I-4.111 J2.582
G3 X-2.276 Y48.633 I-0.139 J-0.071
G2 X-10.646 Y47.499 I-4.506 J1.806
G3 X-10.923 Y47.436 I-0.124 J-0.095
G2 X-18.955 Y44.826 I-4.756 J0.973
G3 X-19.216 Y44.714 I-0.105 J-0.115
G2 X-26.654 Y40.712 I-4.851 J0.104
G3 X-26.891 Y40.556 I-0.083 J-0.132
G2 X-33.494 Y35.29 I-4.795 J-0.76
G3 X-33.699 Y35.094 I-0.058 J-0.145
G2 X-39.256 Y28.733 I-4.583 J-1.604
G3 X-39.423 Y28.503 I-0.031 J-0.153
G2 X-43.755 Y21.253 I-4.224 J-2.396
G3 X-43.878 Y20.997 I-0.004 J-0.156
G2 X-46.846 Y13.09 I-3.727 J-3.112
G3 X-46.922 Y12.816 I0.024 J-0.154
G2 X-48.43 Y4.506 I-3.113 J-3.727
G3 X-48.455 Y4.223 I0.052 J-0.147
G2 X-48.455 Y-4.223 I-2.396 J-4.223
G3 X-48.43 Y-4.506 I0.077 J-0.136
G2 X-46.922 Y-12.816 I-1.602 J-4.582
G3 X-46.846 Y-13.09 I0.1 J-0.12
G2 X-43.878 Y-20.997 I-0.755 J-4.794
G3 X-43.755 Y-21.253 I0.12 J-0.1
G2 X-39.423 Y-28.503 I0.109 J-4.854
G3 X-39.256 Y-28.733 I0.136 J-0.077
G2 X-33.699 Y-35.094 I0.974 J-4.756
G3 X-33.494 Y-35.29 I0.147 J-0.052
G2 X-26.891 Y-40.556 I1.808 J-4.506
G3 X-26.654 Y-40.712 I0.154 J-0.024
G2 X-19.216 Y-44.715 I2.584 J-4.11
G3 X-18.955 Y-44.826 I0.156 J0.004
G2 X-10.923 Y-47.436 I3.277 J-3.579
G3 X-10.646 Y-47.499 I0.153 J0.031
G2 X-2.276 Y-48.633 I3.863 J-2.941
G3 X-1.992 Y-48.646 I0.145 J0.058
G2 X6.445 Y-48.267 I4.326 J-2.204
G3 X6.726 Y-48.229 I0.132 J0.083
G2 X14.96 Y-46.349 I4.65 J-1.396
G3 X15.231 Y-46.261 I0.115 J0.105
G2 X22.997 Y-42.942 I4.826 J-0.547
G3 X23.247 Y-42.807 I0.094 J0.124
G2 X30.296 Y-38.155 I4.843 J0.328
G3 X30.518 Y-37.978 I0.071 J0.139
G2 X30.4 Y-36.271 I4.711 J1.183
X31.795 Y-34.869 I1.573 J-0.171
G3 X33.665 Y-34.223 I-0.511 J4.51
G1 X33.697 Y-34.203
X33.774 Y-34.159
X33.856 Y-34.115
X33.937 Y-34.075
X34.022 Y-34.035
X34.107 Y-33.999
X34.194 Y-33.966
X34.279 Y-33.935
X34.367 Y-33.907
X34.454 Y-33.882
X34.544 Y-33.859
X34.632 Y-33.839
X34.724 Y-33.821
X34.812 Y-33.807
X34.905 Y-33.795
X34.995 Y-33.785
X35.089 Y-33.779
X35.178 Y-33.775
X35.272 Y-33.774
X35.363 Y-33.776
X35.457 Y-33.781
X35.547 Y-33.788
X35.64 Y-33.798
X35.729 Y-33.811
X35.821 Y-33.827
X35.91 Y-33.845
X36.001 Y-33.866
X36.089 Y-33.89
X36.179 Y-33.917
X36.266 Y-33.946
X36.353 Y-33.978
X36.436 Y-34.011
X36.522 Y-34.049
X36.559 Y-34.066
X36.602 Y-34.086
X36.643 Y-34.105
X36.683 Y-34.124
X36.721 Y-34.141
X36.762 Y-34.16
X36.803 Y-34.178
X36.843 Y-34.197
X36.884 Y-34.215
X36.924 Y-34.233
X36.964 Y-34.251
X37.005 Y-34.268
X37.046 Y-34.286
X37.129 Y-34.322
X37.168 Y-34.339
X37.21 Y-34.356
X37.252 Y-34.374
X37.294 Y-34.391
X37.335 Y-34.408
X37.376 Y-34.425
X37.417 Y-34.442
X37.46 Y-34.459
X37.5 Y-34.476
X37.585 Y-34.509
X37.628 Y-34.526
X37.67 Y-34.543
X37.71 Y-34.558
X37.753 Y-34.574
X37.796 Y-34.591
X37.839 Y-34.607
X37.88 Y-34.623
X37.923 Y-34.639
X37.967 Y-34.655
X38.009 Y-34.671
X38.051 Y-34.686
X38.139 Y-34.718
X38.181 Y-34.733
X38.223 Y-34.748
X38.311 Y-34.779
X38.354 Y-34.794
X38.398 Y-34.809
X38.441 Y-34.824
X38.484 Y-34.838
X38.528 Y-34.853
X38.572 Y-34.868
X38.615 Y-34.882
X38.66 Y-34.897
X38.704 Y-34.911
X38.747 Y-34.925
X38.792 Y-34.94
X38.836 Y-34.954
X38.878 Y-34.968
X38.97 Y-34.996
X39.012 Y-35.01
X39.103 Y-35.037
X39.147 Y-35.051
X39.191 Y-35.064
X39.236 Y-35.077
X39.28 Y-35.091
X39.325 Y-35.104
X39.37 Y-35.117
X39.416 Y-35.13
X39.46 Y-35.143
X39.505 Y-35.156
X39.55 Y-35.169
X39.595 Y-35.181
X39.641 Y-35.194
X39.687 Y-35.207
X39.732 Y-35.219
X39.777 Y-35.232
X39.822 Y-35.244
X39.867 Y-35.256
X39.914 Y-35.269
X39.96 Y-35.281
X40.05 Y-35.304
X40.096 Y-35.316
X40.143 Y-35.328
X40.189 Y-35.34
X40.234 Y-35.351
X40.281 Y-35.363
X40.327 Y-35.374
X40.373 Y-35.386
X40.419 Y-35.397
X40.512 Y-35.419
X40.558 Y-35.43
X40.605 Y-35.441
X40.62 Y-35.445
X40.614 Y-35.43
X40.597 Y-35.386
X40.58 Y-35.342
X40.563 Y-35.297
X40.545 Y-35.251
X40.528 Y-35.209
X40.511 Y-35.165
X40.493 Y-35.119
X40.476 Y-35.076
X40.458 Y-35.032
X40.44 Y-34.987
X40.422 Y-34.943
X40.405 Y-34.9
X40.386 Y-34.856
X40.368 Y-34.812
X40.35 Y-34.769
X40.332 Y-34.725
X40.314 Y-34.681
X40.295 Y-34.638
X40.277 Y-34.595
X40.259 Y-34.551
X40.24 Y-34.508
X40.222 Y-34.465
X40.203 Y-34.422
X40.185 Y-34.38
X40.165 Y-34.336
X40.146 Y-34.293
X40.128 Y-34.251
X40.108 Y-34.208
X40.089 Y-34.165
X40.07 Y-34.123
X40.05 Y-34.079
X40.031 Y-34.036
X40.012 Y-33.996
X39.993 Y-33.953
X39.973 Y-33.911
X39.953 Y-33.869
X39.933 Y-33.826
X39.914 Y-33.784
X39.874 Y-33.7
X39.854 Y-33.659
X39.834 Y-33.617
X39.814 Y-33.576
X39.794 Y-33.535
X39.773 Y-33.493
X39.753 Y-33.451
X39.732 Y-33.41
X39.711 Y-33.368
X39.691 Y-33.327
X39.671 Y-33.287
X39.65 Y-33.246
X39.629 Y-33.205
X39.608 Y-33.164
X39.587 Y-33.124
X39.566 Y-33.083
X39.545 Y-33.042
X39.524 Y-33.002
X39.502 Y-32.961
X39.481 Y-32.921
X39.46 Y-32.881
X39.437 Y-32.84
X39.416 Y-32.801
X39.395 Y-32.762
X39.373 Y-32.721
X39.35 Y-32.68
X39.329 Y-32.642
X39.285 Y-32.562
X39.263 Y-32.523
X39.241 Y-32.484
X39.219 Y-32.445
X39.197 Y-32.406
X39.174 Y-32.368
X39.152 Y-32.328
X39.129 Y-32.29
X39.106 Y-32.25
X39.084 Y-32.212
X39.061 Y-32.173
X39.038 Y-32.135
X39.016 Y-32.098
X38.992 Y-32.059
X38.968 Y-32.02
X38.946 Y-31.983
X38.923 Y-31.945
X38.9 Y-31.908
X38.876 Y-31.87
X38.853 Y-31.832
X38.829 Y-31.795
X38.805 Y-31.756
X38.782 Y-31.72
X38.758 Y-31.683
X38.734 Y-31.646
X38.71 Y-31.61
X38.686 Y-31.571
X38.637 Y-31.491
X38.593 Y-31.413
X38.55 Y-31.331
X38.509 Y-31.248
X38.471 Y-31.163
X38.436 Y-31.081
X38.403 Y-30.994
X38.373 Y-30.909
X38.345 Y-30.82
X38.321 Y-30.734
X38.298 Y-30.643
X38.278 Y-30.553
X38.261 Y-30.461
X38.247 Y-30.373
X38.235 Y-30.28
X38.227 Y-30.189
X38.221 Y-30.096
X38.218 Y-30.008
X38.217 Y-29.914
X38.219 Y-29.823
X38.225 Y-29.73
X38.232 Y-29.64
X38.243 Y-29.547
X38.256 Y-29.459
X38.272 Y-29.367
X38.291 Y-29.277
X38.313 Y-29.186
X38.337 Y-29.099
X38.364 Y-29.01
X38.393 Y-28.924
X38.426 Y-28.836
X38.459 Y-28.754
X38.497 Y-28.669
X38.537 Y-28.586
X38.58 Y-28.503
X38.623 Y-28.425
X38.671 Y-28.345
X38.72 Y-28.267
X38.773 Y-28.19
X38.825 Y-28.118
X38.882 Y-28.044
X38.94 Y-27.974
X39.001 Y-27.904
X39.064 Y-27.837
X39.129 Y-27.77
X39.192 Y-27.71
X39.262 Y-27.647
X39.332 Y-27.588
X39.405 Y-27.53
X39.478 Y-27.476
X39.554 Y-27.422
X39.63 Y-27.372
X39.709 Y-27.323
X39.788 Y-27.278
X39.87 Y-27.234
X39.95 Y-27.195
X40.035 Y-27.156
X40.12 Y-27.12
X40.206 Y-27.086
X40.29 Y-27.056
X40.379 Y-27.028
X40.465 Y-27.003
X40.556 Y-26.98
X40.646 Y-26.96
X40.738 Y-26.942
X40.826 Y-26.928
X40.919 Y-26.916
X41.009 Y-26.907
X41.102 Y-26.9
X41.193 Y-26.897
X41.287 Y-26.896
X41.377 Y-26.898
X41.47 Y-26.903
X41.561 Y-26.91
X41.654 Y-26.921
X41.743 Y-26.933
X41.835 Y-26.949
X41.924 Y-26.968
X42.015 Y-26.989
X42.059 Y-27
X42.102 Y-27.012
X42.143 Y-27.023
X42.187 Y-27.034
X42.23 Y-27.045
X42.272 Y-27.056
X42.314 Y-27.067
X42.358 Y-27.078
X42.401 Y-27.088
X42.444 Y-27.099
X42.486 Y-27.109
X42.53 Y-27.119
X42.574 Y-27.13
X42.618 Y-27.14
X42.66 Y-27.149
X42.703 Y-27.159
X42.747 Y-27.169
X42.791 Y-27.179
X42.836 Y-27.189
X42.878 Y-27.198
X42.967 Y-27.217
X43.01 Y-27.226
X43.055 Y-27.235
X43.1 Y-27.244
X43.144 Y-27.253
X43.189 Y-27.261
X43.232 Y-27.27
X43.275 Y-27.278
X43.322 Y-27.287
X43.367 Y-27.296
X43.41 Y-27.304
X43.455 Y-27.312
X43.5 Y-27.32
X43.544 Y-27.328
X43.589 Y-27.336
X43.636 Y-27.344
X43.679 Y-27.351
X43.724 Y-27.358
X43.77 Y-27.366
X43.816 Y-27.374
X43.86 Y-27.381
X43.905 Y-27.388
X43.951 Y-27.395
X43.996 Y-27.402
X44.042 Y-27.409
X44.088 Y-27.416
X44.133 Y-27.422
X44.179 Y-27.429
X44.225 Y-27.436
X44.269 Y-27.442
X44.315 Y-27.448
X44.363 Y-27.455
X44.407 Y-27.461
X44.499 Y-27.473
X44.545 Y-27.478
X44.593 Y-27.484
X44.638 Y-27.49
X44.73 Y-27.501
X44.775 Y-27.506
X44.823 Y-27.512
X44.869 Y-27.517
X44.962 Y-27.527
X45.009 Y-27.532
X45.055 Y-27.537
X45.149 Y-27.546
X45.195 Y-27.551
X45.242 Y-27.555
X45.289 Y-27.559
X45.335 Y-27.564
X45.382 Y-27.568
X45.429 Y-27.572
X45.476 Y-27.576
X45.524 Y-27.58
X45.57 Y-27.584
X45.666 Y-27.591
X45.713 Y-27.595
X45.758 Y-27.598
X45.854 Y-27.605
X45.901 Y-27.608
X45.949 Y-27.611
X45.996 Y-27.614
X46.043 Y-27.617
X46.09 Y-27.62
X46.138 Y-27.623
X46.187 Y-27.625
X46.234 Y-27.628
X46.28 Y-27.63
X46.297 Y-27.631
X46.289 Y-27.618
X46.238 Y-27.535
X46.214 Y-27.496
X46.19 Y-27.456
X46.164 Y-27.414
X46.139 Y-27.373
X46.113 Y-27.333
X46.089 Y-27.294
X46.064 Y-27.254
X46.038 Y-27.213
X46.013 Y-27.173
X45.988 Y-27.134
X45.962 Y-27.093
X45.936 Y-27.053
X45.911 Y-27.014
X45.886 Y-26.976
X45.86 Y-26.935
X45.833 Y-26.895
X45.808 Y-26.856
X45.782 Y-26.817
X45.756 Y-26.778
X45.73 Y-26.739
X45.704 Y-26.699
X45.677 Y-26.659
X45.651 Y-26.621
X45.626 Y-26.583
X45.599 Y-26.544
X45.572 Y-26.505
X45.546 Y-26.466
X45.52 Y-26.428
X45.493 Y-26.39
X45.466 Y-26.351
X45.44 Y-26.313
X45.414 Y-26.276
X45.359 Y-26.198
X45.332 Y-26.161
X45.306 Y-26.124
X45.279 Y-26.086
X45.251 Y-26.048
X45.224 Y-26.011
X45.169 Y-25.935
X45.142 Y-25.899
X45.115 Y-25.862
X45.087 Y-25.824
X45.06 Y-25.788
X45.004 Y-25.713
X44.978 Y-25.678
X44.95 Y-25.642
X44.921 Y-25.604
X44.893 Y-25.567
X44.866 Y-25.532
X44.838 Y-25.496
X44.81 Y-25.459
X44.782 Y-25.423
X44.753 Y-25.387
X44.726 Y-25.352
X44.698 Y-25.317
X44.669 Y-25.281
X44.64 Y-25.244
X44.611 Y-25.208
X44.583 Y-25.174
X44.555 Y-25.139
X44.527 Y-25.104
X44.499 Y-25.07
X44.469 Y-25.034
X44.44 Y-24.998
X44.411 Y-24.964
X44.383 Y-24.93
X44.355 Y-24.897
X44.325 Y-24.861
X44.295 Y-24.826
X44.267 Y-24.793
X44.237 Y-24.758
X44.208 Y-24.725
X44.179 Y-24.691
X44.15 Y-24.658
X44.12 Y-24.624
X44.09 Y-24.59
X44.061 Y-24.557
X44.031 Y-24.524
X44.002 Y-24.491
X43.973 Y-24.458
X43.942 Y-24.424
X43.913 Y-24.392
X43.884 Y-24.36
X43.853 Y-24.327
X43.823 Y-24.295
X43.793 Y-24.262
X43.763 Y-24.23
X43.733 Y-24.198
X43.703 Y-24.165
X43.641 Y-24.095
X43.583 Y-24.026
X43.525 Y-23.953
X43.471 Y-23.88
X43.418 Y-23.803
X43.369 Y-23.727
X43.321 Y-23.648
X43.276 Y-23.569
X43.232 Y-23.486
X43.193 Y-23.406
X43.154 Y-23.321
X43.119 Y-23.237
X43.086 Y-23.15
X43.056 Y-23.064
X43.028 Y-22.975
X43.004 Y-22.888
X42.981 Y-22.798
X42.962 Y-22.709
X42.945 Y-22.618
X42.931 Y-22.528
X42.919 Y-22.435
X42.911 Y-22.347
X42.905 Y-22.253
X42.902 Y-22.162
Y-22.068
X42.904 Y-21.979
X42.909 Y-21.885
X42.917 Y-21.795
X42.928 Y-21.702
X42.941 Y-21.614
X42.958 Y-21.522
X42.977 Y-21.432
X42.999 Y-21.341
X43.022 Y-21.256
X43.049 Y-21.167
X43.079 Y-21.079
X43.112 Y-20.992
X43.145 Y-20.91
X43.183 Y-20.824
X43.223 Y-20.742
X43.266 Y-20.659
X43.31 Y-20.579
X43.358 Y-20.499
X43.406 Y-20.425
X43.458 Y-20.348
X43.511 Y-20.275
X43.569 Y-20.201
X43.627 Y-20.131
X43.688 Y-20.06
X43.75 Y-19.994
X43.816 Y-19.927
X43.881 Y-19.866
X43.95 Y-19.803
X44.02 Y-19.745
X44.093 Y-19.687
X44.166 Y-19.632
X44.242 Y-19.579
X44.318 Y-19.529
X44.397 Y-19.481
X44.475 Y-19.436
X44.557 Y-19.392
X44.638 Y-19.353
X44.723 Y-19.314
X44.807 Y-19.278
X44.894 Y-19.244
X44.98 Y-19.214
X45.069 Y-19.186
X45.156 Y-19.161
X45.246 Y-19.138
X45.333 Y-19.118
X45.425 Y-19.101
X45.517 Y-19.086
X45.609 Y-19.074
X45.699 Y-19.066
X45.792 Y-19.059
X45.882 Y-19.056
X45.976 Y-19.055
X46.067 Y-19.057
X46.16 Y-19.062
X46.205 Y-19.065
X46.25 Y-19.069
X46.291 Y-19.072
X46.336 Y-19.076
X46.381 Y-19.079
X46.425 Y-19.082
X46.468 Y-19.085
X46.512 Y-19.088
X46.557 Y-19.091
X46.601 Y-19.093
X46.645 Y-19.096
X46.69 Y-19.098
X46.735 Y-19.101
X46.779 Y-19.103
X46.823 Y-19.105
X46.868 Y-19.107
X46.914 Y-19.109
X46.957 Y-19.11
X47.002 Y-19.112
X47.047 Y-19.113
X47.093 Y-19.115
X47.137 Y-19.116
X47.181 Y-19.117
X47.227 Y-19.118
X47.272 Y-19.119
X47.318 Y-19.12
X47.362 Y-19.121
X47.407
X47.452 Y-19.122
X47.498
X47.544
X47.589
X47.635
X47.681
X47.725
X47.771
X47.817
X47.862 Y-19.121
X47.908
X47.954 Y-19.12
X47.999 Y-19.119
X48.045 Y-19.118
X48.091 Y-19.117
X48.137 Y-19.116
X48.182 Y-19.115
X48.228 Y-19.113
X48.275 Y-19.112
X48.321 Y-19.11
X48.368 Y-19.109
X48.413 Y-19.107
X48.459 Y-19.105
X48.506 Y-19.103
X48.552 Y-19.101
X48.598 Y-19.099
X48.645 Y-19.097
X48.69 Y-19.094
X48.737 Y-19.092
X48.783 Y-19.089
X48.876 Y-19.084
X48.922 Y-19.081
X48.97 Y-19.078
X49.017 Y-19.075
X49.062 Y-19.072
X49.109 Y-19.069
X49.155 Y-19.065
X49.202 Y-19.062
X49.249 Y-19.058
X49.296 Y-19.054
X49.343 Y-19.051
X49.389 Y-19.047
X49.436 Y-19.043
X49.482 Y-19.039
X49.529 Y-19.035
X49.577 Y-19.03
X49.624 Y-19.026
X49.67 Y-19.022
X49.717 Y-19.017
X49.765 Y-19.012
X49.811 Y-19.008
X49.906 Y-18.998
X49.952 Y-18.993
X50.046 Y-18.983
X50.093 Y-18.977
X50.142 Y-18.972
X50.188 Y-18.967
X50.234 Y-18.961
X50.283 Y-18.955
X50.329 Y-18.949
X50.377 Y-18.943
X50.425 Y-18.937
X50.472 Y-18.931
X50.487 Y-18.929
X50.445 Y-18.882
X50.381 Y-18.81
X50.35 Y-18.776
X50.319 Y-18.74
X50.286 Y-18.704
X50.254 Y-18.67
X50.223 Y-18.635
X50.191 Y-18.6
X50.158 Y-18.564
X50.126 Y-18.529
X50.095 Y-18.496
X50.061 Y-18.46
X50.029 Y-18.425
X49.998 Y-18.392
X49.965 Y-18.357
X49.933 Y-18.322
X49.9 Y-18.288
X49.868 Y-18.254
X49.835 Y-18.22
X49.802 Y-18.186
X49.771 Y-18.153
X49.738 Y-18.119
X49.705 Y-18.085
X49.672 Y-18.051
X49.639 Y-18.018
X49.607 Y-17.984
X49.573 Y-17.95
X49.54 Y-17.917
X49.508 Y-17.885
X49.475 Y-17.852
X49.442 Y-17.819
X49.408 Y-17.785
X49.375 Y-17.753
X49.342 Y-17.72
X49.309 Y-17.688
X49.276 Y-17.656
X49.242 Y-17.623
X49.209 Y-17.59
X49.177 Y-17.559
X49.143 Y-17.527
X49.11 Y-17.495
X49.076 Y-17.463
X49.042 Y-17.431
X49.008 Y-17.399
X48.975 Y-17.368
X48.941 Y-17.336
X48.908 Y-17.305
X48.875 Y-17.274
X48.84 Y-17.243
X48.806 Y-17.211
X48.772 Y-17.18
X48.738 Y-17.149
X48.705 Y-17.119
X48.671 Y-17.089
X48.636 Y-17.058
X48.602 Y-17.027
X48.568 Y-16.997
X48.535 Y-16.967
X48.501 Y-16.938
X48.466 Y-16.907
X48.431 Y-16.876
X48.397 Y-16.847
X48.363 Y-16.818
X48.328 Y-16.788
X48.295 Y-16.759
X48.26 Y-16.73
X48.225 Y-16.7
X48.191 Y-16.672
X48.156 Y-16.642
X48.121 Y-16.613
X48.087 Y-16.584
X48.052 Y-16.556
X48.018 Y-16.528
X47.982 Y-16.499
X47.948 Y-16.471
X47.914 Y-16.443
X47.878 Y-16.415
X47.844 Y-16.387
X47.809 Y-16.359
X47.774 Y-16.332
X47.738 Y-16.304
X47.703 Y-16.276
X47.669 Y-16.249
X47.634 Y-16.222
X47.599 Y-16.195
X47.563 Y-16.168
X47.527 Y-16.141
X47.493 Y-16.115
X47.458 Y-16.089
X47.422 Y-16.062
X47.387 Y-16.036
X47.351 Y-16.009
X47.316 Y-15.982
X47.242 Y-15.925
X47.173 Y-15.866
X47.103 Y-15.804
X47.037 Y-15.743
X46.971 Y-15.677
X46.91 Y-15.611
X46.848 Y-15.542
X46.79 Y-15.473
X46.733 Y-15.399
X46.678 Y-15.325
X46.625 Y-15.249
X46.576 Y-15.173
X46.528 Y-15.093
X46.483 Y-15.014
X46.44 Y-14.932
X46.401 Y-14.851
X46.362 Y-14.766
X46.327 Y-14.683
X46.294 Y-14.596
X46.264 Y-14.509
X46.236 Y-14.42
X46.212 Y-14.334
X46.19 Y-14.243
X46.171 Y-14.156
X46.154 Y-14.064
X46.14 Y-13.973
X46.128 Y-13.88
X46.12 Y-13.79
X46.114 Y-13.697
X46.111 Y-13.607
Y-13.514
X46.114 Y-13.424
X46.119 Y-13.331
X46.127 Y-13.242
X46.138 Y-13.149
X46.151 Y-13.058
X46.168 Y-12.966
X46.187 Y-12.877
X46.209 Y-12.786
X46.233 Y-12.7
X46.26 Y-12.611
X46.29 Y-12.525
X46.322 Y-12.438
X46.356 Y-12.356
X46.394 Y-12.27
X46.434 Y-12.187
X46.477 Y-12.104
X46.521 Y-12.026
X46.569 Y-11.946
X46.617 Y-11.871
X46.67 Y-11.793
X46.724 Y-11.72
X46.781 Y-11.646
X46.839 Y-11.576
X46.901 Y-11.506
X46.962 Y-11.44
X47.027 Y-11.374
X47.093 Y-11.312
X47.162 Y-11.25
X47.232 Y-11.191
X47.305 Y-11.133
X47.377 Y-11.08
X47.453 Y-11.027
X47.53 Y-10.976
X47.61 Y-10.927
X47.688 Y-10.883
X47.771 Y-10.839
X47.852 Y-10.799
X47.937 Y-10.76
X48.02 Y-10.725
X48.107 Y-10.692
X48.193 Y-10.661
X48.283 Y-10.633
X48.369 Y-10.608
X48.46 Y-10.586
X48.549 Y-10.566
X48.641 Y-10.549
X48.73 Y-10.535
X48.823 Y-10.523
X48.866 Y-10.518
X48.91 Y-10.514
X48.955 Y-10.509
X48.999 Y-10.505
X49.042 Y-10.5
X49.087 Y-10.495
X49.131 Y-10.49
X49.174 Y-10.485
X49.218 Y-10.48
X49.261 Y-10.475
X49.306 Y-10.469
X49.351 Y-10.463
X49.394 Y-10.458
X49.439 Y-10.452
X49.484 Y-10.446
X49.527 Y-10.44
X49.571 Y-10.434
X49.615 Y-10.428
X49.66 Y-10.421
X49.705 Y-10.414
X49.749 Y-10.408
X49.794 Y-10.401
X49.839 Y-10.394
X49.881 Y-10.387
X49.972 Y-10.373
X50.016 Y-10.365
X50.061 Y-10.358
X50.105 Y-10.35
X50.15 Y-10.343
X50.195 Y-10.335
X50.239 Y-10.327
X50.285 Y-10.319
X50.328 Y-10.311
X50.374 Y-10.302
X50.419 Y-10.294
X50.463 Y-10.285
X50.508 Y-10.277
X50.552 Y-10.268
X50.598 Y-10.259
X50.643 Y-10.25
X50.688 Y-10.241
X50.734 Y-10.232
X50.778 Y-10.223
X50.821 Y-10.213
X50.914 Y-10.194
X50.957 Y-10.184
X51.001 Y-10.175
X51.048 Y-10.164
X51.094 Y-10.154
X51.138 Y-10.144
X51.183 Y-10.134
X51.227 Y-10.124
X51.319 Y-10.102
X51.363 Y-10.092
X51.407 Y-10.081
X51.454 Y-10.07
X51.5 Y-10.059
X51.544 Y-10.048
X51.589 Y-10.037
X51.635 Y-10.025
X51.68 Y-10.014
X51.725 Y-10.002
X51.771 Y-9.991
X51.815 Y-9.979
X51.908 Y-9.955
X51.952 Y-9.943
X51.997 Y-9.931
X52.042 Y-9.919
X52.088 Y-9.906
X52.134 Y-9.894
X52.179 Y-9.881
X52.224 Y-9.869
X52.268 Y-9.856
X52.315 Y-9.843
X52.361 Y-9.83
X52.405 Y-9.817
X52.45 Y-9.804
X52.497 Y-9.791
X52.543 Y-9.777
X52.586 Y-9.764
X52.632 Y-9.75
X52.678 Y-9.737
X52.724 Y-9.723
X52.77 Y-9.709
X52.814 Y-9.695
X52.859 Y-9.681
X52.905 Y-9.667
X52.952 Y-9.652
X52.997 Y-9.638
X53.041 Y-9.624
X53.057 Y-9.619
X53.044 Y-9.609
X53.007 Y-9.58
X52.969 Y-9.551
X52.932 Y-9.522
X52.894 Y-9.492
X52.857 Y-9.463
X52.819 Y-9.434
X52.781 Y-9.405
X52.743 Y-9.376
X52.705 Y-9.347
X52.668 Y-9.319
X52.631 Y-9.291
X52.592 Y-9.262
X52.554 Y-9.233
X52.516 Y-9.205
X52.479 Y-9.177
X52.441 Y-9.149
X52.403 Y-9.121
X52.364 Y-9.093
X52.326 Y-9.065
X52.289 Y-9.038
X52.25 Y-9.01
X52.212 Y-8.983
X52.174 Y-8.955
X52.136 Y-8.928
X52.098 Y-8.901
X52.06 Y-8.874
X52.021 Y-8.847
X51.983 Y-8.82
X51.945 Y-8.793
X51.906 Y-8.766
X51.867 Y-8.739
X51.829 Y-8.713
X51.792 Y-8.687
X51.753 Y-8.661
X51.714 Y-8.634
X51.675 Y-8.608
X51.637 Y-8.582
X51.599 Y-8.556
X51.56 Y-8.53
X51.522 Y-8.505
X51.483 Y-8.479
X51.444 Y-8.453
X51.406 Y-8.428
X51.367 Y-8.403
X51.329 Y-8.378
X51.29 Y-8.353
X51.251 Y-8.328
X51.212 Y-8.303
X51.174 Y-8.278
X51.135 Y-8.254
X51.096 Y-8.229
X51.057 Y-8.205
X51.018 Y-8.181
X50.979 Y-8.156
X50.94 Y-8.132
X50.901 Y-8.108
X50.863 Y-8.084
X50.824 Y-8.061
X50.784 Y-8.037
X50.746 Y-8.014
X50.707 Y-7.99
X50.668 Y-7.967
X50.629 Y-7.944
X50.589 Y-7.921
X50.55 Y-7.898
X50.511 Y-7.875
X50.473 Y-7.853
X50.433 Y-7.83
X50.394 Y-7.807
X50.354 Y-7.785
X50.315 Y-7.763
X50.276 Y-7.741
X50.237 Y-7.719
X50.198 Y-7.697
X50.158 Y-7.675
X50.119 Y-7.654
X50.08 Y-7.632
X50.041 Y-7.611
X50.002 Y-7.59
X49.962 Y-7.568
X49.923 Y-7.547
X49.884 Y-7.527
X49.844 Y-7.506
X49.805 Y-7.485
X49.765 Y-7.465
X49.726 Y-7.445
X49.686 Y-7.424
X49.647 Y-7.404
X49.608 Y-7.385
X49.568 Y-7.365
X49.53 Y-7.345
X49.49 Y-7.326
X49.449 Y-7.305
X49.41 Y-7.286
X49.327 Y-7.242
X49.249 Y-7.198
X49.169 Y-7.149
X49.093 Y-7.1
X49.016 Y-7.047
X48.945 Y-6.994
X48.871 Y-6.936
X48.801 Y-6.877
X48.731 Y-6.815
X48.666 Y-6.754
X48.6 Y-6.688
X48.538 Y-6.622
X48.476 Y-6.552
X48.419 Y-6.483
X48.361 Y-6.409
X48.307 Y-6.335
X48.254 Y-6.258
X48.205 Y-6.183
X48.157 Y-6.103
X48.113 Y-6.024
X48.069 Y-5.942
X48.03 Y-5.861
X47.991 Y-5.776
X47.957 Y-5.692
X47.924 Y-5.605
X47.894 Y-5.52
X47.867 Y-5.431
X47.842 Y-5.342
X47.819 Y-5.251
X47.801 Y-5.165
X47.784 Y-5.073
X47.77 Y-4.983
X47.759 Y-4.89
X47.751 Y-4.8
X47.745 Y-4.707
X47.742 Y-4.617
Y-4.523
X47.745 Y-4.434
X47.75 Y-4.34
X47.758 Y-4.25
X47.769 Y-4.157
X47.783 Y-4.067
X47.8 Y-3.975
X47.818 Y-3.887
X47.841 Y-3.796
X47.864 Y-3.711
X47.892 Y-3.622
X47.922 Y-3.534
X47.955 Y-3.447
X47.989 Y-3.364
X48.027 Y-3.279
X48.066 Y-3.198
X48.109 Y-3.115
X48.154 Y-3.036
X48.202 Y-2.956
X48.251 Y-2.879
X48.304 Y-2.803
X48.356 Y-2.731
X48.413 Y-2.657
X48.472 Y-2.587
X48.534 Y-2.517
X48.595 Y-2.451
X48.661 Y-2.385
X48.726 Y-2.323
X48.796 Y-2.261
X48.866 Y-2.202
X48.94 Y-2.144
X49.011 Y-2.09
X49.088 Y-2.037
X49.164 Y-1.987
X49.244 Y-1.939
X49.324 Y-1.894
X49.406 Y-1.85
X49.487 Y-1.81
X49.572 Y-1.771
X49.656 Y-1.736
X49.743 Y-1.703
X49.829 Y-1.673
X49.918 Y-1.645
X49.959 Y-1.632
X50.003 Y-1.62
X50.046 Y-1.608
X50.088 Y-1.596
X50.13 Y-1.583
X50.173 Y-1.57
X50.215 Y-1.558
X50.257 Y-1.545
X50.299 Y-1.532
X50.342 Y-1.519
X50.384 Y-1.506
X50.427 Y-1.492
X50.469 Y-1.479
X50.511 Y-1.465
X50.554 Y-1.452
X50.596 Y-1.438
X50.639 Y-1.424
X50.681 Y-1.41
X50.724 Y-1.395
X50.767 Y-1.381
X50.809 Y-1.367
X50.852 Y-1.352
X50.894 Y-1.337
X50.936 Y-1.322
X50.979 Y-1.307
X51.021 Y-1.292
X51.064 Y-1.277
X51.107 Y-1.262
X51.149 Y-1.246
X51.192 Y-1.231
X51.234 Y-1.215
X51.277 Y-1.199
X51.32 Y-1.183
X51.361 Y-1.167
X51.404 Y-1.151
X51.447 Y-1.135
X51.49 Y-1.118
X51.532 Y-1.102
X51.575 Y-1.085
X51.617 Y-1.069
X51.66 Y-1.052
X51.702 Y-1.035
X51.745 Y-1.018
X51.788 Y-1.001
X51.83 Y-0.983
X51.873 Y-0.966
X51.915 Y-0.948
X51.958 Y-0.931
X52.001 Y-0.913
X52.043 Y-0.895
X52.085 Y-0.877
X52.129 Y-0.859
X52.171 Y-0.841
X52.213 Y-0.823
X52.256 Y-0.804
X52.298 Y-0.786
X52.341 Y-0.767
X52.383 Y-0.748
X52.426 Y-0.73
X52.468 Y-0.711
X52.511 Y-0.692
X52.553 Y-0.673
X52.596 Y-0.653
X52.639 Y-0.634
X52.681 Y-0.615
X52.723 Y-0.595
X52.766 Y-0.576
X52.808 Y-0.556
X52.851 Y-0.536
X52.893 Y-0.516
X52.935 Y-0.496
X52.978 Y-0.476
X53.021 Y-0.455
X53.063 Y-0.435
X53.105 Y-0.415
X53.148 Y-0.394
X53.19 Y-0.373
X53.232 Y-0.353
X53.275 Y-0.332
X53.317 Y-0.311
X53.36 Y-0.29
X53.402 Y-0.269
X53.444 Y-0.248
X53.486 Y-0.226
X53.529 Y-0.205
X53.571 Y-0.183
X53.613 Y-0.162
X53.655 Y-0.14
X53.698 Y-0.118
X53.74 Y-0.096
X53.782 Y-0.074
X53.824 Y-0.052
X53.867 Y-0.03
X53.908 Y-0.007
X53.922 Y0
X53.908 Y0.007
X53.867 Y0.03
X53.824 Y0.052
X53.782 Y0.074
X53.74 Y0.096
X53.698 Y0.118
X53.655 Y0.14
X53.613 Y0.162
X53.571 Y0.183
X53.529 Y0.205
X53.486 Y0.226
X53.444 Y0.248
X53.402 Y0.269
X53.36 Y0.29
X53.317 Y0.311
X53.275 Y0.332
X53.232 Y0.353
X53.19 Y0.373
X53.148 Y0.394
X53.105 Y0.415
X53.063 Y0.435
X53.021 Y0.455
X52.978 Y0.476
X52.935 Y0.496
X52.893 Y0.516
X52.851 Y0.536
X52.808 Y0.556
X52.766 Y0.576
X52.723 Y0.595
X52.681 Y0.615
X52.639 Y0.634
X52.596 Y0.653
X52.553 Y0.673
X52.511 Y0.692
X52.468 Y0.711
X52.426 Y0.73
X52.383 Y0.748
X52.341 Y0.767
X52.298 Y0.786
X52.256 Y0.804
X52.213 Y0.823
X52.171 Y0.841
X52.129 Y0.859
X52.085 Y0.877
X52.043 Y0.895
X52.001 Y0.913
X51.958 Y0.931
X51.915 Y0.948
X51.873 Y0.966
X51.83 Y0.983
X51.788 Y1.001
X51.745 Y1.018
X51.702 Y1.035
X51.66 Y1.052
X51.617 Y1.069
X51.575 Y1.085
X51.532 Y1.102
X51.49 Y1.118
X51.447 Y1.135
X51.404 Y1.151
X51.361 Y1.167
X51.32 Y1.183
X51.277 Y1.199
X51.234 Y1.215
X51.192 Y1.231
X51.149 Y1.246
X51.107 Y1.262
X51.064 Y1.277
X51.021 Y1.292
X50.979 Y1.307
X50.936 Y1.322
X50.894 Y1.337
X50.852 Y1.352
X50.809 Y1.367
X50.767 Y1.381
X50.724 Y1.395
X50.681 Y1.41
X50.639 Y1.424
X50.596 Y1.438
X50.554 Y1.452
X50.511 Y1.465
X50.469 Y1.479
X50.427 Y1.492
X50.384 Y1.506
X50.342 Y1.519
X50.299 Y1.532
X50.257 Y1.545
X50.215 Y1.558
X50.173 Y1.57
X50.13 Y1.583
X50.088 Y1.596
X50.046 Y1.608
X50.003 Y1.62
X49.959 Y1.632
X49.918 Y1.645
X49.829 Y1.673
X49.743 Y1.703
X49.656 Y1.736
X49.573 Y1.771
X49.488 Y1.81
X49.407 Y1.85
X49.324 Y1.893
X49.246 Y1.938
X49.166 Y1.986
X49.091 Y2.035
X49.014 Y2.089
X48.941 Y2.143
X48.867 Y2.201
X48.798 Y2.259
X48.728 Y2.321
X48.664 Y2.382
X48.598 Y2.448
X48.535 Y2.515
X48.473 Y2.585
X48.416 Y2.654
X48.359 Y2.727
X48.305 Y2.8
X48.252 Y2.877
X48.204 Y2.953
X48.155 Y3.033
X48.111 Y3.113
X48.067 Y3.196
X48.028 Y3.277
X47.99 Y3.362
X47.955 Y3.446
X47.922 Y3.533
X47.893 Y3.617
X47.866 Y3.706
X47.841 Y3.793
X47.819 Y3.884
X47.8 Y3.974
X47.783 Y4.066
X47.77 Y4.153
X47.759 Y4.246
X47.75 Y4.337
X47.745 Y4.431
X47.742 Y4.521
Y4.614
X47.745 Y4.705
X47.751 Y4.799
X47.759 Y4.887
X47.77 Y4.98
X47.783 Y5.069
X47.8 Y5.161
X47.819 Y5.249
X47.841 Y5.34
X47.866 Y5.428
X47.894 Y5.517
X47.923 Y5.602
X47.956 Y5.689
X47.99 Y5.773
X48.029 Y5.858
X48.068 Y5.939
X48.111 Y6.021
X48.156 Y6.101
X48.204 Y6.181
X48.252 Y6.256
X48.305 Y6.333
X48.359 Y6.406
X48.416 Y6.48
X48.474 Y6.55
X48.536 Y6.62
X48.598 Y6.686
X48.664 Y6.752
X48.731 Y6.815
X48.801 Y6.877
X48.87 Y6.935
X48.943 Y6.993
X49.015 Y7.046
X49.092 Y7.099
X49.169 Y7.149
X49.248 Y7.197
X49.327 Y7.242
X49.41 Y7.286
X49.449 Y7.305
X49.49 Y7.326
X49.53 Y7.345
X49.568 Y7.365
X49.608 Y7.385
X49.647 Y7.404
X49.686 Y7.424
X49.726 Y7.445
X49.765 Y7.465
X49.805 Y7.485
X49.844 Y7.506
X49.884 Y7.527
X49.923 Y7.547
X49.962 Y7.568
X50.002 Y7.59
X50.041 Y7.611
X50.08 Y7.632
X50.119 Y7.654
X50.158 Y7.675
X50.198 Y7.697
X50.237 Y7.719
X50.276 Y7.741
X50.315 Y7.763
X50.354 Y7.785
X50.394 Y7.807
X50.433 Y7.83
X50.473 Y7.853
X50.511 Y7.875
X50.55 Y7.898
X50.589 Y7.921
X50.629 Y7.944
X50.668 Y7.967
X50.707 Y7.99
X50.746 Y8.014
X50.784 Y8.037
X50.824 Y8.061
X50.863 Y8.084
X50.901 Y8.108
X50.94 Y8.132
X50.979 Y8.156
X51.018 Y8.181
X51.057 Y8.205
X51.096 Y8.229
X51.135 Y8.254
X51.174 Y8.278
X51.212 Y8.303
X51.251 Y8.328
X51.29 Y8.353
X51.329 Y8.378
X51.367 Y8.403
X51.406 Y8.428
X51.444 Y8.453
X51.483 Y8.479
X51.522 Y8.505
X51.56 Y8.53
X51.599 Y8.556
X51.637 Y8.582
X51.675 Y8.608
X51.714 Y8.634
X51.753 Y8.661
X51.792 Y8.687
X51.829 Y8.713
X51.867 Y8.739
X51.906 Y8.766
X51.945 Y8.793
X51.983 Y8.82
X52.021 Y8.847
X52.06 Y8.874
X52.098 Y8.901
X52.136 Y8.928
X52.174 Y8.955
X52.212 Y8.983
X52.25 Y9.01
X52.289 Y9.038
X52.326 Y9.065
X52.364 Y9.093
X52.403 Y9.121
X52.441 Y9.149
X52.479 Y9.177
X52.516 Y9.205
X52.554 Y9.233
X52.592 Y9.262
X52.631 Y9.291
X52.668 Y9.319
X52.705 Y9.347
X52.743 Y9.376
X52.781 Y9.405
X52.819 Y9.434
X52.857 Y9.463
X52.894 Y9.492
X52.932 Y9.522
X52.969 Y9.551
X53.007 Y9.58
X53.044 Y9.609
X53.057 Y9.619
X53.041 Y9.624
X52.997 Y9.638
X52.905 Y9.667
X52.859 Y9.681
X52.814 Y9.695
X52.77 Y9.709
X52.678 Y9.737
X52.632 Y9.75
X52.586 Y9.764
X52.543 Y9.777
X52.497 Y9.79
X52.45 Y9.804
X52.405 Y9.817
X52.361 Y9.83
X52.315 Y9.843
X52.268 Y9.856
X52.224 Y9.869
X52.179 Y9.881
X52.134 Y9.894
X52.042 Y9.919
X51.997 Y9.931
X51.952 Y9.943
X51.908 Y9.955
X51.861 Y9.967
X51.815 Y9.979
X51.771 Y9.991
X51.725 Y10.002
X51.68 Y10.014
X51.635 Y10.025
X51.589 Y10.037
X51.544 Y10.048
X51.5 Y10.059
X51.407 Y10.081
X51.363 Y10.092
X51.319 Y10.102
X51.273 Y10.113
X51.227 Y10.124
X51.183 Y10.134
X51.138 Y10.144
X51.094 Y10.154
X51.001 Y10.175
X50.957 Y10.184
X50.914 Y10.194
X50.867 Y10.204
X50.821 Y10.213
X50.778 Y10.223
X50.734 Y10.232
X50.688 Y10.241
X50.643 Y10.25
X50.552 Y10.268
X50.508 Y10.277
X50.463 Y10.285
X50.419 Y10.294
X50.374 Y10.302
X50.328 Y10.311
X50.285 Y10.319
X50.239 Y10.327
X50.195 Y10.335
X50.15 Y10.342
X50.105 Y10.35
X50.061 Y10.358
X50.016 Y10.365
X49.972 Y10.373
X49.927 Y10.38
X49.881 Y10.387
X49.839 Y10.394
X49.749 Y10.408
X49.705 Y10.414
X49.66 Y10.421
X49.615 Y10.428
X49.571 Y10.434
X49.527 Y10.44
X49.484 Y10.446
X49.439 Y10.452
X49.394 Y10.458
X49.351 Y10.463
X49.261 Y10.475
X49.218 Y10.48
X49.174 Y10.485
X49.131 Y10.49
X49.087 Y10.495
X49.042 Y10.5
X48.999 Y10.505
X48.91 Y10.514
X48.866 Y10.518
X48.822 Y10.523
X48.73 Y10.535
X48.641 Y10.549
X48.549 Y10.566
X48.46 Y10.585
X48.37 Y10.608
X48.285 Y10.632
X48.196 Y10.661
X48.109 Y10.691
X48.022 Y10.724
X47.939 Y10.759
X47.854 Y10.798
X47.772 Y10.838
X47.69 Y10.882
X47.612 Y10.927
X47.532 Y10.975
X47.456 Y11.025
X47.379 Y11.078
X47.307 Y11.132
X47.234 Y11.189
X47.164 Y11.248
X47.095 Y11.31
X47.03 Y11.371
X46.964 Y11.438
X46.902 Y11.504
X46.841 Y11.574
X46.783 Y11.644
X46.725 Y11.718
X46.672 Y11.79
X46.62 Y11.867
X46.57 Y11.944
X46.522 Y12.024
X46.478 Y12.102
X46.435 Y12.185
X46.395 Y12.268
X46.357 Y12.353
X46.324 Y12.434
X46.291 Y12.522
X46.261 Y12.609
X46.233 Y12.698
X46.21 Y12.784
X46.187 Y12.875
X46.168 Y12.964
X46.152 Y13.056
X46.138 Y13.145
X46.127 Y13.237
X46.119 Y13.327
X46.114 Y13.42
X46.111 Y13.511
Y13.604
X46.114 Y13.695
X46.12 Y13.789
X46.128 Y13.877
X46.139 Y13.97
X46.153 Y14.062
X46.17 Y14.154
X46.189 Y14.239
X46.211 Y14.329
X46.236 Y14.418
X46.264 Y14.507
X46.293 Y14.592
X46.326 Y14.679
X46.361 Y14.763
X46.399 Y14.849
X46.439 Y14.929
X46.482 Y15.012
X46.527 Y15.091
X46.575 Y15.171
X46.624 Y15.248
X46.678 Y15.324
X46.731 Y15.397
X46.789 Y15.47
X46.847 Y15.54
X46.909 Y15.611
X46.971 Y15.677
X47.037 Y15.743
X47.103 Y15.805
X47.173 Y15.867
X47.241 Y15.924
X47.315 Y15.981
X47.351 Y16.009
X47.387 Y16.036
X47.422 Y16.062
X47.458 Y16.089
X47.493 Y16.115
X47.527 Y16.141
X47.563 Y16.168
X47.599 Y16.195
X47.634 Y16.222
X47.669 Y16.249
X47.703 Y16.276
X47.738 Y16.304
X47.774 Y16.332
X47.809 Y16.359
X47.844 Y16.387
X47.878 Y16.415
X47.914 Y16.443
X47.948 Y16.471
X47.982 Y16.499
X48.018 Y16.528
X48.052 Y16.556
X48.087 Y16.584
X48.121 Y16.613
X48.156 Y16.642
X48.191 Y16.672
X48.225 Y16.7
X48.26 Y16.73
X48.295 Y16.759
X48.328 Y16.788
X48.363 Y16.818
X48.397 Y16.847
X48.431 Y16.876
X48.466 Y16.907
X48.501 Y16.938
X48.535 Y16.967
X48.568 Y16.997
X48.602 Y17.027
X48.636 Y17.058
X48.671 Y17.089
X48.705 Y17.119
X48.738 Y17.149
X48.806 Y17.211
X48.875 Y17.274
X48.908 Y17.305
X48.941 Y17.336
X48.975 Y17.368
X49.008 Y17.399
X49.042 Y17.431
X49.076 Y17.463
X49.11 Y17.495
X49.143 Y17.527
X49.177 Y17.559
X49.209 Y17.59
X49.242 Y17.623
X49.276 Y17.656
X49.309 Y17.688
X49.342 Y17.72
X49.375 Y17.753
X49.442 Y17.819
X49.475 Y17.852
X49.508 Y17.885
X49.54 Y17.917
X49.573 Y17.95
X49.607 Y17.984
X49.639 Y18.018
X49.672 Y18.051
X49.705 Y18.085
X49.738 Y18.119
X49.771 Y18.153
X49.802 Y18.186
X49.868 Y18.254
X49.9 Y18.288
X49.933 Y18.322
X49.965 Y18.357
X49.998 Y18.392
X50.029 Y18.425
X50.095 Y18.496
X50.126 Y18.529
X50.158 Y18.564
X50.191 Y18.6
X50.223 Y18.635
X50.254 Y18.67
X50.286 Y18.704
X50.319 Y18.74
X50.35 Y18.776
X50.381 Y18.81
X50.413 Y18.846
X50.445 Y18.882
X50.476 Y18.917
X50.487 Y18.929
X50.472 Y18.931
X50.425 Y18.937
X50.377 Y18.943
X50.329 Y18.949
X50.283 Y18.955
X50.235 Y18.961
X50.188 Y18.967
X50.142 Y18.972
X50.093 Y18.977
X50.046 Y18.983
X49.999 Y18.988
X49.952 Y18.993
X49.906 Y18.998
X49.858 Y19.003
X49.811 Y19.008
X49.765 Y19.012
X49.717 Y19.017
X49.67 Y19.022
X49.624 Y19.026
X49.577 Y19.03
X49.529 Y19.035
X49.482 Y19.039
X49.436 Y19.043
X49.389 Y19.047
X49.343 Y19.051
X49.296 Y19.054
X49.249 Y19.058
X49.202 Y19.062
X49.155 Y19.065
X49.109 Y19.069
X49.062 Y19.072
X49.017 Y19.075
X48.922 Y19.081
X48.876 Y19.084
X48.83 Y19.087
X48.783 Y19.089
X48.69 Y19.094
X48.645 Y19.097
X48.598 Y19.099
X48.552 Y19.101
X48.506 Y19.103
X48.459 Y19.105
X48.413 Y19.107
X48.368 Y19.109
X48.321 Y19.11
X48.275 Y19.112
X48.229 Y19.113
X48.182 Y19.115
X48.137 Y19.116
X48.091 Y19.117
X48.045 Y19.118
X47.999 Y19.119
X47.954 Y19.12
X47.908 Y19.121
X47.862
X47.817 Y19.122
X47.771
X47.725
X47.681
X47.589
X47.544
X47.498
X47.452
X47.407 Y19.121
X47.362
X47.318 Y19.12
X47.272 Y19.119
X47.227 Y19.118
X47.181 Y19.117
X47.137 Y19.116
X47.093 Y19.115
X47.047 Y19.113
X47.002 Y19.112
X46.957 Y19.11
X46.914 Y19.109
X46.868 Y19.107
X46.823 Y19.105
X46.779 Y19.103
X46.735 Y19.101
X46.69 Y19.098
X46.645 Y19.096
X46.601 Y19.093
X46.557 Y19.091
X46.512 Y19.088
X46.468 Y19.085
X46.425 Y19.082
X46.381 Y19.079
X46.336 Y19.076
X46.291 Y19.072
X46.25 Y19.069
X46.205 Y19.065
X46.16 Y19.062
X46.067 Y19.057
X45.976 Y19.055
X45.882 Y19.056
X45.792 Y19.059
X45.699 Y19.066
X45.611 Y19.074
X45.518 Y19.086
X45.428 Y19.1
X45.337 Y19.118
X45.248 Y19.137
X45.158 Y19.16
X45.071 Y19.185
X44.982 Y19.213
X44.896 Y19.244
X44.809 Y19.277
X44.725 Y19.312
X44.641 Y19.351
X44.56 Y19.391
X44.478 Y19.435
X44.401 Y19.479
X44.321 Y19.527
X44.243 Y19.578
X44.167 Y19.632
X44.096 Y19.684
X44.023 Y19.742
X43.952 Y19.802
X43.883 Y19.864
X43.818 Y19.926
X43.752 Y19.992
X43.69 Y20.059
X43.628 Y20.129
X43.571 Y20.198
X43.514 Y20.272
X43.46 Y20.345
X43.408 Y20.422
X43.359 Y20.498
X43.311 Y20.578
X43.267 Y20.657
X43.224 Y20.74
X43.185 Y20.821
X43.147 Y20.907
X43.113 Y20.99
X43.08 Y21.077
X43.05 Y21.163
X43.023 Y21.253
X42.999 Y21.34
X42.977 Y21.431
X42.959 Y21.517
X42.942 Y21.609
X42.928 Y21.7
X42.917 Y21.793
X42.91 Y21.882
X42.904 Y21.976
X42.902 Y22.067
Y22.16
X42.905 Y22.249
X42.911 Y22.342
X42.919 Y22.434
X42.931 Y22.526
X42.944 Y22.614
X42.961 Y22.706
X42.98 Y22.794
X43.003 Y22.885
X43.028 Y22.972
X43.056 Y23.062
X43.085 Y23.147
X43.118 Y23.234
X43.154 Y23.319
X43.192 Y23.405
X43.231 Y23.484
X43.275 Y23.567
X43.32 Y23.646
X43.368 Y23.726
X43.418 Y23.803
X43.471 Y23.88
X43.524 Y23.952
X43.582 Y24.025
X43.641 Y24.095
X43.703 Y24.165
X43.733 Y24.198
X43.763 Y24.23
X43.823 Y24.295
X43.853 Y24.327
X43.884 Y24.36
X43.913 Y24.392
X43.942 Y24.424
X43.973 Y24.458
X44.002 Y24.491
X44.031 Y24.524
X44.061 Y24.557
X44.09 Y24.59
X44.12 Y24.624
X44.15 Y24.658
X44.179 Y24.691
X44.208 Y24.725
X44.237 Y24.758
X44.267 Y24.793
X44.295 Y24.826
X44.355 Y24.897
X44.383 Y24.93
X44.411 Y24.964
X44.44 Y24.998
X44.499 Y25.07
X44.527 Y25.104
X44.555 Y25.139
X44.583 Y25.174
X44.611 Y25.208
X44.64 Y25.244
X44.669 Y25.281
X44.698 Y25.317
X44.726 Y25.352
X44.753 Y25.387
X44.782 Y25.423
X44.81 Y25.459
X44.838 Y25.496
X44.866 Y25.532
X44.893 Y25.567
X44.95 Y25.642
X44.978 Y25.678
X45.004 Y25.713
X45.033 Y25.751
X45.06 Y25.788
X45.087 Y25.824
X45.115 Y25.862
X45.142 Y25.899
X45.169 Y25.935
X45.198 Y25.974
X45.224 Y26.011
X45.279 Y26.086
X45.306 Y26.124
X45.332 Y26.161
X45.359 Y26.198
X45.387 Y26.238
X45.414 Y26.276
X45.44 Y26.313
X45.466 Y26.351
X45.493 Y26.39
X45.52 Y26.428
X45.546 Y26.466
X45.572 Y26.505
X45.599 Y26.544
X45.626 Y26.583
X45.651 Y26.621
X45.677 Y26.659
X45.704 Y26.699
X45.73 Y26.739
X45.756 Y26.778
X45.782 Y26.817
X45.808 Y26.856
X45.833 Y26.895
X45.886 Y26.976
X45.911 Y27.014
X45.936 Y27.053
X45.988 Y27.134
X46.013 Y27.173
X46.038 Y27.213
X46.064 Y27.254
X46.089 Y27.294
X46.113 Y27.333
X46.139 Y27.373
X46.164 Y27.414
X46.19 Y27.456
X46.214 Y27.496
X46.238 Y27.535
X46.264 Y27.577
X46.289 Y27.618
X46.297 Y27.631
X46.28 Y27.63
X46.234 Y27.628
X46.187 Y27.625
X46.138 Y27.623
X46.09 Y27.62
X46.043 Y27.617
X45.996 Y27.614
X45.949 Y27.611
X45.901 Y27.608
X45.854 Y27.605
X45.805 Y27.601
X45.758 Y27.598
X45.713 Y27.595
X45.666 Y27.591
X45.617 Y27.587
X45.57 Y27.584
X45.524 Y27.58
X45.476 Y27.576
X45.429 Y27.572
X45.335 Y27.564
X45.289 Y27.559
X45.242 Y27.555
X45.195 Y27.551
X45.149 Y27.546
X45.102 Y27.541
X45.055 Y27.537
X44.962 Y27.527
X44.916 Y27.522
X44.869 Y27.517
X44.823 Y27.512
X44.775 Y27.506
X44.73 Y27.501
X44.684 Y27.495
X44.638 Y27.49
X44.593 Y27.484
X44.545 Y27.478
X44.499 Y27.473
X44.453 Y27.467
X44.407 Y27.461
X44.363 Y27.455
X44.315 Y27.448
X44.269 Y27.442
X44.225 Y27.436
X44.179 Y27.429
X44.133 Y27.422
X44.088 Y27.416
X44.042 Y27.409
X43.996 Y27.402
X43.951 Y27.395
X43.905 Y27.388
X43.86 Y27.381
X43.816 Y27.374
X43.77 Y27.366
X43.724 Y27.358
X43.679 Y27.351
X43.636 Y27.344
X43.589 Y27.336
X43.544 Y27.328
X43.5 Y27.32
X43.455 Y27.312
X43.41 Y27.304
X43.367 Y27.296
X43.275 Y27.278
X43.232 Y27.27
X43.189 Y27.261
X43.144 Y27.253
X43.1 Y27.244
X43.055 Y27.235
X43.01 Y27.226
X42.967 Y27.217
X42.923 Y27.207
X42.878 Y27.198
X42.836 Y27.189
X42.791 Y27.179
X42.747 Y27.169
X42.703 Y27.159
X42.66 Y27.149
X42.618 Y27.14
X42.574 Y27.13
X42.53 Y27.119
X42.486 Y27.109
X42.444 Y27.099
X42.401 Y27.088
X42.358 Y27.078
X42.314 Y27.067
X42.272 Y27.056
X42.23 Y27.045
X42.187 Y27.034
X42.143 Y27.023
X42.102 Y27.012
X42.059 Y27
X42.015 Y26.989
X41.924 Y26.968
X41.836 Y26.949
X41.744 Y26.933
X41.654 Y26.921
X41.561 Y26.91
X41.473 Y26.903
X41.379 Y26.898
X41.288 Y26.896
X41.194 Y26.897
X41.105 Y26.9
X41.011 Y26.907
X40.922 Y26.915
X40.829 Y26.927
X40.74 Y26.942
X40.649 Y26.959
X40.56 Y26.979
X40.469 Y27.002
X40.382 Y27.027
X40.293 Y27.055
X40.208 Y27.085
X40.121 Y27.119
X40.039 Y27.154
X39.954 Y27.193
X39.871 Y27.234
X39.789 Y27.278
X39.712 Y27.322
X39.632 Y27.371
X39.556 Y27.421
X39.479 Y27.474
X39.407 Y27.529
X39.334 Y27.587
X39.266 Y27.643
X39.197 Y27.706
X39.129 Y27.77
X39.064 Y27.836
X39.004 Y27.901
X38.942 Y27.971
X38.884 Y28.042
X38.827 Y28.116
X38.773 Y28.189
X38.721 Y28.267
X38.673 Y28.341
X38.625 Y28.421
X38.581 Y28.501
X38.538 Y28.583
X38.498 Y28.666
X38.46 Y28.752
X38.427 Y28.834
X38.394 Y28.921
X38.365 Y29.008
X38.337 Y29.097
X38.314 Y29.183
X38.292 Y29.274
X38.273 Y29.363
X38.257 Y29.455
X38.243 Y29.544
X38.233 Y29.636
X38.225 Y29.728
X38.219 Y29.821
X38.217 Y29.909
Y30.003
X38.22 Y30.094
X38.226 Y30.187
X38.235 Y30.277
X38.247 Y30.37
X38.261 Y30.46
X38.278 Y30.552
X38.297 Y30.639
X38.319 Y30.729
X38.345 Y30.819
X38.373 Y30.908
X38.402 Y30.993
X38.436 Y31.08
X38.47 Y31.162
X38.509 Y31.248
X38.55 Y31.331
X38.593 Y31.413
X38.637 Y31.491
X38.686 Y31.571
X38.71 Y31.61
X38.734 Y31.646
X38.782 Y31.72
X38.805 Y31.756
X38.829 Y31.795
X38.853 Y31.832
X38.876 Y31.87
X38.9 Y31.908
X38.923 Y31.945
X38.946 Y31.983
X38.968 Y32.02
X38.992 Y32.059
X39.016 Y32.098
X39.038 Y32.135
X39.084 Y32.212
X39.106 Y32.25
X39.129 Y32.29
X39.152 Y32.328
X39.174 Y32.368
X39.197 Y32.406
X39.219 Y32.445
X39.241 Y32.484
X39.263 Y32.523
X39.285 Y32.562
X39.308 Y32.603
X39.329 Y32.642
X39.35 Y32.68
X39.373 Y32.721
X39.395 Y32.762
X39.416 Y32.801
X39.46 Y32.881
X39.481 Y32.921
X39.502 Y32.961
X39.524 Y33.002
X39.545 Y33.042
X39.566 Y33.083
X39.587 Y33.124
X39.608 Y33.164
X39.629 Y33.205
X39.65 Y33.246
X39.671 Y33.287
X39.691 Y33.327
X39.711 Y33.368
X39.732 Y33.41
X39.753 Y33.451
X39.773 Y33.493
X39.794 Y33.535
X39.814 Y33.576
X39.834 Y33.617
X39.854 Y33.659
X39.874 Y33.7
X39.894 Y33.743
X39.914 Y33.784
X39.933 Y33.826
X39.953 Y33.869
X39.973 Y33.911
X39.993 Y33.953
X40.012 Y33.996
X40.031 Y34.036
X40.05 Y34.079
X40.07 Y34.123
X40.089 Y34.165
X40.108 Y34.208
X40.128 Y34.251
X40.146 Y34.293
X40.185 Y34.38
X40.203 Y34.422
X40.222 Y34.465
X40.24 Y34.508
X40.259 Y34.551
X40.277 Y34.595
X40.295 Y34.638
X40.314 Y34.681
X40.332 Y34.725
X40.35 Y34.769
X40.368 Y34.812
X40.386 Y34.856
X40.405 Y34.9
X40.422 Y34.943
X40.44 Y34.987
X40.458 Y35.032
X40.476 Y35.076
X40.493 Y35.119
X40.51 Y35.163
X40.528 Y35.209
X40.545 Y35.251
X40.563 Y35.297
X40.58 Y35.342
X40.597 Y35.386
X40.614 Y35.43
X40.62 Y35.445
X40.605 Y35.441
X40.558 Y35.43
X40.512 Y35.419
X40.465 Y35.408
X40.419 Y35.397
X40.373 Y35.386
X40.327 Y35.374
X40.281 Y35.363
X40.234 Y35.351
X40.189 Y35.34
X40.143 Y35.328
X40.096 Y35.316
X40.05 Y35.304
X40.005 Y35.293
X39.96 Y35.281
X39.867 Y35.256
X39.822 Y35.244
X39.777 Y35.232
X39.732 Y35.219
X39.687 Y35.207
X39.641 Y35.194
X39.595 Y35.181
X39.55 Y35.169
X39.505 Y35.156
X39.46 Y35.143
X39.416 Y35.13
X39.37 Y35.117
X39.325 Y35.104
X39.28 Y35.091
X39.236 Y35.077
X39.191 Y35.064
X39.147 Y35.051
X39.103 Y35.037
X39.057 Y35.023
X39.012 Y35.01
X38.97 Y34.996
X38.924 Y34.982
X38.878 Y34.968
X38.836 Y34.954
X38.792 Y34.94
X38.747 Y34.925
X38.704 Y34.911
X38.66 Y34.897
X38.615 Y34.882
X38.572 Y34.868
X38.528 Y34.853
X38.484 Y34.838
X38.441 Y34.824
X38.398 Y34.809
X38.354 Y34.794
X38.311 Y34.779
X38.266 Y34.763
X38.223 Y34.748
X38.181 Y34.733
X38.139 Y34.718
X38.094 Y34.702
X38.051 Y34.686
X38.009 Y34.671
X37.967 Y34.655
X37.923 Y34.639
X37.88 Y34.623
X37.839 Y34.607
X37.796 Y34.591
X37.753 Y34.574
X37.71 Y34.558
X37.67 Y34.543
X37.628 Y34.526
X37.585 Y34.509
X37.542 Y34.492
X37.5 Y34.476
X37.46 Y34.459
X37.417 Y34.442
X37.376 Y34.425
X37.335 Y34.408
X37.294 Y34.391
X37.252 Y34.374
X37.21 Y34.356
X37.168 Y34.339
X37.129 Y34.322
X37.087 Y34.304
X37.046 Y34.286
X37.005 Y34.268
X36.964 Y34.251
X36.924 Y34.233
X36.884 Y34.215
X36.843 Y34.197
X36.803 Y34.178
X36.762 Y34.16
X36.721 Y34.141
X36.683 Y34.124
X36.643 Y34.105
X36.602 Y34.086
X36.559 Y34.066
X36.522 Y34.049
X36.436 Y34.011
X36.353 Y33.978
X36.265 Y33.946
X36.179 Y33.917
X36.089 Y33.89
X36.002 Y33.867
X35.911 Y33.845
X35.823 Y33.827
X35.731 Y33.811
X35.642 Y33.799
X35.549 Y33.788
X35.46 Y33.781
X35.366 Y33.776
X35.275 Y33.774
X35.181 Y33.775
X35.091 Y33.779
X34.998 Y33.785
X34.908 Y33.794
X34.816 Y33.806
X34.727 Y33.821
X34.635 Y33.838
X34.548 Y33.858
X34.457 Y33.881
X34.37 Y33.906
X34.281 Y33.935
X34.195 Y33.965
X34.108 Y33.999
X34.024 Y34.035
X33.939 Y34.074
X33.859 Y34.113
X33.777 Y34.157
X33.7 Y34.202
X33.62 Y34.251
X33.544 Y34.301
X33.468 Y34.354
X33.396 Y34.408
X33.322 Y34.466
X33.253 Y34.525
X33.183 Y34.588
X33.118 Y34.651
X33.052 Y34.717
X32.991 Y34.783
X32.93 Y34.853
X32.873 Y34.922
X32.816 Y34.996
X32.762 Y35.07
X32.709 Y35.148
X32.661 Y35.223
X32.613 Y35.304
X32.57 Y35.382
X32.527 Y35.465
X32.487 Y35.548
X32.45 Y35.633
X32.416 Y35.716
X32.383 Y35.803
X32.354 Y35.889
X32.327 Y35.978
X32.303 Y36.066
X32.281 Y36.156
X32.263 Y36.245
X32.247 Y36.337
X32.234 Y36.425
X32.223 Y36.518
X32.215 Y36.61
X32.21 Y36.703
X32.208 Y36.792
Y36.885
X32.211 Y36.978
X32.218 Y37.071
X32.226 Y37.16
X32.238 Y37.252
X32.252 Y37.342
X32.269 Y37.434
X32.289 Y37.524
X32.312 Y37.615
X32.336 Y37.7
X32.364 Y37.789
X32.395 Y37.877
X32.429 Y37.964
X32.444 Y38.002
X32.461 Y38.044
X32.496 Y38.128
X32.512 Y38.167
X32.528 Y38.207
X32.545 Y38.249
X32.561 Y38.29
X32.578 Y38.331
X32.594 Y38.372
X32.61 Y38.414
X32.626 Y38.455
X32.642 Y38.498
X32.658 Y38.54
X32.673 Y38.58
X32.689 Y38.622
X32.705 Y38.665
X32.72 Y38.706
X32.735 Y38.748
X32.751 Y38.791
X32.766 Y38.832
X32.781 Y38.875
X32.796 Y38.918
X32.811 Y38.959
X32.826 Y39.003
X32.841 Y39.046
X32.855 Y39.088
X32.869 Y39.13
X32.884 Y39.173
X32.898 Y39.217
X32.913 Y39.259
X32.927 Y39.303
X32.941 Y39.346
X32.955 Y39.39
X32.969 Y39.433
X32.983 Y39.477
X32.997 Y39.52
X33.01 Y39.564
X33.024 Y39.607
X33.037 Y39.65
X33.064 Y39.739
X33.077 Y39.783
X33.09 Y39.827
X33.103 Y39.871
X33.116 Y39.913
X33.129 Y39.958
X33.142 Y40.003
X33.154 Y40.048
X33.167 Y40.092
X33.18 Y40.136
X33.192 Y40.181
X33.204 Y40.225
X33.216 Y40.27
X33.228 Y40.314
X33.241 Y40.359
X33.253 Y40.404
X33.264 Y40.449
X33.276 Y40.495
X33.288 Y40.54
X33.299 Y40.583
X33.311 Y40.629
X33.323 Y40.675
X33.334 Y40.72
X33.357 Y40.811
X33.368 Y40.856
X33.379 Y40.902
X33.389 Y40.946
X33.411 Y41.039
X33.422 Y41.084
X33.433 Y41.13
X33.443 Y41.176
X33.453 Y41.221
X33.464 Y41.268
X33.474 Y41.314
X33.484 Y41.359
X33.494 Y41.406
X33.504 Y41.452
X33.524 Y41.545
X33.534 Y41.591
X33.544 Y41.638
X33.553 Y41.684
X33.563 Y41.73
X33.572 Y41.776
X33.582 Y41.822
X33.591 Y41.87
X33.6 Y41.916
X33.618 Y42.01
X33.627 Y42.056
X33.636 Y42.104
X33.639 Y42.119
X33.624 Y42.113
X33.58 Y42.093
X33.537 Y42.075
X33.494 Y42.056
X33.45 Y42.036
X33.406 Y42.017
X33.364 Y41.998
X33.321 Y41.978
X33.277 Y41.958
X33.233 Y41.939
X33.19 Y41.919
X33.146 Y41.899
X33.104 Y41.88
X33.062 Y41.86
X33.018 Y41.84
X32.976 Y41.82
X32.932 Y41.799
X32.89 Y41.779
X32.805 Y41.738
X32.762 Y41.718
X32.72 Y41.698
X32.678 Y41.678
X32.593 Y41.636
X32.552 Y41.616
X32.509 Y41.594
X32.468 Y41.574
X32.427 Y41.553
X32.384 Y41.531
X32.342 Y41.51
X32.3 Y41.489
X32.259 Y41.468
X32.218 Y41.447
X32.177 Y41.426
X32.135 Y41.404
X32.094 Y41.382
X32.054 Y41.361
X32.012 Y41.339
X31.971 Y41.317
X31.93 Y41.296
X31.889 Y41.274
X31.849 Y41.252
X31.808 Y41.23
X31.768 Y41.208
X31.727 Y41.186
X31.686 Y41.163
X31.646 Y41.141
X31.607 Y41.119
X31.565 Y41.096
X31.525 Y41.074
X31.486 Y41.051
X31.446 Y41.029
X31.406 Y41.006
X31.367 Y40.983
X31.327 Y40.96
X31.287 Y40.937
X31.248 Y40.915
X31.209 Y40.891
X31.169 Y40.868
X31.129 Y40.845
X31.091 Y40.822
X31.052 Y40.799
X31.012 Y40.775
X30.974 Y40.751
X30.935 Y40.728
X30.897 Y40.704
X30.82 Y40.657
X30.782 Y40.633
X30.743 Y40.609
X30.705 Y40.585
X30.666 Y40.56
X30.629 Y40.537
X30.592 Y40.513
X30.515 Y40.463
X30.479 Y40.44
X30.404 Y40.39
X30.367 Y40.366
X30.328 Y40.34
X30.291 Y40.316
X30.256 Y40.292
X30.22 Y40.267
X30.182 Y40.241
X30.145 Y40.216
X30.11 Y40.192
X30.073 Y40.166
X30.037 Y40.141
X30.001 Y40.116
X29.928 Y40.064
X29.891 Y40.038
X29.857 Y40.014
X29.779 Y39.962
X29.702 Y39.913
X29.621 Y39.866
X29.543 Y39.823
X29.46 Y39.781
X29.377 Y39.742
X29.292 Y39.705
X29.208 Y39.671
X29.121 Y39.639
X29.035 Y39.611
X28.946 Y39.584
X28.857 Y39.56
X28.766 Y39.539
X28.678 Y39.521
X28.586 Y39.505
X28.498 Y39.493
X28.405 Y39.483
X28.314 Y39.475
X28.221 Y39.471
X28.13 Y39.469
X28.037 Y39.47
X27.947 Y39.474
X27.854 Y39.48
X27.764 Y39.489
X27.672 Y39.501
X27.582 Y39.516
X27.49 Y39.534
X27.401 Y39.554
X27.311 Y39.577
X27.225 Y39.602
X27.136 Y39.631
X27.051 Y39.661
X26.964 Y39.695
X26.882 Y39.73
X26.797 Y39.769
X26.715 Y39.81
X26.633 Y39.854
X26.556 Y39.898
X26.476 Y39.947
X26.399 Y39.998
X26.323 Y40.052
X26.252 Y40.105
X26.179 Y40.163
X26.108 Y40.223
X26.039 Y40.286
X25.976 Y40.346
X25.91 Y40.413
X25.848 Y40.479
X25.787 Y40.55
X25.729 Y40.621
X25.672 Y40.695
X25.62 Y40.767
X25.567 Y40.845
X25.518 Y40.922
X25.47 Y41.003
X25.427 Y41.081
X25.384 Y41.164
X25.346 Y41.244
X25.308 Y41.329
X25.273 Y41.414
X25.241 Y41.502
X25.212 Y41.587
X25.185 Y41.677
X25.162 Y41.763
X25.14 Y41.854
X25.121 Y41.944
X25.105 Y42.036
X25.092 Y42.126
X25.081 Y42.219
X25.074 Y42.309
X25.069 Y42.402
X25.067 Y42.492
Y42.585
X25.071 Y42.677
X25.077 Y42.77
X25.086 Y42.858
X25.097 Y42.951
X25.112 Y43.042
X25.129 Y43.134
X25.138 Y43.177
X25.148 Y43.221
X25.157 Y43.263
X25.166 Y43.307
X25.175 Y43.35
X25.185 Y43.394
X25.193 Y43.436
X25.202 Y43.479
X25.211 Y43.523
X25.219 Y43.568
X25.228 Y43.612
X25.236 Y43.653
X25.253 Y43.742
X25.26 Y43.785
X25.268 Y43.83
X25.276 Y43.874
X25.284 Y43.918
X25.291 Y43.961
X25.299 Y44.005
X25.306 Y44.05
X25.314 Y44.095
X25.321 Y44.14
X25.328 Y44.183
X25.335 Y44.227
X25.342 Y44.274
X25.349 Y44.319
X25.355 Y44.361
X25.362 Y44.406
X25.368 Y44.453
X25.375 Y44.497
X25.381 Y44.541
X25.387 Y44.588
X25.393 Y44.633
X25.399 Y44.677
X25.405 Y44.721
X25.416 Y44.814
X25.422 Y44.858
X25.427 Y44.904
X25.432 Y44.949
X25.438 Y44.994
X25.443 Y45.041
X25.448 Y45.087
X25.453 Y45.131
X25.458 Y45.177
X25.462 Y45.223
X25.467 Y45.268
X25.476 Y45.361
X25.481 Y45.408
X25.485 Y45.452
X25.489 Y45.499
X25.493 Y45.545
X25.497 Y45.591
X25.501 Y45.637
X25.504 Y45.682
X25.508 Y45.73
X25.512 Y45.777
X25.515 Y45.822
X25.519 Y45.87
X25.522 Y45.916
X25.525 Y45.961
X25.528 Y46.008
X25.531 Y46.055
X25.534 Y46.101
X25.537 Y46.15
X25.54 Y46.196
X25.542 Y46.242
X25.545 Y46.289
X25.547 Y46.336
X25.55 Y46.382
X25.552 Y46.429
X25.554 Y46.476
X25.556 Y46.525
X25.558 Y46.572
X25.56 Y46.617
X25.562 Y46.665
X25.564 Y46.712
X25.565 Y46.759
X25.567 Y46.807
X25.568 Y46.855
X25.57 Y46.9
X25.571 Y46.948
X25.572 Y46.997
X25.573 Y47.044
X25.574 Y47.09
X25.575 Y47.139
X25.576 Y47.186
X25.577 Y47.281
X25.578 Y47.329
Y47.376
Y47.424
Y47.44
X25.565 Y47.431
X25.525 Y47.404
X25.487 Y47.378
X25.448 Y47.352
X25.407 Y47.325
X25.368 Y47.298
X25.329 Y47.271
X25.289 Y47.244
X25.25 Y47.217
X25.211 Y47.19
X25.172 Y47.163
X25.134 Y47.136
X25.095 Y47.109
X25.057 Y47.082
X25.017 Y47.054
X24.979 Y47.026
X24.941 Y46.999
X24.903 Y46.972
X24.865 Y46.945
X24.825 Y46.916
X24.788 Y46.889
X24.75 Y46.861
X24.713 Y46.834
X24.675 Y46.806
X24.636 Y46.778
X24.561 Y46.722
X24.486 Y46.666
X24.449 Y46.637
X24.412 Y46.61
X24.337 Y46.553
X24.3 Y46.524
X24.263 Y46.496
X24.227 Y46.468
X24.191 Y46.44
X24.154 Y46.411
X24.116 Y46.381
X24.081 Y46.353
X24.044 Y46.324
X24.008 Y46.296
X23.972 Y46.267
X23.936 Y46.238
X23.899 Y46.209
X23.863 Y46.18
X23.828 Y46.151
X23.792 Y46.122
X23.757 Y46.092
X23.722 Y46.064
X23.686 Y46.034
X23.65 Y46.004
X23.614 Y45.975
X23.581 Y45.946
X23.51 Y45.886
X23.476 Y45.857
X23.441 Y45.827
X23.406 Y45.798
X23.336 Y45.737
X23.303 Y45.708
X23.269 Y45.678
X23.234 Y45.648
X23.2 Y45.618
X23.167 Y45.588
X23.134 Y45.558
X23.099 Y45.528
X23.066 Y45.497
X23.032 Y45.467
X23 Y45.438
X22.933 Y45.376
X22.899 Y45.345
X22.867 Y45.315
X22.834 Y45.285
X22.801 Y45.253
X22.768 Y45.222
X22.736 Y45.192
X22.704 Y45.161
X22.672 Y45.131
X22.64 Y45.1
X22.608 Y45.069
X22.576 Y45.038
X22.543 Y45.005
X22.512 Y44.975
X22.481 Y44.944
X22.45 Y44.913
X22.419 Y44.882
X22.388 Y44.851
X22.356 Y44.819
X22.325 Y44.787
X22.295 Y44.756
X22.263 Y44.723
X22.232 Y44.693
X22.165 Y44.627
X22.099 Y44.567
X22.028 Y44.506
X21.958 Y44.449
X21.883 Y44.392
X21.81 Y44.34
X21.733 Y44.288
X21.656 Y44.24
X21.576 Y44.193
X21.497 Y44.15
X21.414 Y44.108
X21.332 Y44.069
X21.246 Y44.031
X21.161 Y43.998
X21.074 Y43.966
X20.988 Y43.937
X20.898 Y43.911
X20.812 Y43.888
X20.721 Y43.866
X20.631 Y43.848
X20.539 Y43.833
X20.452 Y43.821
X20.359 Y43.81
X20.267 Y43.803
X20.174 Y43.799
X20.084 Y43.797
X19.99 Y43.798
X19.899 Y43.802
X19.806 Y43.809
X19.717 Y43.818
X19.625 Y43.83
X19.536 Y43.845
X19.445 Y43.863
X19.357 Y43.882
X19.266 Y43.906
X19.178 Y43.931
X19.089 Y43.96
X19.005 Y43.99
X18.918 Y44.024
X18.834 Y44.06
X18.749 Y44.099
X18.669 Y44.14
X18.587 Y44.184
X18.508 Y44.229
X18.429 Y44.278
X18.354 Y44.328
X18.278 Y44.381
X18.205 Y44.436
X18.132 Y44.494
X18.064 Y44.553
X17.994 Y44.616
X17.929 Y44.678
X17.863 Y44.745
X17.802 Y44.811
X17.741 Y44.881
X17.684 Y44.952
X17.627 Y45.026
X17.574 Y45.099
X17.521 Y45.177
X17.474 Y45.252
X17.426 Y45.332
X17.382 Y45.412
X17.34 Y45.495
X17.301 Y45.576
X17.263 Y45.662
X17.229 Y45.747
X17.196 Y45.834
X17.168 Y45.92
X17.141 Y46.01
X17.118 Y46.095
X17.096 Y46.186
X17.077 Y46.276
X17.061 Y46.368
X17.048 Y46.46
X17.038 Y46.553
X17.031 Y46.641
X17.026 Y46.734
X17.024 Y46.826
Y46.919
X17.025 Y46.962
X17.027 Y47.007
X17.029 Y47.051
X17.03 Y47.096
X17.031 Y47.14
X17.032 Y47.183
X17.033 Y47.228
X17.034 Y47.272
X17.035 Y47.316
X17.036 Y47.361
Y47.405
X17.037 Y47.45
Y47.494
Y47.538
Y47.584
Y47.628
Y47.673
Y47.719
X17.036 Y47.763
Y47.807
X17.035 Y47.853
X17.034 Y47.897
X17.033 Y47.942
X17.032 Y47.988
X17.031 Y48.032
X17.03 Y48.077
X17.029 Y48.122
X17.027 Y48.168
X17.026 Y48.212
X17.024 Y48.258
X17.022 Y48.304
X17.02 Y48.349
X17.018 Y48.393
X17.016 Y48.441
X17.014 Y48.487
X17.012 Y48.53
X17.007 Y48.623
X17.004 Y48.668
X17.001 Y48.712
X16.999 Y48.758
X16.996 Y48.805
X16.992 Y48.851
X16.989 Y48.897
X16.986 Y48.942
X16.983 Y48.988
X16.979 Y49.034
X16.976 Y49.079
X16.972 Y49.125
X16.968 Y49.172
X16.964 Y49.218
X16.96 Y49.264
X16.956 Y49.311
X16.952 Y49.356
X16.947 Y49.402
X16.943 Y49.448
X16.938 Y49.495
X16.934 Y49.541
X16.929 Y49.586
X16.924 Y49.633
X16.919 Y49.679
X16.914 Y49.726
X16.909 Y49.772
X16.904 Y49.819
X16.898 Y49.865
X16.893 Y49.912
X16.887 Y49.957
X16.882 Y50.004
X16.876 Y50.052
X16.87 Y50.097
X16.864 Y50.144
X16.858 Y50.19
X16.846 Y50.284
X16.839 Y50.329
X16.833 Y50.377
X16.826 Y50.424
X16.82 Y50.469
X16.813 Y50.517
X16.806 Y50.565
X16.799 Y50.61
X16.792 Y50.658
X16.785 Y50.705
X16.778 Y50.75
X16.771 Y50.797
X16.763 Y50.846
X16.755 Y50.892
X16.748 Y50.938
X16.74 Y50.985
X16.732 Y51.033
X16.724 Y51.08
X16.717 Y51.126
X16.709 Y51.173
X16.7 Y51.221
X16.697 Y51.236
X16.686 Y51.224
X16.652 Y51.192
X16.618 Y51.159
X16.584 Y51.125
X16.549 Y51.091
X16.516 Y51.059
X16.448 Y50.991
X16.414 Y50.957
X16.382 Y50.925
X16.348 Y50.891
X16.314 Y50.857
X16.281 Y50.824
X16.247 Y50.789
X16.214 Y50.756
X16.182 Y50.722
X16.148 Y50.688
X16.116 Y50.655
X16.084 Y50.621
X16.05 Y50.586
X16.018 Y50.552
X15.986 Y50.519
X15.953 Y50.485
X15.921 Y50.451
X15.889 Y50.417
X15.856 Y50.382
X15.824 Y50.348
X15.793 Y50.314
X15.761 Y50.279
X15.729 Y50.245
X15.698 Y50.211
X15.666 Y50.176
X15.634 Y50.141
X15.572 Y50.072
X15.541 Y50.038
X15.51 Y50.004
X15.448 Y49.934
X15.418 Y49.9
X15.387 Y49.864
X15.356 Y49.829
X15.326 Y49.794
X15.295 Y49.76
X15.266 Y49.726
X15.235 Y49.69
X15.205 Y49.655
X15.175 Y49.62
X15.146 Y49.585
X15.086 Y49.514
X15.057 Y49.48
X15.028 Y49.445
X14.968 Y49.373
X14.94 Y49.338
X14.911 Y49.303
X14.882 Y49.268
X14.824 Y49.196
X14.796 Y49.16
X14.768 Y49.126
X14.74 Y49.091
X14.712 Y49.055
X14.683 Y49.019
X14.655 Y48.983
X14.627 Y48.947
X14.599 Y48.911
X14.572 Y48.876
X14.545 Y48.84
X14.517 Y48.804
X14.49 Y48.769
X14.463 Y48.733
X14.435 Y48.696
X14.409 Y48.661
X14.382 Y48.625
X14.355 Y48.588
X14.329 Y48.553
X14.303 Y48.517
X14.276 Y48.481
X14.25 Y48.444
X14.224 Y48.409
X14.198 Y48.372
X14.172 Y48.335
X14.146 Y48.3
X14.12 Y48.263
X14.095 Y48.227
X14.071 Y48.192
X14.045 Y48.155
X14.02 Y48.118
X13.995 Y48.082
X13.971 Y48.046
X13.946 Y48.009
X13.92 Y47.97
X13.895 Y47.935
X13.841 Y47.859
X13.787 Y47.788
X13.728 Y47.715
X13.669 Y47.646
X13.606 Y47.577
X13.544 Y47.514
X13.477 Y47.449
X13.409 Y47.387
X13.338 Y47.326
X13.268 Y47.269
X13.194 Y47.213
X13.12 Y47.16
X13.042 Y47.108
X12.967 Y47.061
X12.886 Y47.014
X12.806 Y46.97
X12.722 Y46.927
X12.642 Y46.89
X12.556 Y46.853
X12.471 Y46.819
X12.384 Y46.787
X12.299 Y46.759
X12.209 Y46.732
X12.121 Y46.709
X12.03 Y46.688
X11.941 Y46.67
X11.849 Y46.655
X11.76 Y46.642
X11.667 Y46.632
X11.577 Y46.625
X11.484 Y46.621
X11.394 Y46.619
X11.301 Y46.621
X11.209 Y46.625
X11.116 Y46.632
X11.028 Y46.641
X10.935 Y46.653
X10.846 Y46.668
X10.754 Y46.686
X10.665 Y46.706
X10.575 Y46.73
X10.489 Y46.755
X10.4 Y46.783
X10.313 Y46.815
X10.227 Y46.849
X10.145 Y46.884
X10.061 Y46.923
X9.979 Y46.964
X9.897 Y47.008
X9.819 Y47.053
X9.74 Y47.102
X9.664 Y47.152
X9.588 Y47.206
X9.515 Y47.261
X9.442 Y47.32
X9.374 Y47.378
X9.305 Y47.441
X9.24 Y47.503
X9.175 Y47.569
X9.113 Y47.636
X9.052 Y47.707
X8.995 Y47.777
X8.938 Y47.851
X8.886 Y47.924
X8.833 Y48.002
X8.784 Y48.079
X8.737 Y48.159
X8.693 Y48.238
X8.651 Y48.322
X8.612 Y48.403
X8.575 Y48.489
X8.541 Y48.573
X8.509 Y48.661
X8.48 Y48.747
X8.453 Y48.836
X8.429 Y48.924
X8.408 Y49.015
X8.39 Y49.104
X8.374 Y49.196
X8.367 Y49.238
X8.361 Y49.284
X8.354 Y49.327
X8.348 Y49.371
X8.341 Y49.414
X8.334 Y49.458
X8.328 Y49.501
X8.32 Y49.545
X8.313 Y49.589
X8.306 Y49.632
X8.299 Y49.677
X8.291 Y49.72
X8.283 Y49.764
X8.276 Y49.808
X8.268 Y49.852
X8.26 Y49.896
X8.252 Y49.94
X8.243 Y49.984
X8.235 Y50.028
X8.226 Y50.072
X8.218 Y50.116
X8.209 Y50.16
X8.2 Y50.204
X8.191 Y50.248
X8.182 Y50.292
X8.173 Y50.337
X8.163 Y50.381
X8.154 Y50.425
X8.144 Y50.469
X8.134 Y50.513
X8.125 Y50.558
X8.115 Y50.602
X8.105 Y50.646
X8.094 Y50.691
X8.084 Y50.735
X8.074 Y50.78
X8.063 Y50.824
X8.053 Y50.868
X8.042 Y50.913
X8.031 Y50.957
X8.02 Y51.002
X8.009 Y51.046
X7.998 Y51.09
X7.986 Y51.135
X7.975 Y51.18
X7.963 Y51.224
X7.952 Y51.269
X7.94 Y51.313
X7.928 Y51.358
X7.916 Y51.402
X7.904 Y51.447
X7.892 Y51.492
X7.88 Y51.536
X7.867 Y51.58
X7.855 Y51.625
X7.842 Y51.67
X7.829 Y51.714
X7.817 Y51.759
X7.804 Y51.804
X7.791 Y51.848
X7.777 Y51.893
X7.764 Y51.938
X7.751 Y51.983
X7.737 Y52.027
X7.724 Y52.072
X7.71 Y52.117
X7.697 Y52.161
X7.683 Y52.206
X7.669 Y52.251
X7.655 Y52.296
X7.64 Y52.34
X7.626 Y52.385
X7.612 Y52.43
X7.597 Y52.474
X7.583 Y52.519
X7.568 Y52.564
X7.553 Y52.609
X7.538 Y52.654
X7.523 Y52.699
X7.508 Y52.743
X7.493 Y52.788
X7.478 Y52.833
X7.462 Y52.878
X7.447 Y52.922
X7.431 Y52.967
X7.416 Y53.012
X7.4 Y53.056
X7.384 Y53.101
X7.368 Y53.146
X7.352 Y53.191
X7.336 Y53.236
X7.32 Y53.28
X7.303 Y53.325
X7.287 Y53.37
X7.281 Y53.385
X7.272 Y53.372
X7.245 Y53.334
X7.217 Y53.295
X7.189 Y53.256
X7.162 Y53.216
X7.134 Y53.178
X7.107 Y53.139
X7.08 Y53.1
X7.053 Y53.061
X7.026 Y53.022
X6.999 Y52.983
X6.972 Y52.944
X6.945 Y52.905
X6.919 Y52.866
X6.892 Y52.827
X6.865 Y52.787
X6.839 Y52.748
X6.813 Y52.709
X6.787 Y52.669
X6.761 Y52.631
X6.735 Y52.592
X6.709 Y52.552
X6.684 Y52.513
X6.658 Y52.473
X6.632 Y52.434
X6.606 Y52.394
X6.581 Y52.355
X6.556 Y52.316
X6.531 Y52.277
X6.506 Y52.237
X6.481 Y52.198
X6.456 Y52.158
X6.431 Y52.119
X6.407 Y52.079
X6.382 Y52.039
X6.358 Y52
X6.333 Y51.96
X6.309 Y51.92
X6.285 Y51.881
X6.261 Y51.841
X6.237 Y51.802
X6.213 Y51.762
X6.189 Y51.722
X6.166 Y51.683
X6.142 Y51.642
X6.119 Y51.603
X6.096 Y51.563
X6.072 Y51.523
X6.049 Y51.484
X6.026 Y51.444
X6.003 Y51.403
X5.981 Y51.364
X5.958 Y51.324
X5.935 Y51.284
X5.913 Y51.244
X5.891 Y51.204
X5.869 Y51.164
X5.847 Y51.124
X5.825 Y51.084
X5.803 Y51.044
X5.781 Y51.004
X5.76 Y50.964
X5.738 Y50.924
X5.717 Y50.884
X5.696 Y50.844
X5.674 Y50.804
X5.653 Y50.763
X5.632 Y50.723
X5.611 Y50.684
X5.591 Y50.644
X5.57 Y50.604
X5.55 Y50.563
X5.53 Y50.523
X5.509 Y50.483
X5.489 Y50.443
X5.469 Y50.403
X5.449 Y50.362
X5.43 Y50.322
X5.41 Y50.282
X5.391 Y50.241
X5.371 Y50.201
X5.352 Y50.161
X5.334 Y50.121
X5.314 Y50.081
X5.295 Y50.04
X5.277 Y50
X5.258 Y49.96
X5.24 Y49.92
X5.222 Y49.88
X5.203 Y49.839
X5.186 Y49.799
X5.168 Y49.759
X5.15 Y49.719
X5.132 Y49.677
X5.114 Y49.637
X5.074 Y49.553
X5.033 Y49.472
X4.988 Y49.39
X4.943 Y49.313
X4.893 Y49.234
X4.843 Y49.158
X4.788 Y49.083
X4.734 Y49.011
X4.675 Y48.939
X4.616 Y48.87
X4.553 Y48.801
X4.49 Y48.736
X4.423 Y48.671
X4.355 Y48.609
X4.284 Y48.549
X4.215 Y48.493
X4.141 Y48.437
X4.066 Y48.384
X3.988 Y48.332
X3.912 Y48.285
X3.832 Y48.238
X3.752 Y48.194
X3.669 Y48.152
X3.587 Y48.114
X3.501 Y48.077
X3.417 Y48.043
X3.329 Y48.012
X3.243 Y47.984
X3.154 Y47.957
X3.066 Y47.934
X2.975 Y47.913
X2.888 Y47.896
X2.796 Y47.88
X2.706 Y47.868
X2.613 Y47.858
X2.523 Y47.851
X2.429 Y47.847
X2.338 Y47.845
X2.244 Y47.847
X2.156 Y47.851
X2.063 Y47.858
X1.971 Y47.867
X1.879 Y47.88
X1.792 Y47.894
X1.7 Y47.912
X1.61 Y47.933
X1.52 Y47.957
X1.435 Y47.981
X1.346 Y48.01
X1.259 Y48.042
X1.172 Y48.076
X1.09 Y48.112
X1.005 Y48.151
X0.925 Y48.191
X0.843 Y48.236
X0.764 Y48.282
X0.685 Y48.331
X0.61 Y48.38
X0.534 Y48.434
X0.462 Y48.489
X0.39 Y48.547
X0.32 Y48.607
X0.251 Y48.669
X0.186 Y48.732
X0.121 Y48.799
X0.06 Y48.865
X-0.001 Y48.936
X-0.059 Y49.006
X-0.115 Y49.081
X-0.169 Y49.155
X-0.221 Y49.232
X-0.268 Y49.308
X-0.316 Y49.389
X-0.36 Y49.469
X-0.402 Y49.552
X-0.441 Y49.634
X-0.478 Y49.719
X-0.512 Y49.804
X-0.544 Y49.891
X-0.558 Y49.932
X-0.573 Y49.975
X-0.587 Y50.017
X-0.601 Y50.059
X-0.615 Y50.101
X-0.63 Y50.142
X-0.644 Y50.184
X-0.659 Y50.226
X-0.674 Y50.268
X-0.689 Y50.309
X-0.704 Y50.351
X-0.719 Y50.393
X-0.735 Y50.434
X-0.75 Y50.476
X-0.766 Y50.518
X-0.781 Y50.56
X-0.797 Y50.602
X-0.813 Y50.643
X-0.83 Y50.685
X-0.846 Y50.727
X-0.862 Y50.769
X-0.879 Y50.81
X-0.895 Y50.853
X-0.912 Y50.895
X-0.929 Y50.936
X-0.946 Y50.978
X-0.963 Y51.02
X-0.98 Y51.062
X-0.997 Y51.103
X-1.015 Y51.145
X-1.033 Y51.187
X-1.05 Y51.229
X-1.068 Y51.271
X-1.086 Y51.312
X-1.104 Y51.354
X-1.122 Y51.396
X-1.141 Y51.438
X-1.159 Y51.479
X-1.177 Y51.521
X-1.196 Y51.564
X-1.215 Y51.605
X-1.234 Y51.647
X-1.253 Y51.689
X-1.272 Y51.73
X-1.291 Y51.772
X-1.31 Y51.814
X-1.33 Y51.856
X-1.349 Y51.897
X-1.369 Y51.939
X-1.388 Y51.981
X-1.408 Y52.022
X-1.428 Y52.064
X-1.448 Y52.106
X-1.468 Y52.148
X-1.489 Y52.189
X-1.509 Y52.231
X-1.53 Y52.273
X-1.55 Y52.314
X-1.571 Y52.356
X-1.592 Y52.397
X-1.612 Y52.439
X-1.634 Y52.481
X-1.655 Y52.523
X-1.676 Y52.564
X-1.697 Y52.605
X-1.719 Y52.647
X-1.74 Y52.689
X-1.762 Y52.73
X-1.783 Y52.771
X-1.805 Y52.813
X-1.827 Y52.855
X-1.849 Y52.896
X-1.871 Y52.937
X-1.894 Y52.979
X-1.916 Y53.021
X-1.939 Y53.062
X-1.961 Y53.103
X-1.984 Y53.145
X-2.007 Y53.186
X-2.029 Y53.227
X-2.052 Y53.268
X-2.075 Y53.31
X-2.098 Y53.351
X-2.121 Y53.392
X-2.145 Y53.434
X-2.168 Y53.475
X-2.192 Y53.516
X-2.216 Y53.558
X-2.239 Y53.599
X-2.263 Y53.64
X-2.287 Y53.681
X-2.311 Y53.722
X-2.335 Y53.764
X-2.359 Y53.805
X-2.367 Y53.818
X-2.374 Y53.804
X-2.394 Y53.761
X-2.415 Y53.717
X-2.435 Y53.675
X-2.455 Y53.631
X-2.475 Y53.588
X-2.495 Y53.545
X-2.514 Y53.502
X-2.534 Y53.459
X-2.554 Y53.415
X-2.573 Y53.373
X-2.593 Y53.329
X-2.612 Y53.286
X-2.631 Y53.242
X-2.65 Y53.199
X-2.669 Y53.156
X-2.688 Y53.113
X-2.707 Y53.07
X-2.726 Y53.026
X-2.744 Y52.983
X-2.763 Y52.94
X-2.782 Y52.897
X-2.8 Y52.854
X-2.818 Y52.81
X-2.836 Y52.767
X-2.854 Y52.724
X-2.872 Y52.68
X-2.89 Y52.637
X-2.908 Y52.594
X-2.925 Y52.55
X-2.943 Y52.507
X-2.96 Y52.463
X-2.977 Y52.42
X-2.995 Y52.377
X-3.012 Y52.334
X-3.029 Y52.29
X-3.046 Y52.247
X-3.062 Y52.204
X-3.079 Y52.161
X-3.096 Y52.117
X-3.112 Y52.074
X-3.128 Y52.031
X-3.145 Y51.987
X-3.161 Y51.944
X-3.177 Y51.9
X-3.193 Y51.857
X-3.209 Y51.814
X-3.224 Y51.771
X-3.24 Y51.727
X-3.255 Y51.684
X-3.271 Y51.641
X-3.286 Y51.598
X-3.301 Y51.554
X-3.316 Y51.51
X-3.331 Y51.467
X-3.346 Y51.424
X-3.361 Y51.381
X-3.375 Y51.337
X-3.39 Y51.294
X-3.404 Y51.251
X-3.418 Y51.208
X-3.432 Y51.164
X-3.446 Y51.121
X-3.46 Y51.078
X-3.474 Y51.035
X-3.488 Y50.992
X-3.501 Y50.949
X-3.514 Y50.905
X-3.528 Y50.862
X-3.541 Y50.819
X-3.554 Y50.776
X-3.567 Y50.732
X-3.58 Y50.689
X-3.592 Y50.647
X-3.605 Y50.603
X-3.618 Y50.56
X-3.63 Y50.517
X-3.642 Y50.474
X-3.654 Y50.431
X-3.666 Y50.388
X-3.678 Y50.345
X-3.689 Y50.302
X-3.701 Y50.259
X-3.713 Y50.216
X-3.724 Y50.173
X-3.735 Y50.13
X-3.746 Y50.087
X-3.757 Y50.044
X-3.768 Y50.002
X-3.778 Y49.959
X-3.789 Y49.916
X-3.799 Y49.873
X-3.809 Y49.831
X-3.82 Y49.786
X-3.831 Y49.744
X-3.855 Y49.653
X-3.881 Y49.567
X-3.91 Y49.478
X-3.941 Y49.394
X-3.976 Y49.307
X-4.012 Y49.224
X-4.052 Y49.14
X-4.093 Y49.06
X-4.138 Y48.978
X-4.183 Y48.9
X-4.233 Y48.821
X-4.284 Y48.746
X-4.338 Y48.67
X-4.394 Y48.597
X-4.453 Y48.525
X-4.511 Y48.457
X-4.575 Y48.388
X-4.637 Y48.324
X-4.704 Y48.259
X-4.771 Y48.198
X-4.842 Y48.138
X-4.913 Y48.081
X-4.987 Y48.025
X-5.061 Y47.972
X-5.139 Y47.92
X-5.216 Y47.873
X-5.296 Y47.826
X-5.376 Y47.783
X-5.459 Y47.741
X-5.542 Y47.702
X-5.627 Y47.666
X-5.71 Y47.633
X-5.797 Y47.601
X-5.884 Y47.573
X-5.974 Y47.547
X-6.061 Y47.524
X-6.152 Y47.503
X-6.241 Y47.485
X-6.333 Y47.47
X-6.424 Y47.458
X-6.517 Y47.448
X-6.605 Y47.441
X-6.699 Y47.437
X-6.79 Y47.436
X-6.883 Y47.437
X-6.972 Y47.441
X-7.065 Y47.448
X-7.156 Y47.458
X-7.249 Y47.471
X-7.337 Y47.485
X-7.428 Y47.504
X-7.517 Y47.524
X-7.607 Y47.548
X-7.695 Y47.573
X-7.783 Y47.602
X-7.868 Y47.633
X-7.954 Y47.667
X-8.038 Y47.703
X-8.122 Y47.743
X-8.202 Y47.783
X-8.284 Y47.828
X-8.363 Y47.874
X-8.442 Y47.923
X-8.517 Y47.973
X-8.593 Y48.027
X-8.666 Y48.082
X-8.739 Y48.141
X-8.808 Y48.2
X-8.877 Y48.263
X-8.942 Y48.326
X-9.007 Y48.393
X-9.068 Y48.459
X-9.129 Y48.53
X-9.186 Y48.6
X-9.243 Y48.675
X-9.295 Y48.748
X-9.347 Y48.826
X-9.396 Y48.903
X-9.443 Y48.984
X-9.464 Y49.021
X-9.486 Y49.061
X-9.507 Y49.1
X-9.529 Y49.138
X-9.551 Y49.177
X-9.572 Y49.215
X-9.594 Y49.253
X-9.616 Y49.292
X-9.638 Y49.33
X-9.66 Y49.369
X-9.683 Y49.408
X-9.705 Y49.446
X-9.727 Y49.484
X-9.75 Y49.522
X-9.773 Y49.561
X-9.796 Y49.599
X-9.819 Y49.637
X-9.842 Y49.675
X-9.866 Y49.714
X-9.889 Y49.752
X-9.913 Y49.79
X-9.936 Y49.829
X-9.96 Y49.867
X-9.984 Y49.905
X-10.008 Y49.943
X-10.032 Y49.981
X-10.057 Y50.019
X-10.081 Y50.057
X-10.105 Y50.095
X-10.13 Y50.133
X-10.155 Y50.172
X-10.18 Y50.209
X-10.205 Y50.247
X-10.23 Y50.285
X-10.255 Y50.323
X-10.28 Y50.36
X-10.306 Y50.399
X-10.332 Y50.437
X-10.357 Y50.474
X-10.383 Y50.512
X-10.409 Y50.55
X-10.435 Y50.588
X-10.461 Y50.625
X-10.487 Y50.663
X-10.514 Y50.701
X-10.54 Y50.738
X-10.567 Y50.776
X-10.593 Y50.813
X-10.62 Y50.851
X-10.647 Y50.889
X-10.674 Y50.926
X-10.701 Y50.963
X-10.728 Y51.001
X-10.756 Y51.039
X-10.782 Y51.075
X-10.81 Y51.113
X-10.838 Y51.151
X-10.865 Y51.187
X-10.893 Y51.225
X-10.922 Y51.263
X-10.95 Y51.3
X-10.977 Y51.336
X-11.005 Y51.373
X-11.034 Y51.411
X-11.062 Y51.448
X-11.091 Y51.485
X-11.119 Y51.522
X-11.148 Y51.559
X-11.177 Y51.596
X-11.206 Y51.634
X-11.235 Y51.671
X-11.263 Y51.706
X-11.293 Y51.744
X-11.322 Y51.781
X-11.381 Y51.854
X-11.441 Y51.928
X-11.471 Y51.965
X-11.499 Y52
X-11.529 Y52.037
X-11.56 Y52.074
X-11.591 Y52.111
X-11.62 Y52.147
X-11.65 Y52.183
X-11.681 Y52.219
X-11.712 Y52.256
X-11.743 Y52.293
X-11.772 Y52.328
X-11.803 Y52.365
X-11.834 Y52.401
X-11.865 Y52.437
X-11.897 Y52.474
X-11.927 Y52.51
X-11.938 Y52.522
X-11.942 Y52.506
X-11.954 Y52.461
X-11.966 Y52.415
X-11.979 Y52.368
X-11.991 Y52.322
X-12.003 Y52.277
X-12.014 Y52.23
X-12.026 Y52.184
X-12.038 Y52.138
X-12.05 Y52.092
X-12.061 Y52.046
X-12.073 Y52
X-12.084 Y51.954
X-12.095 Y51.908
X-12.106 Y51.862
X-12.117 Y51.816
X-12.128 Y51.77
X-12.139 Y51.724
X-12.15 Y51.678
X-12.16 Y51.632
X-12.171 Y51.588
X-12.181 Y51.542
X-12.192 Y51.494
X-12.202 Y51.45
X-12.212 Y51.404
X-12.222 Y51.358
X-12.232 Y51.312
X-12.241 Y51.266
X-12.251 Y51.22
X-12.261 Y51.174
X-12.27 Y51.13
X-12.279 Y51.084
X-12.289 Y51.038
X-12.298 Y50.992
X-12.307 Y50.946
X-12.316 Y50.9
X-12.325 Y50.854
X-12.334 Y50.81
X-12.351 Y50.718
X-12.359 Y50.672
X-12.368 Y50.626
X-12.376 Y50.582
X-12.384 Y50.536
X-12.392 Y50.49
X-12.4 Y50.444
X-12.408 Y50.399
X-12.416 Y50.354
X-12.423 Y50.308
X-12.431 Y50.263
X-12.438 Y50.218
X-12.445 Y50.173
X-12.453 Y50.127
X-12.46 Y50.083
X-12.466 Y50.037
X-12.473 Y49.991
X-12.48 Y49.946
X-12.487 Y49.9
X-12.493 Y49.856
X-12.5 Y49.812
X-12.506 Y49.766
X-12.512 Y49.72
X-12.518 Y49.676
X-12.524 Y49.63
X-12.53 Y49.585
X-12.536 Y49.541
X-12.541 Y49.495
X-12.547 Y49.45
X-12.552 Y49.407
X-12.557 Y49.362
X-12.562 Y49.316
X-12.568 Y49.271
X-12.572 Y49.227
X-12.582 Y49.137
X-12.586 Y49.093
X-12.591 Y49.048
X-12.595 Y49.003
X-12.599 Y48.959
X-12.603 Y48.915
X-12.607 Y48.87
X-12.611 Y48.826
X-12.615 Y48.782
X-12.618 Y48.737
X-12.622 Y48.693
X-12.625 Y48.649
X-12.628 Y48.604
X-12.631 Y48.56
X-12.634 Y48.517
X-12.637 Y48.472
X-12.64 Y48.428
X-12.643 Y48.384
X-12.645 Y48.341
X-12.647 Y48.296
X-12.65 Y48.25
X-12.658 Y48.157
X-12.668 Y48.07
X-12.681 Y47.977
X-12.697 Y47.887
X-12.715 Y47.796
X-12.736 Y47.707
X-12.76 Y47.617
X-12.786 Y47.532
X-12.815 Y47.444
X-12.847 Y47.358
X-12.882 Y47.271
X-12.918 Y47.189
X-12.958 Y47.104
X-13 Y47.022
X-13.045 Y46.941
X-13.09 Y46.864
X-13.14 Y46.785
X-13.191 Y46.71
X-13.245 Y46.634
X-13.3 Y46.563
X-13.359 Y46.491
X-13.419 Y46.422
X-13.482 Y46.353
X-13.545 Y46.289
X-13.612 Y46.224
X-13.678 Y46.164
X-13.75 Y46.103
X-13.821 Y46.046
X-13.896 Y45.99
X-13.969 Y45.937
X-14.047 Y45.886
X-14.123 Y45.839
X-14.203 Y45.792
X-14.283 Y45.749
X-14.366 Y45.707
X-14.449 Y45.669
X-14.535 Y45.632
X-14.619 Y45.599
X-14.707 Y45.567
X-14.793 Y45.539
X-14.882 Y45.513
X-14.969 Y45.491
X-15.06 Y45.47
X-15.15 Y45.452
X-15.242 Y45.437
X-15.33 Y45.425
X-15.423 Y45.415
X-15.515 Y45.408
X-15.608 Y45.404
X-15.696 Y45.403
X-15.79 Y45.405
X-15.881 Y45.409
X-15.975 Y45.416
X-16.065 Y45.426
X-16.157 Y45.439
X-16.246 Y45.454
X-16.337 Y45.472
X-16.426 Y45.493
X-16.516 Y45.516
X-16.601 Y45.542
X-16.69 Y45.571
X-16.775 Y45.602
X-16.862 Y45.636
X-16.946 Y45.672
X-17.031 Y45.712
X-17.111 Y45.753
X-17.193 Y45.797
X-17.271 Y45.843
X-17.35 Y45.893
X-17.427 Y45.944
X-17.503 Y45.999
X-17.574 Y46.052
X-17.646 Y46.111
X-17.715 Y46.17
X-17.784 Y46.233
X-17.849 Y46.296
X-17.915 Y46.363
X-17.976 Y46.43
X-18.037 Y46.501
X-18.066 Y46.536
X-18.094 Y46.571
X-18.121 Y46.604
X-18.149 Y46.638
X-18.177 Y46.672
X-18.205 Y46.706
X-18.233 Y46.74
X-18.262 Y46.774
X-18.291 Y46.808
X-18.319 Y46.841
X-18.348 Y46.876
X-18.377 Y46.909
X-18.406 Y46.943
X-18.435 Y46.977
X-18.464 Y47.01
X-18.493 Y47.043
X-18.523 Y47.077
X-18.553 Y47.111
X-18.583 Y47.144
X-18.613 Y47.178
X-18.643 Y47.211
X-18.672 Y47.244
X-18.704 Y47.278
X-18.734 Y47.311
X-18.764 Y47.344
X-18.795 Y47.378
X-18.826 Y47.411
X-18.856 Y47.443
X-18.887 Y47.477
X-18.918 Y47.509
X-18.95 Y47.543
X-18.981 Y47.576
X-19.012 Y47.609
X-19.044 Y47.642
X-19.075 Y47.674
X-19.107 Y47.707
X-19.139 Y47.74
X-19.171 Y47.773
X-19.202 Y47.805
X-19.267 Y47.87
X-19.299 Y47.902
X-19.332 Y47.935
X-19.365 Y47.968
X-19.397 Y47.999
X-19.429 Y48.032
X-19.463 Y48.065
X-19.495 Y48.097
X-19.528 Y48.128
X-19.562 Y48.161
X-19.595 Y48.193
X-19.628 Y48.225
X-19.662 Y48.257
X-19.695 Y48.288
X-19.728 Y48.32
X-19.763 Y48.353
X-19.796 Y48.384
X-19.865 Y48.448
X-19.898 Y48.479
X-19.932 Y48.511
X-19.966 Y48.542
X-20.037 Y48.607
X-20.07 Y48.637
X-20.14 Y48.7
X-20.174 Y48.731
X-20.209 Y48.762
X-20.244 Y48.794
X-20.279 Y48.824
X-20.315 Y48.856
X-20.351 Y48.887
X-20.386 Y48.918
X-20.42 Y48.948
X-20.455 Y48.979
X-20.492 Y49.011
X-20.564 Y49.072
X-20.635 Y49.133
X-20.67 Y49.163
X-20.707 Y49.194
X-20.745 Y49.226
X-20.78 Y49.256
X-20.854 Y49.317
X-20.89 Y49.347
X-20.926 Y49.376
X-20.963 Y49.406
X-21 Y49.437
X-21.038 Y49.468
X-21.074 Y49.498
X-21.11 Y49.527
X-21.123 Y49.537
X-21.125 Y49.521
X-21.128 Y49.475
X-21.132 Y49.427
X-21.136 Y49.378
X-21.14 Y49.331
X-21.143 Y49.284
X-21.147 Y49.238
X-21.15 Y49.19
X-21.153 Y49.141
X-21.157 Y49.094
X-21.16 Y49.047
X-21.163 Y49
X-21.166 Y48.952
X-21.168 Y48.905
X-21.171 Y48.859
X-21.176 Y48.764
X-21.179 Y48.716
X-21.181 Y48.669
X-21.183 Y48.622
X-21.185 Y48.577
X-21.189 Y48.481
X-21.191 Y48.434
X-21.193 Y48.389
X-21.195 Y48.342
X-21.196 Y48.293
X-21.198 Y48.248
X-21.199 Y48.201
X-21.2 Y48.154
X-21.202 Y48.107
X-21.203 Y48.06
X-21.204 Y48.014
X-21.205 Y47.967
Y47.922
X-21.206 Y47.874
X-21.207 Y47.827
Y47.782
Y47.735
X-21.208 Y47.689
Y47.642
Y47.595
Y47.55
Y47.504
Y47.458
X-21.207 Y47.411
Y47.365
X-21.206 Y47.318
Y47.272
X-21.205 Y47.227
X-21.204 Y47.181
X-21.203 Y47.135
X-21.202 Y47.09
X-21.2 Y46.998
X-21.198 Y46.952
X-21.197 Y46.906
X-21.195 Y46.861
X-21.194 Y46.815
X-21.192 Y46.769
X-21.19 Y46.723
X-21.188 Y46.679
X-21.186 Y46.634
X-21.184 Y46.587
X-21.182 Y46.541
X-21.179 Y46.498
X-21.177 Y46.453
X-21.174 Y46.405
X-21.171 Y46.361
X-21.169 Y46.317
X-21.166 Y46.272
X-21.162 Y46.226
X-21.159 Y46.182
X-21.156 Y46.138
X-21.153 Y46.093
X-21.149 Y46.047
X-21.145 Y46.002
X-21.142 Y45.958
X-21.138 Y45.914
X-21.134 Y45.869
X-21.13 Y45.824
X-21.126 Y45.78
X-21.121 Y45.736
X-21.117 Y45.692
X-21.108 Y45.603
X-21.103 Y45.56
X-21.098 Y45.515
X-21.094 Y45.472
X-21.088 Y45.428
X-21.083 Y45.384
X-21.078 Y45.341
X-21.073 Y45.297
X-21.067 Y45.251
X-21.062 Y45.207
X-21.053 Y45.114
X-21.047 Y45.025
X-21.043 Y44.931
X-21.042 Y44.843
X-21.044 Y44.75
X-21.049 Y44.658
X-21.057 Y44.565
X-21.067 Y44.475
X-21.08 Y44.383
X-21.096 Y44.295
X-21.114 Y44.203
X-21.136 Y44.114
X-21.16 Y44.024
X-21.186 Y43.937
X-21.216 Y43.849
X-21.247 Y43.764
X-21.282 Y43.677
X-21.318 Y43.596
X-21.358 Y43.512
X-21.4 Y43.431
X-21.445 Y43.349
X-21.491 Y43.271
X-21.541 Y43.192
X-21.591 Y43.118
X-21.646 Y43.042
X-21.701 Y42.97
X-21.76 Y42.898
X-21.82 Y42.829
X-21.883 Y42.76
X-21.946 Y42.696
X-22.014 Y42.631
X-22.08 Y42.571
X-22.151 Y42.511
X-22.221 Y42.455
X-22.296 Y42.399
X-22.37 Y42.346
X-22.448 Y42.294
X-22.524 Y42.247
X-22.605 Y42.2
X-22.685 Y42.157
X-22.769 Y42.115
X-22.852 Y42.077
X-22.938 Y42.04
X-23.021 Y42.008
X-23.109 Y41.976
X-23.194 Y41.949
X-23.284 Y41.923
X-23.373 Y41.9
X-23.464 Y41.879
X-23.551 Y41.862
X-23.643 Y41.847
X-23.733 Y41.835
X-23.826 Y41.825
X-23.917 Y41.819
X-24.011 Y41.815
X-24.101 Y41.814
X-24.194 Y41.815
X-24.284 Y41.82
X-24.377 Y41.827
X-24.465 Y41.836
X-24.558 Y41.849
X-24.649 Y41.865
X-24.74 Y41.883
X-24.826 Y41.903
X-24.917 Y41.927
X-25.005 Y41.954
X-25.094 Y41.983
X-25.18 Y42.014
X-25.266 Y42.049
X-25.347 Y42.084
X-25.432 Y42.124
X-25.514 Y42.165
X-25.596 Y42.21
X-25.675 Y42.256
X-25.754 Y42.306
X-25.828 Y42.356
X-25.904 Y42.41
X-25.977 Y42.466
X-26.05 Y42.525
X-26.083 Y42.552
X-26.118 Y42.582
X-26.15 Y42.61
X-26.184 Y42.639
X-26.218 Y42.668
X-26.252 Y42.696
X-26.285 Y42.724
X-26.319 Y42.752
X-26.354 Y42.781
X-26.387 Y42.809
X-26.458 Y42.866
X-26.491 Y42.893
X-26.526 Y42.921
X-26.562 Y42.949
X-26.596 Y42.977
X-26.63 Y43.004
X-26.666 Y43.032
X-26.702 Y43.06
X-26.737 Y43.087
X-26.772 Y43.115
X-26.807 Y43.142
X-26.843 Y43.169
X-26.88 Y43.197
X-26.915 Y43.224
X-26.952 Y43.251
X-26.988 Y43.279
X-27.024 Y43.305
X-27.06 Y43.332
X-27.097 Y43.359
X-27.133 Y43.386
X-27.208 Y43.441
X-27.244 Y43.467
X-27.28 Y43.493
X-27.317 Y43.519
X-27.354 Y43.546
X-27.393 Y43.573
X-27.429 Y43.599
X-27.466 Y43.625
X-27.505 Y43.652
X-27.541 Y43.678
X-27.579 Y43.703
X-27.617 Y43.73
X-27.655 Y43.756
X-27.693 Y43.782
X-27.731 Y43.808
X-27.769 Y43.834
X-27.808 Y43.86
X-27.846 Y43.885
X-27.923 Y43.937
X-27.961 Y43.961
X-28 Y43.987
X-28.04 Y44.013
X-28.077 Y44.038
X-28.116 Y44.063
X-28.155 Y44.088
X-28.194 Y44.113
X-28.235 Y44.139
X-28.273 Y44.163
X-28.353 Y44.214
X-28.392 Y44.239
X-28.431 Y44.263
X-28.47 Y44.287
X-28.511 Y44.312
X-28.551 Y44.337
X-28.59 Y44.361
X-28.631 Y44.386
X-28.671 Y44.411
X-28.711 Y44.434
X-28.751 Y44.458
X-28.792 Y44.483
X-28.831 Y44.507
X-28.872 Y44.53
X-28.913 Y44.555
X-28.954 Y44.579
X-28.994 Y44.602
X-29.034 Y44.626
X-29.077 Y44.651
X-29.117 Y44.674
X-29.158 Y44.698
X-29.199 Y44.721
X-29.24 Y44.744
X-29.282 Y44.768
X-29.323 Y44.791
X-29.406 Y44.838
X-29.447 Y44.861
X-29.489 Y44.884
X-29.531 Y44.907
X-29.572 Y44.93
X-29.614 Y44.953
X-29.628 Y44.96
X-29.627 Y44.945
X-29.622 Y44.898
X-29.617 Y44.851
X-29.613 Y44.803
X-29.608 Y44.755
X-29.603 Y44.708
X-29.593 Y44.613
X-29.587 Y44.566
X-29.582 Y44.518
X-29.577 Y44.472
X-29.571 Y44.426
X-29.565 Y44.377
X-29.56 Y44.33
X-29.554 Y44.284
X-29.548 Y44.237
X-29.542 Y44.19
X-29.536 Y44.144
X-29.53 Y44.097
X-29.524 Y44.05
X-29.518 Y44.004
X-29.511 Y43.957
X-29.505 Y43.911
X-29.498 Y43.863
X-29.492 Y43.817
X-29.485 Y43.772
X-29.478 Y43.724
X-29.471 Y43.678
X-29.464 Y43.633
X-29.457 Y43.585
X-29.45 Y43.539
X-29.443 Y43.495
X-29.435 Y43.447
X-29.428 Y43.401
X-29.42 Y43.355
X-29.413 Y43.309
X-29.405 Y43.265
X-29.397 Y43.217
X-29.389 Y43.172
X-29.381 Y43.126
X-29.373 Y43.08
X-29.365 Y43.036
X-29.356 Y42.989
X-29.348 Y42.944
X-29.34 Y42.9
X-29.331 Y42.853
X-29.322 Y42.807
X-29.314 Y42.764
X-29.305 Y42.718
X-29.296 Y42.673
X-29.287 Y42.627
X-29.278 Y42.581
X-29.269 Y42.538
X-29.259 Y42.493
X-29.25 Y42.449
X-29.241 Y42.404
X-29.231 Y42.358
X-29.221 Y42.313
X-29.212 Y42.27
X-29.191 Y42.179
X-29.182 Y42.136
X-29.172 Y42.093
X-29.161 Y42.047
X-29.151 Y42.003
X-29.141 Y41.96
X-29.13 Y41.915
X-29.119 Y41.871
X-29.109 Y41.828
X-29.098 Y41.784
X-29.087 Y41.74
X-29.076 Y41.696
X-29.064 Y41.652
X-29.053 Y41.61
X-29.042 Y41.566
X-29.031 Y41.522
X-29.019 Y41.478
X-29.008 Y41.436
X-28.996 Y41.392
X-28.984 Y41.349
X-28.972 Y41.307
X-28.96 Y41.264
X-28.948 Y41.22
X-28.935 Y41.177
X-28.923 Y41.135
X-28.911 Y41.094
X-28.898 Y41.05
X-28.886 Y41.007
X-28.873 Y40.966
X-28.86 Y40.923
X-28.847 Y40.88
X-28.834 Y40.839
X-28.821 Y40.798
X-28.808 Y40.755
X-28.795 Y40.711
X-28.769 Y40.621
X-28.747 Y40.534
X-28.727 Y40.443
X-28.71 Y40.355
X-28.696 Y40.263
X-28.684 Y40.174
X-28.675 Y40.081
X-28.669 Y39.99
X-28.666 Y39.897
X-28.665 Y39.807
X-28.667 Y39.713
X-28.672 Y39.624
X-28.68 Y39.53
X-28.69 Y39.439
X-28.704 Y39.346
X-28.719 Y39.259
X-28.738 Y39.167
X-28.759 Y39.079
X-28.784 Y38.989
X-28.81 Y38.904
X-28.839 Y38.815
X-28.871 Y38.729
X-28.906 Y38.642
X-28.943 Y38.56
X-28.983 Y38.476
X-29.024 Y38.396
X-29.069 Y38.314
X-29.116 Y38.236
X-29.166 Y38.157
X-29.216 Y38.083
X-29.27 Y38.008
X-29.326 Y37.935
X-29.385 Y37.863
X-29.445 Y37.795
X-29.508 Y37.726
X-29.57 Y37.663
X-29.638 Y37.598
X-29.706 Y37.537
X-29.777 Y37.476
X-29.848 Y37.42
X-29.923 Y37.364
X-29.996 Y37.312
X-30.074 Y37.261
X-30.152 Y37.213
X-30.233 Y37.166
X-30.31 Y37.124
X-30.394 Y37.083
X-30.477 Y37.044
X-30.562 Y37.008
X-30.647 Y36.975
X-30.735 Y36.943
X-30.822 Y36.915
X-30.912 Y36.889
X-30.999 Y36.867
X-31.09 Y36.847
X-31.178 Y36.829
X-31.27 Y36.814
X-31.359 Y36.803
X-31.451 Y36.793
X-31.543 Y36.787
X-31.636 Y36.783
X-31.726 Y36.782
X-31.82 Y36.784
X-31.909 Y36.788
X-32.003 Y36.795
X-32.094 Y36.806
X-32.187 Y36.819
X-32.274 Y36.834
X-32.365 Y36.852
X-32.456 Y36.873
X-32.546 Y36.898
X-32.632 Y36.923
X-32.721 Y36.953
X-32.806 Y36.984
X-32.893 Y37.019
X-32.976 Y37.055
X-33.061 Y37.095
X-33.14 Y37.136
X-33.222 Y37.181
X-33.26 Y37.202
X-33.3 Y37.225
X-33.338 Y37.248
X-33.376 Y37.27
X-33.415 Y37.292
X-33.452 Y37.313
X-33.53 Y37.358
X-33.568 Y37.379
X-33.606 Y37.4
X-33.646 Y37.422
X-33.685 Y37.443
X-33.723 Y37.464
X-33.764 Y37.486
X-33.802 Y37.507
X-33.841 Y37.528
X-33.881 Y37.549
X-33.92 Y37.57
X-33.961 Y37.591
X-34 Y37.612
X-34.039 Y37.632
X-34.08 Y37.653
X-34.12 Y37.674
X-34.159 Y37.694
X-34.199 Y37.714
X-34.24 Y37.735
X-34.282 Y37.755
X-34.322 Y37.775
X-34.362 Y37.795
X-34.403 Y37.815
X-34.443 Y37.835
X-34.484 Y37.855
X-34.526 Y37.875
X-34.567 Y37.895
X-34.606 Y37.914
X-34.649 Y37.934
X-34.689 Y37.953
X-34.73 Y37.972
X-34.772 Y37.992
X-34.856 Y38.03
X-34.897 Y38.049
X-34.939 Y38.068
X-34.981 Y38.087
X-35.022 Y38.106
X-35.064 Y38.124
X-35.108 Y38.144
X-35.149 Y38.162
X-35.191 Y38.18
X-35.233 Y38.199
X-35.275 Y38.217
X-35.319 Y38.236
X-35.361 Y38.254
X-35.404 Y38.272
X-35.446 Y38.29
X-35.488 Y38.307
X-35.532 Y38.326
X-35.575 Y38.344
X-35.662 Y38.379
X-35.705 Y38.397
X-35.747 Y38.414
X-35.79 Y38.431
X-35.833 Y38.449
X-35.876 Y38.466
X-35.965 Y38.501
X-36.007 Y38.517
X-36.097 Y38.552
X-36.14 Y38.568
X-36.182 Y38.585
X-36.227 Y38.602
X-36.27 Y38.618
X-36.359 Y38.651
X-36.403 Y38.667
X-36.447 Y38.683
X-36.492 Y38.7
X-36.536 Y38.716
X-36.581 Y38.732
X-36.626 Y38.748
X-36.67 Y38.764
X-36.714 Y38.78
X-36.758 Y38.795
X-36.804 Y38.811
X-36.849 Y38.827
X-36.893 Y38.842
X-36.939 Y38.858
X-36.984 Y38.873
X-37.029 Y38.889
X-37.074 Y38.904
X-37.119 Y38.919
X-37.164 Y38.934
X-37.179 Y38.939
X-37.175 Y38.924
X-37.162 Y38.878
X-37.149 Y38.831
X-37.136 Y38.786
X-37.122 Y38.741
X-37.109 Y38.694
X-37.096 Y38.65
X-37.083 Y38.605
X-37.068 Y38.557
X-37.055 Y38.512
X-37.042 Y38.468
X-37.027 Y38.422
X-37.013 Y38.376
X-37 Y38.332
X-36.986 Y38.287
X-36.971 Y38.24
X-36.957 Y38.195
X-36.943 Y38.152
X-36.929 Y38.108
X-36.914 Y38.061
X-36.899 Y38.015
X-36.885 Y37.971
X-36.871 Y37.928
X-36.856 Y37.884
X-36.84 Y37.837
X-36.826 Y37.794
X-36.811 Y37.75
X-36.796 Y37.705
X-36.781 Y37.661
