(1001)
(T1  D=10 CR=0 - ZMIN=-17.1 - flat end mill)
G90 G94
G17
G21

(2D Contour17)
T1
S1000 M3
G54
M8
G0 X59.5 Y56.75
Z15
Z5
G1 Z2.5 F300
Z-1.5
G3 X12 Y56.75 I-23.75 J0
X17.411 Y41.659 I23.75 J0
G2 X18.55 Y38.482 I-3.861 J-3.177
G1 Y28.728
G2 X10.445 Y24.809 I-5 J0
X35.75 Y97.5 I25.305 J31.941
X73.25 Y72.697 I0 J-40.75
X110.75 Y97.5 I37.5 J-15.948
X136.055 Y24.809 I0 J-40.75
X127.95 Y28.728 I-3.105 J3.919
G1 Y38.482
G2 X129.089 Y41.659 I5 J0
G3 X92.411 Y71.841 I-18.339 J15.091
X92.411 Y41.659 I18.339 J-15.091
G2 X93.55 Y38.482 I-3.861 J-3.177
G1 Y28.728
G2 X85.445 Y24.809 I-5 J0
X73.25 Y40.803 I25.305 J31.941
X61.055 Y24.809 I-37.5 J15.947
X52.95 Y28.728 I-3.105 J3.919
G1 Y38.482
G2 X54.089 Y41.659 I5 J0
G3 X59.5 Y56.75 I-18.339 J15.091
G0 Z5
X56.55 Y62.375
G1 Z2.5 F300
Z-1.5
Y54.018
G2 X55.411 Y50.841 I-5 J0
G3 X92.089 Y20.659 I18.339 J-15.091
X92.089 Y50.841 I-18.339 J15.091
G2 X90.95 Y54.018 I3.861 J3.177
G1 Y63.772
G2 X99.055 Y67.691 I5 J0
X48.445 Y3.809 I-25.305 J-31.941
X48.445 Y67.691 I25.305 J31.941
X56.55 Y63.772 I3.105 J-3.919
G1 Y62.375
Z-3
Y54.018
G2 X55.411 Y50.841 I-5 J0
G3 X92.089 Y20.659 I18.339 J-15.091
X92.089 Y50.841 I-18.339 J15.091
G2 X90.95 Y54.018 I3.861 J3.177
G1 Y63.772
G2 X99.055 Y67.691 I5 J0
X48.445 Y3.809 I-25.305 J-31.941
X48.445 Y67.691 I25.305 J31.941
X56.55 Y63.772 I3.105 J-3.919
G1 Y62.375
G0 Z5
X59.5 Y56.75
G1 Z1 F300
Z-3
G3 X12 Y56.75 I-23.75 J0
X17.411 Y41.659 I23.75 J0
G2 X18.55 Y38.482 I-3.861 J-3.177
G1 Y28.728
G2 X10.445 Y24.809 I-5 J0
X35.75 Y97.5 I25.305 J31.941
X73.25 Y72.697 I0 J-40.75
X110.75 Y97.5 I37.5 J-15.948
X136.055 Y24.809 I0 J-40.75
X127.95 Y28.728 I-3.105 J3.919
G1 Y38.482
G2 X129.089 Y41.659 I5 J0
G3 X92.411 Y71.841 I-18.339 J15.091
X92.411 Y41.659 I18.339 J-15.091
G2 X93.55 Y38.482 I-3.861 J-3.177
G1 Y28.728
G2 X85.445 Y24.809 I-5 J0
X73.25 Y40.803 I25.305 J31.941
X61.055 Y24.809 I-37.5 J15.947
X52.95 Y28.728 I-3.105 J3.919
G1 Y38.482
G2 X54.089 Y41.659 I5 J0
G3 X59.5 Y56.75 I-18.339 J15.091
G1 Z-4.5
G3 X12 Y56.75 I-23.75 J0
X17.411 Y41.659 I23.75 J0
G2 X18.55 Y38.482 I-3.861 J-3.177
G1 Y28.728
G2 X10.445 Y24.809 I-5 J0
X35.75 Y97.5 I25.305 J31.941
X73.25 Y72.697 I0 J-40.75
X110.75 Y97.5 I37.5 J-15.948
X136.055 Y24.809 I0 J-40.75
X127.95 Y28.728 I-3.105 J3.919
G1 Y38.482
G2 X129.089 Y41.659 I5 J0
G3 X92.411 Y71.841 I-18.339 J15.091
X92.411 Y41.659 I18.339 J-15.091
G2 X93.55 Y38.482 I-3.861 J-3.177
G1 Y28.728
G2 X85.445 Y24.809 I-5 J0
X73.25 Y40.803 I25.305 J31.941
X61.055 Y24.809 I-37.5 J15.947
X52.95 Y28.728 I-3.105 J3.919
G1 Y38.482
G2 X54.089 Y41.659 I5 J0
G3 X59.5 Y56.75 I-18.339 J15.091
G0 Z5
X56.55 Y62.375
G1 Z-0.5 F300
Z-4.5
Y54.018
G2 X55.411 Y50.841 I-5 J0
G3 X92.089 Y20.659 I18.339 J-15.091
X92.089 Y50.841 I-18.339 J15.091
G2 X90.95 Y54.018 I3.861 J3.177
G1 Y63.772
G2 X99.055 Y67.691 I5 J0
X48.445 Y3.809 I-25.305 J-31.941
X48.445 Y67.691 I25.305 J31.941
X56.55 Y63.772 I3.105 J-3.919
G1 Y62.375
Z-6
Y54.018
G2 X55.411 Y50.841 I-5 J0
G3 X92.089 Y20.659 I18.339 J-15.091
X92.089 Y50.841 I-18.339 J15.091
G2 X90.95 Y54.018 I3.861 J3.177
G1 Y63.772
G2 X99.055 Y67.691 I5 J0
X48.445 Y3.809 I-25.305 J-31.941
X48.445 Y67.691 I25.305 J31.941
X56.55 Y63.772 I3.105 J-3.919
G1 Y62.375
G0 Z5
X59.5 Y56.75
G1 Z-2 F300
Z-6
G3 X12 Y56.75 I-23.75 J0
X17.411 Y41.659 I23.75 J0
G2 X18.55 Y38.482 I-3.861 J-3.177
G1 Y28.728
G2 X10.445 Y24.809 I-5 J0
X35.75 Y97.5 I25.305 J31.941
X73.25 Y72.697 I0 J-40.75
X110.75 Y97.5 I37.5 J-15.948
X136.055 Y24.809 I0 J-40.75
X127.95 Y28.728 I-3.105 J3.919
G1 Y38.482
G2 X129.089 Y41.659 I5 J0
G3 X92.411 Y71.841 I-18.339 J15.091
X92.411 Y41.659 I18.339 J-15.091
G2 X93.55 Y38.482 I-3.861 J-3.177
G1 Y28.728
G2 X85.445 Y24.809 I-5 J0
X73.25 Y40.803 I25.305 J31.941
X61.055 Y24.809 I-37.5 J15.947
X52.95 Y28.728 I-3.105 J3.919
G1 Y38.482
G2 X54.089 Y41.659 I5 J0
G3 X59.5 Y56.75 I-18.339 J15.091
G1 Z-7.5
G3 X12 Y56.75 I-23.75 J0
X17.411 Y41.659 I23.75 J0
G2 X18.55 Y38.482 I-3.861 J-3.177
G1 Y28.728
G2 X10.445 Y24.809 I-5 J0
X35.75 Y97.5 I25.305 J31.941
X73.25 Y72.697 I0 J-40.75
X110.75 Y97.5 I37.5 J-15.948
X136.055 Y24.809 I0 J-40.75
X127.95 Y28.728 I-3.105 J3.919
G1 Y38.482
G2 X129.089 Y41.659 I5 J0
G3 X92.411 Y71.841 I-18.339 J15.091
X92.411 Y41.659 I18.339 J-15.091
G2 X93.55 Y38.482 I-3.861 J-3.177
G1 Y28.728
G2 X85.445 Y24.809 I-5 J0
X73.25 Y40.803 I25.305 J31.941
X61.055 Y24.809 I-37.5 J15.947
X52.95 Y28.728 I-3.105 J3.919
G1 Y38.482
G2 X54.089 Y41.659 I5 J0
G3 X59.5 Y56.75 I-18.339 J15.091
G0 Z5
X56.55 Y62.375
G1 Z-3.5 F300
Z-7.5
Y54.018
G2 X55.411 Y50.841 I-5 J0
G3 X92.089 Y20.659 I18.339 J-15.091
X92.089 Y50.841 I-18.339 J15.091
G2 X90.95 Y54.018 I3.861 J3.177
G1 Y63.772
G2 X99.055 Y67.691 I5 J0
X48.445 Y3.809 I-25.305 J-31.941
X48.445 Y67.691 I25.305 J31.941
X56.55 Y63.772 I3.105 J-3.919
G1 Y62.375
Z-9
Y54.018
G2 X55.411 Y50.841 I-5 J0
G3 X92.089 Y20.659 I18.339 J-15.091
X92.089 Y50.841 I-18.339 J15.091
G2 X90.95 Y54.018 I3.861 J3.177
G1 Y63.772
G2 X99.055 Y67.691 I5 J0
X48.445 Y3.809 I-25.305 J-31.941
X48.445 Y67.691 I25.305 J31.941
X56.55 Y63.772 I3.105 J-3.919
G1 Y62.375
G0 Z5
X59.5 Y56.75
G1 Z-5 F300
Z-9
G3 X12 Y56.75 I-23.75 J0
X17.411 Y41.659 I23.75 J0
G2 X18.55 Y38.482 I-3.861 J-3.177
G1 Y28.728
G2 X10.445 Y24.809 I-5 J0
X35.75 Y97.5 I25.305 J31.941
X73.25 Y72.697 I0 J-40.75
X110.75 Y97.5 I37.5 J-15.948
X136.055 Y24.809 I0 J-40.75
X127.95 Y28.728 I-3.105 J3.919
G1 Y38.482
G2 X129.089 Y41.659 I5 J0
G3 X92.411 Y71.841 I-18.339 J15.091
X92.411 Y41.659 I18.339 J-15.091
G2 X93.55 Y38.482 I-3.861 J-3.177
G1 Y28.728
G2 X85.445 Y24.809 I-5 J0
X73.25 Y40.803 I25.305 J31.941
X61.055 Y24.809 I-37.5 J15.947
X52.95 Y28.728 I-3.105 J3.919
G1 Y38.482
G2 X54.089 Y41.659 I5 J0
G3 X59.5 Y56.75 I-18.339 J15.091
G1 Z-10.5
G3 X12 Y56.75 I-23.75 J0
X17.411 Y41.659 I23.75 J0
G2 X18.55 Y38.482 I-3.861 J-3.177
G1 Y28.728
G2 X10.445 Y24.809 I-5 J0
X35.75 Y97.5 I25.305 J31.941
X73.25 Y72.697 I0 J-40.75
X110.75 Y97.5 I37.5 J-15.948
X136.055 Y24.809 I0 J-40.75
X127.95 Y28.728 I-3.105 J3.919
G1 Y38.482
G2 X129.089 Y41.659 I5 J0
G3 X92.411 Y71.841 I-18.339 J15.091
X92.411 Y41.659 I18.339 J-15.091
G2 X93.55 Y38.482 I-3.861 J-3.177
G1 Y28.728
G2 X85.445 Y24.809 I-5 J0
X73.25 Y40.803 I25.305 J31.941
X61.055 Y24.809 I-37.5 J15.947
X52.95 Y28.728 I-3.105 J3.919
G1 Y38.482
G2 X54.089 Y41.659 I5 J0
G3 X59.5 Y56.75 I-18.339 J15.091
G0 Z5
X56.55 Y62.375
G1 Z-6.5 F300
Z-10.5
Y54.018
G2 X55.411 Y50.841 I-5 J0
G3 X92.089 Y20.659 I18.339 J-15.091
X92.089 Y50.841 I-18.339 J15.091
G2 X90.95 Y54.018 I3.861 J3.177
G1 Y63.772
G2 X99.055 Y67.691 I5 J0
X48.445 Y3.809 I-25.305 J-31.941
X48.445 Y67.691 I25.305 J31.941
X56.55 Y63.772 I3.105 J-3.919
G1 Y62.375
Z-12
Y54.018
G2 X55.411 Y50.841 I-5 J0
G3 X92.089 Y20.659 I18.339 J-15.091
X92.089 Y50.841 I-18.339 J15.091
G2 X90.95 Y54.018 I3.861 J3.177
G1 Y63.772
G2 X99.055 Y67.691 I5 J0
X48.445 Y3.809 I-25.305 J-31.941
X48.445 Y67.691 I25.305 J31.941
X56.55 Y63.772 I3.105 J-3.919
G1 Y62.375
G0 Z5
X59.5 Y56.75
G1 Z-8 F300
Z-12
G3 X12 Y56.75 I-23.75 J0
X17.411 Y41.659 I23.75 J0
G2 X18.55 Y38.482 I-3.861 J-3.177
G1 Y28.728
G2 X10.445 Y24.809 I-5 J0
X35.75 Y97.5 I25.305 J31.941
X73.25 Y72.697 I0 J-40.75
X110.75 Y97.5 I37.5 J-15.948
X136.055 Y24.809 I0 J-40.75
X127.95 Y28.728 I-3.105 J3.919
G1 Y38.482
G2 X129.089 Y41.659 I5 J0
G3 X92.411 Y71.841 I-18.339 J15.091
X92.411 Y41.659 I18.339 J-15.091
G2 X93.55 Y38.482 I-3.861 J-3.177
G1 Y28.728
G2 X85.445 Y24.809 I-5 J0
X73.25 Y40.803 I25.305 J31.941
X61.055 Y24.809 I-37.5 J15.947
X52.95 Y28.728 I-3.105 J3.919
G1 Y38.482
G2 X54.089 Y41.659 I5 J0
G3 X59.5 Y56.75 I-18.339 J15.091
G1 Z-13.5
G3 X12 Y56.75 I-23.75 J0
X17.411 Y41.659 I23.75 J0
G2 X18.55 Y38.482 I-3.861 J-3.177
G1 Y28.728
G2 X10.445 Y24.809 I-5 J0
X35.75 Y97.5 I25.305 J31.941
X73.25 Y72.697 I0 J-40.75
X110.75 Y97.5 I37.5 J-15.948
X136.055 Y24.809 I0 J-40.75
X127.95 Y28.728 I-3.105 J3.919
G1 Y38.482
G2 X129.089 Y41.659 I5 J0
G3 X92.411 Y71.841 I-18.339 J15.091
X92.411 Y41.659 I18.339 J-15.091
G2 X93.55 Y38.482 I-3.861 J-3.177
G1 Y28.728
G2 X85.445 Y24.809 I-5 J0
X73.25 Y40.803 I25.305 J31.941
X61.055 Y24.809 I-37.5 J15.947
X52.95 Y28.728 I-3.105 J3.919
G1 Y38.482
G2 X54.089 Y41.659 I5 J0
G3 X59.5 Y56.75 I-18.339 J15.091
G0 Z5
X56.55 Y62.375
G1 Z-9.5 F300
Z-13.5
Y54.018
G2 X55.411 Y50.841 I-5 J0
G3 X92.089 Y20.659 I18.339 J-15.091
X92.089 Y50.841 I-18.339 J15.091
G2 X90.95 Y54.018 I3.861 J3.177
G1 Y63.772
G2 X99.055 Y67.691 I5 J0
X48.445 Y3.809 I-25.305 J-31.941
X48.445 Y67.691 I25.305 J31.941
X56.55 Y63.772 I3.105 J-3.919
G1 Y62.375
Z-15
Y54.018
G2 X55.411 Y50.841 I-5 J0
G3 X63.75 Y14.208 I18.339 J-15.091
G1 Z-14.6
G3 X83.75 Y14.208 I10 J21.542
G1 Z-15
G3 X92.089 Y50.841 I-10 J21.542
G2 X90.95 Y54.018 I3.861 J3.177
G1 Y63.772
G2 X99.055 Y67.691 I5 J0
X114.346 Y32.207 I-25.305 J-31.941
G1 Z-14.6
G2 X107.77 Y13.318 I-40.596 J3.543
G1 Z-15
G2 X39.73 Y13.318 I-34.02 J22.432
G1 Z-14.6
G2 X33.154 Y32.207 I34.02 J22.432
G1 Z-15
G2 X48.445 Y67.691 I40.596 J3.543
X56.55 Y63.772 I3.105 J-3.919
G1 Y62.375
G0 Z5
X59.5 Y56.75
G1 Z-11 F300
Z-15
G3 X45.75 Y78.292 I-23.75 J0
G1 Z-14.6
G3 X25.75 Y78.292 I-10 J-21.542
G1 Z-15
G3 X17.411 Y41.659 I10 J-21.542
G2 X18.55 Y38.482 I-3.861 J-3.177
G1 Y28.728
G2 X10.445 Y24.809 I-5 J0
X-4.846 Y60.293 I25.305 J31.941
G1 Z-14.6
G2 X1.73 Y79.182 I40.596 J-3.543
G1 Z-15
G2 X35.75 Y97.5 I34.02 J-22.432
X69.3 Y79.879 I0 J-40.75
G1 Z-14.6
G2 X73.25 Y72.697 I-33.55 J-23.129
X77.2 Y79.879 I37.5 J-15.948
G1 Z-15
G2 X110.75 Y97.5 I33.55 J-23.129
X144.77 Y79.182 I0 J-40.75
G1 Z-14.6
G2 X151.346 Y60.293 I-34.02 J-22.432
G1 Z-15
G2 X136.055 Y24.809 I-40.596 J-3.543
X127.95 Y28.728 I-3.105 J3.919
G1 Y38.482
G2 X129.089 Y41.659 I5 J0
G3 X120.75 Y78.292 I-18.339 J15.091
G1 Z-14.6
G3 X100.75 Y78.292 I-10 J-21.542
G1 Z-15
G3 X92.411 Y41.659 I10 J-21.542
G2 X93.55 Y38.482 I-3.861 J-3.177
G1 Y28.728
G2 X85.445 Y24.809 I-5 J0
X73.25 Y40.803 I25.305 J31.941
X61.055 Y24.809 I-37.5 J15.947
X52.95 Y28.728 I-3.105 J3.919
G1 Y38.482
G2 X54.089 Y41.659 I5 J0
G3 X59.5 Y56.75 I-18.339 J15.091
G1 Z-16.5
G3 X45.75 Y78.292 I-23.75 J0
G1 Z-14.6
G3 X25.75 Y78.292 I-10 J-21.542
G1 Z-16.5
G3 X17.411 Y41.659 I10 J-21.542
G2 X18.55 Y38.482 I-3.861 J-3.177
G1 Y28.728
G2 X10.445 Y24.809 I-5 J0
X-4.846 Y60.293 I25.305 J31.941
G1 Z-14.6
G2 X1.73 Y79.182 I40.596 J-3.543
G1 Z-16.5
G2 X35.75 Y97.5 I34.02 J-22.432
X69.3 Y79.879 I0 J-40.75
G1 Z-14.6
G2 X73.25 Y72.697 I-33.55 J-23.129
X77.2 Y79.879 I37.5 J-15.948
G1 Z-16.5
G2 X110.75 Y97.5 I33.55 J-23.129
X144.77 Y79.182 I0 J-40.75
G1 Z-14.6
G2 X151.346 Y60.293 I-34.02 J-22.432
G1 Z-16.5
G2 X136.055 Y24.809 I-40.596 J-3.543
X127.95 Y28.728 I-3.105 J3.919
G1 Y38.482
G2 X129.089 Y41.659 I5 J0
G3 X120.75 Y78.292 I-18.339 J15.091
G1 Z-14.6
G3 X100.75 Y78.292 I-10 J-21.542
G1 Z-16.5
G3 X92.411 Y41.659 I10 J-21.542
G2 X93.55 Y38.482 I-3.861 J-3.177
G1 Y28.728
G2 X85.445 Y24.809 I-5 J0
X73.25 Y40.803 I25.305 J31.941
X61.055 Y24.809 I-37.5 J15.947
X52.95 Y28.728 I-3.105 J3.919
G1 Y38.482
G2 X54.089 Y41.659 I5 J0
G3 X59.5 Y56.75 I-18.339 J15.091
G0 Z5
X56.55 Y62.375
G1 Z-12.5 F300
Z-16.5
Y54.018
G2 X55.411 Y50.841 I-5 J0
G3 X63.75 Y14.208 I18.339 J-15.091
G1 Z-14.6
G3 X83.75 Y14.208 I10 J21.542
G1 Z-16.5
G3 X92.089 Y50.841 I-10 J21.542
G2 X90.95 Y54.018 I3.861 J3.177
G1 Y63.772
G2 X99.055 Y67.691 I5 J0
X114.346 Y32.207 I-25.305 J-31.941
G1 Z-14.6
G2 X107.77 Y13.318 I-40.596 J3.543
G1 Z-16.5
G2 X39.73 Y13.318 I-34.02 J22.432
G1 Z-14.6
G2 X33.154 Y32.207 I34.02 J22.432
G1 Z-16.5
G2 X48.445 Y67.691 I40.596 J3.543
X56.55 Y63.772 I3.105 J-3.919
G1 Y62.375
Z-17.1
Y54.018
G2 X55.411 Y50.841 I-5 J0
G3 X63.75 Y14.208 I18.339 J-15.091
G1 Z-14.6
G3 X83.75 Y14.208 I10 J21.542
G1 Z-17.1
G3 X92.089 Y50.841 I-10 J21.542
G2 X90.95 Y54.018 I3.861 J3.177
G1 Y63.772
G2 X99.055 Y67.691 I5 J0
X114.346 Y32.207 I-25.305 J-31.941
G1 Z-14.6
G2 X107.77 Y13.318 I-40.596 J3.543
G1 Z-17.1
G2 X39.73 Y13.318 I-34.02 J22.432
G1 Z-14.6
G2 X33.154 Y32.207 I34.02 J22.432
G1 Z-17.1
G2 X48.445 Y67.691 I40.596 J3.543
X56.55 Y63.772 I3.105 J-3.919
G1 Y62.375
G0 Z5
X59.5 Y56.75
G1 Z-14 F300
Z-17.1
G3 X45.75 Y78.292 I-23.75 J0
G1 Z-14.6
G3 X25.75 Y78.292 I-10 J-21.542
G1 Z-17.1
G3 X17.411 Y41.659 I10 J-21.542
G2 X18.55 Y38.482 I-3.861 J-3.177
G1 Y28.728
G2 X10.445 Y24.809 I-5 J0
X-4.846 Y60.293 I25.305 J31.941
G1 Z-14.6
G2 X1.73 Y79.182 I40.596 J-3.543
G1 Z-17.1
G2 X35.75 Y97.5 I34.02 J-22.432
X69.3 Y79.879 I0 J-40.75
G1 Z-14.6
G2 X73.25 Y72.697 I-33.55 J-23.129
X77.2 Y79.879 I37.5 J-15.948
G1 Z-17.1
G2 X110.75 Y97.5 I33.55 J-23.129
X144.77 Y79.182 I0 J-40.75
G1 Z-14.6
G2 X151.346 Y60.293 I-34.02 J-22.432
G1 Z-17.1
G2 X136.055 Y24.809 I-40.596 J-3.543
X127.95 Y28.728 I-3.105 J3.919
G1 Y38.482
G2 X129.089 Y41.659 I5 J0
G3 X120.75 Y78.292 I-18.339 J15.091
G1 Z-14.6
G3 X100.75 Y78.292 I-10 J-21.542
G1 Z-17.1
G3 X92.411 Y41.659 I10 J-21.542
G2 X93.55 Y38.482 I-3.861 J-3.177
G1 Y28.728
G2 X85.445 Y24.809 I-5 J0
X73.25 Y40.803 I25.305 J31.941
X61.055 Y24.809 I-37.5 J15.947
X52.95 Y28.728 I-3.105 J3.919
G1 Y38.482
G2 X54.089 Y41.659 I5 J0
G3 X59.5 Y56.75 I-18.339 J15.091
G0 Z15
M9
M5
M30
