(1001)
(T3  D=3 CR=0 - ZMIN=-16.7 - flat end mill)
G90 G94
G17
G21

(2D Contour5)
T3
S1000 M3
G54
M8
G0 X0 Y63.425
Z15
Z5
G1 Z2 F333.3
Z-1
G2 X0 Y8.075 I0 J-27.675 F400
X0 Y63.425 I0 J27.675
G1 Z-2 F333.3
G2 X0 Y8.075 I0 J-27.675 F400
X0 Y63.425 I0 J27.675
G1 Z-3 F333.3
G2 X0 Y8.075 I0 J-27.675 F400
X0 Y63.425 I0 J27.675
G1 Z-4 F333.3
G2 X0 Y8.075 I0 J-27.675 F400
X0 Y63.425 I0 J27.675
G1 Z-5 F333.3
G2 X0 Y8.075 I0 J-27.675 F400
X0 Y63.425 I0 J27.675
G1 Z-6 F333.3
G2 X0 Y8.075 I0 J-27.675 F400
X0 Y63.425 I0 J27.675
G1 Z-7 F333.3
G2 X0 Y8.075 I0 J-27.675 F400
X0 Y63.425 I0 J27.675
G1 Z-8 F333.3
G2 X0 Y8.075 I0 J-27.675 F400
X0 Y63.425 I0 J27.675
G1 Z-9 F333.3
G2 X0 Y8.075 I0 J-27.675 F400
X0 Y63.425 I0 J27.675
G1 Z-10 F333.3
G2 X0 Y8.075 I0 J-27.675 F400
X0 Y63.425 I0 J27.675
G1 Z-11 F333.3
G2 X0 Y8.075 I0 J-27.675 F400
X0 Y63.425 I0 J27.675
G1 Z-12 F333.3
G2 X0 Y8.075 I0 J-27.675 F400
X0 Y63.425 I0 J27.675
G1 Z-13 F333.3
G2 X0 Y8.075 I0 J-27.675 F400
X0 Y63.425 I0 J27.675
G1 Z-14 F333.3
G2 X0 Y8.075 I0 J-27.675 F400
X0 Y63.425 I0 J27.675
G1 Z-15 F333.3
G2 X0 Y8.075 I0 J-27.675 F400
X0 Y63.425 I0 J27.675
G1 Z-16 F333.3
G2 X0 Y8.075 I0 J-27.675 F400
X0 Y63.425 I0 J27.675
G1 Z-16.7 F333.3
G2 X0 Y8.075 I0 J-27.675 F400
X0 Y63.425 I0 J27.675
G0 Z15

(2D Pocket4)
X0 Y67.575
Z15
Z5
G1 Z2.5 F400
Z-1 F333.3
X0.033 Y67.582 F400
X0.059 Y67.603
X0.073 Y67.633
Y67.667
X0.059 Y67.697
X0.033 Y67.718
X0 Y67.725
X-0.033 Y67.718
X-0.059 Y67.697
X-0.073 Y67.667
Y67.633
X-0.059 Y67.603
X-0.033 Y67.582
X0 Y67.575
X0.033 Y67.583 Z-1.001 F333.3
X0.06 Y67.605 Z-1.002
X0.074 Y67.636 Z-1.004
X0.072 Y67.671 Z-1.005
X0.055 Y67.701 Z-1.006
X0.027 Y67.72 Z-1.007
X-0.007 Y67.725 Z-1.008
X-0.04 Y67.714 Z-1.01
X-0.064 Y67.689 Z-1.011
X-0.075 Y67.656 Z-1.012
X-0.07 Y67.622 Z-1.013
X-0.05 Y67.594 Z-1.015
X-0.02 Y67.578 Z-1.016
X0.015 Y67.576 Z-1.017
X0.046 Y67.591 Z-1.018
X0.068 Y67.617 Z-1.019
X0.075 Y67.651 Z-1.021
X0.067 Y67.684 Z-1.022
X0.044 Y67.711 Z-1.023
X0.013 Y67.724 Z-1.024
X-0.022 Y67.722 Z-1.025
X-0.052 Y67.705 Z-1.027
X-0.07 Y67.676 Z-1.028
X-0.075 Y67.642 Z-1.029
X-0.063 Y67.609 Z-1.03
X-0.038 Y67.585 Z-1.032
X-0.005 Y67.575 Z-1.033
X0.029 Y67.581 Z-1.034
X0.057 Y67.601 Z-1.035
X0.073 Y67.631 Z-1.036
Y67.666 Z-1.038
X0.059 Y67.697 Z-1.039
X0.032 Y67.718 Z-1.04
X-0.002 Y67.725 Z-1.041
X-0.035 Y67.716 Z-1.042
X-0.061 Y67.693 Z-1.044
X-0.074 Y67.662 Z-1.045
X-0.071 Y67.627 Z-1.046
X-0.054 Y67.598 Z-1.047
X-0.025 Y67.579 Z-1.048
X0.009 Y67.576 Z-1.05
X0.042 Y67.588 Z-1.051
X0.065 Y67.613 Z-1.052
X0.075 Y67.646 Z-1.053
X0.069 Y67.68 Z-1.055
X0.048 Y67.707 Z-1.056
X0.018 Y67.723 Z-1.057
X-0.017 Z-1.058
X-0.048 Y67.708 Z-1.059
X-0.068 Y67.681 Z-1.061
X-0.075 Y67.647 Z-1.062
X-0.066 Y67.614 Z-1.063
X-0.043 Y67.588 Z-1.064
X-0.011 Y67.576 Z-1.065
X0.024 Y67.579 Z-1.067
X0.053 Y67.597 Z-1.068
X0.071 Y67.626 Z-1.069
X0.074 Y67.66 Z-1.07
X0.062 Y67.692 Z-1.072
X0.036 Y67.716 Z-1.073
X0.003 Y67.725 Z-1.074
X-0.031 Y67.718 Z-1.075
X-0.058 Y67.698 Z-1.076
X-0.073 Y67.667 Z-1.078
Y67.632 Z-1.079
X-0.057 Y67.602 Z-1.08
X-0.03 Y67.581 Z-1.081
X0.004 Y67.575 Z-1.082
X0.037 Y67.585 Z-1.084
X0.062 Y67.608 Z-1.085
X0.074 Y67.64 Z-1.086
X0.071 Y67.675 Z-1.087
X0.052 Y67.704 Z-1.088
X0.023 Y67.721 Z-1.09
X-0.011 Y67.724 Z-1.091
X-0.043 Y67.711 Z-1.092
X-0.066 Y67.685 Z-1.093
X-0.075 Y67.652 Z-1.095
X-0.068 Y67.618 Z-1.096
X-0.047 Y67.591 Z-1.097
X-0.016 Y67.577 Z-1.098
X0.019 Z-1.099
X0.049 Y67.593 Z-1.101
X0.069 Y67.621 Z-1.102
X0.075 Y67.655 Z-1.103
X0.065 Y67.688 Z-1.104
X0.041 Y67.713 Z-1.105
X0.009 Y67.725 Z-1.107
X-0.026 Y67.72 Z-1.108
X-0.054 Y67.702 Z-1.109
X-0.072 Y67.672 Z-1.11
X-0.074 Y67.638 Z-1.112
X-0.061 Y67.606 Z-1.113
X-0.035 Y67.583 Z-1.114
X-0.001 Y67.575 Z-1.115
X0.032 Y67.582 Z-1.116
X0.059 Y67.604 Z-1.118
X0.074 Y67.635 Z-1.119
X0.072 Y67.67 Z-1.12
X0.056 Y67.7 Z-1.121
X0.028 Y67.72 Z-1.122
X-0.006 Y67.725 Z-1.124
X-0.039 Y67.714 Z-1.125
X-0.063 Y67.69 Z-1.126
X-0.075 Y67.657 Z-1.127
X-0.07 Y67.623 Z-1.128
X-0.051 Y67.595 Z-1.13
X-0.021 Y67.578 Z-1.131
X0.013 Y67.576 Z-1.132
X0.045 Y67.59 Z-1.133
X0.067 Y67.616 Z-1.135
X0.075 Y67.65 Z-1.136
X0.067 Y67.683 Z-1.137
X0.045 Y67.71 Z-1.138
X0.014 Y67.724 Z-1.139
X-0.021 Y67.722 Z-1.141
X-0.051 Y67.705 Z-1.142
X-0.07 Y67.677 Z-1.143
X-0.075 Y67.643 Z-1.144
X-0.064 Y67.61 Z-1.145
X-0.039 Y67.586 Z-1.147
X-0.006 Y67.575 Z-1.148
X0.028 Y67.58 Z-1.149
X0.056 Y67.6 Z-1.15
X0.072 Y67.63 Z-1.152
X0.074 Y67.664 Z-1.153
X0.059 Y67.696 Z-1.154
X0.033 Y67.718 Z-1.155
X-0.001 Y67.725 Z-1.156
X-0.034 Y67.717 Z-1.158
X-0.06 Y67.694 Z-1.159
X-0.074 Y67.663 Z-1.16
X-0.072 Y67.628 Z-1.161
X-0.055 Y67.599 Z-1.162
X-0.026 Y67.58 Z-1.164
X0.008 Y67.575 Z-1.165
X0.041 Y67.587 Z-1.166
X0.065 Y67.612 Z-1.167
X0.075 Y67.645 Z-1.168
X0.069 Y67.679 Z-1.17
X0.049 Y67.707 Z-1.171
X0.019 Y67.723 Z-1.172
X-0.015 Z-1.173
X-0.047 Y67.709 Z-1.175
X-0.068 Y67.682 Z-1.176
X-0.075 Y67.648 Z-1.177
X-0.066 Y67.615 Z-1.178
X-0.044 Y67.589 Z-1.179
X-0.012 Y67.576 Z-1.181
X0.023 Y67.578 Z-1.182
X0.052 Y67.596 Z-1.183
X0.071 Y67.625 Z-1.184
X0.074 Y67.659 Z-1.185
X0.062 Y67.692 Z-1.187
X0.037 Y67.715 Z-1.188
X0.004 Y67.725 Z-1.189
X-0.03 Y67.719 Z-1.19
X-0.057 Y67.699 Z-1.192
X-0.073 Y67.668 Z-1.193
Y67.633 Z-1.194
X-0.058 Y67.603 Z-1.195
X-0.031 Y67.582 Z-1.196
X0.003 Y67.575 Z-1.198
X0.036 Y67.584 Z-1.199
X0.062 Y67.607 Z-1.2
X0.074 Y67.639 Z-1.201
X0.071 Y67.674 Z-1.202
X0.053 Y67.703 Z-1.204
X0.024 Y67.721 Z-1.205
X-0.01 Y67.724 Z-1.206
X-0.042 Y67.712 Z-1.207
X-0.066 Y67.686 Z-1.208
X-0.075 Y67.653 Z-1.21
X-0.069 Y67.62 Z-1.211
X-0.048 Y67.592 Z-1.212
X-0.017 Y67.577 Z-1.213
X0.018 Z-1.215
X0.048 Y67.593 Z-1.216
X0.069 Y67.62 Z-1.217
X0.075 Y67.654 Z-1.218
X0.065 Y67.687 Z-1.219
X0.042 Y67.712 Z-1.221
X0.01 Y67.724 Z-1.222
X-0.025 Y67.721 Z-1.223
X-0.054 Y67.702 Z-1.224
X-0.071 Y67.673 Z-1.225
X-0.074 Y67.639 Z-1.227
X-0.061 Y67.607 Z-1.228
X-0.036 Y67.584 Z-1.229
X-0.002 Y67.575 Z-1.23
X0.031 Y67.582 Z-1.232
X0.058 Y67.603 Z-1.233
X0.073 Y67.634 Z-1.234
Y67.669 Z-1.235
X0.057 Y67.699 Z-1.236
X0.029 Y67.719 Z-1.238
X-0.005 Y67.725 Z-1.239
X-0.038 Y67.715 Z-1.24
X-0.063 Y67.691 Z-1.241
X-0.075 Y67.659 Z-1.242
X-0.071 Y67.624 Z-1.244
X-0.052 Y67.596 Z-1.245
X-0.022 Y67.578 Z-1.246
X0.012 Y67.576 Z-1.247
X0.044 Y67.589 Z-1.248
X0.067 Y67.615 Z-1.25
X0.075 Y67.649 Z-1.251
X0.068 Y67.682 Z-1.252
X0.046 Y67.709 Z-1.253
X0.015 Y67.724 Z-1.255
X-0.02 Y67.722 Z-1.256
X-0.05 Y67.706 Z-1.257
X-0.07 Y67.678 Z-1.258
X-0.075 Y67.644 Z-1.259
X-0.064 Y67.611 Z-1.261
X-0.04 Y67.587 Z-1.262
X-0.008 Y67.575 Z-1.263
X0.027 Y67.58 Z-1.264
X0.055 Y67.599 Z-1.265
X0.072 Y67.629 Z-1.267
X0.074 Y67.663 Z-1.268
X0.06 Y67.695 Z-1.269
X0.034 Y67.717 Z-1.27
X0 Y67.725 Z-1.272
X-0.033 Y67.717 Z-1.273
X-0.06 Y67.695 Z-1.274
X-0.074 Y67.664 Z-1.275
X-0.072 Y67.629 Z-1.276
X-0.055 Y67.599 Z-1.278
X-0.027 Y67.58 Z-1.279
X0.007 Y67.575 Z-1.28
X0.04 Y67.586 Z-1.281
X0.064 Y67.611 Z-1.282
X0.075 Y67.643 Z-1.284
X0.07 Y67.677 Z-1.285
X0.05 Y67.706 Z-1.286
X0.02 Y67.722 Z-1.287
X-0.014 Y67.724 Z-1.288
X-0.046 Y67.709 Z-1.29
X-0.067 Y67.683 Z-1.291
X-0.075 Y67.649 Z-1.292
X-0.067 Y67.616 Z-1.293
X-0.044 Y67.59 Z-1.295
X-0.013 Y67.576 Z-1.296
X0.021 Y67.578 Z-1.297
X0.051 Y67.595 Z-1.298
X0.07 Y67.624 Z-1.299
X0.075 Y67.658 Z-1.301
X0.063 Y67.691 Z-1.302
X0.038 Y67.714 Z-1.303
X0.006 Y67.725 Z-1.304
X-0.028 Y67.719 Z-1.305
X-0.056 Y67.699 Z-1.307
X-0.073 Y67.669 Z-1.308
Y67.635 Z-1.309
X-0.059 Y67.603 Z-1.31
X-0.032 Y67.582 Z-1.312
X0.002 Y67.575 Z-1.313
X0.035 Y67.584 Z-1.314
X0.061 Y67.606 Z-1.315
X0.074 Y67.638 Z-1.316
X0.072 Y67.672 Z-1.318
X0.054 Y67.702 Z-1.319
X0.025 Y67.721 Z-1.32
X-0.009 Y67.724 Z-1.321
X-0.041 Y67.713 Z-1.322
X-0.065 Y67.687 Z-1.324
X-0.075 Y67.655 Z-1.325
X-0.069 Y67.621 Z-1.326
X-0.049 Y67.593 Z-1.327
X-0.018 Y67.577 Z-1.328
X0.016 Z-1.33
X0.047 Y67.592 Z-1.331
X0.068 Y67.619 Z-1.332
X0.075 Y67.653 Z-1.333
X0.066 Y67.686 Z-1.335
X0.043 Y67.712 Z-1.336
X0.011 Y67.724 Z-1.337
X-0.023 Y67.721 Z-1.338
X-0.053 Y67.703 Z-1.339
X-0.071 Y67.674 Z-1.341
X-0.074 Y67.64 Z-1.342
X-0.062 Y67.608 Z-1.343
X-0.037 Y67.585 Z-1.344
X-0.003 Y67.575 Z-1.345
X0.03 Y67.581 Z-1.347
X0.058 Y67.602 Z-1.348
X0.073 Y67.633 Z-1.349
Y67.667 Z-1.35
X0.058 Y67.698 Z-1.352
X0.03 Y67.719 Z-1.353
X-0.004 Y67.725 Z-1.354
X-0.037 Y67.715 Z-1.355
X-0.062 Y67.692 Z-1.356
X-0.074 Y67.66 Z-1.358
X-0.071 Y67.626 Z-1.359
X-0.053 Y67.596 Z-1.36
X-0.023 Y67.579 Z-1.361
X0.011 Y67.576 Z-1.362
X0.043 Y67.589 Z-1.364
X0.066 Y67.614 Z-1.365
X0.075 Y67.648 Z-1.366
X0.068 Y67.681 Z-1.367
X0.047 Y67.708 Z-1.368
X0.016 Y67.723 Z-1.37
X-0.018 Z-1.371
X-0.049 Y67.707 Z-1.372
X-0.069 Y67.679 Z-1.373
X-0.075 Y67.645 Z-1.375
X-0.065 Y67.612 Z-1.376
X-0.041 Y67.587 Z-1.377
X-0.009 Y67.576 Z-1.378
X0.025 Y67.579 Z-1.379
X0.054 Y67.598 Z-1.381
X0.072 Y67.628 Z-1.382
X0.074 Y67.662 Z-1.383
X0.061 Y67.694 Z-1.384
X0.035 Y67.716 Z-1.385
X0.001 Y67.725 Z-1.387
X-0.032 Y67.718 Z-1.388
X-0.059 Y67.696 Z-1.389
X-0.073 Y67.665 Z-1.39
X-0.072 Y67.631 Z-1.392
X-0.056 Y67.6 Z-1.393
X-0.028 Y67.58 Z-1.394
X0.006 Y67.575 Z-1.395
X0.039 Y67.586 Z-1.396
X0.063 Y67.61 Z-1.398
X0.075 Y67.642 Z-1.399
X0.07 Y67.676 Z-1.4
X0.051 Y67.705 Z-1.401
X0.021 Y67.722 Z-1.402
X-0.013 Y67.724 Z-1.404
X-0.045 Y67.71 Z-1.405
X-0.067 Y67.684 Z-1.406
X-0.075 Y67.65 Z-1.407
X-0.067 Y67.617 Z-1.408
X-0.045 Y67.59 Z-1.41
X-0.014 Y67.576 Z-1.411
X0.02 Y67.578 Z-1.412
X0.05 Y67.595 Z-1.413
X0.07 Y67.623 Z-1.415
X0.075 Y67.657 Z-1.416
X0.064 Y67.69 Z-1.417
X0.039 Y67.714 Z-1.418
X0.007 Y67.725 Z-1.419
X-0.027 Y67.72 Z-1.421
X-0.056 Y67.7 Z-1.422
X-0.072 Y67.67 Z-1.423
X-0.074 Y67.636 Z-1.424
X-0.06 Y67.604 Z-1.425
X-0.033 Y67.583 Z-1.427
X0.001 Y67.575 Z-1.428
X0.034 Y67.583 Z-1.429
X0.06 Y67.605 Z-1.43
X0.074 Y67.637 Z-1.432
X0.072 Y67.671 Z-1.433
X0.055 Y67.701 Z-1.434
X0.026 Y67.72 Z-1.435
X-0.008 Y67.725 Z-1.436
X-0.04 Y67.713 Z-1.438
X-0.064 Y67.688 Z-1.439
X-0.075 Y67.656 Z-1.44
X-0.069 Y67.622 Z-1.441
X-0.05 Y67.594 Z-1.442
X-0.019 Y67.577 Z-1.444
X0.015 Z-1.445
X0.046 Y67.591 Z-1.446
X0.068 Y67.618 Z-1.447
X0.075 Y67.652 Z-1.448
X0.066 Y67.685 Z-1.45
X0.044 Y67.711 Z-1.451
X0.012 Y67.724 Z-1.452
X-0.022 Y67.722 Z-1.453
X-0.052 Y67.704 Z-1.455
X-0.071 Y67.675 Z-1.456
X-0.074 Y67.641 Z-1.457
X-0.063 Y67.609 Z-1.458
X-0.038 Y67.585 Z-1.459
X-0.005 Y67.575 Z-1.461
X0.029 Y67.581 Z-1.462
X0.057 Y67.601 Z-1.463
X0.073 Y67.632 Z-1.464
Y67.666 Z-1.465
X0.058 Y67.697 Z-1.467
X0.031 Y67.718 Z-1.468
X-0.003 Y67.725 Z-1.469
X-0.036 Y67.716 Z-1.47
X-0.062 Y67.693 Z-1.472
X-0.074 Y67.661 Z-1.473
X-0.071 Y67.627 Z-1.474
X-0.053 Y67.597 Z-1.475
X-0.024 Y67.579 Z-1.476
X0.01 Y67.576 Z-1.478
X0.042 Y67.588 Z-1.479
X0.065 Y67.613 Z-1.48
X0.075 Y67.646 Z-1.481
X0.069 Y67.68 Z-1.482
X0.048 Y67.708 Z-1.484
X0.017 Y67.723 Z-1.485
X-0.017 Z-1.486
X-0.048 Y67.708 Z-1.487
X-0.069 Y67.68 Z-1.488
X-0.075 Y67.646 Z-1.49
X-0.065 Y67.613 Z-1.491
X-0.042 Y67.588 Z-1.492
X-0.01 Y67.576 Z-1.493
X0.024 Y67.579 Z-1.495
X0.053 Y67.597 Z-1.496
X0.071 Y67.627 Z-1.497
X0.074 Y67.661 Z-1.498
X0.061 Y67.693 Z-1.499
X0.036 Y67.716 Z-1.501
X0.003 Y67.725 Z-1.502
X-0.031 Y67.718 Z-1.503
X-0.058 Y67.697 Z-1.504
X-0.073 Y67.666 Z-1.505
Y67.632 Z-1.507
X-0.057 Y67.601 Z-1.508
X-0.029 Y67.581 Z-1.509
X0.005 Y67.575 Z-1.51
X0.038 Y67.585 Z-1.512
X0.063 Y67.609 Z-1.513
X0.074 Y67.641 Z-1.514
X0.071 Y67.675 Z-1.515
X0.052 Y67.704 Z-1.516
X0.022 Y67.722 Z-1.518
X-0.012 Y67.724 Z-1.519
X-0.044 Y67.711 Z-1.52
X-0.066 Y67.685 Z-1.521
X-0.075 Y67.652 Z-1.522
X-0.068 Y67.618 Z-1.524
X-0.046 Y67.591 Z-1.525
X-0.015 Y67.577 Z-1.526
X0.019 Y67.578 Z-1.527
X0.05 Y67.594 Z-1.528
X0.069 Y67.622 Z-1.53
X0.075 Y67.656 Z-1.531
X0.064 Y67.689 Z-1.532
X0.04 Y67.713 Z-1.533
X0.008 Y67.725 Z-1.535
X-0.026 Y67.72 Z-1.536
X-0.055 Y67.701 Z-1.537
X-0.072 Y67.671 Z-1.538
X-0.074 Y67.637 Z-1.539
X-0.06 Y67.605 Z-1.541
X-0.034 Y67.583 Z-1.542
X-0.001 Y67.575 Z-1.543
X0.033 Y67.583 Z-1.544
X0.06 Y67.604 Z-1.545
X0.074 Y67.636 Z-1.547
X0.072 Y67.67 Z-1.548
X0.056 Y67.7 Z-1.549
X0.027 Y67.72 Z-1.55
X-0.007 Y67.725 Z-1.552
X-0.039 Y67.714 Z-1.553
X-0.064 Y67.689 Z-1.554
X-0.075 Y67.657 Z-1.555
X-0.07 Y67.623 Z-1.556
X-0.05 Y67.594 Z-1.558
X-0.02 Y67.578 Z-1.559
X0.014 Y67.576 Z-1.56
X0.046 Y67.59 Z-1.561
X0.067 Y67.617 Z-1.562
X0.075 Y67.651 Z-1.564
X0.067 Y67.684 Z-1.565
X0.045 Y67.71 Z-1.566
X0.013 Y67.724 Z-1.567
X-0.021 Y67.722 Z-1.568
X-0.051 Y67.705 Z-1.57
X-0.07 Y67.676 Z-1.571
X-0.075 Y67.642 Z-1.572
X-0.063 Y67.61 Z-1.573
X-0.039 Y67.586 Z-1.575
X-0.006 Y67.575 Z-1.576
X0.028 Y67.58 Z-1.577
X0.056 Y67.6 Z-1.578
X0.072 Y67.631 Z-1.579
X0.073 Y67.665 Z-1.581
X0.059 Y67.696 Z-1.582
X0.032 Y67.718 Z-1.583
X-0.002 Y67.725 Z-1.584
X-0.035 Y67.716 Z-1.585
X-0.061 Y67.694 Z-1.587
X-0.074 Y67.662 Z-1.588
X-0.072 Y67.628 Z-1.589
X-0.054 Y67.598 Z-1.59
X-0.025 Y67.579 Z-1.592
X0.009 Y67.576 Z-1.593
X0.041 Y67.587 Z-1.594
X0.065 Y67.612 Z-1.595
X0.075 Y67.645 Z-1.596
X0.069 Y67.679 Z-1.598
X0.049 Y67.707 Z-1.599
X0.018 Y67.723 Z-1.6
X-0.016 Z-1.601
X-0.047 Y67.708 Z-1.602
X-0.068 Y67.681 Z-1.604
X-0.075 Y67.647 Z-1.605
X-0.066 Y67.614 Z-1.606
X-0.043 Y67.589 Z-1.607
X-0.011 Y67.576 Z-1.608
X0.023 Y67.579 Z-1.61
X0.053 Y67.597 Z-1.611
X0.071 Y67.626 Z-1.612
X0.074 Y67.66 Z-1.613
X0.062 Y67.692 Z-1.615
X0.037 Y67.715 Z-1.616
X0.004 Y67.725 Z-1.617
X-0.03 Y67.719 Z-1.618
X-0.058 Y67.698 Z-1.619
X-0.073 Y67.667 Z-1.621
Y67.633 Z-1.622
X-0.058 Y67.602 Z-1.623
X-0.03 Y67.581 Z-1.624
X0.004 Y67.575 Z-1.625
X0.037 Y67.585 Z-1.627
X0.062 Y67.608 Z-1.628
X0.074 Y67.64 Z-1.629
X0.071 Y67.674 Z-1.63
X0.053 Y67.703 Z-1.632
X0.023 Y67.721 Z-1.633
X-0.011 Y67.724 Z-1.634
X-0.043 Y67.712 Z-1.635
X-0.066 Y67.686 Z-1.636
X-0.075 Y67.653 Z-1.638
X-0.068 Y67.619 Z-1.639
X-0.047 Y67.592 Z-1.64
X-0.016 Y67.577 Z-1.641
X0.018 Z-1.642
X0.049 Y67.593 Z-1.644
X0.069 Y67.621 Z-1.645
X0.075 Y67.655 Z-1.646
X0.065 Y67.688 Z-1.647
X0.041 Y67.713 Z-1.648
X0.009 Y67.724 Z-1.65
X-0.025 Y67.721 Z-1.651
X-0.054 Y67.702 Z-1.652
X-0.072 Y67.672 Z-1.653
X-0.074 Y67.638 Z-1.655
X-0.061 Y67.606 Z-1.656
X-0.035 Y67.584 Z-1.657
X-0.002 Y67.575 Z-1.658
X0.032 Y67.582 Z-1.659
X0.059 Y67.604 Z-1.661
X0.073 Y67.635 Z-1.662
Y67.669 Z-1.663
X0.056 Y67.699 Z-1.664
X0.028 Y67.719 Z-1.665
X-0.006 Y67.725 Z-1.667
X-0.038 Y67.714 Z-1.668
X-0.063 Y67.69 Z-1.669
X-0.075 Y67.658 Z-1.67
X-0.07 Y67.624 Z-1.672
X-0.051 Y67.595 Z-1.673
X-0.021 Y67.578 Z-1.674
X0.013 Y67.576 Z-1.675
X0.045 Y67.59 Z-1.676
X0.067 Y67.616 Z-1.678
X0.075 Y67.649 Z-1.679
X0.067 Y67.683 Z-1.68
X0.046 Y67.71 Z-1.681
X0.014 Y67.724 Z-1.682
X-0.02 Y67.722 Z-1.684
X-0.05 Y67.706 Z-1.685
X-0.07 Y67.677 Z-1.686
X-0.075 Y67.643 Z-1.687
X-0.064 Y67.611 Z-1.688
X-0.04 Y67.586 Z-1.69
X-0.007 Y67.575 Z-1.691
X0.027 Y67.58 Z-1.692
X0.055 Y67.6 Z-1.693
X0.072 Y67.63 Z-1.695
X0.074 Y67.664 Z-1.696
X0.06 Y67.695 Z-1.697
X0.033 Y67.717 Z-1.698
X0 Y67.725 Z-1.699
X-0.034 Y67.717 Z-1.701
X-0.06 Y67.695 Z-1.702
X-0.074 Y67.663 Z-1.703
X-0.072 Y67.629 Z-1.704
X-0.055 Y67.599 Z-1.705
X-0.026 Y67.58 Z-1.707
X0.008 Y67.575 Z-1.708
X0.04 Y67.587 Z-1.709
X0.064 Y67.611 Z-1.71
X0.075 Y67.644 Z-1.712
X0.07 Y67.678 Z-1.713
X0.05 Y67.706 Z-1.714
X0.019 Y67.722 Z-1.715
X-0.015 Y67.723 Z-1.716
X-0.046 Y67.709 Z-1.718
X-0.068 Y67.682 Z-1.719
X-0.075 Y67.649 Z-1.72
X-0.066 Y67.615 Z-1.721
X-0.044 Y67.589 Z-1.722
X-0.012 Y67.576 Z-1.724
X0.022 Y67.578 Z-1.725
X0.052 Y67.596 Z-1.726
X0.071 Y67.625 Z-1.727
X0.074 Y67.659 Z-1.728
X0.063 Y67.691 Z-1.73
X0.038 Y67.715 Z-1.731
X0.005 Y67.725 Z-1.732
X-0.029 Y67.719 Z-1.733
X-0.057 Y67.699 Z-1.735
X-0.073 Y67.668 Z-1.736
Y67.634 Z-1.737
X-0.058 Y67.603 Z-1.738
X-0.031 Y67.582 Z-1.739
X0.002 Y67.575 Z-1.741
X0.036 Y67.584 Z-1.742
X0.061 Y67.607 Z-1.743
X0.074 Y67.639 Z-1.744
X0.071 Y67.673 Z-1.745
X0.054 Y67.703 Z-1.747
X0.024 Y67.721 Z-1.748
X-0.01 Y67.724 Z-1.749
X-0.042 Y67.712 Z-1.75
X-0.065 Y67.687 Z-1.752
X-0.075 Y67.654 Z-1.753
X-0.069 Y67.62 Z-1.754
X-0.048 Y67.592 Z-1.755
X-0.017 Y67.577 Z-1.756
X0.017 Z-1.758
X0.048 Y67.592 Z-1.759
X0.069 Y67.62 Z-1.76
X0.075 Y67.653 Z-1.761
X0.065 Y67.687 Z-1.762
X0.042 Y67.712 Z-1.764
X0.01 Y67.724 Z-1.765
X-0.024 Y67.721 Z-1.766
X-0.053 Y67.703 Z-1.767
X-0.071 Y67.673 Z-1.768
X-0.074 Y67.639 Z-1.77
X-0.062 Y67.607 Z-1.771
X-0.036 Y67.584 Z-1.772
X-0.003 Y67.575 Z-1.773
X0.031 Y67.582 Z-1.775
X0.058 Y67.603 Z-1.776
X0.073 Y67.634 Z-1.777
Y67.668 Z-1.778
X0.057 Y67.699 Z-1.779
X0.029 Y67.719 Z-1.781
X-0.004 Y67.725 Z-1.782
X-0.037 Y67.715 Z-1.783
X-0.063 Y67.691 Z-1.784
X-0.074 Y67.659 Z-1.785
X-0.071 Y67.625 Z-1.787
X-0.052 Y67.596 Z-1.788
X-0.023 Y67.578 Z-1.789
X0.012 Y67.576 Z-1.79
X0.044 Y67.589 Z-1.792
X0.066 Y67.615 Z-1.793
X0.075 Y67.648 Z-1.794
X0.068 Y67.682 Z-1.795
X0.047 Y67.709 Z-1.796
X0.015 Y67.723 Z-1.798
X-0.019 Z-1.799
X-0.049 Y67.706 Z-1.8
X-0.069 Y67.678 Z-1.801
X-0.075 Y67.644 Z-1.802
X-0.064 Y67.612 Z-1.804
X-0.041 Y67.587 Z-1.805
X-0.008 Y67.575 Z-1.806
X0.026 Y67.58 Z-1.807
X0.055 Y67.599 Z-1.808
X0.072 Y67.628 Z-1.81
X0.074 Y67.663 Z-1.811
X0.06 Y67.694 Z-1.812
X0.034 Y67.717 Z-1.813
X0.001 Y67.725 Z-1.815
X-0.033 Y67.717 Z-1.816
X-0.059 Y67.696 Z-1.817
X-0.074 Y67.664 Z-1.818
X-0.072 Y67.63 Z-1.819
X-0.056 Y67.6 Z-1.821
X-0.027 Y67.58 Z-1.822
X0.007 Y67.575 Z-1.823
X0.039 Y67.586 Z-1.824
X0.064 Y67.61 Z-1.825
X0.075 Y67.643 Z-1.827
X0.07 Y67.677 Z-1.828
X0.051 Y67.705 Z-1.829
X0.021 Y67.722 Z-1.83
X-0.014 Y67.724 Z-1.832
X-0.045 Y67.71 Z-1.833
X-0.067 Y67.683 Z-1.834
X-0.075 Y67.65 Z-1.835
X-0.067 Y67.616 Z-1.836
X-0.045 Y67.59 Z-1.838
X-0.013 Y67.576 Z-1.839
X0.021 Y67.578 Z-1.84
X0.051 Y67.595 Z-1.841
X0.07 Y67.623 Z-1.842
X0.075 Y67.658 Z-1.844
X0.063 Y67.69 Z-1.845
X0.039 Y67.714 Z-1.846
X0.006 Y67.725 Z-1.847
X-0.028 Y67.72 Z-1.848
X-0.056 Y67.7 Z-1.85
X-0.072 Y67.67 Z-1.851
X-0.074 Y67.635 Z-1.852
X-0.059 Y67.604 Z-1.853
X-0.032 Y67.582 Z-1.855
X0.001 Y67.575 Z-1.856
X0.035 Y67.583 Z-1.857
X0.061 Y67.606 Z-1.858
X0.074 Y67.638 Z-1.859
X0.072 Y67.672 Z-1.861
X0.054 Y67.702 Z-1.862
X0.026 Y67.721 Z-1.863
X-0.009 Y67.725 Z-1.864
X-0.041 Y67.713 Z-1.865
X-0.065 Y67.688 Z-1.867
X-0.075 Y67.655 Z-1.868
X-0.069 Y67.621 Z-1.869
X-0.049 Y67.593 Z-1.87
X-0.019 Y67.577 Z-1.872
X0.016 Z-1.873
X0.047 Y67.591 Z-1.874
X0.068 Y67.619 Z-1.875
X0.075 Y67.652 Z-1.876
X0.066 Y67.686 Z-1.878
X0.043 Y67.711 Z-1.879
X0.011 Y67.724 Z-1.88
X-0.023 Y67.721 Z-1.881
X-0.052 Y67.704 Z-1.882
X-0.071 Y67.675 Z-1.884
X-0.074 Y67.64 Z-1.885
X-0.062 Y67.608 Z-1.886
X-0.037 Y67.585 Z-1.887
X-0.004 Y67.575 Z-1.888
X0.03 Y67.581 Z-1.89
X0.057 Y67.602 Z-1.891
X0.073 Y67.632 Z-1.892
Y67.667 Z-1.893
X0.058 Y67.698 Z-1.895
X0.03 Y67.719 Z-1.896
X-0.003 Y67.725 Z-1.897
X-0.036 Y67.716 Z-1.898
X-0.062 Y67.692 Z-1.899
X-0.074 Y67.66 Z-1.901
X-0.071 Y67.626 Z-1.902
X-0.053 Y67.597 Z-1.903
X-0.024 Y67.579 Z-1.904
X0.011 Y67.576 Z-1.905
X0.043 Y67.588 Z-1.907
X0.066 Y67.614 Z-1.908
X0.075 Y67.647 Z-1.909
X0.068 Y67.681 Z-1.91
X0.047 Y67.708 Z-1.912
X0.017 Y67.723 Z-1.913
X-0.018 Z-1.914
X-0.049 Y67.707 Z-1.915
X-0.069 Y67.68 Z-1.916
X-0.075 Y67.646 Z-1.918
X-0.065 Y67.613 Z-1.919
X-0.042 Y67.588 Z-1.92
X-0.009 Y67.576 Z-1.921
X0.025 Y67.579 Z-1.922
X0.054 Y67.598 Z-1.924
X0.072 Y67.627 Z-1.925
X0.074 Y67.662 Z-1.926
X0.061 Y67.694 Z-1.927
X0.035 Y67.716 Z-1.928
X0.002 Y67.725 Z-1.93
X-0.032 Y67.718 Z-1.931
X-0.059 Y67.697 Z-1.932
X-0.073 Y67.666 Z-1.933
Y67.631 Z-1.935
X-0.057 Y67.601 Z-1.936
X-0.029 Y67.581 Z-1.937
X0.005 Y67.575 Z-1.938
X0.038 Y67.585 Z-1.939
X0.063 Y67.609 Z-1.941
X0.075 Y67.642 Z-1.942
X0.07 Y67.676 Z-1.943
X0.051 Y67.705 Z-1.944
X0.022 Y67.722 Z-1.945
X-0.013 Y67.724 Z-1.947
X-0.044 Y67.71 Z-1.948
X-0.067 Y67.684 Z-1.949
X-0.075 Y67.651 Z-1.95
X-0.068 Y67.617 Z-1.952
X-0.046 Y67.591 Z-1.953
X-0.015 Y67.576 Z-1.954
X0.02 Y67.578 Z-1.955
X0.05 Y67.594 Z-1.956
X0.07 Y67.622 Z-1.958
X0.075 Y67.656 Z-1.959
X0.064 Y67.689 Z-1.96
X0.04 Y67.714 Z-1.961
X0.007 Y67.725 Z-1.962
X-0.027 Y67.72 Z-1.964
X-0.055 Y67.701 Z-1.965
X-0.072 Y67.671 Z-1.966
X-0.074 Y67.636 Z-1.967
X-0.06 Y67.605 Z-1.968
X-0.033 Y67.583 Z-1.97
X0 Y67.575 Z-1.971
X0.034 Y67.583 Z-1.972
X0.06 Y67.605 Z-1.973
X0.074 Y67.637 Z-1.975
X0.072 Y67.671 Z-1.976
X0.055 Y67.701 Z-1.977
X0.027 Y67.72 Z-1.978
X-0.007 Y67.725 Z-1.979
X-0.04 Y67.713 Z-1.981
X-0.064 Y67.689 Z-1.982
X-0.075 Y67.656 Z-1.983
X-0.07 Y67.622 Z-1.984
X-0.05 Y67.594 Z-1.985
X-0.02 Y67.578 Z-1.987
X0.015 Y67.576 Z-1.988
X0.046 Y67.591 Z-1.989
X0.068 Y67.618 Z-1.99
X0.075 Y67.651 Z-1.992
X0.067 Y67.685 Z-1.993
X0.044 Y67.711 Z-1.994
X0.012 Y67.724 Z-1.995
X-0.022 Y67.722 Z-1.996
X-0.052 Y67.704 Z-1.998
X-0.07 Y67.676 Z-1.999
X-0.075 Y67.642 Z-2
G3 X0.075 Y67.658 I0.075 J0.008 F400
X-0.075 Y67.642 I-0.075 J-0.008
G1 X-0.063 Y67.609 Z-2.001 F333.3
X-0.038 Y67.585 Z-2.002
X-0.005 Y67.575 Z-2.004
X0.029 Y67.581 Z-2.005
X0.057 Y67.601 Z-2.006
X0.073 Y67.631 Z-2.007
Y67.666 Z-2.008
X0.059 Y67.697 Z-2.01
X0.032 Y67.718 Z-2.011
X-0.002 Y67.725 Z-2.012
X-0.035 Y67.716 Z-2.013
X-0.061 Y67.693 Z-2.015
X-0.074 Y67.661 Z-2.016
X-0.071 Y67.627 Z-2.017
X-0.054 Y67.598 Z-2.018
X-0.025 Y67.579 Z-2.019
X0.01 Y67.576 Z-2.021
X0.042 Y67.588 Z-2.022
X0.065 Y67.613 Z-2.023
X0.075 Y67.646 Z-2.024
X0.069 Y67.68 Z-2.025
X0.048 Y67.707 Z-2.027
X0.018 Y67.723 Z-2.028
X-0.017 Z-2.029
X-0.048 Y67.708 Z-2.03
X-0.068 Y67.681 Z-2.032
X-0.075 Y67.647 Z-2.033
X-0.066 Y67.614 Z-2.034
X-0.043 Y67.588 Z-2.035
X-0.01 Y67.576 Z-2.036
X0.024 Y67.579 Z-2.038
X0.053 Y67.597 Z-2.039
X0.071 Y67.626 Z-2.04
X0.074 Y67.661 Z-2.041
X0.062 Y67.693 Z-2.042
X0.036 Y67.716 Z-2.044
X0.003 Y67.725 Z-2.045
X-0.031 Y67.718 Z-2.046
X-0.058 Y67.698 Z-2.047
X-0.073 Y67.667 Z-2.048
Y67.632 Z-2.05
X-0.057 Y67.602 Z-2.051
X-0.03 Y67.581 Z-2.052
X0.004 Y67.575 Z-2.053
X0.037 Y67.585 Z-2.055
X0.062 Y67.608 Z-2.056
X0.074 Y67.641 Z-2.057
X0.071 Y67.675 Z-2.058
X0.052 Y67.704 Z-2.059
X0.023 Y67.721 Z-2.061
X-0.012 Y67.724 Z-2.062
X-0.043 Y67.711 Z-2.063
X-0.066 Y67.685 Z-2.064
X-0.075 Y67.652 Z-2.065
X-0.068 Y67.618 Z-2.067
X-0.047 Y67.591 Z-2.068
X-0.016 Y67.577 Z-2.069
X0.019 Z-2.07
X0.049 Y67.593 Z-2.072
X0.069 Y67.621 Z-2.073
X0.075 Y67.655 Z-2.074
X0.065 Y67.688 Z-2.075
X0.041 Y67.713 Z-2.076
X0.008 Y67.725 Z-2.078
X-0.026 Y67.72 Z-2.079
X-0.055 Y67.702 Z-2.08
X-0.072 Y67.672 Z-2.081
X-0.074 Y67.637 Z-2.082
X-0.061 Y67.606 Z-2.084
X-0.034 Y67.583 Z-2.085
X-0.001 Y67.575 Z-2.086
X0.033 Y67.582 Z-2.087
X0.059 Y67.604 Z-2.088
X0.074 Y67.635 Z-2.09
X0.072 Y67.67 Z-2.091
X0.056 Y67.7 Z-2.092
X0.028 Y67.72 Z-2.093
X-0.006 Y67.725 Z-2.095
X-0.039 Y67.714 Z-2.096
X-0.063 Y67.69 Z-2.097
X-0.075 Y67.657 Z-2.098
X-0.07 Y67.623 Z-2.099
X-0.051 Y67.595 Z-2.101
X-0.021 Y67.578 Z-2.102
X0.014 Y67.576 Z-2.103
X0.045 Y67.59 Z-2.104
X0.067 Y67.616 Z-2.105
X0.075 Y67.65 Z-2.107
X0.067 Y67.683 Z-2.108
X0.045 Y67.71 Z-2.109
X0.014 Y67.724 Z-2.11
X-0.021 Y67.722 Z-2.112
X-0.051 Y67.705 Z-2.113
X-0.07 Y67.677 Z-2.114
X-0.075 Y67.643 Z-2.115
X-0.064 Y67.61 Z-2.116
X-0.039 Y67.586 Z-2.118
X-0.006 Y67.575 Z-2.119
X0.028 Y67.58 Z-2.12
X0.056 Y67.6 Z-2.121
X0.072 Y67.63 Z-2.122
X0.074 Y67.665 Z-2.124
X0.059 Y67.696 Z-2.125
X0.033 Y67.718 Z-2.126
X-0.001 Y67.725 Z-2.127
X-0.034 Y67.717 Z-2.128
X-0.061 Y67.694 Z-2.13
X-0.074 Y67.663 Z-2.131
X-0.072 Y67.628 Z-2.132
X-0.055 Y67.599 Z-2.133
X-0.026 Y67.58 Z-2.135
X0.008 Y67.575 Z-2.136
X0.041 Y67.587 Z-2.137
X0.065 Y67.612 Z-2.138
X0.075 Y67.645 Z-2.139
X0.069 Y67.679 Z-2.141
X0.049 Y67.707 Z-2.142
X0.019 Y67.723 Z-2.143
X-0.016 Z-2.144
X-0.047 Y67.709 Z-2.145
X-0.068 Y67.682 Z-2.147
X-0.075 Y67.648 Z-2.148
X-0.066 Y67.615 Z-2.149
X-0.043 Y67.589 Z-2.15
X-0.012 Y67.576 Z-2.152
X0.023 Y67.579 Z-2.153
X0.052 Y67.596 Z-2.154
X0.071 Y67.625 Z-2.155
X0.074 Y67.659 Z-2.156
X0.062 Y67.692 Z-2.158
X0.037 Y67.715 Z-2.159
X0.004 Y67.725 Z-2.16
X-0.03 Y67.719 Z-2.161
X-0.057 Y67.698 Z-2.162
X-0.073 Y67.668 Z-2.164
Y67.633 Z-2.165
X-0.058 Y67.602 Z-2.166
X-0.031 Y67.582 Z-2.167
X0.003 Y67.575 Z-2.168
X0.036 Y67.584 Z-2.17
X0.062 Y67.607 Z-2.171
X0.074 Y67.639 Z-2.172
X0.071 Y67.674 Z-2.173
X0.053 Y67.703 Z-2.175
X0.024 Y67.721 Z-2.176
X-0.01 Y67.724 Z-2.177
X-0.042 Y67.712 Z-2.178
X-0.066 Y67.686 Z-2.179
X-0.075 Y67.653 Z-2.181
X-0.068 Y67.619 Z-2.182
X-0.048 Y67.592 Z-2.183
X-0.017 Y67.577 Z-2.184
X0.018 Z-2.185
X0.048 Y67.593 Z-2.187
X0.069 Y67.62 Z-2.188
X0.075 Y67.654 Z-2.189
X0.065 Y67.687 Z-2.19
X0.042 Y67.712 Z-2.192
X0.01 Y67.724 Z-2.193
X-0.025 Y67.721 Z-2.194
X-0.054 Y67.702 Z-2.195
X-0.071 Y67.673 Z-2.196
X-0.074 Y67.639 Z-2.198
X-0.061 Y67.607 Z-2.199
X-0.035 Y67.584 Z-2.2
X-0.002 Y67.575 Z-2.201
X0.031 Y67.582 Z-2.202
X0.059 Y67.603 Z-2.204
X0.073 Y67.634 Z-2.205
Y67.669 Z-2.206
X0.057 Y67.699 Z-2.207
X0.029 Y67.719 Z-2.208
X-0.005 Y67.725 Z-2.21
X-0.038 Y67.715 Z-2.211
X-0.063 Y67.691 Z-2.212
X-0.075 Y67.659 Z-2.213
X-0.07 Y67.624 Z-2.215
X-0.052 Y67.596 Z-2.216
X-0.022 Y67.578 Z-2.217
X0.012 Y67.576 Z-2.218
X0.044 Y67.589 Z-2.219
X0.067 Y67.615 Z-2.221
X0.075 Y67.649 Z-2.222
X0.068 Y67.682 Z-2.223
X0.046 Y67.709 Z-2.224
X0.015 Y67.724 Z-2.225
X-0.02 Y67.722 Z-2.227
X-0.05 Y67.706 Z-2.228
X-0.07 Y67.678 Z-2.229
X-0.075 Y67.644 Z-2.23
X-0.064 Y67.611 Z-2.232
X-0.04 Y67.587 Z-2.233
X-0.008 Y67.575 Z-2.234
X0.027 Y67.58 Z-2.235
X0.055 Y67.599 Z-2.236
X0.072 Y67.629 Z-2.238
X0.074 Y67.663 Z-2.239
X0.06 Y67.695 Z-2.24
X0.034 Y67.717 Z-2.241
X0 Y67.725 Z-2.242
X-0.033 Y67.717 Z-2.244
X-0.06 Y67.695 Z-2.245
X-0.074 Y67.664 Z-2.246
X-0.072 Y67.629 Z-2.247
X-0.055 Y67.599 Z-2.248
X-0.027 Y67.58 Z-2.25
X0.007 Y67.575 Z-2.251
X0.04 Y67.586 Z-2.252
X0.064 Y67.611 Z-2.253
X0.075 Y67.644 Z-2.255
X0.07 Y67.678 Z-2.256
X0.05 Y67.706 Z-2.257
X0.02 Y67.722 Z-2.258
X-0.014 Y67.724 Z-2.259
X-0.046 Y67.709 Z-2.261
X-0.067 Y67.683 Z-2.262
X-0.075 Y67.649 Z-2.263
X-0.067 Y67.616 Z-2.264
X-0.044 Y67.59 Z-2.265
X-0.013 Y67.576 Z-2.267
X0.022 Y67.578 Z-2.268
X0.051 Y67.595 Z-2.269
X0.07 Y67.624 Z-2.27
X0.075 Y67.658 Z-2.272
X0.063 Y67.691 Z-2.273
X0.038 Y67.715 Z-2.274
X0.005 Y67.725 Z-2.275
X-0.029 Y67.719 Z-2.276
X-0.056 Y67.699 Z-2.278
X-0.073 Y67.669 Z-2.279
Y67.635 Z-2.28
X-0.059 Y67.603 Z-2.281
X-0.032 Y67.582 Z-2.282
X0.002 Y67.575 Z-2.284
X0.035 Y67.584 Z-2.285
X0.061 Y67.606 Z-2.286
X0.074 Y67.638 Z-2.287
X0.072 Y67.673 Z-2.288
X0.054 Y67.702 Z-2.29
X0.025 Y67.721 Z-2.291
X-0.009 Y67.724 Z-2.292
X-0.041 Y67.712 Z-2.293
X-0.065 Y67.687 Z-2.295
X-0.075 Y67.654 Z-2.296
X-0.069 Y67.621 Z-2.297
X-0.049 Y67.593 Z-2.298
X-0.018 Y67.577 Z-2.299
X0.016 Z-2.301
X0.047 Y67.592 Z-2.302
X0.068 Y67.619 Z-2.303
X0.075 Y67.653 Z-2.304
X0.066 Y67.686 Z-2.305
X0.043 Y67.712 Z-2.307
X0.011 Y67.724 Z-2.308
X-0.024 Y67.721 Z-2.309
X-0.053 Y67.703 Z-2.31
X-0.071 Y67.674 Z-2.312
X-0.074 Y67.64 Z-2.313
X-0.062 Y67.608 Z-2.314
X-0.036 Y67.584 Z-2.315
X-0.003 Y67.575 Z-2.316
X0.03 Y67.581 Z-2.318
X0.058 Y67.602 Z-2.319
X0.073 Y67.633 Z-2.32
Y67.667 Z-2.321
X0.057 Y67.698 Z-2.322
X0.03 Y67.719 Z-2.324
X-0.004 Y67.725 Z-2.325
X-0.037 Y67.715 Z-2.326
X-0.062 Y67.692 Z-2.327
X-0.074 Y67.66 Z-2.328
X-0.071 Y67.625 Z-2.33
X-0.052 Y67.596 Z-2.331
X-0.023 Y67.579 Z-2.332
X0.011 Y67.576 Z-2.333
X0.043 Y67.589 Z-2.335
X0.066 Y67.614 Z-2.336
X0.075 Y67.648 Z-2.337
X0.068 Y67.681 Z-2.338
X0.047 Y67.708 Z-2.339
X0.016 Y67.723 Z-2.341
X-0.018 Z-2.342
X-0.049 Y67.707 Z-2.343
X-0.069 Y67.679 Z-2.344
X-0.075 Y67.645 Z-2.345
X-0.065 Y67.612 Z-2.347
X-0.041 Y67.587 Z-2.348
X-0.009 Y67.576 Z-2.349
X0.026 Y67.579 Z-2.35
X0.054 Y67.598 Z-2.352
X0.072 Y67.628 Z-2.353
X0.074 Y67.662 Z-2.354
X0.061 Y67.694 Z-2.355
X0.035 Y67.717 Z-2.356
X0.001 Y67.725 Z-2.358
X-0.032 Y67.718 Z-2.359
X-0.059 Y67.696 Z-2.36
X-0.074 Y67.665 Z-2.361
X-0.072 Y67.631 Z-2.362
X-0.056 Y67.6 Z-2.364
X-0.028 Y67.58 Z-2.365
X0.006 Y67.575 Z-2.366
X0.039 Y67.586 Z-2.367
X0.063 Y67.61 Z-2.368
X0.075 Y67.642 Z-2.37
X0.07 Y67.676 Z-2.371
X0.051 Y67.705 Z-2.372
X0.021 Y67.722 Z-2.373
X-0.013 Y67.724 Z-2.375
X-0.045 Y67.71 Z-2.376
X-0.067 Y67.684 Z-2.377
X-0.075 Y67.65 Z-2.378
X-0.067 Y67.617 Z-2.379
X-0.045 Y67.59 Z-2.381
X-0.014 Y67.576 Z-2.382
X0.02 Y67.578 Z-2.383
X0.051 Y67.595 Z-2.384
X0.07 Y67.623 Z-2.385
X0.075 Y67.657 Z-2.387
X0.064 Y67.69 Z-2.388
X0.039 Y67.714 Z-2.389
X0.007 Y67.725 Z-2.39
X-0.027 Y67.72 Z-2.392
X-0.056 Y67.7 Z-2.393
X-0.072 Y67.67 Z-2.394
X-0.074 Y67.636 Z-2.395
X-0.059 Y67.604 Z-2.396
X-0.033 Y67.583 Z-2.398
X0.001 Y67.575 Z-2.399
X0.034 Y67.583 Z-2.4
X0.06 Y67.605 Z-2.401
X0.074 Y67.637 Z-2.402
X0.072 Y67.671 Z-2.404
X0.055 Y67.701 Z-2.405
X0.026 Y67.72 Z-2.406
X-0.008 Y67.725 Z-2.407
X-0.041 Y67.713 Z-2.408
X-0.064 Y67.688 Z-2.41
X-0.075 Y67.656 Z-2.411
X-0.069 Y67.622 Z-2.412
X-0.049 Y67.594 Z-2.413
X-0.019 Y67.577 Z-2.415
X0.015 Z-2.416
X0.047 Y67.591 Z-2.417
X0.068 Y67.618 Z-2.418
X0.075 Y67.652 Z-2.419
X0.066 Y67.685 Z-2.421
X0.044 Y67.711 Z-2.422
X0.012 Y67.724 Z-2.423
X-0.022 Y67.722 Z-2.424
X-0.052 Y67.704 Z-2.425
X-0.071 Y67.675 Z-2.427
X-0.074 Y67.641 Z-2.428
X-0.063 Y67.609 Z-2.429
X-0.037 Y67.585 Z-2.43
X-0.005 Y67.575 Z-2.432
X0.029 Y67.581 Z-2.433
X0.057 Y67.601 Z-2.434
X0.073 Y67.632 Z-2.435
Y67.666 Z-2.436
X0.058 Y67.697 Z-2.438
X0.031 Y67.718 Z-2.439
X-0.003 Y67.725 Z-2.44
X-0.036 Y67.716 Z-2.441
X-0.062 Y67.693 Z-2.442
X-0.074 Y67.661 Z-2.444
X-0.071 Y67.627 Z-2.445
X-0.053 Y67.597 Z-2.446
X-0.024 Y67.579 Z-2.447
X0.01 Y67.576 Z-2.448
X0.042 Y67.588 Z-2.45
X0.065 Y67.613 Z-2.451
X0.075 Y67.646 Z-2.452
X0.069 Y67.68 Z-2.453
X0.048 Y67.708 Z-2.455
X0.017 Y67.723 Z-2.456
X-0.017 Z-2.457
X-0.048 Y67.708 Z-2.458
X-0.069 Y67.68 Z-2.459
X-0.075 Y67.646 Z-2.461
X-0.065 Y67.613 Z-2.462
X-0.042 Y67.588 Z-2.463
X-0.01 Y67.576 Z-2.464
X0.024 Y67.579 Z-2.465
X0.054 Y67.597 Z-2.467
X0.071 Y67.627 Z-2.468
X0.074 Y67.661 Z-2.469
X0.061 Y67.693 Z-2.47
X0.036 Y67.716 Z-2.472
X0.002 Y67.725 Z-2.473
X-0.031 Y67.718 Z-2.474
X-0.058 Y67.697 Z-2.475
X-0.073 Y67.666 Z-2.476
Y67.632 Z-2.478
X-0.057 Y67.601 Z-2.479
X-0.029 Y67.581 Z-2.48
X0.005 Y67.575 Z-2.481
X0.038 Y67.585 Z-2.482
X0.063 Y67.609 Z-2.484
X0.074 Y67.641 Z-2.485
X0.071 Y67.675 Z-2.486
X0.052 Y67.704 Z-2.487
X0.022 Y67.722 Z-2.488
X-0.012 Y67.724 Z-2.49
X-0.044 Y67.711 Z-2.491
X-0.066 Y67.685 Z-2.492
X-0.075 Y67.651 Z-2.493
X-0.068 Y67.618 Z-2.495
X-0.046 Y67.591 Z-2.496
X-0.015 Y67.577 Z-2.497
X0.019 Y67.578 Z-2.498
X0.05 Y67.594 Z-2.499
X0.07 Y67.622 Z-2.501
X0.075 Y67.656 Z-2.502
X0.064 Y67.689 Z-2.503
X0.04 Y67.713 Z-2.504
X0.008 Y67.725 Z-2.505
X-0.026 Y67.72 Z-2.507
X-0.055 Y67.701 Z-2.508
X-0.072 Y67.671 Z-2.509
X-0.074 Y67.637 Z-2.51
X-0.06 Y67.605 Z-2.512
X-0.034 Y67.583 Z-2.513
X0 Y67.575 Z-2.514
X0.033 Y67.583 Z-2.515
X0.06 Y67.605 Z-2.516
X0.074 Y67.636 Z-2.518
X0.072 Y67.67 Z-2.519
X0.056 Y67.7 Z-2.52
X0.027 Y67.72 Z-2.521
X-0.007 Y67.725 Z-2.522
X-0.04 Y67.714 Z-2.524
X-0.064 Y67.689 Z-2.525
X-0.075 Y67.657 Z-2.526
X-0.07 Y67.623 Z-2.527
X-0.05 Y67.594 Z-2.528
X-0.02 Y67.578 Z-2.53
X0.014 Y67.576 Z-2.531
X0.046 Y67.59 Z-2.532
X0.067 Y67.617 Z-2.533
X0.075 Y67.651 Z-2.535
X0.067 Y67.684 Z-2.536
X0.045 Y67.71 Z-2.537
X0.013 Y67.724 Z-2.538
X-0.021 Y67.722 Z-2.539
X-0.051 Y67.705 Z-2.541
X-0.07 Y67.676 Z-2.542
X-0.075 Y67.642 Z-2.543
X-0.063 Y67.61 Z-2.544
X-0.038 Y67.586 Z-2.545
X-0.006 Y67.575 Z-2.547
X0.028 Y67.581 Z-2.548
X0.056 Y67.6 Z-2.549
X0.073 Y67.631 Z-2.55
Y67.665 Z-2.552
X0.059 Y67.696 Z-2.553
X0.032 Y67.718 Z-2.554
X-0.002 Y67.725 Z-2.555
X-0.035 Y67.716 Z-2.556
X-0.061 Y67.694 Z-2.558
X-0.074 Y67.662 Z-2.559
X-0.072 Y67.628 Z-2.56
X-0.054 Y67.598 Z-2.561
X-0.025 Y67.579 Z-2.562
X0.009 Y67.576 Z-2.564
X0.041 Y67.587 Z-2.565
X0.065 Y67.612 Z-2.566
X0.075 Y67.645 Z-2.567
X0.069 Y67.679 Z-2.568
X0.049 Y67.707 Z-2.57
X0.018 Y67.723 Z-2.571
X-0.016 Z-2.572
X-0.047 Y67.708 Z-2.573
X-0.068 Y67.681 Z-2.575
X-0.075 Y67.647 Z-2.576
X-0.066 Y67.614 Z-2.577
X-0.043 Y67.589 Z-2.578
X-0.011 Y67.576 Z-2.579
X0.023 Y67.579 Z-2.581
X0.053 Y67.597 Z-2.582
X0.071 Y67.626 Z-2.583
X0.074 Y67.66 Z-2.584
X0.062 Y67.692 Z-2.585
X0.037 Y67.715 Z-2.587
X0.004 Y67.725 Z-2.588
X-0.03 Y67.719 Z-2.589
X-0.058 Y67.698 Z-2.59
X-0.073 Y67.667 Z-2.592
Y67.633 Z-2.593
X-0.058 Y67.602 Z-2.594
X-0.03 Y67.581 Z-2.595
X0.004 Y67.575 Z-2.596
X0.037 Y67.585 Z-2.598
X0.062 Y67.608 Z-2.599
X0.074 Y67.64 Z-2.6
X0.071 Y67.674 Z-2.601
X0.053 Y67.703 Z-2.602
X0.023 Y67.721 Z-2.604
X-0.011 Y67.724 Z-2.605
X-0.043 Y67.711 Z-2.606
X-0.066 Y67.686 Z-2.607
X-0.075 Y67.653 Z-2.608
X-0.068 Y67.619 Z-2.61
X-0.047 Y67.592 Z-2.611
X-0.016 Y67.577 Z-2.612
X0.018 Z-2.613
X0.049 Y67.593 Z-2.615
X0.069 Y67.621 Z-2.616
X0.075 Y67.655 Z-2.617
X0.065 Y67.688 Z-2.618
X0.041 Y67.713 Z-2.619
X0.009 Y67.724 Z-2.621
X-0.025 Y67.721 Z-2.622
X-0.054 Y67.702 Z-2.623
X-0.072 Y67.672 Z-2.624
X-0.074 Y67.638 Z-2.625
X-0.061 Y67.606 Z-2.627
X-0.035 Y67.584 Z-2.628
X-0.002 Y67.575 Z-2.629
X0.032 Y67.582 Z-2.63
X0.059 Y67.604 Z-2.632
X0.073 Y67.635 Z-2.633
X0.072 Y67.669 Z-2.634
X0.056 Y67.7 Z-2.635
X0.028 Y67.719 Z-2.636
X-0.006 Y67.725 Z-2.638
X-0.039 Y67.714 Z-2.639
X-0.063 Y67.69 Z-2.64
X-0.075 Y67.658 Z-2.641
X-0.07 Y67.624 Z-2.642
X-0.051 Y67.595 Z-2.644
X-0.021 Y67.578 Z-2.645
X0.013 Y67.576 Z-2.646
X0.045 Y67.59 Z-2.647
X0.067 Y67.616 Z-2.648
X0.075 Y67.649 Z-2.65
X0.067 Y67.683 Z-2.651
X0.046 Y67.71 Z-2.652
X0.014 Y67.724 Z-2.653
X-0.02 Y67.722 Z-2.655
X-0.05 Y67.706 Z-2.656
X-0.07 Y67.677 Z-2.657
X-0.075 Y67.643 Z-2.658
X-0.064 Y67.611 Z-2.659
X-0.039 Y67.586 Z-2.661
X-0.007 Y67.575 Z-2.662
X0.027 Y67.58 Z-2.663
X0.056 Y67.6 Z-2.664
X0.072 Y67.63 Z-2.665
X0.074 Y67.664 Z-2.667
X0.06 Y67.695 Z-2.668
X0.033 Y67.717 Z-2.669
X0 Y67.725 Z-2.67
X-0.034 Y67.717 Z-2.672
X-0.06 Y67.695 Z-2.673
X-0.074 Y67.663 Z-2.674
X-0.072 Y67.629 Z-2.675
X-0.055 Y67.599 Z-2.676
X-0.026 Y67.58 Z-2.678
X0.008 Y67.575 Z-2.679
X0.04 Y67.587 Z-2.68
X0.064 Y67.611 Z-2.681
X0.075 Y67.644 Z-2.682
X0.07 Y67.678 Z-2.684
X0.05 Y67.706 Z-2.685
X0.019 Y67.722 Z-2.686
X-0.015 Y67.723 Z-2.687
X-0.046 Y67.709 Z-2.688
X-0.068 Y67.682 Z-2.69
X-0.075 Y67.648 Z-2.691
X-0.066 Y67.615 Z-2.692
X-0.044 Y67.589 Z-2.693
X-0.012 Y67.576 Z-2.695
X0.022 Y67.578 Z-2.696
X0.052 Y67.596 Z-2.697
X0.071 Y67.625 Z-2.698
X0.074 Y67.659 Z-2.699
X0.063 Y67.691 Z-2.701
X0.038 Y67.715 Z-2.702
X0.005 Y67.725 Z-2.703
X-0.029 Y67.719 Z-2.704
X-0.057 Y67.699 Z-2.705
X-0.073 Y67.668 Z-2.707
Y67.634 Z-2.708
X-0.058 Y67.603 Z-2.709
X-0.031 Y67.582 Z-2.71
X0.003 Y67.575 Z-2.712
X0.036 Y67.584 Z-2.713
X0.061 Y67.607 Z-2.714
X0.074 Y67.639 Z-2.715
X0.071 Y67.673 Z-2.716
X0.053 Y67.703 Z-2.718
X0.024 Y67.721 Z-2.719
X-0.01 Y67.724 Z-2.72
X-0.042 Y67.712 Z-2.721
X-0.065 Y67.687 Z-2.722
X-0.075 Y67.654 Z-2.724
X-0.069 Y67.62 Z-2.725
X-0.048 Y67.592 Z-2.726
X-0.017 Y67.577 Z-2.727
X0.017 Z-2.728
X0.048 Y67.592 Z-2.73
X0.069 Y67.62 Z-2.731
X0.075 Y67.654 Z-2.732
X0.065 Y67.687 Z-2.733
X0.042 Y67.712 Z-2.735
X0.01 Y67.724 Z-2.736
X-0.024 Y67.721 Z-2.737
X-0.053 Y67.703 Z-2.738
X-0.071 Y67.673 Z-2.739
X-0.074 Y67.639 Z-2.741
X-0.062 Y67.607 Z-2.742
X-0.036 Y67.584 Z-2.743
X-0.003 Y67.575 Z-2.744
X0.031 Y67.582 Z-2.745
X0.058 Y67.603 Z-2.747
X0.073 Y67.634 Z-2.748
Y67.668 Z-2.749
X0.057 Y67.699 Z-2.75
X0.029 Y67.719 Z-2.752
X-0.005 Y67.725 Z-2.753
X-0.038 Y67.715 Z-2.754
X-0.063 Y67.691 Z-2.755
X-0.074 Y67.659 Z-2.756
X-0.071 Y67.625 Z-2.758
X-0.052 Y67.596 Z-2.759
X-0.022 Y67.578 Z-2.76
X0.012 Y67.576 Z-2.761
X0.044 Y67.589 Z-2.762
X0.066 Y67.615 Z-2.764
X0.075 Y67.648 Z-2.765
X0.068 Y67.682 Z-2.766
X0.046 Y67.709 Z-2.767
X0.015 Y67.723 Z-2.768
X-0.019 Z-2.77
X-0.049 Y67.706 Z-2.771
X-0.069 Y67.678 Z-2.772
X-0.075 Y67.644 Z-2.773
X-0.064 Y67.612 Z-2.775
X-0.04 Y67.587 Z-2.776
X-0.008 Y67.575 Z-2.777
X0.026 Y67.58 Z-2.778
X0.055 Y67.599 Z-2.779
X0.072 Y67.629 Z-2.781
X0.074 Y67.663 Z-2.782
X0.06 Y67.695 Z-2.783
X0.034 Y67.717 Z-2.784
X0.001 Y67.725 Z-2.785
X-0.033 Y67.717 Z-2.787
X-0.06 Y67.696 Z-2.788
X-0.074 Y67.664 Z-2.789
X-0.072 Y67.63 Z-2.79
X-0.056 Y67.6 Z-2.792
X-0.027 Y67.58 Z-2.793
X0.007 Y67.575 Z-2.794
X0.039 Y67.586 Z-2.795
X0.064 Y67.61 Z-2.796
X0.075 Y67.643 Z-2.798
X0.07 Y67.677 Z-2.799
X0.05 Y67.705 Z-2.8
X0.02 Y67.722 Z-2.801
X-0.014 Y67.724 Z-2.802
X-0.045 Y67.71 Z-2.804
X-0.067 Y67.683 Z-2.805
X-0.075 Y67.65 Z-2.806
X-0.067 Y67.616 Z-2.807
X-0.045 Y67.59 Z-2.808
X-0.013 Y67.576 Z-2.81
X0.021 Y67.578 Z-2.811
X0.051 Y67.595 Z-2.812
X0.07 Y67.624 Z-2.813
X0.075 Y67.658 Z-2.815
X0.063 Y67.69 Z-2.816
X0.039 Y67.714 Z-2.817
X0.006 Y67.725 Z-2.818
X-0.028 Y67.72 Z-2.819
X-0.056 Y67.7 Z-2.821
X-0.072 Y67.669 Z-2.822
X-0.073 Y67.635 Z-2.823
X-0.059 Y67.604 Z-2.824
X-0.032 Y67.582 Z-2.825
X0.001 Y67.575 Z-2.827
X0.035 Y67.584 Z-2.828
X0.061 Y67.606 Z-2.829
X0.074 Y67.638 Z-2.83
X0.072 Y67.672 Z-2.832
X0.054 Y67.702 Z-2.833
X0.025 Y67.721 Z-2.834
X-0.009 Y67.724 Z-2.835
X-0.041 Y67.713 Z-2.836
X-0.065 Y67.688 Z-2.838
X-0.075 Y67.655 Z-2.839
X-0.069 Y67.621 Z-2.84
X-0.049 Y67.593 Z-2.841
X-0.018 Y67.577 Z-2.842
X0.016 Z-2.844
X0.047 Y67.592 Z-2.845
X0.068 Y67.619 Z-2.846
X0.075 Y67.652 Z-2.847
X0.066 Y67.686 Z-2.848
X0.043 Y67.711 Z-2.85
X0.011 Y67.724 Z-2.851
X-0.023 Y67.721 Z-2.852
X-0.052 Y67.704 Z-2.853
X-0.071 Y67.674 Z-2.855
X-0.074 Y67.64 Z-2.856
X-0.062 Y67.608 Z-2.857
X-0.037 Y67.585 Z-2.858
X-0.004 Y67.575 Z-2.859
X0.03 Y67.581 Z-2.861
X0.057 Y67.602 Z-2.862
X0.073 Y67.633 Z-2.863
Y67.667 Z-2.864
X0.058 Y67.698 Z-2.865
X0.03 Y67.719 Z-2.867
X-0.003 Y67.725 Z-2.868
X-0.037 Y67.716 Z-2.869
X-0.062 Y67.692 Z-2.87
X-0.074 Y67.66 Z-2.872
X-0.071 Y67.626 Z-2.873
X-0.053 Y67.597 Z-2.874
X-0.024 Y67.579 Z-2.875
X0.011 Y67.576 Z-2.876
X0.043 Y67.588 Z-2.878
X0.066 Y67.614 Z-2.879
X0.075 Y67.647 Z-2.88
X0.068 Y67.681 Z-2.881
X0.047 Y67.708 Z-2.882
X0.016 Y67.723 Z-2.884
X-0.018 Z-2.885
X-0.049 Y67.707 Z-2.886
X-0.069 Y67.679 Z-2.887
X-0.075 Y67.646 Z-2.888
X-0.065 Y67.613 Z-2.89
X-0.041 Y67.588 Z-2.891
X-0.009 Y67.576 Z-2.892
X0.025 Y67.579 Z-2.893
X0.054 Y67.598 Z-2.895
X0.072 Y67.627 Z-2.896
X0.074 Y67.662 Z-2.897
X0.061 Y67.694 Z-2.898
X0.035 Y67.716 Z-2.899
X0.002 Y67.725 Z-2.901
X-0.032 Y67.718 Z-2.902
X-0.059 Y67.697 Z-2.903
X-0.073 Y67.665 Z-2.904
Y67.631 Z-2.905
X-0.056 Y67.601 Z-2.907
X-0.028 Y67.581 Z-2.908
X0.005 Y67.575 Z-2.909
X0.038 Y67.586 Z-2.91
X0.063 Y67.609 Z-2.912
X0.075 Y67.642 Z-2.913
X0.07 Y67.676 Z-2.914
X0.051 Y67.705 Z-2.915
X0.022 Y67.722 Z-2.916
X-0.013 Y67.724 Z-2.918
X-0.044 Y67.71 Z-2.919
X-0.067 Y67.684 Z-2.92
X-0.075 Y67.651 Z-2.921
X-0.067 Y67.617 Z-2.922
X-0.046 Y67.591 Z-2.924
X-0.014 Y67.576 Z-2.925
X0.02 Y67.578 Z-2.926
X0.05 Y67.594 Z-2.927
X0.07 Y67.622 Z-2.928
X0.075 Y67.657 Z-2.93
X0.064 Y67.689 Z-2.931
X0.04 Y67.714 Z-2.932
X0.007 Y67.725 Z-2.933
X-0.027 Y67.72 Z-2.935
X-0.055 Y67.701 Z-2.936
X-0.072 Y67.671 Z-2.937
X-0.074 Y67.636 Z-2.938
X-0.06 Y67.605 Z-2.939
X-0.033 Y67.583 Z-2.941
X0 Y67.575 Z-2.942
X0.034 Y67.583 Z-2.943
X0.06 Y67.605 Z-2.944
X0.074 Y67.637 Z-2.945
X0.072 Y67.671 Z-2.947
X0.055 Y67.701 Z-2.948
X0.027 Y67.72 Z-2.949
X-0.008 Y67.725 Z-2.95
X-0.04 Y67.713 Z-2.952
X-0.064 Y67.689 Z-2.953
X-0.075 Y67.656 Z-2.954
X-0.07 Y67.622 Z-2.955
X-0.05 Y67.594 Z-2.956
X-0.02 Y67.578 Z-2.958
X0.015 Y67.576 Z-2.959
X0.046 Y67.591 Z-2.96
X0.068 Y67.618 Z-2.961
X0.075 Y67.651 Z-2.962
X0.067 Y67.685 Z-2.964
X0.044 Y67.711 Z-2.965
X0.012 Y67.724 Z-2.966
X-0.022 Y67.722 Z-2.967
X-0.052 Y67.704 Z-2.968
X-0.07 Y67.676 Z-2.97
X-0.075 Y67.641 Z-2.971
X-0.063 Y67.609 Z-2.972
X-0.038 Y67.585 Z-2.973
X-0.005 Y67.575 Z-2.975
X0.029 Y67.581 Z-2.976
X0.057 Y67.601 Z-2.977
X0.073 Y67.631 Z-2.978
Y67.666 Z-2.979
X0.059 Y67.697 Z-2.981
X0.031 Y67.718 Z-2.982
X-0.002 Y67.725 Z-2.983
X-0.035 Y67.716 Z-2.984
X-0.061 Y67.693 Z-2.985
X-0.074 Y67.661 Z-2.987
X-0.071 Y67.627 Z-2.988
X-0.054 Y67.598 Z-2.989
X-0.025 Y67.579 Z-2.99
X0.01 Y67.576 Z-2.992
X0.042 Y67.588 Z-2.993
X0.065 Y67.613 Z-2.994
X0.075 Y67.646 Z-2.995
X0.069 Y67.68 Z-2.996
X0.048 Y67.707 Z-2.998
X0.018 Y67.723 Z-2.999
X-0.017 Z-3
X-0.047 Y67.709 F400
X-0.068 Y67.682
X-0.075 Y67.65
X-0.068 Y67.617
X-0.047 Y67.591
X-0.017 Y67.577
X0.017
X0.047 Y67.591
X0.068 Y67.618
X0.075 Y67.65
X0.068 Y67.683
X0.047 Y67.709
X0.017 Y67.723
X-0.017
X-0.048 Y67.708 Z-3.001 F333.3
X-0.069 Y67.68 Z-3.002
X-0.075 Y67.647 Z-3.004
X-0.066 Y67.614 Z-3.005
X-0.042 Y67.588 Z-3.006
X-0.01 Y67.576 Z-3.007
X0.024 Y67.579 Z-3.008
X0.053 Y67.597 Z-3.01
X0.071 Y67.626 Z-3.011
X0.074 Y67.661 Z-3.012
X0.062 Y67.693 Z-3.013
X0.036 Y67.716 Z-3.015
X0.003 Y67.725 Z-3.016
X-0.031 Y67.718 Z-3.017
X-0.058 Y67.697 Z-3.018
X-0.073 Y67.667 Z-3.019
Y67.632 Z-3.021
X-0.057 Y67.602 Z-3.022
X-0.03 Y67.581 Z-3.023
X0.004 Y67.575 Z-3.024
X0.037 Y67.585 Z-3.025
X0.062 Y67.608 Z-3.027
X0.074 Y67.641 Z-3.028
X0.071 Y67.675 Z-3.029
X0.052 Y67.704 Z-3.03
X0.023 Y67.721 Z-3.032
X-0.012 Y67.724 Z-3.033
X-0.043 Y67.711 Z-3.034
X-0.066 Y67.685 Z-3.035
X-0.075 Y67.652 Z-3.036
X-0.068 Y67.618 Z-3.038
X-0.047 Y67.591 Z-3.039
X-0.016 Y67.577 Z-3.04
X0.019 Z-3.041
X0.049 Y67.593 Z-3.042
X0.069 Y67.621 Z-3.044
X0.075 Y67.655 Z-3.045
X0.065 Y67.688 Z-3.046
X0.041 Y67.713 Z-3.047
X0.008 Y67.725 Z-3.048
X-0.026 Y67.72 Z-3.05
X-0.055 Y67.701 Z-3.051
X-0.072 Y67.672 Z-3.052
X-0.074 Y67.637 Z-3.053
X-0.06 Y67.606 Z-3.055
X-0.034 Y67.583 Z-3.056
X-0.001 Y67.575 Z-3.057
X0.033 Y67.582 Z-3.058
X0.059 Y67.604 Z-3.059
X0.074 Y67.635 Z-3.061
X0.072 Y67.67 Z-3.062
X0.056 Y67.7 Z-3.063
X0.028 Y67.72 Z-3.064
X-0.006 Y67.725 Z-3.065
X-0.039 Y67.714 Z-3.067
X-0.064 Y67.69 Z-3.068
X-0.075 Y67.657 Z-3.069
X-0.07 Y67.623 Z-3.07
X-0.051 Y67.595 Z-3.072
X-0.021 Y67.578 Z-3.073
X0.014 Y67.576 Z-3.074
X0.045 Y67.59 Z-3.075
X0.067 Y67.617 Z-3.076
X0.075 Y67.65 Z-3.078
X0.067 Y67.684 Z-3.079
X0.045 Y67.71 Z-3.08
X0.014 Y67.724 Z-3.081
X-0.021 Y67.722 Z-3.082
X-0.051 Y67.705 Z-3.084
X-0.07 Y67.677 Z-3.085
X-0.075 Y67.643 Z-3.086
X-0.063 Y67.61 Z-3.087
X-0.039 Y67.586 Z-3.088
X-0.006 Y67.575 Z-3.09
X0.028 Y67.58 Z-3.091
X0.056 Y67.6 Z-3.092
X0.072 Y67.63 Z-3.093
X0.074 Y67.665 Z-3.095
X0.059 Y67.696 Z-3.096
X0.032 Y67.718 Z-3.097
X-0.001 Y67.725 Z-3.098
X-0.034 Y67.717 Z-3.099
X-0.061 Y67.694 Z-3.101
X-0.074 Y67.663 Z-3.102
X-0.072 Y67.628 Z-3.103
X-0.054 Y67.598 Z-3.104
X-0.026 Y67.58 Z-3.105
X0.008 Y67.575 Z-3.107
X0.041 Y67.587 Z-3.108
X0.065 Y67.612 Z-3.109
X0.075 Y67.645 Z-3.11
X0.069 Y67.679 Z-3.112
X0.049 Y67.707 Z-3.113
X0.019 Y67.723 Z-3.114
X-0.016 Z-3.115
X-0.047 Y67.709 Z-3.116
X-0.068 Y67.682 Z-3.118
X-0.075 Y67.648 Z-3.119
X-0.066 Y67.615 Z-3.12
X-0.043 Y67.589 Z-3.121
X-0.011 Y67.576 Z-3.122
X0.023 Y67.579 Z-3.124
X0.052 Y67.596 Z-3.125
X0.071 Y67.625 Z-3.126
X0.074 Y67.659 Z-3.127
X0.062 Y67.692 Z-3.128
X0.037 Y67.715 Z-3.13
X0.004 Y67.725 Z-3.131
X-0.03 Y67.719 Z-3.132
X-0.057 Y67.698 Z-3.133
X-0.073 Y67.668 Z-3.135
Y67.633 Z-3.136
X-0.058 Y67.602 Z-3.137
X-0.031 Y67.582 Z-3.138
X0.003 Y67.575 Z-3.139
X0.036 Y67.584 Z-3.141
X0.062 Y67.607 Z-3.142
X0.074 Y67.64 Z-3.143
X0.071 Y67.674 Z-3.144
X0.053 Y67.703 Z-3.145
X0.024 Y67.721 Z-3.147
X-0.01 Y67.724 Z-3.148
X-0.043 Y67.712 Z-3.149
X-0.066 Y67.686 Z-3.15
X-0.075 Y67.653 Z-3.152
X-0.068 Y67.619 Z-3.153
X-0.048 Y67.592 Z-3.154
X-0.017 Y67.577 Z-3.155
X0.018 Z-3.156
X0.048 Y67.593 Z-3.158
X0.069 Y67.62 Z-3.159
X0.075 Y67.654 Z-3.16
X0.065 Y67.687 Z-3.161
X0.042 Y67.712 Z-3.162
X0.009 Y67.724 Z-3.164
X-0.025 Y67.721 Z-3.165
X-0.054 Y67.702 Z-3.166
X-0.071 Y67.673 Z-3.167
X-0.074 Y67.638 Z-3.168
X-0.061 Y67.607 Z-3.17
X-0.035 Y67.584 Z-3.171
X-0.002 Y67.575 Z-3.172
X0.032 Y67.582 Z-3.173
X0.059 Y67.603 Z-3.175
X0.073 Y67.634 Z-3.176
Y67.669 Z-3.177
X0.057 Y67.699 Z-3.178
X0.029 Y67.719 Z-3.179
X-0.005 Y67.725 Z-3.181
X-0.038 Y67.715 Z-3.182
X-0.063 Y67.691 Z-3.183
X-0.075 Y67.658 Z-3.184
X-0.07 Y67.624 Z-3.185
X-0.052 Y67.596 Z-3.187
X-0.022 Y67.578 Z-3.188
X0.013 Y67.576 Z-3.189
X0.044 Y67.589 Z-3.19
X0.067 Y67.616 Z-3.192
X0.075 Y67.649 Z-3.193
X0.068 Y67.683 Z-3.194
X0.046 Y67.709 Z-3.195
X0.015 Y67.724 Z-3.196
X-0.02 Y67.722 Z-3.198
X-0.05 Y67.706 Z-3.199
X-0.07 Y67.678 Z-3.2
X-0.075 Y67.644 Z-3.201
X-0.064 Y67.611 Z-3.202
X-0.04 Y67.587 Z-3.204
X-0.007 Y67.575 Z-3.205
X0.027 Y67.58 Z-3.206
X0.055 Y67.599 Z-3.207
X0.072 Y67.629 Z-3.208
X0.074 Y67.664 Z-3.21
X0.06 Y67.695 Z-3.211
X0.034 Y67.717 Z-3.212
X0 Y67.725 Z-3.213
X-0.033 Y67.717 Z-3.215
X-0.06 Y67.695 Z-3.216
X-0.074 Y67.664 Z-3.217
X-0.072 Y67.629 Z-3.218
X-0.055 Y67.599 Z-3.219
X-0.027 Y67.58 Z-3.221
X0.007 Y67.575 Z-3.222
X0.04 Y67.586 Z-3.223
X0.064 Y67.611 Z-3.224
X0.075 Y67.644 Z-3.225
X0.07 Y67.678 Z-3.227
X0.05 Y67.706 Z-3.228
X0.02 Y67.722 Z-3.229
X-0.015 Y67.724 Z-3.23
X-0.046 Y67.709 Z-3.232
X-0.068 Y67.683 Z-3.233
X-0.075 Y67.649 Z-3.234
X-0.067 Y67.616 Z-3.235
X-0.044 Y67.589 Z-3.236
X-0.013 Y67.576 Z-3.238
X0.022 Y67.578 Z-3.239
X0.051 Y67.595 Z-3.24
X0.07 Y67.624 Z-3.241
X0.075 Y67.658 Z-3.242
X0.063 Y67.691 Z-3.244
X0.038 Y67.715 Z-3.245
X0.005 Y67.725 Z-3.246
X-0.029 Y67.719 Z-3.247
X-0.057 Y67.699 Z-3.248
X-0.073 Y67.669 Z-3.25
Y67.634 Z-3.251
X-0.059 Y67.603 Z-3.252
X-0.032 Y67.582 Z-3.253
X0.002 Y67.575 Z-3.255
X0.035 Y67.584 Z-3.256
X0.061 Y67.607 Z-3.257
X0.074 Y67.638 Z-3.258
X0.071 Y67.673 Z-3.259
X0.054 Y67.702 Z-3.261
X0.025 Y67.721 Z-3.262
X-0.009 Y67.724 Z-3.263
X-0.042 Y67.712 Z-3.264
X-0.065 Y67.687 Z-3.265
X-0.075 Y67.654 Z-3.267
X-0.069 Y67.62 Z-3.268
X-0.048 Y67.593 Z-3.269
X-0.018 Y67.577 Z-3.27
X0.017 Z-3.272
X0.047 Y67.592 Z-3.273
X0.068 Y67.619 Z-3.274
X0.075 Y67.653 Z-3.275
X0.066 Y67.686 Z-3.276
X0.043 Y67.712 Z-3.278
X0.011 Y67.724 Z-3.279
X-0.024 Y67.721 Z-3.28
X-0.053 Y67.703 Z-3.281
X-0.071 Y67.674 Z-3.282
X-0.074 Y67.64 Z-3.284
X-0.062 Y67.608 Z-3.285
X-0.036 Y67.584 Z-3.286
X-0.003 Y67.575 Z-3.287
X0.031 Y67.581 Z-3.288
X0.058 Y67.602 Z-3.29
X0.073 Y67.633 Z-3.291
Y67.668 Z-3.292
X0.057 Y67.698 Z-3.293
X0.03 Y67.719 Z-3.295
X-0.004 Y67.725 Z-3.296
X-0.037 Y67.715 Z-3.297
X-0.062 Y67.692 Z-3.298
X-0.074 Y67.66 Z-3.299
X-0.071 Y67.625 Z-3.301
X-0.052 Y67.596 Z-3.302
X-0.023 Y67.579 Z-3.303
X0.011 Y67.576 Z-3.304
X0.043 Y67.589 Z-3.305
X0.066 Y67.615 Z-3.307
X0.075 Y67.648 Z-3.308
X0.068 Y67.681 Z-3.309
X0.047 Y67.709 Z-3.31
X0.016 Y67.723 Z-3.312
X-0.019 Z-3.313
X-0.049 Y67.707 Z-3.314
X-0.069 Y67.679 Z-3.315
X-0.075 Y67.645 Z-3.316
X-0.065 Y67.612 Z-3.318
X-0.041 Y67.587 Z-3.319
X-0.009 Y67.575 Z-3.32
X0.026 Y67.58 Z-3.321
X0.054 Y67.598 Z-3.322
X0.072 Y67.628 Z-3.324
X0.074 Y67.662 Z-3.325
X0.061 Y67.694 Z-3.326
X0.035 Y67.717 Z-3.327
X0.001 Y67.725 Z-3.328
X-0.032 Y67.718 Z-3.33
X-0.059 Y67.696 Z-3.331
X-0.074 Y67.665 Z-3.332
X-0.072 Y67.63 Z-3.333
X-0.056 Y67.6 Z-3.335
X-0.028 Y67.58 Z-3.336
X0.006 Y67.575 Z-3.337
X0.039 Y67.586 Z-3.338
X0.063 Y67.61 Z-3.339
X0.075 Y67.642 Z-3.341
X0.07 Y67.677 Z-3.342
X0.051 Y67.705 Z-3.343
X0.021 Y67.722 Z-3.344
X-0.013 Y67.724 Z-3.345
X-0.045 Y67.71 Z-3.347
X-0.067 Y67.684 Z-3.348
X-0.075 Y67.65 Z-3.349
X-0.067 Y67.617 Z-3.35
X-0.045 Y67.59 Z-3.352
X-0.014 Y67.576 Z-3.353
X0.021 Y67.578 Z-3.354
X0.051 Y67.595 Z-3.355
X0.07 Y67.623 Z-3.356
X0.075 Y67.657 Z-3.358
X0.064 Y67.69 Z-3.359
X0.039 Y67.714 Z-3.36
X0.007 Y67.725 Z-3.361
X-0.028 Y67.72 Z-3.362
X-0.056 Y67.7 Z-3.364
X-0.072 Y67.67 Z-3.365
X-0.074 Y67.636 Z-3.366
X-0.059 Y67.604 Z-3.367
X-0.033 Y67.583 Z-3.368
X0.001 Y67.575 Z-3.37
X0.034 Y67.583 Z-3.371
X0.06 Y67.606 Z-3.372
X0.074 Y67.637 Z-3.373
X0.072 Y67.672 Z-3.375
X0.055 Y67.701 Z-3.376
X0.026 Y67.72 Z-3.377
X-0.008 Y67.725 Z-3.378
X-0.041 Y67.713 Z-3.379
X-0.064 Y67.688 Z-3.381
X-0.075 Y67.655 Z-3.382
X-0.069 Y67.622 Z-3.383
X-0.049 Y67.594 Z-3.384
X-0.019 Y67.577 Z-3.385
X0.015 Z-3.387
X0.047 Y67.591 Z-3.388
X0.068 Y67.618 Z-3.389
X0.075 Y67.652 Z-3.39
X0.066 Y67.685 Z-3.392
X0.044 Y67.711 Z-3.393
X0.012 Y67.724 Z-3.394
X-0.023 Y67.722 Z-3.395
X-0.052 Y67.704 Z-3.396
X-0.071 Y67.675 Z-3.398
X-0.074 Y67.641 Z-3.399
X-0.062 Y67.609 Z-3.4
X-0.037 Y67.585 Z-3.401
X-0.004 Y67.575 Z-3.402
X0.029 Y67.581 Z-3.404
X0.057 Y67.601 Z-3.405
X0.073 Y67.632 Z-3.406
Y67.666 Z-3.407
X0.058 Y67.697 Z-3.408
X0.031 Y67.718 Z-3.41
X-0.003 Y67.725 Z-3.411
X-0.036 Y67.716 Z-3.412
X-0.062 Y67.693 Z-3.413
X-0.074 Y67.661 Z-3.415
X-0.071 Y67.626 Z-3.416
X-0.053 Y67.597 Z-3.417
X-0.024 Y67.579 Z-3.418
X0.01 Y67.576 Z-3.419
X0.042 Y67.588 Z-3.421
X0.066 Y67.613 Z-3.422
X0.075 Y67.647 Z-3.423
X0.069 Y67.68 Z-3.424
X0.048 Y67.708 Z-3.425
X0.017 Y67.723 Z-3.427
X-0.017 Z-3.428
X-0.048 Y67.707 Z-3.429
X-0.069 Y67.68 Z-3.43
X-0.075 Y67.646 Z-3.432
X-0.065 Y67.613 Z-3.433
X-0.042 Y67.588 Z-3.434
X-0.01 Y67.576 Z-3.435
X0.025 Y67.579 Z-3.436
X0.054 Y67.598 Z-3.438
X0.071 Y67.627 Z-3.439
X0.074 Y67.661 Z-3.44
X0.061 Y67.693 Z-3.441
X0.036 Y67.716 Z-3.442
X0.002 Y67.725 Z-3.444
X-0.031 Y67.718 Z-3.445
X-0.058 Y67.697 Z-3.446
X-0.073 Y67.666 Z-3.447
Y67.632 Z-3.448
X-0.057 Y67.601 Z-3.45
X-0.029 Y67.581 Z-3.451
X0.005 Y67.575 Z-3.452
X0.038 Y67.585 Z-3.453
X0.063 Y67.609 Z-3.455
X0.074 Y67.641 Z-3.456
X0.071 Y67.675 Z-3.457
X0.052 Y67.704 Z-3.458
X0.022 Y67.722 Z-3.459
X-0.012 Y67.724 Z-3.461
X-0.044 Y67.711 Z-3.462
X-0.066 Y67.685 Z-3.463
X-0.075 Y67.651 Z-3.464
X-0.068 Y67.618 Z-3.465
X-0.046 Y67.591 Z-3.467
X-0.015 Y67.577 Z-3.468
X0.019 Y67.578 Z-3.469
X0.05 Y67.594 Z-3.47
X0.07 Y67.622 Z-3.472
X0.075 Y67.656 Z-3.473
X0.064 Y67.689 Z-3.474
X0.04 Y67.713 Z-3.475
X0.008 Y67.725 Z-3.476
X-0.026 Y67.72 Z-3.478
X-0.055 Y67.701 Z-3.479
X-0.072 Y67.671 Z-3.48
X-0.074 Y67.637 Z-3.481
X-0.06 Y67.605 Z-3.482
X-0.034 Y67.583 Z-3.484
X0 Y67.575 Z-3.485
X0.033 Y67.583 Z-3.486
X0.06 Y67.605 Z-3.487
X0.074 Y67.636 Z-3.488
X0.072 Y67.67 Z-3.49
X0.055 Y67.701 Z-3.491
X0.027 Y67.72 Z-3.492
X-0.007 Y67.725 Z-3.493
X-0.04 Y67.714 Z-3.495
X-0.064 Y67.689 Z-3.496
X-0.075 Y67.657 Z-3.497
X-0.07 Y67.623 Z-3.498
X-0.05 Y67.594 Z-3.499
X-0.02 Y67.578 Z-3.501
X0.014 Y67.576 Z-3.502
X0.046 Y67.591 Z-3.503
X0.067 Y67.617 Z-3.504
X0.075 Y67.651 Z-3.505
X0.067 Y67.684 Z-3.507
X0.045 Y67.71 Z-3.508
X0.013 Y67.724 Z-3.509
X-0.021 Y67.722 Z-3.51
X-0.051 Y67.705 Z-3.512
X-0.07 Y67.676 Z-3.513
X-0.075 Y67.642 Z-3.514
X-0.063 Y67.61 Z-3.515
X-0.038 Y67.586 Z-3.516
X-0.006 Y67.575 Z-3.518
X0.028 Y67.581 Z-3.519
X0.056 Y67.601 Z-3.52
X0.073 Y67.631 Z-3.521
Y67.665 Z-3.522
X0.059 Y67.696 Z-3.524
X0.032 Y67.718 Z-3.525
X-0.002 Y67.725 Z-3.526
X-0.035 Y67.716 Z-3.527
X-0.061 Y67.694 Z-3.528
X-0.074 Y67.662 Z-3.53
X-0.072 Y67.628 Z-3.531
X-0.054 Y67.598 Z-3.532
X-0.025 Y67.579 Z-3.533
X0.009 Y67.576 Z-3.535
X0.041 Y67.587 Z-3.536
X0.065 Y67.612 Z-3.537
X0.075 Y67.645 Z-3.538
X0.069 Y67.679 Z-3.539
X0.049 Y67.707 Z-3.541
X0.018 Y67.723 Z-3.542
X-0.016 Z-3.543
X-0.047 Y67.708 Z-3.544
X-0.068 Y67.681 Z-3.545
X-0.075 Y67.647 Z-3.547
X-0.066 Y67.614 Z-3.548
X-0.043 Y67.588 Z-3.549
X-0.011 Y67.576 Z-3.55
X0.023 Y67.579 Z-3.552
X0.053 Y67.597 Z-3.553
X0.071 Y67.626 Z-3.554
X0.074 Y67.66 Z-3.555
X0.062 Y67.692 Z-3.556
X0.037 Y67.715 Z-3.558
X0.004 Y67.725 Z-3.559
X-0.03 Y67.719 Z-3.56
X-0.058 Y67.698 Z-3.561
X-0.073 Y67.667 Z-3.562
Y67.633 Z-3.564
X-0.058 Y67.602 Z-3.565
X-0.03 Y67.581 Z-3.566
X0.004 Y67.575 Z-3.567
X0.037 Y67.585 Z-3.568
X0.062 Y67.608 Z-3.57
X0.074 Y67.64 Z-3.571
X0.071 Y67.674 Z-3.572
X0.053 Y67.703 Z-3.573
X0.023 Y67.721 Z-3.575
X-0.011 Y67.724 Z-3.576
X-0.043 Y67.711 Z-3.577
X-0.066 Y67.686 Z-3.578
X-0.075 Y67.653 Z-3.579
X-0.068 Y67.619 Z-3.581
X-0.047 Y67.592 Z-3.582
X-0.016 Y67.577 Z-3.583
X0.018 Z-3.584
X0.049 Y67.593 Z-3.585
X0.069 Y67.621 Z-3.587
X0.075 Y67.655 Z-3.588
X0.065 Y67.688 Z-3.589
X0.041 Y67.713 Z-3.59
X0.009 Y67.724 Z-3.592
X-0.025 Y67.721 Z-3.593
X-0.054 Y67.702 Z-3.594
X-0.072 Y67.672 Z-3.595
X-0.074 Y67.638 Z-3.596
X-0.061 Y67.606 Z-3.598
X-0.035 Y67.584 Z-3.599
X-0.001 Y67.575 Z-3.6
X0.032 Y67.582 Z-3.601
X0.059 Y67.604 Z-3.602
X0.073 Y67.635 Z-3.604
X0.072 Y67.669 Z-3.605
X0.056 Y67.7 Z-3.606
X0.028 Y67.72 Z-3.607
X-0.006 Y67.725 Z-3.608
X-0.039 Y67.714 Z-3.61
X-0.063 Y67.69 Z-3.611
X-0.075 Y67.658 Z-3.612
X-0.07 Y67.624 Z-3.613
X-0.051 Y67.595 Z-3.615
X-0.021 Y67.578 Z-3.616
X0.013 Y67.576 Z-3.617
X0.045 Y67.59 Z-3.618
X0.067 Y67.616 Z-3.619
X0.075 Y67.65 Z-3.621
X0.067 Y67.683 Z-3.622
X0.045 Y67.71 Z-3.623
X0.014 Y67.724 Z-3.624
X-0.02 Y67.722 Z-3.625
X-0.05 Y67.706 Z-3.627
X-0.07 Y67.677 Z-3.628
X-0.075 Y67.643 Z-3.629
X-0.064 Y67.61 Z-3.63
X-0.039 Y67.586 Z-3.632
X-0.007 Y67.575 Z-3.633
X0.027 Y67.58 Z-3.634
X0.056 Y67.6 Z-3.635
X0.072 Y67.63 Z-3.636
X0.074 Y67.664 Z-3.638
X0.06 Y67.696 Z-3.639
X0.033 Y67.717 Z-3.64
X-0.001 Y67.725 Z-3.641
X-0.034 Y67.717 Z-3.642
X-0.06 Y67.695 Z-3.644
X-0.074 Y67.663 Z-3.645
X-0.072 Y67.629 Z-3.646
X-0.055 Y67.599 Z-3.647
X-0.026 Y67.58 Z-3.648
X0.008 Y67.575 Z-3.65
X0.04 Y67.587 Z-3.651
X0.064 Y67.611 Z-3.652
X0.075 Y67.644 Z-3.653
X0.069 Y67.678 Z-3.655
X0.05 Y67.706 Z-3.656
X0.019 Y67.722 Z-3.657
X-0.015 Y67.723 Z-3.658
X-0.046 Y67.709 Z-3.659
X-0.068 Y67.682 Z-3.661
X-0.075 Y67.648 Z-3.662
X-0.066 Y67.615 Z-3.663
X-0.044 Y67.589 Z-3.664
X-0.012 Y67.576 Z-3.665
X0.022 Y67.578 Z-3.667
X0.052 Y67.596 Z-3.668
X0.071 Y67.625 Z-3.669
X0.074 Y67.659 Z-3.67
X0.063 Y67.691 Z-3.672
X0.038 Y67.715 Z-3.673
X0.005 Y67.725 Z-3.674
X-0.029 Y67.719 Z-3.675
X-0.057 Y67.699 Z-3.676
X-0.073 Y67.668 Z-3.678
Y67.634 Z-3.679
X-0.058 Y67.603 Z-3.68
X-0.031 Y67.582 Z-3.681
X0.003 Y67.575 Z-3.682
X0.036 Y67.584 Z-3.684
X0.061 Y67.607 Z-3.685
X0.074 Y67.639 Z-3.686
X0.071 Y67.673 Z-3.687
X0.053 Y67.703 Z-3.688
X0.024 Y67.721 Z-3.69
X-0.01 Y67.724 Z-3.691
X-0.042 Y67.712 Z-3.692
X-0.065 Y67.687 Z-3.693
X-0.075 Y67.654 Z-3.695
X-0.069 Y67.62 Z-3.696
X-0.048 Y67.592 Z-3.697
X-0.017 Y67.577 Z-3.698
X0.017 Z-3.699
X0.048 Y67.592 Z-3.701
X0.069 Y67.62 Z-3.702
X0.075 Y67.654 Z-3.703
X0.065 Y67.687 Z-3.704
X0.042 Y67.712 Z-3.705
X0.01 Y67.724 Z-3.707
X-0.024 Y67.721 Z-3.708
X-0.053 Y67.703 Z-3.709
X-0.071 Y67.673 Z-3.71
X-0.074 Y67.639 Z-3.712
X-0.061 Y67.607 Z-3.713
X-0.036 Y67.584 Z-3.714
X-0.003 Y67.575 Z-3.715
X0.031 Y67.582 Z-3.716
X0.058 Y67.603 Z-3.718
X0.073 Y67.634 Z-3.719
Y67.668 Z-3.72
X0.057 Y67.699 Z-3.721
X0.029 Y67.719 Z-3.722
X-0.005 Y67.725 Z-3.724
X-0.038 Y67.715 Z-3.725
X-0.063 Y67.691 Z-3.726
X-0.074 Y67.659 Z-3.727
X-0.071 Y67.625 Z-3.728
X-0.052 Y67.596 Z-3.73
X-0.022 Y67.578 Z-3.731
X0.012 Y67.576 Z-3.732
X0.044 Y67.589 Z-3.733
X0.066 Y67.615 Z-3.735
X0.075 Y67.648 Z-3.736
X0.068 Y67.682 Z-3.737
X0.046 Y67.709 Z-3.738
X0.015 Y67.723 Z-3.739
X-0.019 Z-3.741
X-0.05 Y67.706 Z-3.742
X-0.069 Y67.678 Z-3.743
X-0.075 Y67.644 Z-3.744
X-0.064 Y67.611 Z-3.745
X-0.04 Y67.587 Z-3.747
X-0.008 Y67.575 Z-3.748
X0.026 Y67.58 Z-3.749
X0.055 Y67.599 Z-3.75
X0.072 Y67.629 Z-3.752
X0.074 Y67.663 Z-3.753
X0.06 Y67.695 Z-3.754
X0.034 Y67.717 Z-3.755
X0.001 Y67.725 Z-3.756
X-0.033 Y67.717 Z-3.758
X-0.06 Y67.696 Z-3.759
X-0.074 Y67.664 Z-3.76
X-0.072 Y67.63 Z-3.761
X-0.056 Y67.6 Z-3.762
X-0.027 Y67.58 Z-3.764
X0.007 Y67.575 Z-3.765
X0.039 Y67.586 Z-3.766
X0.064 Y67.61 Z-3.767
X0.075 Y67.643 Z-3.768
X0.07 Y67.677 Z-3.77
X0.05 Y67.706 Z-3.771
X0.02 Y67.722 Z-3.772
X-0.014 Y67.724 Z-3.773
X-0.045 Y67.71 Z-3.775
X-0.067 Y67.683 Z-3.776
X-0.075 Y67.65 Z-3.777
X-0.067 Y67.616 Z-3.778
X-0.045 Y67.59 Z-3.779
X-0.013 Y67.576 Z-3.781
X0.021 Y67.578 Z-3.782
X0.051 Y67.595 Z-3.783
X0.07 Y67.624 Z-3.784
X0.075 Y67.658 Z-3.785
X0.063 Y67.69 Z-3.787
X0.039 Y67.714 Z-3.788
X0.006 Y67.725 Z-3.789
X-0.028 Y67.72 Z-3.79
X-0.056 Y67.7 Z-3.792
X-0.072 Y67.669 Z-3.793
X-0.073 Y67.635 Z-3.794
X-0.059 Y67.604 Z-3.795
X-0.032 Y67.582 Z-3.796
X0.001 Y67.575 Z-3.798
X0.035 Y67.584 Z-3.799
X0.061 Y67.606 Z-3.8
X0.074 Y67.638 Z-3.801
X0.072 Y67.672 Z-3.802
X0.054 Y67.702 Z-3.804
X0.025 Y67.721 Z-3.805
X-0.009 Y67.724 Z-3.806
X-0.041 Y67.713 Z-3.807
X-0.065 Y67.688 Z-3.808
X-0.075 Y67.655 Z-3.81
X-0.069 Y67.621 Z-3.811
X-0.049 Y67.593 Z-3.812
X-0.018 Y67.577 Z-3.813
X0.016 Z-3.815
X0.047 Y67.592 Z-3.816
X0.068 Y67.619 Z-3.817
X0.075 Y67.653 Z-3.818
X0.066 Y67.686 Z-3.819
X0.043 Y67.711 Z-3.821
X0.011 Y67.724 Z-3.822
X-0.023 Y67.721 Z-3.823
X-0.053 Y67.703 Z-3.824
X-0.071 Y67.674 Z-3.825
X-0.074 Y67.64 Z-3.827
X-0.062 Y67.608 Z-3.828
X-0.037 Y67.585 Z-3.829
X-0.004 Y67.575 Z-3.83
X0.03 Y67.581 Z-3.832
X0.058 Y67.602 Z-3.833
X0.073 Y67.633 Z-3.834
Y67.667 Z-3.835
X0.058 Y67.698 Z-3.836
X0.03 Y67.719 Z-3.838
X-0.004 Y67.725 Z-3.839
X-0.037 Y67.715 Z-3.84
X-0.062 Y67.692 Z-3.841
X-0.074 Y67.66 Z-3.842
X-0.071 Y67.626 Z-3.844
X-0.053 Y67.597 Z-3.845
X-0.023 Y67.579 Z-3.846
X0.011 Y67.576 Z-3.847
X0.043 Y67.588 Z-3.848
X0.066 Y67.614 Z-3.85
X0.075 Y67.647 Z-3.851
X0.068 Y67.681 Z-3.852
X0.047 Y67.708 Z-3.853
X0.016 Y67.723 Z-3.855
X-0.018 Z-3.856
X-0.049 Y67.707 Z-3.857
X-0.069 Y67.679 Z-3.858
X-0.075 Y67.645 Z-3.859
X-0.065 Y67.612 Z-3.861
X-0.041 Y67.587 Z-3.862
X-0.009 Y67.576 Z-3.863
X0.025 Y67.579 Z-3.864
X0.054 Y67.598 Z-3.865
X0.072 Y67.628 Z-3.867
X0.074 Y67.662 Z-3.868
X0.061 Y67.694 Z-3.869
X0.035 Y67.716 Z-3.87
X0.002 Y67.725 Z-3.872
X-0.032 Y67.718 Z-3.873
X-0.059 Y67.696 Z-3.874
X-0.073 Y67.665 Z-3.875
Y67.631 Z-3.876
X-0.056 Y67.601 Z-3.878
X-0.028 Y67.581 Z-3.879
X0.006 Y67.575 Z-3.88
X0.038 Y67.586 Z-3.881
X0.063 Y67.609 Z-3.882
X0.075 Y67.642 Z-3.884
X0.07 Y67.676 Z-3.885
X0.051 Y67.705 Z-3.886
X0.021 Y67.722 Z-3.887
X-0.013 Y67.724 Z-3.888
X-0.045 Y67.71 Z-3.89
X-0.067 Y67.684 Z-3.891
X-0.075 Y67.651 Z-3.892
X-0.067 Y67.617 Z-3.893
X-0.046 Y67.591 Z-3.895
X-0.014 Y67.576 Z-3.896
X0.02 Y67.578 Z-3.897
X0.05 Y67.594 Z-3.898
X0.07 Y67.623 Z-3.899
X0.075 Y67.657 Z-3.901
X0.064 Y67.689 Z-3.902
X0.04 Y67.714 Z-3.903
X0.007 Y67.725 Z-3.904
X-0.027 Y67.72 Z-3.905
X-0.055 Y67.701 Z-3.907
X-0.072 Y67.67 Z-3.908
X-0.074 Y67.636 Z-3.909
X-0.06 Y67.605 Z-3.91
X-0.033 Y67.583 Z-3.912
X0 Y67.575 Z-3.913
X0.034 Y67.583 Z-3.914
X0.06 Y67.605 Z-3.915
X0.074 Y67.637 Z-3.916
X0.072 Y67.671 Z-3.918
X0.055 Y67.701 Z-3.919
X0.026 Y67.72 Z-3.92
X-0.008 Y67.725 Z-3.921
X-0.04 Y67.713 Z-3.922
X-0.064 Y67.689 Z-3.924
X-0.075 Y67.656 Z-3.925
X-0.07 Y67.622 Z-3.926
X-0.05 Y67.594 Z-3.927
X-0.019 Y67.578 Z-3.928
X0.015 Y67.577 Z-3.93
X0.046 Y67.591 Z-3.931
X0.068 Y67.618 Z-3.932
X0.075 Y67.651 Z-3.933
X0.067 Y67.685 Z-3.935
X0.044 Y67.711 Z-3.936
X0.012 Y67.724 Z-3.937
X-0.022 Y67.722 Z-3.938
X-0.052 Y67.704 Z-3.939
X-0.071 Y67.675 Z-3.941
X-0.074 Y67.641 Z-3.942
X-0.063 Y67.609 Z-3.943
X-0.038 Y67.585 Z-3.944
X-0.005 Y67.575 Z-3.945
X0.029 Y67.581 Z-3.947
X0.057 Y67.601 Z-3.948
X0.073 Y67.632 Z-3.949
Y67.666 Z-3.95
X0.058 Y67.697 Z-3.952
X0.031 Y67.718 Z-3.953
X-0.002 Y67.725 Z-3.954
X-0.036 Y67.716 Z-3.955
X-0.061 Y67.693 Z-3.956
X-0.074 Y67.661 Z-3.958
X-0.071 Y67.627 Z-3.959
X-0.054 Y67.598 Z-3.96
X-0.025 Y67.579 Z-3.961
X0.01 Y67.576 Z-3.962
X0.042 Y67.588 Z-3.964
X0.065 Y67.613 Z-3.965
X0.075 Y67.646 Z-3.966
X0.069 Y67.68 Z-3.967
X0.048 Y67.707 Z-3.968
X0.017 Y67.723 Z-3.97
X-0.017 Z-3.971
X-0.048 Y67.708 Z-3.972
X-0.069 Y67.68 Z-3.973
X-0.075 Y67.647 Z-3.975
X-0.066 Y67.614 Z-3.976
X-0.042 Y67.588 Z-3.977
X-0.01 Y67.576 Z-3.978
X0.024 Y67.579 Z-3.979
X0.053 Y67.597 Z-3.981
X0.071 Y67.626 Z-3.982
X0.074 Y67.661 Z-3.983
X0.062 Y67.693 Z-3.984
X0.036 Y67.716 Z-3.985
X0.003 Y67.725 Z-3.987
X-0.031 Y67.718 Z-3.988
X-0.058 Y67.697 Z-3.989
X-0.073 Y67.666 Z-3.99
Y67.632 Z-3.992
X-0.057 Y67.601 Z-3.993
X-0.029 Y67.581 Z-3.994
X0.004 Y67.575 Z-3.995
X0.037 Y67.585 Z-3.996
X0.062 Y67.609 Z-3.998
X0.074 Y67.641 Z-3.999
X0.071 Y67.675 Z-4
G3 X-0.071 Y67.625 I-0.071 J-0.025 F400
X0.071 Y67.675 I0.071 J0.025
G1 X0.052 Y67.704 Z-4.001 F333.3
X0.023 Y67.722 Z-4.002
X-0.012 Y67.724 Z-4.004
X-0.044 Y67.711 Z-4.005
X-0.066 Y67.685 Z-4.006
X-0.075 Y67.652 Z-4.007
X-0.068 Y67.618 Z-4.008
X-0.047 Y67.591 Z-4.01
X-0.015 Y67.577 Z-4.011
X0.019 Z-4.012
X0.049 Y67.594 Z-4.013
X0.069 Y67.621 Z-4.015
X0.075 Y67.655 Z-4.016
X0.064 Y67.688 Z-4.017
X0.041 Y67.713 Z-4.018
X0.008 Y67.725 Z-4.019
X-0.026 Y67.72 Z-4.021
X-0.055 Y67.701 Z-4.022
X-0.072 Y67.672 Z-4.023
X-0.074 Y67.637 Z-4.024
X-0.06 Y67.606 Z-4.025
X-0.034 Y67.583 Z-4.027
X-0.001 Y67.575 Z-4.028
X0.033 Y67.583 Z-4.029
X0.059 Y67.604 Z-4.03
X0.074 Y67.636 Z-4.032
X0.072 Y67.67 Z-4.033
X0.056 Y67.7 Z-4.034
X0.028 Y67.72 Z-4.035
X-0.006 Y67.725 Z-4.036
X-0.039 Y67.714 Z-4.038
X-0.064 Y67.69 Z-4.039
X-0.075 Y67.657 Z-4.04
X-0.07 Y67.623 Z-4.041
X-0.051 Y67.595 Z-4.042
X-0.021 Y67.578 Z-4.044
X0.014 Y67.576 Z-4.045
X0.045 Y67.59 Z-4.046
X0.067 Y67.617 Z-4.047
X0.075 Y67.65 Z-4.048
X0.067 Y67.684 Z-4.05
X0.045 Y67.71 Z-4.051
X0.013 Y67.724 Z-4.052
X-0.021 Y67.722 Z-4.053
X-0.051 Y67.705 Z-4.055
X-0.07 Y67.677 Z-4.056
X-0.075 Y67.642 Z-4.057
X-0.063 Y67.61 Z-4.058
X-0.039 Y67.586 Z-4.059
X-0.006 Y67.575 Z-4.061
X0.028 Y67.58 Z-4.062
X0.056 Y67.6 Z-4.063
X0.072 Y67.63 Z-4.064
X0.074 Y67.665 Z-4.065
X0.059 Y67.696 Z-4.067
X0.032 Y67.718 Z-4.068
X-0.001 Y67.725 Z-4.069
X-0.035 Y67.717 Z-4.07
X-0.061 Y67.694 Z-4.072
X-0.074 Y67.662 Z-4.073
X-0.072 Y67.628 Z-4.074
X-0.054 Y67.598 Z-4.075
X-0.026 Y67.58 Z-4.076
X0.009 Y67.575 Z-4.078
X0.041 Y67.587 Z-4.079
X0.065 Y67.612 Z-4.08
X0.075 Y67.645 Z-4.081
X0.069 Y67.679 Z-4.082
X0.049 Y67.707 Z-4.084
X0.019 Y67.723 Z-4.085
X-0.016 Z-4.086
X-0.047 Y67.709 Z-4.087
X-0.068 Y67.681 Z-4.088
X-0.075 Y67.648 Z-4.09
X-0.066 Y67.615 Z-4.091
X-0.043 Y67.589 Z-4.092
X-0.011 Y67.576 Z-4.093
X0.023 Y67.579 Z-4.095
X0.052 Y67.596 Z-4.096
X0.071 Y67.625 Z-4.097
X0.074 Y67.66 Z-4.098
X0.062 Y67.692 Z-4.099
X0.037 Y67.715 Z-4.101
X0.004 Y67.725 Z-4.102
X-0.03 Y67.719 Z-4.103
X-0.057 Y67.698 Z-4.104
X-0.073 Y67.668 Z-4.105
Y67.633 Z-4.107
X-0.058 Y67.602 Z-4.108
X-0.031 Y67.581 Z-4.109
X0.003 Y67.575 Z-4.11
X0.036 Y67.584 Z-4.112
X0.062 Y67.608 Z-4.113
X0.074 Y67.64 Z-4.114
X0.071 Y67.674 Z-4.115
X0.053 Y67.703 Z-4.116
X0.024 Y67.721 Z-4.118
X-0.011 Y67.724 Z-4.119
X-0.043 Y67.712 Z-4.12
X-0.066 Y67.686 Z-4.121
X-0.075 Y67.653 Z-4.122
X-0.068 Y67.619 Z-4.124
X-0.048 Y67.592 Z-4.125
X-0.017 Y67.577 Z-4.126
X0.018 Z-4.127
X0.048 Y67.593 Z-4.128
X0.069 Y67.62 Z-4.13
X0.075 Y67.654 Z-4.131
X0.065 Y67.687 Z-4.132
X0.042 Y67.712 Z-4.133
X0.009 Y67.724 Z-4.135
X-0.025 Y67.721 Z-4.136
X-0.054 Y67.702 Z-4.137
X-0.071 Y67.673 Z-4.138
X-0.074 Y67.638 Z-4.139
X-0.061 Y67.607 Z-4.141
X-0.035 Y67.584 Z-4.142
X-0.002 Y67.575 Z-4.143
X0.032 Y67.582 Z-4.144
X0.059 Y67.603 Z-4.145
X0.073 Y67.634 Z-4.147
Y67.669 Z-4.148
X0.057 Y67.699 Z-4.149
X0.029 Y67.719 Z-4.15
X-0.005 Y67.725 Z-4.152
X-0.038 Y67.715 Z-4.153
X-0.063 Y67.691 Z-4.154
X-0.075 Y67.658 Z-4.155
X-0.07 Y67.624 Z-4.156
X-0.051 Y67.595 Z-4.158
X-0.022 Y67.578 Z-4.159
X0.013 Y67.576 Z-4.16
X0.044 Y67.589 Z-4.161
X0.067 Y67.616 Z-4.162
X0.075 Y67.649 Z-4.164
X0.068 Y67.683 Z-4.165
X0.046 Y67.709 Z-4.166
X0.015 Y67.724 Z-4.167
X-0.02 Y67.722 Z-4.168
X-0.05 Y67.706 Z-4.17
X-0.07 Y67.678 Z-4.171
X-0.075 Y67.644 Z-4.172
X-0.064 Y67.611 Z-4.173
X-0.04 Y67.586 Z-4.175
X-0.007 Y67.575 Z-4.176
X0.027 Y67.58 Z-4.177
X0.055 Y67.599 Z-4.178
X0.072 Y67.629 Z-4.179
X0.074 Y67.664 Z-4.181
X0.06 Y67.695 Z-4.182
X0.033 Y67.717 Z-4.183
X0 Y67.725 Z-4.184
X-0.034 Y67.717 Z-4.185
X-0.06 Y67.695 Z-4.187
X-0.074 Y67.664 Z-4.188
X-0.072 Y67.629 Z-4.189
X-0.055 Y67.599 Z-4.19
X-0.027 Y67.58 Z-4.192
X0.007 Y67.575 Z-4.193
X0.04 Y67.587 Z-4.194
X0.064 Y67.611 Z-4.195
X0.075 Y67.644 Z-4.196
X0.07 Y67.678 Z-4.198
X0.05 Y67.706 Z-4.199
X0.02 Y67.722 Z-4.2
X-0.015 Y67.724 Z-4.201
X-0.046 Y67.709 Z-4.202
X-0.068 Y67.683 Z-4.204
X-0.075 Y67.649 Z-4.205
X-0.067 Y67.616 Z-4.206
X-0.044 Y67.589 Z-4.207
X-0.013 Y67.576 Z-4.208
X0.022 Y67.578 Z-4.21
X0.052 Y67.596 Z-4.211
X0.07 Y67.624 Z-4.212
X0.075 Y67.658 Z-4.213
X0.063 Y67.691 Z-4.215
X0.038 Y67.715 Z-4.216
X0.005 Y67.725 Z-4.217
X-0.029 Y67.719 Z-4.218
X-0.057 Y67.699 Z-4.219
X-0.073 Y67.669 Z-4.221
Y67.634 Z-4.222
X-0.059 Y67.603 Z-4.223
X-0.032 Y67.582 Z-4.224
X0.002 Y67.575 Z-4.225
X0.035 Y67.584 Z-4.227
X0.061 Y67.607 Z-4.228
X0.074 Y67.638 Z-4.229
X0.071 Y67.673 Z-4.23
X0.054 Y67.702 Z-4.232
X0.025 Y67.721 Z-4.233
X-0.009 Y67.724 Z-4.234
X-0.042 Y67.712 Z-4.235
X-0.065 Y67.687 Z-4.236
X-0.075 Y67.654 Z-4.238
X-0.069 Y67.62 Z-4.239
X-0.048 Y67.593 Z-4.24
X-0.018 Y67.577 Z-4.241
X0.017 Z-4.242
X0.048 Y67.592 Z-4.244
X0.068 Y67.619 Z-4.245
X0.075 Y67.653 Z-4.246
X0.066 Y67.686 Z-4.247
X0.043 Y67.712 Z-4.248
X0.011 Y67.724 Z-4.25
X-0.024 Y67.721 Z-4.251
X-0.053 Y67.703 Z-4.252
X-0.071 Y67.674 Z-4.253
X-0.074 Y67.64 Z-4.255
X-0.062 Y67.607 Z-4.256
X-0.036 Y67.584 Z-4.257
X-0.003 Y67.575 Z-4.258
X0.031 Y67.582 Z-4.259
X0.058 Y67.602 Z-4.261
X0.073 Y67.633 Z-4.262
Y67.668 Z-4.263
X0.057 Y67.698 Z-4.264
X0.03 Y67.719 Z-4.265
X-0.004 Y67.725 Z-4.267
X-0.037 Y67.715 Z-4.268
X-0.062 Y67.692 Z-4.269
X-0.074 Y67.659 Z-4.27
X-0.071 Y67.625 Z-4.272
X-0.052 Y67.596 Z-4.273
X-0.023 Y67.579 Z-4.274
X0.011 Y67.576 Z-4.275
X0.043 Y67.589 Z-4.276
X0.066 Y67.615 Z-4.278
X0.075 Y67.648 Z-4.279
X0.068 Y67.682 Z-4.28
X0.047 Y67.709 Z-4.281
X0.016 Y67.723 Z-4.282
X-0.019 Z-4.284
X-0.049 Y67.707 Z-4.285
X-0.069 Y67.679 Z-4.286
X-0.075 Y67.645 Z-4.287
X-0.065 Y67.612 Z-4.288
X-0.041 Y67.587 Z-4.29
X-0.008 Y67.575 Z-4.291
X0.026 Y67.58 Z-4.292
X0.054 Y67.598 Z-4.293
X0.072 Y67.628 Z-4.295
X0.074 Y67.662 Z-4.296
X0.061 Y67.694 Z-4.297
X0.034 Y67.717 Z-4.298
X0.001 Y67.725 Z-4.299
X-0.032 Y67.718 Z-4.301
X-0.059 Y67.696 Z-4.302
X-0.074 Y67.665 Z-4.303
X-0.072 Y67.63 Z-4.304
X-0.056 Y67.6 Z-4.305
X-0.028 Y67.58 Z-4.307
X0.006 Y67.575 Z-4.308
X0.039 Y67.586 Z-4.309
X0.063 Y67.61 Z-4.31
X0.075 Y67.643 Z-4.312
X0.07 Y67.677 Z-4.313
X0.051 Y67.705 Z-4.314
X0.021 Y67.722 Z-4.315
X-0.014 Y67.724 Z-4.316
X-0.045 Y67.71 Z-4.318
X-0.067 Y67.684 Z-4.319
X-0.075 Y67.65 Z-4.32
X-0.067 Y67.617 Z-4.321
X-0.045 Y67.59 Z-4.322
X-0.014 Y67.576 Z-4.324
X0.021 Y67.578 Z-4.325
X0.051 Y67.595 Z-4.326
X0.07 Y67.623 Z-4.327
X0.075 Y67.657 Z-4.328
X0.064 Y67.69 Z-4.33
X0.039 Y67.714 Z-4.331
X0.006 Y67.725 Z-4.332
X-0.028 Y67.72 Z-4.333
X-0.056 Y67.7 Z-4.335
X-0.072 Y67.67 Z-4.336
X-0.074 Y67.635 Z-4.337
X-0.059 Y67.604 Z-4.338
X-0.033 Y67.582 Z-4.339
X0.001 Y67.575 Z-4.341
X0.034 Y67.583 Z-4.342
X0.06 Y67.606 Z-4.343
X0.074 Y67.637 Z-4.344
X0.072 Y67.672 Z-4.345
X0.055 Y67.701 Z-4.347
X0.026 Y67.72 Z-4.348
X-0.008 Y67.725 Z-4.349
X-0.041 Y67.713 Z-4.35
X-0.065 Y67.688 Z-4.352
X-0.075 Y67.655 Z-4.353
X-0.069 Y67.621 Z-4.354
X-0.049 Y67.593 Z-4.355
X-0.019 Y67.577 Z-4.356
X0.016 Z-4.358
X0.047 Y67.591 Z-4.359
X0.068 Y67.618 Z-4.36
X0.075 Y67.652 Z-4.361
X0.066 Y67.685 Z-4.362
X0.044 Y67.711 Z-4.364
X0.012 Y67.724 Z-4.365
X-0.023 Y67.722 Z-4.366
X-0.052 Y67.704 Z-4.367
X-0.071 Y67.675 Z-4.368
X-0.074 Y67.641 Z-4.37
X-0.062 Y67.608 Z-4.371
X-0.037 Y67.585 Z-4.372
X-0.004 Y67.575 Z-4.373
X0.03 Y67.581 Z-4.375
X0.057 Y67.602 Z-4.376
X0.073 Y67.632 Z-4.377
Y67.667 Z-4.378
X0.058 Y67.697 Z-4.379
X0.031 Y67.718 Z-4.381
X-0.003 Y67.725 Z-4.382
X-0.036 Y67.716 Z-4.383
X-0.062 Y67.693 Z-4.384
X-0.074 Y67.661 Z-4.385
X-0.071 Y67.626 Z-4.387
X-0.053 Y67.597 Z-4.388
X-0.024 Y67.579 Z-4.389
X0.01 Y67.576 Z-4.39
X0.042 Y67.588 Z-4.392
X0.066 Y67.614 Z-4.393
X0.075 Y67.647 Z-4.394
X0.069 Y67.68 Z-4.395
X0.048 Y67.708 Z-4.396
X0.017 Y67.723 Z-4.398
X-0.018 Z-4.399
X-0.048 Y67.707 Z-4.4
X-0.069 Y67.68 Z-4.401
X-0.075 Y67.646 Z-4.402
X-0.065 Y67.613 Z-4.404
X-0.042 Y67.588 Z-4.405
X-0.01 Y67.576 Z-4.406
X0.025 Y67.579 Z-4.407
X0.054 Y67.598 Z-4.408
X0.071 Y67.627 Z-4.41
X0.074 Y67.661 Z-4.411
X0.061 Y67.693 Z-4.412
X0.036 Y67.716 Z-4.413
X0.002 Y67.725 Z-4.415
X-0.031 Y67.718 Z-4.416
X-0.059 Y67.697 Z-4.417
X-0.073 Y67.666 Z-4.418
Y67.631 Z-4.419
X-0.057 Y67.601 Z-4.421
X-0.029 Y67.581 Z-4.422
X0.005 Y67.575 Z-4.423
X0.038 Y67.585 Z-4.424
X0.063 Y67.609 Z-4.425
X0.075 Y67.641 Z-4.427
X0.071 Y67.676 Z-4.428
X0.052 Y67.704 Z-4.429
X0.022 Y67.722 Z-4.43
X-0.012 Y67.724 Z-4.432
X-0.044 Y67.711 Z-4.433
X-0.067 Y67.685 Z-4.434
X-0.075 Y67.651 Z-4.435
X-0.068 Y67.618 Z-4.436
X-0.046 Y67.591 Z-4.438
X-0.015 Y67.576 Z-4.439
X0.02 Y67.578 Z-4.44
X0.05 Y67.594 Z-4.441
X0.07 Y67.622 Z-4.442
X0.075 Y67.656 Z-4.444
X0.064 Y67.689 Z-4.445
X0.04 Y67.713 Z-4.446
X0.008 Y67.725 Z-4.447
X-0.027 Y67.72 Z-4.448
X-0.055 Y67.701 Z-4.45
X-0.072 Y67.671 Z-4.451
X-0.074 Y67.637 Z-4.452
X-0.06 Y67.605 Z-4.453
X-0.034 Y67.583 Z-4.455
X0 Y67.575 Z-4.456
X0.033 Y67.583 Z-4.457
X0.06 Y67.605 Z-4.458
X0.074 Y67.636 Z-4.459
X0.072 Y67.671 Z-4.461
X0.055 Y67.701 Z-4.462
X0.027 Y67.72 Z-4.463
X-0.007 Y67.725 Z-4.464
X-0.04 Y67.714 Z-4.465
X-0.064 Y67.689 Z-4.467
X-0.075 Y67.657 Z-4.468
X-0.07 Y67.622 Z-4.469
X-0.05 Y67.594 Z-4.47
X-0.02 Y67.578 Z-4.472
X0.014 Y67.576 Z-4.473
X0.046 Y67.591 Z-4.474
X0.067 Y67.617 Z-4.475
X0.075 Y67.651 Z-4.476
X0.067 Y67.684 Z-4.478
X0.044 Y67.71 Z-4.479
X0.013 Y67.724 Z-4.48
X-0.022 Y67.722 Z-4.481
X-0.051 Y67.705 Z-4.482
X-0.07 Y67.676 Z-4.484
X-0.075 Y67.642 Z-4.485
X-0.063 Y67.609 Z-4.486
X-0.038 Y67.586 Z-4.487
X-0.006 Y67.575 Z-4.488
X0.028 Y67.581 Z-4.49
X0.056 Y67.601 Z-4.491
X0.073 Y67.631 Z-4.492
Y67.665 Z-4.493
X0.059 Y67.697 Z-4.495
X0.032 Y67.718 Z-4.496
X-0.002 Y67.725 Z-4.497
X-0.035 Y67.716 Z-4.498
X-0.061 Y67.694 Z-4.499
X-0.074 Y67.662 Z-4.501
X-0.072 Y67.627 Z-4.502
X-0.054 Y67.598 Z-4.503
X-0.025 Y67.579 Z-4.504
X0.009 Y67.576 Z-4.505
X0.041 Y67.587 Z-4.507
X0.065 Y67.613 Z-4.508
X0.075 Y67.646 Z-4.509
X0.069 Y67.679 Z-4.51
X0.049 Y67.707 Z-4.512
X0.018 Y67.723 Z-4.513
X-0.016 Z-4.514
X-0.047 Y67.708 Z-4.515
X-0.068 Y67.681 Z-4.516
X-0.075 Y67.647 Z-4.518
X-0.066 Y67.614 Z-4.519
X-0.043 Y67.588 Z-4.52
X-0.011 Y67.576 Z-4.521
X0.024 Y67.579 Z-4.522
X0.053 Y67.597 Z-4.524
X0.071 Y67.626 Z-4.525
X0.074 Y67.66 Z-4.526
X0.062 Y67.692 Z-4.527
X0.037 Y67.716 Z-4.528
X0.003 Y67.725 Z-4.53
X-0.03 Y67.719 Z-4.531
X-0.058 Y67.698 Z-4.532
X-0.073 Y67.667 Z-4.533
Y67.633 Z-4.535
X-0.057 Y67.602 Z-4.536
X-0.03 Y67.581 Z-4.537
X0.004 Y67.575 Z-4.538
X0.037 Y67.585 Z-4.539
X0.062 Y67.608 Z-4.541
X0.074 Y67.64 Z-4.542
X0.071 Y67.674 Z-4.543
X0.053 Y67.704 Z-4.544
X0.023 Y67.721 Z-4.545
X-0.011 Y67.724 Z-4.547
X-0.043 Y67.711 Z-4.548
X-0.066 Y67.686 Z-4.549
X-0.075 Y67.652 Z-4.55
X-0.068 Y67.619 Z-4.552
X-0.047 Y67.592 Z-4.553
X-0.016 Y67.577 Z-4.554
X0.018 Z-4.555
X0.049 Y67.593 Z-4.556
X0.069 Y67.621 Z-4.558
X0.075 Y67.655 Z-4.559
X0.065 Y67.688 Z-4.56
X0.041 Y67.713 Z-4.561
X0.009 Y67.724 Z-4.562
X-0.025 Y67.721 Z-4.564
X-0.054 Y67.702 Z-4.565
X-0.072 Y67.672 Z-4.566
X-0.074 Y67.638 Z-4.567
X-0.061 Y67.606 Z-4.568
X-0.035 Y67.584 Z-4.57
X-0.001 Y67.575 Z-4.571
X0.032 Y67.582 Z-4.572
X0.059 Y67.604 Z-4.573
X0.073 Y67.635 Z-4.575
X0.072 Y67.669 Z-4.576
X0.056 Y67.7 Z-4.577
X0.028 Y67.72 Z-4.578
X-0.006 Y67.725 Z-4.579
X-0.039 Y67.714 Z-4.581
X-0.063 Y67.69 Z-4.582
X-0.075 Y67.658 Z-4.583
X-0.07 Y67.624 Z-4.584
X-0.051 Y67.595 Z-4.585
X-0.021 Y67.578 Z-4.587
X0.013 Y67.576 Z-4.588
X0.045 Y67.59 Z-4.589
X0.067 Y67.616 Z-4.59
X0.075 Y67.65 Z-4.592
X0.067 Y67.683 Z-4.593
X0.045 Y67.71 Z-4.594
X0.014 Y67.724 Z-4.595
X-0.02 Y67.722 Z-4.596
X-0.05 Y67.705 Z-4.598
X-0.07 Y67.677 Z-4.599
X-0.075 Y67.643 Z-4.6
X-0.064 Y67.61 Z-4.601
X-0.039 Y67.586 Z-4.602
X-0.007 Y67.575 Z-4.604
X0.027 Y67.58 Z-4.605
X0.056 Y67.6 Z-4.606
X0.072 Y67.63 Z-4.607
X0.074 Y67.664 Z-4.608
X0.06 Y67.696 Z-4.61
X0.033 Y67.717 Z-4.611
X-0.001 Y67.725 Z-4.612
X-0.034 Y67.717 Z-4.613
X-0.06 Y67.695 Z-4.615
X-0.074 Y67.663 Z-4.616
X-0.072 Y67.629 Z-4.617
X-0.055 Y67.599 Z-4.618
X-0.026 Y67.58 Z-4.619
X0.008 Y67.575 Z-4.621
X0.04 Y67.587 Z-4.622
X0.064 Y67.612 Z-4.623
X0.075 Y67.644 Z-4.624
X0.069 Y67.678 Z-4.625
X0.049 Y67.706 Z-4.627
X0.019 Y67.723 Z-4.628
X-0.015 Z-4.629
X-0.046 Y67.709 Z-4.63
X-0.068 Y67.682 Z-4.632
X-0.075 Y67.648 Z-4.633
X-0.066 Y67.615 Z-4.634
X-0.044 Y67.589 Z-4.635
X-0.012 Y67.576 Z-4.636
X0.022 Y67.578 Z-4.638
X0.052 Y67.596 Z-4.639
X0.071 Y67.625 Z-4.64
X0.074 Y67.659 Z-4.641
X0.063 Y67.691 Z-4.642
X0.038 Y67.715 Z-4.644
X0.005 Y67.725 Z-4.645
X-0.029 Y67.719 Z-4.646
X-0.057 Y67.699 Z-4.647
X-0.073 Y67.668 Z-4.648
Y67.634 Z-4.65
X-0.058 Y67.603 Z-4.651
X-0.031 Y67.582 Z-4.652
X0.003 Y67.575 Z-4.653
X0.036 Y67.584 Z-4.655
X0.062 Y67.607 Z-4.656
X0.074 Y67.639 Z-4.657
X0.071 Y67.673 Z-4.658
X0.053 Y67.703 Z-4.659
X0.024 Y67.721 Z-4.661
X-0.01 Y67.724 Z-4.662
X-0.042 Y67.712 Z-4.663
X-0.065 Y67.687 Z-4.664
X-0.075 Y67.654 Z-4.665
X-0.069 Y67.62 Z-4.667
X-0.048 Y67.592 Z-4.668
X-0.017 Y67.577 Z-4.669
X0.017 Z-4.67
X0.048 Y67.592 Z-4.672
X0.069 Y67.62 Z-4.673
X0.075 Y67.654 Z-4.674
X0.065 Y67.687 Z-4.675
X0.042 Y67.712 Z-4.676
X0.01 Y67.724 Z-4.678
X-0.024 Y67.721 Z-4.679
X-0.053 Y67.703 Z-4.68
X-0.071 Y67.673 Z-4.681
X-0.074 Y67.639 Z-4.682
X-0.061 Y67.607 Z-4.684
X-0.036 Y67.584 Z-4.685
X-0.003 Y67.575 Z-4.686
X0.031 Y67.582 Z-4.687
X0.058 Y67.603 Z-4.688
X0.073 Y67.634 Z-4.69
Y67.668 Z-4.691
X0.057 Y67.699 Z-4.692
X0.029 Y67.719 Z-4.693
X-0.005 Y67.725 Z-4.695
X-0.038 Y67.715 Z-4.696
X-0.063 Y67.691 Z-4.697
X-0.074 Y67.659 Z-4.698
X-0.071 Y67.625 Z-4.699
X-0.052 Y67.596 Z-4.701
X-0.022 Y67.578 Z-4.702
X0.012 Y67.576 Z-4.703
X0.044 Y67.589 Z-4.704
X0.066 Y67.615 Z-4.705
X0.075 Y67.648 Z-4.707
X0.068 Y67.682 Z-4.708
X0.046 Y67.709 Z-4.709
X0.015 Y67.723 Z-4.71
X-0.019 Y67.722 Z-4.712
X-0.05 Y67.706 Z-4.713
X-0.07 Y67.678 Z-4.714
X-0.075 Y67.644 Z-4.715
X-0.064 Y67.611 Z-4.716
X-0.04 Y67.587 Z-4.718
X-0.008 Y67.575 Z-4.719
X0.026 Y67.58 Z-4.72
X0.055 Y67.599 Z-4.721
X0.072 Y67.629 Z-4.722
X0.074 Y67.663 Z-4.724
X0.06 Y67.695 Z-4.725
X0.034 Y67.717 Z-4.726
X0 Y67.725 Z-4.727
X-0.033 Y67.717 Z-4.728
X-0.06 Y67.695 Z-4.73
X-0.074 Y67.664 Z-4.731
X-0.072 Y67.63 Z-4.732
X-0.056 Y67.6 Z-4.733
X-0.027 Y67.58 Z-4.735
X0.007 Y67.575 Z-4.736
X0.039 Y67.586 Z-4.737
X0.064 Y67.611 Z-4.738
X0.075 Y67.643 Z-4.739
X0.07 Y67.677 Z-4.741
X0.05 Y67.706 Z-4.742
X0.02 Y67.722 Z-4.743
X-0.014 Y67.724 Z-4.744
X-0.046 Y67.71 Z-4.745
X-0.067 Y67.683 Z-4.747
X-0.075 Y67.649 Z-4.748
X-0.067 Y67.616 Z-4.749
X-0.045 Y67.59 Z-4.75
X-0.013 Y67.576 Z-4.752
X0.021 Y67.578 Z-4.753
X0.051 Y67.595 Z-4.754
X0.07 Y67.624 Z-4.755
X0.075 Y67.658 Z-4.756
X0.063 Y67.69 Z-4.758
X0.039 Y67.714 Z-4.759
X0.006 Y67.725 Z-4.76
X-0.028 Y67.719 Z-4.761
X-0.056 Y67.7 Z-4.762
X-0.072 Y67.669 Z-4.764
X-0.073 Y67.635 Z-4.765
X-0.059 Y67.604 Z-4.766
X-0.032 Y67.582 Z-4.767
X0.002 Y67.575 Z-4.768
X0.035 Y67.584 Z-4.77
X0.061 Y67.606 Z-4.771
X0.074 Y67.638 Z-4.772
X0.072 Y67.672 Z-4.773
X0.054 Y67.702 Z-4.775
X0.025 Y67.721 Z-4.776
X-0.009 Y67.724 Z-4.777
X-0.041 Y67.713 Z-4.778
X-0.065 Y67.688 Z-4.779
X-0.075 Y67.655 Z-4.781
X-0.069 Y67.621 Z-4.782
X-0.049 Y67.593 Z-4.783
X-0.018 Y67.577 Z-4.784
X0.016 Z-4.785
X0.047 Y67.592 Z-4.787
X0.068 Y67.619 Z-4.788
X0.075 Y67.653 Z-4.789
X0.066 Y67.686 Z-4.79
X0.043 Y67.711 Z-4.792
X0.011 Y67.724 Z-4.793
X-0.023 Y67.721 Z-4.794
X-0.053 Y67.703 Z-4.795
X-0.071 Y67.674 Z-4.796
X-0.074 Y67.64 Z-4.798
X-0.062 Y67.608 Z-4.799
X-0.037 Y67.585 Z-4.8
X-0.004 Y67.575 Z-4.801
X0.03 Y67.581 Z-4.802
X0.058 Y67.602 Z-4.804
X0.073 Y67.633 Z-4.805
Y67.667 Z-4.806
X0.058 Y67.698 Z-4.807
X0.03 Y67.719 Z-4.808
X-0.004 Y67.725 Z-4.81
X-0.037 Y67.715 Z-4.811
X-0.062 Y67.692 Z-4.812
X-0.074 Y67.66 Z-4.813
X-0.071 Y67.626 Z-4.815
X-0.053 Y67.597 Z-4.816
X-0.023 Y67.579 Z-4.817
X0.011 Y67.576 Z-4.818
X0.043 Y67.589 Z-4.819
X0.066 Y67.614 Z-4.821
X0.075 Y67.647 Z-4.822
X0.068 Y67.681 Z-4.823
X0.047 Y67.708 Z-4.824
X0.016 Y67.723 Z-4.825
X-0.018 Z-4.827
X-0.049 Y67.707 Z-4.828
X-0.069 Y67.679 Z-4.829
X-0.075 Y67.645 Z-4.83
X-0.065 Y67.612 Z-4.832
X-0.041 Y67.587 Z-4.833
X-0.009 Y67.576 Z-4.834
X0.025 Y67.579 Z-4.835
X0.054 Y67.598 Z-4.836
X0.072 Y67.628 Z-4.838
X0.074 Y67.662 Z-4.839
X0.061 Y67.694 Z-4.84
X0.035 Y67.716 Z-4.841
X0.002 Y67.725 Z-4.842
X-0.032 Y67.718 Z-4.844
X-0.059 Y67.696 Z-4.845
X-0.073 Y67.665 Z-4.846
Y67.631 Z-4.847
X-0.056 Y67.6 Z-4.848
X-0.028 Y67.581 Z-4.85
X0.006 Y67.575 Z-4.851
X0.038 Y67.586 Z-4.852
X0.063 Y67.61 Z-4.853
X0.075 Y67.642 Z-4.855
X0.07 Y67.676 Z-4.856
X0.051 Y67.705 Z-4.857
X0.021 Y67.722 Z-4.858
X-0.013 Y67.724 Z-4.859
X-0.045 Y67.71 Z-4.861
X-0.067 Y67.684 Z-4.862
X-0.075 Y67.651 Z-4.863
X-0.067 Y67.617 Z-4.864
X-0.046 Y67.59 Z-4.865
X-0.014 Y67.576 Z-4.867
X0.02 Y67.578 Z-4.868
X0.05 Y67.594 Z-4.869
X0.07 Y67.623 Z-4.87
X0.075 Y67.657 Z-4.872
X0.064 Y67.689 Z-4.873
X0.04 Y67.714 Z-4.874
X0.007 Y67.725 Z-4.875
X-0.027 Y67.72 Z-4.876
X-0.056 Y67.7 Z-4.878
X-0.072 Y67.67 Z-4.879
X-0.074 Y67.636 Z-4.88
X-0.06 Y67.605 Z-4.881
X-0.033 Y67.583 Z-4.882
X0 Y67.575 Z-4.884
X0.034 Y67.583 Z-4.885
X0.06 Y67.605 Z-4.886
X0.074 Y67.637 Z-4.887
X0.072 Y67.671 Z-4.888
X0.055 Y67.701 Z-4.89
X0.026 Y67.72 Z-4.891
X-0.008 Y67.725 Z-4.892
X-0.04 Y67.713 Z-4.893
X-0.064 Y67.689 Z-4.895
X-0.075 Y67.656 Z-4.896
X-0.07 Y67.622 Z-4.897
X-0.05 Y67.594 Z-4.898
X-0.019 Y67.578 Z-4.899
X0.015 Y67.577 Z-4.901
X0.046 Y67.591 Z-4.902
X0.068 Y67.618 Z-4.903
X0.075 Y67.651 Z-4.904
X0.066 Y67.685 Z-4.905
X0.044 Y67.711 Z-4.907
X0.012 Y67.724 Z-4.908
X-0.022 Y67.722 Z-4.909
X-0.052 Y67.704 Z-4.91
X-0.071 Y67.675 Z-4.912
X-0.074 Y67.641 Z-4.913
X-0.063 Y67.609 Z-4.914
X-0.038 Y67.585 Z-4.915
X-0.005 Y67.575 Z-4.916
X0.029 Y67.581 Z-4.918
X0.057 Y67.601 Z-4.919
X0.073 Y67.632 Z-4.92
Y67.666 Z-4.921
X0.058 Y67.697 Z-4.922
X0.031 Y67.718 Z-4.924
X-0.002 Y67.725 Z-4.925
X-0.036 Y67.716 Z-4.926
X-0.061 Y67.693 Z-4.927
X-0.074 Y67.661 Z-4.928
X-0.071 Y67.627 Z-4.93
X-0.054 Y67.597 Z-4.931
X-0.024 Y67.579 Z-4.932
X0.01 Y67.576 Z-4.933
X0.042 Y67.588 Z-4.935
X0.065 Y67.613 Z-4.936
X0.075 Y67.646 Z-4.937
X0.069 Y67.68 Z-4.938
X0.048 Y67.708 Z-4.939
X0.017 Y67.723 Z-4.941
X-0.017 Z-4.942
X-0.048 Y67.708 Z-4.943
X-0.069 Y67.68 Z-4.944
X-0.075 Y67.646 Z-4.945
X-0.065 Y67.613 Z-4.947
X-0.042 Y67.588 Z-4.948
X-0.01 Y67.576 Z-4.949
X0.024 Y67.579 Z-4.95
X0.053 Y67.597 Z-4.952
X0.071 Y67.627 Z-4.953
X0.074 Y67.661 Z-4.954
X0.062 Y67.693 Z-4.955
X0.036 Y67.716 Z-4.956
X0.003 Y67.725 Z-4.958
X-0.031 Y67.718 Z-4.959
X-0.058 Y67.697 Z-4.96
X-0.073 Y67.666 Z-4.961
Y67.632 Z-4.962
X-0.057 Y67.601 Z-4.964
X-0.029 Y67.581 Z-4.965
X0.005 Y67.575 Z-4.966
X0.037 Y67.585 Z-4.967
X0.063 Y67.609 Z-4.968
X0.074 Y67.641 Z-4.97
X0.071 Y67.675 Z-4.971
X0.052 Y67.704 Z-4.972
X0.022 Y67.722 Z-4.973
X-0.012 Y67.724 Z-4.975
X-0.044 Y67.711 Z-4.976
X-0.066 Y67.685 Z-4.977
X-0.075 Y67.652 Z-4.978
X-0.068 Y67.618 Z-4.979
X-0.047 Y67.591 Z-4.981
X-0.015 Y67.577 Z-4.982
X0.019 Z-4.983
X0.049 Y67.594 Z-4.984
X0.069 Y67.622 Z-4.985
X0.075 Y67.656 Z-4.987
X0.064 Y67.688 Z-4.988
X0.041 Y67.713 Z-4.989
X0.008 Y67.725 Z-4.99
X-0.026 Y67.72 Z-4.992
X-0.055 Y67.701 Z-4.993
X-0.072 Y67.671 Z-4.994
X-0.074 Y67.637 Z-4.995
X-0.06 Y67.606 Z-4.996
X-0.034 Y67.583 Z-4.998
X-0.001 Y67.575 Z-4.999
X0.033 Y67.583 Z-5
G3 X-0.033 Y67.717 I-0.033 J0.067 F400
X0.033 Y67.583 I0.033 J-0.067
G1 X0.059 Y67.604 Z-5.001 F333.3
X0.074 Y67.636 Z-5.002
X0.072 Y67.67 Z-5.004
X0.056 Y67.7 Z-5.005
X0.027 Y67.72 Z-5.006
X-0.007 Y67.725 Z-5.007
X-0.039 Y67.714 Z-5.008
X-0.064 Y67.69 Z-5.01
X-0.075 Y67.657 Z-5.011
X-0.07 Y67.623 Z-5.012
X-0.051 Y67.595 Z-5.013
X-0.02 Y67.578 Z-5.015
X0.014 Y67.576 Z-5.016
X0.045 Y67.59 Z-5.017
X0.067 Y67.617 Z-5.018
X0.075 Y67.65 Z-5.019
X0.067 Y67.684 Z-5.021
X0.045 Y67.71 Z-5.022
X0.013 Y67.724 Z-5.023
X-0.021 Y67.722 Z-5.024
X-0.051 Y67.705 Z-5.025
X-0.07 Y67.676 Z-5.027
X-0.075 Y67.642 Z-5.028
X-0.063 Y67.61 Z-5.029
X-0.039 Y67.586 Z-5.03
X-0.006 Y67.575 Z-5.032
X0.028 Y67.58 Z-5.033
X0.056 Y67.6 Z-5.034
X0.072 Y67.631 Z-5.035
X0.074 Y67.665 Z-5.036
X0.059 Y67.696 Z-5.038
X0.032 Y67.718 Z-5.039
X-0.001 Y67.725 Z-5.04
X-0.035 Y67.717 Z-5.041
X-0.061 Y67.694 Z-5.042
X-0.074 Y67.662 Z-5.044
X-0.072 Y67.628 Z-5.045
X-0.054 Y67.598 Z-5.046
X-0.026 Y67.579 Z-5.047
X0.009 Y67.575 Z-5.048
X0.041 Y67.587 Z-5.05
X0.065 Y67.612 Z-5.051
X0.075 Y67.645 Z-5.052
X0.069 Y67.679 Z-5.053
X0.049 Y67.707 Z-5.055
X0.018 Y67.723 Z-5.056
X-0.016 Z-5.057
X-0.047 Y67.708 Z-5.058
X-0.068 Y67.681 Z-5.059
X-0.075 Y67.648 Z-5.061
X-0.066 Y67.614 Z-5.062
X-0.043 Y67.589 Z-5.063
X-0.011 Y67.576 Z-5.064
X0.023 Y67.579 Z-5.065
X0.052 Y67.596 Z-5.067
X0.071 Y67.625 Z-5.068
X0.074 Y67.66 Z-5.069
X0.062 Y67.692 Z-5.07
X0.037 Y67.715 Z-5.072
X0.004 Y67.725 Z-5.073
X-0.03 Y67.719 Z-5.074
X-0.057 Y67.698 Z-5.075
X-0.073 Y67.667 Z-5.076
Y67.633 Z-5.078
X-0.058 Y67.602 Z-5.079
X-0.03 Y67.581 Z-5.08
X0.003 Y67.575 Z-5.081
X0.036 Y67.584 Z-5.082
X0.062 Y67.608 Z-5.084
X0.074 Y67.64 Z-5.085
X0.071 Y67.674 Z-5.086
X0.053 Y67.703 Z-5.087
X0.024 Y67.721 Z-5.088
X-0.011 Y67.724 Z-5.09
X-0.043 Y67.712 Z-5.091
X-0.066 Y67.686 Z-5.092
X-0.075 Y67.653 Z-5.093
X-0.068 Y67.619 Z-5.095
X-0.047 Y67.592 Z-5.096
X-0.016 Y67.577 Z-5.097
X0.018 Z-5.098
X0.049 Y67.593 Z-5.099
X0.069 Y67.621 Z-5.101
X0.075 Y67.654 Z-5.102
X0.065 Y67.687 Z-5.103
X0.042 Y67.712 Z-5.104
X0.009 Y67.724 Z-5.105
X-0.025 Y67.721 Z-5.107
X-0.054 Y67.702 Z-5.108
X-0.072 Y67.673 Z-5.109
X-0.074 Y67.638 Z-5.11
X-0.061 Y67.606 Z-5.112
X-0.035 Y67.584 Z-5.113
X-0.002 Y67.575 Z-5.114
X0.032 Y67.582 Z-5.115
X0.059 Y67.603 Z-5.116
X0.073 Y67.635 Z-5.118
Y67.669 Z-5.119
X0.056 Y67.699 Z-5.12
X0.029 Y67.719 Z-5.121
X-0.005 Y67.725 Z-5.122
X-0.038 Y67.715 Z-5.124
X-0.063 Y67.691 Z-5.125
X-0.075 Y67.658 Z-5.126
X-0.07 Y67.624 Z-5.127
X-0.051 Y67.595 Z-5.128
X-0.022 Y67.578 Z-5.13
X0.013 Y67.576 Z-5.131
X0.044 Y67.59 Z-5.132
X0.067 Y67.616 Z-5.133
X0.075 Y67.649 Z-5.135
X0.068 Y67.683 Z-5.136
X0.046 Y67.709 Z-5.137
X0.014 Y67.724 Z-5.138
X-0.02 Y67.722 Z-5.139
X-0.05 Y67.706 Z-5.141
X-0.07 Y67.678 Z-5.142
X-0.075 Y67.644 Z-5.143
X-0.064 Y67.611 Z-5.144
X-0.04 Y67.586 Z-5.145
X-0.007 Y67.575 Z-5.147
X0.027 Y67.58 Z-5.148
X0.055 Y67.599 Z-5.149
X0.072 Y67.629 Z-5.15
X0.074 Y67.664 Z-5.152
X0.06 Y67.695 Z-5.153
X0.033 Y67.717 Z-5.154
X0 Y67.725 Z-5.155
X-0.034 Y67.717 Z-5.156
X-0.06 Y67.695 Z-5.158
X-0.074 Y67.663 Z-5.159
X-0.072 Y67.629 Z-5.16
X-0.055 Y67.599 Z-5.161
X-0.027 Y67.58 Z-5.162
X0.007 Y67.575 Z-5.164
X0.04 Y67.587 Z-5.165
X0.064 Y67.611 Z-5.166
X0.075 Y67.644 Z-5.167
X0.07 Y67.678 Z-5.168
X0.05 Y67.706 Z-5.17
X0.02 Y67.722 Z-5.171
X-0.015 Y67.724 Z-5.172
X-0.046 Y67.709 Z-5.173
X-0.068 Y67.682 Z-5.175
X-0.075 Y67.649 Z-5.176
X-0.067 Y67.615 Z-5.177
X-0.044 Y67.589 Z-5.178
X-0.012 Y67.576 Z-5.179
X0.022 Y67.578 Z-5.181
X0.052 Y67.596 Z-5.182
X0.07 Y67.624 Z-5.183
X0.075 Y67.659 Z-5.184
X0.063 Y67.691 Z-5.185
X0.038 Y67.715 Z-5.187
X0.005 Y67.725 Z-5.188
X-0.029 Y67.719 Z-5.189
X-0.057 Y67.699 Z-5.19
X-0.073 Y67.669 Z-5.192
Y67.634 Z-5.193
X-0.059 Y67.603 Z-5.194
X-0.031 Y67.582 Z-5.195
X0.002 Y67.575 Z-5.196
X0.035 Y67.584 Z-5.198
X0.061 Y67.607 Z-5.199
X0.074 Y67.639 Z-5.2
X0.071 Y67.673 Z-5.201
X0.054 Y67.702 Z-5.202
X0.025 Y67.721 Z-5.204
X-0.01 Y67.724 Z-5.205
X-0.042 Y67.712 Z-5.206
X-0.065 Y67.687 Z-5.207
X-0.075 Y67.654 Z-5.208
X-0.069 Y67.62 Z-5.21
X-0.048 Y67.593 Z-5.211
X-0.018 Y67.577 Z-5.212
X0.017 Z-5.213
X0.048 Y67.592 Z-5.215
X0.068 Y67.619 Z-5.216
X0.075 Y67.653 Z-5.217
X0.066 Y67.686 Z-5.218
X0.042 Y67.712 Z-5.219
X0.01 Y67.724 Z-5.221
X-0.024 Y67.721 Z-5.222
X-0.053 Y67.703 Z-5.223
X-0.071 Y67.674 Z-5.224
X-0.074 Y67.639 Z-5.225
X-0.062 Y67.607 Z-5.227
X-0.036 Y67.584 Z-5.228
X-0.003 Y67.575 Z-5.229
X0.031 Y67.582 Z-5.23
X0.058 Y67.602 Z-5.232
X0.073 Y67.633 Z-5.233
Y67.668 Z-5.234
X0.057 Y67.698 Z-5.235
X0.03 Y67.719 Z-5.236
X-0.004 Y67.725 Z-5.238
X-0.037 Y67.715 Z-5.239
X-0.062 Y67.692 Z-5.24
X-0.074 Y67.659 Z-5.241
X-0.071 Y67.625 Z-5.242
X-0.052 Y67.596 Z-5.244
X-0.023 Y67.579 Z-5.245
X0.012 Y67.576 Z-5.246
X0.043 Y67.589 Z-5.247
X0.066 Y67.615 Z-5.248
X0.075 Y67.648 Z-5.25
X0.068 Y67.682 Z-5.251
X0.047 Y67.709 Z-5.252
X0.016 Y67.723 Z-5.253
X-0.019 Z-5.255
X-0.049 Y67.707 Z-5.256
X-0.069 Y67.679 Z-5.257
X-0.075 Y67.645 Z-5.258
X-0.065 Y67.612 Z-5.259
X-0.041 Y67.587 Z-5.261
X-0.008 Y67.575 Z-5.262
X0.026 Y67.58 Z-5.263
X0.055 Y67.599 Z-5.264
X0.072 Y67.628 Z-5.265
X0.074 Y67.663 Z-5.267
X0.061 Y67.694 Z-5.268
X0.034 Y67.717 Z-5.269
X0.001 Y67.725 Z-5.27
X-0.033 Y67.718 Z-5.272
X-0.059 Y67.696 Z-5.273
X-0.074 Y67.665 Z-5.274
X-0.072 Y67.63 Z-5.275
X-0.056 Y67.6 Z-5.276
X-0.028 Y67.58 Z-5.278
X0.006 Y67.575 Z-5.279
X0.039 Y67.586 Z-5.28
X0.064 Y67.61 Z-5.281
X0.075 Y67.643 Z-5.282
X0.07 Y67.677 Z-5.284
X0.051 Y67.705 Z-5.285
X0.021 Y67.722 Z-5.286
X-0.014 Y67.724 Z-5.287
X-0.045 Y67.71 Z-5.288
X-0.067 Y67.683 Z-5.29
X-0.075 Y67.65 Z-5.291
X-0.067 Y67.617 Z-5.292
X-0.045 Y67.59 Z-5.293
X-0.014 Y67.576 Z-5.295
X0.021 Y67.578 Z-5.296
X0.051 Y67.595 Z-5.297
X0.07 Y67.623 Z-5.298
X0.075 Y67.657 Z-5.299
X0.064 Y67.69 Z-5.301
X0.039 Y67.714 Z-5.302
X0.006 Y67.725 Z-5.303
X-0.028 Y67.72 Z-5.304
X-0.056 Y67.7 Z-5.305
X-0.072 Y67.67 Z-5.307
X-0.074 Y67.635 Z-5.308
X-0.059 Y67.604 Z-5.309
X-0.033 Y67.582 Z-5.31
X0.001 Y67.575 Z-5.312
X0.034 Y67.583 Z-5.313
X0.061 Y67.606 Z-5.314
X0.074 Y67.637 Z-5.315
X0.072 Y67.672 Z-5.316
X0.055 Y67.702 Z-5.318
X0.026 Y67.72 Z-5.319
X-0.008 Y67.725 Z-5.32
X-0.041 Y67.713 Z-5.321
X-0.065 Y67.688 Z-5.322
X-0.075 Y67.655 Z-5.324
X-0.069 Y67.621 Z-5.325
X-0.049 Y67.593 Z-5.326
X-0.019 Y67.577 Z-5.327
X0.016 Z-5.328
X0.047 Y67.591 Z-5.33
X0.068 Y67.618 Z-5.331
X0.075 Y67.652 Z-5.332
X0.066 Y67.685 Z-5.333
X0.043 Y67.711 Z-5.335
X0.012 Y67.724 Z-5.336
X-0.023 Y67.721 Z-5.337
X-0.052 Y67.704 Z-5.338
X-0.071 Y67.675 Z-5.339
X-0.074 Y67.641 Z-5.341
X-0.062 Y67.608 Z-5.342
X-0.037 Y67.585 Z-5.343
X-0.004 Y67.575 Z-5.344
X0.03 Y67.581 Z-5.345
X0.057 Y67.602 Z-5.347
X0.073 Y67.632 Z-5.348
Y67.667 Z-5.349
X0.058 Y67.698 Z-5.35
X0.031 Y67.718 Z-5.352
X-0.003 Y67.725 Z-5.353
X-0.036 Y67.716 Z-5.354
X-0.062 Y67.693 Z-5.355
X-0.074 Y67.661 Z-5.356
X-0.071 Y67.626 Z-5.358
X-0.053 Y67.597 Z-5.359
X-0.024 Y67.579 Z-5.36
X0.01 Y67.576 Z-5.361
X0.042 Y67.588 Z-5.362
X0.066 Y67.614 Z-5.364
X0.075 Y67.647 Z-5.365
X0.068 Y67.681 Z-5.366
X0.048 Y67.708 Z-5.367
X0.017 Y67.723 Z-5.368
X-0.018 Z-5.37
X-0.048 Y67.707 Z-5.371
X-0.069 Y67.68 Z-5.372
X-0.075 Y67.646 Z-5.373
X-0.065 Y67.613 Z-5.375
X-0.042 Y67.588 Z-5.376
X-0.01 Y67.576 Z-5.377
X0.025 Y67.579 Z-5.378
X0.054 Y67.598 Z-5.379
X0.071 Y67.627 Z-5.381
X0.074 Y67.661 Z-5.382
X0.061 Y67.693 Z-5.383
X0.035 Y67.716 Z-5.384
X0.002 Y67.725 Z-5.385
X-0.032 Y67.718 Z-5.387
X-0.059 Y67.697 Z-5.388
X-0.073 Y67.666 Z-5.389
Y67.631 Z-5.39
X-0.057 Y67.601 Z-5.392
X-0.029 Y67.581 Z-5.393
X0.005 Y67.575 Z-5.394
X0.038 Y67.585 Z-5.395
X0.063 Y67.609 Z-5.396
X0.075 Y67.642 Z-5.398
X0.07 Y67.676 Z-5.399
X0.052 Y67.704 Z-5.4
X0.022 Y67.722 Z-5.401
X-0.012 Y67.724 Z-5.402
X-0.044 Y67.711 Z-5.404
X-0.067 Y67.685 Z-5.405
X-0.075 Y67.651 Z-5.406
X-0.068 Y67.618 Z-5.407
X-0.046 Y67.591 Z-5.408
X-0.015 Y67.576 Z-5.41
X0.02 Y67.578 Z-5.411
X0.05 Y67.594 Z-5.412
X0.07 Y67.622 Z-5.413
X0.075 Y67.656 Z-5.415
X0.064 Y67.689 Z-5.416
X0.04 Y67.713 Z-5.417
X0.007 Y67.725 Z-5.418
X-0.027 Y67.72 Z-5.419
X-0.055 Y67.701 Z-5.421
X-0.072 Y67.671 Z-5.422
X-0.074 Y67.637 Z-5.423
X-0.06 Y67.605 Z-5.424
X-0.034 Y67.583 Z-5.425
X0 Y67.575 Z-5.427
X0.033 Y67.583 Z-5.428
X0.06 Y67.605 Z-5.429
X0.074 Y67.636 Z-5.43
X0.072 Y67.671 Z-5.432
X0.055 Y67.701 Z-5.433
X0.027 Y67.72 Z-5.434
X-0.007 Y67.725 Z-5.435
X-0.04 Y67.714 Z-5.436
X-0.064 Y67.689 Z-5.438
X-0.075 Y67.656 Z-5.439
X-0.07 Y67.622 Z-5.44
X-0.05 Y67.594 Z-5.441
X-0.02 Y67.578 Z-5.442
X0.015 Y67.576 Z-5.444
X0.046 Y67.591 Z-5.445
X0.068 Y67.617 Z-5.446
X0.075 Y67.651 Z-5.447
X0.067 Y67.684 Z-5.448
X0.044 Y67.71 Z-5.45
X0.013 Y67.724 Z-5.451
X-0.022 Y67.722 Z-5.452
X-0.051 Y67.705 Z-5.453
X-0.07 Y67.676 Z-5.455
X-0.075 Y67.642 Z-5.456
X-0.063 Y67.609 Z-5.457
X-0.038 Y67.585 Z-5.458
X-0.005 Y67.575 Z-5.459
X0.029 Y67.581 Z-5.461
X0.057 Y67.601 Z-5.462
X0.073 Y67.631 Z-5.463
Y67.666 Z-5.464
X0.059 Y67.697 Z-5.465
X0.032 Y67.718 Z-5.467
X-0.002 Y67.725 Z-5.468
X-0.035 Y67.716 Z-5.469
X-0.061 Y67.694 Z-5.47
X-0.074 Y67.662 Z-5.472
X-0.072 Y67.627 Z-5.473
X-0.054 Y67.598 Z-5.474
X-0.025 Y67.579 Z-5.475
X0.009 Y67.576 Z-5.476
X0.042 Y67.588 Z-5.478
X0.065 Y67.613 Z-5.479
X0.075 Y67.646 Z-5.48
X0.069 Y67.68 Z-5.481
X0.049 Y67.707 Z-5.482
X0.018 Y67.723 Z-5.484
X-0.017 Z-5.485
X-0.047 Y67.708 Z-5.486
X-0.068 Y67.681 Z-5.487
X-0.075 Y67.647 Z-5.488
X-0.066 Y67.614 Z-5.49
X-0.043 Y67.588 Z-5.491
X-0.011 Y67.576 Z-5.492
X0.024 Y67.579 Z-5.493
X0.053 Y67.597 Z-5.495
X0.071 Y67.626 Z-5.496
X0.074 Y67.66 Z-5.497
X0.062 Y67.692 Z-5.498
X0.036 Y67.716 Z-5.499
X0.003 Y67.725 Z-5.501
X-0.03 Y67.719 Z-5.502
X-0.058 Y67.698 Z-5.503
X-0.073 Y67.667 Z-5.504
Y67.632 Z-5.505
X-0.057 Y67.602 Z-5.507
X-0.03 Y67.581 Z-5.508
X0.004 Y67.575 Z-5.509
X0.037 Y67.585 Z-5.51
X0.062 Y67.608 Z-5.512
X0.074 Y67.64 Z-5.513
X0.071 Y67.675 Z-5.514
X0.052 Y67.704 Z-5.515
X0.023 Y67.721 Z-5.516
X-0.011 Y67.724 Z-5.518
X-0.043 Y67.711 Z-5.519
X-0.066 Y67.686 Z-5.52
X-0.075 Y67.652 Z-5.521
X-0.068 Y67.619 Z-5.522
X-0.047 Y67.591 Z-5.524
X-0.016 Y67.577 Z-5.525
X0.019 Z-5.526
X0.049 Y67.593 Z-5.527
X0.069 Y67.621 Z-5.528
X0.075 Y67.655 Z-5.53
X0.065 Y67.688 Z-5.531
X0.041 Y67.713 Z-5.532
X0.009 Y67.725 Z-5.533
X-0.026 Y67.721 Z-5.535
X-0.054 Y67.702 Z-5.536
X-0.072 Y67.672 Z-5.537
X-0.074 Y67.638 Z-5.538
X-0.061 Y67.606 Z-5.539
X-0.035 Y67.583 Z-5.541
X-0.001 Y67.575 Z-5.542
X0.032 Y67.582 Z-5.543
X0.059 Y67.604 Z-5.544
X0.074 Y67.635 Z-5.545
X0.072 Y67.67 Z-5.547
X0.056 Y67.7 Z-5.548
X0.028 Y67.72 Z-5.549
X-0.006 Y67.725 Z-5.55
X-0.039 Y67.714 Z-5.552
X-0.063 Y67.69 Z-5.553
X-0.075 Y67.658 Z-5.554
X-0.07 Y67.623 Z-5.555
X-0.051 Y67.595 Z-5.556
X-0.021 Y67.578 Z-5.558
X0.013 Y67.576 Z-5.559
X0.045 Y67.59 Z-5.56
X0.067 Y67.616 Z-5.561
X0.075 Y67.65 Z-5.562
X0.067 Y67.683 Z-5.564
X0.045 Y67.71 Z-5.565
X0.014 Y67.724 Z-5.566
X-0.021 Y67.722 Z-5.567
X-0.051 Y67.705 Z-5.568
X-0.07 Y67.677 Z-5.57
X-0.075 Y67.643 Z-5.571
X-0.064 Y67.61 Z-5.572
X-0.039 Y67.586 Z-5.573
X-0.007 Y67.575 Z-5.575
X0.027 Y67.58 Z-5.576
X0.056 Y67.6 Z-5.577
X0.072 Y67.63 Z-5.578
X0.074 Y67.664 Z-5.579
X0.059 Y67.696 Z-5.581
X0.033 Y67.717 Z-5.582
X-0.001 Y67.725 Z-5.583
X-0.034 Y67.717 Z-5.584
X-0.06 Y67.694 Z-5.585
X-0.074 Y67.663 Z-5.587
X-0.072 Y67.628 Z-5.588
X-0.055 Y67.599 Z-5.589
X-0.026 Y67.58 Z-5.59
X0.008 Y67.575 Z-5.592
X0.041 Y67.587 Z-5.593
X0.064 Y67.612 Z-5.594
X0.075 Y67.644 Z-5.595
X0.069 Y67.678 Z-5.596
X0.049 Y67.706 Z-5.598
X0.019 Y67.723 Z-5.599
X-0.015 Z-5.6
X-0.047 Y67.709 Z-5.601
X-0.068 Y67.682 Z-5.602
X-0.075 Y67.648 Z-5.604
X-0.066 Y67.615 Z-5.605
X-0.044 Y67.589 Z-5.606
X-0.012 Y67.576 Z-5.607
X0.022 Y67.578 Z-5.608
X0.052 Y67.596 Z-5.61
X0.071 Y67.625 Z-5.611
X0.074 Y67.659 Z-5.612
X0.063 Y67.691 Z-5.613
X0.037 Y67.715 Z-5.615
X0.005 Y67.725 Z-5.616
X-0.029 Y67.719 Z-5.617
X-0.057 Y67.699 Z-5.618
X-0.073 Y67.668 Z-5.619
Y67.634 Z-5.621
X-0.058 Y67.603 Z-5.622
X-0.031 Y67.582 Z-5.623
X0.003 Y67.575 Z-5.624
X0.036 Y67.584 Z-5.625
X0.062 Y67.607 Z-5.627
X0.074 Y67.639 Z-5.628
X0.071 Y67.673 Z-5.629
X0.053 Y67.703 Z-5.63
X0.024 Y67.721 Z-5.632
X-0.01 Y67.724 Z-5.633
X-0.042 Y67.712 Z-5.634
X-0.065 Y67.687 Z-5.635
X-0.075 Y67.653 Z-5.636
X-0.069 Y67.62 Z-5.638
X-0.048 Y67.592 Z-5.639
X-0.017 Y67.577 Z-5.64
X0.017 Z-5.641
X0.048 Y67.592 Z-5.642
X0.069 Y67.62 Z-5.644
X0.075 Y67.654 Z-5.645
X0.065 Y67.687 Z-5.646
X0.042 Y67.712 Z-5.647
X0.01 Y67.724 Z-5.648
X-0.024 Y67.721 Z-5.65
X-0.054 Y67.703 Z-5.651
X-0.071 Y67.673 Z-5.652
X-0.074 Y67.639 Z-5.653
X-0.061 Y67.607 Z-5.655
X-0.036 Y67.584 Z-5.656
X-0.002 Y67.575 Z-5.657
X0.031 Y67.582 Z-5.658
X0.058 Y67.603 Z-5.659
X0.073 Y67.634 Z-5.661
Y67.668 Z-5.662
X0.057 Y67.699 Z-5.663
X0.029 Y67.719 Z-5.664
X-0.005 Y67.725 Z-5.665
X-0.038 Y67.715 Z-5.667
X-0.063 Y67.691 Z-5.668
X-0.074 Y67.659 Z-5.669
X-0.071 Y67.625 Z-5.67
X-0.052 Y67.596 Z-5.672
X-0.022 Y67.578 Z-5.673
X0.012 Y67.576 Z-5.674
X0.044 Y67.589 Z-5.675
X0.066 Y67.615 Z-5.676
X0.075 Y67.649 Z-5.678
X0.068 Y67.682 Z-5.679
X0.046 Y67.709 Z-5.68
X0.015 Y67.723 Z-5.681
X-0.019 Y67.722 Z-5.682
X-0.05 Y67.706 Z-5.684
X-0.07 Y67.678 Z-5.685
X-0.075 Y67.644 Z-5.686
X-0.064 Y67.611 Z-5.687
X-0.04 Y67.587 Z-5.688
X-0.008 Y67.575 Z-5.69
X0.026 Y67.58 Z-5.691
X0.055 Y67.599 Z-5.692
X0.072 Y67.629 Z-5.693
X0.074 Y67.663 Z-5.695
X0.06 Y67.695 Z-5.696
X0.034 Y67.717 Z-5.697
X0 Y67.725 Z-5.698
X-0.033 Y67.717 Z-5.699
X-0.06 Y67.695 Z-5.701
X-0.074 Y67.664 Z-5.702
X-0.072 Y67.63 Z-5.703
X-0.055 Y67.6 Z-5.704
X-0.027 Y67.58 Z-5.705
X0.007 Y67.575 Z-5.707
X0.04 Y67.586 Z-5.708
X0.064 Y67.611 Z-5.709
X0.075 Y67.643 Z-5.71
X0.07 Y67.677 Z-5.712
X0.05 Y67.706 Z-5.713
X0.02 Y67.722 Z-5.714
X-0.014 Y67.724 Z-5.715
X-0.046 Y67.71 Z-5.716
X-0.067 Y67.683 Z-5.718
X-0.075 Y67.649 Z-5.719
X-0.067 Y67.616 Z-5.72
X-0.045 Y67.59 Z-5.721
X-0.013 Y67.576 Z-5.722
X0.021 Y67.578 Z-5.724
X0.051 Y67.595 Z-5.725
X0.07 Y67.624 Z-5.726
X0.075 Y67.658 Z-5.727
X0.063 Y67.69 Z-5.728
X0.038 Y67.714 Z-5.73
X0.006 Y67.725 Z-5.731
X-0.028 Y67.719 Z-5.732
X-0.056 Y67.7 Z-5.733
X-0.073 Y67.669 Z-5.735
Y67.635 Z-5.736
X-0.059 Y67.604 Z-5.737
X-0.032 Y67.582 Z-5.738
X0.002 Y67.575 Z-5.739
X0.035 Y67.584 Z-5.741
X0.061 Y67.606 Z-5.742
X0.074 Y67.638 Z-5.743
X0.072 Y67.672 Z-5.744
X0.054 Y67.702 Z-5.745
X0.025 Y67.721 Z-5.747
X-0.009 Y67.724 Z-5.748
X-0.041 Y67.713 Z-5.749
X-0.065 Y67.688 Z-5.75
X-0.075 Y67.655 Z-5.752
X-0.069 Y67.621 Z-5.753
X-0.049 Y67.593 Z-5.754
X-0.018 Y67.577 Z-5.755
X0.016 Z-5.756
X0.047 Y67.592 Z-5.758
X0.068 Y67.619 Z-5.759
X0.075 Y67.653 Z-5.76
X0.066 Y67.686 Z-5.761
X0.043 Y67.712 Z-5.762
X0.011 Y67.724 Z-5.764
X-0.023 Y67.721 Z-5.765
X-0.053 Y67.703 Z-5.766
X-0.071 Y67.674 Z-5.767
X-0.074 Y67.64 Z-5.768
X-0.062 Y67.608 Z-5.77
X-0.037 Y67.585 Z-5.771
X-0.004 Y67.575 Z-5.772
X0.03 Y67.581 Z-5.773
X0.058 Y67.602 Z-5.775
X0.073 Y67.633 Z-5.776
Y67.667 Z-5.777
X0.058 Y67.698 Z-5.778
X0.03 Y67.719 Z-5.779
X-0.004 Y67.725 Z-5.781
X-0.037 Y67.715 Z-5.782
X-0.062 Y67.692 Z-5.783
X-0.074 Y67.66 Z-5.784
X-0.071 Y67.626 Z-5.785
X-0.053 Y67.597 Z-5.787
X-0.023 Y67.579 Z-5.788
X0.011 Y67.576 Z-5.789
X0.043 Y67.589 Z-5.79
X0.066 Y67.614 Z-5.792
X0.075 Y67.647 Z-5.793
X0.068 Y67.681 Z-5.794
X0.047 Y67.708 Z-5.795
X0.016 Y67.723 Z-5.796
X-0.018 Z-5.798
X-0.049 Y67.707 Z-5.799
X-0.069 Y67.679 Z-5.8
X-0.075 Y67.645 Z-5.801
X-0.065 Y67.612 Z-5.802
X-0.041 Y67.587 Z-5.804
X-0.009 Y67.576 Z-5.805
X0.025 Y67.579 Z-5.806
X0.054 Y67.598 Z-5.807
X0.072 Y67.628 Z-5.808
X0.074 Y67.662 Z-5.81
X0.061 Y67.694 Z-5.811
X0.035 Y67.716 Z-5.812
X0.002 Y67.725 Z-5.813
X-0.032 Y67.718 Z-5.815
X-0.059 Y67.696 Z-5.816
X-0.073 Y67.665 Z-5.817
X-0.072 Y67.631 Z-5.818
X-0.056 Y67.6 Z-5.819
X-0.028 Y67.58 Z-5.821
X0.006 Y67.575 Z-5.822
X0.039 Y67.586 Z-5.823
X0.063 Y67.61 Z-5.824
X0.075 Y67.642 Z-5.825
X0.07 Y67.676 Z-5.827
X0.051 Y67.705 Z-5.828
X0.021 Y67.722 Z-5.829
X-0.013 Y67.724 Z-5.83
X-0.045 Y67.71 Z-5.832
X-0.067 Y67.684 Z-5.833
X-0.075 Y67.651 Z-5.834
X-0.067 Y67.617 Z-5.835
X-0.046 Y67.59 Z-5.836
X-0.014 Y67.576 Z-5.838
X0.02 Y67.578 Z-5.839
X0.05 Y67.594 Z-5.84
X0.07 Y67.623 Z-5.841
X0.075 Y67.657 Z-5.842
X0.064 Y67.689 Z-5.844
X0.039 Y67.714 Z-5.845
X0.007 Y67.725 Z-5.846
X-0.027 Y67.72 Z-5.847
X-0.056 Y67.7 Z-5.848
X-0.072 Y67.67 Z-5.85
X-0.074 Y67.636 Z-5.851
X-0.06 Y67.604 Z-5.852
X-0.033 Y67.583 Z-5.853
X0.001 Y67.575 Z-5.855
X0.034 Y67.583 Z-5.856
X0.06 Y67.605 Z-5.857
X0.074 Y67.637 Z-5.858
X0.072 Y67.671 Z-5.859
X0.055 Y67.701 Z-5.861
X0.026 Y67.72 Z-5.862
X-0.008 Y67.725 Z-5.863
X-0.04 Y67.713 Z-5.864
X-0.064 Y67.689 Z-5.865
X-0.075 Y67.656 Z-5.867
X-0.069 Y67.622 Z-5.868
X-0.05 Y67.594 Z-5.869
X-0.019 Y67.578 Z-5.87
X0.015 Y67.577 Z-5.872
X0.046 Y67.591 Z-5.873
X0.068 Y67.618 Z-5.874
X0.075 Y67.652 Z-5.875
X0.066 Y67.685 Z-5.876
X0.044 Y67.711 Z-5.878
X0.012 Y67.724 Z-5.879
X-0.022 Y67.722 Z-5.88
X-0.052 Y67.704 Z-5.881
X-0.071 Y67.675 Z-5.882
X-0.074 Y67.641 Z-5.884
X-0.063 Y67.609 Z-5.885
X-0.038 Y67.585 Z-5.886
X-0.005 Y67.575 Z-5.887
X0.029 Y67.581 Z-5.888
X0.057 Y67.601 Z-5.89
X0.073 Y67.632 Z-5.891
Y67.666 Z-5.892
X0.058 Y67.697 Z-5.893
X0.031 Y67.718 Z-5.895
X-0.003 Y67.725 Z-5.896
X-0.036 Y67.716 Z-5.897
X-0.061 Y67.693 Z-5.898
X-0.074 Y67.661 Z-5.899
X-0.071 Y67.627 Z-5.901
X-0.053 Y67.597 Z-5.902
X-0.024 Y67.579 Z-5.903
X0.01 Y67.576 Z-5.904
X0.042 Y67.588 Z-5.905
X0.065 Y67.613 Z-5.907
X0.075 Y67.646 Z-5.908
X0.069 Y67.68 Z-5.909
X0.048 Y67.708 Z-5.91
X0.017 Y67.723 Z-5.912
X-0.017 Z-5.913
X-0.048 Y67.708 Z-5.914
X-0.069 Y67.68 Z-5.915
X-0.075 Y67.646 Z-5.916
X-0.065 Y67.613 Z-5.918
X-0.042 Y67.588 Z-5.919
X-0.01 Y67.576 Z-5.92
X0.024 Y67.579 Z-5.921
X0.053 Y67.597 Z-5.922
X0.071 Y67.627 Z-5.924
X0.074 Y67.661 Z-5.925
X0.062 Y67.693 Z-5.926
X0.036 Y67.716 Z-5.927
X0.003 Y67.725 Z-5.928
X-0.031 Y67.718 Z-5.93
X-0.058 Y67.697 Z-5.931
X-0.073 Y67.666 Z-5.932
Y67.632 Z-5.933
X-0.057 Y67.601 Z-5.935
X-0.029 Y67.581 Z-5.936
X0.005 Y67.575 Z-5.937
X0.038 Y67.585 Z-5.938
X0.063 Y67.609 Z-5.939
X0.074 Y67.641 Z-5.941
X0.071 Y67.675 Z-5.942
X0.052 Y67.704 Z-5.943
X0.022 Y67.722 Z-5.944
X-0.012 Y67.724 Z-5.945
X-0.044 Y67.711 Z-5.947
X-0.066 Y67.685 Z-5.948
X-0.075 Y67.652 Z-5.949
X-0.068 Y67.618 Z-5.95
X-0.046 Y67.591 Z-5.952
X-0.015 Y67.577 Z-5.953
X0.019 Z-5.954
X0.05 Y67.594 Z-5.955
X0.069 Y67.622 Z-5.956
X0.075 Y67.656 Z-5.958
X0.064 Y67.688 Z-5.959
X0.04 Y67.713 Z-5.96
X0.008 Y67.725 Z-5.961
X-0.026 Y67.72 Z-5.962
X-0.055 Y67.701 Z-5.964
X-0.072 Y67.671 Z-5.965
X-0.074 Y67.637 Z-5.966
X-0.06 Y67.605 Z-5.967
X-0.034 Y67.583 Z-5.968
X-0.001 Y67.575 Z-5.97
X0.033 Y67.583 Z-5.971
X0.06 Y67.604 Z-5.972
X0.074 Y67.636 Z-5.973
X0.072 Y67.67 Z-5.975
X0.056 Y67.7 Z-5.976
X0.027 Y67.72 Z-5.977
X-0.007 Y67.725 Z-5.978
X-0.039 Y67.714 Z-5.979
X-0.064 Y67.69 Z-5.981
X-0.075 Y67.657 Z-5.982
X-0.07 Y67.623 Z-5.983
X-0.05 Y67.595 Z-5.984
X-0.02 Y67.578 Z-5.985
X0.014 Y67.576 Z-5.987
X0.045 Y67.59 Z-5.988
X0.067 Y67.617 Z-5.989
X0.075 Y67.65 Z-5.99
X0.067 Y67.684 Z-5.992
X0.045 Y67.71 Z-5.993
X0.013 Y67.724 Z-5.994
X-0.021 Y67.722 Z-5.995
X-0.051 Y67.705 Z-5.996
X-0.07 Y67.676 Z-5.998
X-0.075 Y67.642 Z-5.999
X-0.063 Y67.61 Z-6
G3 X0.063 Y67.69 I0.063 J0.04 F400
X-0.063 Y67.61 I-0.063 J-0.04
G1 X-0.039 Y67.586 Z-6.001 F333.3
X-0.006 Y67.575 Z-6.002
X0.028 Y67.58 Z-6.004
X0.056 Y67.6 Z-6.005
X0.072 Y67.631 Z-6.006
X0.073 Y67.665 Z-6.007
X0.059 Y67.696 Z-6.008
X0.032 Y67.718 Z-6.01
X-0.001 Y67.725 Z-6.011
X-0.035 Y67.716 Z-6.012
X-0.061 Y67.694 Z-6.013
X-0.074 Y67.662 Z-6.015
X-0.072 Y67.628 Z-6.016
X-0.054 Y67.598 Z-6.017
X-0.025 Y67.579 Z-6.018
X0.009 Y67.576 Z-6.019
X0.041 Y67.587 Z-6.021
X0.065 Y67.612 Z-6.022
X0.075 Y67.645 Z-6.023
X0.069 Y67.679 Z-6.024
X0.049 Y67.707 Z-6.025
X0.018 Y67.723 Z-6.027
X-0.016 Z-6.028
X-0.047 Y67.708 Z-6.029
X-0.068 Y67.681 Z-6.03
X-0.075 Y67.648 Z-6.032
X-0.066 Y67.614 Z-6.033
X-0.043 Y67.589 Z-6.034
X-0.011 Y67.576 Z-6.035
X0.023 Y67.579 Z-6.036
X0.053 Y67.596 Z-6.038
X0.071 Y67.626 Z-6.039
X0.074 Y67.66 Z-6.04
X0.062 Y67.692 Z-6.041
X0.037 Y67.715 Z-6.042
X0.004 Y67.725 Z-6.044
X-0.03 Y67.719 Z-6.045
X-0.058 Y67.698 Z-6.046
X-0.073 Y67.667 Z-6.047
Y67.633 Z-6.048
X-0.058 Y67.602 Z-6.05
X-0.03 Y67.581 Z-6.051
X0.003 Y67.575 Z-6.052
X0.037 Y67.585 Z-6.053
X0.062 Y67.608 Z-6.055
X0.074 Y67.64 Z-6.056
X0.071 Y67.674 Z-6.057
X0.053 Y67.703 Z-6.058
X0.023 Y67.721 Z-6.059
X-0.011 Y67.724 Z-6.061
X-0.043 Y67.712 Z-6.062
X-0.066 Y67.686 Z-6.063
X-0.075 Y67.653 Z-6.064
X-0.068 Y67.619 Z-6.065
X-0.047 Y67.592 Z-6.067
X-0.016 Y67.577 Z-6.068
X0.018 Z-6.069
X0.049 Y67.593 Z-6.07
X0.069 Y67.621 Z-6.072
X0.075 Y67.655 Z-6.073
X0.065 Y67.687 Z-6.074
X0.041 Y67.713 Z-6.075
X0.009 Y67.724 Z-6.076
X-0.025 Y67.721 Z-6.078
X-0.054 Y67.702 Z-6.079
X-0.072 Y67.672 Z-6.08
X-0.074 Y67.638 Z-6.081
X-0.061 Y67.606 Z-6.082
X-0.035 Y67.584 Z-6.084
X-0.002 Y67.575 Z-6.085
X0.032 Y67.582 Z-6.086
X0.059 Y67.603 Z-6.087
X0.073 Y67.635 Z-6.088
Y67.669 Z-6.09
X0.056 Y67.699 Z-6.091
X0.028 Y67.719 Z-6.092
X-0.006 Y67.725 Z-6.093
X-0.038 Y67.714 Z-6.095
X-0.063 Y67.691 Z-6.096
X-0.075 Y67.658 Z-6.097
X-0.07 Y67.624 Z-6.098
X-0.051 Y67.595 Z-6.099
X-0.022 Y67.578 Z-6.101
X0.013 Y67.576 Z-6.102
X0.044 Y67.59 Z-6.103
X0.067 Y67.616 Z-6.104
X0.075 Y67.649 Z-6.105
X0.067 Y67.683 Z-6.107
X0.046 Y67.709 Z-6.108
X0.014 Y67.724 Z-6.109
X-0.02 Y67.722 Z-6.11
X-0.05 Y67.706 Z-6.112
X-0.07 Y67.677 Z-6.113
X-0.075 Y67.643 Z-6.114
X-0.064 Y67.611 Z-6.115
X-0.04 Y67.586 Z-6.116
X-0.007 Y67.575 Z-6.118
X0.027 Y67.58 Z-6.119
X0.055 Y67.599 Z-6.12
X0.072 Y67.629 Z-6.121
X0.074 Y67.664 Z-6.122
X0.06 Y67.695 Z-6.124
X0.033 Y67.717 Z-6.125
X0 Y67.725 Z-6.126
X-0.034 Y67.717 Z-6.127
X-0.06 Y67.695 Z-6.128
X-0.074 Y67.663 Z-6.13
X-0.072 Y67.629 Z-6.131
X-0.055 Y67.599 Z-6.132
X-0.027 Y67.58 Z-6.133
X0.008 Y67.575 Z-6.135
X0.04 Y67.587 Z-6.136
X0.064 Y67.611 Z-6.137
X0.075 Y67.644 Z-6.138
X0.07 Y67.678 Z-6.139
X0.05 Y67.706 Z-6.141
X0.02 Y67.722 Z-6.142
X-0.015 Y67.724 Z-6.143
X-0.046 Y67.709 Z-6.144
X-0.068 Y67.682 Z-6.145
X-0.075 Y67.649 Z-6.147
X-0.067 Y67.615 Z-6.148
X-0.044 Y67.589 Z-6.149
X-0.012 Y67.576 Z-6.15
X0.022 Y67.578 Z-6.152
X0.052 Y67.596 Z-6.153
X0.071 Y67.624 Z-6.154
X0.075 Y67.659 Z-6.155
X0.063 Y67.691 Z-6.156
X0.038 Y67.715 Z-6.158
X0.005 Y67.725 Z-6.159
X-0.029 Y67.719 Z-6.16
X-0.057 Y67.699 Z-6.161
X-0.073 Y67.669 Z-6.162
Y67.634 Z-6.164
X-0.059 Y67.603 Z-6.165
X-0.031 Y67.582 Z-6.166
X0.002 Y67.575 Z-6.167
X0.036 Y67.584 Z-6.168
X0.061 Y67.607 Z-6.17
X0.074 Y67.639 Z-6.171
X0.071 Y67.673 Z-6.172
X0.054 Y67.702 Z-6.173
X0.025 Y67.721 Z-6.175
X-0.01 Y67.724 Z-6.176
X-0.042 Y67.712 Z-6.177
X-0.065 Y67.687 Z-6.178
X-0.075 Y67.654 Z-6.179
