(1001)
(T3  D=3 CR=0 - ZMIN=-17.1 - flat end mill)
G90 G94
G17
G21

(2D Contour15)
T3
S1000 M3
G54
M8
G0 X64.448 Y-0.099
Z6
Z5
G1 Z2.5 F333.3
Z-1.2
X64.456 Z-1.267 F400
X64.478 Z-1.33
X64.513 Y-0.1 Z-1.387
X64.561 Y-0.101 Z-1.435
X64.618 Y-0.103 Z-1.47
X64.681 Y-0.104 Z-1.492
X64.748 Y-0.106 Z-1.5
X65.048 Y-0.113
G3 X65.355 Y0.179 I0.007 J0.3
G2 X120.697 Y-0.5 I27.667 J-0.679
X93.022 Y-28.175 I-27.675 J0
X65.347 Y-0.5 I0 J27.675
X65.355 Y0.179 I27.675 J0
G3 X65.063 Y0.486 I-0.3 J0.007
G1 X64.763 Y0.494
X64.696 Y0.495 Z-1.492
X64.633 Y0.497 Z-1.47
X64.576 Y0.498 Z-1.435
X64.528 Y0.5 Z-1.387
X64.492 Z-1.33
X64.47 Y0.501 Z-1.267
X64.463 Z-1.2
G0 Z5
X64.448 Y-0.099
G1 Z1 F333.3
Z-2.7
X64.456 Z-2.767 F400
X64.478 Z-2.83
X64.513 Y-0.1 Z-2.887
X64.561 Y-0.101 Z-2.935
X64.618 Y-0.103 Z-2.97
X64.681 Y-0.104 Z-2.992
X64.748 Y-0.106 Z-3
X65.048 Y-0.113
G3 X65.355 Y0.179 I0.007 J0.3
G2 X120.697 Y-0.5 I27.667 J-0.679
X93.022 Y-28.175 I-27.675 J0
X65.347 Y-0.5 I0 J27.675
X65.355 Y0.179 I27.675 J0
G3 X65.063 Y0.486 I-0.3 J0.007
G1 X64.763 Y0.494
X64.696 Y0.495 Z-2.992
X64.633 Y0.497 Z-2.97
X64.576 Y0.498 Z-2.935
X64.528 Y0.5 Z-2.887
X64.492 Z-2.83
X64.47 Y0.501 Z-2.767
X64.463 Z-2.7
G0 Z5
X64.448 Y-0.099
G1 Z-0.5 F333.3
Z-4.2
X64.456 Z-4.267 F400
X64.478 Z-4.33
X64.513 Y-0.1 Z-4.387
X64.561 Y-0.101 Z-4.435
X64.618 Y-0.103 Z-4.47
X64.681 Y-0.104 Z-4.492
X64.748 Y-0.106 Z-4.5
X65.048 Y-0.113
G3 X65.355 Y0.179 I0.007 J0.3
G2 X120.697 Y-0.5 I27.667 J-0.679
X93.022 Y-28.175 I-27.675 J0
X65.347 Y-0.5 I0 J27.675
X65.355 Y0.179 I27.675 J0
G3 X65.063 Y0.486 I-0.3 J0.007
G1 X64.763 Y0.494
X64.696 Y0.495 Z-4.492
X64.633 Y0.497 Z-4.47
X64.576 Y0.498 Z-4.435
X64.528 Y0.5 Z-4.387
X64.492 Z-4.33
X64.47 Y0.501 Z-4.267
X64.463 Z-4.2
G0 Z5
X64.448 Y-0.099
G1 Z-2 F333.3
Z-5.7
X64.456 Z-5.767 F400
X64.478 Z-5.83
X64.513 Y-0.1 Z-5.887
X64.561 Y-0.101 Z-5.935
X64.618 Y-0.103 Z-5.97
X64.681 Y-0.104 Z-5.992
X64.748 Y-0.106 Z-6
X65.048 Y-0.113
G3 X65.355 Y0.179 I0.007 J0.3
G2 X120.697 Y-0.5 I27.667 J-0.679
X93.022 Y-28.175 I-27.675 J0
X65.347 Y-0.5 I0 J27.675
X65.355 Y0.179 I27.675 J0
G3 X65.063 Y0.486 I-0.3 J0.007
G1 X64.763 Y0.494
X64.696 Y0.495 Z-5.992
X64.633 Y0.497 Z-5.97
X64.576 Y0.498 Z-5.935
X64.528 Y0.5 Z-5.887
X64.492 Z-5.83
X64.47 Y0.501 Z-5.767
X64.463 Z-5.7
G0 Z5
X64.448 Y-0.099
G1 Z-3.5 F333.3
Z-7.2
X64.456 Z-7.267 F400
X64.478 Z-7.33
X64.513 Y-0.1 Z-7.387
X64.561 Y-0.101 Z-7.435
X64.618 Y-0.103 Z-7.47
X64.681 Y-0.104 Z-7.492
X64.748 Y-0.106 Z-7.5
X65.048 Y-0.113
G3 X65.355 Y0.179 I0.007 J0.3
G2 X120.697 Y-0.5 I27.667 J-0.679
X93.022 Y-28.175 I-27.675 J0
X65.347 Y-0.5 I0 J27.675
X65.355 Y0.179 I27.675 J0
G3 X65.063 Y0.486 I-0.3 J0.007
G1 X64.763 Y0.494
X64.696 Y0.495 Z-7.492
X64.633 Y0.497 Z-7.47
X64.576 Y0.498 Z-7.435
X64.528 Y0.5 Z-7.387
X64.492 Z-7.33
X64.47 Y0.501 Z-7.267
X64.463 Z-7.2
G0 Z5
X64.448 Y-0.099
G1 Z-5 F333.3
Z-8.7
X64.456 Z-8.767 F400
X64.478 Z-8.83
X64.513 Y-0.1 Z-8.887
X64.561 Y-0.101 Z-8.935
X64.618 Y-0.103 Z-8.97
X64.681 Y-0.104 Z-8.992
X64.748 Y-0.106 Z-9
X65.048 Y-0.113
G3 X65.355 Y0.179 I0.007 J0.3
G2 X120.697 Y-0.5 I27.667 J-0.679
X93.022 Y-28.175 I-27.675 J0
X65.347 Y-0.5 I0 J27.675
X65.355 Y0.179 I27.675 J0
G3 X65.063 Y0.486 I-0.3 J0.007
G1 X64.763 Y0.494
X64.696 Y0.495 Z-8.992
X64.633 Y0.497 Z-8.97
X64.576 Y0.498 Z-8.935
X64.528 Y0.5 Z-8.887
X64.492 Z-8.83
X64.47 Y0.501 Z-8.767
X64.463 Z-8.7
G0 Z5
X64.448 Y-0.099
G1 Z-6.5 F333.3
Z-10.2
X64.456 Z-10.267 F400
X64.478 Z-10.33
X64.513 Y-0.1 Z-10.387
X64.561 Y-0.101 Z-10.435
X64.618 Y-0.103 Z-10.47
X64.681 Y-0.104 Z-10.492
X64.748 Y-0.106 Z-10.5
X65.048 Y-0.113
G3 X65.355 Y0.179 I0.007 J0.3
G2 X120.697 Y-0.5 I27.667 J-0.679
X93.022 Y-28.175 I-27.675 J0
X65.347 Y-0.5 I0 J27.675
X65.355 Y0.179 I27.675 J0
G3 X65.063 Y0.486 I-0.3 J0.007
G1 X64.763 Y0.494
X64.696 Y0.495 Z-10.492
X64.633 Y0.497 Z-10.47
X64.576 Y0.498 Z-10.435
X64.528 Y0.5 Z-10.387
X64.492 Z-10.33
X64.47 Y0.501 Z-10.267
X64.463 Z-10.2
G0 Z5
X64.448 Y-0.099
G1 Z-8 F333.3
Z-11.7
X64.456 Z-11.767 F400
X64.478 Z-11.83
X64.513 Y-0.1 Z-11.887
X64.561 Y-0.101 Z-11.935
X64.618 Y-0.103 Z-11.97
X64.681 Y-0.104 Z-11.992
X64.748 Y-0.106 Z-12
X65.048 Y-0.113
G3 X65.355 Y0.179 I0.007 J0.3
G2 X120.697 Y-0.5 I27.667 J-0.679
X93.022 Y-28.175 I-27.675 J0
X65.347 Y-0.5 I0 J27.675
X65.355 Y0.179 I27.675 J0
G3 X65.063 Y0.486 I-0.3 J0.007
G1 X64.763 Y0.494
X64.696 Y0.495 Z-11.992
X64.633 Y0.497 Z-11.97
X64.576 Y0.498 Z-11.935
X64.528 Y0.5 Z-11.887
X64.492 Z-11.83
X64.47 Y0.501 Z-11.767
X64.463 Z-11.7
G0 Z5
X64.448 Y-0.099
G1 Z-9.5 F333.3
Z-13.2
X64.456 Z-13.267 F400
X64.478 Z-13.33
X64.513 Y-0.1 Z-13.387
X64.561 Y-0.101 Z-13.435
X64.618 Y-0.103 Z-13.47
X64.681 Y-0.104 Z-13.492
X64.748 Y-0.106 Z-13.5
X65.048 Y-0.113
G3 X65.355 Y0.179 I0.007 J0.3
G2 X120.697 Y-0.5 I27.667 J-0.679
X93.022 Y-28.175 I-27.675 J0
X65.347 Y-0.5 I0 J27.675
X65.355 Y0.179 I27.675 J0
G3 X65.063 Y0.486 I-0.3 J0.007
G1 X64.763 Y0.494
X64.696 Y0.495 Z-13.492
X64.633 Y0.497 Z-13.47
X64.576 Y0.498 Z-13.435
X64.528 Y0.5 Z-13.387
X64.492 Z-13.33
X64.47 Y0.501 Z-13.267
X64.463 Z-13.2
G0 Z5
X64.448 Y-0.099
G1 Z-11 F333.3
Z-14.7
X64.456 Z-14.767 F400
X64.478 Z-14.83
X64.513 Y-0.1 Z-14.887
X64.561 Y-0.101 Z-14.935
X64.618 Y-0.103 Z-14.97
X64.681 Y-0.104 Z-14.992
X64.748 Y-0.106 Z-15
X65.048 Y-0.113
G3 X65.355 Y0.179 I0.007 J0.3
G2 X120.697 Y-0.5 I27.667 J-0.679
X93.022 Y-28.175 I-27.675 J0
X65.347 Y-0.5 I0 J27.675
X65.355 Y0.179 I27.675 J0
G3 X65.063 Y0.486 I-0.3 J0.007
G1 X64.763 Y0.494
X64.696 Y0.495 Z-14.992
X64.633 Y0.497 Z-14.97
X64.576 Y0.498 Z-14.935
X64.528 Y0.5 Z-14.887
X64.492 Z-14.83
X64.47 Y0.501 Z-14.767
X64.463 Z-14.7
G0 Z5
X64.448 Y-0.099
G1 Z-12.5 F333.3
Z-16.2
X64.456 Z-16.267 F400
X64.478 Z-16.33
X64.513 Y-0.1 Z-16.387
X64.561 Y-0.101 Z-16.435
X64.618 Y-0.103 Z-16.47
X64.681 Y-0.104 Z-16.492
X64.748 Y-0.106 Z-16.5
X65.048 Y-0.113
G3 X65.355 Y0.179 I0.007 J0.3
G2 X76.668 Y21.826 I27.667 J-0.679
G1 Z-16.35
G2 X81.864 Y24.826 I16.354 J-22.326
G1 Z-16.5 F333.3
G2 X120.534 Y2.5 I11.158 J-25.326 F400
G1 Z-16.35
G2 X120.697 Y-0.5 I-27.512 J-3
X120.534 Y-3.5 I-27.675 J0
G1 Z-16.5 F333.3
G2 X81.864 Y-25.826 I-27.512 J3 F400
G1 Z-16.35
G2 X76.668 Y-22.826 I11.158 J25.326
G1 Z-16.5 F333.3
G2 X65.347 Y-0.5 I16.354 J22.326 F400
X65.355 Y0.179 I27.675 J0
G3 X65.063 Y0.486 I-0.3 J0.007
G1 X64.763 Y0.494
X64.696 Y0.495 Z-16.492
X64.633 Y0.497 Z-16.47
X64.576 Y0.498 Z-16.435
X64.528 Y0.5 Z-16.387
X64.492 Z-16.33
X64.47 Y0.501 Z-16.267
X64.463 Z-16.2
G0 Z5
X64.448 Y-0.099
G1 Z-14 F333.3
Z-16.8
X64.456 Z-16.867 F400
X64.478 Z-16.93
X64.513 Y-0.1 Z-16.987
X64.561 Y-0.101 Z-17.035
X64.618 Y-0.103 Z-17.07
X64.681 Y-0.104 Z-17.092
X64.748 Y-0.106 Z-17.1
X65.048 Y-0.113
G3 X65.355 Y0.179 I0.007 J0.3
G2 X76.668 Y21.826 I27.667 J-0.679
G1 Z-16.35
G2 X81.864 Y24.826 I16.354 J-22.326
G1 Z-17.1 F333.3
G2 X120.534 Y2.5 I11.158 J-25.326 F400
G1 Z-16.35
G2 X120.697 Y-0.5 I-27.512 J-3
X120.534 Y-3.5 I-27.675 J0
G1 Z-17.1 F333.3
G2 X81.864 Y-25.826 I-27.512 J3 F400
G1 Z-16.35
G2 X76.668 Y-22.826 I11.158 J25.326
G1 Z-17.1 F333.3
G2 X65.347 Y-0.5 I16.354 J22.326 F400
X65.355 Y0.179 I27.675 J0
G3 X65.063 Y0.486 I-0.3 J0.007
G1 X64.763 Y0.494
X64.696 Y0.495 Z-17.092
X64.633 Y0.497 Z-17.07
X64.576 Y0.498 Z-17.035
X64.528 Y0.5 Z-16.987
X64.492 Z-16.93
X64.47 Y0.501 Z-16.867
X64.463 Z-16.8
G0 Z5
X56.597 Y-0.2
G1 Z2.5 F333.3
Z-1.2
G18 G3 X56.297 Z-1.5 I-0.3 K0 F400
G1 X55.997
G17 G3 X55.697 Y-0.5 I0 J-0.3
G2 X0.347 Y-0.5 I-27.675 J0
X3.953 Y13.16 I27.675 J0
X28.022 Y27.175 I24.069 J-13.66
X55.697 Y-0.5 I0 J-27.675
G3 X55.997 Y-0.8 I0.3 J0
G1 X56.297
G18 G2 X56.597 Z-1.2 I0 K0.3
G0 Z5
Y-0.2
G1 Z1 F333.3
Z-2.7
G3 X56.297 Z-3 I-0.3 K0 F400
G1 X55.997
G17 G3 X55.697 Y-0.5 I0 J-0.3
G2 X0.347 Y-0.5 I-27.675 J0
X3.953 Y13.16 I27.675 J0
X28.022 Y27.175 I24.069 J-13.66
X55.697 Y-0.5 I0 J-27.675
G3 X55.997 Y-0.8 I0.3 J0
G1 X56.297
G18 G2 X56.597 Z-2.7 I0 K0.3
G0 Z5
Y-0.2
G1 Z-0.5 F333.3
Z-4.2
G3 X56.297 Z-4.5 I-0.3 K0 F400
G1 X55.997
G17 G3 X55.697 Y-0.5 I0 J-0.3
G2 X0.347 Y-0.5 I-27.675 J0
X3.953 Y13.16 I27.675 J0
X28.022 Y27.175 I24.069 J-13.66
X55.697 Y-0.5 I0 J-27.675
G3 X55.997 Y-0.8 I0.3 J0
G1 X56.297
G18 G2 X56.597 Z-4.2 I0 K0.3
G0 Z5
Y-0.2
G1 Z-2 F333.3
Z-5.7
G3 X56.297 Z-6 I-0.3 K0 F400
G1 X55.997
G17 G3 X55.697 Y-0.5 I0 J-0.3
G2 X0.347 Y-0.5 I-27.675 J0
X3.953 Y13.16 I27.675 J0
X28.022 Y27.175 I24.069 J-13.66
X55.697 Y-0.5 I0 J-27.675
G3 X55.997 Y-0.8 I0.3 J0
G1 X56.297
G18 G2 X56.597 Z-5.7 I0 K0.3
G0 Z5
Y-0.2
G1 Z-3.5 F333.3
Z-7.2
G3 X56.297 Z-7.5 I-0.3 K0 F400
G1 X55.997
G17 G3 X55.697 Y-0.5 I0 J-0.3
G2 X0.347 Y-0.5 I-27.675 J0
X3.953 Y13.16 I27.675 J0
X28.022 Y27.175 I24.069 J-13.66
X55.697 Y-0.5 I0 J-27.675
G3 X55.997 Y-0.8 I0.3 J0
G1 X56.297
G18 G2 X56.597 Z-7.2 I0 K0.3
G0 Z5
Y-0.2
G1 Z-5 F333.3
Z-8.7
G3 X56.297 Z-9 I-0.3 K0 F400
G1 X55.997
G17 G3 X55.697 Y-0.5 I0 J-0.3
G2 X0.347 Y-0.5 I-27.675 J0
X3.953 Y13.16 I27.675 J0
X28.022 Y27.175 I24.069 J-13.66
X55.697 Y-0.5 I0 J-27.675
G3 X55.997 Y-0.8 I0.3 J0
G1 X56.297
G18 G2 X56.597 Z-8.7 I0 K0.3
G0 Z5
Y-0.2
G1 Z-6.5 F333.3
Z-10.2
G3 X56.297 Z-10.5 I-0.3 K0 F400
G1 X55.997
G17 G3 X55.697 Y-0.5 I0 J-0.3
G2 X0.347 Y-0.5 I-27.675 J0
X3.953 Y13.16 I27.675 J0
X28.022 Y27.175 I24.069 J-13.66
X55.697 Y-0.5 I0 J-27.675
G3 X55.997 Y-0.8 I0.3 J0
G1 X56.297
G18 G2 X56.597 Z-10.2 I0 K0.3
G0 Z5
Y-0.2
G1 Z-8 F333.3
Z-11.7
G3 X56.297 Z-12 I-0.3 K0 F400
G1 X55.997
G17 G3 X55.697 Y-0.5 I0 J-0.3
G2 X0.347 Y-0.5 I-27.675 J0
X3.953 Y13.16 I27.675 J0
X28.022 Y27.175 I24.069 J-13.66
X55.697 Y-0.5 I0 J-27.675
G3 X55.997 Y-0.8 I0.3 J0
G1 X56.297
G18 G2 X56.597 Z-11.7 I0 K0.3
G0 Z5
Y-0.2
G1 Z-9.5 F333.3
Z-13.2
G3 X56.297 Z-13.5 I-0.3 K0 F400
G1 X55.997
G17 G3 X55.697 Y-0.5 I0 J-0.3
G2 X0.347 Y-0.5 I-27.675 J0
X3.953 Y13.16 I27.675 J0
X28.022 Y27.175 I24.069 J-13.66
X55.697 Y-0.5 I0 J-27.675
G3 X55.997 Y-0.8 I0.3 J0
G1 X56.297
G18 G2 X56.597 Z-13.2 I0 K0.3
G0 Z5
Y-0.2
G1 Z-11 F333.3
Z-14.7
G3 X56.297 Z-15 I-0.3 K0 F400
G1 X55.997
G17 G3 X55.697 Y-0.5 I0 J-0.3
G2 X0.347 Y-0.5 I-27.675 J0
X3.953 Y13.16 I27.675 J0
X28.022 Y27.175 I24.069 J-13.66
X55.697 Y-0.5 I0 J-27.675
G3 X55.997 Y-0.8 I0.3 J0
G1 X56.297
G18 G2 X56.597 Z-14.7 I0 K0.3
G0 Z5
Y-0.2
G1 Z-12.5 F333.3
Z-16.2
X56.592 Z-16.252 F400
X56.579 Z-16.303
X56.557 Z-16.35
X56.297
X55.997
G17 G3 X55.697 Y-0.5 I0 J-0.3
G2 X55.534 Y-3.5 I-27.675 J0
G1 Z-16.5 F333.3
G2 X16.864 Y-25.826 I-27.512 J3 F400
G1 Z-16.35
G2 X11.668 Y-22.826 I11.158 J25.326
G1 Z-16.5 F333.3
G2 X0.347 Y-0.5 I16.354 J22.326 F400
X3.953 Y13.16 I27.675 J0
X11.668 Y21.826 I24.069 J-13.66
G1 Z-16.35
G2 X16.864 Y24.826 I16.354 J-22.326
G1 Z-16.5 F333.3
G2 X28.022 Y27.175 I11.158 J-25.326 F400
X55.534 Y2.5 I0 J-27.675
G1 Z-16.35
G2 X55.697 Y-0.5 I-27.512 J-3
G3 X55.997 Y-0.8 I0.3 J0
G1 X56.297
X56.557 F333.3
X56.579 Z-16.303 F400
X56.592 Z-16.252
X56.597 Z-16.2
G0 Z5
Y-0.2
G1 Z-14 F333.3
Z-16.35
X56.297 F400
X55.997
G3 X55.697 Y-0.5 I0 J-0.3
G2 X55.534 Y-3.5 I-27.675 J0
G1 Z-17.1 F333.3
G2 X16.864 Y-25.826 I-27.512 J3 F400
G1 Z-16.35
G2 X11.668 Y-22.826 I11.158 J25.326
G1 Z-17.1 F333.3
G2 X0.347 Y-0.5 I16.354 J22.326 F400
X3.953 Y13.16 I27.675 J0
X11.668 Y21.826 I24.069 J-13.66
G1 Z-16.35
G2 X16.864 Y24.826 I16.354 J-22.326
G1 Z-17.1 F333.3
G2 X28.022 Y27.175 I11.158 J-25.326 F400
X55.534 Y2.5 I0 J-27.675
G1 Z-16.35
G2 X55.697 Y-0.5 I-27.512 J-3
G3 X55.997 Y-0.8 I0.3 J0
G1 X56.597
G0 Z5
X159.322 Y-28.075
G1 Z2.5 F333.3
Z-1.2
G19 G3 Y-27.775 Z-1.5 J0.3 K0 F400
G1 Y-27.475
G17 G3 X159.022 Y-27.175 I-0.3 J0
G2 X159.022 Y28.175 I0 J27.675
X159.022 Y-27.175 I0 J-27.675
G3 X158.722 Y-27.475 I0 J-0.3
G1 Y-27.775
G19 G2 Y-28.075 Z-1.2 J0 K0.3
G0 Z5
X159.322
G1 Z1 F333.3
Z-2.7
G3 Y-27.775 Z-3 J0.3 K0 F400
G1 Y-27.475
G17 G3 X159.022 Y-27.175 I-0.3 J0
G2 X159.022 Y28.175 I0 J27.675
X159.022 Y-27.175 I0 J-27.675
G3 X158.722 Y-27.475 I0 J-0.3
G1 Y-27.775
G19 G2 Y-28.075 Z-2.7 J0 K0.3
G0 Z5
X159.322
G1 Z-0.5 F333.3
Z-4.2
G3 Y-27.775 Z-4.5 J0.3 K0 F400
G1 Y-27.475
G17 G3 X159.022 Y-27.175 I-0.3 J0
G2 X159.022 Y28.175 I0 J27.675
X159.022 Y-27.175 I0 J-27.675
G3 X158.722 Y-27.475 I0 J-0.3
G1 Y-27.775
G19 G2 Y-28.075 Z-4.2 J0 K0.3
G0 Z5
X159.322
G1 Z-2 F333.3
Z-5.7
G3 Y-27.775 Z-6 J0.3 K0 F400
G1 Y-27.475
G17 G3 X159.022 Y-27.175 I-0.3 J0
G2 X159.022 Y28.175 I0 J27.675
X159.022 Y-27.175 I0 J-27.675
G3 X158.722 Y-27.475 I0 J-0.3
G1 Y-27.775
G19 G2 Y-28.075 Z-5.7 J0 K0.3
G0 Z5
X159.322
G1 Z-3.5 F333.3
Z-7.2
G3 Y-27.775 Z-7.5 J0.3 K0 F400
G1 Y-27.475
G17 G3 X159.022 Y-27.175 I-0.3 J0
G2 X159.022 Y28.175 I0 J27.675
X159.022 Y-27.175 I0 J-27.675
G3 X158.722 Y-27.475 I0 J-0.3
G1 Y-27.775
G19 G2 Y-28.075 Z-7.2 J0 K0.3
G0 Z5
X159.322
G1 Z-5 F333.3
Z-8.7
G3 Y-27.775 Z-9 J0.3 K0 F400
G1 Y-27.475
G17 G3 X159.022 Y-27.175 I-0.3 J0
G2 X159.022 Y28.175 I0 J27.675
X159.022 Y-27.175 I0 J-27.675
G3 X158.722 Y-27.475 I0 J-0.3
G1 Y-27.775
G19 G2 Y-28.075 Z-8.7 J0 K0.3
G0 Z5
X159.322
G1 Z-6.5 F333.3
Z-10.2
G3 Y-27.775 Z-10.5 J0.3 K0 F400
G1 Y-27.475
G17 G3 X159.022 Y-27.175 I-0.3 J0
G2 X159.022 Y28.175 I0 J27.675
X159.022 Y-27.175 I0 J-27.675
G3 X158.722 Y-27.475 I0 J-0.3
G1 Y-27.775
G19 G2 Y-28.075 Z-10.2 J0 K0.3
G0 Z5
X159.322
G1 Z-8 F333.3
Z-11.7
G3 Y-27.775 Z-12 J0.3 K0 F400
G1 Y-27.475
G17 G3 X159.022 Y-27.175 I-0.3 J0
G2 X159.022 Y28.175 I0 J27.675
X159.022 Y-27.175 I0 J-27.675
G3 X158.722 Y-27.475 I0 J-0.3
G1 Y-27.775
G19 G2 Y-28.075 Z-11.7 J0 K0.3
G0 Z5
X159.322
G1 Z-9.5 F333.3
Z-13.2
G3 Y-27.775 Z-13.5 J0.3 K0 F400
G1 Y-27.475
G17 G3 X159.022 Y-27.175 I-0.3 J0
G2 X159.022 Y28.175 I0 J27.675
X159.022 Y-27.175 I0 J-27.675
G3 X158.722 Y-27.475 I0 J-0.3
G1 Y-27.775
G19 G2 Y-28.075 Z-13.2 J0 K0.3
G0 Z5
X159.322
G1 Z-11 F333.3
Z-14.7
G3 Y-27.775 Z-15 J0.3 K0 F400
G1 Y-27.475
G17 G3 X159.022 Y-27.175 I-0.3 J0
G2 X159.022 Y28.175 I0 J27.675
X159.022 Y-27.175 I0 J-27.675
G3 X158.722 Y-27.475 I0 J-0.3
G1 Y-27.775
G19 G2 Y-28.075 Z-14.7 J0 K0.3
G0 Z5
X159.322
G1 Z-12.5 F333.3
Z-16.2
G3 Y-27.775 Z-16.5 J0.3 K0 F400
G1 Y-27.475
G17 G3 X159.022 Y-27.175 I-0.3 J0
G2 X147.864 Y-24.826 I0 J27.675
G1 Z-16.35
G2 X142.668 Y-21.826 I11.158 J25.326
G1 Z-16.5 F333.3
G2 X142.668 Y22.826 I16.354 J22.326 F400
G1 Z-16.35
G2 X147.864 Y25.826 I16.354 J-22.326
G1 Z-16.5 F333.3
G2 X186.534 Y3.5 I11.158 J-25.326 F400
G1 Z-16.35
G2 X186.534 Y-2.5 I-27.512 J-3
G1 Z-16.5 F333.3
G2 X159.022 Y-27.175 I-27.512 J3 F400
G3 X158.722 Y-27.475 I0 J-0.3
G1 Y-27.775
G19 G2 Y-28.075 Z-16.2 J0 K0.3
G0 Z5
X159.322
G1 Z-14 F333.3
Z-16.8
G3 Y-27.775 Z-17.1 J0.3 K0 F400
G1 Y-27.475
G17 G3 X159.022 Y-27.175 I-0.3 J0
G2 X147.864 Y-24.826 I0 J27.675
G1 Z-16.35
G2 X142.668 Y-21.826 I11.158 J25.326
G1 Z-17.1 F333.3
G2 X142.668 Y22.826 I16.354 J22.326 F400
G1 Z-16.35
G2 X147.864 Y25.826 I16.354 J-22.326
G1 Z-17.1 F333.3
G2 X186.534 Y3.5 I11.158 J-25.326 F400
G1 Z-16.35
G2 X186.534 Y-2.5 I-27.512 J-3
G1 Z-17.1 F333.3
G2 X159.022 Y-27.175 I-27.512 J3 F400
G3 X158.722 Y-27.475 I0 J-0.3
G1 Y-27.775
G19 G2 Y-28.075 Z-16.8 J0 K0.3
G0 Z6
G17

(Drill1)
G0 Z8
X10.772 Y-30.378
Z5
Z-12.1
G1 Z-17.1 F333.3
G0 Z5
X75.772
Z-12.1
G1 Z-17.1 F333.3
G0 Z5
X62.522 Y-0.5
Z-12.1
G1 Z-17.1 F333.3
G0 Z5
X75.772 Y29.378
Z-12.1
G1 Z-17.1 F333.3
G0 Z5
X10.772
Z-12.1
G1 Z-17.1 F333.3
G0 Z5
X141.772 Y30.378
Z-12.1
G1 Z-17.1 F333.3
G0 Z5
X127.522 Y-0.5
Z-12.1
G1 Z-17.1 F333.3
G0 Z5
X141.772 Y-29.378
Z-12.1
G1 Z-17.1 F333.3
G0 Z5
X193.522 Y0.5
Z-12.1
G1 Z-17.1 F333.3
G0 Z5
Z8

(2D Contour16)
X115.255 Y-16.255
Z7
Z5
G1 Z2.5 F333.3
Z-1.5
G2 X117.741 Y-16.312 I1.224 J-0.867 F400
G3 X120.265 Y-14.689 I1.262 J0.811
X119.074 Y-14.002 I-1.262 J-0.811
G2 X117.783 Y-11.877 I0.072 J1.498
G3 X117.783 Y10.877 I-24.761 J11.377
G2 X119.074 Y13.002 I1.363 J0.626
G3 X118.931 Y15.999 I-0.072 J1.499
X117.741 Y15.312 I0.072 J-1.499
G2 X115.255 Y15.255 I-1.262 J0.811
G3 X95.55 Y26.632 I-22.233 J-15.755
G2 X94.355 Y28.813 I0.139 J1.494
G3 X91.688 Y30.187 I-1.333 J0.687
X91.688 Y28.813 I1.333 J-0.687
G2 X90.494 Y26.632 I-1.333 J-0.687
G3 X75.707 Y20.542 I2.528 J-27.132
G2 X74.754 Y20.2 I-0.953 J1.158
G1 X65
G2 X63.824 Y22.631 I0 J1.5
X73.524 Y31.239 I29.198 J-23.131
X74.584 Y31.436 I0.785 J-1.278
X75.284 Y32.256 I1.414 J-0.499
X130.258 Y0.516 I17.738 J-32.756
X129.899 Y-0.5 I-1.499 J-0.041
X130.258 Y-1.516 I-1.14 J-0.975
X75.284 Y-33.256 I-37.236 J1.016
X74.584 Y-32.436 I0.714 J1.319
X73.524 Y-32.239 I-0.275 J1.475
X63.824 Y-23.631 I19.498 J31.739
X65 Y-21.2 I1.176 J0.931
G1 X74.754
G2 X75.707 Y-21.542 I0 J-1.5
G3 X90.494 Y-27.632 I17.315 J21.042
G2 X91.688 Y-29.813 I-0.139 J-1.494
G3 X94.355 Y-31.187 I1.333 J-0.687
X94.355 Y-29.813 I-1.333 J0.687
G2 X95.55 Y-27.632 I1.333 J0.687
G3 X115.255 Y-16.255 I-2.528 J27.132
G1 Z-3 F333.3
G2 X117.741 Y-16.312 I1.224 J-0.867 F400
G3 X120.265 Y-14.689 I1.262 J0.811
X119.074 Y-14.002 I-1.262 J-0.811
G2 X117.783 Y-11.877 I0.072 J1.498
G3 X117.783 Y10.877 I-24.761 J11.377
G2 X119.074 Y13.002 I1.363 J0.626
G3 X118.931 Y15.999 I-0.072 J1.499
X117.741 Y15.312 I0.072 J-1.499
G2 X115.255 Y15.255 I-1.262 J0.811
G3 X95.55 Y26.632 I-22.233 J-15.755
G2 X94.355 Y28.813 I0.139 J1.494
G3 X91.688 Y30.187 I-1.333 J0.687
X91.688 Y28.813 I1.333 J-0.687
G2 X90.494 Y26.632 I-1.333 J-0.687
G3 X75.707 Y20.542 I2.528 J-27.132
G2 X74.754 Y20.2 I-0.953 J1.158
G1 X65
G2 X63.824 Y22.631 I0 J1.5
X73.524 Y31.239 I29.198 J-23.131
X74.584 Y31.436 I0.785 J-1.278
X75.284 Y32.256 I1.414 J-0.499
X130.258 Y0.516 I17.738 J-32.756
X129.899 Y-0.5 I-1.499 J-0.041
X130.258 Y-1.516 I-1.14 J-0.975
X75.284 Y-33.256 I-37.236 J1.016
X74.584 Y-32.436 I0.714 J1.319
X73.524 Y-32.239 I-0.275 J1.475
X63.824 Y-23.631 I19.498 J31.739
X65 Y-21.2 I1.176 J0.931
G1 X74.754
G2 X75.707 Y-21.542 I0 J-1.5
G3 X90.494 Y-27.632 I17.315 J21.042
G2 X91.688 Y-29.813 I-0.139 J-1.494
G3 X94.355 Y-31.187 I1.333 J-0.687
X94.355 Y-29.813 I-1.333 J0.687
G2 X95.55 Y-27.632 I1.333 J0.687
G3 X115.255 Y-16.255 I-2.528 J27.132
G1 Z-4.5 F333.3
G2 X117.741 Y-16.312 I1.224 J-0.867 F400
G3 X120.265 Y-14.689 I1.262 J0.811
X119.074 Y-14.002 I-1.262 J-0.811
G2 X117.783 Y-11.877 I0.072 J1.498
G3 X117.783 Y10.877 I-24.761 J11.377
G2 X119.074 Y13.002 I1.363 J0.626
G3 X118.931 Y15.999 I-0.072 J1.499
X117.741 Y15.312 I0.072 J-1.499
G2 X115.255 Y15.255 I-1.262 J0.811
G3 X95.55 Y26.632 I-22.233 J-15.755
G2 X94.355 Y28.813 I0.139 J1.494
G3 X91.688 Y30.187 I-1.333 J0.687
X91.688 Y28.813 I1.333 J-0.687
G2 X90.494 Y26.632 I-1.333 J-0.687
G3 X75.707 Y20.542 I2.528 J-27.132
G2 X74.754 Y20.2 I-0.953 J1.158
G1 X65
G2 X63.824 Y22.631 I0 J1.5
X73.524 Y31.239 I29.198 J-23.131
X74.584 Y31.436 I0.785 J-1.278
X75.284 Y32.256 I1.414 J-0.499
X130.258 Y0.516 I17.738 J-32.756
X129.899 Y-0.5 I-1.499 J-0.041
X130.258 Y-1.516 I-1.14 J-0.975
X75.284 Y-33.256 I-37.236 J1.016
X74.584 Y-32.436 I0.714 J1.319
X73.524 Y-32.239 I-0.275 J1.475
X63.824 Y-23.631 I19.498 J31.739
X65 Y-21.2 I1.176 J0.931
G1 X74.754
G2 X75.707 Y-21.542 I0 J-1.5
G3 X90.494 Y-27.632 I17.315 J21.042
G2 X91.688 Y-29.813 I-0.139 J-1.494
G3 X94.355 Y-31.187 I1.333 J-0.687
X94.355 Y-29.813 I-1.333 J0.687
G2 X95.55 Y-27.632 I1.333 J0.687
G3 X115.255 Y-16.255 I-2.528 J27.132
G1 Z-6 F333.3
G2 X117.741 Y-16.312 I1.224 J-0.867 F400
G3 X120.265 Y-14.689 I1.262 J0.811
X119.074 Y-14.002 I-1.262 J-0.811
G2 X117.783 Y-11.877 I0.072 J1.498
G3 X117.783 Y10.877 I-24.761 J11.377
G2 X119.074 Y13.002 I1.363 J0.626
G3 X118.931 Y15.999 I-0.072 J1.499
X117.741 Y15.312 I0.072 J-1.499
G2 X115.255 Y15.255 I-1.262 J0.811
G3 X95.55 Y26.632 I-22.233 J-15.755
G2 X94.355 Y28.813 I0.139 J1.494
G3 X91.688 Y30.187 I-1.333 J0.687
X91.688 Y28.813 I1.333 J-0.687
G2 X90.494 Y26.632 I-1.333 J-0.687
G3 X75.707 Y20.542 I2.528 J-27.132
G2 X74.754 Y20.2 I-0.953 J1.158
G1 X65
G2 X63.824 Y22.631 I0 J1.5
X73.524 Y31.239 I29.198 J-23.131
X74.584 Y31.436 I0.785 J-1.278
X75.284 Y32.256 I1.414 J-0.499
X130.258 Y0.516 I17.738 J-32.756
X129.899 Y-0.5 I-1.499 J-0.041
X130.258 Y-1.516 I-1.14 J-0.975
X75.284 Y-33.256 I-37.236 J1.016
X74.584 Y-32.436 I0.714 J1.319
X73.524 Y-32.239 I-0.275 J1.475
X63.824 Y-23.631 I19.498 J31.739
X65 Y-21.2 I1.176 J0.931
G1 X74.754
G2 X75.707 Y-21.542 I0 J-1.5
G3 X90.494 Y-27.632 I17.315 J21.042
G2 X91.688 Y-29.813 I-0.139 J-1.494
G3 X94.355 Y-31.187 I1.333 J-0.687
X94.355 Y-29.813 I-1.333 J0.687
G2 X95.55 Y-27.632 I1.333 J0.687
G3 X115.255 Y-16.255 I-2.528 J27.132
G1 Z-7.5 F333.3
G2 X117.741 Y-16.312 I1.224 J-0.867 F400
G3 X120.265 Y-14.689 I1.262 J0.811
X119.074 Y-14.002 I-1.262 J-0.811
G2 X117.783 Y-11.877 I0.072 J1.498
G3 X117.783 Y10.877 I-24.761 J11.377
G2 X119.074 Y13.002 I1.363 J0.626
G3 X118.931 Y15.999 I-0.072 J1.499
X117.741 Y15.312 I0.072 J-1.499
G2 X115.255 Y15.255 I-1.262 J0.811
G3 X95.55 Y26.632 I-22.233 J-15.755
G2 X94.355 Y28.813 I0.139 J1.494
G3 X91.688 Y30.187 I-1.333 J0.687
X91.688 Y28.813 I1.333 J-0.687
G2 X90.494 Y26.632 I-1.333 J-0.687
G3 X75.707 Y20.542 I2.528 J-27.132
G2 X74.754 Y20.2 I-0.953 J1.158
G1 X65
G2 X63.824 Y22.631 I0 J1.5
X73.524 Y31.239 I29.198 J-23.131
X74.584 Y31.436 I0.785 J-1.278
X75.284 Y32.256 I1.414 J-0.499
X130.258 Y0.516 I17.738 J-32.756
X129.899 Y-0.5 I-1.499 J-0.041
X130.258 Y-1.516 I-1.14 J-0.975
X75.284 Y-33.256 I-37.236 J1.016
X74.584 Y-32.436 I0.714 J1.319
X73.524 Y-32.239 I-0.275 J1.475
X63.824 Y-23.631 I19.498 J31.739
X65 Y-21.2 I1.176 J0.931
G1 X74.754
G2 X75.707 Y-21.542 I0 J-1.5
G3 X90.494 Y-27.632 I17.315 J21.042
G2 X91.688 Y-29.813 I-0.139 J-1.494
G3 X94.355 Y-31.187 I1.333 J-0.687
X94.355 Y-29.813 I-1.333 J0.687
G2 X95.55 Y-27.632 I1.333 J0.687
G3 X115.255 Y-16.255 I-2.528 J27.132
G1 Z-9 F333.3
G2 X117.741 Y-16.312 I1.224 J-0.867 F400
G3 X120.265 Y-14.689 I1.262 J0.811
X119.074 Y-14.002 I-1.262 J-0.811
G2 X117.783 Y-11.877 I0.072 J1.498
G3 X117.783 Y10.877 I-24.761 J11.377
G2 X119.074 Y13.002 I1.363 J0.626
G3 X118.931 Y15.999 I-0.072 J1.499
X117.741 Y15.312 I0.072 J-1.499
G2 X115.255 Y15.255 I-1.262 J0.811
G3 X95.55 Y26.632 I-22.233 J-15.755
G2 X94.355 Y28.813 I0.139 J1.494
G3 X91.688 Y30.187 I-1.333 J0.687
X91.688 Y28.813 I1.333 J-0.687
G2 X90.494 Y26.632 I-1.333 J-0.687
G3 X75.707 Y20.542 I2.528 J-27.132
G2 X74.754 Y20.2 I-0.953 J1.158
G1 X65
G2 X63.824 Y22.631 I0 J1.5
X73.524 Y31.239 I29.198 J-23.131
X74.584 Y31.436 I0.785 J-1.278
X75.284 Y32.256 I1.414 J-0.499
X130.258 Y0.516 I17.738 J-32.756
X129.899 Y-0.5 I-1.499 J-0.041
X130.258 Y-1.516 I-1.14 J-0.975
X75.284 Y-33.256 I-37.236 J1.016
X74.584 Y-32.436 I0.714 J1.319
X73.524 Y-32.239 I-0.275 J1.475
X63.824 Y-23.631 I19.498 J31.739
X65 Y-21.2 I1.176 J0.931
G1 X74.754
G2 X75.707 Y-21.542 I0 J-1.5
G3 X90.494 Y-27.632 I17.315 J21.042
G2 X91.688 Y-29.813 I-0.139 J-1.494
G3 X94.355 Y-31.187 I1.333 J-0.687
X94.355 Y-29.813 I-1.333 J0.687
G2 X95.55 Y-27.632 I1.333 J0.687
G3 X115.255 Y-16.255 I-2.528 J27.132
G1 Z-10.5 F333.3
G2 X117.741 Y-16.312 I1.224 J-0.867 F400
G3 X120.265 Y-14.689 I1.262 J0.811
X119.074 Y-14.002 I-1.262 J-0.811
G2 X117.783 Y-11.877 I0.072 J1.498
G3 X117.783 Y10.877 I-24.761 J11.377
G2 X119.074 Y13.002 I1.363 J0.626
G3 X118.931 Y15.999 I-0.072 J1.499
X117.741 Y15.312 I0.072 J-1.499
G2 X115.255 Y15.255 I-1.262 J0.811
G3 X95.55 Y26.632 I-22.233 J-15.755
G2 X94.355 Y28.813 I0.139 J1.494
G3 X91.688 Y30.187 I-1.333 J0.687
X91.688 Y28.813 I1.333 J-0.687
G2 X90.494 Y26.632 I-1.333 J-0.687
G3 X75.707 Y20.542 I2.528 J-27.132
G2 X74.754 Y20.2 I-0.953 J1.158
G1 X65
G2 X63.824 Y22.631 I0 J1.5
X73.524 Y31.239 I29.198 J-23.131
X74.584 Y31.436 I0.785 J-1.278
X75.284 Y32.256 I1.414 J-0.499
X130.258 Y0.516 I17.738 J-32.756
X129.899 Y-0.5 I-1.499 J-0.041
X130.258 Y-1.516 I-1.14 J-0.975
X75.284 Y-33.256 I-37.236 J1.016
X74.584 Y-32.436 I0.714 J1.319
X73.524 Y-32.239 I-0.275 J1.475
X63.824 Y-23.631 I19.498 J31.739
X65 Y-21.2 I1.176 J0.931
G1 X74.754
G2 X75.707 Y-21.542 I0 J-1.5
G3 X90.494 Y-27.632 I17.315 J21.042
G2 X91.688 Y-29.813 I-0.139 J-1.494
G3 X94.355 Y-31.187 I1.333 J-0.687
X94.355 Y-29.813 I-1.333 J0.687
G2 X95.55 Y-27.632 I1.333 J0.687
G3 X115.255 Y-16.255 I-2.528 J27.132
G1 Z-12 F333.3
G2 X117.741 Y-16.312 I1.224 J-0.867 F400
G3 X120.265 Y-14.689 I1.262 J0.811
X119.074 Y-14.002 I-1.262 J-0.811
G2 X117.783 Y-11.877 I0.072 J1.498
G3 X117.783 Y10.877 I-24.761 J11.377
G2 X119.074 Y13.002 I1.363 J0.626
G3 X118.931 Y15.999 I-0.072 J1.499
X117.741 Y15.312 I0.072 J-1.499
G2 X115.255 Y15.255 I-1.262 J0.811
G3 X95.55 Y26.632 I-22.233 J-15.755
G2 X94.355 Y28.813 I0.139 J1.494
G3 X91.688 Y30.187 I-1.333 J0.687
X91.688 Y28.813 I1.333 J-0.687
G2 X90.494 Y26.632 I-1.333 J-0.687
G3 X75.707 Y20.542 I2.528 J-27.132
G2 X74.754 Y20.2 I-0.953 J1.158
G1 X65
G2 X63.824 Y22.631 I0 J1.5
X73.524 Y31.239 I29.198 J-23.131
X74.584 Y31.436 I0.785 J-1.278
X75.284 Y32.256 I1.414 J-0.499
X130.258 Y0.516 I17.738 J-32.756
X129.899 Y-0.5 I-1.499 J-0.041
X130.258 Y-1.516 I-1.14 J-0.975
X75.284 Y-33.256 I-37.236 J1.016
X74.584 Y-32.436 I0.714 J1.319
X73.524 Y-32.239 I-0.275 J1.475
X63.824 Y-23.631 I19.498 J31.739
X65 Y-21.2 I1.176 J0.931
G1 X74.754
G2 X75.707 Y-21.542 I0 J-1.5
G3 X90.494 Y-27.632 I17.315 J21.042
G2 X91.688 Y-29.813 I-0.139 J-1.494
G3 X94.355 Y-31.187 I1.333 J-0.687
X94.355 Y-29.813 I-1.333 J0.687
G2 X95.55 Y-27.632 I1.333 J0.687
G3 X115.255 Y-16.255 I-2.528 J27.132
G1 Z-13.5 F333.3
G2 X117.741 Y-16.312 I1.224 J-0.867 F400
G3 X120.265 Y-14.689 I1.262 J0.811
X119.074 Y-14.002 I-1.262 J-0.811
G2 X117.783 Y-11.877 I0.072 J1.498
G3 X117.783 Y10.877 I-24.761 J11.377
G2 X119.074 Y13.002 I1.363 J0.626
G3 X118.931 Y15.999 I-0.072 J1.499
X117.741 Y15.312 I0.072 J-1.499
G2 X115.255 Y15.255 I-1.262 J0.811
G3 X95.55 Y26.632 I-22.233 J-15.755
G2 X94.355 Y28.813 I0.139 J1.494
G3 X91.688 Y30.187 I-1.333 J0.687
X91.688 Y28.813 I1.333 J-0.687
G2 X90.494 Y26.632 I-1.333 J-0.687
G3 X75.707 Y20.542 I2.528 J-27.132
G2 X74.754 Y20.2 I-0.953 J1.158
G1 X65
G2 X63.824 Y22.631 I0 J1.5
X73.524 Y31.239 I29.198 J-23.131
X74.584 Y31.436 I0.785 J-1.278
X75.284 Y32.256 I1.414 J-0.499
X130.258 Y0.516 I17.738 J-32.756
X129.899 Y-0.5 I-1.499 J-0.041
X130.258 Y-1.516 I-1.14 J-0.975
X75.284 Y-33.256 I-37.236 J1.016
X74.584 Y-32.436 I0.714 J1.319
X73.524 Y-32.239 I-0.275 J1.475
X63.824 Y-23.631 I19.498 J31.739
X65 Y-21.2 I1.176 J0.931
G1 X74.754
G2 X75.707 Y-21.542 I0 J-1.5
G3 X90.494 Y-27.632 I17.315 J21.042
G2 X91.688 Y-29.813 I-0.139 J-1.494
G3 X94.355 Y-31.187 I1.333 J-0.687
X94.355 Y-29.813 I-1.333 J0.687
G2 X95.55 Y-27.632 I1.333 J0.687
G3 X115.255 Y-16.255 I-2.528 J27.132
G1 Z-15 F333.3
G2 X117.741 Y-16.312 I1.224 J-0.867 F400
G3 X120.265 Y-14.689 I1.262 J0.811
X119.074 Y-14.002 I-1.262 J-0.811
G2 X117.783 Y-11.877 I0.072 J1.498
G3 X117.783 Y10.877 I-24.761 J11.377
G2 X119.074 Y13.002 I1.363 J0.626
G3 X118.931 Y15.999 I-0.072 J1.499
X117.741 Y15.312 I0.072 J-1.499
G2 X115.255 Y15.255 I-1.262 J0.811
G3 X95.55 Y26.632 I-22.233 J-15.755
G2 X94.355 Y28.813 I0.139 J1.494
G3 X91.688 Y30.187 I-1.333 J0.687
X91.688 Y28.813 I1.333 J-0.687
G2 X90.494 Y26.632 I-1.333 J-0.687
G3 X75.707 Y20.542 I2.528 J-27.132
G2 X74.754 Y20.2 I-0.953 J1.158
G1 X65
G2 X63.824 Y22.631 I0 J1.5
X73.524 Y31.239 I29.198 J-23.131
X74.584 Y31.436 I0.785 J-1.278
X75.284 Y32.256 I1.414 J-0.499
X130.258 Y0.516 I17.738 J-32.756
X129.899 Y-0.5 I-1.499 J-0.041
X130.258 Y-1.516 I-1.14 J-0.975
X75.284 Y-33.256 I-37.236 J1.016
X74.584 Y-32.436 I0.714 J1.319
X73.524 Y-32.239 I-0.275 J1.475
X63.824 Y-23.631 I19.498 J31.739
X65 Y-21.2 I1.176 J0.931
G1 X74.754
G2 X75.707 Y-21.542 I0 J-1.5
G3 X90.494 Y-27.632 I17.315 J21.042
G2 X91.688 Y-29.813 I-0.139 J-1.494
G3 X94.355 Y-31.187 I1.333 J-0.687
X94.355 Y-29.813 I-1.333 J0.687
G2 X95.55 Y-27.632 I1.333 J0.687
G3 X115.255 Y-16.255 I-2.528 J27.132
G1 Z-16.5 F333.3
G2 X117.741 Y-16.312 I1.224 J-0.867 F400
G3 X120.265 Y-14.689 I1.262 J0.811
X119.074 Y-14.002 I-1.262 J-0.811
G2 X117.783 Y-11.877 I0.072 J1.498
G3 X117.783 Y10.877 I-24.761 J11.377
G2 X119.074 Y13.002 I1.363 J0.626
G3 X118.931 Y15.999 I-0.072 J1.499
X117.741 Y15.312 I0.072 J-1.499
G2 X115.255 Y15.255 I-1.262 J0.811
G3 X95.55 Y26.632 I-22.233 J-15.755
G2 X94.355 Y28.813 I0.139 J1.494
G3 X91.688 Y30.187 I-1.333 J0.687
X91.688 Y28.813 I1.333 J-0.687
G2 X90.494 Y26.632 I-1.333 J-0.687
G3 X75.707 Y20.542 I2.528 J-27.132
G2 X74.754 Y20.2 I-0.953 J1.158
G1 X65
G2 X63.824 Y22.631 I0 J1.5
X73.524 Y31.239 I29.198 J-23.131
X74.584 Y31.436 I0.785 J-1.278
X75.284 Y32.256 I1.414 J-0.499
X130.258 Y0.516 I17.738 J-32.756
X129.899 Y-0.5 I-1.499 J-0.041
X130.258 Y-1.516 I-1.14 J-0.975
X75.284 Y-33.256 I-37.236 J1.016
X74.584 Y-32.436 I0.714 J1.319
X73.524 Y-32.239 I-0.275 J1.475
X63.824 Y-23.631 I19.498 J31.739
X65 Y-21.2 I1.176 J0.931
G1 X74.754
G2 X75.707 Y-21.542 I0 J-1.5
G3 X90.494 Y-27.632 I17.315 J21.042
G2 X91.688 Y-29.813 I-0.139 J-1.494
G3 X94.355 Y-31.187 I1.333 J-0.687
X94.355 Y-29.813 I-1.333 J0.687
G2 X95.55 Y-27.632 I1.333 J0.687
G3 X115.255 Y-16.255 I-2.528 J27.132
G1 Z-17.1 F333.3
G2 X117.741 Y-16.312 I1.224 J-0.867 F400
G3 X120.265 Y-14.689 I1.262 J0.811
X119.074 Y-14.002 I-1.262 J-0.811
G2 X117.783 Y-11.877 I0.072 J1.498
G3 X120.106 Y-3.5 I-24.761 J11.377
G1 Z-16.8
G3 X120.106 Y2.5 I-27.084 J3
G1 Z-17.1 F333.3
G3 X117.783 Y10.877 I-27.084 J-3 F400
G2 X119.074 Y13.002 I1.363 J0.626
G3 X118.931 Y15.999 I-0.072 J1.499
X117.741 Y15.312 I0.072 J-1.499
G2 X115.255 Y15.255 I-1.262 J0.811
G3 X109.162 Y21.455 I-22.233 J-15.755
G1 Z-16.8
G3 X103.966 Y24.456 I-16.14 J-21.955
G1 Z-17.1 F333.3
G3 X95.55 Y26.632 I-10.944 J-24.955 F400
G2 X94.355 Y28.813 I0.139 J1.494
G3 X91.688 Y30.187 I-1.333 J0.687
X91.688 Y28.813 I1.333 J-0.687
G2 X90.494 Y26.632 I-1.333 J-0.687
G3 X75.707 Y20.542 I2.528 J-27.132
G2 X74.754 Y20.2 I-0.953 J1.158
G1 X65
G2 X63.824 Y22.631 I0 J1.5
X73.524 Y31.239 I29.198 J-23.131
X74.584 Y31.436 I0.785 J-1.278
X75.284 Y32.256 I1.414 J-0.499
X84.277 Y35.709 I17.738 J-32.756
G1 Z-16.8
G2 X90.204 Y36.643 I8.745 J-36.209
G1 Z-17.1 F333.3
G2 X108.988 Y33.155 I2.818 J-37.143 F400
G1 Z-16.8
G2 X114.185 Y30.155 I-15.966 J-33.655
G1 Z-17.1 F333.3
G2 X126.598 Y15.631 I-21.163 J-30.655 F400
G1 Z-16.8
G2 X128.753 Y10.032 I-33.576 J-16.132
G1 Z-17.1 F333.3
G2 X130.258 Y0.516 I-35.73 J-10.532 F400
X129.899 Y-0.5 I-1.499 J-0.041
X130.258 Y-1.516 I-1.14 J-0.975
X128.753 Y-11.032 I-37.236 J1.016
G1 Z-16.8
G2 X126.598 Y-16.631 I-35.73 J10.532
G1 Z-17.1 F333.3
G2 X114.185 Y-31.155 I-33.576 J16.132 F400
G1 Z-16.8
G2 X108.988 Y-34.155 I-21.163 J30.655
G1 Z-17.1 F333.3
G2 X90.204 Y-37.643 I-15.966 J33.655 F400
G1 Z-16.8
G2 X84.277 Y-36.709 I2.818 J37.143
G1 Z-17.1 F333.3
G2 X75.284 Y-33.256 I8.745 J36.209 F400
X74.584 Y-32.436 I0.714 J1.319
X73.524 Y-32.239 I-0.275 J1.475
X63.824 Y-23.631 I19.498 J31.739
X65 Y-21.2 I1.176 J0.931
G1 X74.754
G2 X75.707 Y-21.542 I0 J-1.5
G3 X90.494 Y-27.632 I17.315 J21.042
G2 X91.688 Y-29.813 I-0.139 J-1.494
G3 X94.355 Y-31.187 I1.333 J-0.687
X94.355 Y-29.813 I-1.333 J0.687
G2 X95.55 Y-27.632 I1.333 J0.687
G3 X103.966 Y-25.456 I-2.528 J27.132
G1 Z-16.8
G3 X109.162 Y-22.456 I-10.944 J24.955
G1 Z-17.1 F333.3
G3 X115.255 Y-16.255 I-16.141 J21.955 F400
G0 Z5
X161.55 Y-26.632
G1 Z2.5 F333.3
Z-1.5
G3 X181.255 Y-15.255 I-2.528 J27.132 F400
G2 X183.741 Y-15.312 I1.224 J-0.867
G3 X186.265 Y-13.689 I1.262 J0.811
X185.074 Y-13.002 I-1.262 J-0.811
G2 X183.783 Y-10.877 I0.072 J1.498
G3 X183.783 Y11.877 I-24.761 J11.377
G2 X185.074 Y14.002 I1.363 J0.626
G3 X184.931 Y16.999 I-0.072 J1.499
X183.741 Y16.312 I0.072 J-1.499
G2 X181.255 Y16.255 I-1.262 J0.811
G3 X161.55 Y27.632 I-22.233 J-15.755
G2 X160.356 Y29.813 I0.139 J1.494
G3 X157.688 Y31.187 I-1.334 J0.687
X157.688 Y29.813 I1.334 J-0.687
G2 X156.494 Y27.632 I-1.333 J-0.687
G3 X141.707 Y21.542 I2.528 J-27.132
G2 X140.754 Y21.2 I-0.953 J1.158
G1 X131
G2 X129.824 Y23.631 I0 J1.5
X139.524 Y32.239 I29.197 J-23.132
X140.584 Y32.436 I0.785 J-1.278
X141.284 Y33.256 I1.414 J-0.499
X196.258 Y1.516 I17.738 J-32.756
X195.899 Y0.5 I-1.499 J-0.041
X196.258 Y-0.516 I-1.14 J-0.975
X141.284 Y-32.256 I-37.236 J1.016
X140.584 Y-31.436 I0.714 J1.319
X139.524 Y-31.239 I-0.275 J1.475
X129.824 Y-22.631 I19.498 J31.74
X131 Y-20.2 I1.176 J0.931
G1 X140.754
G2 X141.707 Y-20.542 I0 J-1.5
G3 X156.494 Y-26.632 I17.315 J21.042
G2 X157.688 Y-28.813 I-0.139 J-1.494
G3 X160.356 Y-30.187 I1.334 J-0.687
X160.356 Y-28.813 I-1.334 J0.687
G2 X161.55 Y-26.632 I1.333 J0.687
G1 Z-3 F333.3
G3 X181.255 Y-15.255 I-2.528 J27.132 F400
G2 X183.741 Y-15.312 I1.224 J-0.867
G3 X186.265 Y-13.689 I1.262 J0.811
X185.074 Y-13.002 I-1.262 J-0.811
G2 X183.783 Y-10.877 I0.072 J1.498
G3 X183.783 Y11.877 I-24.761 J11.377
G2 X185.074 Y14.002 I1.363 J0.626
G3 X184.931 Y16.999 I-0.072 J1.499
X183.741 Y16.312 I0.072 J-1.499
G2 X181.255 Y16.255 I-1.262 J0.811
G3 X161.55 Y27.632 I-22.233 J-15.755
G2 X160.356 Y29.813 I0.139 J1.494
G3 X157.688 Y31.187 I-1.334 J0.687
X157.688 Y29.813 I1.334 J-0.687
G2 X156.494 Y27.632 I-1.333 J-0.687
G3 X141.707 Y21.542 I2.528 J-27.132
G2 X140.754 Y21.2 I-0.953 J1.158
G1 X131
G2 X129.824 Y23.631 I0 J1.5
X139.524 Y32.239 I29.197 J-23.132
X140.584 Y32.436 I0.785 J-1.278
X141.284 Y33.256 I1.414 J-0.499
X196.258 Y1.516 I17.738 J-32.756
X195.899 Y0.5 I-1.499 J-0.041
X196.258 Y-0.516 I-1.14 J-0.975
X141.284 Y-32.256 I-37.236 J1.016
X140.584 Y-31.436 I0.714 J1.319
X139.524 Y-31.239 I-0.275 J1.475
X129.824 Y-22.631 I19.498 J31.74
X131 Y-20.2 I1.176 J0.931
G1 X140.754
G2 X141.707 Y-20.542 I0 J-1.5
G3 X156.494 Y-26.632 I17.315 J21.042
G2 X157.688 Y-28.813 I-0.139 J-1.494
G3 X160.356 Y-30.187 I1.334 J-0.687
X160.356 Y-28.813 I-1.334 J0.687
G2 X161.55 Y-26.632 I1.333 J0.687
G1 Z-4.5 F333.3
G3 X181.255 Y-15.255 I-2.528 J27.132 F400
G2 X183.741 Y-15.312 I1.224 J-0.867
G3 X186.265 Y-13.689 I1.262 J0.811
X185.074 Y-13.002 I-1.262 J-0.811
G2 X183.783 Y-10.877 I0.072 J1.498
G3 X183.783 Y11.877 I-24.761 J11.377
G2 X185.074 Y14.002 I1.363 J0.626
G3 X184.931 Y16.999 I-0.072 J1.499
X183.741 Y16.312 I0.072 J-1.499
G2 X181.255 Y16.255 I-1.262 J0.811
G3 X161.55 Y27.632 I-22.233 J-15.755
G2 X160.356 Y29.813 I0.139 J1.494
G3 X157.688 Y31.187 I-1.334 J0.687
X157.688 Y29.813 I1.334 J-0.687
G2 X156.494 Y27.632 I-1.333 J-0.687
G3 X141.707 Y21.542 I2.528 J-27.132
G2 X140.754 Y21.2 I-0.953 J1.158
G1 X131
G2 X129.824 Y23.631 I0 J1.5
X139.524 Y32.239 I29.197 J-23.132
X140.584 Y32.436 I0.785 J-1.278
X141.284 Y33.256 I1.414 J-0.499
X196.258 Y1.516 I17.738 J-32.756
X195.899 Y0.5 I-1.499 J-0.041
X196.258 Y-0.516 I-1.14 J-0.975
X141.284 Y-32.256 I-37.236 J1.016
X140.584 Y-31.436 I0.714 J1.319
X139.524 Y-31.239 I-0.275 J1.475
X129.824 Y-22.631 I19.498 J31.74
X131 Y-20.2 I1.176 J0.931
G1 X140.754
G2 X141.707 Y-20.542 I0 J-1.5
G3 X156.494 Y-26.632 I17.315 J21.042
G2 X157.688 Y-28.813 I-0.139 J-1.494
G3 X160.356 Y-30.187 I1.334 J-0.687
X160.356 Y-28.813 I-1.334 J0.687
G2 X161.55 Y-26.632 I1.333 J0.687
G1 Z-6 F333.3
G3 X181.255 Y-15.255 I-2.528 J27.132 F400
G2 X183.741 Y-15.312 I1.224 J-0.867
G3 X186.265 Y-13.689 I1.262 J0.811
X185.074 Y-13.002 I-1.262 J-0.811
G2 X183.783 Y-10.877 I0.072 J1.498
G3 X183.783 Y11.877 I-24.761 J11.377
G2 X185.074 Y14.002 I1.363 J0.626
G3 X184.931 Y16.999 I-0.072 J1.499
X183.741 Y16.312 I0.072 J-1.499
G2 X181.255 Y16.255 I-1.262 J0.811
G3 X161.55 Y27.632 I-22.233 J-15.755
G2 X160.356 Y29.813 I0.139 J1.494
G3 X157.688 Y31.187 I-1.334 J0.687
X157.688 Y29.813 I1.334 J-0.687
G2 X156.494 Y27.632 I-1.333 J-0.687
G3 X141.707 Y21.542 I2.528 J-27.132
G2 X140.754 Y21.2 I-0.953 J1.158
G1 X131
G2 X129.824 Y23.631 I0 J1.5
X139.524 Y32.239 I29.197 J-23.132
X140.584 Y32.436 I0.785 J-1.278
X141.284 Y33.256 I1.414 J-0.499
X196.258 Y1.516 I17.738 J-32.756
X195.899 Y0.5 I-1.499 J-0.041
X196.258 Y-0.516 I-1.14 J-0.975
X141.284 Y-32.256 I-37.236 J1.016
X140.584 Y-31.436 I0.714 J1.319
X139.524 Y-31.239 I-0.275 J1.475
X129.824 Y-22.631 I19.498 J31.74
X131 Y-20.2 I1.176 J0.931
G1 X140.754
G2 X141.707 Y-20.542 I0 J-1.5
G3 X156.494 Y-26.632 I17.315 J21.042
G2 X157.688 Y-28.813 I-0.139 J-1.494
G3 X160.356 Y-30.187 I1.334 J-0.687
X160.356 Y-28.813 I-1.334 J0.687
G2 X161.55 Y-26.632 I1.333 J0.687
G1 Z-7.5 F333.3
G3 X181.255 Y-15.255 I-2.528 J27.132 F400
G2 X183.741 Y-15.312 I1.224 J-0.867
G3 X186.265 Y-13.689 I1.262 J0.811
X185.074 Y-13.002 I-1.262 J-0.811
G2 X183.783 Y-10.877 I0.072 J1.498
G3 X183.783 Y11.877 I-24.761 J11.377
G2 X185.074 Y14.002 I1.363 J0.626
G3 X184.931 Y16.999 I-0.072 J1.499
X183.741 Y16.312 I0.072 J-1.499
G2 X181.255 Y16.255 I-1.262 J0.811
G3 X161.55 Y27.632 I-22.233 J-15.755
G2 X160.356 Y29.813 I0.139 J1.494
G3 X157.688 Y31.187 I-1.334 J0.687
X157.688 Y29.813 I1.334 J-0.687
G2 X156.494 Y27.632 I-1.333 J-0.687
G3 X141.707 Y21.542 I2.528 J-27.132
G2 X140.754 Y21.2 I-0.953 J1.158
G1 X131
G2 X129.824 Y23.631 I0 J1.5
X139.524 Y32.239 I29.197 J-23.132
X140.584 Y32.436 I0.785 J-1.278
X141.284 Y33.256 I1.414 J-0.499
X196.258 Y1.516 I17.738 J-32.756
X195.899 Y0.5 I-1.499 J-0.041
X196.258 Y-0.516 I-1.14 J-0.975
X141.284 Y-32.256 I-37.236 J1.016
X140.584 Y-31.436 I0.714 J1.319
X139.524 Y-31.239 I-0.275 J1.475
X129.824 Y-22.631 I19.498 J31.74
X131 Y-20.2 I1.176 J0.931
G1 X140.754
G2 X141.707 Y-20.542 I0 J-1.5
G3 X156.494 Y-26.632 I17.315 J21.042
G2 X157.688 Y-28.813 I-0.139 J-1.494
G3 X160.356 Y-30.187 I1.334 J-0.687
X160.356 Y-28.813 I-1.334 J0.687
G2 X161.55 Y-26.632 I1.333 J0.687
G1 Z-9 F333.3
G3 X181.255 Y-15.255 I-2.528 J27.132 F400
G2 X183.741 Y-15.312 I1.224 J-0.867
G3 X186.265 Y-13.689 I1.262 J0.811
X185.074 Y-13.002 I-1.262 J-0.811
G2 X183.783 Y-10.877 I0.072 J1.498
G3 X183.783 Y11.877 I-24.761 J11.377
G2 X185.074 Y14.002 I1.363 J0.626
G3 X184.931 Y16.999 I-0.072 J1.499
X183.741 Y16.312 I0.072 J-1.499
G2 X181.255 Y16.255 I-1.262 J0.811
G3 X161.55 Y27.632 I-22.233 J-15.755
G2 X160.356 Y29.813 I0.139 J1.494
G3 X157.688 Y31.187 I-1.334 J0.687
X157.688 Y29.813 I1.334 J-0.687
G2 X156.494 Y27.632 I-1.333 J-0.687
G3 X141.707 Y21.542 I2.528 J-27.132
G2 X140.754 Y21.2 I-0.953 J1.158
G1 X131
G2 X129.824 Y23.631 I0 J1.5
X139.524 Y32.239 I29.197 J-23.132
X140.584 Y32.436 I0.785 J-1.278
X141.284 Y33.256 I1.414 J-0.499
X196.258 Y1.516 I17.738 J-32.756
X195.899 Y0.5 I-1.499 J-0.041
X196.258 Y-0.516 I-1.14 J-0.975
X141.284 Y-32.256 I-37.236 J1.016
X140.584 Y-31.436 I0.714 J1.319
X139.524 Y-31.239 I-0.275 J1.475
X129.824 Y-22.631 I19.498 J31.74
X131 Y-20.2 I1.176 J0.931
G1 X140.754
G2 X141.707 Y-20.542 I0 J-1.5
G3 X156.494 Y-26.632 I17.315 J21.042
G2 X157.688 Y-28.813 I-0.139 J-1.494
G3 X160.356 Y-30.187 I1.334 J-0.687
X160.356 Y-28.813 I-1.334 J0.687
G2 X161.55 Y-26.632 I1.333 J0.687
G1 Z-10.5 F333.3
G3 X181.255 Y-15.255 I-2.528 J27.132 F400
G2 X183.741 Y-15.312 I1.224 J-0.867
G3 X186.265 Y-13.689 I1.262 J0.811
X185.074 Y-13.002 I-1.262 J-0.811
G2 X183.783 Y-10.877 I0.072 J1.498
G3 X183.783 Y11.877 I-24.761 J11.377
G2 X185.074 Y14.002 I1.363 J0.626
G3 X184.931 Y16.999 I-0.072 J1.499
X183.741 Y16.312 I0.072 J-1.499
G2 X181.255 Y16.255 I-1.262 J0.811
G3 X161.55 Y27.632 I-22.233 J-15.755
G2 X160.356 Y29.813 I0.139 J1.494
G3 X157.688 Y31.187 I-1.334 J0.687
X157.688 Y29.813 I1.334 J-0.687
G2 X156.494 Y27.632 I-1.333 J-0.687
G3 X141.707 Y21.542 I2.528 J-27.132
G2 X140.754 Y21.2 I-0.953 J1.158
G1 X131
G2 X129.824 Y23.631 I0 J1.5
X139.524 Y32.239 I29.197 J-23.132
X140.584 Y32.436 I0.785 J-1.278
X141.284 Y33.256 I1.414 J-0.499
X196.258 Y1.516 I17.738 J-32.756
X195.899 Y0.5 I-1.499 J-0.041
X196.258 Y-0.516 I-1.14 J-0.975
X141.284 Y-32.256 I-37.236 J1.016
X140.584 Y-31.436 I0.714 J1.319
X139.524 Y-31.239 I-0.275 J1.475
X129.824 Y-22.631 I19.498 J31.74
X131 Y-20.2 I1.176 J0.931
G1 X140.754
G2 X141.707 Y-20.542 I0 J-1.5
G3 X156.494 Y-26.632 I17.315 J21.042
G2 X157.688 Y-28.813 I-0.139 J-1.494
G3 X160.356 Y-30.187 I1.334 J-0.687
X160.356 Y-28.813 I-1.334 J0.687
G2 X161.55 Y-26.632 I1.333 J0.687
G1 Z-12 F333.3
G3 X181.255 Y-15.255 I-2.528 J27.132 F400
G2 X183.741 Y-15.312 I1.224 J-0.867
G3 X186.265 Y-13.689 I1.262 J0.811
X185.074 Y-13.002 I-1.262 J-0.811
G2 X183.783 Y-10.877 I0.072 J1.498
G3 X183.783 Y11.877 I-24.761 J11.377
G2 X185.074 Y14.002 I1.363 J0.626
G3 X184.931 Y16.999 I-0.072 J1.499
X183.741 Y16.312 I0.072 J-1.499
G2 X181.255 Y16.255 I-1.262 J0.811
G3 X161.55 Y27.632 I-22.233 J-15.755
G2 X160.356 Y29.813 I0.139 J1.494
G3 X157.688 Y31.187 I-1.334 J0.687
X157.688 Y29.813 I1.334 J-0.687
G2 X156.494 Y27.632 I-1.333 J-0.687
G3 X141.707 Y21.542 I2.528 J-27.132
G2 X140.754 Y21.2 I-0.953 J1.158
G1 X131
G2 X129.824 Y23.631 I0 J1.5
X139.524 Y32.239 I29.197 J-23.132
X140.584 Y32.436 I0.785 J-1.278
X141.284 Y33.256 I1.414 J-0.499
X196.258 Y1.516 I17.738 J-32.756
X195.899 Y0.5 I-1.499 J-0.041
X196.258 Y-0.516 I-1.14 J-0.975
X141.284 Y-32.256 I-37.236 J1.016
X140.584 Y-31.436 I0.714 J1.319
X139.524 Y-31.239 I-0.275 J1.475
X129.824 Y-22.631 I19.498 J31.74
X131 Y-20.2 I1.176 J0.931
G1 X140.754
G2 X141.707 Y-20.542 I0 J-1.5
G3 X156.494 Y-26.632 I17.315 J21.042
G2 X157.688 Y-28.813 I-0.139 J-1.494
G3 X160.356 Y-30.187 I1.334 J-0.687
X160.356 Y-28.813 I-1.334 J0.687
G2 X161.55 Y-26.632 I1.333 J0.687
G1 Z-13.5 F333.3
G3 X181.255 Y-15.255 I-2.528 J27.132 F400
G2 X183.741 Y-15.312 I1.224 J-0.867
G3 X186.265 Y-13.689 I1.262 J0.811
X185.074 Y-13.002 I-1.262 J-0.811
G2 X183.783 Y-10.877 I0.072 J1.498
G3 X183.783 Y11.877 I-24.761 J11.377
G2 X185.074 Y14.002 I1.363 J0.626
G3 X184.931 Y16.999 I-0.072 J1.499
X183.741 Y16.312 I0.072 J-1.499
G2 X181.255 Y16.255 I-1.262 J0.811
G3 X161.55 Y27.632 I-22.233 J-15.755
G2 X160.356 Y29.813 I0.139 J1.494
G3 X157.688 Y31.187 I-1.334 J0.687
X157.688 Y29.813 I1.334 J-0.687
G2 X156.494 Y27.632 I-1.333 J-0.687
G3 X141.707 Y21.542 I2.528 J-27.132
G2 X140.754 Y21.2 I-0.953 J1.158
G1 X131
G2 X129.824 Y23.631 I0 J1.5
X139.524 Y32.239 I29.197 J-23.132
X140.584 Y32.436 I0.785 J-1.278
X141.284 Y33.256 I1.414 J-0.499
X196.258 Y1.516 I17.738 J-32.756
X195.899 Y0.5 I-1.499 J-0.041
X196.258 Y-0.516 I-1.14 J-0.975
X141.284 Y-32.256 I-37.236 J1.016
X140.584 Y-31.436 I0.714 J1.319
X139.524 Y-31.239 I-0.275 J1.475
X129.824 Y-22.631 I19.498 J31.74
X131 Y-20.2 I1.176 J0.931
G1 X140.754
G2 X141.707 Y-20.542 I0 J-1.5
G3 X156.494 Y-26.632 I17.315 J21.042
G2 X157.688 Y-28.813 I-0.139 J-1.494
G3 X160.356 Y-30.187 I1.334 J-0.687
X160.356 Y-28.813 I-1.334 J0.687
G2 X161.55 Y-26.632 I1.333 J0.687
G1 Z-15 F333.3
G3 X181.255 Y-15.255 I-2.528 J27.132 F400
G2 X183.741 Y-15.312 I1.224 J-0.867
G3 X186.265 Y-13.689 I1.262 J0.811
X185.074 Y-13.002 I-1.262 J-0.811
G2 X183.783 Y-10.877 I0.072 J1.498
G3 X183.783 Y11.877 I-24.761 J11.377
G2 X185.074 Y14.002 I1.363 J0.626
G3 X184.931 Y16.999 I-0.072 J1.499
X183.741 Y16.312 I0.072 J-1.499
G2 X181.255 Y16.255 I-1.262 J0.811
G3 X161.55 Y27.632 I-22.233 J-15.755
G2 X160.356 Y29.813 I0.139 J1.494
G3 X157.688 Y31.187 I-1.334 J0.687
X157.688 Y29.813 I1.334 J-0.687
G2 X156.494 Y27.632 I-1.333 J-0.687
G3 X141.707 Y21.542 I2.528 J-27.132
G2 X140.754 Y21.2 I-0.953 J1.158
G1 X131
G2 X129.824 Y23.631 I0 J1.5
X139.524 Y32.239 I29.197 J-23.132
X140.584 Y32.436 I0.785 J-1.278
X141.284 Y33.256 I1.414 J-0.499
X196.258 Y1.516 I17.738 J-32.756
X195.899 Y0.5 I-1.499 J-0.041
X196.258 Y-0.516 I-1.14 J-0.975
X141.284 Y-32.256 I-37.236 J1.016
X140.584 Y-31.436 I0.714 J1.319
X139.524 Y-31.239 I-0.275 J1.475
X129.824 Y-22.631 I19.498 J31.74
X131 Y-20.2 I1.176 J0.931
G1 X140.754
G2 X141.707 Y-20.542 I0 J-1.5
G3 X156.494 Y-26.632 I17.315 J21.042
G2 X157.688 Y-28.813 I-0.139 J-1.494
G3 X160.356 Y-30.187 I1.334 J-0.687
X160.356 Y-28.813 I-1.334 J0.687
G2 X161.55 Y-26.632 I1.333 J0.687
G1 Z-16.5 F333.3
G3 X181.255 Y-15.255 I-2.528 J27.132 F400
G2 X183.741 Y-15.312 I1.224 J-0.867
G3 X186.265 Y-13.689 I1.262 J0.811
X185.074 Y-13.002 I-1.262 J-0.811
G2 X183.783 Y-10.877 I0.072 J1.498
G3 X183.783 Y11.877 I-24.761 J11.377
G2 X185.074 Y14.002 I1.363 J0.626
G3 X184.931 Y16.999 I-0.072 J1.499
X183.741 Y16.312 I0.072 J-1.499
G2 X181.255 Y16.255 I-1.262 J0.811
G3 X161.55 Y27.632 I-22.233 J-15.755
G2 X160.356 Y29.813 I0.139 J1.494
G3 X157.688 Y31.187 I-1.334 J0.687
X157.688 Y29.813 I1.334 J-0.687
G2 X156.494 Y27.632 I-1.333 J-0.687
G3 X141.707 Y21.542 I2.528 J-27.132
G2 X140.754 Y21.2 I-0.953 J1.158
G1 X131
G2 X129.824 Y23.631 I0 J1.5
X139.524 Y32.239 I29.197 J-23.132
X140.584 Y32.436 I0.785 J-1.278
X141.284 Y33.256 I1.414 J-0.499
X196.258 Y1.516 I17.738 J-32.756
X195.899 Y0.5 I-1.499 J-0.041
X196.258 Y-0.516 I-1.14 J-0.975
X141.284 Y-32.256 I-37.236 J1.016
X140.584 Y-31.436 I0.714 J1.319
X139.524 Y-31.239 I-0.275 J1.475
X129.824 Y-22.631 I19.498 J31.74
X131 Y-20.2 I1.176 J0.931
G1 X140.754
G2 X141.707 Y-20.542 I0 J-1.5
G3 X156.494 Y-26.632 I17.315 J21.042
G2 X157.688 Y-28.813 I-0.139 J-1.494
G3 X160.356 Y-30.187 I1.334 J-0.687
X160.356 Y-28.813 I-1.334 J0.687
G2 X161.55 Y-26.632 I1.333 J0.687
G1 Z-17.1 F333.3
G3 X169.966 Y-24.456 I-2.528 J27.132 F400
G1 Z-16.8
G3 X175.162 Y-21.456 I-10.944 J24.955
G1 Z-17.1 F333.3
G3 X181.255 Y-15.255 I-16.14 J21.955 F400
G2 X183.741 Y-15.312 I1.224 J-0.867
G3 X186.265 Y-13.689 I1.262 J0.811
X185.074 Y-13.002 I-1.262 J-0.811
G2 X183.783 Y-10.877 I0.072 J1.498
G3 X186.106 Y-2.5 I-24.761 J11.377
G1 Z-16.8
G3 X186.106 Y3.5 I-27.084 J3
G1 Z-17.1 F333.3
G3 X183.783 Y11.877 I-27.084 J-3 F400
G2 X185.074 Y14.002 I1.363 J0.626
G3 X184.931 Y16.999 I-0.072 J1.499
X183.741 Y16.312 I0.072 J-1.499
G2 X181.255 Y16.255 I-1.262 J0.811
G3 X175.162 Y22.456 I-22.233 J-15.755
G1 Z-16.8
G3 X169.966 Y25.456 I-16.141 J-21.955
G1 Z-17.1 F333.3
G3 X161.55 Y27.632 I-10.944 J-24.955 F400
G2 X160.356 Y29.813 I0.139 J1.494
G3 X157.688 Y31.187 I-1.334 J0.687
X157.688 Y29.813 I1.334 J-0.687
G2 X156.494 Y27.632 I-1.333 J-0.687
G3 X141.707 Y21.542 I2.528 J-27.132
G2 X140.754 Y21.2 I-0.953 J1.158
G1 X131
G2 X129.824 Y23.631 I0 J1.5
X139.524 Y32.239 I29.197 J-23.132
X140.584 Y32.436 I0.785 J-1.278
X141.284 Y33.256 I1.414 J-0.499
X150.277 Y36.709 I17.738 J-32.756
G1 Z-16.8
G2 X156.204 Y37.643 I8.745 J-36.209
G1 Z-17.1 F333.3
G2 X174.989 Y34.155 I2.818 J-37.143 F400
G1 Z-16.8
G2 X180.185 Y31.155 I-15.966 J-33.655
G1 Z-17.1 F333.3
G2 X192.598 Y16.631 I-21.163 J-30.655 F400
G1 Z-16.8
G2 X194.753 Y11.032 I-33.576 J-16.131
G1 Z-17.1 F333.3
G2 X196.258 Y1.516 I-35.73 J-10.532 F400
X195.899 Y0.5 I-1.499 J-0.041
X196.258 Y-0.516 I-1.14 J-0.975
X194.753 Y-10.032 I-37.236 J1.016
G1 Z-16.8
G2 X192.598 Y-15.631 I-35.73 J10.532
G1 Z-17.1 F333.3
G2 X180.185 Y-30.155 I-33.576 J16.131 F400
G1 Z-16.8
G2 X174.989 Y-33.155 I-21.163 J30.655
G1 Z-17.1 F333.3
G2 X156.204 Y-36.643 I-15.966 J33.655 F400
G1 Z-16.8
G2 X150.277 Y-35.709 I2.818 J37.143
G1 Z-17.1 F333.3
G2 X141.284 Y-32.256 I8.745 J36.209 F400
X140.584 Y-31.436 I0.714 J1.319
X139.524 Y-31.239 I-0.275 J1.475
X129.824 Y-22.631 I19.498 J31.74
X131 Y-20.2 I1.176 J0.931
G1 X140.754
G2 X141.707 Y-20.542 I0 J-1.5
G3 X156.494 Y-26.632 I17.315 J21.042
G2 X157.688 Y-28.813 I-0.139 J-1.494
G3 X160.356 Y-30.187 I1.334 J-0.687
X160.356 Y-28.813 I-1.334 J0.687
G2 X161.55 Y-26.632 I1.333 J0.687
G0 Z5
X141.847 Y-29.378
G1 Z2.5 F333.3
Z-1.5
X141.84 Y-29.346 F400
X141.82 Y-29.32
X141.79 Y-29.305
X141.758 Y-29.304
X141.728 Y-29.317
X141.706 Y-29.342
X141.697 Y-29.373
X141.702 Y-29.406
X141.723 Y-29.462
X141.783 Y-29.452
X141.808 Y-29.444
X141.829 Y-29.427
X141.842 Y-29.404
X141.847 Y-29.378
Z-3 F333.3
X141.84 Y-29.346 F400
X141.82 Y-29.32
X141.79 Y-29.305
X141.758 Y-29.304
X141.728 Y-29.317
X141.706 Y-29.342
X141.697 Y-29.373
X141.702 Y-29.406
X141.723 Y-29.462
X141.783 Y-29.452
X141.808 Y-29.444
X141.829 Y-29.427
X141.842 Y-29.404
X141.847 Y-29.378
Z-4.5 F333.3
X141.84 Y-29.346 F400
X141.82 Y-29.32
X141.79 Y-29.305
X141.758 Y-29.304
X141.728 Y-29.317
X141.706 Y-29.342
X141.697 Y-29.373
X141.702 Y-29.406
X141.723 Y-29.462
X141.783 Y-29.452
X141.808 Y-29.444
X141.829 Y-29.427
X141.842 Y-29.404
X141.847 Y-29.378
Z-6 F333.3
X141.84 Y-29.346 F400
X141.82 Y-29.32
X141.79 Y-29.305
X141.758 Y-29.304
X141.728 Y-29.317
X141.706 Y-29.342
X141.697 Y-29.373
X141.702 Y-29.406
X141.723 Y-29.462
X141.783 Y-29.452
X141.808 Y-29.444
X141.829 Y-29.427
X141.842 Y-29.404
X141.847 Y-29.378
Z-7.5 F333.3
X141.84 Y-29.346 F400
X141.82 Y-29.32
X141.79 Y-29.305
X141.758 Y-29.304
X141.728 Y-29.317
X141.706 Y-29.342
X141.697 Y-29.373
X141.702 Y-29.406
X141.723 Y-29.462
X141.783 Y-29.452
X141.808 Y-29.444
X141.829 Y-29.427
X141.842 Y-29.404
X141.847 Y-29.378
Z-9 F333.3
X141.84 Y-29.346 F400
X141.82 Y-29.32
X141.79 Y-29.305
X141.758 Y-29.304
X141.728 Y-29.317
X141.706 Y-29.342
X141.697 Y-29.373
X141.702 Y-29.406
X141.723 Y-29.462
X141.783 Y-29.452
X141.808 Y-29.444
X141.829 Y-29.427
X141.842 Y-29.404
X141.847 Y-29.378
Z-10.5 F333.3
X141.84 Y-29.346 F400
X141.82 Y-29.32
X141.79 Y-29.305
X141.758 Y-29.304
X141.728 Y-29.317
X141.706 Y-29.342
X141.697 Y-29.373
X141.702 Y-29.406
X141.723 Y-29.462
X141.783 Y-29.452
X141.808 Y-29.444
X141.829 Y-29.427
X141.842 Y-29.404
X141.847 Y-29.378
Z-12 F333.3
X141.84 Y-29.346 F400
X141.82 Y-29.32
X141.79 Y-29.305
X141.758 Y-29.304
X141.728 Y-29.317
X141.706 Y-29.342
X141.697 Y-29.373
X141.702 Y-29.406
X141.723 Y-29.462
X141.783 Y-29.452
X141.808 Y-29.444
X141.829 Y-29.427
X141.842 Y-29.404
X141.847 Y-29.378
Z-13.5 F333.3
X141.84 Y-29.346 F400
X141.82 Y-29.32
X141.79 Y-29.305
X141.758 Y-29.304
X141.728 Y-29.317
X141.706 Y-29.342
X141.697 Y-29.373
X141.702 Y-29.406
X141.723 Y-29.462
X141.783 Y-29.452
X141.808 Y-29.444
X141.829 Y-29.427
X141.842 Y-29.404
X141.847 Y-29.378
Z-15 F333.3
X141.84 Y-29.346 F400
X141.82 Y-29.32
X141.79 Y-29.305
X141.758 Y-29.304
X141.728 Y-29.317
X141.706 Y-29.342
X141.697 Y-29.373
X141.702 Y-29.406
X141.723 Y-29.462
X141.783 Y-29.452
X141.808 Y-29.444
X141.829 Y-29.427
X141.842 Y-29.404
X141.847 Y-29.378
Z-16.5 F333.3
X141.84 Y-29.346 F400
X141.82 Y-29.32
X141.79 Y-29.305
X141.758 Y-29.304
X141.728 Y-29.317
X141.706 Y-29.342
X141.697 Y-29.373
X141.702 Y-29.406
X141.723 Y-29.462
X141.783 Y-29.452
X141.808 Y-29.444
X141.829 Y-29.427
X141.842 Y-29.404
X141.847 Y-29.378
Z-17.1 F333.3
X141.84 Y-29.346 F400
X141.82 Y-29.32
X141.79 Y-29.305
X141.758 Y-29.304
X141.728 Y-29.317
X141.706 Y-29.342
X141.697 Y-29.373
X141.702 Y-29.406
X141.723 Y-29.462
X141.783 Y-29.452
X141.808 Y-29.444
X141.829 Y-29.427
X141.842 Y-29.404
X141.847 Y-29.378
G0 Z5
X127.581 Y-0.453
G1 Z2.5 F333.3
Z-1.5
X127.555 Y-0.432 F400
X127.522 Y-0.425
X127.49 Y-0.432
X127.463 Y-0.453
X127.449 Y-0.483
Y-0.517
X127.463 Y-0.547
X127.49 Y-0.568
X127.522 Y-0.575
X127.555 Y-0.568
X127.581 Y-0.547
X127.619 Y-0.5
X127.581 Y-0.453
Z-3 F333.3
X127.555 Y-0.432 F400
X127.522 Y-0.425
X127.49 Y-0.432
X127.463 Y-0.453
X127.449 Y-0.483
Y-0.517
X127.463 Y-0.547
X127.49 Y-0.568
X127.522 Y-0.575
X127.555 Y-0.568
X127.581 Y-0.547
X127.619 Y-0.5
X127.581 Y-0.453
Z-4.5 F333.3
X127.555 Y-0.432 F400
X127.522 Y-0.425
X127.49 Y-0.432
X127.463 Y-0.453
X127.449 Y-0.483
Y-0.517
X127.463 Y-0.547
X127.49 Y-0.568
X127.522 Y-0.575
X127.555 Y-0.568
X127.581 Y-0.547
X127.619 Y-0.5
X127.581 Y-0.453
Z-6 F333.3
X127.555 Y-0.432 F400
X127.522 Y-0.425
X127.49 Y-0.432
X127.463 Y-0.453
X127.449 Y-0.483
Y-0.517
X127.463 Y-0.547
X127.49 Y-0.568
X127.522 Y-0.575
X127.555 Y-0.568
X127.581 Y-0.547
X127.619 Y-0.5
X127.581 Y-0.453
Z-7.5 F333.3
X127.555 Y-0.432 F400
X127.522 Y-0.425
X127.49 Y-0.432
X127.463 Y-0.453
X127.449 Y-0.483
Y-0.517
X127.463 Y-0.547
X127.49 Y-0.568
X127.522 Y-0.575
X127.555 Y-0.568
X127.581 Y-0.547
X127.619 Y-0.5
X127.581 Y-0.453
Z-9 F333.3
X127.555 Y-0.432 F400
X127.522 Y-0.425
X127.49 Y-0.432
X127.463 Y-0.453
X127.449 Y-0.483
Y-0.517
X127.463 Y-0.547
X127.49 Y-0.568
X127.522 Y-0.575
X127.555 Y-0.568
X127.581 Y-0.547
X127.619 Y-0.5
X127.581 Y-0.453
Z-10.5 F333.3
X127.555 Y-0.432 F400
X127.522 Y-0.425
X127.49 Y-0.432
X127.463 Y-0.453
X127.449 Y-0.483
Y-0.517
X127.463 Y-0.547
X127.49 Y-0.568
X127.522 Y-0.575
X127.555 Y-0.568
X127.581 Y-0.547
X127.619 Y-0.5
X127.581 Y-0.453
Z-12 F333.3
X127.555 Y-0.432 F400
X127.522 Y-0.425
X127.49 Y-0.432
X127.463 Y-0.453
X127.449 Y-0.483
Y-0.517
X127.463 Y-0.547
X127.49 Y-0.568
X127.522 Y-0.575
X127.555 Y-0.568
X127.581 Y-0.547
X127.619 Y-0.5
X127.581 Y-0.453
Z-13.5 F333.3
X127.555 Y-0.432 F400
X127.522 Y-0.425
X127.49 Y-0.432
X127.463 Y-0.453
X127.449 Y-0.483
Y-0.517
X127.463 Y-0.547
X127.49 Y-0.568
X127.522 Y-0.575
X127.555 Y-0.568
X127.581 Y-0.547
X127.619 Y-0.5
X127.581 Y-0.453
Z-15 F333.3
X127.555 Y-0.432 F400
X127.522 Y-0.425
X127.49 Y-0.432
X127.463 Y-0.453
X127.449 Y-0.483
Y-0.517
X127.463 Y-0.547
X127.49 Y-0.568
X127.522 Y-0.575
X127.555 Y-0.568
X127.581 Y-0.547
X127.619 Y-0.5
X127.581 Y-0.453
Z-16.5 F333.3
X127.555 Y-0.432 F400
X127.522 Y-0.425
X127.49 Y-0.432
X127.463 Y-0.453
X127.449 Y-0.483
Y-0.517
X127.463 Y-0.547
X127.49 Y-0.568
X127.522 Y-0.575
X127.555 Y-0.568
X127.581 Y-0.547
X127.619 Y-0.5
X127.581 Y-0.453
Z-17.1 F333.3
X127.555 Y-0.432 F400
X127.522 Y-0.425
X127.49 Y-0.432
X127.463 Y-0.453
X127.449 Y-0.483
Y-0.517
X127.463 Y-0.547
X127.49 Y-0.568
X127.522 Y-0.575
X127.555 Y-0.568
X127.581 Y-0.547
X127.619 Y-0.5
X127.581 Y-0.453
G0 Z5
X141.847 Y30.378
G1 Z2.5 F333.3
Z-1.5
X141.842 Y30.404 F400
X141.829 Y30.427
X141.808 Y30.444
X141.783 Y30.452
X141.723 Y30.462
X141.702 Y30.406
X141.697 Y30.373
X141.706 Y30.342
X141.728 Y30.317
X141.758 Y30.304
X141.79 Y30.305
X141.82 Y30.32
X141.84 Y30.346
X141.847 Y30.378
Z-3 F333.3
X141.842 Y30.404 F400
X141.829 Y30.427
X141.808 Y30.444
X141.783 Y30.452
X141.723 Y30.462
X141.702 Y30.406
X141.697 Y30.373
X141.706 Y30.342
X141.728 Y30.317
X141.758 Y30.304
X141.79 Y30.305
X141.82 Y30.32
X141.84 Y30.346
X141.847 Y30.378
Z-4.5 F333.3
X141.842 Y30.404 F400
X141.829 Y30.427
X141.808 Y30.444
X141.783 Y30.452
X141.723 Y30.462
X141.702 Y30.406
X141.697 Y30.373
X141.706 Y30.342
X141.728 Y30.317
X141.758 Y30.304
X141.79 Y30.305
X141.82 Y30.32
X141.84 Y30.346
X141.847 Y30.378
Z-6 F333.3
X141.842 Y30.404 F400
X141.829 Y30.427
X141.808 Y30.444
X141.783 Y30.452
X141.723 Y30.462
X141.702 Y30.406
X141.697 Y30.373
X141.706 Y30.342
X141.728 Y30.317
X141.758 Y30.304
X141.79 Y30.305
X141.82 Y30.32
X141.84 Y30.346
X141.847 Y30.378
Z-7.5 F333.3
X141.842 Y30.404 F400
X141.829 Y30.427
X141.808 Y30.444
X141.783 Y30.452
X141.723 Y30.462
X141.702 Y30.406
X141.697 Y30.373
X141.706 Y30.342
X141.728 Y30.317
X141.758 Y30.304
X141.79 Y30.305
X141.82 Y30.32
X141.84 Y30.346
X141.847 Y30.378
Z-9 F333.3
X141.842 Y30.404 F400
X141.829 Y30.427
X141.808 Y30.444
X141.783 Y30.452
X141.723 Y30.462
X141.702 Y30.406
X141.697 Y30.373
X141.706 Y30.342
X141.728 Y30.317
X141.758 Y30.304
X141.79 Y30.305
X141.82 Y30.32
X141.84 Y30.346
X141.847 Y30.378
Z-10.5 F333.3
X141.842 Y30.404 F400
X141.829 Y30.427
X141.808 Y30.444
X141.783 Y30.452
X141.723 Y30.462
X141.702 Y30.406
X141.697 Y30.373
X141.706 Y30.342
X141.728 Y30.317
X141.758 Y30.304
X141.79 Y30.305
X141.82 Y30.32
X141.84 Y30.346
X141.847 Y30.378
Z-12 F333.3
X141.842 Y30.404 F400
X141.829 Y30.427
X141.808 Y30.444
X141.783 Y30.452
X141.723 Y30.462
X141.702 Y30.406
X141.697 Y30.373
X141.706 Y30.342
X141.728 Y30.317
X141.758 Y30.304
X141.79 Y30.305
X141.82 Y30.32
X141.84 Y30.346
X141.847 Y30.378
Z-13.5 F333.3
X141.842 Y30.404 F400
X141.829 Y30.427
X141.808 Y30.444
X141.783 Y30.452
X141.723 Y30.462
X141.702 Y30.406
X141.697 Y30.373
X141.706 Y30.342
X141.728 Y30.317
X141.758 Y30.304
X141.79 Y30.305
X141.82 Y30.32
X141.84 Y30.346
X141.847 Y30.378
Z-15 F333.3
X141.842 Y30.404 F400
X141.829 Y30.427
X141.808 Y30.444
X141.783 Y30.452
X141.723 Y30.462
X141.702 Y30.406
X141.697 Y30.373
X141.706 Y30.342
X141.728 Y30.317
X141.758 Y30.304
X141.79 Y30.305
X141.82 Y30.32
X141.84 Y30.346
X141.847 Y30.378
Z-16.5 F333.3
X141.842 Y30.404 F400
X141.829 Y30.427
X141.808 Y30.444
X141.783 Y30.452
X141.723 Y30.462
X141.702 Y30.406
X141.697 Y30.373
X141.706 Y30.342
X141.728 Y30.317
X141.758 Y30.304
X141.79 Y30.305
X141.82 Y30.32
X141.84 Y30.346
X141.847 Y30.378
Z-17.1 F333.3
X141.842 Y30.404 F400
X141.829 Y30.427
X141.808 Y30.444
X141.783 Y30.452
X141.723 Y30.462
X141.702 Y30.406
X141.697 Y30.373
X141.706 Y30.342
X141.728 Y30.317
X141.758 Y30.304
X141.79 Y30.305
X141.82 Y30.32
X141.84 Y30.346
X141.847 Y30.378
G0 Z5
X193.581 Y0.453
G1 Z2.5 F333.3
Z-1.5
X193.619 Y0.5 F400
X193.581 Y0.547
X193.555 Y0.568
X193.522 Y0.575
X193.49 Y0.568
X193.463 Y0.547
X193.449 Y0.517
Y0.483
X193.463 Y0.453
X193.49 Y0.432
X193.522 Y0.425
X193.555 Y0.432
X193.581 Y0.453
Z-3 F333.3
X193.619 Y0.5 F400
X193.581 Y0.547
X193.555 Y0.568
X193.522 Y0.575
X193.49 Y0.568
X193.463 Y0.547
X193.449 Y0.517
Y0.483
X193.463 Y0.453
X193.49 Y0.432
X193.522 Y0.425
X193.555 Y0.432
X193.581 Y0.453
Z-4.5 F333.3
X193.619 Y0.5 F400
X193.581 Y0.547
X193.555 Y0.568
X193.522 Y0.575
X193.49 Y0.568
X193.463 Y0.547
X193.449 Y0.517
Y0.483
X193.463 Y0.453
X193.49 Y0.432
X193.522 Y0.425
X193.555 Y0.432
X193.581 Y0.453
Z-6 F333.3
X193.619 Y0.5 F400
X193.581 Y0.547
X193.555 Y0.568
X193.522 Y0.575
X193.49 Y0.568
X193.463 Y0.547
X193.449 Y0.517
Y0.483
X193.463 Y0.453
X193.49 Y0.432
X193.522 Y0.425
X193.555 Y0.432
X193.581 Y0.453
Z-7.5 F333.3
X193.619 Y0.5 F400
X193.581 Y0.547
X193.555 Y0.568
X193.522 Y0.575
X193.49 Y0.568
X193.463 Y0.547
X193.449 Y0.517
Y0.483
X193.463 Y0.453
X193.49 Y0.432
X193.522 Y0.425
X193.555 Y0.432
X193.581 Y0.453
Z-9 F333.3
X193.619 Y0.5 F400
X193.581 Y0.547
X193.555 Y0.568
X193.522 Y0.575
X193.49 Y0.568
X193.463 Y0.547
X193.449 Y0.517
Y0.483
X193.463 Y0.453
X193.49 Y0.432
X193.522 Y0.425
X193.555 Y0.432
X193.581 Y0.453
Z-10.5 F333.3
X193.619 Y0.5 F400
X193.581 Y0.547
X193.555 Y0.568
X193.522 Y0.575
X193.49 Y0.568
X193.463 Y0.547
X193.449 Y0.517
Y0.483
X193.463 Y0.453
X193.49 Y0.432
X193.522 Y0.425
X193.555 Y0.432
X193.581 Y0.453
Z-12 F333.3
X193.619 Y0.5 F400
X193.581 Y0.547
X193.555 Y0.568
X193.522 Y0.575
X193.49 Y0.568
X193.463 Y0.547
X193.449 Y0.517
Y0.483
X193.463 Y0.453
X193.49 Y0.432
X193.522 Y0.425
X193.555 Y0.432
X193.581 Y0.453
Z-13.5 F333.3
X193.619 Y0.5 F400
X193.581 Y0.547
X193.555 Y0.568
X193.522 Y0.575
X193.49 Y0.568
X193.463 Y0.547
X193.449 Y0.517
Y0.483
X193.463 Y0.453
X193.49 Y0.432
X193.522 Y0.425
X193.555 Y0.432
X193.581 Y0.453
Z-15 F333.3
X193.619 Y0.5 F400
X193.581 Y0.547
X193.555 Y0.568
X193.522 Y0.575
X193.49 Y0.568
X193.463 Y0.547
X193.449 Y0.517
Y0.483
X193.463 Y0.453
X193.49 Y0.432
X193.522 Y0.425
X193.555 Y0.432
X193.581 Y0.453
Z-16.5 F333.3
X193.619 Y0.5 F400
X193.581 Y0.547
X193.555 Y0.568
X193.522 Y0.575
X193.49 Y0.568
X193.463 Y0.547
X193.449 Y0.517
Y0.483
X193.463 Y0.453
X193.49 Y0.432
X193.522 Y0.425
X193.555 Y0.432
X193.581 Y0.453
Z-17.1 F333.3
X193.619 Y0.5 F400
X193.581 Y0.547
X193.555 Y0.568
X193.522 Y0.575
X193.49 Y0.568
X193.463 Y0.547
X193.449 Y0.517
Y0.483
X193.463 Y0.453
X193.49 Y0.432
X193.522 Y0.425
X193.555 Y0.432
X193.581 Y0.453
G0 Z5
X75.809 Y29.313
G1 Z2.5 F333.3
Z-1.5
X75.832 Y29.333 F400
X75.845 Y29.361
Y29.392
X75.834 Y29.42
X75.811 Y29.442
X75.783 Y29.452
X75.723 Y29.462
X75.702 Y29.406
X75.697 Y29.375
X75.704 Y29.346
X75.723 Y29.321
X75.75 Y29.306
X75.78 Y29.303
X75.809 Y29.313
Z-3 F333.3
X75.832 Y29.333 F400
X75.845 Y29.361
Y29.392
X75.834 Y29.42
X75.811 Y29.442
X75.783 Y29.452
X75.723 Y29.462
X75.702 Y29.406
X75.697 Y29.375
X75.704 Y29.346
X75.723 Y29.321
X75.75 Y29.306
X75.78 Y29.303
X75.809 Y29.313
Z-4.5 F333.3
X75.832 Y29.333 F400
X75.845 Y29.361
Y29.392
X75.834 Y29.42
X75.811 Y29.442
X75.783 Y29.452
X75.723 Y29.462
X75.702 Y29.406
X75.697 Y29.375
X75.704 Y29.346
X75.723 Y29.321
X75.75 Y29.306
X75.78 Y29.303
X75.809 Y29.313
Z-6 F333.3
X75.832 Y29.333 F400
X75.845 Y29.361
Y29.392
X75.834 Y29.42
X75.811 Y29.442
X75.783 Y29.452
X75.723 Y29.462
X75.702 Y29.406
X75.697 Y29.375
X75.704 Y29.346
X75.723 Y29.321
X75.75 Y29.306
X75.78 Y29.303
X75.809 Y29.313
Z-7.5 F333.3
X75.832 Y29.333 F400
X75.845 Y29.361
Y29.392
X75.834 Y29.42
X75.811 Y29.442
X75.783 Y29.452
X75.723 Y29.462
X75.702 Y29.406
X75.697 Y29.375
X75.704 Y29.346
X75.723 Y29.321
X75.75 Y29.306
X75.78 Y29.303
X75.809 Y29.313
Z-9 F333.3
X75.832 Y29.333 F400
X75.845 Y29.361
Y29.392
X75.834 Y29.42
X75.811 Y29.442
X75.783 Y29.452
X75.723 Y29.462
X75.702 Y29.406
X75.697 Y29.375
X75.704 Y29.346
X75.723 Y29.321
X75.75 Y29.306
X75.78 Y29.303
X75.809 Y29.313
Z-10.5 F333.3
X75.832 Y29.333 F400
X75.845 Y29.361
Y29.392
X75.834 Y29.42
X75.811 Y29.442
X75.783 Y29.452
X75.723 Y29.462
X75.702 Y29.406
X75.697 Y29.375
X75.704 Y29.346
X75.723 Y29.321
X75.75 Y29.306
X75.78 Y29.303
X75.809 Y29.313
Z-12 F333.3
X75.832 Y29.333 F400
X75.845 Y29.361
Y29.392
X75.834 Y29.42
X75.811 Y29.442
X75.783 Y29.452
X75.723 Y29.462
X75.702 Y29.406
X75.697 Y29.375
X75.704 Y29.346
X75.723 Y29.321
X75.75 Y29.306
X75.78 Y29.303
X75.809 Y29.313
Z-13.5 F333.3
X75.832 Y29.333 F400
X75.845 Y29.361
Y29.392
X75.834 Y29.42
X75.811 Y29.442
X75.783 Y29.452
X75.723 Y29.462
X75.702 Y29.406
X75.697 Y29.375
X75.704 Y29.346
X75.723 Y29.321
X75.75 Y29.306
X75.78 Y29.303
X75.809 Y29.313
Z-15 F333.3
X75.832 Y29.333 F400
X75.845 Y29.361
Y29.392
X75.834 Y29.42
X75.811 Y29.442
X75.783 Y29.452
X75.723 Y29.462
X75.702 Y29.406
X75.697 Y29.375
X75.704 Y29.346
X75.723 Y29.321
X75.75 Y29.306
X75.78 Y29.303
X75.809 Y29.313
Z-16.5 F333.3
X75.832 Y29.333 F400
X75.845 Y29.361
Y29.392
X75.834 Y29.42
X75.811 Y29.442
X75.783 Y29.452
X75.723 Y29.462
X75.702 Y29.406
X75.697 Y29.375
X75.704 Y29.346
X75.723 Y29.321
X75.75 Y29.306
X75.78 Y29.303
X75.809 Y29.313
Z-17.1 F333.3
X75.832 Y29.333 F400
X75.845 Y29.361
Y29.392
X75.834 Y29.42
X75.811 Y29.442
X75.783 Y29.452
X75.723 Y29.462
X75.702 Y29.406
X75.697 Y29.375
X75.704 Y29.346
X75.723 Y29.321
X75.75 Y29.306
X75.78 Y29.303
X75.809 Y29.313
G0 Z5
X52.783 Y10.877
G1 Z2.5 F333.3
Z-1.5
G2 X54.074 Y13.002 I1.363 J0.626 F400
G3 X53.931 Y15.998 I-0.072 J1.498
X52.741 Y15.311 I0.072 J-1.498
G2 X50.255 Y15.255 I-1.262 J0.811
G3 X30.55 Y26.632 I-22.234 J-15.755
G2 X29.355 Y28.813 I0.139 J1.494
G3 X26.688 Y30.187 I-1.333 J0.687
X26.688 Y28.813 I1.333 J-0.687
G2 X25.494 Y26.632 I-1.333 J-0.687
G3 X10.707 Y20.542 I2.528 J-27.132
G2 X9.754 Y20.2 I-0.953 J1.158
G1 X0
G2 X-1.176 Y22.631 I0 J1.5
X8.524 Y31.239 I29.197 J-23.132
X9.584 Y31.436 I0.785 J-1.278
X10.284 Y32.256 I1.414 J-0.499
X65.258 Y0.516 I17.738 J-32.756
X64.898 Y-0.5 I-1.499 J-0.041
X65.258 Y-1.516 I-1.14 J-0.975
X10.284 Y-33.256 I-37.236 J1.016
X9.584 Y-32.436 I0.714 J1.319
X8.524 Y-32.239 I-0.275 J1.475
X-1.176 Y-23.631 I19.498 J31.739
X0 Y-21.2 I1.176 J0.931
G1 X9.754
G2 X10.707 Y-21.542 I0 J-1.5
G3 X25.494 Y-27.632 I17.315 J21.042
G2 X26.688 Y-29.813 I-0.139 J-1.494
G3 X29.355 Y-31.187 I1.333 J-0.687
X29.355 Y-29.813 I-1.333 J0.687
G2 X30.55 Y-27.632 I1.333 J0.687
G3 X50.255 Y-16.255 I-2.528 J27.133
G2 X52.741 Y-16.311 I1.224 J-0.867
G3 X55.264 Y-14.689 I1.262 J0.811
X54.074 Y-14.002 I-1.262 J-0.811
G2 X52.783 Y-11.877 I0.072 J1.498
G3 X52.783 Y10.877 I-24.761 J11.377
G1 Z-3 F333.3
G2 X54.074 Y13.002 I1.363 J0.626 F400
G3 X53.931 Y15.998 I-0.072 J1.498
X52.741 Y15.311 I0.072 J-1.498
G2 X50.255 Y15.255 I-1.262 J0.811
G3 X30.55 Y26.632 I-22.234 J-15.755
G2 X29.355 Y28.813 I0.139 J1.494
G3 X26.688 Y30.187 I-1.333 J0.687
X26.688 Y28.813 I1.333 J-0.687
G2 X25.494 Y26.632 I-1.333 J-0.687
G3 X10.707 Y20.542 I2.528 J-27.132
G2 X9.754 Y20.2 I-0.953 J1.158
G1 X0
G2 X-1.176 Y22.631 I0 J1.5
X8.524 Y31.239 I29.197 J-23.132
X9.584 Y31.436 I0.785 J-1.278
X10.284 Y32.256 I1.414 J-0.499
X65.258 Y0.516 I17.738 J-32.756
X64.898 Y-0.5 I-1.499 J-0.041
X65.258 Y-1.516 I-1.14 J-0.975
X10.284 Y-33.256 I-37.236 J1.016
X9.584 Y-32.436 I0.714 J1.319
X8.524 Y-32.239 I-0.275 J1.475
X-1.176 Y-23.631 I19.498 J31.739
X0 Y-21.2 I1.176 J0.931
G1 X9.754
G2 X10.707 Y-21.542 I0 J-1.5
G3 X25.494 Y-27.632 I17.315 J21.042
G2 X26.688 Y-29.813 I-0.139 J-1.494
G3 X29.355 Y-31.187 I1.333 J-0.687
X29.355 Y-29.813 I-1.333 J0.687
G2 X30.55 Y-27.632 I1.333 J0.687
G3 X50.255 Y-16.255 I-2.528 J27.133
G2 X52.741 Y-16.311 I1.224 J-0.867
G3 X55.264 Y-14.689 I1.262 J0.811
X54.074 Y-14.002 I-1.262 J-0.811
G2 X52.783 Y-11.877 I0.072 J1.498
G3 X52.783 Y10.877 I-24.761 J11.377
G1 Z-4.5 F333.3
G2 X54.074 Y13.002 I1.363 J0.626 F400
G3 X53.931 Y15.998 I-0.072 J1.498
X52.741 Y15.311 I0.072 J-1.498
G2 X50.255 Y15.255 I-1.262 J0.811
G3 X30.55 Y26.632 I-22.234 J-15.755
G2 X29.355 Y28.813 I0.139 J1.494
G3 X26.688 Y30.187 I-1.333 J0.687
X26.688 Y28.813 I1.333 J-0.687
G2 X25.494 Y26.632 I-1.333 J-0.687
G3 X10.707 Y20.542 I2.528 J-27.132
G2 X9.754 Y20.2 I-0.953 J1.158
G1 X0
G2 X-1.176 Y22.631 I0 J1.5
X8.524 Y31.239 I29.197 J-23.132
X9.584 Y31.436 I0.785 J-1.278
X10.284 Y32.256 I1.414 J-0.499
X65.258 Y0.516 I17.738 J-32.756
X64.898 Y-0.5 I-1.499 J-0.041
X65.258 Y-1.516 I-1.14 J-0.975
X10.284 Y-33.256 I-37.236 J1.016
X9.584 Y-32.436 I0.714 J1.319
X8.524 Y-32.239 I-0.275 J1.475
X-1.176 Y-23.631 I19.498 J31.739
X0 Y-21.2 I1.176 J0.931
G1 X9.754
G2 X10.707 Y-21.542 I0 J-1.5
G3 X25.494 Y-27.632 I17.315 J21.042
G2 X26.688 Y-29.813 I-0.139 J-1.494
G3 X29.355 Y-31.187 I1.333 J-0.687
X29.355 Y-29.813 I-1.333 J0.687
G2 X30.55 Y-27.632 I1.333 J0.687
G3 X50.255 Y-16.255 I-2.528 J27.133
G2 X52.741 Y-16.311 I1.224 J-0.867
G3 X55.264 Y-14.689 I1.262 J0.811
X54.074 Y-14.002 I-1.262 J-0.811
G2 X52.783 Y-11.877 I0.072 J1.498
G3 X52.783 Y10.877 I-24.761 J11.377
G1 Z-6 F333.3
G2 X54.074 Y13.002 I1.363 J0.626 F400
G3 X53.931 Y15.998 I-0.072 J1.498
X52.741 Y15.311 I0.072 J-1.498
G2 X50.255 Y15.255 I-1.262 J0.811
G3 X30.55 Y26.632 I-22.234 J-15.755
G2 X29.355 Y28.813 I0.139 J1.494
G3 X26.688 Y30.187 I-1.333 J0.687
X26.688 Y28.813 I1.333 J-0.687
G2 X25.494 Y26.632 I-1.333 J-0.687
G3 X10.707 Y20.542 I2.528 J-27.132
G2 X9.754 Y20.2 I-0.953 J1.158
G1 X0
G2 X-1.176 Y22.631 I0 J1.5
X8.524 Y31.239 I29.197 J-23.132
X9.584 Y31.436 I0.785 J-1.278
X10.284 Y32.256 I1.414 J-0.499
X65.258 Y0.516 I17.738 J-32.756
X64.898 Y-0.5 I-1.499 J-0.041
X65.258 Y-1.516 I-1.14 J-0.975
X10.284 Y-33.256 I-37.236 J1.016
X9.584 Y-32.436 I0.714 J1.319
X8.524 Y-32.239 I-0.275 J1.475
X-1.176 Y-23.631 I19.498 J31.739
X0 Y-21.2 I1.176 J0.931
G1 X9.754
G2 X10.707 Y-21.542 I0 J-1.5
G3 X25.494 Y-27.632 I17.315 J21.042
G2 X26.688 Y-29.813 I-0.139 J-1.494
G3 X29.355 Y-31.187 I1.333 J-0.687
X29.355 Y-29.813 I-1.333 J0.687
G2 X30.55 Y-27.632 I1.333 J0.687
G3 X50.255 Y-16.255 I-2.528 J27.133
G2 X52.741 Y-16.311 I1.224 J-0.867
G3 X55.264 Y-14.689 I1.262 J0.811
X54.074 Y-14.002 I-1.262 J-0.811
G2 X52.783 Y-11.877 I0.072 J1.498
G3 X52.783 Y10.877 I-24.761 J11.377
G1 Z-7.5 F333.3
G2 X54.074 Y13.002 I1.363 J0.626 F400
G3 X53.931 Y15.998 I-0.072 J1.498
X52.741 Y15.311 I0.072 J-1.498
G2 X50.255 Y15.255 I-1.262 J0.811
G3 X30.55 Y26.632 I-22.234 J-15.755
G2 X29.355 Y28.813 I0.139 J1.494
G3 X26.688 Y30.187 I-1.333 J0.687
X26.688 Y28.813 I1.333 J-0.687
G2 X25.494 Y26.632 I-1.333 J-0.687
G3 X10.707 Y20.542 I2.528 J-27.132
G2 X9.754 Y20.2 I-0.953 J1.158
G1 X0
G2 X-1.176 Y22.631 I0 J1.5
X8.524 Y31.239 I29.197 J-23.132
X9.584 Y31.436 I0.785 J-1.278
X10.284 Y32.256 I1.414 J-0.499
X65.258 Y0.516 I17.738 J-32.756
X64.898 Y-0.5 I-1.499 J-0.041
X65.258 Y-1.516 I-1.14 J-0.975
X10.284 Y-33.256 I-37.236 J1.016
X9.584 Y-32.436 I0.714 J1.319
X8.524 Y-32.239 I-0.275 J1.475
X-1.176 Y-23.631 I19.498 J31.739
X0 Y-21.2 I1.176 J0.931
G1 X9.754
G2 X10.707 Y-21.542 I0 J-1.5
G3 X25.494 Y-27.632 I17.315 J21.042
G2 X26.688 Y-29.813 I-0.139 J-1.494
G3 X29.355 Y-31.187 I1.333 J-0.687
X29.355 Y-29.813 I-1.333 J0.687
G2 X30.55 Y-27.632 I1.333 J0.687
G3 X50.255 Y-16.255 I-2.528 J27.133
G2 X52.741 Y-16.311 I1.224 J-0.867
G3 X55.264 Y-14.689 I1.262 J0.811
X54.074 Y-14.002 I-1.262 J-0.811
G2 X52.783 Y-11.877 I0.072 J1.498
G3 X52.783 Y10.877 I-24.761 J11.377
G1 Z-9 F333.3
G2 X54.074 Y13.002 I1.363 J0.626 F400
G3 X53.931 Y15.998 I-0.072 J1.498
X52.741 Y15.311 I0.072 J-1.498
G2 X50.255 Y15.255 I-1.262 J0.811
G3 X30.55 Y26.632 I-22.234 J-15.755
G2 X29.355 Y28.813 I0.139 J1.494
G3 X26.688 Y30.187 I-1.333 J0.687
X26.688 Y28.813 I1.333 J-0.687
G2 X25.494 Y26.632 I-1.333 J-0.687
G3 X10.707 Y20.542 I2.528 J-27.132
G2 X9.754 Y20.2 I-0.953 J1.158
G1 X0
G2 X-1.176 Y22.631 I0 J1.5
X8.524 Y31.239 I29.197 J-23.132
X9.584 Y31.436 I0.785 J-1.278
X10.284 Y32.256 I1.414 J-0.499
X65.258 Y0.516 I17.738 J-32.756
X64.898 Y-0.5 I-1.499 J-0.041
X65.258 Y-1.516 I-1.14 J-0.975
X10.284 Y-33.256 I-37.236 J1.016
X9.584 Y-32.436 I0.714 J1.319
X8.524 Y-32.239 I-0.275 J1.475
X-1.176 Y-23.631 I19.498 J31.739
X0 Y-21.2 I1.176 J0.931
G1 X9.754
G2 X10.707 Y-21.542 I0 J-1.5
G3 X25.494 Y-27.632 I17.315 J21.042
G2 X26.688 Y-29.813 I-0.139 J-1.494
G3 X29.355 Y-31.187 I1.333 J-0.687
X29.355 Y-29.813 I-1.333 J0.687
G2 X30.55 Y-27.632 I1.333 J0.687
G3 X50.255 Y-16.255 I-2.528 J27.133
G2 X52.741 Y-16.311 I1.224 J-0.867
G3 X55.264 Y-14.689 I1.262 J0.811
X54.074 Y-14.002 I-1.262 J-0.811
G2 X52.783 Y-11.877 I0.072 J1.498
G3 X52.783 Y10.877 I-24.761 J11.377
G1 Z-10.5 F333.3
G2 X54.074 Y13.002 I1.363 J0.626 F400
G3 X53.931 Y15.998 I-0.072 J1.498
X52.741 Y15.311 I0.072 J-1.498
G2 X50.255 Y15.255 I-1.262 J0.811
G3 X30.55 Y26.632 I-22.234 J-15.755
G2 X29.355 Y28.813 I0.139 J1.494
G3 X26.688 Y30.187 I-1.333 J0.687
X26.688 Y28.813 I1.333 J-0.687
G2 X25.494 Y26.632 I-1.333 J-0.687
G3 X10.707 Y20.542 I2.528 J-27.132
G2 X9.754 Y20.2 I-0.953 J1.158
G1 X0
G2 X-1.176 Y22.631 I0 J1.5
X8.524 Y31.239 I29.197 J-23.132
X9.584 Y31.436 I0.785 J-1.278
X10.284 Y32.256 I1.414 J-0.499
X65.258 Y0.516 I17.738 J-32.756
X64.898 Y-0.5 I-1.499 J-0.041
X65.258 Y-1.516 I-1.14 J-0.975
X10.284 Y-33.256 I-37.236 J1.016
X9.584 Y-32.436 I0.714 J1.319
X8.524 Y-32.239 I-0.275 J1.475
X-1.176 Y-23.631 I19.498 J31.739
X0 Y-21.2 I1.176 J0.931
G1 X9.754
G2 X10.707 Y-21.542 I0 J-1.5
G3 X25.494 Y-27.632 I17.315 J21.042
G2 X26.688 Y-29.813 I-0.139 J-1.494
G3 X29.355 Y-31.187 I1.333 J-0.687
X29.355 Y-29.813 I-1.333 J0.687
G2 X30.55 Y-27.632 I1.333 J0.687
G3 X50.255 Y-16.255 I-2.528 J27.133
G2 X52.741 Y-16.311 I1.224 J-0.867
G3 X55.264 Y-14.689 I1.262 J0.811
X54.074 Y-14.002 I-1.262 J-0.811
G2 X52.783 Y-11.877 I0.072 J1.498
G3 X52.783 Y10.877 I-24.761 J11.377
G1 Z-12 F333.3
G2 X54.074 Y13.002 I1.363 J0.626 F400
G3 X53.931 Y15.998 I-0.072 J1.498
X52.741 Y15.311 I0.072 J-1.498
G2 X50.255 Y15.255 I-1.262 J0.811
G3 X30.55 Y26.632 I-22.234 J-15.755
G2 X29.355 Y28.813 I0.139 J1.494
G3 X26.688 Y30.187 I-1.333 J0.687
X26.688 Y28.813 I1.333 J-0.687
G2 X25.494 Y26.632 I-1.333 J-0.687
G3 X10.707 Y20.542 I2.528 J-27.132
G2 X9.754 Y20.2 I-0.953 J1.158
G1 X0
G2 X-1.176 Y22.631 I0 J1.5
X8.524 Y31.239 I29.197 J-23.132
X9.584 Y31.436 I0.785 J-1.278
X10.284 Y32.256 I1.414 J-0.499
X65.258 Y0.516 I17.738 J-32.756
X64.898 Y-0.5 I-1.499 J-0.041
X65.258 Y-1.516 I-1.14 J-0.975
X10.284 Y-33.256 I-37.236 J1.016
X9.584 Y-32.436 I0.714 J1.319
X8.524 Y-32.239 I-0.275 J1.475
X-1.176 Y-23.631 I19.498 J31.739
X0 Y-21.2 I1.176 J0.931
G1 X9.754
G2 X10.707 Y-21.542 I0 J-1.5
G3 X25.494 Y-27.632 I17.315 J21.042
G2 X26.688 Y-29.813 I-0.139 J-1.494
G3 X29.355 Y-31.187 I1.333 J-0.687
X29.355 Y-29.813 I-1.333 J0.687
G2 X30.55 Y-27.632 I1.333 J0.687
G3 X50.255 Y-16.255 I-2.528 J27.133
G2 X52.741 Y-16.311 I1.224 J-0.867
G3 X55.264 Y-14.689 I1.262 J0.811
X54.074 Y-14.002 I-1.262 J-0.811
G2 X52.783 Y-11.877 I0.072 J1.498
G3 X52.783 Y10.877 I-24.761 J11.377
G1 Z-13.5 F333.3
G2 X54.074 Y13.002 I1.363 J0.626 F400
G3 X53.931 Y15.998 I-0.072 J1.498
X52.741 Y15.311 I0.072 J-1.498
G2 X50.255 Y15.255 I-1.262 J0.811
G3 X30.55 Y26.632 I-22.234 J-15.755
G2 X29.355 Y28.813 I0.139 J1.494
G3 X26.688 Y30.187 I-1.333 J0.687
X26.688 Y28.813 I1.333 J-0.687
G2 X25.494 Y26.632 I-1.333 J-0.687
G3 X10.707 Y20.542 I2.528 J-27.132
G2 X9.754 Y20.2 I-0.953 J1.158
G1 X0
G2 X-1.176 Y22.631 I0 J1.5
X8.524 Y31.239 I29.197 J-23.132
X9.584 Y31.436 I0.785 J-1.278
X10.284 Y32.256 I1.414 J-0.499
X65.258 Y0.516 I17.738 J-32.756
X64.898 Y-0.5 I-1.499 J-0.041
X65.258 Y-1.516 I-1.14 J-0.975
X10.284 Y-33.256 I-37.236 J1.016
X9.584 Y-32.436 I0.714 J1.319
X8.524 Y-32.239 I-0.275 J1.475
X-1.176 Y-23.631 I19.498 J31.739
X0 Y-21.2 I1.176 J0.931
G1 X9.754
G2 X10.707 Y-21.542 I0 J-1.5
G3 X25.494 Y-27.632 I17.315 J21.042
G2 X26.688 Y-29.813 I-0.139 J-1.494
G3 X29.355 Y-31.187 I1.333 J-0.687
X29.355 Y-29.813 I-1.333 J0.687
G2 X30.55 Y-27.632 I1.333 J0.687
G3 X50.255 Y-16.255 I-2.528 J27.133
G2 X52.741 Y-16.311 I1.224 J-0.867
G3 X55.264 Y-14.689 I1.262 J0.811
X54.074 Y-14.002 I-1.262 J-0.811
G2 X52.783 Y-11.877 I0.072 J1.498
G3 X52.783 Y10.877 I-24.761 J11.377
G1 Z-15 F333.3
G2 X54.074 Y13.002 I1.363 J0.626 F400
G3 X53.931 Y15.998 I-0.072 J1.498
X52.741 Y15.311 I0.072 J-1.498
G2 X50.255 Y15.255 I-1.262 J0.811
G3 X30.55 Y26.632 I-22.234 J-15.755
G2 X29.355 Y28.813 I0.139 J1.494
G3 X26.688 Y30.187 I-1.333 J0.687
X26.688 Y28.813 I1.333 J-0.687
G2 X25.494 Y26.632 I-1.333 J-0.687
G3 X10.707 Y20.542 I2.528 J-27.132
G2 X9.754 Y20.2 I-0.953 J1.158
G1 X0
G2 X-1.176 Y22.631 I0 J1.5
X8.524 Y31.239 I29.197 J-23.132
X9.584 Y31.436 I0.785 J-1.278
X10.284 Y32.256 I1.414 J-0.499
X65.258 Y0.516 I17.738 J-32.756
X64.898 Y-0.5 I-1.499 J-0.041
X65.258 Y-1.516 I-1.14 J-0.975
X10.284 Y-33.256 I-37.236 J1.016
X9.584 Y-32.436 I0.714 J1.319
X8.524 Y-32.239 I-0.275 J1.475
X-1.176 Y-23.631 I19.498 J31.739
X0 Y-21.2 I1.176 J0.931
G1 X9.754
G2 X10.707 Y-21.542 I0 J-1.5
G3 X25.494 Y-27.632 I17.315 J21.042
G2 X26.688 Y-29.813 I-0.139 J-1.494
G3 X29.355 Y-31.187 I1.333 J-0.687
X29.355 Y-29.813 I-1.333 J0.687
G2 X30.55 Y-27.632 I1.333 J0.687
G3 X50.255 Y-16.255 I-2.528 J27.133
G2 X52.741 Y-16.311 I1.224 J-0.867
G3 X55.264 Y-14.689 I1.262 J0.811
X54.074 Y-14.002 I-1.262 J-0.811
G2 X52.783 Y-11.877 I0.072 J1.498
G3 X52.783 Y10.877 I-24.761 J11.377
G1 Z-16.5 F333.3
G2 X54.074 Y13.002 I1.363 J0.626 F400
G3 X53.931 Y15.998 I-0.072 J1.498
X52.741 Y15.311 I0.072 J-1.498
G2 X50.255 Y15.255 I-1.262 J0.811
G3 X30.55 Y26.632 I-22.234 J-15.755
G2 X29.355 Y28.813 I0.139 J1.494
G3 X26.688 Y30.187 I-1.333 J0.687
X26.688 Y28.813 I1.333 J-0.687
G2 X25.494 Y26.632 I-1.333 J-0.687
G3 X10.707 Y20.542 I2.528 J-27.132
G2 X9.754 Y20.2 I-0.953 J1.158
G1 X0
G2 X-1.176 Y22.631 I0 J1.5
X8.524 Y31.239 I29.197 J-23.132
X9.584 Y31.436 I0.785 J-1.278
X10.284 Y32.256 I1.414 J-0.499
X65.258 Y0.516 I17.738 J-32.756
X64.898 Y-0.5 I-1.499 J-0.041
X65.258 Y-1.516 I-1.14 J-0.975
X10.284 Y-33.256 I-37.236 J1.016
X9.584 Y-32.436 I0.714 J1.319
X8.524 Y-32.239 I-0.275 J1.475
X-1.176 Y-23.631 I19.498 J31.739
X0 Y-21.2 I1.176 J0.931
G1 X9.754
G2 X10.707 Y-21.542 I0 J-1.5
G3 X25.494 Y-27.632 I17.315 J21.042
G2 X26.688 Y-29.813 I-0.139 J-1.494
G3 X29.355 Y-31.187 I1.333 J-0.687
X29.355 Y-29.813 I-1.333 J0.687
G2 X30.55 Y-27.632 I1.333 J0.687
G3 X50.255 Y-16.255 I-2.528 J27.133
G2 X52.741 Y-16.311 I1.224 J-0.867
G3 X55.264 Y-14.689 I1.262 J0.811
X54.074 Y-14.002 I-1.262 J-0.811
G2 X52.783 Y-11.877 I0.072 J1.498
G3 X52.783 Y10.877 I-24.761 J11.377
G1 Z-17.1 F333.3
G2 X54.074 Y13.002 I1.363 J0.626 F400
G3 X53.931 Y15.998 I-0.072 J1.498
X52.741 Y15.311 I0.072 J-1.498
G2 X50.255 Y15.255 I-1.262 J0.811
G3 X44.162 Y21.456 I-22.234 J-15.755
G1 Z-16.8
G3 X38.966 Y24.456 I-16.14 J-21.956
G1 Z-17.1 F333.3
G3 X30.55 Y26.632 I-10.944 J-24.956 F400
G2 X29.355 Y28.813 I0.139 J1.494
G3 X26.688 Y30.187 I-1.333 J0.687
X26.688 Y28.813 I1.333 J-0.687
G2 X25.494 Y26.632 I-1.333 J-0.687
G3 X10.707 Y20.542 I2.528 J-27.132
G2 X9.754 Y20.2 I-0.953 J1.158
G1 X0
G2 X-1.176 Y22.631 I0 J1.5
X8.524 Y31.239 I29.197 J-23.132
X9.584 Y31.436 I0.785 J-1.278
X10.284 Y32.256 I1.414 J-0.499
X19.277 Y35.709 I17.738 J-32.756
G1 Z-16.8
G2 X25.204 Y36.643 I8.745 J-36.209
G1 Z-17.1 F333.3
G2 X43.988 Y33.155 I2.818 J-37.143 F400
G1 Z-16.8
G2 X49.184 Y30.155 I-15.966 J-33.655
G1 Z-17.1 F333.3
G2 X61.598 Y15.631 I-21.163 J-30.655 F400
G1 Z-16.8
G2 X63.752 Y10.031 I-33.576 J-16.131
G1 Z-17.1 F333.3
G2 X65.258 Y0.516 I-35.73 J-10.531 F400
X64.898 Y-0.5 I-1.499 J-0.041
X65.258 Y-1.516 I-1.14 J-0.975
X63.752 Y-11.031 I-37.236 J1.016
G1 Z-16.8
G2 X61.598 Y-16.631 I-35.73 J10.531
G1 Z-17.1 F333.3
G2 X49.184 Y-31.155 I-33.576 J16.131 F400
G1 Z-16.8
G2 X43.988 Y-34.155 I-21.163 J30.655
G1 Z-17.1 F333.3
G2 X25.204 Y-37.643 I-15.966 J33.655 F400
G1 Z-16.8
G2 X19.277 Y-36.709 I2.818 J37.143
G1 Z-17.1 F333.3
G2 X10.284 Y-33.256 I8.745 J36.209 F400
X9.584 Y-32.436 I0.714 J1.319
X8.524 Y-32.239 I-0.275 J1.475
X-1.176 Y-23.631 I19.498 J31.739
X0 Y-21.2 I1.176 J0.931
G1 X9.754
G2 X10.707 Y-21.542 I0 J-1.5
G3 X25.494 Y-27.632 I17.315 J21.042
G2 X26.688 Y-29.813 I-0.139 J-1.494
G3 X29.355 Y-31.187 I1.333 J-0.687
X29.355 Y-29.813 I-1.333 J0.687
G2 X30.55 Y-27.632 I1.333 J0.687
G3 X38.966 Y-25.456 I-2.528 J27.133
G1 Z-16.8
G3 X44.162 Y-22.456 I-10.944 J24.956
G1 Z-17.1 F333.3
G3 X50.255 Y-16.255 I-16.14 J21.956 F400
G2 X52.741 Y-16.311 I1.224 J-0.867
G3 X55.264 Y-14.689 I1.262 J0.811
X54.074 Y-14.002 I-1.262 J-0.811
G2 X52.783 Y-11.877 I0.072 J1.498
G3 X55.106 Y-3.5 I-24.761 J11.377
G1 Z-16.8
G3 X55.106 Y2.5 I-27.084 J3
G1 Z-17.1 F333.3
G3 X52.783 Y10.877 I-27.084 J-3 F400
G0 Z5
X62.581 Y-0.454
G1 Z2.5 F333.3
Z-1.5
X62.555 Y-0.433 F400
X62.522 Y-0.425
X62.489 Y-0.432
X62.463 Y-0.453
X62.449 Y-0.483
Y-0.517
X62.463 Y-0.547
X62.489 Y-0.568
X62.522 Y-0.575
X62.555 Y-0.567
X62.581 Y-0.546
X62.619 Y-0.5
X62.581 Y-0.454
Z-3 F333.3
X62.555 Y-0.433 F400
X62.522 Y-0.425
X62.489 Y-0.432
X62.463 Y-0.453
X62.449 Y-0.483
Y-0.517
X62.463 Y-0.547
X62.489 Y-0.568
X62.522 Y-0.575
X62.555 Y-0.567
X62.581 Y-0.546
X62.619 Y-0.5
X62.581 Y-0.454
Z-4.5 F333.3
X62.555 Y-0.433 F400
X62.522 Y-0.425
X62.489 Y-0.432
X62.463 Y-0.453
X62.449 Y-0.483
Y-0.517
X62.463 Y-0.547
X62.489 Y-0.568
X62.522 Y-0.575
X62.555 Y-0.567
X62.581 Y-0.546
X62.619 Y-0.5
X62.581 Y-0.454
Z-6 F333.3
X62.555 Y-0.433 F400
X62.522 Y-0.425
X62.489 Y-0.432
X62.463 Y-0.453
X62.449 Y-0.483
Y-0.517
X62.463 Y-0.547
X62.489 Y-0.568
X62.522 Y-0.575
X62.555 Y-0.567
X62.581 Y-0.546
X62.619 Y-0.5
X62.581 Y-0.454
Z-7.5 F333.3
X62.555 Y-0.433 F400
X62.522 Y-0.425
X62.489 Y-0.432
X62.463 Y-0.453
X62.449 Y-0.483
Y-0.517
X62.463 Y-0.547
X62.489 Y-0.568
X62.522 Y-0.575
X62.555 Y-0.567
X62.581 Y-0.546
X62.619 Y-0.5
X62.581 Y-0.454
Z-9 F333.3
X62.555 Y-0.433 F400
X62.522 Y-0.425
X62.489 Y-0.432
X62.463 Y-0.453
X62.449 Y-0.483
Y-0.517
X62.463 Y-0.547
X62.489 Y-0.568
X62.522 Y-0.575
X62.555 Y-0.567
X62.581 Y-0.546
X62.619 Y-0.5
X62.581 Y-0.454
Z-10.5 F333.3
X62.555 Y-0.433 F400
X62.522 Y-0.425
X62.489 Y-0.432
X62.463 Y-0.453
X62.449 Y-0.483
Y-0.517
X62.463 Y-0.547
X62.489 Y-0.568
X62.522 Y-0.575
X62.555 Y-0.567
X62.581 Y-0.546
X62.619 Y-0.5
X62.581 Y-0.454
Z-12 F333.3
X62.555 Y-0.433 F400
X62.522 Y-0.425
X62.489 Y-0.432
X62.463 Y-0.453
X62.449 Y-0.483
Y-0.517
X62.463 Y-0.547
X62.489 Y-0.568
X62.522 Y-0.575
X62.555 Y-0.567
X62.581 Y-0.546
X62.619 Y-0.5
X62.581 Y-0.454
Z-13.5 F333.3
X62.555 Y-0.433 F400
X62.522 Y-0.425
X62.489 Y-0.432
X62.463 Y-0.453
X62.449 Y-0.483
Y-0.517
X62.463 Y-0.547
X62.489 Y-0.568
X62.522 Y-0.575
X62.555 Y-0.567
X62.581 Y-0.546
X62.619 Y-0.5
X62.581 Y-0.454
Z-15 F333.3
X62.555 Y-0.433 F400
X62.522 Y-0.425
X62.489 Y-0.432
X62.463 Y-0.453
X62.449 Y-0.483
Y-0.517
X62.463 Y-0.547
X62.489 Y-0.568
X62.522 Y-0.575
X62.555 Y-0.567
X62.581 Y-0.546
X62.619 Y-0.5
X62.581 Y-0.454
Z-16.5 F333.3
X62.555 Y-0.433 F400
X62.522 Y-0.425
X62.489 Y-0.432
X62.463 Y-0.453
X62.449 Y-0.483
Y-0.517
X62.463 Y-0.547
X62.489 Y-0.568
X62.522 Y-0.575
X62.555 Y-0.567
X62.581 Y-0.546
X62.619 Y-0.5
X62.581 Y-0.454
Z-17.1 F333.3
X62.555 Y-0.433 F400
X62.522 Y-0.425
X62.489 Y-0.432
X62.463 Y-0.453
X62.449 Y-0.483
Y-0.517
X62.463 Y-0.547
X62.489 Y-0.568
X62.522 Y-0.575
X62.555 Y-0.567
X62.581 Y-0.546
X62.619 Y-0.5
X62.581 Y-0.454
G0 Z5
X75.809 Y-30.313
G1 Z2.5 F333.3
Z-1.5
X75.78 Y-30.303 F400
X75.75 Y-30.306
X75.723 Y-30.321
X75.704 Y-30.346
X75.697 Y-30.375
X75.702 Y-30.406
X75.723 Y-30.462
X75.783 Y-30.452
X75.811 Y-30.442
X75.834 Y-30.42
X75.845 Y-30.392
Y-30.361
X75.832 Y-30.333
X75.809 Y-30.313
Z-3 F333.3
X75.78 Y-30.303 F400
X75.75 Y-30.306
X75.723 Y-30.321
X75.704 Y-30.346
X75.697 Y-30.375
X75.702 Y-30.406
X75.723 Y-30.462
X75.783 Y-30.452
X75.811 Y-30.442
X75.834 Y-30.42
X75.845 Y-30.392
Y-30.361
X75.832 Y-30.333
X75.809 Y-30.313
Z-4.5 F333.3
X75.78 Y-30.303 F400
X75.75 Y-30.306
X75.723 Y-30.321
X75.704 Y-30.346
X75.697 Y-30.375
X75.702 Y-30.406
X75.723 Y-30.462
X75.783 Y-30.452
X75.811 Y-30.442
X75.834 Y-30.42
X75.845 Y-30.392
Y-30.361
X75.832 Y-30.333
X75.809 Y-30.313
Z-6 F333.3
X75.78 Y-30.303 F400
X75.75 Y-30.306
X75.723 Y-30.321
X75.704 Y-30.346
X75.697 Y-30.375
X75.702 Y-30.406
X75.723 Y-30.462
X75.783 Y-30.452
X75.811 Y-30.442
X75.834 Y-30.42
X75.845 Y-30.392
Y-30.361
X75.832 Y-30.333
X75.809 Y-30.313
Z-7.5 F333.3
X75.78 Y-30.303 F400
X75.75 Y-30.306
X75.723 Y-30.321
X75.704 Y-30.346
X75.697 Y-30.375
X75.702 Y-30.406
X75.723 Y-30.462
X75.783 Y-30.452
X75.811 Y-30.442
X75.834 Y-30.42
X75.845 Y-30.392
Y-30.361
X75.832 Y-30.333
X75.809 Y-30.313
Z-9 F333.3
X75.78 Y-30.303 F400
X75.75 Y-30.306
X75.723 Y-30.321
X75.704 Y-30.346
X75.697 Y-30.375
X75.702 Y-30.406
X75.723 Y-30.462
X75.783 Y-30.452
X75.811 Y-30.442
X75.834 Y-30.42
X75.845 Y-30.392
Y-30.361
X75.832 Y-30.333
X75.809 Y-30.313
Z-10.5 F333.3
X75.78 Y-30.303 F400
X75.75 Y-30.306
X75.723 Y-30.321
X75.704 Y-30.346
X75.697 Y-30.375
X75.702 Y-30.406
X75.723 Y-30.462
X75.783 Y-30.452
X75.811 Y-30.442
X75.834 Y-30.42
X75.845 Y-30.392
Y-30.361
X75.832 Y-30.333
X75.809 Y-30.313
Z-12 F333.3
X75.78 Y-30.303 F400
X75.75 Y-30.306
X75.723 Y-30.321
X75.704 Y-30.346
X75.697 Y-30.375
X75.702 Y-30.406
X75.723 Y-30.462
X75.783 Y-30.452
X75.811 Y-30.442
X75.834 Y-30.42
X75.845 Y-30.392
Y-30.361
X75.832 Y-30.333
X75.809 Y-30.313
Z-13.5 F333.3
X75.78 Y-30.303 F400
X75.75 Y-30.306
X75.723 Y-30.321
X75.704 Y-30.346
X75.697 Y-30.375
X75.702 Y-30.406
X75.723 Y-30.462
X75.783 Y-30.452
X75.811 Y-30.442
X75.834 Y-30.42
X75.845 Y-30.392
Y-30.361
X75.832 Y-30.333
X75.809 Y-30.313
Z-15 F333.3
X75.78 Y-30.303 F400
X75.75 Y-30.306
X75.723 Y-30.321
X75.704 Y-30.346
X75.697 Y-30.375
X75.702 Y-30.406
X75.723 Y-30.462
X75.783 Y-30.452
X75.811 Y-30.442
X75.834 Y-30.42
X75.845 Y-30.392
Y-30.361
X75.832 Y-30.333
X75.809 Y-30.313
Z-16.5 F333.3
X75.78 Y-30.303 F400
X75.75 Y-30.306
X75.723 Y-30.321
X75.704 Y-30.346
X75.697 Y-30.375
X75.702 Y-30.406
X75.723 Y-30.462
X75.783 Y-30.452
X75.811 Y-30.442
X75.834 Y-30.42
X75.845 Y-30.392
Y-30.361
X75.832 Y-30.333
X75.809 Y-30.313
Z-17.1 F333.3
X75.78 Y-30.303 F400
X75.75 Y-30.306
X75.723 Y-30.321
X75.704 Y-30.346
X75.697 Y-30.375
X75.702 Y-30.406
X75.723 Y-30.462
X75.783 Y-30.452
X75.811 Y-30.442
X75.834 Y-30.42
X75.845 Y-30.392
Y-30.361
X75.832 Y-30.333
X75.809 Y-30.313
G0 Z5
X10.808 Y-30.312
G1 Z2.5 F333.3
Z-1.5
X10.779 Y-30.303 F400
X10.748 Y-30.307
X10.722 Y-30.322
X10.704 Y-30.346
X10.697 Y-30.376
X10.702 Y-30.406
X10.723 Y-30.462
X10.783 Y-30.452
X10.812 Y-30.441
X10.834 Y-30.42
X10.846 Y-30.391
X10.845 Y-30.36
X10.831 Y-30.332
X10.808 Y-30.312
Z-3 F333.3
X10.779 Y-30.303 F400
X10.748 Y-30.307
X10.722 Y-30.322
X10.704 Y-30.346
X10.697 Y-30.376
X10.702 Y-30.406
X10.723 Y-30.462
X10.783 Y-30.452
X10.812 Y-30.441
X10.834 Y-30.42
X10.846 Y-30.391
X10.845 Y-30.36
X10.831 Y-30.332
X10.808 Y-30.312
Z-4.5 F333.3
X10.779 Y-30.303 F400
X10.748 Y-30.307
X10.722 Y-30.322
X10.704 Y-30.346
X10.697 Y-30.376
X10.702 Y-30.406
X10.723 Y-30.462
X10.783 Y-30.452
X10.812 Y-30.441
X10.834 Y-30.42
X10.846 Y-30.391
X10.845 Y-30.36
X10.831 Y-30.332
X10.808 Y-30.312
Z-6 F333.3
X10.779 Y-30.303 F400
X10.748 Y-30.307
X10.722 Y-30.322
X10.704 Y-30.346
X10.697 Y-30.376
X10.702 Y-30.406
X10.723 Y-30.462
X10.783 Y-30.452
X10.812 Y-30.441
X10.834 Y-30.42
X10.846 Y-30.391
X10.845 Y-30.36
X10.831 Y-30.332
X10.808 Y-30.312
Z-7.5 F333.3
X10.779 Y-30.303 F400
X10.748 Y-30.307
X10.722 Y-30.322
X10.704 Y-30.346
X10.697 Y-30.376
X10.702 Y-30.406
X10.723 Y-30.462
X10.783 Y-30.452
X10.812 Y-30.441
X10.834 Y-30.42
X10.846 Y-30.391
X10.845 Y-30.36
X10.831 Y-30.332
X10.808 Y-30.312
Z-9 F333.3
X10.779 Y-30.303 F400
X10.748 Y-30.307
X10.722 Y-30.322
X10.704 Y-30.346
X10.697 Y-30.376
X10.702 Y-30.406
X10.723 Y-30.462
X10.783 Y-30.452
X10.812 Y-30.441
X10.834 Y-30.42
X10.846 Y-30.391
X10.845 Y-30.36
X10.831 Y-30.332
X10.808 Y-30.312
Z-10.5 F333.3
X10.779 Y-30.303 F400
X10.748 Y-30.307
X10.722 Y-30.322
X10.704 Y-30.346
X10.697 Y-30.376
X10.702 Y-30.406
X10.723 Y-30.462
X10.783 Y-30.452
X10.812 Y-30.441
X10.834 Y-30.42
X10.846 Y-30.391
X10.845 Y-30.36
X10.831 Y-30.332
X10.808 Y-30.312
Z-12 F333.3
X10.779 Y-30.303 F400
X10.748 Y-30.307
X10.722 Y-30.322
X10.704 Y-30.346
X10.697 Y-30.376
X10.702 Y-30.406
X10.723 Y-30.462
X10.783 Y-30.452
X10.812 Y-30.441
X10.834 Y-30.42
X10.846 Y-30.391
X10.845 Y-30.36
X10.831 Y-30.332
X10.808 Y-30.312
Z-13.5 F333.3
X10.779 Y-30.303 F400
X10.748 Y-30.307
X10.722 Y-30.322
X10.704 Y-30.346
X10.697 Y-30.376
X10.702 Y-30.406
X10.723 Y-30.462
X10.783 Y-30.452
X10.812 Y-30.441
X10.834 Y-30.42
X10.846 Y-30.391
X10.845 Y-30.36
X10.831 Y-30.332
X10.808 Y-30.312
Z-15 F333.3
X10.779 Y-30.303 F400
X10.748 Y-30.307
X10.722 Y-30.322
X10.704 Y-30.346
X10.697 Y-30.376
X10.702 Y-30.406
X10.723 Y-30.462
X10.783 Y-30.452
X10.812 Y-30.441
X10.834 Y-30.42
X10.846 Y-30.391
X10.845 Y-30.36
X10.831 Y-30.332
X10.808 Y-30.312
Z-16.5 F333.3
X10.779 Y-30.303 F400
X10.748 Y-30.307
X10.722 Y-30.322
X10.704 Y-30.346
X10.697 Y-30.376
X10.702 Y-30.406
X10.723 Y-30.462
X10.783 Y-30.452
X10.812 Y-30.441
X10.834 Y-30.42
X10.846 Y-30.391
X10.845 Y-30.36
X10.831 Y-30.332
X10.808 Y-30.312
Z-17.1 F333.3
X10.779 Y-30.303 F400
X10.748 Y-30.307
X10.722 Y-30.322
X10.704 Y-30.346
X10.697 Y-30.376
X10.702 Y-30.406
X10.723 Y-30.462
X10.783 Y-30.452
X10.812 Y-30.441
X10.834 Y-30.42
X10.846 Y-30.391
X10.845 Y-30.36
X10.831 Y-30.332
X10.808 Y-30.312
G0 Z5
X10.809 Y29.313
G1 Z2.5 F333.3
Z-1.5
X10.832 Y29.333 F400
X10.845 Y29.361
Y29.392
X10.834 Y29.42
X10.811 Y29.442
X10.783 Y29.452
X10.723 Y29.462
X10.702 Y29.406
X10.697 Y29.375
X10.704 Y29.346
X10.723 Y29.321
X10.75 Y29.306
X10.78 Y29.303
X10.809 Y29.313
Z-3 F333.3
X10.832 Y29.333 F400
X10.845 Y29.361
Y29.392
X10.834 Y29.42
X10.811 Y29.442
X10.783 Y29.452
X10.723 Y29.462
X10.702 Y29.406
X10.697 Y29.375
X10.704 Y29.346
X10.723 Y29.321
X10.75 Y29.306
X10.78 Y29.303
X10.809 Y29.313
Z-4.5 F333.3
X10.832 Y29.333 F400
X10.845 Y29.361
Y29.392
X10.834 Y29.42
X10.811 Y29.442
X10.783 Y29.452
X10.723 Y29.462
X10.702 Y29.406
X10.697 Y29.375
X10.704 Y29.346
X10.723 Y29.321
X10.75 Y29.306
X10.78 Y29.303
X10.809 Y29.313
Z-6 F333.3
X10.832 Y29.333 F400
X10.845 Y29.361
Y29.392
X10.834 Y29.42
X10.811 Y29.442
X10.783 Y29.452
X10.723 Y29.462
X10.702 Y29.406
X10.697 Y29.375
X10.704 Y29.346
X10.723 Y29.321
X10.75 Y29.306
X10.78 Y29.303
X10.809 Y29.313
Z-7.5 F333.3
X10.832 Y29.333 F400
X10.845 Y29.361
Y29.392
X10.834 Y29.42
X10.811 Y29.442
X10.783 Y29.452
X10.723 Y29.462
X10.702 Y29.406
X10.697 Y29.375
X10.704 Y29.346
X10.723 Y29.321
X10.75 Y29.306
X10.78 Y29.303
X10.809 Y29.313
Z-9 F333.3
X10.832 Y29.333 F400
X10.845 Y29.361
Y29.392
X10.834 Y29.42
X10.811 Y29.442
X10.783 Y29.452
X10.723 Y29.462
X10.702 Y29.406
X10.697 Y29.375
X10.704 Y29.346
X10.723 Y29.321
X10.75 Y29.306
X10.78 Y29.303
X10.809 Y29.313
Z-10.5 F333.3
X10.832 Y29.333 F400
X10.845 Y29.361
Y29.392
X10.834 Y29.42
X10.811 Y29.442
X10.783 Y29.452
X10.723 Y29.462
X10.702 Y29.406
X10.697 Y29.375
X10.704 Y29.346
X10.723 Y29.321
X10.75 Y29.306
X10.78 Y29.303
X10.809 Y29.313
Z-12 F333.3
X10.832 Y29.333 F400
X10.845 Y29.361
Y29.392
X10.834 Y29.42
X10.811 Y29.442
X10.783 Y29.452
X10.723 Y29.462
X10.702 Y29.406
X10.697 Y29.375
X10.704 Y29.346
X10.723 Y29.321
X10.75 Y29.306
X10.78 Y29.303
X10.809 Y29.313
Z-13.5 F333.3
X10.832 Y29.333 F400
X10.845 Y29.361
Y29.392
X10.834 Y29.42
X10.811 Y29.442
X10.783 Y29.452
X10.723 Y29.462
X10.702 Y29.406
X10.697 Y29.375
X10.704 Y29.346
X10.723 Y29.321
X10.75 Y29.306
X10.78 Y29.303
X10.809 Y29.313
Z-15 F333.3
X10.832 Y29.333 F400
X10.845 Y29.361
Y29.392
X10.834 Y29.42
X10.811 Y29.442
X10.783 Y29.452
X10.723 Y29.462
X10.702 Y29.406
X10.697 Y29.375
X10.704 Y29.346
X10.723 Y29.321
X10.75 Y29.306
X10.78 Y29.303
X10.809 Y29.313
Z-16.5 F333.3
X10.832 Y29.333 F400
X10.845 Y29.361
Y29.392
X10.834 Y29.42
X10.811 Y29.442
X10.783 Y29.452
X10.723 Y29.462
X10.702 Y29.406
X10.697 Y29.375
X10.704 Y29.346
X10.723 Y29.321
X10.75 Y29.306
X10.78 Y29.303
X10.809 Y29.313
Z-17.1 F333.3
X10.832 Y29.333 F400
X10.845 Y29.361
Y29.392
X10.834 Y29.42
X10.811 Y29.442
X10.783 Y29.452
X10.723 Y29.462
X10.702 Y29.406
X10.697 Y29.375
X10.704 Y29.346
X10.723 Y29.321
X10.75 Y29.306
X10.78 Y29.303
X10.809 Y29.313
G0 Z7
M9
M5
M30
