(1001)
(T3  D=3 CR=0 - ZMIN=-7.2 - flat end mill)
G90 G94
G17
G21

(2D Contour10)
T3
S1000 M3
G54
M8
G0 X0 Y-1.5
Z15
Z5
G1 Z2.5 F333.3
Z-1.5
G2 X0 Y73 I0 J37.25 F400
X0 Y-1.5 I0 J-37.25
G1 Z-3 F333.3
G2 X0 Y73 I0 J37.25 F400
X0 Y-1.5 I0 J-37.25
G1 Z-4.5 F333.3
G2 X0 Y73 I0 J37.25 F400
X0 Y-1.5 I0 J-37.25
G1 Z-6 F333.3
G2 X0 Y73 I0 J37.25 F400
X0 Y-1.5 I0 J-37.25
G1 Z-7.2 F333.3
G2 X-28.275 Y11.499 I0 J37.25 F400
G1 Z-6.9
G2 X-31.801 Y16.353 I28.275 J24.251
G1 Z-7.2 F333.3
G2 X-31.801 Y55.147 I31.801 J19.397 F400
G1 Z-6.9
G2 X-28.275 Y60.001 I31.801 J-19.397
G1 Z-7.2 F333.3
G2 X8.62 Y71.989 I28.275 J-24.251 F400
G1 Z-6.9
G2 X14.327 Y70.135 I-8.62 J-36.239
G1 Z-7.2 F333.3
G2 X37.129 Y38.75 I-14.327 J-34.385 F400
G1 Z-6.9
G2 X37.129 Y32.75 I-37.129 J-3
G1 Z-7.2 F333.3
G2 X14.327 Y1.365 I-37.129 J3 F400
G1 Z-6.9
G2 X8.62 Y-0.489 I-14.327 J34.385
G1 Z-7.2 F333.3
G2 X0 Y-1.5 I-8.62 J36.239 F400
G0 Z15
M9
M5
M30
