(1001)
(Machine)
(  vendor: Autodesk)
(  description: Generic 3-axis)
(T1  D=3 CR=0 - ZMIN=-10 - flat end mill)
G90 G94
G17
G21

(2D Contour6)
T1
S10000 M3
G54
M8
G0 X21 Y22.55
Z6
Z2
G1 Z1.5 F333.3
Z-0.5
G3 X20.7 Y22.52 I0 J-1.5 F1000
G1 Y19.58
G3 X21.3 Y19.58 I0.3 J1.47
G1 Y22.52
G3 X21 Y22.55 I-0.3 J-1.47
G1 Z-1 F333.3
G3 X20.7 Y22.52 I0 J-1.5 F1000
G1 Y19.58
G3 X21.3 Y19.58 I0.3 J1.47
G1 Y22.52
G3 X21 Y22.55 I-0.3 J-1.47
G1 Z-1.5 F333.3
G3 X20.7 Y22.52 I0 J-1.5 F1000
G1 Y19.58
G3 X21.3 Y19.58 I0.3 J1.47
G1 Y22.52
G3 X21 Y22.55 I-0.3 J-1.47
G1 Z-2 F333.3
G3 X20.7 Y22.52 I0 J-1.5 F1000
G1 Y19.58
G3 X21.3 Y19.58 I0.3 J1.47
G1 Y22.52
G3 X21 Y22.55 I-0.3 J-1.47
G1 Z-2.5 F333.3
G3 X20.7 Y22.52 I0 J-1.5 F1000
G1 Y19.58
G3 X21.3 Y19.58 I0.3 J1.47
G1 Y22.52
G3 X21 Y22.55 I-0.3 J-1.47
G1 Z-3 F333.3
G3 X20.7 Y22.52 I0 J-1.5 F1000
G1 Y19.58
G3 X21.3 Y19.58 I0.3 J1.47
G1 Y22.52
G3 X21 Y22.55 I-0.3 J-1.47
G1 Z-3.5 F333.3
G3 X20.7 Y22.52 I0 J-1.5 F1000
G1 Y19.58
G3 X21.3 Y19.58 I0.3 J1.47
G1 Y22.52
G3 X21 Y22.55 I-0.3 J-1.47
G1 Z-4 F333.3
G3 X20.7 Y22.52 I0 J-1.5 F1000
G1 Y19.58
G3 X21.3 Y19.58 I0.3 J1.47
G1 Y22.52
G3 X21 Y22.55 I-0.3 J-1.47
G1 Z-4.5 F333.3
G3 X20.7 Y22.52 I0 J-1.5 F1000
G1 Y19.58
G3 X21.3 Y19.58 I0.3 J1.47
G1 Y22.52
G3 X21 Y22.55 I-0.3 J-1.47
G1 Z-5 F333.3
G3 X20.7 Y22.52 I0 J-1.5 F1000
G1 Y19.58
G3 X21.3 Y19.58 I0.3 J1.47
G1 Y22.52
G3 X21 Y22.55 I-0.3 J-1.47
G1 Z-5.5 F333.3
G3 X20.7 Y22.52 I0 J-1.5 F1000
G1 Y19.58
G3 X21.3 Y19.58 I0.3 J1.47
G1 Y22.52
G3 X21 Y22.55 I-0.3 J-1.47
G1 Z-6 F333.3
G3 X20.7 Y22.52 I0 J-1.5 F1000
G1 Y19.58
G3 X21.3 Y19.58 I0.3 J1.47
G1 Y22.52
G3 X21 Y22.55 I-0.3 J-1.47
G1 Z-6.5 F333.3
G3 X20.7 Y22.52 I0 J-1.5 F1000
G1 Y19.58
G3 X21.3 Y19.58 I0.3 J1.47
G1 Y22.52
G3 X21 Y22.55 I-0.3 J-1.47
G1 Z-7 F333.3
G3 X20.7 Y22.52 I0 J-1.5 F1000
G1 Y19.58
G3 X21.3 Y19.58 I0.3 J1.47
G1 Y22.52
G3 X21 Y22.55 I-0.3 J-1.47
G1 Z-7.5 F333.3
G3 X20.7 Y22.52 I0 J-1.5 F1000
G1 Y19.58
G3 X21.3 Y19.58 I0.3 J1.47
G1 Y22.52
G3 X21 Y22.55 I-0.3 J-1.47
G1 Z-8 F333.3
G3 X20.7 Y22.52 I0 J-1.5 F1000
G1 Y19.58
G3 X21.3 Y19.58 I0.3 J1.47
G1 Y22.52
G3 X21 Y22.55 I-0.3 J-1.47
G1 Z-8.5 F333.3
G3 X20.7 Y22.52 I0 J-1.5 F1000
G1 Y19.58
G3 X21.3 Y19.58 I0.3 J1.47
G1 Y22.52
G3 X21 Y22.55 I-0.3 J-1.47
G1 Z-9 F333.3
G3 X20.7 Y22.52 I0 J-1.5 F1000
G1 Y19.58
G3 X21.3 Y19.58 I0.3 J1.47
G1 Y22.52
G3 X21 Y22.55 I-0.3 J-1.47
G1 Z-9.5 F333.3
G3 X20.7 Y22.52 I0 J-1.5 F1000
G1 Y19.58
G3 X21.3 Y19.58 I0.3 J1.47
G1 Y22.52
G3 X21 Y22.55 I-0.3 J-1.47
G1 Z-10 F333.3
G3 X20.7 Y22.52 I0 J-1.5 F1000
G1 Y19.58
G3 X21.3 Y19.58 I0.3 J1.47
G1 Y22.52
G3 X21 Y22.55 I-0.3 J-1.47
G0 Z6

(2D Contour5)
X1.861 Y9.17
Z6
Z2
G1 Z-0.5 F333.3
G2 X1.185 Y10.341 I19.139 J11.83 F1000
X1.123 Y11.632 I1.321 J0.711
G1 X1.137 Y11.665
G2 X3.499 Y15.353 I11.222 J-4.585
X4.965 Y16.488 I5.385 J-5.445
X5.68 Y16.767 I13.824 J-34.35
G1 X5.7 Y16.781
X5.711 Y16.803
X5.71 Y16.827
X5.672 Y16.969
X5.66 Y16.99
X5.64 Y17.004
X5.616 Y17.006
G2 X4.47 Y16.901 I-0.952 J4.115
X1.255 Y17.841 I0.669 J8.258
X-0.896 Y19.179 I4.967 J10.385
G1 X-1.009 Y19.273
X-1.113 Y19.379
X-1.206 Y19.495
X-1.287 Y19.619
X-1.355 Y19.75
X-1.41 Y19.888
X-1.451 Y20.03
X-1.478 Y20.176
X-1.49 Y20.324
G2 X-1.49 Y21.676 I22.49 J0.676
X-0.899 Y22.825 I1.499 J-0.045
G1 X-0.87 Y22.847
G2 X3.02 Y24.86 I7.426 J-9.582
X4.891 Y25.108 I1.913 J-7.248
G3 X5.616 Y24.994 I14.455 J89.505
G1 X5.64 Y24.996
X5.66 Y25.01
X5.672 Y25.031
X5.71 Y25.173
X5.711 Y25.197
X5.7 Y25.219
X5.68 Y25.233
G2 X4.628 Y25.721 I1.229 J4.028
X2.28 Y28.199 I4.769 J6.87
X1.127 Y30.37 I9.472 J6.42
G1 X1.076 Y30.509
X1.039 Y30.652
X1.017 Y30.799
X1.009 Y30.947
X1.015 Y31.095
X1.036 Y31.241
X1.072 Y31.385
X1.122 Y31.525
X1.185 Y31.659
G2 X1.861 Y32.83 I19.815 J-10.659
X2.948 Y33.53 I1.276 J-0.789
G1 X2.983 Y33.534
G2 X7.397 Y33.323 I1.64 J-11.97
X9.119 Y32.602 I-1.979 J-7.142
G3 X9.674 Y32.151 I12.753 J15.135
G1 X9.696 Y32.141
X9.72 Y32.142
X9.741 Y32.155
X9.845 Y32.259
X9.858 Y32.28
X9.859 Y32.304
X9.849 Y32.326
G2 X9.187 Y33.264 I3.096 J2.889
X8.387 Y36.595 I7.563 J3.576
X8.474 Y39.051 I11.43 J0.824
G1 X8.5 Y39.197
X8.54 Y39.339
X8.593 Y39.478
X8.66 Y39.61
X8.74 Y39.735
X8.832 Y39.851
X8.935 Y39.958
X9.048 Y40.054
X9.17 Y40.139
G2 X10.341 Y40.815 I11.83 J-19.139
X11.632 Y40.877 I0.711 J-1.321
G1 X11.664 Y40.863
G2 X15.352 Y38.502 I-4.58 J-11.213
X16.502 Y37.007 I-5.315 J-5.28
G3 X16.767 Y36.32 I153.319 J58.723
G1 X16.781 Y36.301
X16.803 Y36.29
X16.827
X16.969 Y36.328
X16.99 Y36.34
X17.004 Y36.36
X17.006 Y36.384
G2 X16.901 Y37.53 I4.116 J0.952
X17.891 Y40.844 I8.355 J-0.689
X19.178 Y42.896 I10.287 J-5.026
G1 X19.273 Y43.009
X19.379 Y43.113
X19.494 Y43.206
X19.618 Y43.287
X19.75 Y43.355
X19.888 Y43.41
X20.03 Y43.451
X20.176 Y43.478
X20.324 Y43.49
G2 X21.676 Y43.49 I0.676 J-22.49
X22.825 Y42.899 I-0.045 J-1.499
G1 X22.847 Y42.87
G2 X24.86 Y38.98 I-9.581 J-7.425
X25.108 Y37.109 I-7.242 J-1.912
G3 X24.994 Y36.384 I95.075 J-15.328
G1 X24.996 Y36.36
X25.01 Y36.34
X25.031 Y36.328
X25.173 Y36.29
X25.197 Y36.289
X25.219 Y36.3
X25.233 Y36.32
G2 X25.715 Y37.364 I4.054 J-1.239
X28.233 Y39.743 I6.9 J-4.783
X30.37 Y40.873 I6.395 J-9.499
G1 X30.509 Y40.924
X30.652 Y40.961
X30.799 Y40.984
X30.947 Y40.992
X31.095 Y40.985
X31.241 Y40.964
X31.385 Y40.928
X31.525 Y40.878
X31.659 Y40.815
G2 X32.83 Y40.139 I-10.659 J-19.815
X33.53 Y39.052 I-0.789 J-1.276
G1 X33.534 Y39.017
G2 X33.323 Y34.604 I-11.965 J-1.64
X32.591 Y32.865 I-7.032 J1.938
G3 X32.152 Y32.326 I10.553 J-9.056
G1 X32.141 Y32.304
X32.142 Y32.28
X32.155 Y32.259
X32.259 Y32.155
X32.28 Y32.142
X32.304 Y32.141
X32.326 Y32.151
G2 X33.264 Y32.813 I2.889 J-3.096
X36.406 Y33.601 I3.527 J-7.414
X39.051 Y33.525 I0.995 J-11.577
G1 X39.197 Y33.5
X39.34 Y33.46
X39.478 Y33.407
X39.61 Y33.34
X39.735 Y33.26
X39.851 Y33.168
X39.958 Y33.065
X40.054 Y32.952
X40.139 Y32.83
G2 X40.815 Y31.659 I-19.139 J-11.83
X40.877 Y30.368 I-1.321 J-0.711
G1 X40.863 Y30.336
G2 X38.502 Y26.648 I-11.21 J4.579
X37.007 Y25.498 I-5.278 J5.313
G3 X36.32 Y25.233 I60.482 J-157.877
G1 X36.301 Y25.219
X36.289 Y25.197
X36.29 Y25.173
X36.328 Y25.031
X36.34 Y25.01
X36.36 Y24.996
X36.384 Y24.994
G2 X37.53 Y25.099 I0.952 J-4.116
X40.844 Y24.109 I-0.689 J-8.355
X42.896 Y22.822 I-5.026 J-10.287
G1 X43.009 Y22.727
X43.113 Y22.621
X43.206 Y22.506
X43.287 Y22.382
X43.355 Y22.25
X43.41 Y22.112
X43.451 Y21.97
X43.478 Y21.824
X43.49 Y21.676
G2 X43.49 Y20.324 I-22.49 J-0.676
X42.899 Y19.175 I-1.499 J0.045
G1 X42.87 Y19.153
G2 X38.98 Y17.14 I-7.425 J9.581
X37.109 Y16.892 I-1.912 J7.242
G3 X36.384 Y17.006 I-15.327 J-95.069
G1 X36.36 Y17.004
X36.34 Y16.99
X36.328 Y16.969
X36.29 Y16.827
X36.289 Y16.803
X36.3 Y16.781
X36.32 Y16.767
G2 X37.364 Y16.285 I-1.239 J-4.054
X39.743 Y13.767 I-4.783 J-6.9
X40.873 Y11.63 I-9.502 J-6.396
G1 X40.924 Y11.491
X40.961 Y11.348
X40.984 Y11.201
X40.992 Y11.053
X40.985 Y10.905
X40.964 Y10.759
X40.928 Y10.615
X40.878 Y10.475
X40.815 Y10.341
G2 X40.139 Y9.17 I-19.815 J10.659
X39.052 Y8.47 I-1.276 J0.789
G1 X39.016 Y8.466
G2 X34.643 Y8.666 I-1.64 J12.014
X32.881 Y9.398 I1.927 J7.129
G3 X32.326 Y9.849 I-13.746 J-16.361
G1 X32.304 Y9.859
X32.28 Y9.858
X32.259 Y9.845
X32.155 Y9.741
X32.142 Y9.72
X32.141 Y9.696
X32.151 Y9.674
G2 X32.814 Y8.735 I-3.094 J-2.887
X33.608 Y5.484 I-7.488 J-3.551
X33.525 Y2.949 I-11.462 J-0.897
G1 X33.5 Y2.803
X33.46 Y2.66
X33.407 Y2.522
X33.34 Y2.39
X33.26 Y2.265
X33.168 Y2.149
X33.065 Y2.042
X32.952 Y1.946
X32.83 Y1.861
G2 X31.659 Y1.185 I-11.83 J19.139
X30.368 Y1.123 I-0.711 J1.321
G1 X30.335 Y1.137
G2 X26.647 Y3.499 I4.585 J11.222
X25.512 Y4.965 I5.445 J5.385
X25.233 Y5.68 I34.351 J13.825
G1 X25.219 Y5.7
X25.197 Y5.711
X25.173 Y5.71
X25.031 Y5.672
X25.01 Y5.66
X24.996 Y5.64
X24.994 Y5.616
G2 X25.099 Y4.47 I-4.115 J-0.952
X24.159 Y1.255 I-8.258 J0.669
X22.821 Y-0.896 I-10.385 J4.967
G1 X22.727 Y-1.009
X22.621 Y-1.113
X22.505 Y-1.206
X22.381 Y-1.287
X22.25 Y-1.355
X22.112 Y-1.41
X21.97 Y-1.451
X21.824 Y-1.478
X21.676 Y-1.49
G2 X20.324 Y-1.49 I-0.676 J22.49
X19.175 Y-0.899 I0.045 J1.499
G1 X19.153 Y-0.87
G2 X17.14 Y3.02 I9.582 J7.426
X16.892 Y4.891 I7.248 J1.913
G3 X17.006 Y5.616 I-89.504 J14.455
G1 X17.004 Y5.64
X16.99 Y5.66
X16.969 Y5.672
X16.827 Y5.71
X16.803 Y5.711
X16.781 Y5.7
X16.767 Y5.68
G2 X16.279 Y4.628 I-4.028 J1.229
X13.801 Y2.28 I-6.87 J4.769
X11.63 Y1.127 I-6.42 J9.472
G1 X11.491 Y1.076
X11.348 Y1.039
X11.201 Y1.017
X11.053 Y1.009
X10.905 Y1.015
X10.759 Y1.036
X10.615 Y1.072
X10.475 Y1.122
X10.341 Y1.185
G2 X9.17 Y1.861 I10.659 J19.815
X8.47 Y2.948 I0.789 J1.276
G1 X8.466 Y2.984
G2 X8.666 Y7.356 I12.014 J1.64
X9.398 Y9.119 I7.16 J-1.939
G3 X9.849 Y9.674 I-13.779 J11.659
G1 X9.859 Y9.696
X9.858 Y9.72
X9.845 Y9.741
X9.741 Y9.845
X9.72 Y9.858
X9.696 Y9.859
X9.674 Y9.849
G2 X8.735 Y9.186 I-2.887 J3.094
X5.405 Y8.387 I-3.574 J7.56
X2.949 Y8.475 I-0.824 J11.422
G1 X2.803 Y8.5
X2.661 Y8.54
X2.522 Y8.593
X2.39 Y8.66
X2.265 Y8.74
X2.149 Y8.832
X2.042 Y8.935
X1.946 Y9.048
X1.861 Y9.17
Z-1 F333.3
G2 X1.185 Y10.341 I19.139 J11.83 F1000
X1.123 Y11.632 I1.321 J0.711
G1 X1.137 Y11.665
G2 X3.499 Y15.353 I11.222 J-4.585
X4.965 Y16.488 I5.385 J-5.445
X5.68 Y16.767 I13.824 J-34.35
G1 X5.7 Y16.781
X5.711 Y16.803
X5.71 Y16.827
X5.672 Y16.969
X5.66 Y16.99
X5.64 Y17.004
X5.616 Y17.006
G2 X4.47 Y16.901 I-0.952 J4.115
X1.255 Y17.841 I0.669 J8.258
X-0.896 Y19.179 I4.967 J10.385
G1 X-1.009 Y19.273
X-1.113 Y19.379
X-1.206 Y19.495
X-1.287 Y19.619
X-1.355 Y19.75
X-1.41 Y19.888
X-1.451 Y20.03
X-1.478 Y20.176
X-1.49 Y20.324
G2 X-1.49 Y21.676 I22.49 J0.676
X-0.899 Y22.825 I1.499 J-0.045
G1 X-0.87 Y22.847
G2 X3.02 Y24.86 I7.426 J-9.582
X4.891 Y25.108 I1.913 J-7.248
G3 X5.616 Y24.994 I14.455 J89.505
G1 X5.64 Y24.996
X5.66 Y25.01
X5.672 Y25.031
X5.71 Y25.173
X5.711 Y25.197
X5.7 Y25.219
X5.68 Y25.233
G2 X4.628 Y25.721 I1.229 J4.028
X2.28 Y28.199 I4.769 J6.87
X1.127 Y30.37 I9.472 J6.42
G1 X1.076 Y30.509
X1.039 Y30.652
X1.017 Y30.799
X1.009 Y30.947
X1.015 Y31.095
X1.036 Y31.241
X1.072 Y31.385
X1.122 Y31.525
X1.185 Y31.659
G2 X1.861 Y32.83 I19.815 J-10.659
X2.948 Y33.53 I1.276 J-0.789
G1 X2.983 Y33.534
G2 X7.397 Y33.323 I1.64 J-11.97
X9.119 Y32.602 I-1.979 J-7.142
G3 X9.674 Y32.151 I12.753 J15.135
G1 X9.696 Y32.141
X9.72 Y32.142
X9.741 Y32.155
X9.845 Y32.259
X9.858 Y32.28
X9.859 Y32.304
X9.849 Y32.326
G2 X9.187 Y33.264 I3.096 J2.889
X8.387 Y36.595 I7.563 J3.576
X8.474 Y39.051 I11.43 J0.824
G1 X8.5 Y39.197
X8.54 Y39.339
X8.593 Y39.478
X8.66 Y39.61
X8.74 Y39.735
X8.832 Y39.851
X8.935 Y39.958
X9.048 Y40.054
X9.17 Y40.139
G2 X10.341 Y40.815 I11.83 J-19.139
X11.632 Y40.877 I0.711 J-1.321
G1 X11.664 Y40.863
G2 X15.352 Y38.502 I-4.58 J-11.213
X16.502 Y37.007 I-5.315 J-5.28
G3 X16.767 Y36.32 I153.319 J58.723
G1 X16.781 Y36.301
X16.803 Y36.29
X16.827
X16.969 Y36.328
X16.99 Y36.34
X17.004 Y36.36
X17.006 Y36.384
G2 X16.901 Y37.53 I4.116 J0.952
X17.891 Y40.844 I8.355 J-0.689
X19.178 Y42.896 I10.287 J-5.026
G1 X19.273 Y43.009
X19.379 Y43.113
X19.494 Y43.206
X19.618 Y43.287
X19.75 Y43.355
X19.888 Y43.41
X20.03 Y43.451
X20.176 Y43.478
X20.324 Y43.49
G2 X21.676 Y43.49 I0.676 J-22.49
X22.825 Y42.899 I-0.045 J-1.499
G1 X22.847 Y42.87
G2 X24.86 Y38.98 I-9.581 J-7.425
X25.108 Y37.109 I-7.242 J-1.912
G3 X24.994 Y36.384 I95.075 J-15.328
G1 X24.996 Y36.36
X25.01 Y36.34
X25.031 Y36.328
X25.173 Y36.29
X25.197 Y36.289
X25.219 Y36.3
X25.233 Y36.32
G2 X25.715 Y37.364 I4.054 J-1.239
X28.233 Y39.743 I6.9 J-4.783
X30.37 Y40.873 I6.395 J-9.499
G1 X30.509 Y40.924
X30.652 Y40.961
X30.799 Y40.984
X30.947 Y40.992
X31.095 Y40.985
X31.241 Y40.964
X31.385 Y40.928
X31.525 Y40.878
X31.659 Y40.815
G2 X32.83 Y40.139 I-10.659 J-19.815
X33.53 Y39.052 I-0.789 J-1.276
G1 X33.534 Y39.017
G2 X33.323 Y34.604 I-11.965 J-1.64
X32.591 Y32.865 I-7.032 J1.938
G3 X32.152 Y32.326 I10.553 J-9.056
G1 X32.141 Y32.304
X32.142 Y32.28
X32.155 Y32.259
X32.259 Y32.155
X32.28 Y32.142
X32.304 Y32.141
X32.326 Y32.151
G2 X33.264 Y32.813 I2.889 J-3.096
X36.406 Y33.601 I3.527 J-7.414
X39.051 Y33.525 I0.995 J-11.577
G1 X39.197 Y33.5
X39.34 Y33.46
X39.478 Y33.407
X39.61 Y33.34
X39.735 Y33.26
X39.851 Y33.168
X39.958 Y33.065
X40.054 Y32.952
X40.139 Y32.83
G2 X40.815 Y31.659 I-19.139 J-11.83
X40.877 Y30.368 I-1.321 J-0.711
G1 X40.863 Y30.336
G2 X38.502 Y26.648 I-11.21 J4.579
X37.007 Y25.498 I-5.278 J5.313
G3 X36.32 Y25.233 I60.482 J-157.877
G1 X36.301 Y25.219
X36.289 Y25.197
X36.29 Y25.173
X36.328 Y25.031
X36.34 Y25.01
X36.36 Y24.996
X36.384 Y24.994
G2 X37.53 Y25.099 I0.952 J-4.116
X40.844 Y24.109 I-0.689 J-8.355
X42.896 Y22.822 I-5.026 J-10.287
G1 X43.009 Y22.727
X43.113 Y22.621
X43.206 Y22.506
X43.287 Y22.382
X43.355 Y22.25
X43.41 Y22.112
X43.451 Y21.97
X43.478 Y21.824
X43.49 Y21.676
G2 X43.49 Y20.324 I-22.49 J-0.676
X42.899 Y19.175 I-1.499 J0.045
G1 X42.87 Y19.153
G2 X38.98 Y17.14 I-7.425 J9.581
X37.109 Y16.892 I-1.912 J7.242
G3 X36.384 Y17.006 I-15.327 J-95.069
G1 X36.36 Y17.004
X36.34 Y16.99
X36.328 Y16.969
X36.29 Y16.827
X36.289 Y16.803
X36.3 Y16.781
X36.32 Y16.767
G2 X37.364 Y16.285 I-1.239 J-4.054
X39.743 Y13.767 I-4.783 J-6.9
X40.873 Y11.63 I-9.502 J-6.396
G1 X40.924 Y11.491
X40.961 Y11.348
X40.984 Y11.201
X40.992 Y11.053
X40.985 Y10.905
X40.964 Y10.759
X40.928 Y10.615
X40.878 Y10.475
X40.815 Y10.341
G2 X40.139 Y9.17 I-19.815 J10.659
X39.052 Y8.47 I-1.276 J0.789
G1 X39.016 Y8.466
G2 X34.643 Y8.666 I-1.64 J12.014
X32.881 Y9.398 I1.927 J7.129
G3 X32.326 Y9.849 I-13.746 J-16.361
G1 X32.304 Y9.859
X32.28 Y9.858
X32.259 Y9.845
X32.155 Y9.741
X32.142 Y9.72
X32.141 Y9.696
X32.151 Y9.674
G2 X32.814 Y8.735 I-3.094 J-2.887
X33.608 Y5.484 I-7.488 J-3.551
X33.525 Y2.949 I-11.462 J-0.897
G1 X33.5 Y2.803
X33.46 Y2.66
X33.407 Y2.522
X33.34 Y2.39
X33.26 Y2.265
X33.168 Y2.149
X33.065 Y2.042
X32.952 Y1.946
X32.83 Y1.861
G2 X31.659 Y1.185 I-11.83 J19.139
X30.368 Y1.123 I-0.711 J1.321
G1 X30.335 Y1.137
G2 X26.647 Y3.499 I4.585 J11.222
X25.512 Y4.965 I5.445 J5.385
X25.233 Y5.68 I34.351 J13.825
G1 X25.219 Y5.7
X25.197 Y5.711
X25.173 Y5.71
X25.031 Y5.672
X25.01 Y5.66
X24.996 Y5.64
X24.994 Y5.616
G2 X25.099 Y4.47 I-4.115 J-0.952
X24.159 Y1.255 I-8.258 J0.669
X22.821 Y-0.896 I-10.385 J4.967
G1 X22.727 Y-1.009
X22.621 Y-1.113
X22.505 Y-1.206
X22.381 Y-1.287
X22.25 Y-1.355
X22.112 Y-1.41
X21.97 Y-1.451
X21.824 Y-1.478
X21.676 Y-1.49
G2 X20.324 Y-1.49 I-0.676 J22.49
X19.175 Y-0.899 I0.045 J1.499
G1 X19.153 Y-0.87
G2 X17.14 Y3.02 I9.582 J7.426
X16.892 Y4.891 I7.248 J1.913
G3 X17.006 Y5.616 I-89.504 J14.455
G1 X17.004 Y5.64
X16.99 Y5.66
X16.969 Y5.672
X16.827 Y5.71
X16.803 Y5.711
X16.781 Y5.7
X16.767 Y5.68
G2 X16.279 Y4.628 I-4.028 J1.229
X13.801 Y2.28 I-6.87 J4.769
X11.63 Y1.127 I-6.42 J9.472
G1 X11.491 Y1.076
X11.348 Y1.039
X11.201 Y1.017
X11.053 Y1.009
X10.905 Y1.015
X10.759 Y1.036
X10.615 Y1.072
X10.475 Y1.122
X10.341 Y1.185
G2 X9.17 Y1.861 I10.659 J19.815
X8.47 Y2.948 I0.789 J1.276
G1 X8.466 Y2.984
G2 X8.666 Y7.356 I12.014 J1.64
X9.398 Y9.119 I7.16 J-1.939
G3 X9.849 Y9.674 I-13.779 J11.659
G1 X9.859 Y9.696
X9.858 Y9.72
X9.845 Y9.741
X9.741 Y9.845
X9.72 Y9.858
X9.696 Y9.859
X9.674 Y9.849
G2 X8.735 Y9.186 I-2.887 J3.094
X5.405 Y8.387 I-3.574 J7.56
X2.949 Y8.475 I-0.824 J11.422
G1 X2.803 Y8.5
X2.661 Y8.54
X2.522 Y8.593
X2.39 Y8.66
X2.265 Y8.74
X2.149 Y8.832
X2.042 Y8.935
X1.946 Y9.048
X1.861 Y9.17
Z-1.5 F333.3
G2 X1.185 Y10.341 I19.139 J11.83 F1000
X1.123 Y11.632 I1.321 J0.711
G1 X1.137 Y11.665
G2 X3.499 Y15.353 I11.222 J-4.585
X4.965 Y16.488 I5.385 J-5.445
X5.68 Y16.767 I13.824 J-34.35
G1 X5.7 Y16.781
X5.711 Y16.803
X5.71 Y16.827
X5.672 Y16.969
X5.66 Y16.99
X5.64 Y17.004
X5.616 Y17.006
G2 X4.47 Y16.901 I-0.952 J4.115
X1.255 Y17.841 I0.669 J8.258
X-0.896 Y19.179 I4.967 J10.385
G1 X-1.009 Y19.273
X-1.113 Y19.379
X-1.206 Y19.495
X-1.287 Y19.619
X-1.355 Y19.75
X-1.41 Y19.888
X-1.451 Y20.03
X-1.478 Y20.176
X-1.49 Y20.324
G2 X-1.49 Y21.676 I22.49 J0.676
X-0.899 Y22.825 I1.499 J-0.045
G1 X-0.87 Y22.847
G2 X3.02 Y24.86 I7.426 J-9.582
X4.891 Y25.108 I1.913 J-7.248
G3 X5.616 Y24.994 I14.455 J89.505
G1 X5.64 Y24.996
X5.66 Y25.01
X5.672 Y25.031
X5.71 Y25.173
X5.711 Y25.197
X5.7 Y25.219
X5.68 Y25.233
G2 X4.628 Y25.721 I1.229 J4.028
X2.28 Y28.199 I4.769 J6.87
X1.127 Y30.37 I9.472 J6.42
G1 X1.076 Y30.509
X1.039 Y30.652
X1.017 Y30.799
X1.009 Y30.947
X1.015 Y31.095
X1.036 Y31.241
X1.072 Y31.385
X1.122 Y31.525
X1.185 Y31.659
G2 X1.861 Y32.83 I19.815 J-10.659
X2.948 Y33.53 I1.276 J-0.789
G1 X2.983 Y33.534
G2 X7.397 Y33.323 I1.64 J-11.97
X9.119 Y32.602 I-1.979 J-7.142
G3 X9.674 Y32.151 I12.753 J15.135
G1 X9.696 Y32.141
X9.72 Y32.142
X9.741 Y32.155
X9.845 Y32.259
X9.858 Y32.28
X9.859 Y32.304
X9.849 Y32.326
G2 X9.187 Y33.264 I3.096 J2.889
X8.387 Y36.595 I7.563 J3.576
X8.474 Y39.051 I11.43 J0.824
G1 X8.5 Y39.197
X8.54 Y39.339
X8.593 Y39.478
X8.66 Y39.61
X8.74 Y39.735
X8.832 Y39.851
X8.935 Y39.958
X9.048 Y40.054
X9.17 Y40.139
G2 X10.341 Y40.815 I11.83 J-19.139
X11.632 Y40.877 I0.711 J-1.321
G1 X11.664 Y40.863
G2 X15.352 Y38.502 I-4.58 J-11.213
X16.502 Y37.007 I-5.315 J-5.28
G3 X16.767 Y36.32 I153.319 J58.723
G1 X16.781 Y36.301
X16.803 Y36.29
X16.827
X16.969 Y36.328
X16.99 Y36.34
X17.004 Y36.36
X17.006 Y36.384
G2 X16.901 Y37.53 I4.116 J0.952
X17.891 Y40.844 I8.355 J-0.689
X19.178 Y42.896 I10.287 J-5.026
G1 X19.273 Y43.009
X19.379 Y43.113
X19.494 Y43.206
X19.618 Y43.287
X19.75 Y43.355
X19.888 Y43.41
X20.03 Y43.451
X20.176 Y43.478
X20.324 Y43.49
G2 X21.676 Y43.49 I0.676 J-22.49
X22.825 Y42.899 I-0.045 J-1.499
G1 X22.847 Y42.87
G2 X24.86 Y38.98 I-9.581 J-7.425
X25.108 Y37.109 I-7.242 J-1.912
G3 X24.994 Y36.384 I95.075 J-15.328
G1 X24.996 Y36.36
X25.01 Y36.34
X25.031 Y36.328
X25.173 Y36.29
X25.197 Y36.289
X25.219 Y36.3
X25.233 Y36.32
G2 X25.715 Y37.364 I4.054 J-1.239
X28.233 Y39.743 I6.9 J-4.783
X30.37 Y40.873 I6.395 J-9.499
G1 X30.509 Y40.924
X30.652 Y40.961
X30.799 Y40.984
X30.947 Y40.992
X31.095 Y40.985
X31.241 Y40.964
X31.385 Y40.928
X31.525 Y40.878
X31.659 Y40.815
G2 X32.83 Y40.139 I-10.659 J-19.815
X33.53 Y39.052 I-0.789 J-1.276
G1 X33.534 Y39.017
G2 X33.323 Y34.604 I-11.965 J-1.64
X32.591 Y32.865 I-7.032 J1.938
G3 X32.152 Y32.326 I10.553 J-9.056
G1 X32.141 Y32.304
X32.142 Y32.28
X32.155 Y32.259
X32.259 Y32.155
X32.28 Y32.142
X32.304 Y32.141
X32.326 Y32.151
G2 X33.264 Y32.813 I2.889 J-3.096
X36.406 Y33.601 I3.527 J-7.414
X39.051 Y33.525 I0.995 J-11.577
G1 X39.197 Y33.5
X39.34 Y33.46
X39.478 Y33.407
X39.61 Y33.34
X39.735 Y33.26
X39.851 Y33.168
X39.958 Y33.065
X40.054 Y32.952
X40.139 Y32.83
G2 X40.815 Y31.659 I-19.139 J-11.83
X40.877 Y30.368 I-1.321 J-0.711
G1 X40.863 Y30.336
G2 X38.502 Y26.648 I-11.21 J4.579
X37.007 Y25.498 I-5.278 J5.313
G3 X36.32 Y25.233 I60.482 J-157.877
G1 X36.301 Y25.219
X36.289 Y25.197
X36.29 Y25.173
X36.328 Y25.031
X36.34 Y25.01
X36.36 Y24.996
X36.384 Y24.994
G2 X37.53 Y25.099 I0.952 J-4.116
X40.844 Y24.109 I-0.689 J-8.355
X42.896 Y22.822 I-5.026 J-10.287
G1 X43.009 Y22.727
X43.113 Y22.621
X43.206 Y22.506
X43.287 Y22.382
X43.355 Y22.25
X43.41 Y22.112
X43.451 Y21.97
X43.478 Y21.824
X43.49 Y21.676
G2 X43.49 Y20.324 I-22.49 J-0.676
X42.899 Y19.175 I-1.499 J0.045
G1 X42.87 Y19.153
G2 X38.98 Y17.14 I-7.425 J9.581
X37.109 Y16.892 I-1.912 J7.242
G3 X36.384 Y17.006 I-15.327 J-95.069
G1 X36.36 Y17.004
X36.34 Y16.99
X36.328 Y16.969
X36.29 Y16.827
X36.289 Y16.803
X36.3 Y16.781
X36.32 Y16.767
G2 X37.364 Y16.285 I-1.239 J-4.054
X39.743 Y13.767 I-4.783 J-6.9
X40.873 Y11.63 I-9.502 J-6.396
G1 X40.924 Y11.491
X40.961 Y11.348
X40.984 Y11.201
X40.992 Y11.053
X40.985 Y10.905
X40.964 Y10.759
X40.928 Y10.615
X40.878 Y10.475
X40.815 Y10.341
G2 X40.139 Y9.17 I-19.815 J10.659
X39.052 Y8.47 I-1.276 J0.789
G1 X39.016 Y8.466
G2 X34.643 Y8.666 I-1.64 J12.014
X32.881 Y9.398 I1.927 J7.129
G3 X32.326 Y9.849 I-13.746 J-16.361
G1 X32.304 Y9.859
X32.28 Y9.858
X32.259 Y9.845
X32.155 Y9.741
X32.142 Y9.72
X32.141 Y9.696
X32.151 Y9.674
G2 X32.814 Y8.735 I-3.094 J-2.887
X33.608 Y5.484 I-7.488 J-3.551
X33.525 Y2.949 I-11.462 J-0.897
G1 X33.5 Y2.803
X33.46 Y2.66
X33.407 Y2.522
X33.34 Y2.39
X33.26 Y2.265
X33.168 Y2.149
X33.065 Y2.042
X32.952 Y1.946
X32.83 Y1.861
G2 X31.659 Y1.185 I-11.83 J19.139
X30.368 Y1.123 I-0.711 J1.321
G1 X30.335 Y1.137
G2 X26.647 Y3.499 I4.585 J11.222
X25.512 Y4.965 I5.445 J5.385
X25.233 Y5.68 I34.351 J13.825
G1 X25.219 Y5.7
X25.197 Y5.711
X25.173 Y5.71
X25.031 Y5.672
X25.01 Y5.66
X24.996 Y5.64
X24.994 Y5.616
G2 X25.099 Y4.47 I-4.115 J-0.952
X24.159 Y1.255 I-8.258 J0.669
X22.821 Y-0.896 I-10.385 J4.967
G1 X22.727 Y-1.009
X22.621 Y-1.113
X22.505 Y-1.206
X22.381 Y-1.287
X22.25 Y-1.355
X22.112 Y-1.41
X21.97 Y-1.451
X21.824 Y-1.478
X21.676 Y-1.49
G2 X20.324 Y-1.49 I-0.676 J22.49
X19.175 Y-0.899 I0.045 J1.499
G1 X19.153 Y-0.87
G2 X17.14 Y3.02 I9.582 J7.426
X16.892 Y4.891 I7.248 J1.913
G3 X17.006 Y5.616 I-89.504 J14.455
G1 X17.004 Y5.64
X16.99 Y5.66
X16.969 Y5.672
X16.827 Y5.71
X16.803 Y5.711
X16.781 Y5.7
X16.767 Y5.68
G2 X16.279 Y4.628 I-4.028 J1.229
X13.801 Y2.28 I-6.87 J4.769
X11.63 Y1.127 I-6.42 J9.472
G1 X11.491 Y1.076
X11.348 Y1.039
X11.201 Y1.017
X11.053 Y1.009
X10.905 Y1.015
X10.759 Y1.036
X10.615 Y1.072
X10.475 Y1.122
X10.341 Y1.185
G2 X9.17 Y1.861 I10.659 J19.815
X8.47 Y2.948 I0.789 J1.276
G1 X8.466 Y2.984
G2 X8.666 Y7.356 I12.014 J1.64
X9.398 Y9.119 I7.16 J-1.939
G3 X9.849 Y9.674 I-13.779 J11.659
G1 X9.859 Y9.696
X9.858 Y9.72
X9.845 Y9.741
X9.741 Y9.845
X9.72 Y9.858
X9.696 Y9.859
X9.674 Y9.849
G2 X8.735 Y9.186 I-2.887 J3.094
X5.405 Y8.387 I-3.574 J7.56
X2.949 Y8.475 I-0.824 J11.422
G1 X2.803 Y8.5
X2.661 Y8.54
X2.522 Y8.593
X2.39 Y8.66
X2.265 Y8.74
X2.149 Y8.832
X2.042 Y8.935
X1.946 Y9.048
X1.861 Y9.17
Z-2 F333.3
G2 X1.185 Y10.341 I19.139 J11.83 F1000
X1.123 Y11.632 I1.321 J0.711
G1 X1.137 Y11.665
G2 X3.499 Y15.353 I11.222 J-4.585
X4.965 Y16.488 I5.385 J-5.445
X5.68 Y16.767 I13.824 J-34.35
G1 X5.7 Y16.781
X5.711 Y16.803
X5.71 Y16.827
X5.672 Y16.969
X5.66 Y16.99
X5.64 Y17.004
X5.616 Y17.006
G2 X4.47 Y16.901 I-0.952 J4.115
X1.255 Y17.841 I0.669 J8.258
X-0.896 Y19.179 I4.967 J10.385
G1 X-1.009 Y19.273
X-1.113 Y19.379
X-1.206 Y19.495
X-1.287 Y19.619
X-1.355 Y19.75
X-1.41 Y19.888
X-1.451 Y20.03
X-1.478 Y20.176
X-1.49 Y20.324
G2 X-1.49 Y21.676 I22.49 J0.676
X-0.899 Y22.825 I1.499 J-0.045
G1 X-0.87 Y22.847
G2 X3.02 Y24.86 I7.426 J-9.582
X4.891 Y25.108 I1.913 J-7.248
G3 X5.616 Y24.994 I14.455 J89.505
G1 X5.64 Y24.996
X5.66 Y25.01
X5.672 Y25.031
X5.71 Y25.173
X5.711 Y25.197
X5.7 Y25.219
X5.68 Y25.233
G2 X4.628 Y25.721 I1.229 J4.028
X2.28 Y28.199 I4.769 J6.87
X1.127 Y30.37 I9.472 J6.42
G1 X1.076 Y30.509
X1.039 Y30.652
X1.017 Y30.799
X1.009 Y30.947
X1.015 Y31.095
X1.036 Y31.241
X1.072 Y31.385
X1.122 Y31.525
X1.185 Y31.659
G2 X1.861 Y32.83 I19.815 J-10.659
X2.948 Y33.53 I1.276 J-0.789
G1 X2.983 Y33.534
G2 X7.397 Y33.323 I1.64 J-11.97
X9.119 Y32.602 I-1.979 J-7.142
G3 X9.674 Y32.151 I12.753 J15.135
G1 X9.696 Y32.141
X9.72 Y32.142
X9.741 Y32.155
X9.845 Y32.259
X9.858 Y32.28
X9.859 Y32.304
X9.849 Y32.326
G2 X9.187 Y33.264 I3.096 J2.889
X8.387 Y36.595 I7.563 J3.576
X8.474 Y39.051 I11.43 J0.824
G1 X8.5 Y39.197
X8.54 Y39.339
X8.593 Y39.478
X8.66 Y39.61
X8.74 Y39.735
X8.832 Y39.851
X8.935 Y39.958
X9.048 Y40.054
X9.17 Y40.139
G2 X10.341 Y40.815 I11.83 J-19.139
X11.632 Y40.877 I0.711 J-1.321
G1 X11.664 Y40.863
G2 X15.352 Y38.502 I-4.58 J-11.213
X16.502 Y37.007 I-5.315 J-5.28
G3 X16.767 Y36.32 I153.319 J58.723
G1 X16.781 Y36.301
X16.803 Y36.29
X16.827
X16.969 Y36.328
X16.99 Y36.34
X17.004 Y36.36
X17.006 Y36.384
G2 X16.901 Y37.53 I4.116 J0.952
X17.891 Y40.844 I8.355 J-0.689
X19.178 Y42.896 I10.287 J-5.026
G1 X19.273 Y43.009
X19.379 Y43.113
X19.494 Y43.206
X19.618 Y43.287
X19.75 Y43.355
X19.888 Y43.41
X20.03 Y43.451
X20.176 Y43.478
X20.324 Y43.49
G2 X21.676 Y43.49 I0.676 J-22.49
X22.825 Y42.899 I-0.045 J-1.499
G1 X22.847 Y42.87
G2 X24.86 Y38.98 I-9.581 J-7.425
X25.108 Y37.109 I-7.242 J-1.912
G3 X24.994 Y36.384 I95.075 J-15.328
G1 X24.996 Y36.36
X25.01 Y36.34
X25.031 Y36.328
X25.173 Y36.29
X25.197 Y36.289
X25.219 Y36.3
X25.233 Y36.32
G2 X25.715 Y37.364 I4.054 J-1.239
X28.233 Y39.743 I6.9 J-4.783
X30.37 Y40.873 I6.395 J-9.499
G1 X30.509 Y40.924
X30.652 Y40.961
X30.799 Y40.984
X30.947 Y40.992
X31.095 Y40.985
X31.241 Y40.964
X31.385 Y40.928
X31.525 Y40.878
X31.659 Y40.815
G2 X32.83 Y40.139 I-10.659 J-19.815
X33.53 Y39.052 I-0.789 J-1.276
G1 X33.534 Y39.017
G2 X33.323 Y34.604 I-11.965 J-1.64
X32.591 Y32.865 I-7.032 J1.938
G3 X32.152 Y32.326 I10.553 J-9.056
G1 X32.141 Y32.304
X32.142 Y32.28
X32.155 Y32.259
X32.259 Y32.155
X32.28 Y32.142
X32.304 Y32.141
X32.326 Y32.151
G2 X33.264 Y32.813 I2.889 J-3.096
X36.406 Y33.601 I3.527 J-7.414
X39.051 Y33.525 I0.995 J-11.577
G1 X39.197 Y33.5
X39.34 Y33.46
X39.478 Y33.407
X39.61 Y33.34
X39.735 Y33.26
X39.851 Y33.168
X39.958 Y33.065
X40.054 Y32.952
X40.139 Y32.83
G2 X40.815 Y31.659 I-19.139 J-11.83
X40.877 Y30.368 I-1.321 J-0.711
G1 X40.863 Y30.336
G2 X38.502 Y26.648 I-11.21 J4.579
X37.007 Y25.498 I-5.278 J5.313
G3 X36.32 Y25.233 I60.482 J-157.877
G1 X36.301 Y25.219
X36.289 Y25.197
X36.29 Y25.173
X36.328 Y25.031
X36.34 Y25.01
X36.36 Y24.996
X36.384 Y24.994
G2 X37.53 Y25.099 I0.952 J-4.116
X40.844 Y24.109 I-0.689 J-8.355
X42.896 Y22.822 I-5.026 J-10.287
G1 X43.009 Y22.727
X43.113 Y22.621
X43.206 Y22.506
X43.287 Y22.382
X43.355 Y22.25
X43.41 Y22.112
X43.451 Y21.97
X43.478 Y21.824
X43.49 Y21.676
G2 X43.49 Y20.324 I-22.49 J-0.676
X42.899 Y19.175 I-1.499 J0.045
G1 X42.87 Y19.153
G2 X38.98 Y17.14 I-7.425 J9.581
X37.109 Y16.892 I-1.912 J7.242
G3 X36.384 Y17.006 I-15.327 J-95.069
G1 X36.36 Y17.004
X36.34 Y16.99
X36.328 Y16.969
X36.29 Y16.827
X36.289 Y16.803
X36.3 Y16.781
X36.32 Y16.767
G2 X37.364 Y16.285 I-1.239 J-4.054
X39.743 Y13.767 I-4.783 J-6.9
X40.873 Y11.63 I-9.502 J-6.396
G1 X40.924 Y11.491
X40.961 Y11.348
X40.984 Y11.201
X40.992 Y11.053
X40.985 Y10.905
X40.964 Y10.759
X40.928 Y10.615
X40.878 Y10.475
X40.815 Y10.341
G2 X40.139 Y9.17 I-19.815 J10.659
X39.052 Y8.47 I-1.276 J0.789
G1 X39.016 Y8.466
G2 X34.643 Y8.666 I-1.64 J12.014
X32.881 Y9.398 I1.927 J7.129
G3 X32.326 Y9.849 I-13.746 J-16.361
G1 X32.304 Y9.859
X32.28 Y9.858
X32.259 Y9.845
X32.155 Y9.741
X32.142 Y9.72
X32.141 Y9.696
X32.151 Y9.674
G2 X32.814 Y8.735 I-3.094 J-2.887
X33.608 Y5.484 I-7.488 J-3.551
X33.525 Y2.949 I-11.462 J-0.897
G1 X33.5 Y2.803
X33.46 Y2.66
X33.407 Y2.522
X33.34 Y2.39
X33.26 Y2.265
X33.168 Y2.149
X33.065 Y2.042
X32.952 Y1.946
X32.83 Y1.861
G2 X31.659 Y1.185 I-11.83 J19.139
X30.368 Y1.123 I-0.711 J1.321
G1 X30.335 Y1.137
G2 X26.647 Y3.499 I4.585 J11.222
X25.512 Y4.965 I5.445 J5.385
X25.233 Y5.68 I34.351 J13.825
G1 X25.219 Y5.7
X25.197 Y5.711
X25.173 Y5.71
X25.031 Y5.672
X25.01 Y5.66
X24.996 Y5.64
X24.994 Y5.616
G2 X25.099 Y4.47 I-4.115 J-0.952
X24.159 Y1.255 I-8.258 J0.669
X22.821 Y-0.896 I-10.385 J4.967
G1 X22.727 Y-1.009
X22.621 Y-1.113
X22.505 Y-1.206
X22.381 Y-1.287
X22.25 Y-1.355
X22.112 Y-1.41
X21.97 Y-1.451
X21.824 Y-1.478
X21.676 Y-1.49
G2 X20.324 Y-1.49 I-0.676 J22.49
X19.175 Y-0.899 I0.045 J1.499
G1 X19.153 Y-0.87
G2 X17.14 Y3.02 I9.582 J7.426
X16.892 Y4.891 I7.248 J1.913
G3 X17.006 Y5.616 I-89.504 J14.455
G1 X17.004 Y5.64
X16.99 Y5.66
X16.969 Y5.672
X16.827 Y5.71
X16.803 Y5.711
X16.781 Y5.7
X16.767 Y5.68
G2 X16.279 Y4.628 I-4.028 J1.229
X13.801 Y2.28 I-6.87 J4.769
X11.63 Y1.127 I-6.42 J9.472
G1 X11.491 Y1.076
X11.348 Y1.039
X11.201 Y1.017
X11.053 Y1.009
X10.905 Y1.015
X10.759 Y1.036
X10.615 Y1.072
X10.475 Y1.122
X10.341 Y1.185
G2 X9.17 Y1.861 I10.659 J19.815
X8.47 Y2.948 I0.789 J1.276
G1 X8.466 Y2.984
G2 X8.666 Y7.356 I12.014 J1.64
X9.398 Y9.119 I7.16 J-1.939
G3 X9.849 Y9.674 I-13.779 J11.659
G1 X9.859 Y9.696
X9.858 Y9.72
X9.845 Y9.741
X9.741 Y9.845
X9.72 Y9.858
X9.696 Y9.859
X9.674 Y9.849
G2 X8.735 Y9.186 I-2.887 J3.094
X5.405 Y8.387 I-3.574 J7.56
X2.949 Y8.475 I-0.824 J11.422
G1 X2.803 Y8.5
X2.661 Y8.54
X2.522 Y8.593
X2.39 Y8.66
X2.265 Y8.74
X2.149 Y8.832
X2.042 Y8.935
X1.946 Y9.048
X1.861 Y9.17
Z-2.5 F333.3
G2 X1.185 Y10.341 I19.139 J11.83 F1000
X1.123 Y11.632 I1.321 J0.711
G1 X1.137 Y11.665
G2 X3.499 Y15.353 I11.222 J-4.585
X4.965 Y16.488 I5.385 J-5.445
X5.68 Y16.767 I13.824 J-34.35
G1 X5.7 Y16.781
X5.711 Y16.803
X5.71 Y16.827
X5.672 Y16.969
X5.66 Y16.99
X5.64 Y17.004
X5.616 Y17.006
G2 X4.47 Y16.901 I-0.952 J4.115
X1.255 Y17.841 I0.669 J8.258
X-0.896 Y19.179 I4.967 J10.385
G1 X-1.009 Y19.273
X-1.113 Y19.379
X-1.206 Y19.495
X-1.287 Y19.619
X-1.355 Y19.75
X-1.41 Y19.888
X-1.451 Y20.03
X-1.478 Y20.176
X-1.49 Y20.324
G2 X-1.49 Y21.676 I22.49 J0.676
X-0.899 Y22.825 I1.499 J-0.045
G1 X-0.87 Y22.847
G2 X3.02 Y24.86 I7.426 J-9.582
X4.891 Y25.108 I1.913 J-7.248
G3 X5.616 Y24.994 I14.455 J89.505
G1 X5.64 Y24.996
X5.66 Y25.01
X5.672 Y25.031
X5.71 Y25.173
X5.711 Y25.197
X5.7 Y25.219
X5.68 Y25.233
G2 X4.628 Y25.721 I1.229 J4.028
X2.28 Y28.199 I4.769 J6.87
X1.127 Y30.37 I9.472 J6.42
G1 X1.076 Y30.509
X1.039 Y30.652
X1.017 Y30.799
X1.009 Y30.947
X1.015 Y31.095
X1.036 Y31.241
X1.072 Y31.385
X1.122 Y31.525
X1.185 Y31.659
G2 X1.861 Y32.83 I19.815 J-10.659
X2.948 Y33.53 I1.276 J-0.789
G1 X2.983 Y33.534
G2 X7.397 Y33.323 I1.64 J-11.97
X9.119 Y32.602 I-1.979 J-7.142
G3 X9.674 Y32.151 I12.753 J15.135
G1 X9.696 Y32.141
X9.72 Y32.142
X9.741 Y32.155
X9.845 Y32.259
X9.858 Y32.28
X9.859 Y32.304
X9.849 Y32.326
G2 X9.187 Y33.264 I3.096 J2.889
X8.387 Y36.595 I7.563 J3.576
X8.474 Y39.051 I11.43 J0.824
G1 X8.5 Y39.197
X8.54 Y39.339
X8.593 Y39.478
X8.66 Y39.61
X8.74 Y39.735
X8.832 Y39.851
X8.935 Y39.958
X9.048 Y40.054
X9.17 Y40.139
G2 X10.341 Y40.815 I11.83 J-19.139
X11.632 Y40.877 I0.711 J-1.321
G1 X11.664 Y40.863
G2 X15.352 Y38.502 I-4.58 J-11.213
X16.502 Y37.007 I-5.315 J-5.28
G3 X16.767 Y36.32 I153.319 J58.723
G1 X16.781 Y36.301
X16.803 Y36.29
X16.827
X16.969 Y36.328
X16.99 Y36.34
X17.004 Y36.36
X17.006 Y36.384
G2 X16.901 Y37.53 I4.116 J0.952
X17.891 Y40.844 I8.355 J-0.689
X19.178 Y42.896 I10.287 J-5.026
G1 X19.273 Y43.009
X19.379 Y43.113
X19.494 Y43.206
X19.618 Y43.287
X19.75 Y43.355
X19.888 Y43.41
X20.03 Y43.451
X20.176 Y43.478
X20.324 Y43.49
G2 X21.676 Y43.49 I0.676 J-22.49
X22.825 Y42.899 I-0.045 J-1.499
G1 X22.847 Y42.87
G2 X24.86 Y38.98 I-9.581 J-7.425
X25.108 Y37.109 I-7.242 J-1.912
G3 X24.994 Y36.384 I95.075 J-15.328
G1 X24.996 Y36.36
X25.01 Y36.34
X25.031 Y36.328
X25.173 Y36.29
X25.197 Y36.289
X25.219 Y36.3
X25.233 Y36.32
G2 X25.715 Y37.364 I4.054 J-1.239
X28.233 Y39.743 I6.9 J-4.783
X30.37 Y40.873 I6.395 J-9.499
G1 X30.509 Y40.924
X30.652 Y40.961
X30.799 Y40.984
X30.947 Y40.992
X31.095 Y40.985
X31.241 Y40.964
X31.385 Y40.928
X31.525 Y40.878
X31.659 Y40.815
G2 X32.83 Y40.139 I-10.659 J-19.815
X33.53 Y39.052 I-0.789 J-1.276
G1 X33.534 Y39.017
G2 X33.323 Y34.604 I-11.965 J-1.64
X32.591 Y32.865 I-7.032 J1.938
G3 X32.152 Y32.326 I10.553 J-9.056
G1 X32.141 Y32.304
X32.142 Y32.28
X32.155 Y32.259
X32.259 Y32.155
X32.28 Y32.142
X32.304 Y32.141
X32.326 Y32.151
G2 X33.264 Y32.813 I2.889 J-3.096
X36.406 Y33.601 I3.527 J-7.414
X39.051 Y33.525 I0.995 J-11.577
G1 X39.197 Y33.5
X39.34 Y33.46
X39.478 Y33.407
X39.61 Y33.34
X39.735 Y33.26
X39.851 Y33.168
X39.958 Y33.065
X40.054 Y32.952
X40.139 Y32.83
G2 X40.815 Y31.659 I-19.139 J-11.83
X40.877 Y30.368 I-1.321 J-0.711
G1 X40.863 Y30.336
G2 X38.502 Y26.648 I-11.21 J4.579
X37.007 Y25.498 I-5.278 J5.313
G3 X36.32 Y25.233 I60.482 J-157.877
G1 X36.301 Y25.219
X36.289 Y25.197
X36.29 Y25.173
X36.328 Y25.031
X36.34 Y25.01
X36.36 Y24.996
X36.384 Y24.994
G2 X37.53 Y25.099 I0.952 J-4.116
X40.844 Y24.109 I-0.689 J-8.355
X42.896 Y22.822 I-5.026 J-10.287
G1 X43.009 Y22.727
X43.113 Y22.621
X43.206 Y22.506
X43.287 Y22.382
X43.355 Y22.25
X43.41 Y22.112
X43.451 Y21.97
X43.478 Y21.824
X43.49 Y21.676
G2 X43.49 Y20.324 I-22.49 J-0.676
X42.899 Y19.175 I-1.499 J0.045
G1 X42.87 Y19.153
G2 X38.98 Y17.14 I-7.425 J9.581
X37.109 Y16.892 I-1.912 J7.242
G3 X36.384 Y17.006 I-15.327 J-95.069
G1 X36.36 Y17.004
X36.34 Y16.99
X36.328 Y16.969
X36.29 Y16.827
X36.289 Y16.803
X36.3 Y16.781
X36.32 Y16.767
G2 X37.364 Y16.285 I-1.239 J-4.054
X39.743 Y13.767 I-4.783 J-6.9
X40.873 Y11.63 I-9.502 J-6.396
G1 X40.924 Y11.491
X40.961 Y11.348
X40.984 Y11.201
X40.992 Y11.053
X40.985 Y10.905
X40.964 Y10.759
X40.928 Y10.615
X40.878 Y10.475
X40.815 Y10.341
G2 X40.139 Y9.17 I-19.815 J10.659
X39.052 Y8.47 I-1.276 J0.789
G1 X39.016 Y8.466
G2 X34.643 Y8.666 I-1.64 J12.014
X32.881 Y9.398 I1.927 J7.129
G3 X32.326 Y9.849 I-13.746 J-16.361
G1 X32.304 Y9.859
X32.28 Y9.858
X32.259 Y9.845
X32.155 Y9.741
X32.142 Y9.72
X32.141 Y9.696
X32.151 Y9.674
G2 X32.814 Y8.735 I-3.094 J-2.887
X33.608 Y5.484 I-7.488 J-3.551
X33.525 Y2.949 I-11.462 J-0.897
G1 X33.5 Y2.803
X33.46 Y2.66
X33.407 Y2.522
X33.34 Y2.39
X33.26 Y2.265
X33.168 Y2.149
X33.065 Y2.042
X32.952 Y1.946
X32.83 Y1.861
G2 X31.659 Y1.185 I-11.83 J19.139
X30.368 Y1.123 I-0.711 J1.321
G1 X30.335 Y1.137
G2 X26.647 Y3.499 I4.585 J11.222
X25.512 Y4.965 I5.445 J5.385
X25.233 Y5.68 I34.351 J13.825
G1 X25.219 Y5.7
X25.197 Y5.711
X25.173 Y5.71
X25.031 Y5.672
X25.01 Y5.66
X24.996 Y5.64
X24.994 Y5.616
G2 X25.099 Y4.47 I-4.115 J-0.952
X24.159 Y1.255 I-8.258 J0.669
X22.821 Y-0.896 I-10.385 J4.967
G1 X22.727 Y-1.009
X22.621 Y-1.113
X22.505 Y-1.206
X22.381 Y-1.287
X22.25 Y-1.355
X22.112 Y-1.41
X21.97 Y-1.451
X21.824 Y-1.478
X21.676 Y-1.49
G2 X20.324 Y-1.49 I-0.676 J22.49
X19.175 Y-0.899 I0.045 J1.499
G1 X19.153 Y-0.87
G2 X17.14 Y3.02 I9.582 J7.426
X16.892 Y4.891 I7.248 J1.913
G3 X17.006 Y5.616 I-89.504 J14.455
G1 X17.004 Y5.64
X16.99 Y5.66
X16.969 Y5.672
X16.827 Y5.71
X16.803 Y5.711
X16.781 Y5.7
X16.767 Y5.68
G2 X16.279 Y4.628 I-4.028 J1.229
X13.801 Y2.28 I-6.87 J4.769
X11.63 Y1.127 I-6.42 J9.472
G1 X11.491 Y1.076
X11.348 Y1.039
X11.201 Y1.017
X11.053 Y1.009
X10.905 Y1.015
X10.759 Y1.036
X10.615 Y1.072
X10.475 Y1.122
X10.341 Y1.185
G2 X9.17 Y1.861 I10.659 J19.815
X8.47 Y2.948 I0.789 J1.276
G1 X8.466 Y2.984
G2 X8.666 Y7.356 I12.014 J1.64
X9.398 Y9.119 I7.16 J-1.939
G3 X9.849 Y9.674 I-13.779 J11.659
G1 X9.859 Y9.696
X9.858 Y9.72
X9.845 Y9.741
X9.741 Y9.845
X9.72 Y9.858
X9.696 Y9.859
X9.674 Y9.849
G2 X8.735 Y9.186 I-2.887 J3.094
X5.405 Y8.387 I-3.574 J7.56
X2.949 Y8.475 I-0.824 J11.422
G1 X2.803 Y8.5
X2.661 Y8.54
X2.522 Y8.593
X2.39 Y8.66
X2.265 Y8.74
X2.149 Y8.832
X2.042 Y8.935
X1.946 Y9.048
X1.861 Y9.17
Z-3 F333.3
G2 X1.185 Y10.341 I19.139 J11.83 F1000
X1.123 Y11.632 I1.321 J0.711
G1 X1.137 Y11.665
G2 X3.499 Y15.353 I11.222 J-4.585
X4.965 Y16.488 I5.385 J-5.445
X5.68 Y16.767 I13.824 J-34.35
G1 X5.7 Y16.781
X5.711 Y16.803
X5.71 Y16.827
X5.672 Y16.969
X5.66 Y16.99
X5.64 Y17.004
X5.616 Y17.006
G2 X4.47 Y16.901 I-0.952 J4.115
X1.255 Y17.841 I0.669 J8.258
X-0.896 Y19.179 I4.967 J10.385
G1 X-1.009 Y19.273
X-1.113 Y19.379
X-1.206 Y19.495
X-1.287 Y19.619
X-1.355 Y19.75
X-1.41 Y19.888
X-1.451 Y20.03
X-1.478 Y20.176
X-1.49 Y20.324
G2 X-1.49 Y21.676 I22.49 J0.676
X-0.899 Y22.825 I1.499 J-0.045
G1 X-0.87 Y22.847
G2 X3.02 Y24.86 I7.426 J-9.582
X4.891 Y25.108 I1.913 J-7.248
G3 X5.616 Y24.994 I14.455 J89.505
G1 X5.64 Y24.996
X5.66 Y25.01
X5.672 Y25.031
X5.71 Y25.173
X5.711 Y25.197
X5.7 Y25.219
X5.68 Y25.233
G2 X4.628 Y25.721 I1.229 J4.028
X2.28 Y28.199 I4.769 J6.87
X1.127 Y30.37 I9.472 J6.42
G1 X1.076 Y30.509
X1.039 Y30.652
X1.017 Y30.799
X1.009 Y30.947
X1.015 Y31.095
X1.036 Y31.241
X1.072 Y31.385
X1.122 Y31.525
X1.185 Y31.659
G2 X1.861 Y32.83 I19.815 J-10.659
X2.948 Y33.53 I1.276 J-0.789
G1 X2.983 Y33.534
G2 X7.397 Y33.323 I1.64 J-11.97
X9.119 Y32.602 I-1.979 J-7.142
G3 X9.674 Y32.151 I12.753 J15.135
G1 X9.696 Y32.141
X9.72 Y32.142
X9.741 Y32.155
X9.845 Y32.259
X9.858 Y32.28
X9.859 Y32.304
X9.849 Y32.326
G2 X9.187 Y33.264 I3.096 J2.889
X8.387 Y36.595 I7.563 J3.576
X8.474 Y39.051 I11.43 J0.824
G1 X8.5 Y39.197
X8.54 Y39.339
X8.593 Y39.478
X8.66 Y39.61
X8.74 Y39.735
X8.832 Y39.851
X8.935 Y39.958
X9.048 Y40.054
X9.17 Y40.139
G2 X10.341 Y40.815 I11.83 J-19.139
X11.632 Y40.877 I0.711 J-1.321
G1 X11.664 Y40.863
G2 X15.352 Y38.502 I-4.58 J-11.213
X16.502 Y37.007 I-5.315 J-5.28
G3 X16.767 Y36.32 I153.319 J58.723
G1 X16.781 Y36.301
X16.803 Y36.29
X16.827
X16.969 Y36.328
X16.99 Y36.34
X17.004 Y36.36
X17.006 Y36.384
G2 X16.901 Y37.53 I4.116 J0.952
X17.891 Y40.844 I8.355 J-0.689
X19.178 Y42.896 I10.287 J-5.026
G1 X19.273 Y43.009
X19.379 Y43.113
X19.494 Y43.206
X19.618 Y43.287
X19.75 Y43.355
X19.888 Y43.41
X20.03 Y43.451
X20.176 Y43.478
X20.324 Y43.49
G2 X21.676 Y43.49 I0.676 J-22.49
X22.825 Y42.899 I-0.045 J-1.499
G1 X22.847 Y42.87
G2 X24.86 Y38.98 I-9.581 J-7.425
X25.108 Y37.109 I-7.242 J-1.912
G3 X24.994 Y36.384 I95.075 J-15.328
G1 X24.996 Y36.36
X25.01 Y36.34
X25.031 Y36.328
X25.173 Y36.29
X25.197 Y36.289
X25.219 Y36.3
X25.233 Y36.32
G2 X25.715 Y37.364 I4.054 J-1.239
X28.233 Y39.743 I6.9 J-4.783
X30.37 Y40.873 I6.395 J-9.499
G1 X30.509 Y40.924
X30.652 Y40.961
X30.799 Y40.984
X30.947 Y40.992
X31.095 Y40.985
X31.241 Y40.964
X31.385 Y40.928
X31.525 Y40.878
X31.659 Y40.815
G2 X32.83 Y40.139 I-10.659 J-19.815
X33.53 Y39.052 I-0.789 J-1.276
G1 X33.534 Y39.017
G2 X33.323 Y34.604 I-11.965 J-1.64
X32.591 Y32.865 I-7.032 J1.938
G3 X32.152 Y32.326 I10.553 J-9.056
G1 X32.141 Y32.304
X32.142 Y32.28
X32.155 Y32.259
X32.259 Y32.155
X32.28 Y32.142
X32.304 Y32.141
X32.326 Y32.151
G2 X33.264 Y32.813 I2.889 J-3.096
X36.406 Y33.601 I3.527 J-7.414
X39.051 Y33.525 I0.995 J-11.577
G1 X39.197 Y33.5
X39.34 Y33.46
X39.478 Y33.407
X39.61 Y33.34
X39.735 Y33.26
X39.851 Y33.168
X39.958 Y33.065
X40.054 Y32.952
X40.139 Y32.83
G2 X40.815 Y31.659 I-19.139 J-11.83
X40.877 Y30.368 I-1.321 J-0.711
G1 X40.863 Y30.336
G2 X38.502 Y26.648 I-11.21 J4.579
X37.007 Y25.498 I-5.278 J5.313
G3 X36.32 Y25.233 I60.482 J-157.877
G1 X36.301 Y25.219
X36.289 Y25.197
X36.29 Y25.173
X36.328 Y25.031
X36.34 Y25.01
X36.36 Y24.996
X36.384 Y24.994
G2 X37.53 Y25.099 I0.952 J-4.116
X40.844 Y24.109 I-0.689 J-8.355
X42.896 Y22.822 I-5.026 J-10.287
G1 X43.009 Y22.727
X43.113 Y22.621
X43.206 Y22.506
X43.287 Y22.382
X43.355 Y22.25
X43.41 Y22.112
X43.451 Y21.97
X43.478 Y21.824
X43.49 Y21.676
G2 X43.49 Y20.324 I-22.49 J-0.676
X42.899 Y19.175 I-1.499 J0.045
G1 X42.87 Y19.153
G2 X38.98 Y17.14 I-7.425 J9.581
X37.109 Y16.892 I-1.912 J7.242
G3 X36.384 Y17.006 I-15.327 J-95.069
G1 X36.36 Y17.004
X36.34 Y16.99
X36.328 Y16.969
X36.29 Y16.827
X36.289 Y16.803
X36.3 Y16.781
X36.32 Y16.767
G2 X37.364 Y16.285 I-1.239 J-4.054
X39.743 Y13.767 I-4.783 J-6.9
X40.873 Y11.63 I-9.502 J-6.396
G1 X40.924 Y11.491
X40.961 Y11.348
X40.984 Y11.201
X40.992 Y11.053
X40.985 Y10.905
X40.964 Y10.759
X40.928 Y10.615
X40.878 Y10.475
X40.815 Y10.341
G2 X40.139 Y9.17 I-19.815 J10.659
X39.052 Y8.47 I-1.276 J0.789
G1 X39.016 Y8.466
G2 X34.643 Y8.666 I-1.64 J12.014
X32.881 Y9.398 I1.927 J7.129
G3 X32.326 Y9.849 I-13.746 J-16.361
G1 X32.304 Y9.859
X32.28 Y9.858
X32.259 Y9.845
X32.155 Y9.741
X32.142 Y9.72
X32.141 Y9.696
X32.151 Y9.674
G2 X32.814 Y8.735 I-3.094 J-2.887
X33.608 Y5.484 I-7.488 J-3.551
X33.525 Y2.949 I-11.462 J-0.897
G1 X33.5 Y2.803
X33.46 Y2.66
X33.407 Y2.522
X33.34 Y2.39
X33.26 Y2.265
X33.168 Y2.149
X33.065 Y2.042
X32.952 Y1.946
X32.83 Y1.861
G2 X31.659 Y1.185 I-11.83 J19.139
X30.368 Y1.123 I-0.711 J1.321
G1 X30.335 Y1.137
G2 X26.647 Y3.499 I4.585 J11.222
X25.512 Y4.965 I5.445 J5.385
X25.233 Y5.68 I34.351 J13.825
G1 X25.219 Y5.7
X25.197 Y5.711
X25.173 Y5.71
X25.031 Y5.672
X25.01 Y5.66
X24.996 Y5.64
X24.994 Y5.616
G2 X25.099 Y4.47 I-4.115 J-0.952
X24.159 Y1.255 I-8.258 J0.669
X22.821 Y-0.896 I-10.385 J4.967
G1 X22.727 Y-1.009
X22.621 Y-1.113
X22.505 Y-1.206
X22.381 Y-1.287
X22.25 Y-1.355
X22.112 Y-1.41
X21.97 Y-1.451
X21.824 Y-1.478
X21.676 Y-1.49
G2 X20.324 Y-1.49 I-0.676 J22.49
X19.175 Y-0.899 I0.045 J1.499
G1 X19.153 Y-0.87
G2 X17.14 Y3.02 I9.582 J7.426
X16.892 Y4.891 I7.248 J1.913
G3 X17.006 Y5.616 I-89.504 J14.455
G1 X17.004 Y5.64
X16.99 Y5.66
X16.969 Y5.672
X16.827 Y5.71
X16.803 Y5.711
X16.781 Y5.7
X16.767 Y5.68
G2 X16.279 Y4.628 I-4.028 J1.229
X13.801 Y2.28 I-6.87 J4.769
X11.63 Y1.127 I-6.42 J9.472
G1 X11.491 Y1.076
X11.348 Y1.039
X11.201 Y1.017
X11.053 Y1.009
X10.905 Y1.015
X10.759 Y1.036
X10.615 Y1.072
X10.475 Y1.122
X10.341 Y1.185
G2 X9.17 Y1.861 I10.659 J19.815
X8.47 Y2.948 I0.789 J1.276
G1 X8.466 Y2.984
G2 X8.666 Y7.356 I12.014 J1.64
X9.398 Y9.119 I7.16 J-1.939
G3 X9.849 Y9.674 I-13.779 J11.659
G1 X9.859 Y9.696
X9.858 Y9.72
X9.845 Y9.741
X9.741 Y9.845
X9.72 Y9.858
X9.696 Y9.859
X9.674 Y9.849
G2 X8.735 Y9.186 I-2.887 J3.094
X5.405 Y8.387 I-3.574 J7.56
X2.949 Y8.475 I-0.824 J11.422
G1 X2.803 Y8.5
X2.661 Y8.54
X2.522 Y8.593
X2.39 Y8.66
X2.265 Y8.74
X2.149 Y8.832
X2.042 Y8.935
X1.946 Y9.048
X1.861 Y9.17
Z-3.5 F333.3
G2 X1.185 Y10.341 I19.139 J11.83 F1000
X1.123 Y11.632 I1.321 J0.711
G1 X1.137 Y11.665
G2 X3.499 Y15.353 I11.222 J-4.585
X4.965 Y16.488 I5.385 J-5.445
X5.68 Y16.767 I13.824 J-34.35
G1 X5.7 Y16.781
X5.711 Y16.803
X5.71 Y16.827
X5.672 Y16.969
X5.66 Y16.99
X5.64 Y17.004
X5.616 Y17.006
G2 X4.47 Y16.901 I-0.952 J4.115
X1.255 Y17.841 I0.669 J8.258
X-0.896 Y19.179 I4.967 J10.385
G1 X-1.009 Y19.273
X-1.113 Y19.379
X-1.206 Y19.495
X-1.287 Y19.619
X-1.355 Y19.75
X-1.41 Y19.888
X-1.451 Y20.03
X-1.478 Y20.176
X-1.49 Y20.324
G2 X-1.49 Y21.676 I22.49 J0.676
X-0.899 Y22.825 I1.499 J-0.045
G1 X-0.87 Y22.847
G2 X3.02 Y24.86 I7.426 J-9.582
X4.891 Y25.108 I1.913 J-7.248
G3 X5.616 Y24.994 I14.455 J89.505
G1 X5.64 Y24.996
X5.66 Y25.01
X5.672 Y25.031
X5.71 Y25.173
X5.711 Y25.197
X5.7 Y25.219
X5.68 Y25.233
G2 X4.628 Y25.721 I1.229 J4.028
X2.28 Y28.199 I4.769 J6.87
X1.127 Y30.37 I9.472 J6.42
G1 X1.076 Y30.509
X1.039 Y30.652
X1.017 Y30.799
X1.009 Y30.947
X1.015 Y31.095
X1.036 Y31.241
X1.072 Y31.385
X1.122 Y31.525
X1.185 Y31.659
G2 X1.861 Y32.83 I19.815 J-10.659
X2.948 Y33.53 I1.276 J-0.789
G1 X2.983 Y33.534
G2 X7.397 Y33.323 I1.64 J-11.97
X9.119 Y32.602 I-1.979 J-7.142
G3 X9.674 Y32.151 I12.753 J15.135
G1 X9.696 Y32.141
X9.72 Y32.142
X9.741 Y32.155
X9.845 Y32.259
X9.858 Y32.28
X9.859 Y32.304
X9.849 Y32.326
G2 X9.187 Y33.264 I3.096 J2.889
X8.387 Y36.595 I7.563 J3.576
X8.474 Y39.051 I11.43 J0.824
G1 X8.5 Y39.197
X8.54 Y39.339
X8.593 Y39.478
X8.66 Y39.61
X8.74 Y39.735
X8.832 Y39.851
X8.935 Y39.958
X9.048 Y40.054
X9.17 Y40.139
G2 X10.341 Y40.815 I11.83 J-19.139
X11.632 Y40.877 I0.711 J-1.321
G1 X11.664 Y40.863
G2 X15.352 Y38.502 I-4.58 J-11.213
X16.502 Y37.007 I-5.315 J-5.28
G3 X16.767 Y36.32 I153.319 J58.723
G1 X16.781 Y36.301
X16.803 Y36.29
X16.827
X16.969 Y36.328
X16.99 Y36.34
X17.004 Y36.36
X17.006 Y36.384
G2 X16.901 Y37.53 I4.116 J0.952
X17.891 Y40.844 I8.355 J-0.689
X19.178 Y42.896 I10.287 J-5.026
G1 X19.273 Y43.009
X19.379 Y43.113
X19.494 Y43.206
X19.618 Y43.287
X19.75 Y43.355
X19.888 Y43.41
X20.03 Y43.451
X20.176 Y43.478
X20.324 Y43.49
G2 X21.676 Y43.49 I0.676 J-22.49
X22.825 Y42.899 I-0.045 J-1.499
G1 X22.847 Y42.87
G2 X24.86 Y38.98 I-9.581 J-7.425
X25.108 Y37.109 I-7.242 J-1.912
G3 X24.994 Y36.384 I95.075 J-15.328
G1 X24.996 Y36.36
X25.01 Y36.34
X25.031 Y36.328
X25.173 Y36.29
X25.197 Y36.289
X25.219 Y36.3
X25.233 Y36.32
G2 X25.715 Y37.364 I4.054 J-1.239
X28.233 Y39.743 I6.9 J-4.783
X30.37 Y40.873 I6.395 J-9.499
G1 X30.509 Y40.924
X30.652 Y40.961
X30.799 Y40.984
X30.947 Y40.992
X31.095 Y40.985
X31.241 Y40.964
X31.385 Y40.928
X31.525 Y40.878
X31.659 Y40.815
G2 X32.83 Y40.139 I-10.659 J-19.815
X33.53 Y39.052 I-0.789 J-1.276
G1 X33.534 Y39.017
G2 X33.323 Y34.604 I-11.965 J-1.64
X32.591 Y32.865 I-7.032 J1.938
G3 X32.152 Y32.326 I10.553 J-9.056
G1 X32.141 Y32.304
X32.142 Y32.28
X32.155 Y32.259
X32.259 Y32.155
X32.28 Y32.142
X32.304 Y32.141
X32.326 Y32.151
G2 X33.264 Y32.813 I2.889 J-3.096
X36.406 Y33.601 I3.527 J-7.414
X39.051 Y33.525 I0.995 J-11.577
G1 X39.197 Y33.5
X39.34 Y33.46
X39.478 Y33.407
X39.61 Y33.34
X39.735 Y33.26
X39.851 Y33.168
X39.958 Y33.065
X40.054 Y32.952
X40.139 Y32.83
G2 X40.815 Y31.659 I-19.139 J-11.83
X40.877 Y30.368 I-1.321 J-0.711
G1 X40.863 Y30.336
G2 X38.502 Y26.648 I-11.21 J4.579
X37.007 Y25.498 I-5.278 J5.313
G3 X36.32 Y25.233 I60.482 J-157.877
G1 X36.301 Y25.219
X36.289 Y25.197
X36.29 Y25.173
X36.328 Y25.031
X36.34 Y25.01
X36.36 Y24.996
X36.384 Y24.994
G2 X37.53 Y25.099 I0.952 J-4.116
X40.844 Y24.109 I-0.689 J-8.355
X42.896 Y22.822 I-5.026 J-10.287
G1 X43.009 Y22.727
X43.113 Y22.621
X43.206 Y22.506
X43.287 Y22.382
X43.355 Y22.25
X43.41 Y22.112
X43.451 Y21.97
X43.478 Y21.824
X43.49 Y21.676
G2 X43.49 Y20.324 I-22.49 J-0.676
X42.899 Y19.175 I-1.499 J0.045
G1 X42.87 Y19.153
G2 X38.98 Y17.14 I-7.425 J9.581
X37.109 Y16.892 I-1.912 J7.242
G3 X36.384 Y17.006 I-15.327 J-95.069
G1 X36.36 Y17.004
X36.34 Y16.99
X36.328 Y16.969
X36.29 Y16.827
X36.289 Y16.803
X36.3 Y16.781
X36.32 Y16.767
G2 X37.364 Y16.285 I-1.239 J-4.054
X39.743 Y13.767 I-4.783 J-6.9
X40.873 Y11.63 I-9.502 J-6.396
G1 X40.924 Y11.491
X40.961 Y11.348
X40.984 Y11.201
X40.992 Y11.053
X40.985 Y10.905
X40.964 Y10.759
X40.928 Y10.615
X40.878 Y10.475
X40.815 Y10.341
G2 X40.139 Y9.17 I-19.815 J10.659
X39.052 Y8.47 I-1.276 J0.789
G1 X39.016 Y8.466
G2 X34.643 Y8.666 I-1.64 J12.014
X32.881 Y9.398 I1.927 J7.129
G3 X32.326 Y9.849 I-13.746 J-16.361
G1 X32.304 Y9.859
X32.28 Y9.858
X32.259 Y9.845
X32.155 Y9.741
X32.142 Y9.72
X32.141 Y9.696
X32.151 Y9.674
G2 X32.814 Y8.735 I-3.094 J-2.887
X33.608 Y5.484 I-7.488 J-3.551
X33.525 Y2.949 I-11.462 J-0.897
G1 X33.5 Y2.803
X33.46 Y2.66
X33.407 Y2.522
X33.34 Y2.39
X33.26 Y2.265
X33.168 Y2.149
X33.065 Y2.042
X32.952 Y1.946
X32.83 Y1.861
G2 X31.659 Y1.185 I-11.83 J19.139
X30.368 Y1.123 I-0.711 J1.321
G1 X30.335 Y1.137
G2 X26.647 Y3.499 I4.585 J11.222
X25.512 Y4.965 I5.445 J5.385
X25.233 Y5.68 I34.351 J13.825
G1 X25.219 Y5.7
X25.197 Y5.711
X25.173 Y5.71
X25.031 Y5.672
X25.01 Y5.66
X24.996 Y5.64
X24.994 Y5.616
G2 X25.099 Y4.47 I-4.115 J-0.952
X24.159 Y1.255 I-8.258 J0.669
X22.821 Y-0.896 I-10.385 J4.967
G1 X22.727 Y-1.009
X22.621 Y-1.113
X22.505 Y-1.206
X22.381 Y-1.287
X22.25 Y-1.355
X22.112 Y-1.41
X21.97 Y-1.451
X21.824 Y-1.478
X21.676 Y-1.49
G2 X20.324 Y-1.49 I-0.676 J22.49
X19.175 Y-0.899 I0.045 J1.499
G1 X19.153 Y-0.87
G2 X17.14 Y3.02 I9.582 J7.426
X16.892 Y4.891 I7.248 J1.913
G3 X17.006 Y5.616 I-89.504 J14.455
G1 X17.004 Y5.64
X16.99 Y5.66
X16.969 Y5.672
X16.827 Y5.71
X16.803 Y5.711
X16.781 Y5.7
X16.767 Y5.68
G2 X16.279 Y4.628 I-4.028 J1.229
X13.801 Y2.28 I-6.87 J4.769
X11.63 Y1.127 I-6.42 J9.472
G1 X11.491 Y1.076
X11.348 Y1.039
X11.201 Y1.017
X11.053 Y1.009
X10.905 Y1.015
X10.759 Y1.036
X10.615 Y1.072
X10.475 Y1.122
X10.341 Y1.185
G2 X9.17 Y1.861 I10.659 J19.815
X8.47 Y2.948 I0.789 J1.276
G1 X8.466 Y2.984
G2 X8.666 Y7.356 I12.014 J1.64
X9.398 Y9.119 I7.16 J-1.939
G3 X9.849 Y9.674 I-13.779 J11.659
G1 X9.859 Y9.696
X9.858 Y9.72
X9.845 Y9.741
X9.741 Y9.845
X9.72 Y9.858
X9.696 Y9.859
X9.674 Y9.849
G2 X8.735 Y9.186 I-2.887 J3.094
X5.405 Y8.387 I-3.574 J7.56
X2.949 Y8.475 I-0.824 J11.422
G1 X2.803 Y8.5
X2.661 Y8.54
X2.522 Y8.593
X2.39 Y8.66
X2.265 Y8.74
X2.149 Y8.832
X2.042 Y8.935
X1.946 Y9.048
X1.861 Y9.17
Z-4 F333.3
G2 X1.185 Y10.341 I19.139 J11.83 F1000
X1.123 Y11.632 I1.321 J0.711
G1 X1.137 Y11.665
G2 X3.499 Y15.353 I11.222 J-4.585
X4.965 Y16.488 I5.385 J-5.445
X5.68 Y16.767 I13.824 J-34.35
G1 X5.7 Y16.781
X5.711 Y16.803
X5.71 Y16.827
X5.672 Y16.969
X5.66 Y16.99
X5.64 Y17.004
X5.616 Y17.006
G2 X4.47 Y16.901 I-0.952 J4.115
X1.255 Y17.841 I0.669 J8.258
X-0.896 Y19.179 I4.967 J10.385
G1 X-1.009 Y19.273
X-1.113 Y19.379
X-1.206 Y19.495
X-1.287 Y19.619
X-1.355 Y19.75
X-1.41 Y19.888
X-1.451 Y20.03
X-1.478 Y20.176
X-1.49 Y20.324
G2 X-1.49 Y21.676 I22.49 J0.676
X-0.899 Y22.825 I1.499 J-0.045
G1 X-0.87 Y22.847
G2 X3.02 Y24.86 I7.426 J-9.582
X4.891 Y25.108 I1.913 J-7.248
G3 X5.616 Y24.994 I14.455 J89.505
G1 X5.64 Y24.996
X5.66 Y25.01
X5.672 Y25.031
X5.71 Y25.173
X5.711 Y25.197
X5.7 Y25.219
X5.68 Y25.233
G2 X4.628 Y25.721 I1.229 J4.028
X2.28 Y28.199 I4.769 J6.87
X1.127 Y30.37 I9.472 J6.42
G1 X1.076 Y30.509
X1.039 Y30.652
X1.017 Y30.799
X1.009 Y30.947
X1.015 Y31.095
X1.036 Y31.241
X1.072 Y31.385
X1.122 Y31.525
X1.185 Y31.659
G2 X1.861 Y32.83 I19.815 J-10.659
X2.948 Y33.53 I1.276 J-0.789
G1 X2.983 Y33.534
G2 X7.397 Y33.323 I1.64 J-11.97
X9.119 Y32.602 I-1.979 J-7.142
G3 X9.674 Y32.151 I12.753 J15.135
G1 X9.696 Y32.141
X9.72 Y32.142
X9.741 Y32.155
X9.845 Y32.259
X9.858 Y32.28
X9.859 Y32.304
X9.849 Y32.326
G2 X9.187 Y33.264 I3.096 J2.889
X8.387 Y36.595 I7.563 J3.576
X8.474 Y39.051 I11.43 J0.824
G1 X8.5 Y39.197
X8.54 Y39.339
X8.593 Y39.478
X8.66 Y39.61
X8.74 Y39.735
X8.832 Y39.851
X8.935 Y39.958
X9.048 Y40.054
X9.17 Y40.139
G2 X10.341 Y40.815 I11.83 J-19.139
X11.632 Y40.877 I0.711 J-1.321
G1 X11.664 Y40.863
G2 X15.352 Y38.502 I-4.58 J-11.213
X16.502 Y37.007 I-5.315 J-5.28
G3 X16.767 Y36.32 I153.319 J58.723
G1 X16.781 Y36.301
X16.803 Y36.29
X16.827
X16.969 Y36.328
X16.99 Y36.34
X17.004 Y36.36
X17.006 Y36.384
G2 X16.901 Y37.53 I4.116 J0.952
X17.891 Y40.844 I8.355 J-0.689
X19.178 Y42.896 I10.287 J-5.026
G1 X19.273 Y43.009
X19.379 Y43.113
X19.494 Y43.206
X19.618 Y43.287
X19.75 Y43.355
X19.888 Y43.41
X20.03 Y43.451
X20.176 Y43.478
X20.324 Y43.49
G2 X21.676 Y43.49 I0.676 J-22.49
X22.825 Y42.899 I-0.045 J-1.499
G1 X22.847 Y42.87
G2 X24.86 Y38.98 I-9.581 J-7.425
X25.108 Y37.109 I-7.242 J-1.912
G3 X24.994 Y36.384 I95.075 J-15.328
G1 X24.996 Y36.36
X25.01 Y36.34
X25.031 Y36.328
X25.173 Y36.29
X25.197 Y36.289
X25.219 Y36.3
X25.233 Y36.32
G2 X25.715 Y37.364 I4.054 J-1.239
X28.233 Y39.743 I6.9 J-4.783
X30.37 Y40.873 I6.395 J-9.499
G1 X30.509 Y40.924
X30.652 Y40.961
X30.799 Y40.984
X30.947 Y40.992
X31.095 Y40.985
X31.241 Y40.964
X31.385 Y40.928
X31.525 Y40.878
X31.659 Y40.815
G2 X32.83 Y40.139 I-10.659 J-19.815
X33.53 Y39.052 I-0.789 J-1.276
G1 X33.534 Y39.017
G2 X33.323 Y34.604 I-11.965 J-1.64
X32.591 Y32.865 I-7.032 J1.938
G3 X32.152 Y32.326 I10.553 J-9.056
G1 X32.141 Y32.304
X32.142 Y32.28
X32.155 Y32.259
X32.259 Y32.155
X32.28 Y32.142
X32.304 Y32.141
X32.326 Y32.151
G2 X33.264 Y32.813 I2.889 J-3.096
X36.406 Y33.601 I3.527 J-7.414
X39.051 Y33.525 I0.995 J-11.577
G1 X39.197 Y33.5
X39.34 Y33.46
X39.478 Y33.407
X39.61 Y33.34
X39.735 Y33.26
X39.851 Y33.168
X39.958 Y33.065
X40.054 Y32.952
X40.139 Y32.83
G2 X40.815 Y31.659 I-19.139 J-11.83
X40.877 Y30.368 I-1.321 J-0.711
G1 X40.863 Y30.336
G2 X38.502 Y26.648 I-11.21 J4.579
X37.007 Y25.498 I-5.278 J5.313
G3 X36.32 Y25.233 I60.482 J-157.877
G1 X36.301 Y25.219
X36.289 Y25.197
X36.29 Y25.173
X36.328 Y25.031
X36.34 Y25.01
X36.36 Y24.996
X36.384 Y24.994
G2 X37.53 Y25.099 I0.952 J-4.116
X40.844 Y24.109 I-0.689 J-8.355
X42.896 Y22.822 I-5.026 J-10.287
G1 X43.009 Y22.727
X43.113 Y22.621
X43.206 Y22.506
X43.287 Y22.382
X43.355 Y22.25
X43.41 Y22.112
X43.451 Y21.97
X43.478 Y21.824
X43.49 Y21.676
G2 X43.49 Y20.324 I-22.49 J-0.676
X42.899 Y19.175 I-1.499 J0.045
G1 X42.87 Y19.153
G2 X38.98 Y17.14 I-7.425 J9.581
X37.109 Y16.892 I-1.912 J7.242
G3 X36.384 Y17.006 I-15.327 J-95.069
G1 X36.36 Y17.004
X36.34 Y16.99
X36.328 Y16.969
X36.29 Y16.827
X36.289 Y16.803
X36.3 Y16.781
X36.32 Y16.767
G2 X37.364 Y16.285 I-1.239 J-4.054
X39.743 Y13.767 I-4.783 J-6.9
X40.873 Y11.63 I-9.502 J-6.396
G1 X40.924 Y11.491
X40.961 Y11.348
X40.984 Y11.201
X40.992 Y11.053
X40.985 Y10.905
X40.964 Y10.759
X40.928 Y10.615
X40.878 Y10.475
X40.815 Y10.341
G2 X40.139 Y9.17 I-19.815 J10.659
X39.052 Y8.47 I-1.276 J0.789
G1 X39.016 Y8.466
G2 X34.643 Y8.666 I-1.64 J12.014
X32.881 Y9.398 I1.927 J7.129
G3 X32.326 Y9.849 I-13.746 J-16.361
G1 X32.304 Y9.859
X32.28 Y9.858
X32.259 Y9.845
X32.155 Y9.741
X32.142 Y9.72
X32.141 Y9.696
X32.151 Y9.674
G2 X32.814 Y8.735 I-3.094 J-2.887
X33.608 Y5.484 I-7.488 J-3.551
X33.525 Y2.949 I-11.462 J-0.897
G1 X33.5 Y2.803
X33.46 Y2.66
X33.407 Y2.522
X33.34 Y2.39
X33.26 Y2.265
X33.168 Y2.149
X33.065 Y2.042
X32.952 Y1.946
X32.83 Y1.861
G2 X31.659 Y1.185 I-11.83 J19.139
X30.368 Y1.123 I-0.711 J1.321
G1 X30.335 Y1.137
G2 X26.647 Y3.499 I4.585 J11.222
X25.512 Y4.965 I5.445 J5.385
X25.233 Y5.68 I34.351 J13.825
G1 X25.219 Y5.7
X25.197 Y5.711
X25.173 Y5.71
X25.031 Y5.672
X25.01 Y5.66
X24.996 Y5.64
X24.994 Y5.616
G2 X25.099 Y4.47 I-4.115 J-0.952
X24.159 Y1.255 I-8.258 J0.669
X22.821 Y-0.896 I-10.385 J4.967
G1 X22.727 Y-1.009
X22.621 Y-1.113
X22.505 Y-1.206
X22.381 Y-1.287
X22.25 Y-1.355
X22.112 Y-1.41
X21.97 Y-1.451
X21.824 Y-1.478
X21.676 Y-1.49
G2 X20.324 Y-1.49 I-0.676 J22.49
X19.175 Y-0.899 I0.045 J1.499
G1 X19.153 Y-0.87
G2 X17.14 Y3.02 I9.582 J7.426
X16.892 Y4.891 I7.248 J1.913
G3 X17.006 Y5.616 I-89.504 J14.455
G1 X17.004 Y5.64
X16.99 Y5.66
X16.969 Y5.672
X16.827 Y5.71
X16.803 Y5.711
X16.781 Y5.7
X16.767 Y5.68
G2 X16.279 Y4.628 I-4.028 J1.229
X13.801 Y2.28 I-6.87 J4.769
X11.63 Y1.127 I-6.42 J9.472
G1 X11.491 Y1.076
X11.348 Y1.039
X11.201 Y1.017
X11.053 Y1.009
X10.905 Y1.015
X10.759 Y1.036
X10.615 Y1.072
X10.475 Y1.122
X10.341 Y1.185
G2 X9.17 Y1.861 I10.659 J19.815
X8.47 Y2.948 I0.789 J1.276
G1 X8.466 Y2.984
G2 X8.666 Y7.356 I12.014 J1.64
X9.398 Y9.119 I7.16 J-1.939
G3 X9.849 Y9.674 I-13.779 J11.659
G1 X9.859 Y9.696
X9.858 Y9.72
X9.845 Y9.741
X9.741 Y9.845
X9.72 Y9.858
X9.696 Y9.859
X9.674 Y9.849
G2 X8.735 Y9.186 I-2.887 J3.094
X5.405 Y8.387 I-3.574 J7.56
X2.949 Y8.475 I-0.824 J11.422
G1 X2.803 Y8.5
X2.661 Y8.54
X2.522 Y8.593
X2.39 Y8.66
X2.265 Y8.74
X2.149 Y8.832
X2.042 Y8.935
X1.946 Y9.048
X1.861 Y9.17
Z-4.5 F333.3
G2 X1.185 Y10.341 I19.139 J11.83 F1000
X1.123 Y11.632 I1.321 J0.711
G1 X1.137 Y11.665
G2 X3.499 Y15.353 I11.222 J-4.585
X4.965 Y16.488 I5.385 J-5.445
X5.68 Y16.767 I13.824 J-34.35
G1 X5.7 Y16.781
X5.711 Y16.803
X5.71 Y16.827
X5.672 Y16.969
X5.66 Y16.99
X5.64 Y17.004
X5.616 Y17.006
G2 X4.47 Y16.901 I-0.952 J4.115
X1.255 Y17.841 I0.669 J8.258
X-0.896 Y19.179 I4.967 J10.385
G1 X-1.009 Y19.273
X-1.113 Y19.379
X-1.206 Y19.495
X-1.287 Y19.619
X-1.355 Y19.75
X-1.41 Y19.888
X-1.451 Y20.03
X-1.478 Y20.176
X-1.49 Y20.324
G2 X-1.49 Y21.676 I22.49 J0.676
X-0.899 Y22.825 I1.499 J-0.045
G1 X-0.87 Y22.847
G2 X3.02 Y24.86 I7.426 J-9.582
X4.891 Y25.108 I1.913 J-7.248
G3 X5.616 Y24.994 I14.455 J89.505
G1 X5.64 Y24.996
X5.66 Y25.01
X5.672 Y25.031
X5.71 Y25.173
X5.711 Y25.197
X5.7 Y25.219
X5.68 Y25.233
G2 X4.628 Y25.721 I1.229 J4.028
X2.28 Y28.199 I4.769 J6.87
X1.127 Y30.37 I9.472 J6.42
G1 X1.076 Y30.509
X1.039 Y30.652
X1.017 Y30.799
X1.009 Y30.947
X1.015 Y31.095
X1.036 Y31.241
X1.072 Y31.385
X1.122 Y31.525
X1.185 Y31.659
G2 X1.861 Y32.83 I19.815 J-10.659
X2.948 Y33.53 I1.276 J-0.789
G1 X2.983 Y33.534
G2 X7.397 Y33.323 I1.64 J-11.97
X9.119 Y32.602 I-1.979 J-7.142
G3 X9.674 Y32.151 I12.753 J15.135
G1 X9.696 Y32.141
X9.72 Y32.142
X9.741 Y32.155
X9.845 Y32.259
X9.858 Y32.28
X9.859 Y32.304
X9.849 Y32.326
G2 X9.187 Y33.264 I3.096 J2.889
X8.387 Y36.595 I7.563 J3.576
X8.474 Y39.051 I11.43 J0.824
G1 X8.5 Y39.197
X8.54 Y39.339
X8.593 Y39.478
X8.66 Y39.61
X8.74 Y39.735
X8.832 Y39.851
X8.935 Y39.958
X9.048 Y40.054
X9.17 Y40.139
G2 X10.341 Y40.815 I11.83 J-19.139
X11.632 Y40.877 I0.711 J-1.321
G1 X11.664 Y40.863
G2 X15.352 Y38.502 I-4.58 J-11.213
X16.502 Y37.007 I-5.315 J-5.28
G3 X16.767 Y36.32 I153.319 J58.723
G1 X16.781 Y36.301
X16.803 Y36.29
X16.827
X16.969 Y36.328
X16.99 Y36.34
X17.004 Y36.36
X17.006 Y36.384
G2 X16.901 Y37.53 I4.116 J0.952
X17.891 Y40.844 I8.355 J-0.689
X19.178 Y42.896 I10.287 J-5.026
G1 X19.273 Y43.009
X19.379 Y43.113
X19.494 Y43.206
X19.618 Y43.287
X19.75 Y43.355
X19.888 Y43.41
X20.03 Y43.451
X20.176 Y43.478
X20.324 Y43.49
G2 X21.676 Y43.49 I0.676 J-22.49
X22.825 Y42.899 I-0.045 J-1.499
G1 X22.847 Y42.87
G2 X24.86 Y38.98 I-9.581 J-7.425
X25.108 Y37.109 I-7.242 J-1.912
G3 X24.994 Y36.384 I95.075 J-15.328
G1 X24.996 Y36.36
X25.01 Y36.34
X25.031 Y36.328
X25.173 Y36.29
X25.197 Y36.289
X25.219 Y36.3
X25.233 Y36.32
G2 X25.715 Y37.364 I4.054 J-1.239
X28.233 Y39.743 I6.9 J-4.783
X30.37 Y40.873 I6.395 J-9.499
G1 X30.509 Y40.924
X30.652 Y40.961
X30.799 Y40.984
X30.947 Y40.992
X31.095 Y40.985
X31.241 Y40.964
X31.385 Y40.928
X31.525 Y40.878
X31.659 Y40.815
G2 X32.83 Y40.139 I-10.659 J-19.815
X33.53 Y39.052 I-0.789 J-1.276
G1 X33.534 Y39.017
G2 X33.323 Y34.604 I-11.965 J-1.64
X32.591 Y32.865 I-7.032 J1.938
G3 X32.152 Y32.326 I10.553 J-9.056
G1 X32.141 Y32.304
X32.142 Y32.28
X32.155 Y32.259
X32.259 Y32.155
X32.28 Y32.142
X32.304 Y32.141
X32.326 Y32.151
G2 X33.264 Y32.813 I2.889 J-3.096
X36.406 Y33.601 I3.527 J-7.414
X39.051 Y33.525 I0.995 J-11.577
G1 X39.197 Y33.5
X39.34 Y33.46
X39.478 Y33.407
X39.61 Y33.34
X39.735 Y33.26
X39.851 Y33.168
X39.958 Y33.065
X40.054 Y32.952
X40.139 Y32.83
G2 X40.815 Y31.659 I-19.139 J-11.83
X40.877 Y30.368 I-1.321 J-0.711
G1 X40.863 Y30.336
G2 X38.502 Y26.648 I-11.21 J4.579
X37.007 Y25.498 I-5.278 J5.313
G3 X36.32 Y25.233 I60.482 J-157.877
G1 X36.301 Y25.219
X36.289 Y25.197
X36.29 Y25.173
X36.328 Y25.031
X36.34 Y25.01
X36.36 Y24.996
X36.384 Y24.994
G2 X37.53 Y25.099 I0.952 J-4.116
X40.844 Y24.109 I-0.689 J-8.355
X42.896 Y22.822 I-5.026 J-10.287
G1 X43.009 Y22.727
X43.113 Y22.621
X43.206 Y22.506
X43.287 Y22.382
X43.355 Y22.25
X43.41 Y22.112
X43.451 Y21.97
X43.478 Y21.824
X43.49 Y21.676
G2 X43.49 Y20.324 I-22.49 J-0.676
X42.899 Y19.175 I-1.499 J0.045
G1 X42.87 Y19.153
G2 X38.98 Y17.14 I-7.425 J9.581
X37.109 Y16.892 I-1.912 J7.242
G3 X36.384 Y17.006 I-15.327 J-95.069
G1 X36.36 Y17.004
X36.34 Y16.99
X36.328 Y16.969
X36.29 Y16.827
X36.289 Y16.803
X36.3 Y16.781
X36.32 Y16.767
G2 X37.364 Y16.285 I-1.239 J-4.054
X39.743 Y13.767 I-4.783 J-6.9
X40.873 Y11.63 I-9.502 J-6.396
G1 X40.924 Y11.491
X40.961 Y11.348
X40.984 Y11.201
X40.992 Y11.053
X40.985 Y10.905
X40.964 Y10.759
X40.928 Y10.615
X40.878 Y10.475
X40.815 Y10.341
G2 X40.139 Y9.17 I-19.815 J10.659
X39.052 Y8.47 I-1.276 J0.789
G1 X39.016 Y8.466
G2 X34.643 Y8.666 I-1.64 J12.014
X32.881 Y9.398 I1.927 J7.129
G3 X32.326 Y9.849 I-13.746 J-16.361
G1 X32.304 Y9.859
X32.28 Y9.858
X32.259 Y9.845
X32.155 Y9.741
X32.142 Y9.72
X32.141 Y9.696
X32.151 Y9.674
G2 X32.814 Y8.735 I-3.094 J-2.887
X33.608 Y5.484 I-7.488 J-3.551
X33.525 Y2.949 I-11.462 J-0.897
G1 X33.5 Y2.803
X33.46 Y2.66
X33.407 Y2.522
X33.34 Y2.39
X33.26 Y2.265
X33.168 Y2.149
X33.065 Y2.042
X32.952 Y1.946
X32.83 Y1.861
G2 X31.659 Y1.185 I-11.83 J19.139
X30.368 Y1.123 I-0.711 J1.321
G1 X30.335 Y1.137
G2 X26.647 Y3.499 I4.585 J11.222
X25.512 Y4.965 I5.445 J5.385
X25.233 Y5.68 I34.351 J13.825
G1 X25.219 Y5.7
X25.197 Y5.711
X25.173 Y5.71
X25.031 Y5.672
X25.01 Y5.66
X24.996 Y5.64
X24.994 Y5.616
G2 X25.099 Y4.47 I-4.115 J-0.952
X24.159 Y1.255 I-8.258 J0.669
X22.821 Y-0.896 I-10.385 J4.967
G1 X22.727 Y-1.009
X22.621 Y-1.113
X22.505 Y-1.206
X22.381 Y-1.287
X22.25 Y-1.355
X22.112 Y-1.41
X21.97 Y-1.451
X21.824 Y-1.478
X21.676 Y-1.49
G2 X20.324 Y-1.49 I-0.676 J22.49
X19.175 Y-0.899 I0.045 J1.499
G1 X19.153 Y-0.87
G2 X17.14 Y3.02 I9.582 J7.426
X16.892 Y4.891 I7.248 J1.913
G3 X17.006 Y5.616 I-89.504 J14.455
G1 X17.004 Y5.64
X16.99 Y5.66
X16.969 Y5.672
X16.827 Y5.71
X16.803 Y5.711
X16.781 Y5.7
X16.767 Y5.68
G2 X16.279 Y4.628 I-4.028 J1.229
X13.801 Y2.28 I-6.87 J4.769
X11.63 Y1.127 I-6.42 J9.472
G1 X11.491 Y1.076
X11.348 Y1.039
X11.201 Y1.017
X11.053 Y1.009
X10.905 Y1.015
X10.759 Y1.036
X10.615 Y1.072
X10.475 Y1.122
X10.341 Y1.185
G2 X9.17 Y1.861 I10.659 J19.815
X8.47 Y2.948 I0.789 J1.276
G1 X8.466 Y2.984
G2 X8.666 Y7.356 I12.014 J1.64
X9.398 Y9.119 I7.16 J-1.939
G3 X9.849 Y9.674 I-13.779 J11.659
G1 X9.859 Y9.696
X9.858 Y9.72
X9.845 Y9.741
X9.741 Y9.845
X9.72 Y9.858
X9.696 Y9.859
X9.674 Y9.849
G2 X8.735 Y9.186 I-2.887 J3.094
X5.405 Y8.387 I-3.574 J7.56
X2.949 Y8.475 I-0.824 J11.422
G1 X2.803 Y8.5
X2.661 Y8.54
X2.522 Y8.593
X2.39 Y8.66
X2.265 Y8.74
X2.149 Y8.832
X2.042 Y8.935
X1.946 Y9.048
X1.861 Y9.17
Z-5 F333.3
G2 X1.185 Y10.341 I19.139 J11.83 F1000
X1.123 Y11.632 I1.321 J0.711
G1 X1.137 Y11.665
G2 X3.499 Y15.353 I11.222 J-4.585
X4.965 Y16.488 I5.385 J-5.445
X5.68 Y16.767 I13.824 J-34.35
G1 X5.7 Y16.781
X5.711 Y16.803
X5.71 Y16.827
X5.672 Y16.969
X5.66 Y16.99
X5.64 Y17.004
X5.616 Y17.006
G2 X4.47 Y16.901 I-0.952 J4.115
X1.255 Y17.841 I0.669 J8.258
X-0.896 Y19.179 I4.967 J10.385
G1 X-1.009 Y19.273
X-1.113 Y19.379
X-1.206 Y19.495
X-1.287 Y19.619
X-1.355 Y19.75
X-1.41 Y19.888
X-1.451 Y20.03
X-1.478 Y20.176
X-1.49 Y20.324
G2 X-1.49 Y21.676 I22.49 J0.676
X-0.899 Y22.825 I1.499 J-0.045
G1 X-0.87 Y22.847
G2 X3.02 Y24.86 I7.426 J-9.582
X4.891 Y25.108 I1.913 J-7.248
G3 X5.616 Y24.994 I14.455 J89.505
G1 X5.64 Y24.996
X5.66 Y25.01
X5.672 Y25.031
X5.71 Y25.173
X5.711 Y25.197
X5.7 Y25.219
X5.68 Y25.233
G2 X4.628 Y25.721 I1.229 J4.028
X2.28 Y28.199 I4.769 J6.87
X1.127 Y30.37 I9.472 J6.42
G1 X1.076 Y30.509
X1.039 Y30.652
X1.017 Y30.799
X1.009 Y30.947
X1.015 Y31.095
X1.036 Y31.241
X1.072 Y31.385
X1.122 Y31.525
X1.185 Y31.659
G2 X1.861 Y32.83 I19.815 J-10.659
X2.948 Y33.53 I1.276 J-0.789
G1 X2.983 Y33.534
G2 X7.397 Y33.323 I1.64 J-11.97
X9.119 Y32.602 I-1.979 J-7.142
G3 X9.674 Y32.151 I12.753 J15.135
G1 X9.696 Y32.141
X9.72 Y32.142
X9.741 Y32.155
X9.845 Y32.259
X9.858 Y32.28
X9.859 Y32.304
X9.849 Y32.326
G2 X9.187 Y33.264 I3.096 J2.889
X8.387 Y36.595 I7.563 J3.576
X8.474 Y39.051 I11.43 J0.824
G1 X8.5 Y39.197
X8.54 Y39.339
X8.593 Y39.478
X8.66 Y39.61
X8.74 Y39.735
X8.832 Y39.851
X8.935 Y39.958
X9.048 Y40.054
X9.17 Y40.139
G2 X10.341 Y40.815 I11.83 J-19.139
X11.632 Y40.877 I0.711 J-1.321
G1 X11.664 Y40.863
G2 X15.352 Y38.502 I-4.58 J-11.213
X16.502 Y37.007 I-5.315 J-5.28
G3 X16.767 Y36.32 I153.319 J58.723
G1 X16.781 Y36.301
X16.803 Y36.29
X16.827
X16.969 Y36.328
X16.99 Y36.34
X17.004 Y36.36
X17.006 Y36.384
G2 X16.901 Y37.53 I4.116 J0.952
X17.891 Y40.844 I8.355 J-0.689
X19.178 Y42.896 I10.287 J-5.026
G1 X19.273 Y43.009
X19.379 Y43.113
X19.494 Y43.206
X19.618 Y43.287
X19.75 Y43.355
X19.888 Y43.41
X20.03 Y43.451
X20.176 Y43.478
X20.324 Y43.49
G2 X21.676 Y43.49 I0.676 J-22.49
X22.825 Y42.899 I-0.045 J-1.499
G1 X22.847 Y42.87
G2 X24.86 Y38.98 I-9.581 J-7.425
X25.108 Y37.109 I-7.242 J-1.912
G3 X24.994 Y36.384 I95.075 J-15.328
G1 X24.996 Y36.36
X25.01 Y36.34
X25.031 Y36.328
X25.173 Y36.29
X25.197 Y36.289
X25.219 Y36.3
X25.233 Y36.32
G2 X25.715 Y37.364 I4.054 J-1.239
X28.233 Y39.743 I6.9 J-4.783
X30.37 Y40.873 I6.395 J-9.499
G1 X30.509 Y40.924
X30.652 Y40.961
X30.799 Y40.984
X30.947 Y40.992
X31.095 Y40.985
X31.241 Y40.964
X31.385 Y40.928
X31.525 Y40.878
X31.659 Y40.815
G2 X32.83 Y40.139 I-10.659 J-19.815
X33.53 Y39.052 I-0.789 J-1.276
G1 X33.534 Y39.017
G2 X33.323 Y34.604 I-11.965 J-1.64
X32.591 Y32.865 I-7.032 J1.938
G3 X32.152 Y32.326 I10.553 J-9.056
G1 X32.141 Y32.304
X32.142 Y32.28
X32.155 Y32.259
X32.259 Y32.155
X32.28 Y32.142
X32.304 Y32.141
X32.326 Y32.151
G2 X33.264 Y32.813 I2.889 J-3.096
X36.406 Y33.601 I3.527 J-7.414
X39.051 Y33.525 I0.995 J-11.577
G1 X39.197 Y33.5
X39.34 Y33.46
X39.478 Y33.407
X39.61 Y33.34
X39.735 Y33.26
X39.851 Y33.168
X39.958 Y33.065
X40.054 Y32.952
X40.139 Y32.83
G2 X40.815 Y31.659 I-19.139 J-11.83
X40.877 Y30.368 I-1.321 J-0.711
G1 X40.863 Y30.336
G2 X38.502 Y26.648 I-11.21 J4.579
X37.007 Y25.498 I-5.278 J5.313
G3 X36.32 Y25.233 I60.482 J-157.877
G1 X36.301 Y25.219
X36.289 Y25.197
X36.29 Y25.173
X36.328 Y25.031
X36.34 Y25.01
X36.36 Y24.996
X36.384 Y24.994
G2 X37.53 Y25.099 I0.952 J-4.116
X40.844 Y24.109 I-0.689 J-8.355
X42.896 Y22.822 I-5.026 J-10.287
G1 X43.009 Y22.727
X43.113 Y22.621
X43.206 Y22.506
X43.287 Y22.382
X43.355 Y22.25
X43.41 Y22.112
X43.451 Y21.97
X43.478 Y21.824
X43.49 Y21.676
G2 X43.49 Y20.324 I-22.49 J-0.676
X42.899 Y19.175 I-1.499 J0.045
G1 X42.87 Y19.153
G2 X38.98 Y17.14 I-7.425 J9.581
X37.109 Y16.892 I-1.912 J7.242
G3 X36.384 Y17.006 I-15.327 J-95.069
G1 X36.36 Y17.004
X36.34 Y16.99
X36.328 Y16.969
X36.29 Y16.827
X36.289 Y16.803
X36.3 Y16.781
X36.32 Y16.767
G2 X37.364 Y16.285 I-1.239 J-4.054
X39.743 Y13.767 I-4.783 J-6.9
X40.873 Y11.63 I-9.502 J-6.396
G1 X40.924 Y11.491
X40.961 Y11.348
X40.984 Y11.201
X40.992 Y11.053
X40.985 Y10.905
X40.964 Y10.759
X40.928 Y10.615
X40.878 Y10.475
X40.815 Y10.341
G2 X40.139 Y9.17 I-19.815 J10.659
X39.052 Y8.47 I-1.276 J0.789
G1 X39.016 Y8.466
G2 X34.643 Y8.666 I-1.64 J12.014
X32.881 Y9.398 I1.927 J7.129
G3 X32.326 Y9.849 I-13.746 J-16.361
G1 X32.304 Y9.859
X32.28 Y9.858
X32.259 Y9.845
X32.155 Y9.741
X32.142 Y9.72
X32.141 Y9.696
X32.151 Y9.674
G2 X32.814 Y8.735 I-3.094 J-2.887
X33.608 Y5.484 I-7.488 J-3.551
X33.525 Y2.949 I-11.462 J-0.897
G1 X33.5 Y2.803
X33.46 Y2.66
X33.407 Y2.522
X33.34 Y2.39
X33.26 Y2.265
X33.168 Y2.149
X33.065 Y2.042
X32.952 Y1.946
X32.83 Y1.861
G2 X31.659 Y1.185 I-11.83 J19.139
X30.368 Y1.123 I-0.711 J1.321
G1 X30.335 Y1.137
G2 X26.647 Y3.499 I4.585 J11.222
X25.512 Y4.965 I5.445 J5.385
X25.233 Y5.68 I34.351 J13.825
G1 X25.219 Y5.7
X25.197 Y5.711
X25.173 Y5.71
X25.031 Y5.672
X25.01 Y5.66
X24.996 Y5.64
X24.994 Y5.616
G2 X25.099 Y4.47 I-4.115 J-0.952
X24.159 Y1.255 I-8.258 J0.669
X22.821 Y-0.896 I-10.385 J4.967
G1 X22.727 Y-1.009
X22.621 Y-1.113
X22.505 Y-1.206
X22.381 Y-1.287
X22.25 Y-1.355
X22.112 Y-1.41
X21.97 Y-1.451
X21.824 Y-1.478
X21.676 Y-1.49
G2 X20.324 Y-1.49 I-0.676 J22.49
X19.175 Y-0.899 I0.045 J1.499
G1 X19.153 Y-0.87
G2 X17.14 Y3.02 I9.582 J7.426
X16.892 Y4.891 I7.248 J1.913
G3 X17.006 Y5.616 I-89.504 J14.455
G1 X17.004 Y5.64
X16.99 Y5.66
X16.969 Y5.672
X16.827 Y5.71
X16.803 Y5.711
X16.781 Y5.7
X16.767 Y5.68
G2 X16.279 Y4.628 I-4.028 J1.229
X13.801 Y2.28 I-6.87 J4.769
X11.63 Y1.127 I-6.42 J9.472
G1 X11.491 Y1.076
X11.348 Y1.039
X11.201 Y1.017
X11.053 Y1.009
X10.905 Y1.015
X10.759 Y1.036
X10.615 Y1.072
X10.475 Y1.122
X10.341 Y1.185
G2 X9.17 Y1.861 I10.659 J19.815
X8.47 Y2.948 I0.789 J1.276
G1 X8.466 Y2.984
G2 X8.666 Y7.356 I12.014 J1.64
X9.398 Y9.119 I7.16 J-1.939
G3 X9.849 Y9.674 I-13.779 J11.659
G1 X9.859 Y9.696
X9.858 Y9.72
X9.845 Y9.741
X9.741 Y9.845
X9.72 Y9.858
X9.696 Y9.859
X9.674 Y9.849
G2 X8.735 Y9.186 I-2.887 J3.094
X5.405 Y8.387 I-3.574 J7.56
X2.949 Y8.475 I-0.824 J11.422
G1 X2.803 Y8.5
X2.661 Y8.54
X2.522 Y8.593
X2.39 Y8.66
X2.265 Y8.74
X2.149 Y8.832
X2.042 Y8.935
X1.946 Y9.048
X1.861 Y9.17
Z-5.5 F333.3
G2 X1.185 Y10.341 I19.139 J11.83 F1000
X1.123 Y11.632 I1.321 J0.711
G1 X1.137 Y11.665
G2 X3.499 Y15.353 I11.222 J-4.585
X4.965 Y16.488 I5.385 J-5.445
X5.68 Y16.767 I13.824 J-34.35
G1 X5.7 Y16.781
X5.711 Y16.803
X5.71 Y16.827
X5.672 Y16.969
X5.66 Y16.99
X5.64 Y17.004
X5.616 Y17.006
G2 X4.47 Y16.901 I-0.952 J4.115
X1.255 Y17.841 I0.669 J8.258
X-0.896 Y19.179 I4.967 J10.385
G1 X-1.009 Y19.273
X-1.113 Y19.379
X-1.206 Y19.495
X-1.287 Y19.619
X-1.355 Y19.75
X-1.41 Y19.888
X-1.451 Y20.03
X-1.478 Y20.176
X-1.49 Y20.324
G2 X-1.49 Y21.676 I22.49 J0.676
X-0.899 Y22.825 I1.499 J-0.045
G1 X-0.87 Y22.847
G2 X3.02 Y24.86 I7.426 J-9.582
X4.891 Y25.108 I1.913 J-7.248
G3 X5.616 Y24.994 I14.455 J89.505
G1 X5.64 Y24.996
X5.66 Y25.01
X5.672 Y25.031
X5.71 Y25.173
X5.711 Y25.197
X5.7 Y25.219
X5.68 Y25.233
G2 X4.628 Y25.721 I1.229 J4.028
X2.28 Y28.199 I4.769 J6.87
X1.127 Y30.37 I9.472 J6.42
G1 X1.076 Y30.509
X1.039 Y30.652
X1.017 Y30.799
X1.009 Y30.947
X1.015 Y31.095
X1.036 Y31.241
X1.072 Y31.385
X1.122 Y31.525
X1.185 Y31.659
G2 X1.861 Y32.83 I19.815 J-10.659
X2.948 Y33.53 I1.276 J-0.789
G1 X2.983 Y33.534
G2 X7.397 Y33.323 I1.64 J-11.97
X9.119 Y32.602 I-1.979 J-7.142
G3 X9.674 Y32.151 I12.753 J15.135
G1 X9.696 Y32.141
X9.72 Y32.142
X9.741 Y32.155
X9.845 Y32.259
X9.858 Y32.28
X9.859 Y32.304
X9.849 Y32.326
G2 X9.187 Y33.264 I3.096 J2.889
X8.387 Y36.595 I7.563 J3.576
X8.474 Y39.051 I11.43 J0.824
G1 X8.5 Y39.197
X8.54 Y39.339
X8.593 Y39.478
X8.66 Y39.61
X8.74 Y39.735
X8.832 Y39.851
X8.935 Y39.958
X9.048 Y40.054
X9.17 Y40.139
G2 X10.341 Y40.815 I11.83 J-19.139
X11.632 Y40.877 I0.711 J-1.321
G1 X11.664 Y40.863
G2 X15.352 Y38.502 I-4.58 J-11.213
X16.502 Y37.007 I-5.315 J-5.28
G3 X16.767 Y36.32 I153.319 J58.723
G1 X16.781 Y36.301
X16.803 Y36.29
X16.827
X16.969 Y36.328
X16.99 Y36.34
X17.004 Y36.36
X17.006 Y36.384
G2 X16.901 Y37.53 I4.116 J0.952
X17.891 Y40.844 I8.355 J-0.689
X19.178 Y42.896 I10.287 J-5.026
G1 X19.273 Y43.009
X19.379 Y43.113
X19.494 Y43.206
X19.618 Y43.287
X19.75 Y43.355
X19.888 Y43.41
X20.03 Y43.451
X20.176 Y43.478
X20.324 Y43.49
G2 X21.676 Y43.49 I0.676 J-22.49
X22.825 Y42.899 I-0.045 J-1.499
G1 X22.847 Y42.87
G2 X24.86 Y38.98 I-9.581 J-7.425
X25.108 Y37.109 I-7.242 J-1.912
G3 X24.994 Y36.384 I95.075 J-15.328
G1 X24.996 Y36.36
X25.01 Y36.34
X25.031 Y36.328
X25.173 Y36.29
X25.197 Y36.289
X25.219 Y36.3
X25.233 Y36.32
G2 X25.715 Y37.364 I4.054 J-1.239
X28.233 Y39.743 I6.9 J-4.783
X30.37 Y40.873 I6.395 J-9.499
G1 X30.509 Y40.924
X30.652 Y40.961
X30.799 Y40.984
X30.947 Y40.992
X31.095 Y40.985
X31.241 Y40.964
X31.385 Y40.928
X31.525 Y40.878
X31.659 Y40.815
G2 X32.83 Y40.139 I-10.659 J-19.815
X33.53 Y39.052 I-0.789 J-1.276
G1 X33.534 Y39.017
G2 X33.323 Y34.604 I-11.965 J-1.64
X32.591 Y32.865 I-7.032 J1.938
G3 X32.152 Y32.326 I10.553 J-9.056
G1 X32.141 Y32.304
X32.142 Y32.28
X32.155 Y32.259
X32.259 Y32.155
X32.28 Y32.142
X32.304 Y32.141
X32.326 Y32.151
G2 X33.264 Y32.813 I2.889 J-3.096
X36.406 Y33.601 I3.527 J-7.414
X39.051 Y33.525 I0.995 J-11.577
G1 X39.197 Y33.5
X39.34 Y33.46
X39.478 Y33.407
X39.61 Y33.34
X39.735 Y33.26
X39.851 Y33.168
X39.958 Y33.065
X40.054 Y32.952
X40.139 Y32.83
G2 X40.815 Y31.659 I-19.139 J-11.83
X40.877 Y30.368 I-1.321 J-0.711
G1 X40.863 Y30.336
G2 X38.502 Y26.648 I-11.21 J4.579
X37.007 Y25.498 I-5.278 J5.313
G3 X36.32 Y25.233 I60.482 J-157.877
G1 X36.301 Y25.219
X36.289 Y25.197
X36.29 Y25.173
X36.328 Y25.031
X36.34 Y25.01
X36.36 Y24.996
X36.384 Y24.994
G2 X37.53 Y25.099 I0.952 J-4.116
X40.844 Y24.109 I-0.689 J-8.355
X42.896 Y22.822 I-5.026 J-10.287
G1 X43.009 Y22.727
X43.113 Y22.621
X43.206 Y22.506
X43.287 Y22.382
X43.355 Y22.25
X43.41 Y22.112
X43.451 Y21.97
X43.478 Y21.824
X43.49 Y21.676
G2 X43.49 Y20.324 I-22.49 J-0.676
X42.899 Y19.175 I-1.499 J0.045
G1 X42.87 Y19.153
G2 X38.98 Y17.14 I-7.425 J9.581
X37.109 Y16.892 I-1.912 J7.242
G3 X36.384 Y17.006 I-15.327 J-95.069
G1 X36.36 Y17.004
X36.34 Y16.99
X36.328 Y16.969
X36.29 Y16.827
X36.289 Y16.803
X36.3 Y16.781
X36.32 Y16.767
G2 X37.364 Y16.285 I-1.239 J-4.054
X39.743 Y13.767 I-4.783 J-6.9
X40.873 Y11.63 I-9.502 J-6.396
G1 X40.924 Y11.491
X40.961 Y11.348
X40.984 Y11.201
X40.992 Y11.053
X40.985 Y10.905
X40.964 Y10.759
X40.928 Y10.615
X40.878 Y10.475
X40.815 Y10.341
G2 X40.139 Y9.17 I-19.815 J10.659
X39.052 Y8.47 I-1.276 J0.789
G1 X39.016 Y8.466
G2 X34.643 Y8.666 I-1.64 J12.014
X32.881 Y9.398 I1.927 J7.129
G3 X32.326 Y9.849 I-13.746 J-16.361
G1 X32.304 Y9.859
X32.28 Y9.858
X32.259 Y9.845
X32.155 Y9.741
X32.142 Y9.72
X32.141 Y9.696
X32.151 Y9.674
G2 X32.814 Y8.735 I-3.094 J-2.887
X33.608 Y5.484 I-7.488 J-3.551
X33.525 Y2.949 I-11.462 J-0.897
G1 X33.5 Y2.803
X33.46 Y2.66
X33.407 Y2.522
X33.34 Y2.39
X33.26 Y2.265
X33.168 Y2.149
X33.065 Y2.042
X32.952 Y1.946
X32.83 Y1.861
G2 X31.659 Y1.185 I-11.83 J19.139
X30.368 Y1.123 I-0.711 J1.321
G1 X30.335 Y1.137
G2 X26.647 Y3.499 I4.585 J11.222
X25.512 Y4.965 I5.445 J5.385
X25.233 Y5.68 I34.351 J13.825
G1 X25.219 Y5.7
X25.197 Y5.711
X25.173 Y5.71
X25.031 Y5.672
X25.01 Y5.66
X24.996 Y5.64
X24.994 Y5.616
G2 X25.099 Y4.47 I-4.115 J-0.952
X24.159 Y1.255 I-8.258 J0.669
X22.821 Y-0.896 I-10.385 J4.967
G1 X22.727 Y-1.009
X22.621 Y-1.113
X22.505 Y-1.206
X22.381 Y-1.287
X22.25 Y-1.355
X22.112 Y-1.41
X21.97 Y-1.451
X21.824 Y-1.478
X21.676 Y-1.49
G2 X20.324 Y-1.49 I-0.676 J22.49
X19.175 Y-0.899 I0.045 J1.499
G1 X19.153 Y-0.87
G2 X17.14 Y3.02 I9.582 J7.426
X16.892 Y4.891 I7.248 J1.913
G3 X17.006 Y5.616 I-89.504 J14.455
G1 X17.004 Y5.64
X16.99 Y5.66
X16.969 Y5.672
X16.827 Y5.71
X16.803 Y5.711
X16.781 Y5.7
X16.767 Y5.68
G2 X16.279 Y4.628 I-4.028 J1.229
X13.801 Y2.28 I-6.87 J4.769
X11.63 Y1.127 I-6.42 J9.472
G1 X11.491 Y1.076
X11.348 Y1.039
X11.201 Y1.017
X11.053 Y1.009
X10.905 Y1.015
X10.759 Y1.036
X10.615 Y1.072
X10.475 Y1.122
X10.341 Y1.185
G2 X9.17 Y1.861 I10.659 J19.815
X8.47 Y2.948 I0.789 J1.276
G1 X8.466 Y2.984
G2 X8.666 Y7.356 I12.014 J1.64
X9.398 Y9.119 I7.16 J-1.939
G3 X9.849 Y9.674 I-13.779 J11.659
G1 X9.859 Y9.696
X9.858 Y9.72
X9.845 Y9.741
X9.741 Y9.845
X9.72 Y9.858
X9.696 Y9.859
X9.674 Y9.849
G2 X8.735 Y9.186 I-2.887 J3.094
X5.405 Y8.387 I-3.574 J7.56
X2.949 Y8.475 I-0.824 J11.422
G1 X2.803 Y8.5
X2.661 Y8.54
X2.522 Y8.593
X2.39 Y8.66
X2.265 Y8.74
X2.149 Y8.832
X2.042 Y8.935
X1.946 Y9.048
X1.861 Y9.17
Z-6 F333.3
G2 X1.185 Y10.341 I19.139 J11.83 F1000
X1.123 Y11.632 I1.321 J0.711
G1 X1.137 Y11.665
G2 X3.499 Y15.353 I11.222 J-4.585
X4.965 Y16.488 I5.385 J-5.445
X5.68 Y16.767 I13.824 J-34.35
G1 X5.7 Y16.781
X5.711 Y16.803
X5.71 Y16.827
X5.672 Y16.969
X5.66 Y16.99
X5.64 Y17.004
X5.616 Y17.006
G2 X4.47 Y16.901 I-0.952 J4.115
X1.255 Y17.841 I0.669 J8.258
X-0.896 Y19.179 I4.967 J10.385
G1 X-1.009 Y19.273
X-1.113 Y19.379
X-1.206 Y19.495
X-1.287 Y19.619
X-1.355 Y19.75
X-1.41 Y19.888
X-1.451 Y20.03
X-1.478 Y20.176
X-1.49 Y20.324
G2 X-1.49 Y21.676 I22.49 J0.676
X-0.899 Y22.825 I1.499 J-0.045
G1 X-0.87 Y22.847
G2 X3.02 Y24.86 I7.426 J-9.582
X4.891 Y25.108 I1.913 J-7.248
G3 X5.616 Y24.994 I14.455 J89.505
G1 X5.64 Y24.996
X5.66 Y25.01
X5.672 Y25.031
X5.71 Y25.173
X5.711 Y25.197
X5.7 Y25.219
X5.68 Y25.233
G2 X4.628 Y25.721 I1.229 J4.028
X2.28 Y28.199 I4.769 J6.87
X1.127 Y30.37 I9.472 J6.42
G1 X1.076 Y30.509
X1.039 Y30.652
X1.017 Y30.799
X1.009 Y30.947
X1.015 Y31.095
X1.036 Y31.241
X1.072 Y31.385
X1.122 Y31.525
X1.185 Y31.659
G2 X1.861 Y32.83 I19.815 J-10.659
X2.948 Y33.53 I1.276 J-0.789
G1 X2.983 Y33.534
G2 X7.397 Y33.323 I1.64 J-11.97
X9.119 Y32.602 I-1.979 J-7.142
G3 X9.674 Y32.151 I12.753 J15.135
G1 X9.696 Y32.141
X9.72 Y32.142
X9.741 Y32.155
X9.845 Y32.259
X9.858 Y32.28
X9.859 Y32.304
X9.849 Y32.326
G2 X9.187 Y33.264 I3.096 J2.889
X8.387 Y36.595 I7.563 J3.576
X8.474 Y39.051 I11.43 J0.824
G1 X8.5 Y39.197
X8.54 Y39.339
X8.593 Y39.478
X8.66 Y39.61
X8.74 Y39.735
X8.832 Y39.851
X8.935 Y39.958
X9.048 Y40.054
X9.17 Y40.139
G2 X10.341 Y40.815 I11.83 J-19.139
X11.632 Y40.877 I0.711 J-1.321
G1 X11.664 Y40.863
G2 X15.352 Y38.502 I-4.58 J-11.213
X16.502 Y37.007 I-5.315 J-5.28
G3 X16.767 Y36.32 I153.319 J58.723
G1 X16.781 Y36.301
X16.803 Y36.29
X16.827
X16.969 Y36.328
X16.99 Y36.34
X17.004 Y36.36
X17.006 Y36.384
G2 X16.901 Y37.53 I4.116 J0.952
X17.891 Y40.844 I8.355 J-0.689
X19.178 Y42.896 I10.287 J-5.026
G1 X19.273 Y43.009
X19.379 Y43.113
X19.494 Y43.206
X19.618 Y43.287
X19.75 Y43.355
X19.888 Y43.41
X20.03 Y43.451
X20.176 Y43.478
X20.324 Y43.49
G2 X21.676 Y43.49 I0.676 J-22.49
X22.825 Y42.899 I-0.045 J-1.499
G1 X22.847 Y42.87
G2 X24.86 Y38.98 I-9.581 J-7.425
X25.108 Y37.109 I-7.242 J-1.912
G3 X24.994 Y36.384 I95.075 J-15.328
G1 X24.996 Y36.36
X25.01 Y36.34
X25.031 Y36.328
X25.173 Y36.29
X25.197 Y36.289
X25.219 Y36.3
X25.233 Y36.32
G2 X25.715 Y37.364 I4.054 J-1.239
X28.233 Y39.743 I6.9 J-4.783
X30.37 Y40.873 I6.395 J-9.499
G1 X30.509 Y40.924
X30.652 Y40.961
X30.799 Y40.984
X30.947 Y40.992
X31.095 Y40.985
X31.241 Y40.964
X31.385 Y40.928
X31.525 Y40.878
X31.659 Y40.815
G2 X32.83 Y40.139 I-10.659 J-19.815
X33.53 Y39.052 I-0.789 J-1.276
G1 X33.534 Y39.017
G2 X33.323 Y34.604 I-11.965 J-1.64
X32.591 Y32.865 I-7.032 J1.938
G3 X32.152 Y32.326 I10.553 J-9.056
G1 X32.141 Y32.304
X32.142 Y32.28
X32.155 Y32.259
X32.259 Y32.155
X32.28 Y32.142
X32.304 Y32.141
X32.326 Y32.151
G2 X33.264 Y32.813 I2.889 J-3.096
X36.406 Y33.601 I3.527 J-7.414
X39.051 Y33.525 I0.995 J-11.577
G1 X39.197 Y33.5
X39.34 Y33.46
X39.478 Y33.407
X39.61 Y33.34
X39.735 Y33.26
X39.851 Y33.168
X39.958 Y33.065
X40.054 Y32.952
X40.139 Y32.83
G2 X40.815 Y31.659 I-19.139 J-11.83
X40.877 Y30.368 I-1.321 J-0.711
G1 X40.863 Y30.336
G2 X38.502 Y26.648 I-11.21 J4.579
X37.007 Y25.498 I-5.278 J5.313
G3 X36.32 Y25.233 I60.482 J-157.877
G1 X36.301 Y25.219
X36.289 Y25.197
X36.29 Y25.173
X36.328 Y25.031
X36.34 Y25.01
X36.36 Y24.996
X36.384 Y24.994
G2 X37.53 Y25.099 I0.952 J-4.116
X40.844 Y24.109 I-0.689 J-8.355
X42.896 Y22.822 I-5.026 J-10.287
G1 X43.009 Y22.727
X43.113 Y22.621
X43.206 Y22.506
X43.287 Y22.382
X43.355 Y22.25
X43.41 Y22.112
X43.451 Y21.97
X43.478 Y21.824
X43.49 Y21.676
G2 X43.49 Y20.324 I-22.49 J-0.676
X42.899 Y19.175 I-1.499 J0.045
G1 X42.87 Y19.153
G2 X38.98 Y17.14 I-7.425 J9.581
X37.109 Y16.892 I-1.912 J7.242
G3 X36.384 Y17.006 I-15.327 J-95.069
G1 X36.36 Y17.004
X36.34 Y16.99
X36.328 Y16.969
X36.29 Y16.827
X36.289 Y16.803
X36.3 Y16.781
X36.32 Y16.767
G2 X37.364 Y16.285 I-1.239 J-4.054
X39.743 Y13.767 I-4.783 J-6.9
X40.873 Y11.63 I-9.502 J-6.396
G1 X40.924 Y11.491
X40.961 Y11.348
X40.984 Y11.201
X40.992 Y11.053
X40.985 Y10.905
X40.964 Y10.759
X40.928 Y10.615
X40.878 Y10.475
X40.815 Y10.341
G2 X40.139 Y9.17 I-19.815 J10.659
X39.052 Y8.47 I-1.276 J0.789
G1 X39.016 Y8.466
G2 X34.643 Y8.666 I-1.64 J12.014
X32.881 Y9.398 I1.927 J7.129
G3 X32.326 Y9.849 I-13.746 J-16.361
G1 X32.304 Y9.859
X32.28 Y9.858
X32.259 Y9.845
X32.155 Y9.741
X32.142 Y9.72
X32.141 Y9.696
X32.151 Y9.674
G2 X32.814 Y8.735 I-3.094 J-2.887
X33.608 Y5.484 I-7.488 J-3.551
X33.525 Y2.949 I-11.462 J-0.897
G1 X33.5 Y2.803
X33.46 Y2.66
X33.407 Y2.522
X33.34 Y2.39
X33.26 Y2.265
X33.168 Y2.149
X33.065 Y2.042
X32.952 Y1.946
X32.83 Y1.861
G2 X31.659 Y1.185 I-11.83 J19.139
X30.368 Y1.123 I-0.711 J1.321
G1 X30.335 Y1.137
G2 X26.647 Y3.499 I4.585 J11.222
X25.512 Y4.965 I5.445 J5.385
X25.233 Y5.68 I34.351 J13.825
G1 X25.219 Y5.7
X25.197 Y5.711
X25.173 Y5.71
X25.031 Y5.672
X25.01 Y5.66
X24.996 Y5.64
X24.994 Y5.616
G2 X25.099 Y4.47 I-4.115 J-0.952
X24.159 Y1.255 I-8.258 J0.669
X22.821 Y-0.896 I-10.385 J4.967
G1 X22.727 Y-1.009
X22.621 Y-1.113
X22.505 Y-1.206
X22.381 Y-1.287
X22.25 Y-1.355
X22.112 Y-1.41
X21.97 Y-1.451
X21.824 Y-1.478
X21.676 Y-1.49
G2 X20.324 Y-1.49 I-0.676 J22.49
X19.175 Y-0.899 I0.045 J1.499
G1 X19.153 Y-0.87
G2 X17.14 Y3.02 I9.582 J7.426
X16.892 Y4.891 I7.248 J1.913
G3 X17.006 Y5.616 I-89.504 J14.455
G1 X17.004 Y5.64
X16.99 Y5.66
X16.969 Y5.672
X16.827 Y5.71
X16.803 Y5.711
X16.781 Y5.7
X16.767 Y5.68
G2 X16.279 Y4.628 I-4.028 J1.229
X13.801 Y2.28 I-6.87 J4.769
X11.63 Y1.127 I-6.42 J9.472
G1 X11.491 Y1.076
X11.348 Y1.039
X11.201 Y1.017
X11.053 Y1.009
X10.905 Y1.015
X10.759 Y1.036
X10.615 Y1.072
X10.475 Y1.122
X10.341 Y1.185
G2 X9.17 Y1.861 I10.659 J19.815
X8.47 Y2.948 I0.789 J1.276
G1 X8.466 Y2.984
G2 X8.666 Y7.356 I12.014 J1.64
X9.398 Y9.119 I7.16 J-1.939
G3 X9.849 Y9.674 I-13.779 J11.659
G1 X9.859 Y9.696
X9.858 Y9.72
X9.845 Y9.741
X9.741 Y9.845
X9.72 Y9.858
X9.696 Y9.859
X9.674 Y9.849
G2 X8.735 Y9.186 I-2.887 J3.094
X5.405 Y8.387 I-3.574 J7.56
X2.949 Y8.475 I-0.824 J11.422
G1 X2.803 Y8.5
X2.661 Y8.54
X2.522 Y8.593
X2.39 Y8.66
X2.265 Y8.74
X2.149 Y8.832
X2.042 Y8.935
X1.946 Y9.048
X1.861 Y9.17
Z-6.5 F333.3
G2 X1.185 Y10.341 I19.139 J11.83 F1000
X1.123 Y11.632 I1.321 J0.711
G1 X1.137 Y11.665
G2 X3.499 Y15.353 I11.222 J-4.585
X4.965 Y16.488 I5.385 J-5.445
X5.68 Y16.767 I13.824 J-34.35
G1 X5.7 Y16.781
X5.711 Y16.803
X5.71 Y16.827
X5.672 Y16.969
X5.66 Y16.99
X5.64 Y17.004
X5.616 Y17.006
G2 X4.47 Y16.901 I-0.952 J4.115
X1.255 Y17.841 I0.669 J8.258
X-0.896 Y19.179 I4.967 J10.385
G1 X-1.009 Y19.273
X-1.113 Y19.379
X-1.206 Y19.495
X-1.287 Y19.619
X-1.355 Y19.75
X-1.41 Y19.888
X-1.451 Y20.03
X-1.478 Y20.176
X-1.49 Y20.324
G2 X-1.49 Y21.676 I22.49 J0.676
X-0.899 Y22.825 I1.499 J-0.045
G1 X-0.87 Y22.847
G2 X3.02 Y24.86 I7.426 J-9.582
X4.891 Y25.108 I1.913 J-7.248
G3 X5.616 Y24.994 I14.455 J89.505
G1 X5.64 Y24.996
X5.66 Y25.01
X5.672 Y25.031
X5.71 Y25.173
X5.711 Y25.197
X5.7 Y25.219
X5.68 Y25.233
G2 X4.628 Y25.721 I1.229 J4.028
X2.28 Y28.199 I4.769 J6.87
X1.127 Y30.37 I9.472 J6.42
G1 X1.076 Y30.509
X1.039 Y30.652
X1.017 Y30.799
X1.009 Y30.947
X1.015 Y31.095
X1.036 Y31.241
X1.072 Y31.385
X1.122 Y31.525
X1.185 Y31.659
G2 X1.861 Y32.83 I19.815 J-10.659
X2.948 Y33.53 I1.276 J-0.789
G1 X2.983 Y33.534
G2 X7.397 Y33.323 I1.64 J-11.97
X9.119 Y32.602 I-1.979 J-7.142
G3 X9.674 Y32.151 I12.753 J15.135
G1 X9.696 Y32.141
X9.72 Y32.142
X9.741 Y32.155
X9.845 Y32.259
X9.858 Y32.28
X9.859 Y32.304
X9.849 Y32.326
G2 X9.187 Y33.264 I3.096 J2.889
X8.387 Y36.595 I7.563 J3.576
X8.474 Y39.051 I11.43 J0.824
G1 X8.5 Y39.197
X8.54 Y39.339
X8.593 Y39.478
X8.66 Y39.61
X8.74 Y39.735
X8.832 Y39.851
X8.935 Y39.958
X9.048 Y40.054
X9.17 Y40.139
G2 X10.341 Y40.815 I11.83 J-19.139
X11.632 Y40.877 I0.711 J-1.321
G1 X11.664 Y40.863
G2 X15.352 Y38.502 I-4.58 J-11.213
X16.502 Y37.007 I-5.315 J-5.28
G3 X16.767 Y36.32 I153.319 J58.723
G1 X16.781 Y36.301
X16.803 Y36.29
X16.827
X16.969 Y36.328
X16.99 Y36.34
X17.004 Y36.36
X17.006 Y36.384
G2 X16.901 Y37.53 I4.116 J0.952
X17.891 Y40.844 I8.355 J-0.689
X19.178 Y42.896 I10.287 J-5.026
G1 X19.273 Y43.009
X19.379 Y43.113
X19.494 Y43.206
X19.618 Y43.287
X19.75 Y43.355
X19.888 Y43.41
X20.03 Y43.451
X20.176 Y43.478
X20.324 Y43.49
G2 X21.676 Y43.49 I0.676 J-22.49
X22.825 Y42.899 I-0.045 J-1.499
G1 X22.847 Y42.87
G2 X24.86 Y38.98 I-9.581 J-7.425
X25.108 Y37.109 I-7.242 J-1.912
G3 X24.994 Y36.384 I95.075 J-15.328
G1 X24.996 Y36.36
X25.01 Y36.34
X25.031 Y36.328
X25.173 Y36.29
X25.197 Y36.289
X25.219 Y36.3
X25.233 Y36.32
G2 X25.715 Y37.364 I4.054 J-1.239
X28.233 Y39.743 I6.9 J-4.783
X30.37 Y40.873 I6.395 J-9.499
G1 X30.509 Y40.924
X30.652 Y40.961
X30.799 Y40.984
X30.947 Y40.992
X31.095 Y40.985
X31.241 Y40.964
X31.385 Y40.928
X31.525 Y40.878
X31.659 Y40.815
G2 X32.83 Y40.139 I-10.659 J-19.815
X33.53 Y39.052 I-0.789 J-1.276
G1 X33.534 Y39.017
G2 X33.323 Y34.604 I-11.965 J-1.64
X32.591 Y32.865 I-7.032 J1.938
G3 X32.152 Y32.326 I10.553 J-9.056
G1 X32.141 Y32.304
X32.142 Y32.28
X32.155 Y32.259
X32.259 Y32.155
X32.28 Y32.142
X32.304 Y32.141
X32.326 Y32.151
G2 X33.264 Y32.813 I2.889 J-3.096
X36.406 Y33.601 I3.527 J-7.414
X39.051 Y33.525 I0.995 J-11.577
G1 X39.197 Y33.5
X39.34 Y33.46
X39.478 Y33.407
X39.61 Y33.34
X39.735 Y33.26
X39.851 Y33.168
X39.958 Y33.065
X40.054 Y32.952
X40.139 Y32.83
G2 X40.815 Y31.659 I-19.139 J-11.83
X40.877 Y30.368 I-1.321 J-0.711
G1 X40.863 Y30.336
G2 X38.502 Y26.648 I-11.21 J4.579
X37.007 Y25.498 I-5.278 J5.313
G3 X36.32 Y25.233 I60.482 J-157.877
G1 X36.301 Y25.219
X36.289 Y25.197
X36.29 Y25.173
X36.328 Y25.031
X36.34 Y25.01
X36.36 Y24.996
X36.384 Y24.994
G2 X37.53 Y25.099 I0.952 J-4.116
X40.844 Y24.109 I-0.689 J-8.355
X42.896 Y22.822 I-5.026 J-10.287
G1 X43.009 Y22.727
X43.113 Y22.621
X43.206 Y22.506
X43.287 Y22.382
X43.355 Y22.25
X43.41 Y22.112
X43.451 Y21.97
X43.478 Y21.824
X43.49 Y21.676
G2 X43.49 Y20.324 I-22.49 J-0.676
X42.899 Y19.175 I-1.499 J0.045
G1 X42.87 Y19.153
G2 X38.98 Y17.14 I-7.425 J9.581
X37.109 Y16.892 I-1.912 J7.242
G3 X36.384 Y17.006 I-15.327 J-95.069
G1 X36.36 Y17.004
X36.34 Y16.99
X36.328 Y16.969
X36.29 Y16.827
X36.289 Y16.803
X36.3 Y16.781
X36.32 Y16.767
G2 X37.364 Y16.285 I-1.239 J-4.054
X39.743 Y13.767 I-4.783 J-6.9
X40.873 Y11.63 I-9.502 J-6.396
G1 X40.924 Y11.491
X40.961 Y11.348
X40.984 Y11.201
X40.992 Y11.053
X40.985 Y10.905
X40.964 Y10.759
X40.928 Y10.615
X40.878 Y10.475
X40.815 Y10.341
G2 X40.139 Y9.17 I-19.815 J10.659
X39.052 Y8.47 I-1.276 J0.789
G1 X39.016 Y8.466
G2 X34.643 Y8.666 I-1.64 J12.014
X32.881 Y9.398 I1.927 J7.129
G3 X32.326 Y9.849 I-13.746 J-16.361
G1 X32.304 Y9.859
X32.28 Y9.858
X32.259 Y9.845
X32.155 Y9.741
X32.142 Y9.72
X32.141 Y9.696
X32.151 Y9.674
G2 X32.814 Y8.735 I-3.094 J-2.887
X33.608 Y5.484 I-7.488 J-3.551
X33.525 Y2.949 I-11.462 J-0.897
G1 X33.5 Y2.803
X33.46 Y2.66
X33.407 Y2.522
X33.34 Y2.39
X33.26 Y2.265
X33.168 Y2.149
X33.065 Y2.042
X32.952 Y1.946
X32.83 Y1.861
G2 X31.659 Y1.185 I-11.83 J19.139
X30.368 Y1.123 I-0.711 J1.321
G1 X30.335 Y1.137
G2 X26.647 Y3.499 I4.585 J11.222
X25.512 Y4.965 I5.445 J5.385
X25.233 Y5.68 I34.351 J13.825
G1 X25.219 Y5.7
X25.197 Y5.711
X25.173 Y5.71
X25.031 Y5.672
X25.01 Y5.66
X24.996 Y5.64
X24.994 Y5.616
G2 X25.099 Y4.47 I-4.115 J-0.952
X24.159 Y1.255 I-8.258 J0.669
X22.821 Y-0.896 I-10.385 J4.967
G1 X22.727 Y-1.009
X22.621 Y-1.113
X22.505 Y-1.206
X22.381 Y-1.287
X22.25 Y-1.355
X22.112 Y-1.41
X21.97 Y-1.451
X21.824 Y-1.478
X21.676 Y-1.49
G2 X20.324 Y-1.49 I-0.676 J22.49
X19.175 Y-0.899 I0.045 J1.499
G1 X19.153 Y-0.87
G2 X17.14 Y3.02 I9.582 J7.426
X16.892 Y4.891 I7.248 J1.913
G3 X17.006 Y5.616 I-89.504 J14.455
G1 X17.004 Y5.64
X16.99 Y5.66
X16.969 Y5.672
X16.827 Y5.71
X16.803 Y5.711
X16.781 Y5.7
X16.767 Y5.68
G2 X16.279 Y4.628 I-4.028 J1.229
X13.801 Y2.28 I-6.87 J4.769
X11.63 Y1.127 I-6.42 J9.472
G1 X11.491 Y1.076
X11.348 Y1.039
X11.201 Y1.017
X11.053 Y1.009
X10.905 Y1.015
X10.759 Y1.036
X10.615 Y1.072
X10.475 Y1.122
X10.341 Y1.185
G2 X9.17 Y1.861 I10.659 J19.815
X8.47 Y2.948 I0.789 J1.276
G1 X8.466 Y2.984
G2 X8.666 Y7.356 I12.014 J1.64
X9.398 Y9.119 I7.16 J-1.939
G3 X9.849 Y9.674 I-13.779 J11.659
G1 X9.859 Y9.696
X9.858 Y9.72
X9.845 Y9.741
X9.741 Y9.845
X9.72 Y9.858
X9.696 Y9.859
X9.674 Y9.849
G2 X8.735 Y9.186 I-2.887 J3.094
X5.405 Y8.387 I-3.574 J7.56
X2.949 Y8.475 I-0.824 J11.422
G1 X2.803 Y8.5
X2.661 Y8.54
X2.522 Y8.593
X2.39 Y8.66
X2.265 Y8.74
X2.149 Y8.832
X2.042 Y8.935
X1.946 Y9.048
X1.861 Y9.17
Z-7 F333.3
G2 X1.185 Y10.341 I19.139 J11.83 F1000
X1.123 Y11.632 I1.321 J0.711
G1 X1.137 Y11.665
G2 X3.499 Y15.353 I11.222 J-4.585
X4.965 Y16.488 I5.385 J-5.445
X5.68 Y16.767 I13.824 J-34.35
G1 X5.7 Y16.781
X5.711 Y16.803
X5.71 Y16.827
X5.672 Y16.969
X5.66 Y16.99
X5.64 Y17.004
X5.616 Y17.006
G2 X4.47 Y16.901 I-0.952 J4.115
X1.255 Y17.841 I0.669 J8.258
X-0.896 Y19.179 I4.967 J10.385
G1 X-1.009 Y19.273
X-1.113 Y19.379
X-1.206 Y19.495
X-1.287 Y19.619
X-1.355 Y19.75
X-1.41 Y19.888
X-1.451 Y20.03
X-1.478 Y20.176
X-1.49 Y20.324
G2 X-1.49 Y21.676 I22.49 J0.676
X-0.899 Y22.825 I1.499 J-0.045
G1 X-0.87 Y22.847
G2 X3.02 Y24.86 I7.426 J-9.582
X4.891 Y25.108 I1.913 J-7.248
G3 X5.616 Y24.994 I14.455 J89.505
G1 X5.64 Y24.996
X5.66 Y25.01
X5.672 Y25.031
X5.71 Y25.173
X5.711 Y25.197
X5.7 Y25.219
X5.68 Y25.233
G2 X4.628 Y25.721 I1.229 J4.028
X2.28 Y28.199 I4.769 J6.87
X1.127 Y30.37 I9.472 J6.42
G1 X1.076 Y30.509
X1.039 Y30.652
X1.017 Y30.799
X1.009 Y30.947
X1.015 Y31.095
X1.036 Y31.241
X1.072 Y31.385
X1.122 Y31.525
X1.185 Y31.659
G2 X1.861 Y32.83 I19.815 J-10.659
X2.948 Y33.53 I1.276 J-0.789
G1 X2.983 Y33.534
G2 X7.397 Y33.323 I1.64 J-11.97
X9.119 Y32.602 I-1.979 J-7.142
G3 X9.674 Y32.151 I12.753 J15.135
G1 X9.696 Y32.141
X9.72 Y32.142
X9.741 Y32.155
X9.845 Y32.259
X9.858 Y32.28
X9.859 Y32.304
X9.849 Y32.326
G2 X9.187 Y33.264 I3.096 J2.889
X8.387 Y36.595 I7.563 J3.576
X8.474 Y39.051 I11.43 J0.824
G1 X8.5 Y39.197
X8.54 Y39.339
X8.593 Y39.478
X8.66 Y39.61
X8.74 Y39.735
X8.832 Y39.851
X8.935 Y39.958
X9.048 Y40.054
X9.17 Y40.139
G2 X10.341 Y40.815 I11.83 J-19.139
X11.632 Y40.877 I0.711 J-1.321
G1 X11.664 Y40.863
G2 X15.352 Y38.502 I-4.58 J-11.213
X16.502 Y37.007 I-5.315 J-5.28
G3 X16.767 Y36.32 I153.319 J58.723
G1 X16.781 Y36.301
X16.803 Y36.29
X16.827
X16.969 Y36.328
X16.99 Y36.34
X17.004 Y36.36
X17.006 Y36.384
G2 X16.901 Y37.53 I4.116 J0.952
X17.891 Y40.844 I8.355 J-0.689
X19.178 Y42.896 I10.287 J-5.026
G1 X19.273 Y43.009
X19.379 Y43.113
X19.494 Y43.206
X19.618 Y43.287
X19.75 Y43.355
X19.888 Y43.41
X20.03 Y43.451
X20.176 Y43.478
X20.324 Y43.49
G2 X21.676 Y43.49 I0.676 J-22.49
X22.825 Y42.899 I-0.045 J-1.499
G1 X22.847 Y42.87
G2 X24.86 Y38.98 I-9.581 J-7.425
X25.108 Y37.109 I-7.242 J-1.912
G3 X24.994 Y36.384 I95.075 J-15.328
G1 X24.996 Y36.36
X25.01 Y36.34
X25.031 Y36.328
X25.173 Y36.29
X25.197 Y36.289
X25.219 Y36.3
X25.233 Y36.32
G2 X25.715 Y37.364 I4.054 J-1.239
X28.233 Y39.743 I6.9 J-4.783
X30.37 Y40.873 I6.395 J-9.499
G1 X30.509 Y40.924
X30.652 Y40.961
X30.799 Y40.984
X30.947 Y40.992
X31.095 Y40.985
X31.241 Y40.964
X31.385 Y40.928
X31.525 Y40.878
X31.659 Y40.815
G2 X32.83 Y40.139 I-10.659 J-19.815
X33.53 Y39.052 I-0.789 J-1.276
G1 X33.534 Y39.017
G2 X33.323 Y34.604 I-11.965 J-1.64
X32.591 Y32.865 I-7.032 J1.938
G3 X32.152 Y32.326 I10.553 J-9.056
G1 X32.141 Y32.304
X32.142 Y32.28
X32.155 Y32.259
X32.259 Y32.155
X32.28 Y32.142
X32.304 Y32.141
X32.326 Y32.151
G2 X33.264 Y32.813 I2.889 J-3.096
X36.406 Y33.601 I3.527 J-7.414
X39.051 Y33.525 I0.995 J-11.577
G1 X39.197 Y33.5
X39.34 Y33.46
X39.478 Y33.407
X39.61 Y33.34
X39.735 Y33.26
X39.851 Y33.168
X39.958 Y33.065
X40.054 Y32.952
X40.139 Y32.83
G2 X40.815 Y31.659 I-19.139 J-11.83
X40.877 Y30.368 I-1.321 J-0.711
G1 X40.863 Y30.336
G2 X38.502 Y26.648 I-11.21 J4.579
X37.007 Y25.498 I-5.278 J5.313
G3 X36.32 Y25.233 I60.482 J-157.877
G1 X36.301 Y25.219
X36.289 Y25.197
X36.29 Y25.173
X36.328 Y25.031
X36.34 Y25.01
X36.36 Y24.996
X36.384 Y24.994
G2 X37.53 Y25.099 I0.952 J-4.116
X40.844 Y24.109 I-0.689 J-8.355
X42.896 Y22.822 I-5.026 J-10.287
G1 X43.009 Y22.727
X43.113 Y22.621
X43.206 Y22.506
X43.287 Y22.382
X43.355 Y22.25
X43.41 Y22.112
X43.451 Y21.97
X43.478 Y21.824
X43.49 Y21.676
G2 X43.49 Y20.324 I-22.49 J-0.676
X42.899 Y19.175 I-1.499 J0.045
G1 X42.87 Y19.153
G2 X38.98 Y17.14 I-7.425 J9.581
X37.109 Y16.892 I-1.912 J7.242
G3 X36.384 Y17.006 I-15.327 J-95.069
G1 X36.36 Y17.004
X36.34 Y16.99
X36.328 Y16.969
X36.29 Y16.827
X36.289 Y16.803
X36.3 Y16.781
X36.32 Y16.767
G2 X37.364 Y16.285 I-1.239 J-4.054
X39.743 Y13.767 I-4.783 J-6.9
X40.873 Y11.63 I-9.502 J-6.396
G1 X40.924 Y11.491
X40.961 Y11.348
X40.984 Y11.201
X40.992 Y11.053
X40.985 Y10.905
X40.964 Y10.759
X40.928 Y10.615
X40.878 Y10.475
X40.815 Y10.341
G2 X40.139 Y9.17 I-19.815 J10.659
X39.052 Y8.47 I-1.276 J0.789
G1 X39.016 Y8.466
G2 X34.643 Y8.666 I-1.64 J12.014
X32.881 Y9.398 I1.927 J7.129
G3 X32.326 Y9.849 I-13.746 J-16.361
G1 X32.304 Y9.859
X32.28 Y9.858
X32.259 Y9.845
X32.155 Y9.741
X32.142 Y9.72
X32.141 Y9.696
X32.151 Y9.674
G2 X32.814 Y8.735 I-3.094 J-2.887
X33.608 Y5.484 I-7.488 J-3.551
X33.525 Y2.949 I-11.462 J-0.897
G1 X33.5 Y2.803
X33.46 Y2.66
X33.407 Y2.522
X33.34 Y2.39
X33.26 Y2.265
X33.168 Y2.149
X33.065 Y2.042
X32.952 Y1.946
X32.83 Y1.861
G2 X31.659 Y1.185 I-11.83 J19.139
X30.368 Y1.123 I-0.711 J1.321
G1 X30.335 Y1.137
G2 X26.647 Y3.499 I4.585 J11.222
X25.512 Y4.965 I5.445 J5.385
X25.233 Y5.68 I34.351 J13.825
G1 X25.219 Y5.7
X25.197 Y5.711
X25.173 Y5.71
X25.031 Y5.672
X25.01 Y5.66
X24.996 Y5.64
X24.994 Y5.616
G2 X25.099 Y4.47 I-4.115 J-0.952
X24.159 Y1.255 I-8.258 J0.669
X22.821 Y-0.896 I-10.385 J4.967
G1 X22.727 Y-1.009
X22.621 Y-1.113
X22.505 Y-1.206
X22.381 Y-1.287
X22.25 Y-1.355
X22.112 Y-1.41
X21.97 Y-1.451
X21.824 Y-1.478
X21.676 Y-1.49
G2 X20.324 Y-1.49 I-0.676 J22.49
X19.175 Y-0.899 I0.045 J1.499
G1 X19.153 Y-0.87
G2 X17.14 Y3.02 I9.582 J7.426
X16.892 Y4.891 I7.248 J1.913
G3 X17.006 Y5.616 I-89.504 J14.455
G1 X17.004 Y5.64
X16.99 Y5.66
X16.969 Y5.672
X16.827 Y5.71
X16.803 Y5.711
X16.781 Y5.7
X16.767 Y5.68
G2 X16.279 Y4.628 I-4.028 J1.229
X13.801 Y2.28 I-6.87 J4.769
X11.63 Y1.127 I-6.42 J9.472
G1 X11.491 Y1.076
X11.348 Y1.039
X11.201 Y1.017
X11.053 Y1.009
X10.905 Y1.015
X10.759 Y1.036
X10.615 Y1.072
X10.475 Y1.122
X10.341 Y1.185
G2 X9.17 Y1.861 I10.659 J19.815
X8.47 Y2.948 I0.789 J1.276
G1 X8.466 Y2.984
G2 X8.666 Y7.356 I12.014 J1.64
X9.398 Y9.119 I7.16 J-1.939
G3 X9.849 Y9.674 I-13.779 J11.659
G1 X9.859 Y9.696
X9.858 Y9.72
X9.845 Y9.741
X9.741 Y9.845
X9.72 Y9.858
X9.696 Y9.859
X9.674 Y9.849
G2 X8.735 Y9.186 I-2.887 J3.094
X5.405 Y8.387 I-3.574 J7.56
X2.949 Y8.475 I-0.824 J11.422
G1 X2.803 Y8.5
X2.661 Y8.54
X2.522 Y8.593
X2.39 Y8.66
X2.265 Y8.74
X2.149 Y8.832
X2.042 Y8.935
X1.946 Y9.048
X1.861 Y9.17
Z-7.5 F333.3
G2 X1.185 Y10.341 I19.139 J11.83 F1000
X1.123 Y11.632 I1.321 J0.711
G1 X1.137 Y11.665
G2 X3.499 Y15.353 I11.222 J-4.585
X4.965 Y16.488 I5.385 J-5.445
X5.68 Y16.767 I13.824 J-34.35
G1 X5.7 Y16.781
X5.711 Y16.803
X5.71 Y16.827
X5.672 Y16.969
X5.66 Y16.99
X5.64 Y17.004
X5.616 Y17.006
G2 X4.47 Y16.901 I-0.952 J4.115
X1.255 Y17.841 I0.669 J8.258
X-0.896 Y19.179 I4.967 J10.385
G1 X-1.009 Y19.273
X-1.113 Y19.379
X-1.206 Y19.495
X-1.287 Y19.619
X-1.355 Y19.75
X-1.41 Y19.888
X-1.451 Y20.03
X-1.478 Y20.176
X-1.49 Y20.324
G2 X-1.49 Y21.676 I22.49 J0.676
X-0.899 Y22.825 I1.499 J-0.045
G1 X-0.87 Y22.847
G2 X3.02 Y24.86 I7.426 J-9.582
X4.891 Y25.108 I1.913 J-7.248
G3 X5.616 Y24.994 I14.455 J89.505
G1 X5.64 Y24.996
X5.66 Y25.01
X5.672 Y25.031
X5.71 Y25.173
X5.711 Y25.197
X5.7 Y25.219
X5.68 Y25.233
G2 X4.628 Y25.721 I1.229 J4.028
X2.28 Y28.199 I4.769 J6.87
X1.127 Y30.37 I9.472 J6.42
G1 X1.076 Y30.509
X1.039 Y30.652
X1.017 Y30.799
X1.009 Y30.947
X1.015 Y31.095
X1.036 Y31.241
X1.072 Y31.385
X1.122 Y31.525
X1.185 Y31.659
G2 X1.861 Y32.83 I19.815 J-10.659
X2.948 Y33.53 I1.276 J-0.789
G1 X2.983 Y33.534
G2 X7.397 Y33.323 I1.64 J-11.97
X9.119 Y32.602 I-1.979 J-7.142
G3 X9.674 Y32.151 I12.753 J15.135
G1 X9.696 Y32.141
X9.72 Y32.142
X9.741 Y32.155
X9.845 Y32.259
X9.858 Y32.28
X9.859 Y32.304
X9.849 Y32.326
G2 X9.187 Y33.264 I3.096 J2.889
X8.387 Y36.595 I7.563 J3.576
X8.474 Y39.051 I11.43 J0.824
G1 X8.5 Y39.197
X8.54 Y39.339
X8.593 Y39.478
X8.66 Y39.61
X8.74 Y39.735
X8.832 Y39.851
X8.935 Y39.958
X9.048 Y40.054
X9.17 Y40.139
G2 X10.341 Y40.815 I11.83 J-19.139
X11.632 Y40.877 I0.711 J-1.321
G1 X11.664 Y40.863
G2 X15.352 Y38.502 I-4.58 J-11.213
X16.502 Y37.007 I-5.315 J-5.28
G3 X16.767 Y36.32 I153.319 J58.723
G1 X16.781 Y36.301
X16.803 Y36.29
X16.827
X16.969 Y36.328
X16.99 Y36.34
X17.004 Y36.36
X17.006 Y36.384
G2 X16.901 Y37.53 I4.116 J0.952
X17.891 Y40.844 I8.355 J-0.689
X19.178 Y42.896 I10.287 J-5.026
G1 X19.273 Y43.009
X19.379 Y43.113
X19.494 Y43.206
X19.618 Y43.287
X19.75 Y43.355
X19.888 Y43.41
X20.03 Y43.451
X20.176 Y43.478
X20.324 Y43.49
G2 X21.676 Y43.49 I0.676 J-22.49
X22.825 Y42.899 I-0.045 J-1.499
G1 X22.847 Y42.87
G2 X24.86 Y38.98 I-9.581 J-7.425
X25.108 Y37.109 I-7.242 J-1.912
G3 X24.994 Y36.384 I95.075 J-15.328
G1 X24.996 Y36.36
X25.01 Y36.34
X25.031 Y36.328
X25.173 Y36.29
X25.197 Y36.289
X25.219 Y36.3
X25.233 Y36.32
G2 X25.715 Y37.364 I4.054 J-1.239
X28.233 Y39.743 I6.9 J-4.783
X30.37 Y40.873 I6.395 J-9.499
G1 X30.509 Y40.924
X30.652 Y40.961
X30.799 Y40.984
X30.947 Y40.992
X31.095 Y40.985
X31.241 Y40.964
X31.385 Y40.928
X31.525 Y40.878
X31.659 Y40.815
G2 X32.83 Y40.139 I-10.659 J-19.815
X33.53 Y39.052 I-0.789 J-1.276
G1 X33.534 Y39.017
G2 X33.323 Y34.604 I-11.965 J-1.64
X32.591 Y32.865 I-7.032 J1.938
G3 X32.152 Y32.326 I10.553 J-9.056
G1 X32.141 Y32.304
X32.142 Y32.28
X32.155 Y32.259
X32.259 Y32.155
X32.28 Y32.142
X32.304 Y32.141
X32.326 Y32.151
G2 X33.264 Y32.813 I2.889 J-3.096
X36.406 Y33.601 I3.527 J-7.414
X39.051 Y33.525 I0.995 J-11.577
G1 X39.197 Y33.5
X39.34 Y33.46
X39.478 Y33.407
X39.61 Y33.34
X39.735 Y33.26
X39.851 Y33.168
X39.958 Y33.065
X40.054 Y32.952
X40.139 Y32.83
G2 X40.815 Y31.659 I-19.139 J-11.83
X40.877 Y30.368 I-1.321 J-0.711
G1 X40.863 Y30.336
G2 X38.502 Y26.648 I-11.21 J4.579
X37.007 Y25.498 I-5.278 J5.313
G3 X36.32 Y25.233 I60.482 J-157.877
G1 X36.301 Y25.219
X36.289 Y25.197
X36.29 Y25.173
X36.328 Y25.031
X36.34 Y25.01
X36.36 Y24.996
X36.384 Y24.994
G2 X37.53 Y25.099 I0.952 J-4.116
X40.844 Y24.109 I-0.689 J-8.355
X42.896 Y22.822 I-5.026 J-10.287
G1 X43.009 Y22.727
X43.113 Y22.621
X43.206 Y22.506
X43.287 Y22.382
X43.355 Y22.25
X43.41 Y22.112
X43.451 Y21.97
X43.478 Y21.824
X43.49 Y21.676
G2 X43.49 Y20.324 I-22.49 J-0.676
X42.899 Y19.175 I-1.499 J0.045
G1 X42.87 Y19.153
G2 X38.98 Y17.14 I-7.425 J9.581
X37.109 Y16.892 I-1.912 J7.242
G3 X36.384 Y17.006 I-15.327 J-95.069
G1 X36.36 Y17.004
X36.34 Y16.99
X36.328 Y16.969
X36.29 Y16.827
X36.289 Y16.803
X36.3 Y16.781
X36.32 Y16.767
G2 X37.364 Y16.285 I-1.239 J-4.054
X39.743 Y13.767 I-4.783 J-6.9
X40.873 Y11.63 I-9.502 J-6.396
G1 X40.924 Y11.491
X40.961 Y11.348
X40.984 Y11.201
X40.992 Y11.053
X40.985 Y10.905
X40.964 Y10.759
X40.928 Y10.615
X40.878 Y10.475
X40.815 Y10.341
G2 X40.139 Y9.17 I-19.815 J10.659
X39.052 Y8.47 I-1.276 J0.789
G1 X39.016 Y8.466
G2 X34.643 Y8.666 I-1.64 J12.014
X32.881 Y9.398 I1.927 J7.129
G3 X32.326 Y9.849 I-13.746 J-16.361
G1 X32.304 Y9.859
X32.28 Y9.858
X32.259 Y9.845
X32.155 Y9.741
X32.142 Y9.72
X32.141 Y9.696
X32.151 Y9.674
G2 X32.814 Y8.735 I-3.094 J-2.887
X33.608 Y5.484 I-7.488 J-3.551
X33.525 Y2.949 I-11.462 J-0.897
G1 X33.5 Y2.803
X33.46 Y2.66
X33.407 Y2.522
X33.34 Y2.39
X33.26 Y2.265
X33.168 Y2.149
X33.065 Y2.042
X32.952 Y1.946
X32.83 Y1.861
G2 X31.659 Y1.185 I-11.83 J19.139
X30.368 Y1.123 I-0.711 J1.321
G1 X30.335 Y1.137
G2 X26.647 Y3.499 I4.585 J11.222
X25.512 Y4.965 I5.445 J5.385
X25.233 Y5.68 I34.351 J13.825
G1 X25.219 Y5.7
X25.197 Y5.711
X25.173 Y5.71
X25.031 Y5.672
X25.01 Y5.66
X24.996 Y5.64
X24.994 Y5.616
G2 X25.099 Y4.47 I-4.115 J-0.952
X24.159 Y1.255 I-8.258 J0.669
X22.821 Y-0.896 I-10.385 J4.967
G1 X22.727 Y-1.009
X22.621 Y-1.113
X22.505 Y-1.206
X22.381 Y-1.287
X22.25 Y-1.355
X22.112 Y-1.41
X21.97 Y-1.451
X21.824 Y-1.478
X21.676 Y-1.49
G2 X20.324 Y-1.49 I-0.676 J22.49
X19.175 Y-0.899 I0.045 J1.499
G1 X19.153 Y-0.87
G2 X17.14 Y3.02 I9.582 J7.426
X16.892 Y4.891 I7.248 J1.913
G3 X17.006 Y5.616 I-89.504 J14.455
G1 X17.004 Y5.64
X16.99 Y5.66
X16.969 Y5.672
X16.827 Y5.71
X16.803 Y5.711
X16.781 Y5.7
X16.767 Y5.68
G2 X16.279 Y4.628 I-4.028 J1.229
X13.801 Y2.28 I-6.87 J4.769
X11.63 Y1.127 I-6.42 J9.472
G1 X11.491 Y1.076
X11.348 Y1.039
X11.201 Y1.017
X11.053 Y1.009
X10.905 Y1.015
X10.759 Y1.036
X10.615 Y1.072
X10.475 Y1.122
X10.341 Y1.185
G2 X9.17 Y1.861 I10.659 J19.815
X8.47 Y2.948 I0.789 J1.276
G1 X8.466 Y2.984
G2 X8.666 Y7.356 I12.014 J1.64
X9.398 Y9.119 I7.16 J-1.939
G3 X9.849 Y9.674 I-13.779 J11.659
G1 X9.859 Y9.696
X9.858 Y9.72
X9.845 Y9.741
X9.741 Y9.845
X9.72 Y9.858
X9.696 Y9.859
X9.674 Y9.849
G2 X8.735 Y9.186 I-2.887 J3.094
X5.405 Y8.387 I-3.574 J7.56
X2.949 Y8.475 I-0.824 J11.422
G1 X2.803 Y8.5
X2.661 Y8.54
X2.522 Y8.593
X2.39 Y8.66
X2.265 Y8.74
X2.149 Y8.832
X2.042 Y8.935
X1.946 Y9.048
X1.861 Y9.17
Z-8 F333.3
G2 X1.185 Y10.341 I19.139 J11.83 F1000
X1.123 Y11.632 I1.321 J0.711
G1 X1.137 Y11.665
G2 X3.499 Y15.353 I11.222 J-4.585
X4.965 Y16.488 I5.385 J-5.445
X5.68 Y16.767 I13.824 J-34.35
G1 X5.7 Y16.781
X5.711 Y16.803
X5.71 Y16.827
X5.672 Y16.969
X5.66 Y16.99
X5.64 Y17.004
X5.616 Y17.006
G2 X4.47 Y16.901 I-0.952 J4.115
X1.255 Y17.841 I0.669 J8.258
X-0.896 Y19.179 I4.967 J10.385
G1 X-1.009 Y19.273
X-1.113 Y19.379
X-1.206 Y19.495
X-1.287 Y19.619
X-1.355 Y19.75
X-1.41 Y19.888
X-1.451 Y20.03
X-1.478 Y20.176
X-1.49 Y20.324
G2 X-1.49 Y21.676 I22.49 J0.676
X-0.899 Y22.825 I1.499 J-0.045
G1 X-0.87 Y22.847
G2 X3.02 Y24.86 I7.426 J-9.582
X4.891 Y25.108 I1.913 J-7.248
G3 X5.616 Y24.994 I14.455 J89.505
G1 X5.64 Y24.996
X5.66 Y25.01
X5.672 Y25.031
X5.71 Y25.173
X5.711 Y25.197
X5.7 Y25.219
X5.68 Y25.233
G2 X4.628 Y25.721 I1.229 J4.028
X2.28 Y28.199 I4.769 J6.87
X1.127 Y30.37 I9.472 J6.42
G1 X1.076 Y30.509
X1.039 Y30.652
X1.017 Y30.799
X1.009 Y30.947
X1.015 Y31.095
X1.036 Y31.241
X1.072 Y31.385
X1.122 Y31.525
X1.185 Y31.659
G2 X1.861 Y32.83 I19.815 J-10.659
X2.948 Y33.53 I1.276 J-0.789
G1 X2.983 Y33.534
G2 X7.397 Y33.323 I1.64 J-11.97
X9.119 Y32.602 I-1.979 J-7.142
G3 X9.674 Y32.151 I12.753 J15.135
G1 X9.696 Y32.141
X9.72 Y32.142
X9.741 Y32.155
X9.845 Y32.259
X9.858 Y32.28
X9.859 Y32.304
X9.849 Y32.326
G2 X9.187 Y33.264 I3.096 J2.889
X8.387 Y36.595 I7.563 J3.576
X8.474 Y39.051 I11.43 J0.824
G1 X8.5 Y39.197
X8.54 Y39.339
X8.593 Y39.478
X8.66 Y39.61
X8.74 Y39.735
X8.832 Y39.851
X8.935 Y39.958
X9.048 Y40.054
X9.17 Y40.139
G2 X10.341 Y40.815 I11.83 J-19.139
X11.632 Y40.877 I0.711 J-1.321
G1 X11.664 Y40.863
G2 X15.352 Y38.502 I-4.58 J-11.213
X16.502 Y37.007 I-5.315 J-5.28
G3 X16.767 Y36.32 I153.319 J58.723
G1 X16.781 Y36.301
X16.803 Y36.29
X16.827
X16.969 Y36.328
X16.99 Y36.34
X17.004 Y36.36
X17.006 Y36.384
G2 X16.901 Y37.53 I4.116 J0.952
X17.891 Y40.844 I8.355 J-0.689
X19.178 Y42.896 I10.287 J-5.026
G1 X19.273 Y43.009
X19.379 Y43.113
X19.494 Y43.206
X19.618 Y43.287
X19.75 Y43.355
X19.888 Y43.41
X20.03 Y43.451
X20.176 Y43.478
X20.324 Y43.49
G2 X21.676 Y43.49 I0.676 J-22.49
X22.825 Y42.899 I-0.045 J-1.499
G1 X22.847 Y42.87
G2 X24.86 Y38.98 I-9.581 J-7.425
X25.108 Y37.109 I-7.242 J-1.912
G3 X24.994 Y36.384 I95.075 J-15.328
G1 X24.996 Y36.36
X25.01 Y36.34
X25.031 Y36.328
X25.173 Y36.29
X25.197 Y36.289
X25.219 Y36.3
X25.233 Y36.32
G2 X25.715 Y37.364 I4.054 J-1.239
X28.233 Y39.743 I6.9 J-4.783
X30.37 Y40.873 I6.395 J-9.499
G1 X30.509 Y40.924
X30.652 Y40.961
X30.799 Y40.984
X30.947 Y40.992
X31.095 Y40.985
X31.241 Y40.964
X31.385 Y40.928
X31.525 Y40.878
X31.659 Y40.815
G2 X32.83 Y40.139 I-10.659 J-19.815
X33.53 Y39.052 I-0.789 J-1.276
G1 X33.534 Y39.017
G2 X33.323 Y34.604 I-11.965 J-1.64
X32.591 Y32.865 I-7.032 J1.938
G3 X32.152 Y32.326 I10.553 J-9.056
G1 X32.141 Y32.304
X32.142 Y32.28
X32.155 Y32.259
X32.259 Y32.155
X32.28 Y32.142
X32.304 Y32.141
X32.326 Y32.151
G2 X33.264 Y32.813 I2.889 J-3.096
X36.406 Y33.601 I3.527 J-7.414
X39.051 Y33.525 I0.995 J-11.577
G1 X39.197 Y33.5
X39.34 Y33.46
X39.478 Y33.407
X39.61 Y33.34
X39.735 Y33.26
X39.851 Y33.168
X39.958 Y33.065
X40.054 Y32.952
X40.139 Y32.83
G2 X40.815 Y31.659 I-19.139 J-11.83
X40.877 Y30.368 I-1.321 J-0.711
G1 X40.863 Y30.336
G2 X38.502 Y26.648 I-11.21 J4.579
X37.007 Y25.498 I-5.278 J5.313
G3 X36.32 Y25.233 I60.482 J-157.877
G1 X36.301 Y25.219
X36.289 Y25.197
X36.29 Y25.173
X36.328 Y25.031
X36.34 Y25.01
X36.36 Y24.996
X36.384 Y24.994
G2 X37.53 Y25.099 I0.952 J-4.116
X40.844 Y24.109 I-0.689 J-8.355
X42.896 Y22.822 I-5.026 J-10.287
G1 X43.009 Y22.727
X43.113 Y22.621
X43.206 Y22.506
X43.287 Y22.382
X43.355 Y22.25
X43.41 Y22.112
X43.451 Y21.97
X43.478 Y21.824
X43.49 Y21.676
G2 X43.49 Y20.324 I-22.49 J-0.676
X42.899 Y19.175 I-1.499 J0.045
G1 X42.87 Y19.153
G2 X38.98 Y17.14 I-7.425 J9.581
X37.109 Y16.892 I-1.912 J7.242
G3 X36.384 Y17.006 I-15.327 J-95.069
G1 X36.36 Y17.004
X36.34 Y16.99
X36.328 Y16.969
X36.29 Y16.827
X36.289 Y16.803
X36.3 Y16.781
X36.32 Y16.767
G2 X37.364 Y16.285 I-1.239 J-4.054
X39.743 Y13.767 I-4.783 J-6.9
X40.873 Y11.63 I-9.502 J-6.396
G1 X40.924 Y11.491
X40.961 Y11.348
X40.984 Y11.201
X40.992 Y11.053
X40.985 Y10.905
X40.964 Y10.759
X40.928 Y10.615
