(1001)
(Machine)
(  vendor: Autodesk)
(  description: Generic 3-axis)
(T3  D=3 CR=0 - ZMIN=-9.95 - flat end mill)
G90 G94
G17
G21

(Drill1)
T3
S1000 M3
G54
M8
G0 X113.12 Y81.67
Z15
Z5
G1 Z0 F200
G0 Z5
X81.24 Y88.686
G1 Z0 F200
G0 Z5
Y59.37
G1 Z0 F200
G0 Z5
Y53.37
G1 Z0 F200
G0 Z5
Y24.054
G1 Z0 F200
G0 Z5
X113.12 Y30.37
G1 Z0 F200
G0 Z5
X57.538 Y0
G1 Z0 F200
G0 Z5
X23.702
G1 Z0 F200
G0 Z5
X0 Y24.054
G1 Z0 F200
G0 Z5
Y53.37
G1 Z0 F200
G0 Z5
Y59.37
G1 Z0 F200
G0 Z5
Y88.686
G1 Z0 F200
G0 Z5
X23.702 Y112.74
G1 Z0 F200
G0 Z5
X57.538
G1 Z0 F200
G0 Z5
Z15

(2D Adaptive2)
X13.868 Y56.734
Z15
Z5
Z-0.4
G1 Z-0.7 F200
X13.864 Y56.728 Z-0.767
X13.853 Y56.709 Z-0.83
X13.835 Y56.678 Z-0.887
X13.811 Y56.637 Z-0.935
X13.781 Y56.588 Z-0.97
X13.749 Y56.534 Z-0.992
X13.715 Y56.476 Z-1
G3 X13.25 Y54.893 I2.858 J-1.699
G1 Y54.722
X13.252 Y54.684
X13.34 Y54.563
X13.446 Y54.456
X13.562 Y54.362
X13.687 Y54.278
X13.817 Y54.203
X13.951 Y54.136
X14.089 Y54.077
X14.229 Y54.024
X14.371 Y53.976
X14.515 Y53.934
X14.66 Y53.896
X14.806 Y53.861
X14.953 Y53.831
X15.101 Y53.803
X15.249 Y53.779
X15.397 Y53.757
X15.546 Y53.737
X15.695 Y53.719
X15.844 Y53.703
X15.993 Y53.689
X16.142 Y53.676
X16.292 Y53.664
X16.448 Y53.654
X16.622 Y53.643
X16.821 Y53.632
X17.05 Y53.621
X17.322 Y53.61
X17.656 Y53.599
X18.088 Y53.589
X18.697 Y53.578
X19.321 Y53.571
X19.945 Y53.567
X21.193 Y53.564
X23.923 Y53.562
X24.391
X24.543 Y53.528
X24.684 Y53.46
X24.806 Y53.363
X24.904 Y53.242
X24.972 Y53.102
X25.008 Y52.95
X25.009 Y52.794
X24.976 Y52.641
X24.71 Y52.077
X24.481 Y51.752
X24.171 Y51.306
X23.819 Y50.791
X23.469 Y50.274
X23.211 Y49.891
X23.129 Y49.765
X23.049 Y49.639
X22.97 Y49.511
X22.892 Y49.383
X22.816 Y49.254
X22.74 Y49.124
X22.659 Y48.982
X22.569 Y48.822
X22.468 Y48.637
X22.351 Y48.421
X22.212 Y48.161
X22.041 Y47.835
X21.882 Y47.524
X21.814 Y47.39
X21.748 Y47.255
X21.685 Y47.119
X21.623 Y46.983
X21.562 Y46.845
X21.503 Y46.707
X21.446 Y46.569
X21.387 Y46.427
X21.323 Y46.267
X21.252 Y46.085
X21.172 Y45.874
X21.078 Y45.625
X20.967 Y45.32
X20.83 Y44.939
X20.78 Y44.797
X20.733 Y44.655
X20.688 Y44.512
X20.644 Y44.368
X20.603 Y44.224
X20.562 Y44.08
X20.523 Y43.935
X20.486 Y43.79
X20.445 Y43.628
X20.4 Y43.444
X20.35 Y43.233
X20.293 Y42.985
X20.226 Y42.685
X20.145 Y42.305
X20.115 Y42.158
X20.085 Y42.011
X20.059 Y41.863
X20.034 Y41.715
X20.011 Y41.567
X19.989 Y41.419
X19.969 Y41.27
X19.95 Y41.121
X19.932 Y40.966
X19.913 Y40.792
X19.893 Y40.594
X19.871 Y40.365
X19.847 Y40.094
X19.82 Y39.76
X19.795 Y39.413
X19.785 Y39.264
X19.777 Y39.114
X19.772 Y38.964
X19.769 Y38.814
X19.767 Y38.664
X19.766 Y38.514
X19.768 Y38.364
X19.77 Y38.213
X19.774 Y38.045
X19.779 Y37.855
X19.788 Y37.636
X19.799 Y37.379
X19.815 Y37.068
X19.839 Y36.673
X19.849 Y36.524
X19.86 Y36.374
X19.874 Y36.225
X19.89 Y36.076
X19.908 Y35.927
X19.927 Y35.778
X19.948 Y35.629
X19.97 Y35.481
X19.994 Y35.323
X20.023 Y35.146
X20.057 Y34.944
X20.099 Y34.71
X20.151 Y34.431
X20.218 Y34.086
X20.273 Y33.81
X20.304 Y33.664
X20.337 Y33.517
X20.372 Y33.371
X20.408 Y33.226
X20.447 Y33.081
X20.487 Y32.936
X20.528 Y32.792
X20.571 Y32.646
X20.62 Y32.483
X20.677 Y32.298
X20.744 Y32.087
X20.826 Y31.838
X20.927 Y31.536
X21.058 Y31.152
X21.108 Y31.01
X21.159 Y30.87
X21.213 Y30.73
X21.269 Y30.59
X21.326 Y30.452
X21.385 Y30.314
X21.445 Y30.176
X21.506 Y30.039
X21.574 Y29.888
X21.653 Y29.719
X21.744 Y29.525
X21.853 Y29.299
X21.986 Y29.027
X22.156 Y28.687
X22.234 Y28.533
X22.303 Y28.4
X22.374 Y28.268
X22.447 Y28.137
X22.521 Y28.007
X22.597 Y27.877
X22.674 Y27.749
X22.752 Y27.621
X22.834 Y27.489
X22.927 Y27.343
X23.033 Y27.177
X23.157 Y26.987
X23.306 Y26.763
X23.49 Y26.491
X23.7 Y26.185
X23.785 Y26.062
X23.873 Y25.94
X23.962 Y25.82
X24.053 Y25.7
X24.145 Y25.582
X24.239 Y25.465
X24.333 Y25.348
X24.429 Y25.232
X24.537 Y25.103
X24.659 Y24.959
X24.801 Y24.794
X24.97 Y24.602
X25.175 Y24.371
X25.437 Y24.08
X25.539 Y23.969
X25.641 Y23.859
X25.745 Y23.751
X25.85 Y23.645
X25.957 Y23.539
X26.065 Y23.435
X26.173 Y23.332
X26.283 Y23.229
X26.399 Y23.122
X26.531 Y23.004
X26.681 Y22.87
X26.856 Y22.715
X27.066 Y22.534
X27.327 Y22.312
X27.569 Y22.108
X27.685 Y22.012
X27.802 Y21.918
X27.92 Y21.826
X28.04 Y21.735
X28.16 Y21.646
X28.282 Y21.558
X28.404 Y21.471
X28.528 Y21.384
X28.668 Y21.288
X28.826 Y21.18
X29.009 Y21.058
X29.226 Y20.915
X29.491 Y20.744
X29.828 Y20.529
X29.955 Y20.45
X30.083 Y20.372
X30.213 Y20.296
X30.343 Y20.221
X30.909 Y19.959
X31.478 Y19.704
X32.05 Y19.453
X32.622 Y19.204
X33.2 Y18.969
X33.789 Y18.764
X34.384 Y18.575
X34.982 Y18.396
X35.581 Y18.223
X36.189 Y18.084
X36.802 Y17.969
X37.418 Y17.867
X38.035 Y17.773
X38.654 Y17.698
X39.277 Y17.655
X39.9 Y17.631
X40.524 Y17.617
X41.148 Y17.609
X41.771 Y17.638
X42.393 Y17.691
X43.013 Y17.757
X43.633 Y17.831
X44.25 Y17.924
X44.861 Y18.05
X45.468 Y18.193
X46.073 Y18.346
X46.677 Y18.504
X47.269 Y18.699
X47.854 Y18.916
X48.435 Y19.146
X49.012 Y19.382
X49.581 Y19.638
X50.137 Y19.922
X50.684 Y20.222
X51.226 Y20.531
X51.765 Y20.845
X52.284 Y21.191
X52.789 Y21.557
X53.287 Y21.933
X53.781 Y22.315
X54.261 Y22.714
X54.72 Y23.136
X55.167 Y23.571
X55.607 Y24.013
X56.043 Y24.46
X56.45 Y24.933
X56.84 Y25.42
X57.219 Y25.915
X57.593 Y26.415
X57.948 Y26.928
X58.278 Y27.458
X58.593 Y27.997
X58.899 Y28.54
X59.2 Y29.087
X59.465 Y29.651
X59.71 Y30.225
X59.944 Y30.804
X60.171 Y31.385
X60.376 Y31.974
X60.551 Y32.573
X60.711 Y33.176
X60.861 Y33.782
X61.004 Y34.389
X61.109 Y35.004
X61.192 Y35.623
X61.263 Y36.243
X61.327 Y36.863
X61.366 Y37.486
X61.376 Y38.11
X61.368 Y38.734
X61.351 Y39.357
X61.326 Y39.981
X61.263 Y40.602
X61.178 Y41.22
X61.081 Y41.836
X60.976 Y42.451
X60.848 Y43.062
X60.69 Y43.665
X60.516 Y44.265
X60.334 Y44.861
X60.143 Y45.455
X60.074 Y45.673
X60.027 Y45.815
X59.977 Y45.957
X59.926 Y46.098
X59.873 Y46.238
X59.819 Y46.378
X59.764 Y46.517
X59.704 Y46.665
X59.636 Y46.83
X59.557 Y47.018
X59.463 Y47.235
X59.372 Y47.442
X59.311 Y47.579
X59.247 Y47.715
X59.182 Y47.85
X59.114 Y47.983
X59.045 Y48.117
X58.974 Y48.249
X58.902 Y48.38
X58.829 Y48.511
X58.752 Y48.646
X58.665 Y48.796
X58.565 Y48.965
X58.449 Y49.16
X58.309 Y49.389
X58.136 Y49.668
X57.991 Y49.899
X57.91 Y50.025
X57.827 Y50.15
X57.743 Y50.274
X57.657 Y50.397
X57.569 Y50.519
X57.48 Y50.64
X57.391 Y50.76
X57.299 Y50.88
X57.197 Y51.012
X57.08 Y51.161
X56.944 Y51.332
X56.784 Y51.53
X56.587 Y51.769
X56.274 Y52.143
X56.202 Y52.282
X56.163 Y52.433
X56.159 Y52.589
X56.188 Y52.742
X56.252 Y52.884
X56.345 Y53.01
X56.463 Y53.111
X56.739 Y53.256
X57.35 Y53.383
X57.97 Y53.457
X58.592 Y53.501
X59.215 Y53.527
X59.839 Y53.541
X60.463 Y53.55
X61.087 Y53.555
X61.711 Y53.558
X62.959 Y53.561
X66.703 Y53.562
X67.29
X67.506 Y53.596
X67.701 Y53.696
X67.856 Y53.851
X67.956 Y54.046
X67.99 Y54.262
G0 Z5
X13.625 Y55.733
Z-0.4
G1 Z-0.7 F200
X13.621 Y55.727 Z-0.767
X13.609 Y55.707 Z-0.83
X13.591 Y55.677 Z-0.887
X13.567 Y55.636 Z-0.935
X13.538 Y55.587 Z-0.97
X13.505 Y55.532 Z-0.992
X13.471 Y55.475 Z-1
G3 X13.25 Y54.722 I1.36 J-0.809
G1 Y54.291
X13.257 Y54.141
X13.317 Y54.004
X13.393 Y53.874
X13.482 Y53.754
X13.583 Y53.64
X13.709 Y53.52
X13.861 Y53.396
X14.049 Y53.267
X14.28 Y53.134
X14.568 Y52.997
X14.935 Y52.859
X15.421 Y52.718
X16.032 Y52.594
X16.651 Y52.513
X17.273 Y52.459
X17.896 Y52.424
X18.519 Y52.402
X19.143 Y52.387
X19.767 Y52.378
X20.391 Y52.372
X21.249 Y52.367
X21.405
X21.557 Y52.332
X21.697 Y52.264
X21.819 Y52.167
X21.916 Y52.045
X21.984 Y51.904
X22.055 Y51.6
X21.994 Y50.979
X21.827 Y50.378
X21.603 Y49.796
X21.351 Y49.225
X21.085 Y48.661
X20.822 Y48.095
X20.568 Y47.525
X20.327 Y46.949
X20.097 Y46.369
X19.878 Y45.785
X19.677 Y45.195
X19.495 Y44.598
X19.33 Y43.996
X19.179 Y43.391
X19.042 Y42.782
X18.926 Y42.169
X18.829 Y41.552
X18.75 Y40.934
X18.685 Y40.313
X18.635 Y39.691
X18.607 Y39.068
X18.599 Y38.444
X18.607 Y37.82
X18.629 Y37.196
X18.669 Y36.574
X18.73 Y35.953
X18.81 Y35.334
X18.905 Y34.717
X19.014 Y34.103
X19.142 Y33.492
X19.291 Y32.886
X19.457 Y32.285
X19.638 Y31.688
X19.832 Y31.095
X20.046 Y30.509
X20.279 Y29.93
X20.529 Y29.358
X20.791 Y28.792
X21.068 Y28.233
X21.363 Y27.683
X21.676 Y27.143
X22.003 Y26.612
X22.341 Y26.088
X22.694 Y25.573
X23.065 Y25.071
X23.451 Y24.581
X23.849 Y24.101
X24.258 Y23.629
X24.681 Y23.17
X25.119 Y22.726
X25.57 Y22.296
X26.032 Y21.876
X26.503 Y21.466
X26.987 Y21.072
X27.484 Y20.695
X27.991 Y20.332
X28.506 Y19.98
X29.03 Y19.642
X29.573 Y19.333
X30.127 Y19.046
X30.688 Y18.774
X31.254 Y18.512
X31.825 Y18.26
X32.403 Y18.023
X32.987 Y17.805
X33.577 Y17.601
X34.17 Y17.409
X34.769 Y17.232
X35.373 Y17.075
X35.981 Y16.937
X36.593 Y16.816
X37.208 Y16.709
X37.825 Y16.617
X38.445 Y16.547
X39.067 Y16.497
X39.69 Y16.463
X40.314 Y16.44
X40.937 Y16.439
X41.561 Y16.459
X42.184 Y16.498
X42.805 Y16.552
X43.426 Y16.62
X44.043 Y16.708
X44.658 Y16.817
X45.269 Y16.943
X45.877 Y17.082
X46.482 Y17.236
X47.08 Y17.412
X47.673 Y17.607
X48.26 Y17.818
X48.843 Y18.041
X49.419 Y18.281
X49.986 Y18.54
X50.545 Y18.817
X51.097 Y19.108
X51.644 Y19.409
X52.18 Y19.729
X52.704 Y20.068
X53.217 Y20.422
X53.723 Y20.787
X54.22 Y21.165
X54.704 Y21.559
X55.174 Y21.969
X55.633 Y22.391
X56.084 Y22.823
X56.523 Y23.267
X56.946 Y23.725
X57.353 Y24.198
X57.748 Y24.68
X58.133 Y25.172
X58.503 Y25.674
X58.856 Y26.189
X59.193 Y26.714
X59.516 Y27.247
X59.83 Y27.787
X60.125 Y28.337
X60.4 Y28.897
X60.658 Y29.465
X60.904 Y30.038
X61.135 Y30.618
X61.347 Y31.205
X61.54 Y31.798
X61.716 Y32.397
X61.88 Y32.999
X62.028 Y33.605
X62.154 Y34.216
X62.261 Y34.831
X62.351 Y35.448
X62.428 Y36.067
X62.487 Y36.688
X62.525 Y37.311
X62.543 Y37.935
X62.546 Y38.559
X62.537 Y39.183
X62.507 Y39.806
X62.454 Y40.427
X62.383 Y41.047
X62.299 Y41.666
X62.199 Y42.281
X62.079 Y42.894
X61.938 Y43.502
X61.782 Y44.106
X61.612 Y44.706
X61.434 Y45.304
X61.242 Y45.898
X61.032 Y46.485
X60.807 Y47.067
X60.565 Y47.642
X60.302 Y48.208
X60.018 Y48.764
X59.718 Y49.311
X59.404 Y49.85
X59.076 Y50.381
X58.989 Y50.51
X58.901 Y50.639
X58.844 Y50.784
X58.821 Y50.939
X58.832 Y51.094
X58.878 Y51.243
X58.955 Y51.379
X59.166 Y51.609
X59.714 Y51.908
X60.31 Y52.092
X60.924 Y52.203
X61.544 Y52.269
X62.167 Y52.308
X62.791 Y52.33
X63.414 Y52.344
X64.038 Y52.351
X64.662 Y52.356
X65.286 Y52.358
X66.527 Y52.362
X66.828 Y52.387
X67.105 Y52.433
X67.306 Y52.483
X67.509 Y52.551
X67.566 Y52.576
X67.739 Y52.682
X67.874 Y52.834
X67.96 Y53.018
X67.99 Y53.219
Y53.313
G0 Z5
X13.625 Y55.303
Z-0.4
G1 Z-0.7 F200
X13.621 Y55.296 Z-0.767
X13.609 Y55.277 Z-0.83
X13.591 Y55.246 Z-0.887
X13.567 Y55.206 Z-0.935
X13.538 Y55.157 Z-0.97
X13.505 Y55.102 Z-0.992
X13.471 Y55.045 Z-1
G3 X13.25 Y54.291 I1.36 J-0.809
G1 Y53.618
X13.257 Y53.468
X13.291 Y53.322
X13.344 Y53.181
X13.411 Y53.047
X13.49 Y52.92
X13.589 Y52.786
X13.712 Y52.646
X13.858 Y52.504
X14.05 Y52.345
X14.26 Y52.199
X14.543 Y52.032
X14.86 Y51.88
X15.278 Y51.718
X15.809 Y51.56
X16.42 Y51.431
X17.037 Y51.342
X17.658 Y51.282
X18.281 Y51.242
X18.904 Y51.215
X19.06 Y51.21
X19.211 Y51.171
X19.35 Y51.1
X19.469 Y50.999
X19.563 Y50.875
X19.692 Y50.591
X19.792 Y49.975
X19.742 Y49.353
X19.608 Y48.743
X19.43 Y48.146
X19.23 Y47.554
X19.022 Y46.966
X18.817 Y46.377
X18.622 Y45.784
X18.439 Y45.188
X18.268 Y44.587
X18.111 Y43.984
X17.969 Y43.376
X17.844 Y42.765
X17.736 Y42.15
X17.643 Y41.533
X17.566 Y40.914
X17.505 Y40.293
X17.462 Y39.671
X17.436 Y39.047
X17.427 Y38.423
X17.433 Y37.8
X17.456 Y37.176
X17.496 Y36.553
X17.554 Y35.932
X17.628 Y35.313
X17.718 Y34.695
X17.824 Y34.08
X17.948 Y33.469
X18.089 Y32.861
X18.246 Y32.257
X18.418 Y31.657
X18.606 Y31.062
X18.811 Y30.473
X19.032 Y29.89
X19.269 Y29.312
X19.52 Y28.741
X19.786 Y28.177
X20.067 Y27.62
X20.365 Y27.071
X20.677 Y26.531
X21.002 Y25.998
X21.34 Y25.474
X21.694 Y24.96
X22.062 Y24.456
X22.443 Y23.963
X22.837 Y23.478
X23.243 Y23.005
X23.663 Y22.543
X24.095 Y22.093
X24.54 Y21.656
X24.995 Y21.229
X25.461 Y20.814
X25.939 Y20.413
X26.428 Y20.025
X26.927 Y19.651
X27.435 Y19.289
X27.954 Y18.942
X28.485 Y18.615
X29.028 Y18.306
X29.579 Y18.014
X30.137 Y17.736
X30.702 Y17.47
X31.272 Y17.217
X31.849 Y16.98
X32.432 Y16.756
X33.02 Y16.547
X33.612 Y16.351
X34.209 Y16.171
X34.812 Y16.008
X35.418 Y15.861
X36.028 Y15.73
X36.641 Y15.614
X37.257 Y15.514
X37.876 Y15.432
X38.496 Y15.368
X39.118 Y15.319
X39.741 Y15.285
X40.365 Y15.268
X40.989 Y15.271
X41.613 Y15.29
X42.235 Y15.326
X42.857 Y15.377
X43.478 Y15.445
X44.096 Y15.531
X44.711 Y15.635
X45.323 Y15.753
X45.933 Y15.887
X46.538 Y16.038
X47.139 Y16.207
X47.735 Y16.392
X48.326 Y16.593
X48.911 Y16.808
X49.491 Y17.039
X50.063 Y17.287
X50.629 Y17.551
X51.187 Y17.829
X51.739 Y18.12
X52.283 Y18.427
X52.817 Y18.749
X53.341 Y19.087
X53.857 Y19.438
X54.364 Y19.802
X54.861 Y20.179
X55.347 Y20.571
X55.821 Y20.976
X56.286 Y21.393
X56.739 Y21.821
X57.181 Y22.262
X57.609 Y22.715
X58.025 Y23.181
X58.429 Y23.656
X58.82 Y24.142
X59.198 Y24.639
X59.562 Y25.146
X59.911 Y25.663
X60.247 Y26.188
X60.571 Y26.722
X60.879 Y27.264
X61.171 Y27.816
X61.447 Y28.375
X61.709 Y28.941
X61.957 Y29.514
X62.189 Y30.093
X62.404 Y30.679
X62.603 Y31.271
X62.786 Y31.867
X62.955 Y32.467
X63.107 Y33.073
X63.241 Y33.682
X63.358 Y34.295
X63.46 Y34.91
X63.546 Y35.528
X63.615 Y36.149
X63.666 Y36.77
X63.699 Y37.393
X63.718 Y38.017
X63.72 Y38.641
X63.706 Y39.265
X63.672 Y39.888
X63.622 Y40.51
X63.556 Y41.13
X63.473 Y41.749
X63.374 Y42.365
X63.258 Y42.978
X63.124 Y43.587
X62.975 Y44.193
X62.813 Y44.796
X62.639 Y45.395
X62.451 Y45.99
X62.248 Y46.58
X62.03 Y47.164
X61.796 Y47.743
X61.543 Y48.313
X61.273 Y48.876
X61.13 Y49.153
X61.057 Y49.291
X61.017 Y49.442
X61.01 Y49.597
X61.039 Y49.751
X61.1 Y49.894
X61.284 Y50.146
X61.773 Y50.534
X62.346 Y50.78
X62.951 Y50.933
X63.568 Y51.025
X64.19 Y51.081
X64.813 Y51.114
X65.437 Y51.134
X66.06 Y51.157
X66.593 Y51.208
X66.941 Y51.27
X67.235 Y51.347
X67.443 Y51.42
X67.573 Y51.477
X67.744 Y51.584
X67.877 Y51.735
X67.961 Y51.918
X67.99 Y52.117
Y53.219
G0 Z5
X13.625 Y54.629
Z-0.4
G1 Z-0.7 F200
X13.621 Y54.623 Z-0.767
X13.609 Y54.604 Z-0.83
X13.591 Y54.573 Z-0.887
X13.567 Y54.532 Z-0.935
X13.538 Y54.483 Z-0.97
X13.505 Y54.429 Z-0.992
X13.471 Y54.371 Z-1
G3 X13.25 Y53.618 I1.36 J-0.809
G1 Y52.733
X13.257 Y52.583
X13.286 Y52.435
X13.33 Y52.292
X13.39 Y52.155
X13.461 Y52.022
X13.557 Y51.875
X13.669 Y51.728
X13.814 Y51.568
X13.988 Y51.404
X14.201 Y51.233
X14.462 Y51.057
X14.773 Y50.881
X15.152 Y50.705
X15.631 Y50.528
X16.232 Y50.36
X16.844 Y50.239
X16.999 Y50.218
X17.145 Y50.163
X17.275 Y50.077
X17.491 Y49.852
X17.793 Y49.306
X17.891 Y48.69
X17.864 Y48.066
X17.764 Y47.45
X17.625 Y46.842
X17.469 Y46.238
X17.308 Y45.635
X17.148 Y45.032
X16.997 Y44.427
X16.856 Y43.819
X16.73 Y43.208
X16.617 Y42.594
X16.519 Y41.978
X16.435 Y41.36
X16.367 Y40.739
X16.315 Y40.118
X16.279 Y39.495
X16.258 Y38.871
X16.253 Y38.247
X16.264 Y37.623
X16.291 Y37
X16.334 Y36.378
X16.393 Y35.756
X16.468 Y35.137
X16.558 Y34.519
X16.664 Y33.905
X16.786 Y33.293
X16.924 Y32.684
X17.077 Y32.079
X17.246 Y31.479
X17.43 Y30.882
X17.629 Y30.291
X17.845 Y29.706
X18.074 Y29.126
X18.318 Y28.551
X18.577 Y27.984
X18.85 Y27.423
X19.138 Y26.869
X19.44 Y26.323
X19.755 Y25.784
X20.084 Y25.254
X20.426 Y24.732
X20.782 Y24.22
X21.151 Y23.717
X21.532 Y23.223
X21.926 Y22.738
X22.332 Y22.265
X22.75 Y21.802
X23.18 Y21.35
X23.622 Y20.909
X24.074 Y20.479
X24.537 Y20.061
X25.012 Y19.656
X25.497 Y19.263
X25.991 Y18.883
X26.495 Y18.515
X27.01 Y18.162
X27.535 Y17.826
X28.07 Y17.505
X28.615 Y17.2
X29.166 Y16.909
X29.725 Y16.631
X30.29 Y16.367
X30.862 Y16.116
X31.439 Y15.879
X32.021 Y15.655
X32.609 Y15.444
X33.201 Y15.248
X33.798 Y15.067
X34.4 Y14.902
X35.005 Y14.751
X35.614 Y14.615
X36.226 Y14.494
X36.841 Y14.39
X37.459 Y14.302
X38.079 Y14.229
X38.7 Y14.171
X39.322 Y14.13
X39.946 Y14.104
X40.57 Y14.095
X41.194 Y14.103
X41.817 Y14.125
X42.44 Y14.164
X43.062 Y14.219
X43.681 Y14.29
X44.299 Y14.377
X44.915 Y14.479
X45.528 Y14.597
X46.137 Y14.73
X46.743 Y14.879
X47.344 Y15.045
X47.942 Y15.225
X48.534 Y15.421
X49.121 Y15.632
X49.703 Y15.858
X50.278 Y16.1
X50.847 Y16.356
X51.41 Y16.625
X51.965 Y16.909
X52.513 Y17.208
X53.053 Y17.521
X53.585 Y17.848
X54.108 Y18.188
X54.622 Y18.541
X55.127 Y18.907
X55.622 Y19.287
X56.108 Y19.679
X56.583 Y20.083
X57.048 Y20.499
X57.503 Y20.926
X57.946 Y21.366
X58.377 Y21.817
X58.796 Y22.279
X59.204 Y22.751
X59.599 Y23.234
X59.982 Y23.727
X60.351 Y24.23
X60.708 Y24.742
X61.051 Y25.262
X61.382 Y25.792
X61.699 Y26.329
X62.001 Y26.875
X62.289 Y27.429
X62.563 Y27.989
X62.823 Y28.556
X63.068 Y29.13
X63.297 Y29.71
X63.512 Y30.296
X63.712 Y30.887
X63.897 Y31.483
X64.068 Y32.083
X64.222 Y32.688
X64.36 Y33.296
X64.482 Y33.908
X64.589 Y34.523
X64.68 Y35.14
X64.755 Y35.76
X64.813 Y36.381
X64.856 Y37.003
X64.883 Y37.627
X64.895 Y38.251
X64.89 Y38.875
X64.869 Y39.498
X64.831 Y40.121
X64.778 Y40.743
X64.709 Y41.363
X64.625 Y41.981
X64.524 Y42.597
X64.407 Y43.21
X64.275 Y43.819
X64.129 Y44.426
X63.97 Y45.029
X63.798 Y45.629
X63.612 Y46.225
X63.413 Y46.816
X63.198 Y47.402
X63.083 Y47.692
X62.963 Y47.98
X62.936 Y48.133
X62.943 Y48.289
X62.985 Y48.439
X63.133 Y48.714
X63.558 Y49.171
X64.104 Y49.473
X64.698 Y49.665
X65.309 Y49.789
X65.925 Y49.887
X66.54 Y49.995
X66.976 Y50.099
X67.298 Y50.203
X67.519 Y50.295
X67.61 Y50.342
X67.766 Y50.451
X67.887 Y50.6
X67.964 Y50.775
X67.99 Y50.964
Y52.117
G0 Z5
X13.625 Y53.744
Z-0.4
G1 Z-0.7 F200
X13.621 Y53.737 Z-0.767
X13.609 Y53.718 Z-0.83
X13.591 Y53.688 Z-0.887
X13.567 Y53.647 Z-0.935
X13.538 Y53.598 Z-0.97
X13.505 Y53.543 Z-0.992
X13.471 Y53.486 Z-1
G3 X13.25 Y52.733 I1.36 J-0.809
G1 Y51.741
X13.257 Y51.591
X13.285 Y51.443
X13.328 Y51.3
X13.384 Y51.161
X13.458 Y51.018
X13.552 Y50.865
X13.668 Y50.706
X13.818 Y50.534
X13.992 Y50.362
X14.218 Y50.173
X14.475 Y49.991
X14.809 Y49.793
X15.369 Y49.519
X15.621 Y49.334
X15.821 Y49.095
X16.125 Y48.55
X16.252 Y47.94
X16.262 Y47.316
X16.202 Y46.695
X16.101 Y46.079
X15.979 Y45.467
X15.85 Y44.857
X15.722 Y44.246
X15.6 Y43.634
X15.488 Y43.02
X15.388 Y42.404
X15.301 Y41.786
X15.228 Y41.167
X15.169 Y40.546
X15.124 Y39.923
X15.095 Y39.3
X15.08 Y38.676
Y38.052
X15.096 Y37.429
X15.127 Y36.805
X15.172 Y36.183
X15.233 Y35.562
X15.309 Y34.943
X15.4 Y34.326
X15.506 Y33.711
X15.627 Y33.099
X15.763 Y32.49
X15.913 Y31.884
X16.079 Y31.282
X16.259 Y30.685
X16.454 Y30.093
X16.664 Y29.505
X16.888 Y28.923
X17.126 Y28.346
X17.379 Y27.775
X17.645 Y27.211
X17.925 Y26.653
X18.218 Y26.103
X18.524 Y25.559
X18.844 Y25.023
X19.176 Y24.495
X19.521 Y23.975
X19.879 Y23.464
X20.249 Y22.962
X20.631 Y22.468
X21.025 Y21.985
X21.431 Y21.511
X21.849 Y21.047
X22.277 Y20.594
X22.717 Y20.151
X23.167 Y19.718
X23.627 Y19.298
X24.098 Y18.888
X24.579 Y18.491
X25.07 Y18.106
X25.571 Y17.733
X26.081 Y17.375
X26.602 Y17.03
X27.131 Y16.7
X27.669 Y16.385
X28.215 Y16.083
X28.768 Y15.794
X29.328 Y15.518
X29.894 Y15.256
X30.466 Y15.007
X31.044 Y14.77
X31.626 Y14.547
X32.214 Y14.337
X32.806 Y14.14
X33.403 Y13.958
X34.004 Y13.79
X34.608 Y13.636
X35.217 Y13.497
X35.828 Y13.372
X36.442 Y13.263
X36.513 Y13.254
X36.548 Y13.251
X36.583 Y13.25
X43.454
X44.077 Y13.281
X44.7 Y13.321
X45.319 Y13.399
X45.934 Y13.505
X46.544 Y13.633
X47.151 Y13.781
X47.752 Y13.945
X48.35 Y14.125
X48.942 Y14.321
X49.529 Y14.532
X50.111 Y14.757
X50.687 Y14.997
X51.257 Y15.251
X51.821 Y15.518
X52.378 Y15.799
X52.928 Y16.094
X53.47 Y16.402
X54.005 Y16.724
X54.531 Y17.059
X55.05 Y17.407
X55.559 Y17.767
X56.059 Y18.14
X56.551 Y18.524
X57.032 Y18.921
X57.504 Y19.329
X57.966 Y19.748
X58.418 Y20.179
X58.858 Y20.621
X59.288 Y21.073
X59.707 Y21.536
X60.114 Y22.009
X60.509 Y22.492
X60.892 Y22.984
X61.263 Y23.486
X61.622 Y23.996
X61.968 Y24.515
X62.302 Y25.042
X62.622 Y25.578
X62.929 Y26.121
X63.222 Y26.672
X63.502 Y27.23
X63.768 Y27.794
X64.02 Y28.365
X64.258 Y28.942
X64.482 Y29.524
X64.691 Y30.112
X64.887 Y30.704
X65.068 Y31.301
X65.234 Y31.903
X65.385 Y32.508
X65.521 Y33.117
X65.643 Y33.729
X65.749 Y34.344
X65.84 Y34.961
X65.916 Y35.58
X65.977 Y36.201
X66.022 Y36.824
X66.053 Y37.447
X66.069 Y38.071
X66.068 Y38.695
X66.052 Y39.318
X66.021 Y39.942
X65.975 Y40.564
X65.913 Y41.185
X65.836 Y41.804
X65.744 Y42.421
X65.637 Y43.036
X65.516 Y43.648
X65.381 Y44.257
X65.232 Y44.863
X65.071 Y45.465
X64.896 Y46.064
X64.708 Y46.659
X64.695 Y46.815
X64.736 Y47.124
X64.87 Y47.406
X65.253 Y47.898
X65.766 Y48.253
X66.329 Y48.522
X66.908 Y48.755
X67.354 Y48.944
X67.612 Y49.079
X67.663 Y49.112
X67.799 Y49.223
X67.903 Y49.366
X67.968 Y49.529
X67.99 Y49.704
Y50.964
G0 Z5
X42.442 Y13.625
Z-0.4
G1 Z-0.7 F200
X42.449 Y13.621 Z-0.767
X42.468 Y13.609 Z-0.83
X42.499 Y13.591 Z-0.887
X42.539 Y13.567 Z-0.935
X42.588 Y13.538 Z-0.97
X42.643 Y13.505 Z-0.992
X42.7 Y13.471 Z-1
G3 X43.454 Y13.25 I0.809 J1.36
G1 X48.13
X48.672 Y13.277
X49.136 Y13.338
X49.746 Y13.469
X50.344 Y13.647
X50.931 Y13.859
X51.509 Y14.094
X52.079 Y14.348
X52.641 Y14.619
X53.196 Y14.905
X53.743 Y15.205
X54.073 Y15.397
X54.125 Y15.431
X54.175 Y15.469
X54.22 Y15.511
G3 X53.895 Y15.995 I-0.221 J0.203
G1 X48.036 Y13.831
G3 X48.13 Y13.25 I0.104 J-0.281
G1 X51.247
X51.388
X51.431
X51.581 Y13.257
X51.832 Y13.293
X51.979 Y13.33
X52.115 Y13.398
X52.233 Y13.495
G3 X51.937 Y13.988 I-0.221 J0.203
G1 X51.922 Y13.984
X51.367 Y13.84
G3 X51.431 Y13.25 I0.075 J-0.29
G1 X51.814
X51.955 Y13.251
X51.97 Y13.254
X51.986 Y13.258
X52.001 Y13.265
X52.016 Y13.275
X52.575 Y13.842
X62.865 Y24.284
X63.281 Y24.75
X63.66 Y25.239
X64.002 Y25.761
X64.314 Y26.302
X64.604 Y26.854
X64.875 Y27.416
X65.129 Y27.986
X65.368 Y28.562
X65.592 Y29.145
X65.803 Y29.732
X65.999 Y30.324
X66.181 Y30.921
X66.349 Y31.522
X66.503 Y32.127
X66.643 Y32.735
X66.768 Y33.346
X66.879 Y33.96
X66.975 Y34.577
X67.056 Y35.195
X67.123 Y35.816
X67.175 Y36.437
X67.213 Y37.06
X67.237 Y37.684
X67.245 Y38.307
X67.239 Y38.931
X67.219 Y39.555
X67.183 Y40.178
X67.133 Y40.8
X67.069 Y41.42
X66.99 Y42.039
X66.897 Y42.656
X66.789 Y43.271
X66.669 Y43.883
X66.534 Y44.492
X66.387 Y45.099
X66.307 Y45.4
X66.272 Y45.71
X66.329 Y46.017
X66.575 Y46.59
X66.988 Y47.058
X67.472 Y47.452
X67.72 Y47.646
X67.866 Y47.8
X67.958 Y47.99
X67.99 Y48.198
Y49.704
G0 Z5
X61.889 Y23.827
Z-0.4
G1 Z-0.7 F200
X61.896 Y23.829 Z-0.767
X61.917 Y23.834 Z-0.83
X61.952 Y23.843 Z-0.887
X61.998 Y23.856 Z-0.935
X62.053 Y23.87 Z-0.97
X62.114 Y23.886 Z-0.992
X62.179 Y23.903 Z-1
G3 X62.865 Y24.284 I-0.401 J1.531
G1 X65.416 Y26.873
X65.706 Y27.198
X65.944 Y27.512
X66.216 Y27.94
X66.508 Y28.492
X66.761 Y29.062
X66.985 Y29.645
X67.186 Y30.235
X67.369 Y30.832
X67.536 Y31.433
X67.688 Y32.038
X67.825 Y32.647
X67.947 Y33.259
X67.979 Y33.442
X67.985 Y33.482
X67.989 Y33.522
X67.99 Y33.563
G3 X67.41 Y33.66 I-0.3 J-0.01
G1 X64.93 Y27.198
G3 X65.416 Y26.873 I0.28 J-0.108
G1 X67.377 Y28.862
X67.584 Y29.095
X67.768 Y29.339
X67.88 Y29.515
X67.941 Y29.632
X67.978 Y29.759
X67.99 Y29.891
G3 X67.439 Y30.044 I-0.3 J-0.01
G1 X67.424 Y30.022
X66.919 Y29.244
G3 X67.377 Y28.862 I0.252 J-0.163
G1 X67.935 Y29.429
X67.966 Y29.463
X67.974 Y29.476
X67.98 Y29.49
X67.988 Y29.517
X67.99 Y29.53
Y42.041
X67.959 Y42.664
X67.911 Y43.286
X67.825 Y43.904
X67.713 Y44.518
X67.719 Y44.83
X67.848 Y45.44
X67.91 Y45.557
X67.954 Y45.661
X67.981 Y45.77
X67.99 Y45.883
G3 X67.39 Y45.872 I-0.3 J-0.01
G1 Y42.051
G3 X67.99 Y42.041 I0.3 J0
G1 Y48.198
G0 Z5
X13.625 Y52.752
Z-0.4
G1 Z-0.7 F200
X13.621 Y52.746 Z-0.767
X13.609 Y52.726 Z-0.83
X13.591 Y52.696 Z-0.887
X13.567 Y52.655 Z-0.935
X13.538 Y52.606 Z-0.97
X13.505 Y52.552 Z-0.992
X13.471 Y52.494 Z-1
G3 X13.25 Y51.741 I1.36 J-0.809
G1 Y50.685
X13.257 Y50.535
X13.286 Y50.388
X13.33 Y50.244
X13.386 Y50.105
X13.462 Y49.956
X13.56 Y49.795
X13.681 Y49.628
X14.088 Y49.155
X14.468 Y48.661
X14.703 Y48.083
X14.812 Y47.468
X14.829 Y46.844
X14.787 Y46.222
X14.709 Y45.603
X14.612 Y44.987
X14.4 Y43.757
X14.299 Y43.141
X14.206 Y42.524
X14.124 Y41.906
X14.054 Y41.286
X13.996 Y40.664
X13.952 Y40.042
X13.921 Y39.419
X13.905 Y38.795
X13.902 Y38.171
X13.914 Y37.547
X13.941 Y36.924
X13.982 Y36.301
X14.037 Y35.68
X14.107 Y35.06
X14.192 Y34.442
X14.291 Y33.826
X14.404 Y33.212
X14.531 Y32.601
X14.673 Y31.994
X14.829 Y31.389
X14.999 Y30.789
X15.183 Y30.193
X15.381 Y29.601
X15.593 Y29.014
X15.818 Y28.433
X16.058 Y27.856
X16.31 Y27.286
X16.576 Y26.721
X16.855 Y26.163
X17.146 Y25.611
X17.203 Y25.509
X17.236 Y25.455
X17.274 Y25.405
X17.316 Y25.359
X26.43 Y16.109
X26.822 Y15.75
X27.288 Y15.386
X27.809 Y15.043
X28.35 Y14.731
X28.903 Y14.443
X29.465 Y14.173
X30.035 Y13.919
X30.612 Y13.68
X31.193 Y13.454
X31.645 Y13.292
X31.722 Y13.269
X31.802 Y13.255
X31.882 Y13.25
G3 X32.012 Y13.815 I-0.01 J0.3
G1 X26.792 Y16.577
G3 X26.43 Y16.109 I-0.14 J-0.265
G1 X28.804 Y13.7
X28.86 Y13.644
X28.944 Y13.558
X29.091 Y13.423
X29.123 Y13.398
X29.255 Y13.317
X29.401 Y13.267
X29.554 Y13.25
G3 X29.69 Y13.812 I-0.01 J0.3
G1 X29.684 Y13.815
X29.311 Y14.023
G3 X28.944 Y13.558 I-0.146 J-0.262
G1 X29.224 Y13.275
X29.239 Y13.265
X29.254 Y13.258
X29.27 Y13.254
X29.285 Y13.251
X29.568 Y13.25
X36.583
G0 Z5
X13.625 Y51.696
Z-0.4
G1 Z-0.7 F200
X13.621 Y51.69 Z-0.767
X13.609 Y51.671 Z-0.83
X13.591 Y51.64 Z-0.887
X13.567 Y51.599 Z-0.935
X13.538 Y51.55 Z-0.97
X13.505 Y51.496 Z-0.992
X13.471 Y51.438 Z-1
G3 X13.25 Y50.685 I1.36 J-0.809
G1 Y49.551
X13.257 Y49.401
X13.341 Y48.783
X13.456 Y48.17
X13.522 Y47.549
X13.537 Y46.926
X13.508 Y46.302
X13.449 Y45.681
X13.37 Y45.062
X13.28 Y44.445
X13.258 Y44.292
X13.253 Y44.258
X13.251 Y44.223
X13.25 Y44.189
G3 X13.85 Y44.199 I0.3 J0.01
G1 Y49.541
G3 X13.25 Y49.551 I-0.3 J0
G1 Y34.247
X13.281 Y33.624
X13.331 Y33.002
X13.423 Y32.385
X13.543 Y31.773
X13.686 Y31.165
X13.848 Y30.563
X14.025 Y29.965
X14.218 Y29.371
X14.425 Y28.782
X14.645 Y28.199
X14.682 Y28.108
X14.722 Y28.025
X14.772 Y27.948
X14.832 Y27.879
G3 X15.33 Y28.168 I0.206 J0.218
G1 X15.327 Y28.183
X13.841 Y34.307
G3 X13.25 Y34.247 I-0.292 J-0.071
G1 Y29.854
Y29.53
X13.252 Y29.517
X13.26 Y29.49
X13.266 Y29.476
X13.274 Y29.463
X13.305 Y29.429
X17.316 Y25.359
G3 X17.749 Y25.381 I0.206 J0.218
G1 X17.773 Y25.428 Z-0.995
X17.795 Y25.474 Z-0.981
X17.816 Y25.517 Z-0.958
X17.819 Y25.549 Z-0.936
X17.822 Y25.577 Z-0.911
X17.817 Y25.613 Z-0.866
X17.813 Y25.64 Z-0.814
X17.81 Y25.657 Z-0.758
Y25.662 Z-0.7
G0 Z5
X13.868 Y56.734
Z-1.4
G1 Z-1.7 F200
X13.864 Y56.728 Z-1.767
X13.853 Y56.709 Z-1.83
X13.835 Y56.678 Z-1.887
X13.811 Y56.637 Z-1.935
X13.781 Y56.588 Z-1.97
X13.749 Y56.534 Z-1.992
X13.715 Y56.476 Z-2
G3 X13.25 Y54.893 I2.858 J-1.699
G1 Y54.722
X13.252 Y54.684
X13.34 Y54.563
X13.446 Y54.456
X13.562 Y54.362
X13.687 Y54.278
X13.817 Y54.203
X13.951 Y54.136
X14.089 Y54.077
X14.229 Y54.024
X14.371 Y53.976
X14.515 Y53.934
X14.66 Y53.896
X14.806 Y53.861
X14.953 Y53.831
X15.101 Y53.803
X15.249 Y53.779
X15.397 Y53.757
X15.546 Y53.737
X15.695 Y53.719
X15.844 Y53.703
X15.993 Y53.689
X16.142 Y53.676
X16.292 Y53.664
X16.448 Y53.654
X16.622 Y53.643
X16.821 Y53.632
X17.05 Y53.621
X17.322 Y53.61
X17.656 Y53.599
X18.088 Y53.589
X18.697 Y53.578
X19.321 Y53.571
X19.945 Y53.567
X21.193 Y53.564
X23.923 Y53.562
X24.391
X24.543 Y53.528
X24.684 Y53.46
X24.806 Y53.363
X24.904 Y53.242
X24.972 Y53.102
X25.008 Y52.95
X25.009 Y52.794
X24.976 Y52.641
X24.71 Y52.077
X24.481 Y51.752
X24.171 Y51.306
X23.819 Y50.791
X23.469 Y50.274
X23.211 Y49.891
X23.129 Y49.765
X23.049 Y49.639
X22.97 Y49.511
X22.892 Y49.383
X22.816 Y49.254
X22.74 Y49.124
X22.659 Y48.982
X22.569 Y48.822
X22.468 Y48.637
X22.351 Y48.421
X22.212 Y48.161
X22.041 Y47.835
X21.882 Y47.524
X21.814 Y47.39
X21.748 Y47.255
X21.685 Y47.119
X21.623 Y46.983
X21.562 Y46.845
X21.503 Y46.707
X21.446 Y46.569
X21.387 Y46.427
X21.323 Y46.267
X21.252 Y46.085
X21.172 Y45.874
X21.078 Y45.625
X20.967 Y45.32
X20.83 Y44.939
X20.78 Y44.797
X20.733 Y44.655
X20.688 Y44.512
X20.644 Y44.368
X20.603 Y44.224
X20.562 Y44.08
X20.523 Y43.935
X20.486 Y43.79
X20.445 Y43.628
X20.4 Y43.444
X20.35 Y43.233
X20.293 Y42.985
X20.226 Y42.685
X20.145 Y42.305
X20.115 Y42.158
X20.085 Y42.011
X20.059 Y41.863
X20.034 Y41.715
X20.011 Y41.567
X19.989 Y41.419
X19.969 Y41.27
X19.95 Y41.121
X19.932 Y40.966
X19.913 Y40.792
X19.893 Y40.594
X19.871 Y40.365
X19.847 Y40.094
X19.82 Y39.76
X19.795 Y39.413
X19.785 Y39.264
X19.777 Y39.114
X19.772 Y38.964
X19.769 Y38.814
X19.767 Y38.664
X19.766 Y38.514
X19.768 Y38.364
X19.77 Y38.213
X19.774 Y38.045
X19.779 Y37.855
X19.788 Y37.636
X19.799 Y37.379
X19.815 Y37.068
X19.839 Y36.673
X19.849 Y36.524
X19.86 Y36.374
X19.874 Y36.225
X19.89 Y36.076
X19.908 Y35.927
X19.927 Y35.778
X19.948 Y35.629
X19.97 Y35.481
X19.994 Y35.323
X20.023 Y35.146
X20.057 Y34.944
X20.099 Y34.71
X20.151 Y34.431
X20.218 Y34.086
X20.273 Y33.81
X20.304 Y33.664
X20.337 Y33.517
X20.372 Y33.371
X20.408 Y33.226
X20.447 Y33.081
X20.487 Y32.936
X20.528 Y32.792
X20.571 Y32.646
X20.62 Y32.483
X20.677 Y32.298
X20.744 Y32.087
X20.826 Y31.838
X20.927 Y31.536
X21.058 Y31.152
X21.108 Y31.01
X21.159 Y30.87
X21.213 Y30.73
X21.269 Y30.59
X21.326 Y30.452
X21.385 Y30.314
X21.445 Y30.176
X21.506 Y30.039
X21.574 Y29.888
X21.653 Y29.719
X21.744 Y29.525
X21.853 Y29.299
X21.986 Y29.027
X22.156 Y28.687
X22.234 Y28.533
X22.303 Y28.4
X22.374 Y28.268
X22.447 Y28.137
X22.521 Y28.007
X22.597 Y27.877
X22.674 Y27.749
X22.752 Y27.621
X22.834 Y27.489
X22.927 Y27.343
X23.033 Y27.177
X23.157 Y26.987
X23.306 Y26.763
X23.49 Y26.491
X23.7 Y26.185
X23.785 Y26.062
X23.873 Y25.94
X23.962 Y25.82
X24.053 Y25.7
X24.145 Y25.582
X24.239 Y25.465
X24.333 Y25.348
X24.429 Y25.232
X24.537 Y25.103
X24.659 Y24.959
X24.801 Y24.794
X24.97 Y24.602
X25.175 Y24.371
X25.437 Y24.08
X25.539 Y23.969
X25.641 Y23.859
X25.745 Y23.751
X25.85 Y23.645
X25.957 Y23.539
X26.065 Y23.435
X26.173 Y23.332
X26.283 Y23.229
X26.399 Y23.122
X26.531 Y23.004
X26.681 Y22.87
X26.856 Y22.715
X27.066 Y22.534
X27.327 Y22.312
X27.569 Y22.108
X27.685 Y22.012
X27.802 Y21.918
X27.92 Y21.826
X28.04 Y21.735
X28.16 Y21.646
X28.282 Y21.558
X28.404 Y21.471
X28.528 Y21.384
X28.668 Y21.288
X28.826 Y21.18
X29.009 Y21.058
X29.226 Y20.915
X29.491 Y20.744
X29.828 Y20.529
X29.955 Y20.45
X30.083 Y20.372
X30.213 Y20.296
X30.343 Y20.221
X30.909 Y19.959
X31.478 Y19.704
X32.05 Y19.453
X32.622 Y19.204
X33.2 Y18.969
X33.789 Y18.764
X34.384 Y18.575
X34.982 Y18.396
X35.581 Y18.223
X36.189 Y18.084
X36.802 Y17.969
X37.418 Y17.867
X38.035 Y17.773
X38.654 Y17.698
X39.277 Y17.655
X39.9 Y17.631
X40.524 Y17.617
X41.148 Y17.609
X41.771 Y17.638
X42.393 Y17.691
X43.013 Y17.757
X43.633 Y17.831
X44.25 Y17.924
X44.861 Y18.05
X45.468 Y18.193
X46.073 Y18.346
X46.677 Y18.504
X47.269 Y18.699
X47.854 Y18.916
X48.435 Y19.146
X49.012 Y19.382
X49.581 Y19.638
X50.137 Y19.922
X50.684 Y20.222
X51.226 Y20.531
X51.765 Y20.845
X52.284 Y21.191
X52.789 Y21.557
X53.287 Y21.933
X53.781 Y22.315
X54.261 Y22.714
X54.72 Y23.136
X55.167 Y23.571
X55.607 Y24.013
X56.043 Y24.46
X56.45 Y24.933
X56.84 Y25.42
X57.219 Y25.915
X57.593 Y26.415
X57.948 Y26.928
X58.278 Y27.458
X58.593 Y27.997
X58.899 Y28.54
X59.2 Y29.087
X59.465 Y29.651
X59.71 Y30.225
X59.944 Y30.804
X60.171 Y31.385
X60.376 Y31.974
X60.551 Y32.573
X60.711 Y33.176
X60.861 Y33.782
X61.004 Y34.389
X61.109 Y35.004
X61.192 Y35.623
X61.263 Y36.243
X61.327 Y36.863
X61.366 Y37.486
X61.376 Y38.11
X61.368 Y38.734
X61.351 Y39.357
X61.326 Y39.981
X61.263 Y40.602
X61.178 Y41.22
X61.081 Y41.836
X60.976 Y42.451
X60.848 Y43.062
X60.69 Y43.665
X60.516 Y44.265
X60.334 Y44.861
X60.143 Y45.455
X60.074 Y45.673
X60.027 Y45.815
X59.977 Y45.957
X59.926 Y46.098
X59.873 Y46.238
X59.819 Y46.378
X59.764 Y46.517
X59.704 Y46.665
X59.636 Y46.83
X59.557 Y47.018
X59.463 Y47.235
X59.372 Y47.442
X59.311 Y47.579
X59.247 Y47.715
X59.182 Y47.85
X59.114 Y47.983
X59.045 Y48.117
X58.974 Y48.249
X58.902 Y48.38
X58.829 Y48.511
X58.752 Y48.646
X58.665 Y48.796
X58.565 Y48.965
X58.449 Y49.16
X58.309 Y49.389
X58.136 Y49.668
X57.991 Y49.899
X57.91 Y50.025
X57.827 Y50.15
X57.743 Y50.274
X57.657 Y50.397
X57.569 Y50.519
X57.48 Y50.64
X57.391 Y50.76
X57.299 Y50.88
X57.197 Y51.012
X57.08 Y51.161
X56.944 Y51.332
X56.784 Y51.53
X56.587 Y51.769
X56.274 Y52.143
X56.202 Y52.282
X56.163 Y52.433
X56.159 Y52.589
X56.188 Y52.742
X56.252 Y52.884
X56.345 Y53.01
X56.463 Y53.111
X56.739 Y53.256
X57.35 Y53.383
X57.97 Y53.457
X58.592 Y53.501
X59.215 Y53.527
X59.839 Y53.541
X60.463 Y53.55
X61.087 Y53.555
X61.711 Y53.558
X62.959 Y53.561
X66.703 Y53.562
X67.29
X67.506 Y53.596
X67.701 Y53.696
X67.856 Y53.851
X67.956 Y54.046
X67.99 Y54.262
G0 Z5
X13.625 Y55.733
Z-1.4
G1 Z-1.7 F200
X13.621 Y55.727 Z-1.767
X13.609 Y55.707 Z-1.83
X13.591 Y55.677 Z-1.887
X13.567 Y55.636 Z-1.935
X13.538 Y55.587 Z-1.97
X13.505 Y55.532 Z-1.992
X13.471 Y55.475 Z-2
G3 X13.25 Y54.722 I1.36 J-0.809
G1 Y54.291
X13.257 Y54.141
X13.317 Y54.004
X13.393 Y53.874
X13.482 Y53.754
X13.583 Y53.64
X13.709 Y53.52
X13.861 Y53.396
X14.049 Y53.267
X14.28 Y53.134
X14.568 Y52.997
X14.935 Y52.859
X15.421 Y52.718
X16.032 Y52.594
X16.651 Y52.513
X17.273 Y52.459
X17.896 Y52.424
X18.519 Y52.402
X19.143 Y52.387
X19.767 Y52.378
X20.391 Y52.372
X21.249 Y52.367
X21.405
X21.557 Y52.332
X21.697 Y52.264
X21.819 Y52.167
X21.916 Y52.045
X21.984 Y51.904
X22.055 Y51.6
X21.994 Y50.979
X21.827 Y50.378
X21.603 Y49.796
X21.351 Y49.225
X21.085 Y48.661
X20.822 Y48.095
X20.568 Y47.525
X20.327 Y46.949
X20.097 Y46.369
X19.878 Y45.785
X19.677 Y45.195
X19.495 Y44.598
X19.33 Y43.996
X19.179 Y43.391
X19.042 Y42.782
X18.926 Y42.169
X18.829 Y41.552
X18.75 Y40.934
X18.685 Y40.313
X18.635 Y39.691
X18.607 Y39.068
X18.599 Y38.444
X18.607 Y37.82
X18.629 Y37.196
X18.669 Y36.574
X18.73 Y35.953
X18.81 Y35.334
X18.905 Y34.717
X19.014 Y34.103
X19.142 Y33.492
X19.291 Y32.886
X19.457 Y32.285
X19.638 Y31.688
X19.832 Y31.095
X20.046 Y30.509
X20.279 Y29.93
X20.529 Y29.358
X20.791 Y28.792
X21.068 Y28.233
X21.363 Y27.683
X21.676 Y27.143
X22.003 Y26.612
X22.341 Y26.088
X22.694 Y25.573
X23.065 Y25.071
X23.451 Y24.581
X23.849 Y24.101
X24.258 Y23.629
X24.681 Y23.17
X25.119 Y22.726
X25.57 Y22.296
X26.032 Y21.876
X26.503 Y21.466
X26.987 Y21.072
X27.484 Y20.695
X27.991 Y20.332
X28.506 Y19.98
X29.03 Y19.642
X29.573 Y19.333
X30.127 Y19.046
X30.688 Y18.774
X31.254 Y18.512
X31.825 Y18.26
X32.403 Y18.023
X32.987 Y17.805
X33.577 Y17.601
X34.17 Y17.409
X34.769 Y17.232
X35.373 Y17.075
X35.981 Y16.937
X36.593 Y16.816
X37.208 Y16.709
X37.825 Y16.617
X38.445 Y16.547
X39.067 Y16.497
X39.69 Y16.463
X40.314 Y16.44
X40.937 Y16.439
X41.561 Y16.459
X42.184 Y16.498
X42.805 Y16.552
X43.426 Y16.62
X44.043 Y16.708
X44.658 Y16.817
X45.269 Y16.943
X45.877 Y17.082
X46.482 Y17.236
X47.08 Y17.412
X47.673 Y17.607
X48.26 Y17.818
X48.843 Y18.041
X49.419 Y18.281
X49.986 Y18.54
X50.545 Y18.817
X51.097 Y19.108
X51.644 Y19.409
X52.18 Y19.729
X52.704 Y20.068
X53.217 Y20.422
X53.723 Y20.787
X54.22 Y21.165
X54.704 Y21.559
X55.174 Y21.969
X55.633 Y22.391
X56.084 Y22.823
X56.523 Y23.267
X56.946 Y23.725
X57.353 Y24.198
X57.748 Y24.68
X58.133 Y25.172
X58.503 Y25.674
X58.856 Y26.189
X59.193 Y26.714
X59.516 Y27.247
X59.83 Y27.787
X60.125 Y28.337
X60.4 Y28.897
X60.658 Y29.465
X60.904 Y30.038
X61.135 Y30.618
X61.347 Y31.205
X61.54 Y31.798
X61.716 Y32.397
X61.88 Y32.999
X62.028 Y33.605
X62.154 Y34.216
X62.261 Y34.831
X62.351 Y35.448
X62.428 Y36.067
X62.487 Y36.688
X62.525 Y37.311
X62.543 Y37.935
X62.546 Y38.559
X62.537 Y39.183
X62.507 Y39.806
X62.454 Y40.427
X62.383 Y41.047
X62.299 Y41.666
X62.199 Y42.281
X62.079 Y42.894
X61.938 Y43.502
X61.782 Y44.106
X61.612 Y44.706
X61.434 Y45.304
X61.242 Y45.898
X61.032 Y46.485
X60.807 Y47.067
X60.565 Y47.642
X60.302 Y48.208
X60.018 Y48.764
X59.718 Y49.311
X59.404 Y49.85
X59.076 Y50.381
X58.989 Y50.51
X58.901 Y50.639
X58.844 Y50.784
X58.821 Y50.939
X58.832 Y51.094
X58.878 Y51.243
X58.955 Y51.379
X59.166 Y51.609
X59.714 Y51.908
X60.31 Y52.092
X60.924 Y52.203
X61.544 Y52.269
X62.167 Y52.308
X62.791 Y52.33
X63.414 Y52.344
X64.038 Y52.351
X64.662 Y52.356
X65.286 Y52.358
X66.527 Y52.362
X66.828 Y52.387
X67.105 Y52.433
X67.306 Y52.483
X67.509 Y52.551
X67.566 Y52.576
X67.739 Y52.682
X67.874 Y52.834
X67.96 Y53.018
X67.99 Y53.219
Y53.313
G0 Z5
X13.625 Y55.303
Z-1.4
G1 Z-1.7 F200
X13.621 Y55.296 Z-1.767
X13.609 Y55.277 Z-1.83
X13.591 Y55.246 Z-1.887
X13.567 Y55.206 Z-1.935
X13.538 Y55.157 Z-1.97
X13.505 Y55.102 Z-1.992
X13.471 Y55.045 Z-2
G3 X13.25 Y54.291 I1.36 J-0.809
G1 Y53.618
X13.257 Y53.468
X13.291 Y53.322
X13.344 Y53.181
X13.411 Y53.047
X13.49 Y52.92
X13.589 Y52.786
X13.712 Y52.646
X13.858 Y52.504
X14.05 Y52.345
X14.26 Y52.199
X14.543 Y52.032
X14.86 Y51.88
X15.278 Y51.718
X15.809 Y51.56
X16.42 Y51.431
X17.037 Y51.342
X17.658 Y51.282
X18.281 Y51.242
X18.904 Y51.215
X19.06 Y51.21
X19.211 Y51.171
X19.35 Y51.1
X19.469 Y50.999
X19.563 Y50.875
X19.692 Y50.591
X19.792 Y49.975
X19.742 Y49.353
X19.608 Y48.743
X19.43 Y48.146
X19.23 Y47.554
X19.022 Y46.966
X18.817 Y46.377
X18.622 Y45.784
X18.439 Y45.188
X18.268 Y44.587
X18.111 Y43.984
X17.969 Y43.376
X17.844 Y42.765
X17.736 Y42.15
X17.643 Y41.533
X17.566 Y40.914
X17.505 Y40.293
X17.462 Y39.671
X17.436 Y39.047
X17.427 Y38.423
X17.433 Y37.8
X17.456 Y37.176
X17.496 Y36.553
X17.554 Y35.932
X17.628 Y35.313
X17.718 Y34.695
X17.824 Y34.08
X17.948 Y33.469
X18.089 Y32.861
X18.246 Y32.257
X18.418 Y31.657
X18.606 Y31.062
X18.811 Y30.473
X19.032 Y29.89
X19.269 Y29.312
X19.52 Y28.741
X19.786 Y28.177
X20.067 Y27.62
X20.365 Y27.071
X20.677 Y26.531
X21.002 Y25.998
X21.34 Y25.474
X21.694 Y24.96
X22.062 Y24.456
X22.443 Y23.963
X22.837 Y23.478
X23.243 Y23.005
X23.663 Y22.543
X24.095 Y22.093
X24.54 Y21.656
X24.995 Y21.229
X25.461 Y20.814
X25.939 Y20.413
X26.428 Y20.025
X26.927 Y19.651
X27.435 Y19.289
X27.954 Y18.942
X28.485 Y18.615
X29.028 Y18.306
X29.579 Y18.014
X30.137 Y17.736
X30.702 Y17.47
X31.272 Y17.217
X31.849 Y16.98
X32.432 Y16.756
X33.02 Y16.547
X33.612 Y16.351
X34.209 Y16.171
X34.812 Y16.008
X35.418 Y15.861
X36.028 Y15.73
X36.641 Y15.614
X37.257 Y15.514
X37.876 Y15.432
X38.496 Y15.368
X39.118 Y15.319
X39.741 Y15.285
X40.365 Y15.268
X40.989 Y15.271
X41.613 Y15.29
X42.235 Y15.326
X42.857 Y15.377
X43.478 Y15.445
X44.096 Y15.531
X44.711 Y15.635
X45.323 Y15.753
X45.933 Y15.887
X46.538 Y16.038
X47.139 Y16.207
X47.735 Y16.392
X48.326 Y16.593
X48.911 Y16.808
X49.491 Y17.039
X50.063 Y17.287
X50.629 Y17.551
X51.187 Y17.829
X51.739 Y18.12
X52.283 Y18.427
X52.817 Y18.749
X53.341 Y19.087
X53.857 Y19.438
X54.364 Y19.802
X54.861 Y20.179
X55.347 Y20.571
X55.821 Y20.976
X56.286 Y21.393
X56.739 Y21.821
X57.181 Y22.262
X57.609 Y22.715
X58.025 Y23.181
X58.429 Y23.656
X58.82 Y24.142
X59.198 Y24.639
X59.562 Y25.146
X59.911 Y25.663
X60.247 Y26.188
X60.571 Y26.722
X60.879 Y27.264
X61.171 Y27.816
X61.447 Y28.375
X61.709 Y28.941
X61.957 Y29.514
X62.189 Y30.093
X62.404 Y30.679
X62.603 Y31.271
X62.786 Y31.867
X62.955 Y32.467
X63.107 Y33.073
X63.241 Y33.682
X63.358 Y34.295
X63.46 Y34.91
X63.546 Y35.528
X63.615 Y36.149
X63.666 Y36.77
X63.699 Y37.393
X63.718 Y38.017
X63.72 Y38.641
X63.706 Y39.265
X63.672 Y39.888
X63.622 Y40.51
X63.556 Y41.13
X63.473 Y41.749
X63.374 Y42.365
X63.258 Y42.978
X63.124 Y43.587
X62.975 Y44.193
X62.813 Y44.796
X62.639 Y45.395
X62.451 Y45.99
X62.248 Y46.58
X62.03 Y47.164
X61.796 Y47.743
X61.543 Y48.313
X61.273 Y48.876
X61.13 Y49.153
X61.057 Y49.291
X61.017 Y49.442
X61.01 Y49.597
X61.039 Y49.751
X61.1 Y49.894
X61.284 Y50.146
X61.773 Y50.534
X62.346 Y50.78
X62.951 Y50.933
X63.568 Y51.025
X64.19 Y51.081
X64.813 Y51.114
X65.437 Y51.134
X66.06 Y51.157
X66.593 Y51.208
X66.941 Y51.27
X67.235 Y51.347
X67.443 Y51.42
X67.573 Y51.477
X67.744 Y51.584
X67.877 Y51.735
X67.961 Y51.918
X67.99 Y52.117
Y53.219
G0 Z5
X13.625 Y54.629
Z-1.4
G1 Z-1.7 F200
X13.621 Y54.623 Z-1.767
X13.609 Y54.604 Z-1.83
X13.591 Y54.573 Z-1.887
X13.567 Y54.532 Z-1.935
X13.538 Y54.483 Z-1.97
X13.505 Y54.429 Z-1.992
X13.471 Y54.371 Z-2
G3 X13.25 Y53.618 I1.36 J-0.809
G1 Y52.733
X13.257 Y52.583
X13.286 Y52.435
X13.33 Y52.292
X13.39 Y52.155
X13.461 Y52.022
X13.557 Y51.875
X13.669 Y51.728
X13.814 Y51.568
X13.988 Y51.404
X14.201 Y51.233
X14.462 Y51.057
X14.773 Y50.881
X15.152 Y50.705
X15.631 Y50.528
X16.232 Y50.36
X16.844 Y50.239
X16.999 Y50.218
X17.145 Y50.163
X17.275 Y50.077
X17.491 Y49.852
X17.793 Y49.306
X17.891 Y48.69
X17.864 Y48.066
X17.764 Y47.45
X17.625 Y46.842
X17.469 Y46.238
X17.308 Y45.635
X17.148 Y45.032
X16.997 Y44.427
X16.856 Y43.819
X16.73 Y43.208
X16.617 Y42.594
X16.519 Y41.978
X16.435 Y41.36
X16.367 Y40.739
X16.315 Y40.118
X16.279 Y39.495
X16.258 Y38.871
X16.253 Y38.247
X16.264 Y37.623
X16.291 Y37
X16.334 Y36.378
X16.393 Y35.756
X16.468 Y35.137
X16.558 Y34.519
X16.664 Y33.905
X16.786 Y33.293
X16.924 Y32.684
X17.077 Y32.079
X17.246 Y31.479
X17.43 Y30.882
X17.629 Y30.291
X17.845 Y29.706
X18.074 Y29.126
X18.318 Y28.551
X18.577 Y27.984
X18.85 Y27.423
X19.138 Y26.869
X19.44 Y26.323
X19.755 Y25.784
X20.084 Y25.254
X20.426 Y24.732
X20.782 Y24.22
X21.151 Y23.717
X21.532 Y23.223
X21.926 Y22.738
X22.332 Y22.265
X22.75 Y21.802
X23.18 Y21.35
X23.622 Y20.909
X24.074 Y20.479
X24.537 Y20.061
X25.012 Y19.656
X25.497 Y19.263
X25.991 Y18.883
X26.495 Y18.515
X27.01 Y18.162
X27.535 Y17.826
X28.07 Y17.505
X28.615 Y17.2
X29.166 Y16.909
X29.725 Y16.631
X30.29 Y16.367
X30.862 Y16.116
X31.439 Y15.879
X32.021 Y15.655
X32.609 Y15.444
X33.201 Y15.248
X33.798 Y15.067
X34.4 Y14.902
X35.005 Y14.751
X35.614 Y14.615
X36.226 Y14.494
X36.841 Y14.39
X37.459 Y14.302
X38.079 Y14.229
X38.7 Y14.171
X39.322 Y14.13
X39.946 Y14.104
X40.57 Y14.095
X41.194 Y14.103
X41.817 Y14.125
X42.44 Y14.164
X43.062 Y14.219
X43.681 Y14.29
X44.299 Y14.377
X44.915 Y14.479
X45.528 Y14.597
X46.137 Y14.73
X46.743 Y14.879
X47.344 Y15.045
X47.942 Y15.225
X48.534 Y15.421
X49.121 Y15.632
X49.703 Y15.858
X50.278 Y16.1
X50.847 Y16.356
X51.41 Y16.625
X51.965 Y16.909
X52.513 Y17.208
X53.053 Y17.521
X53.585 Y17.848
X54.108 Y18.188
X54.622 Y18.541
X55.127 Y18.907
X55.622 Y19.287
X56.108 Y19.679
X56.583 Y20.083
X57.048 Y20.499
X57.503 Y20.926
X57.946 Y21.366
X58.377 Y21.817
X58.796 Y22.279
X59.204 Y22.751
X59.599 Y23.234
X59.982 Y23.727
X60.351 Y24.23
X60.708 Y24.742
X61.051 Y25.262
X61.382 Y25.792
X61.699 Y26.329
X62.001 Y26.875
X62.289 Y27.429
X62.563 Y27.989
X62.823 Y28.556
X63.068 Y29.13
X63.297 Y29.71
X63.512 Y30.296
X63.712 Y30.887
X63.897 Y31.483
X64.068 Y32.083
X64.222 Y32.688
X64.36 Y33.296
X64.482 Y33.908
X64.589 Y34.523
X64.68 Y35.14
X64.755 Y35.76
X64.813 Y36.381
X64.856 Y37.003
X64.883 Y37.627
X64.895 Y38.251
X64.89 Y38.875
X64.869 Y39.498
X64.831 Y40.121
X64.778 Y40.743
X64.709 Y41.363
X64.625 Y41.981
X64.524 Y42.597
X64.407 Y43.21
X64.275 Y43.819
X64.129 Y44.426
X63.97 Y45.029
X63.798 Y45.629
X63.612 Y46.225
X63.413 Y46.816
X63.198 Y47.402
X63.083 Y47.692
X62.963 Y47.98
X62.936 Y48.133
X62.943 Y48.289
X62.985 Y48.439
X63.133 Y48.714
X63.558 Y49.171
X64.104 Y49.473
X64.698 Y49.665
X65.309 Y49.789
X65.925 Y49.887
X66.54 Y49.995
X66.976 Y50.099
X67.298 Y50.203
X67.519 Y50.295
X67.61 Y50.342
X67.766 Y50.451
X67.887 Y50.6
X67.964 Y50.775
X67.99 Y50.964
Y52.117
G0 Z5
X13.625 Y53.744
Z-1.4
G1 Z-1.7 F200
X13.621 Y53.737 Z-1.767
X13.609 Y53.718 Z-1.83
X13.591 Y53.688 Z-1.887
X13.567 Y53.647 Z-1.935
X13.538 Y53.598 Z-1.97
X13.505 Y53.543 Z-1.992
X13.471 Y53.486 Z-2
G3 X13.25 Y52.733 I1.36 J-0.809
G1 Y51.741
X13.257 Y51.591
X13.285 Y51.443
X13.328 Y51.3
X13.384 Y51.161
X13.458 Y51.018
X13.552 Y50.865
X13.668 Y50.706
X13.818 Y50.534
X13.992 Y50.362
X14.218 Y50.173
X14.475 Y49.991
X14.809 Y49.793
X15.369 Y49.519
X15.621 Y49.334
X15.821 Y49.095
X16.125 Y48.55
X16.252 Y47.94
X16.262 Y47.316
X16.202 Y46.695
X16.101 Y46.079
X15.979 Y45.467
X15.85 Y44.857
X15.722 Y44.246
X15.6 Y43.634
X15.488 Y43.02
X15.388 Y42.404
X15.301 Y41.786
X15.228 Y41.167
X15.169 Y40.546
X15.124 Y39.923
X15.095 Y39.3
X15.08 Y38.676
Y38.052
X15.096 Y37.429
X15.127 Y36.805
X15.172 Y36.183
X15.233 Y35.562
X15.309 Y34.943
X15.4 Y34.326
X15.506 Y33.711
X15.627 Y33.099
X15.763 Y32.49
X15.913 Y31.884
X16.079 Y31.282
X16.259 Y30.685
X16.454 Y30.093
X16.664 Y29.505
X16.888 Y28.923
X17.126 Y28.346
X17.379 Y27.775
X17.645 Y27.211
X17.925 Y26.653
X18.218 Y26.103
X18.524 Y25.559
X18.844 Y25.023
X19.176 Y24.495
X19.521 Y23.975
X19.879 Y23.464
X20.249 Y22.962
X20.631 Y22.468
X21.025 Y21.985
X21.431 Y21.511
X21.849 Y21.047
X22.277 Y20.594
X22.717 Y20.151
X23.167 Y19.718
X23.627 Y19.298
X24.098 Y18.888
X24.579 Y18.491
X25.07 Y18.106
X25.571 Y17.733
X26.081 Y17.375
X26.602 Y17.03
X27.131 Y16.7
X27.669 Y16.385
X28.215 Y16.083
X28.768 Y15.794
X29.328 Y15.518
X29.894 Y15.256
X30.466 Y15.007
X31.044 Y14.77
X31.626 Y14.547
X32.214 Y14.337
X32.806 Y14.14
X33.403 Y13.958
X34.004 Y13.79
X34.608 Y13.636
X35.217 Y13.497
X35.828 Y13.372
X36.442 Y13.263
X36.513 Y13.254
X36.548 Y13.251
X36.583 Y13.25
X43.454
X44.077 Y13.281
X44.7 Y13.321
X45.319 Y13.399
X45.934 Y13.505
X46.544 Y13.633
X47.151 Y13.781
X47.752 Y13.945
X48.35 Y14.125
X48.942 Y14.321
X49.529 Y14.532
X50.111 Y14.757
X50.687 Y14.997
X51.257 Y15.251
X51.821 Y15.518
X52.378 Y15.799
X52.928 Y16.094
X53.47 Y16.402
X54.005 Y16.724
X54.531 Y17.059
X55.05 Y17.407
X55.559 Y17.767
X56.059 Y18.14
X56.551 Y18.524
X57.032 Y18.921
X57.504 Y19.329
X57.966 Y19.748
X58.418 Y20.179
X58.858 Y20.621
X59.288 Y21.073
X59.707 Y21.536
X60.114 Y22.009
X60.509 Y22.492
X60.892 Y22.984
X61.263 Y23.486
X61.622 Y23.996
X61.968 Y24.515
X62.302 Y25.042
X62.622 Y25.578
X62.929 Y26.121
X63.222 Y26.672
X63.502 Y27.23
X63.768 Y27.794
X64.02 Y28.365
X64.258 Y28.942
X64.482 Y29.524
X64.691 Y30.112
X64.887 Y30.704
X65.068 Y31.301
X65.234 Y31.903
X65.385 Y32.508
X65.521 Y33.117
X65.643 Y33.729
X65.749 Y34.344
X65.84 Y34.961
X65.916 Y35.58
X65.977 Y36.201
X66.022 Y36.824
X66.053 Y37.447
X66.069 Y38.071
X66.068 Y38.695
X66.052 Y39.318
X66.021 Y39.942
X65.975 Y40.564
X65.913 Y41.185
X65.836 Y41.804
X65.744 Y42.421
X65.637 Y43.036
X65.516 Y43.648
X65.381 Y44.257
X65.232 Y44.863
X65.071 Y45.465
X64.896 Y46.064
X64.708 Y46.659
X64.695 Y46.815
X64.736 Y47.124
X64.87 Y47.406
X65.253 Y47.898
X65.766 Y48.253
X66.329 Y48.522
X66.908 Y48.755
X67.354 Y48.944
X67.612 Y49.079
X67.663 Y49.112
X67.799 Y49.223
X67.903 Y49.366
X67.968 Y49.529
X67.99 Y49.704
Y50.964
G0 Z5
X42.442 Y13.625
Z-1.4
G1 Z-1.7 F200
X42.449 Y13.621 Z-1.767
X42.468 Y13.609 Z-1.83
X42.499 Y13.591 Z-1.887
X42.539 Y13.567 Z-1.935
X42.588 Y13.538 Z-1.97
X42.643 Y13.505 Z-1.992
X42.7 Y13.471 Z-2
G3 X43.454 Y13.25 I0.809 J1.36
G1 X48.13
X48.672 Y13.277
X49.136 Y13.338
X49.746 Y13.469
X50.344 Y13.647
X50.931 Y13.859
X51.509 Y14.094
X52.079 Y14.348
X52.641 Y14.619
X53.196 Y14.905
X53.743 Y15.205
X54.073 Y15.397
X54.125 Y15.431
X54.175 Y15.469
X54.22 Y15.511
G3 X53.895 Y15.995 I-0.221 J0.203
G1 X48.036 Y13.831
G3 X48.13 Y13.25 I0.104 J-0.281
G1 X51.247
X51.388
X51.431
X51.581 Y13.257
X51.832 Y13.293
X51.979 Y13.33
X52.115 Y13.398
X52.233 Y13.495
G3 X51.937 Y13.988 I-0.221 J0.203
G1 X51.922 Y13.984
X51.367 Y13.84
G3 X51.431 Y13.25 I0.075 J-0.29
G1 X51.814
X51.955 Y13.251
X51.97 Y13.254
X51.986 Y13.258
X52.001 Y13.265
X52.016 Y13.275
X52.575 Y13.842
X62.865 Y24.284
X63.281 Y24.75
X63.66 Y25.239
X64.002 Y25.761
X64.314 Y26.302
X64.604 Y26.854
X64.875 Y27.416
X65.129 Y27.986
X65.368 Y28.562
X65.592 Y29.145
X65.803 Y29.732
X65.999 Y30.324
X66.181 Y30.921
X66.349 Y31.522
X66.503 Y32.127
X66.643 Y32.735
X66.768 Y33.346
X66.879 Y33.96
X66.975 Y34.577
X67.056 Y35.195
X67.123 Y35.816
X67.175 Y36.437
X67.213 Y37.06
X67.237 Y37.684
X67.245 Y38.307
X67.239 Y38.931
X67.219 Y39.555
X67.183 Y40.178
X67.133 Y40.8
X67.069 Y41.42
X66.99 Y42.039
X66.897 Y42.656
X66.789 Y43.271
X66.669 Y43.883
X66.534 Y44.492
X66.387 Y45.099
X66.307 Y45.4
X66.272 Y45.71
X66.329 Y46.017
X66.575 Y46.59
X66.988 Y47.058
X67.472 Y47.452
X67.72 Y47.646
X67.866 Y47.8
X67.958 Y47.99
X67.99 Y48.198
Y49.704
G0 Z5
X61.889 Y23.827
Z-1.4
G1 Z-1.7 F200
X61.896 Y23.829 Z-1.767
X61.917 Y23.834 Z-1.83
X61.952 Y23.843 Z-1.887
X61.998 Y23.856 Z-1.935
X62.053 Y23.87 Z-1.97
X62.114 Y23.886 Z-1.992
X62.179 Y23.903 Z-2
G3 X62.865 Y24.284 I-0.401 J1.531
G1 X65.416 Y26.873
X65.706 Y27.198
X65.944 Y27.512
X66.216 Y27.94
X66.508 Y28.492
X66.761 Y29.062
X66.985 Y29.645
X67.186 Y30.235
X67.369 Y30.832
X67.536 Y31.433
X67.688 Y32.038
X67.825 Y32.647
X67.947 Y33.259
X67.979 Y33.442
X67.985 Y33.482
X67.989 Y33.522
X67.99 Y33.563
G3 X67.41 Y33.66 I-0.3 J-0.01
G1 X64.93 Y27.198
G3 X65.416 Y26.873 I0.28 J-0.108
G1 X67.377 Y28.862
X67.584 Y29.095
X67.768 Y29.339
X67.88 Y29.515
X67.941 Y29.632
X67.978 Y29.759
X67.99 Y29.891
G3 X67.439 Y30.044 I-0.3 J-0.01
G1 X67.424 Y30.022
X66.919 Y29.244
G3 X67.377 Y28.862 I0.252 J-0.163
G1 X67.935 Y29.429
X67.966 Y29.463
X67.974 Y29.476
X67.98 Y29.49
X67.988 Y29.517
X67.99 Y29.53
Y42.041
X67.959 Y42.664
X67.911 Y43.286
X67.825 Y43.904
X67.713 Y44.518
X67.719 Y44.83
X67.848 Y45.44
X67.91 Y45.557
X67.954 Y45.661
X67.981 Y45.77
X67.99 Y45.883
G3 X67.39 Y45.872 I-0.3 J-0.01
G1 Y42.051
G3 X67.99 Y42.041 I0.3 J0
G1 Y48.198
G0 Z5
X13.625 Y52.752
Z-1.4
G1 Z-1.7 F200
X13.621 Y52.746 Z-1.767
X13.609 Y52.726 Z-1.83
X13.591 Y52.696 Z-1.887
X13.567 Y52.655 Z-1.935
X13.538 Y52.606 Z-1.97
X13.505 Y52.552 Z-1.992
X13.471 Y52.494 Z-2
G3 X13.25 Y51.741 I1.36 J-0.809
G1 Y50.685
X13.257 Y50.535
X13.286 Y50.388
X13.33 Y50.244
X13.386 Y50.105
X13.462 Y49.956
X13.56 Y49.795
X13.681 Y49.628
X14.088 Y49.155
X14.468 Y48.661
X14.703 Y48.083
X14.812 Y47.468
X14.829 Y46.844
X14.787 Y46.222
X14.709 Y45.603
X14.612 Y44.987
X14.4 Y43.757
X14.299 Y43.141
X14.206 Y42.524
X14.124 Y41.906
X14.054 Y41.286
X13.996 Y40.664
X13.952 Y40.042
X13.921 Y39.419
X13.905 Y38.795
X13.902 Y38.171
X13.914 Y37.547
X13.941 Y36.924
X13.982 Y36.301
X14.037 Y35.68
X14.107 Y35.06
X14.192 Y34.442
X14.291 Y33.826
X14.404 Y33.212
X14.531 Y32.601
X14.673 Y31.994
X14.829 Y31.389
X14.999 Y30.789
X15.183 Y30.193
X15.381 Y29.601
X15.593 Y29.014
X15.818 Y28.433
X16.058 Y27.856
X16.31 Y27.286
X16.576 Y26.721
X16.855 Y26.163
X17.146 Y25.611
X17.203 Y25.509
X17.236 Y25.455
X17.274 Y25.405
X17.316 Y25.359
X26.43 Y16.109
X26.822 Y15.75
X27.288 Y15.386
X27.809 Y15.043
X28.35 Y14.731
X28.903 Y14.443
X29.465 Y14.173
X30.035 Y13.919
X30.612 Y13.68
X31.193 Y13.454
X31.645 Y13.292
X31.722 Y13.269
X31.802 Y13.255
X31.882 Y13.25
G3 X32.012 Y13.815 I-0.01 J0.3
G1 X26.792 Y16.577
G3 X26.43 Y16.109 I-0.14 J-0.265
G1 X28.804 Y13.7
X28.86 Y13.644
X28.944 Y13.558
X29.091 Y13.423
X29.123 Y13.398
X29.255 Y13.317
X29.401 Y13.267
X29.554 Y13.25
G3 X29.69 Y13.812 I-0.01 J0.3
G1 X29.684 Y13.815
X29.311 Y14.023
G3 X28.944 Y13.558 I-0.146 J-0.262
G1 X29.224 Y13.275
X29.239 Y13.265
X29.254 Y13.258
X29.27 Y13.254
X29.285 Y13.251
X29.568 Y13.25
X36.583
G0 Z5
X13.625 Y51.696
Z-1.4
G1 Z-1.7 F200
X13.621 Y51.69 Z-1.767
X13.609 Y51.671 Z-1.83
X13.591 Y51.64 Z-1.887
X13.567 Y51.599 Z-1.935
X13.538 Y51.55 Z-1.97
X13.505 Y51.496 Z-1.992
X13.471 Y51.438 Z-2
G3 X13.25 Y50.685 I1.36 J-0.809
G1 Y49.551
X13.257 Y49.401
X13.341 Y48.783
X13.456 Y48.17
X13.522 Y47.549
X13.537 Y46.926
X13.508 Y46.302
X13.449 Y45.681
X13.37 Y45.062
X13.28 Y44.445
X13.258 Y44.292
X13.253 Y44.258
X13.251 Y44.223
X13.25 Y44.189
G3 X13.85 Y44.199 I0.3 J0.01
G1 Y49.541
G3 X13.25 Y49.551 I-0.3 J0
G1 Y34.247
X13.281 Y33.624
X13.331 Y33.002
X13.423 Y32.385
X13.543 Y31.773
X13.686 Y31.165
X13.848 Y30.563
X14.025 Y29.965
X14.218 Y29.371
X14.425 Y28.782
X14.645 Y28.199
X14.682 Y28.108
X14.722 Y28.025
X14.772 Y27.948
X14.832 Y27.879
G3 X15.33 Y28.168 I0.206 J0.218
G1 X15.327 Y28.183
X13.841 Y34.307
G3 X13.25 Y34.247 I-0.292 J-0.071
G1 Y29.854
Y29.53
X13.252 Y29.517
X13.26 Y29.49
X13.266 Y29.476
X13.274 Y29.463
X13.305 Y29.429
X17.316 Y25.359
G3 X17.749 Y25.381 I0.206 J0.218
G1 X17.773 Y25.428 Z-1.995
X17.795 Y25.474 Z-1.981
X17.816 Y25.517 Z-1.958
X17.819 Y25.549 Z-1.936
X17.822 Y25.577 Z-1.911
X17.817 Y25.613 Z-1.866
X17.813 Y25.64 Z-1.814
X17.81 Y25.657 Z-1.758
Y25.662 Z-1.7
G0 Z5
X13.868 Y56.734
Z-2.385
G1 Z-2.685 F200
X13.864 Y56.728 Z-2.752
X13.853 Y56.709 Z-2.815
X13.835 Y56.678 Z-2.872
X13.811 Y56.637 Z-2.92
X13.781 Y56.588 Z-2.955
X13.749 Y56.534 Z-2.977
X13.715 Y56.476 Z-2.985
G3 X13.25 Y54.893 I2.858 J-1.699
G1 Y54.722
X13.252 Y54.684
X13.34 Y54.563
X13.446 Y54.456
X13.562 Y54.362
X13.687 Y54.278
X13.817 Y54.203
X13.951 Y54.136
X14.089 Y54.077
X14.229 Y54.024
X14.371 Y53.976
X14.515 Y53.934
X14.66 Y53.896
X14.806 Y53.861
X14.953 Y53.831
X15.101 Y53.803
X15.249 Y53.779
X15.397 Y53.757
X15.546 Y53.737
X15.695 Y53.719
X15.844 Y53.703
X15.993 Y53.689
X16.142 Y53.676
X16.292 Y53.664
X16.448 Y53.654
X16.622 Y53.643
X16.821 Y53.632
X17.05 Y53.621
X17.322 Y53.61
X17.656 Y53.599
X18.088 Y53.589
X18.697 Y53.578
X19.321 Y53.571
X19.945 Y53.567
X21.193 Y53.564
X23.923 Y53.562
X24.391
X24.543 Y53.528
X24.684 Y53.46
X24.806 Y53.363
X24.904 Y53.242
X24.972 Y53.102
X25.008 Y52.95
X25.009 Y52.794
X24.976 Y52.641
X24.71 Y52.077
X24.481 Y51.752
X24.171 Y51.306
X23.819 Y50.791
X23.469 Y50.274
X23.211 Y49.891
X23.129 Y49.765
X23.049 Y49.639
X22.97 Y49.511
X22.892 Y49.383
X22.816 Y49.254
X22.74 Y49.124
X22.659 Y48.982
X22.569 Y48.822
X22.468 Y48.637
X22.351 Y48.421
X22.212 Y48.161
X22.041 Y47.835
X21.882 Y47.524
X21.814 Y47.39
X21.748 Y47.255
X21.685 Y47.119
X21.623 Y46.983
X21.562 Y46.845
X21.503 Y46.707
X21.446 Y46.569
X21.387 Y46.427
X21.323 Y46.267
X21.252 Y46.085
X21.172 Y45.874
X21.078 Y45.625
X20.967 Y45.32
X20.83 Y44.939
X20.78 Y44.797
X20.733 Y44.655
X20.688 Y44.512
X20.644 Y44.368
X20.603 Y44.224
X20.562 Y44.08
X20.523 Y43.935
X20.486 Y43.79
X20.445 Y43.628
X20.4 Y43.444
X20.35 Y43.233
X20.293 Y42.985
X20.226 Y42.685
X20.145 Y42.305
X20.115 Y42.158
X20.085 Y42.011
X20.059 Y41.863
X20.034 Y41.715
X20.011 Y41.567
X19.989 Y41.419
X19.969 Y41.27
X19.95 Y41.121
X19.932 Y40.966
X19.913 Y40.792
X19.893 Y40.594
X19.871 Y40.365
X19.847 Y40.094
X19.82 Y39.76
X19.795 Y39.413
X19.785 Y39.264
X19.777 Y39.114
X19.772 Y38.964
X19.769 Y38.814
X19.767 Y38.664
X19.766 Y38.514
X19.768 Y38.364
X19.77 Y38.213
X19.774 Y38.045
X19.779 Y37.855
X19.788 Y37.636
X19.799 Y37.379
X19.815 Y37.068
X19.839 Y36.673
X19.849 Y36.524
X19.86 Y36.374
X19.874 Y36.225
X19.89 Y36.076
X19.908 Y35.927
X19.927 Y35.778
X19.948 Y35.629
X19.97 Y35.481
X19.994 Y35.323
X20.023 Y35.146
X20.057 Y34.944
X20.099 Y34.71
X20.151 Y34.431
X20.218 Y34.086
X20.273 Y33.81
X20.304 Y33.664
X20.337 Y33.517
X20.372 Y33.371
X20.408 Y33.226
X20.447 Y33.081
X20.487 Y32.936
X20.528 Y32.792
X20.571 Y32.646
X20.62 Y32.483
X20.677 Y32.298
X20.744 Y32.087
X20.826 Y31.838
X20.927 Y31.536
X21.058 Y31.152
X21.108 Y31.01
X21.159 Y30.87
X21.213 Y30.73
X21.269 Y30.59
X21.326 Y30.452
X21.385 Y30.314
X21.445 Y30.176
X21.506 Y30.039
X21.574 Y29.888
X21.653 Y29.719
X21.744 Y29.525
X21.853 Y29.299
X21.986 Y29.027
X22.156 Y28.687
X22.234 Y28.533
X22.303 Y28.4
X22.374 Y28.268
X22.447 Y28.137
X22.521 Y28.007
X22.597 Y27.877
X22.674 Y27.749
X22.752 Y27.621
X22.834 Y27.489
X22.927 Y27.343
X23.033 Y27.177
X23.157 Y26.987
X23.306 Y26.763
X23.49 Y26.491
X23.7 Y26.185
X23.785 Y26.062
X23.873 Y25.94
X23.962 Y25.82
X24.053 Y25.7
X24.145 Y25.582
X24.239 Y25.465
X24.333 Y25.348
X24.429 Y25.232
X24.537 Y25.103
X24.659 Y24.959
X24.801 Y24.794
X24.97 Y24.602
X25.175 Y24.371
X25.437 Y24.08
X25.539 Y23.969
X25.641 Y23.859
X25.745 Y23.751
X25.85 Y23.645
X25.957 Y23.539
X26.065 Y23.435
X26.173 Y23.332
X26.283 Y23.229
X26.399 Y23.122
X26.531 Y23.004
X26.681 Y22.87
X26.856 Y22.715
X27.066 Y22.534
X27.327 Y22.312
X27.569 Y22.108
X27.685 Y22.012
X27.802 Y21.918
X27.92 Y21.826
X28.04 Y21.735
X28.16 Y21.646
X28.282 Y21.558
X28.404 Y21.471
X28.528 Y21.384
X28.668 Y21.288
X28.826 Y21.18
X29.009 Y21.058
X29.226 Y20.915
X29.491 Y20.744
X29.828 Y20.529
X29.955 Y20.45
X30.083 Y20.372
X30.213 Y20.296
X30.343 Y20.221
X30.909 Y19.959
X31.478 Y19.704
X32.05 Y19.453
X32.622 Y19.204
X33.2 Y18.969
X33.789 Y18.764
X34.384 Y18.575
X34.982 Y18.396
X35.581 Y18.223
X36.189 Y18.084
X36.802 Y17.969
X37.418 Y17.867
X38.035 Y17.773
X38.654 Y17.698
X39.277 Y17.655
X39.9 Y17.631
X40.524 Y17.617
X41.148 Y17.609
X41.771 Y17.638
X42.393 Y17.691
X43.013 Y17.757
X43.633 Y17.831
X44.25 Y17.924
X44.861 Y18.05
X45.468 Y18.193
X46.073 Y18.346
X46.677 Y18.504
X47.269 Y18.699
X47.854 Y18.916
X48.435 Y19.146
X49.012 Y19.382
X49.581 Y19.638
X50.137 Y19.922
X50.684 Y20.222
X51.226 Y20.531
X51.765 Y20.845
X52.284 Y21.191
X52.789 Y21.557
X53.287 Y21.933
X53.781 Y22.315
X54.261 Y22.714
X54.72 Y23.136
X55.167 Y23.571
X55.607 Y24.013
X56.043 Y24.46
X56.45 Y24.933
X56.84 Y25.42
X57.219 Y25.915
X57.593 Y26.415
X57.948 Y26.928
X58.278 Y27.458
X58.593 Y27.997
X58.899 Y28.54
X59.2 Y29.087
X59.465 Y29.651
X59.71 Y30.225
X59.944 Y30.804
X60.171 Y31.385
X60.376 Y31.974
X60.551 Y32.573
X60.711 Y33.176
X60.861 Y33.782
X61.004 Y34.389
X61.109 Y35.004
X61.192 Y35.623
X61.263 Y36.243
X61.327 Y36.863
X61.366 Y37.486
X61.376 Y38.11
X61.368 Y38.734
X61.351 Y39.357
X61.326 Y39.981
X61.263 Y40.602
X61.178 Y41.22
X61.081 Y41.836
X60.976 Y42.451
X60.848 Y43.062
X60.69 Y43.665
X60.516 Y44.265
X60.334 Y44.861
X60.143 Y45.455
X60.074 Y45.673
X60.027 Y45.815
X59.977 Y45.957
X59.926 Y46.098
X59.873 Y46.238
X59.819 Y46.378
X59.764 Y46.517
X59.704 Y46.665
X59.636 Y46.83
X59.557 Y47.018
X59.463 Y47.235
X59.372 Y47.442
X59.311 Y47.579
X59.247 Y47.715
X59.182 Y47.85
X59.114 Y47.983
X59.045 Y48.117
X58.974 Y48.249
X58.902 Y48.38
X58.829 Y48.511
X58.752 Y48.646
X58.665 Y48.796
X58.565 Y48.965
X58.449 Y49.16
X58.309 Y49.389
X58.136 Y49.668
X57.991 Y49.899
X57.91 Y50.025
X57.827 Y50.15
X57.743 Y50.274
X57.657 Y50.397
X57.569 Y50.519
X57.48 Y50.64
X57.391 Y50.76
X57.299 Y50.88
X57.197 Y51.012
X57.08 Y51.161
X56.944 Y51.332
X56.784 Y51.53
X56.587 Y51.769
X56.274 Y52.143
X56.202 Y52.282
X56.163 Y52.433
X56.159 Y52.589
X56.188 Y52.742
X56.252 Y52.884
X56.345 Y53.01
X56.463 Y53.111
X56.739 Y53.256
X57.35 Y53.383
X57.97 Y53.457
X58.592 Y53.501
X59.215 Y53.527
X59.839 Y53.541
X60.463 Y53.55
X61.087 Y53.555
X61.711 Y53.558
X62.959 Y53.561
X66.703 Y53.562
X67.29
X67.506 Y53.596
X67.701 Y53.696
X67.856 Y53.851
X67.956 Y54.046
X67.99 Y54.262
G0 Z5
X13.625 Y55.733
Z-2.385
G1 Z-2.685 F200
X13.621 Y55.727 Z-2.752
X13.609 Y55.707 Z-2.815
X13.591 Y55.677 Z-2.872
X13.567 Y55.636 Z-2.92
X13.538 Y55.587 Z-2.955
X13.505 Y55.532 Z-2.977
X13.471 Y55.475 Z-2.985
G3 X13.25 Y54.722 I1.36 J-0.809
G1 Y54.291
X13.257 Y54.141
X13.317 Y54.004
X13.393 Y53.874
X13.482 Y53.754
X13.583 Y53.64
X13.709 Y53.52
X13.861 Y53.396
X14.049 Y53.267
X14.28 Y53.134
X14.568 Y52.997
X14.935 Y52.859
X15.421 Y52.718
X16.032 Y52.594
X16.651 Y52.513
X17.273 Y52.459
X17.896 Y52.424
X18.519 Y52.402
X19.143 Y52.387
X19.767 Y52.378
X20.391 Y52.372
X21.249 Y52.367
X21.405
X21.557 Y52.332
X21.697 Y52.264
X21.819 Y52.167
X21.916 Y52.045
X21.984 Y51.904
X22.055 Y51.6
X21.994 Y50.979
X21.827 Y50.378
X21.603 Y49.796
X21.351 Y49.225
X21.085 Y48.661
X20.822 Y48.095
X20.568 Y47.525
X20.327 Y46.949
X20.097 Y46.369
X19.878 Y45.785
X19.677 Y45.195
X19.495 Y44.598
X19.33 Y43.996
X19.179 Y43.391
X19.042 Y42.782
X18.926 Y42.169
X18.829 Y41.552
X18.75 Y40.934
X18.685 Y40.313
X18.635 Y39.691
X18.607 Y39.068
X18.599 Y38.444
X18.607 Y37.82
X18.629 Y37.196
X18.669 Y36.574
X18.73 Y35.953
X18.81 Y35.334
X18.905 Y34.717
X19.014 Y34.103
X19.142 Y33.492
X19.291 Y32.886
X19.457 Y32.285
X19.638 Y31.688
X19.832 Y31.095
X20.046 Y30.509
X20.279 Y29.93
X20.529 Y29.358
X20.791 Y28.792
X21.068 Y28.233
X21.363 Y27.683
X21.676 Y27.143
X22.003 Y26.612
X22.341 Y26.088
X22.694 Y25.573
X23.065 Y25.071
X23.451 Y24.581
X23.849 Y24.101
X24.258 Y23.629
X24.681 Y23.17
X25.119 Y22.726
X25.57 Y22.296
X26.032 Y21.876
X26.503 Y21.466
X26.987 Y21.072
X27.484 Y20.695
X27.991 Y20.332
X28.506 Y19.98
X29.03 Y19.642
X29.573 Y19.333
X30.127 Y19.046
X30.688 Y18.774
X31.254 Y18.512
X31.825 Y18.26
X32.403 Y18.023
X32.987 Y17.805
X33.577 Y17.601
X34.17 Y17.409
X34.769 Y17.232
X35.373 Y17.075
X35.981 Y16.937
X36.593 Y16.816
X37.208 Y16.709
X37.825 Y16.617
X38.445 Y16.547
X39.067 Y16.497
X39.69 Y16.463
X40.314 Y16.44
X40.937 Y16.439
X41.561 Y16.459
X42.184 Y16.498
X42.805 Y16.552
X43.426 Y16.62
X44.043 Y16.708
X44.658 Y16.817
X45.269 Y16.943
X45.877 Y17.082
X46.482 Y17.236
X47.08 Y17.412
X47.673 Y17.607
X48.26 Y17.818
X48.843 Y18.041
X49.419 Y18.281
X49.986 Y18.54
X50.545 Y18.817
X51.097 Y19.108
X51.644 Y19.409
X52.18 Y19.729
X52.704 Y20.068
X53.217 Y20.422
X53.723 Y20.787
X54.22 Y21.165
X54.704 Y21.559
X55.174 Y21.969
X55.633 Y22.391
X56.084 Y22.823
X56.523 Y23.267
X56.946 Y23.725
X57.353 Y24.198
X57.748 Y24.68
X58.133 Y25.172
X58.503 Y25.674
X58.856 Y26.189
X59.193 Y26.714
X59.516 Y27.247
X59.83 Y27.787
X60.125 Y28.337
X60.4 Y28.897
X60.658 Y29.465
X60.904 Y30.038
X61.135 Y30.618
X61.347 Y31.205
X61.54 Y31.798
X61.716 Y32.397
X61.88 Y32.999
X62.028 Y33.605
X62.154 Y34.216
X62.261 Y34.831
X62.351 Y35.448
X62.428 Y36.067
X62.487 Y36.688
X62.525 Y37.311
X62.543 Y37.935
X62.546 Y38.559
X62.537 Y39.183
X62.507 Y39.806
X62.454 Y40.427
X62.383 Y41.047
X62.299 Y41.666
X62.199 Y42.281
X62.079 Y42.894
X61.938 Y43.502
X61.782 Y44.106
X61.612 Y44.706
X61.434 Y45.304
X61.242 Y45.898
X61.032 Y46.485
X60.807 Y47.067
X60.565 Y47.642
X60.302 Y48.208
X60.018 Y48.764
X59.718 Y49.311
X59.404 Y49.85
X59.076 Y50.381
X58.989 Y50.51
X58.901 Y50.639
X58.844 Y50.784
X58.821 Y50.939
X58.832 Y51.094
X58.878 Y51.243
X58.955 Y51.379
X59.166 Y51.609
X59.714 Y51.908
X60.31 Y52.092
X60.924 Y52.203
X61.544 Y52.269
X62.167 Y52.308
X62.791 Y52.33
X63.414 Y52.344
X64.038 Y52.351
X64.662 Y52.356
X65.286 Y52.358
X66.527 Y52.362
X66.828 Y52.387
X67.105 Y52.433
X67.306 Y52.483
X67.509 Y52.551
X67.566 Y52.576
X67.739 Y52.682
X67.874 Y52.834
X67.96 Y53.018
X67.99 Y53.219
Y53.313
G0 Z5
X13.625 Y55.303
Z-2.385
G1 Z-2.685 F200
X13.621 Y55.296 Z-2.752
X13.609 Y55.277 Z-2.815
X13.591 Y55.246 Z-2.872
X13.567 Y55.206 Z-2.92
X13.538 Y55.157 Z-2.955
X13.505 Y55.102 Z-2.977
X13.471 Y55.045 Z-2.985
G3 X13.25 Y54.291 I1.36 J-0.809
G1 Y53.618
X13.257 Y53.468
X13.291 Y53.322
X13.344 Y53.181
X13.411 Y53.047
X13.49 Y52.92
X13.589 Y52.786
X13.712 Y52.646
X13.858 Y52.504
X14.05 Y52.345
X14.26 Y52.199
X14.543 Y52.032
X14.86 Y51.88
X15.278 Y51.718
X15.809 Y51.56
X16.42 Y51.431
X17.037 Y51.342
X17.658 Y51.282
X18.281 Y51.242
X18.904 Y51.215
X19.06 Y51.21
X19.211 Y51.171
X19.35 Y51.1
X19.469 Y50.999
X19.563 Y50.875
X19.692 Y50.591
X19.792 Y49.975
X19.742 Y49.353
X19.608 Y48.743
X19.43 Y48.146
X19.23 Y47.554
X19.022 Y46.966
X18.817 Y46.377
X18.622 Y45.784
X18.439 Y45.188
X18.268 Y44.587
X18.111 Y43.984
X17.969 Y43.376
X17.844 Y42.765
X17.736 Y42.15
X17.643 Y41.533
X17.566 Y40.914
X17.505 Y40.293
X17.462 Y39.671
X17.436 Y39.047
X17.427 Y38.423
X17.433 Y37.8
X17.456 Y37.176
X17.496 Y36.553
X17.554 Y35.932
X17.628 Y35.313
X17.718 Y34.695
X17.824 Y34.08
X17.948 Y33.469
X18.089 Y32.861
X18.246 Y32.257
X18.418 Y31.657
X18.606 Y31.062
X18.811 Y30.473
X19.032 Y29.89
X19.269 Y29.312
X19.52 Y28.741
X19.786 Y28.177
X20.067 Y27.62
X20.365 Y27.071
X20.677 Y26.531
X21.002 Y25.998
X21.34 Y25.474
X21.694 Y24.96
X22.062 Y24.456
X22.443 Y23.963
X22.837 Y23.478
X23.243 Y23.005
X23.663 Y22.543
X24.095 Y22.093
X24.54 Y21.656
X24.995 Y21.229
X25.461 Y20.814
X25.939 Y20.413
X26.428 Y20.025
X26.927 Y19.651
X27.435 Y19.289
X27.954 Y18.942
X28.485 Y18.615
X29.028 Y18.306
X29.579 Y18.014
X30.137 Y17.736
X30.702 Y17.47
X31.272 Y17.217
X31.849 Y16.98
X32.432 Y16.756
X33.02 Y16.547
X33.612 Y16.351
X34.209 Y16.171
X34.812 Y16.008
X35.418 Y15.861
X36.028 Y15.73
X36.641 Y15.614
X37.257 Y15.514
X37.876 Y15.432
X38.496 Y15.368
X39.118 Y15.319
X39.741 Y15.285
X40.365 Y15.268
X40.989 Y15.271
X41.613 Y15.29
X42.235 Y15.326
X42.857 Y15.377
X43.478 Y15.445
X44.096 Y15.531
X44.711 Y15.635
X45.323 Y15.753
X45.933 Y15.887
X46.538 Y16.038
X47.139 Y16.207
X47.735 Y16.392
X48.326 Y16.593
X48.911 Y16.808
X49.491 Y17.039
X50.063 Y17.287
X50.629 Y17.551
X51.187 Y17.829
X51.739 Y18.12
X52.283 Y18.427
X52.817 Y18.749
X53.341 Y19.087
X53.857 Y19.438
X54.364 Y19.802
X54.861 Y20.179
X55.347 Y20.571
X55.821 Y20.976
X56.286 Y21.393
X56.739 Y21.821
X57.181 Y22.262
X57.609 Y22.715
X58.025 Y23.181
X58.429 Y23.656
X58.82 Y24.142
X59.198 Y24.639
X59.562 Y25.146
X59.911 Y25.663
X60.247 Y26.188
X60.571 Y26.722
X60.879 Y27.264
X61.171 Y27.816
X61.447 Y28.375
X61.709 Y28.941
X61.957 Y29.514
X62.189 Y30.093
X62.404 Y30.679
X62.603 Y31.271
X62.786 Y31.867
X62.955 Y32.467
X63.107 Y33.073
X63.241 Y33.682
X63.358 Y34.295
X63.46 Y34.91
X63.546 Y35.528
X63.615 Y36.149
X63.666 Y36.77
X63.699 Y37.393
X63.718 Y38.017
X63.72 Y38.641
X63.706 Y39.265
X63.672 Y39.888
X63.622 Y40.51
X63.556 Y41.13
X63.473 Y41.749
X63.374 Y42.365
X63.258 Y42.978
X63.124 Y43.587
X62.975 Y44.193
X62.813 Y44.796
X62.639 Y45.395
X62.451 Y45.99
X62.248 Y46.58
X62.03 Y47.164
X61.796 Y47.743
X61.543 Y48.313
X61.273 Y48.876
X61.13 Y49.153
X61.057 Y49.291
X61.017 Y49.442
X61.01 Y49.597
X61.039 Y49.751
X61.1 Y49.894
X61.284 Y50.146
X61.773 Y50.534
X62.346 Y50.78
X62.951 Y50.933
X63.568 Y51.025
X64.19 Y51.081
X64.813 Y51.114
X65.437 Y51.134
X66.06 Y51.157
X66.593 Y51.208
X66.941 Y51.27
X67.235 Y51.347
X67.443 Y51.42
X67.573 Y51.477
X67.744 Y51.584
X67.877 Y51.735
X67.961 Y51.918
X67.99 Y52.117
Y53.219
G0 Z5
X13.625 Y54.629
Z-2.385
G1 Z-2.685 F200
X13.621 Y54.623 Z-2.752
X13.609 Y54.604 Z-2.815
X13.591 Y54.573 Z-2.872
X13.567 Y54.532 Z-2.92
X13.538 Y54.483 Z-2.955
X13.505 Y54.429 Z-2.977
X13.471 Y54.371 Z-2.985
G3 X13.25 Y53.618 I1.36 J-0.809
G1 Y52.733
X13.257 Y52.583
X13.286 Y52.435
X13.33 Y52.292
X13.39 Y52.155
X13.461 Y52.022
X13.557 Y51.875
X13.669 Y51.728
X13.814 Y51.568
X13.988 Y51.404
X14.201 Y51.233
X14.462 Y51.057
X14.773 Y50.881
X15.152 Y50.705
X15.631 Y50.528
X16.232 Y50.36
X16.844 Y50.239
X16.999 Y50.218
X17.145 Y50.163
X17.275 Y50.077
X17.491 Y49.852
X17.793 Y49.306
X17.891 Y48.69
X17.864 Y48.066
X17.764 Y47.45
X17.625 Y46.842
X17.469 Y46.238
X17.308 Y45.635
X17.148 Y45.032
X16.997 Y44.427
X16.856 Y43.819
X16.73 Y43.208
X16.617 Y42.594
X16.519 Y41.978
X16.435 Y41.36
X16.367 Y40.739
X16.315 Y40.118
X16.279 Y39.495
X16.258 Y38.871
X16.253 Y38.247
X16.264 Y37.623
X16.291 Y37
X16.334 Y36.378
X16.393 Y35.756
X16.468 Y35.137
X16.558 Y34.519
X16.664 Y33.905
X16.786 Y33.293
X16.924 Y32.684
X17.077 Y32.079
X17.246 Y31.479
X17.43 Y30.882
X17.629 Y30.291
X17.845 Y29.706
X18.074 Y29.126
X18.318 Y28.551
X18.577 Y27.984
X18.85 Y27.423
X19.138 Y26.869
X19.44 Y26.323
X19.755 Y25.784
X20.084 Y25.254
X20.426 Y24.732
X20.782 Y24.22
X21.151 Y23.717
X21.532 Y23.223
X21.926 Y22.738
X22.332 Y22.265
X22.75 Y21.802
X23.18 Y21.35
X23.622 Y20.909
X24.074 Y20.479
X24.537 Y20.061
X25.012 Y19.656
X25.497 Y19.263
X25.991 Y18.883
X26.495 Y18.515
X27.01 Y18.162
X27.535 Y17.826
X28.07 Y17.505
X28.615 Y17.2
X29.166 Y16.909
X29.725 Y16.631
X30.29 Y16.367
X30.862 Y16.116
X31.439 Y15.879
X32.021 Y15.655
X32.609 Y15.444
X33.201 Y15.248
X33.798 Y15.067
X34.4 Y14.902
X35.005 Y14.751
X35.614 Y14.615
X36.226 Y14.494
X36.841 Y14.39
X37.459 Y14.302
X38.079 Y14.229
X38.7 Y14.171
X39.322 Y14.13
X39.946 Y14.104
X40.57 Y14.095
X41.194 Y14.103
X41.817 Y14.125
X42.44 Y14.164
X43.062 Y14.219
X43.681 Y14.29
X44.299 Y14.377
X44.915 Y14.479
X45.528 Y14.597
X46.137 Y14.73
X46.743 Y14.879
X47.344 Y15.045
X47.942 Y15.225
X48.534 Y15.421
X49.121 Y15.632
X49.703 Y15.858
X50.278 Y16.1
X50.847 Y16.356
X51.41 Y16.625
X51.965 Y16.909
X52.513 Y17.208
X53.053 Y17.521
X53.585 Y17.848
X54.108 Y18.188
X54.622 Y18.541
X55.127 Y18.907
X55.622 Y19.287
X56.108 Y19.679
X56.583 Y20.083
X57.048 Y20.499
X57.503 Y20.926
X57.946 Y21.366
X58.377 Y21.817
X58.796 Y22.279
X59.204 Y22.751
X59.599 Y23.234
X59.982 Y23.727
X60.351 Y24.23
X60.708 Y24.742
X61.051 Y25.262
X61.382 Y25.792
X61.699 Y26.329
X62.001 Y26.875
X62.289 Y27.429
X62.563 Y27.989
X62.823 Y28.556
X63.068 Y29.13
X63.297 Y29.71
X63.512 Y30.296
X63.712 Y30.887
X63.897 Y31.483
X64.068 Y32.083
X64.222 Y32.688
X64.36 Y33.296
X64.482 Y33.908
X64.589 Y34.523
X64.68 Y35.14
X64.755 Y35.76
X64.813 Y36.381
X64.856 Y37.003
X64.883 Y37.627
X64.895 Y38.251
X64.89 Y38.875
X64.869 Y39.498
X64.831 Y40.121
X64.778 Y40.743
X64.709 Y41.363
X64.625 Y41.981
X64.524 Y42.597
X64.407 Y43.21
X64.275 Y43.819
X64.129 Y44.426
X63.97 Y45.029
X63.798 Y45.629
X63.612 Y46.225
X63.413 Y46.816
X63.198 Y47.402
X63.083 Y47.692
X62.963 Y47.98
X62.936 Y48.133
X62.943 Y48.289
X62.985 Y48.439
X63.133 Y48.714
X63.558 Y49.171
X64.104 Y49.473
X64.698 Y49.665
X65.309 Y49.789
X65.925 Y49.887
X66.54 Y49.995
X66.976 Y50.099
X67.298 Y50.203
X67.519 Y50.295
X67.61 Y50.342
X67.766 Y50.451
X67.887 Y50.6
X67.964 Y50.775
X67.99 Y50.964
Y52.117
G0 Z5
X13.625 Y53.744
Z-2.385
G1 Z-2.685 F200
X13.621 Y53.737 Z-2.752
X13.609 Y53.718 Z-2.815
X13.591 Y53.688 Z-2.872
X13.567 Y53.647 Z-2.92
X13.538 Y53.598 Z-2.955
X13.505 Y53.543 Z-2.977
X13.471 Y53.486 Z-2.985
G3 X13.25 Y52.733 I1.36 J-0.809
G1 Y51.741
X13.257 Y51.591
X13.285 Y51.443
X13.328 Y51.3
X13.384 Y51.161
X13.458 Y51.018
X13.552 Y50.865
X13.668 Y50.706
X13.818 Y50.534
X13.992 Y50.362
X14.218 Y50.173
X14.475 Y49.991
X14.809 Y49.793
X15.369 Y49.519
X15.621 Y49.334
X15.821 Y49.095
X16.125 Y48.55
X16.252 Y47.94
X16.262 Y47.316
X16.202 Y46.695
X16.101 Y46.079
X15.979 Y45.467
X15.85 Y44.857
X15.722 Y44.246
X15.6 Y43.634
X15.488 Y43.02
X15.388 Y42.404
X15.301 Y41.786
X15.228 Y41.167
X15.169 Y40.546
X15.124 Y39.923
X15.095 Y39.3
X15.08 Y38.676
Y38.052
X15.096 Y37.429
X15.127 Y36.805
X15.172 Y36.183
X15.233 Y35.562
X15.309 Y34.943
X15.4 Y34.326
X15.506 Y33.711
X15.627 Y33.099
X15.763 Y32.49
X15.913 Y31.884
X16.079 Y31.282
X16.259 Y30.685
X16.454 Y30.093
X16.664 Y29.505
X16.888 Y28.923
X17.126 Y28.346
X17.379 Y27.775
X17.645 Y27.211
X17.925 Y26.653
X18.218 Y26.103
X18.524 Y25.559
X18.844 Y25.023
X19.176 Y24.495
X19.521 Y23.975
X19.879 Y23.464
X20.249 Y22.962
X20.631 Y22.468
X21.025 Y21.985
X21.431 Y21.511
X21.849 Y21.047
X22.277 Y20.594
X22.717 Y20.151
X23.167 Y19.718
X23.627 Y19.298
X24.098 Y18.888
X24.579 Y18.491
X25.07 Y18.106
X25.571 Y17.733
X26.081 Y17.375
X26.602 Y17.03
X27.131 Y16.7
X27.669 Y16.385
X28.215 Y16.083
X28.768 Y15.794
X29.328 Y15.518
X29.894 Y15.256
X30.466 Y15.007
X31.044 Y14.77
X31.626 Y14.547
X32.214 Y14.337
X32.806 Y14.14
X33.403 Y13.958
X34.004 Y13.79
X34.608 Y13.636
X35.217 Y13.497
X35.828 Y13.372
X36.442 Y13.263
X36.513 Y13.254
X36.548 Y13.251
X36.583 Y13.25
X43.454
X44.077 Y13.281
X44.7 Y13.321
X45.319 Y13.399
X45.934 Y13.505
X46.544 Y13.633
X47.151 Y13.781
X47.752 Y13.945
X48.35 Y14.125
X48.942 Y14.321
X49.529 Y14.532
X50.111 Y14.757
X50.687 Y14.997
X51.257 Y15.251
X51.821 Y15.518
X52.378 Y15.799
X52.928 Y16.094
X53.47 Y16.402
X54.005 Y16.724
X54.531 Y17.059
X55.05 Y17.407
X55.559 Y17.767
X56.059 Y18.14
X56.551 Y18.524
X57.032 Y18.921
X57.504 Y19.329
X57.966 Y19.748
X58.418 Y20.179
X58.858 Y20.621
X59.288 Y21.073
X59.707 Y21.536
X60.114 Y22.009
X60.509 Y22.492
X60.892 Y22.984
X61.263 Y23.486
X61.622 Y23.996
X61.968 Y24.515
X62.302 Y25.042
X62.622 Y25.578
X62.929 Y26.121
X63.222 Y26.672
X63.502 Y27.23
X63.768 Y27.794
X64.02 Y28.365
X64.258 Y28.942
X64.482 Y29.524
X64.691 Y30.112
X64.887 Y30.704
X65.068 Y31.301
X65.234 Y31.903
X65.385 Y32.508
X65.521 Y33.117
X65.643 Y33.729
X65.749 Y34.344
X65.84 Y34.961
X65.916 Y35.58
X65.977 Y36.201
X66.022 Y36.824
X66.053 Y37.447
X66.069 Y38.071
X66.068 Y38.695
X66.052 Y39.318
X66.021 Y39.942
X65.975 Y40.564
X65.913 Y41.185
X65.836 Y41.804
X65.744 Y42.421
X65.637 Y43.036
X65.516 Y43.648
X65.381 Y44.257
X65.232 Y44.863
X65.071 Y45.465
X64.896 Y46.064
X64.708 Y46.659
X64.695 Y46.815
X64.736 Y47.124
X64.87 Y47.406
X65.253 Y47.898
X65.766 Y48.253
X66.329 Y48.522
X66.908 Y48.755
X67.354 Y48.944
X67.612 Y49.079
X67.663 Y49.112
X67.799 Y49.223
X67.903 Y49.366
X67.968 Y49.529
X67.99 Y49.704
Y50.964
G0 Z5
X42.442 Y13.625
Z-2.385
G1 Z-2.685 F200
X42.449 Y13.621 Z-2.752
X42.468 Y13.609 Z-2.815
X42.499 Y13.591 Z-2.872
X42.539 Y13.567 Z-2.92
X42.588 Y13.538 Z-2.955
X42.643 Y13.505 Z-2.977
X42.7 Y13.471 Z-2.985
G3 X43.454 Y13.25 I0.809 J1.36
G1 X48.13
X48.672 Y13.277
X49.136 Y13.338
X49.746 Y13.469
X50.344 Y13.647
X50.931 Y13.859
X51.509 Y14.094
X52.079 Y14.348
X52.641 Y14.619
X53.196 Y14.905
X53.743 Y15.205
X54.073 Y15.397
X54.125 Y15.431
X54.175 Y15.469
X54.22 Y15.511
G3 X53.895 Y15.995 I-0.221 J0.203
G1 X48.036 Y13.831
G3 X48.13 Y13.25 I0.104 J-0.281
G1 X51.247
X51.388
X51.431
X51.581 Y13.257
X51.832 Y13.293
X51.979 Y13.33
X52.115 Y13.398
X52.233 Y13.495
G3 X51.937 Y13.988 I-0.221 J0.203
G1 X51.922 Y13.984
X51.367 Y13.84
G3 X51.431 Y13.25 I0.075 J-0.29
G1 X51.814
X51.955 Y13.251
X51.97 Y13.254
X51.986 Y13.258
X52.001 Y13.265
X52.016 Y13.275
X52.575 Y13.842
X62.865 Y24.284
X63.281 Y24.75
X63.66 Y25.239
X64.002 Y25.761
X64.314 Y26.302
X64.604 Y26.854
X64.875 Y27.416
X65.129 Y27.986
X65.368 Y28.562
X65.592 Y29.145
X65.803 Y29.732
X65.999 Y30.324
X66.181 Y30.921
X66.349 Y31.522
X66.503 Y32.127
X66.643 Y32.735
X66.768 Y33.346
X66.879 Y33.96
X66.975 Y34.577
X67.056 Y35.195
X67.123 Y35.816
X67.175 Y36.437
X67.213 Y37.06
X67.237 Y37.684
X67.245 Y38.307
X67.239 Y38.931
X67.219 Y39.555
X67.183 Y40.178
X67.133 Y40.8
X67.069 Y41.42
X66.99 Y42.039
X66.897 Y42.656
X66.789 Y43.271
X66.669 Y43.883
X66.534 Y44.492
X66.387 Y45.099
X66.307 Y45.4
X66.272 Y45.71
X66.329 Y46.017
X66.575 Y46.59
X66.988 Y47.058
X67.472 Y47.452
X67.72 Y47.646
X67.866 Y47.8
X67.958 Y47.99
X67.99 Y48.198
Y49.704
G0 Z5
X61.889 Y23.827
Z-2.385
G1 Z-2.685 F200
X61.896 Y23.829 Z-2.752
X61.917 Y23.834 Z-2.815
X61.952 Y23.843 Z-2.872
X61.998 Y23.856 Z-2.92
X62.053 Y23.87 Z-2.955
X62.114 Y23.886 Z-2.977
X62.179 Y23.903 Z-2.985
G3 X62.865 Y24.284 I-0.401 J1.531
G1 X65.416 Y26.873
X65.706 Y27.198
X65.944 Y27.512
X66.216 Y27.94
X66.508 Y28.492
X66.761 Y29.062
X66.985 Y29.645
X67.186 Y30.235
X67.369 Y30.832
X67.536 Y31.433
X67.688 Y32.038
X67.825 Y32.647
X67.947 Y33.259
X67.979 Y33.442
X67.985 Y33.482
X67.989 Y33.522
X67.99 Y33.563
G3 X67.41 Y33.66 I-0.3 J-0.01
G1 X64.93 Y27.198
G3 X65.416 Y26.873 I0.28 J-0.108
G1 X67.377 Y28.862
X67.584 Y29.095
X67.768 Y29.339
X67.88 Y29.515
X67.941 Y29.632
X67.978 Y29.759
X67.99 Y29.891
G3 X67.439 Y30.044 I-0.3 J-0.01
G1 X67.424 Y30.022
X66.919 Y29.244
G3 X67.377 Y28.862 I0.252 J-0.163
G1 X67.935 Y29.429
X67.966 Y29.463
X67.974 Y29.476
X67.98 Y29.49
X67.988 Y29.517
X67.99 Y29.53
Y42.041
X67.959 Y42.664
X67.911 Y43.286
X67.825 Y43.904
X67.713 Y44.518
X67.719 Y44.83
X67.848 Y45.44
X67.91 Y45.557
X67.954 Y45.661
X67.981 Y45.77
X67.99 Y45.883
G3 X67.39 Y45.872 I-0.3 J-0.01
G1 Y42.051
G3 X67.99 Y42.041 I0.3 J0
G1 Y48.198
G0 Z5
X13.625 Y52.752
Z-2.385
G1 Z-2.685 F200
X13.621 Y52.746 Z-2.752
X13.609 Y52.726 Z-2.815
X13.591 Y52.696 Z-2.872
X13.567 Y52.655 Z-2.92
X13.538 Y52.606 Z-2.955
X13.505 Y52.552 Z-2.977
X13.471 Y52.494 Z-2.985
G3 X13.25 Y51.741 I1.36 J-0.809
G1 Y50.685
X13.257 Y50.535
X13.286 Y50.388
X13.33 Y50.244
X13.386 Y50.105
X13.462 Y49.956
X13.56 Y49.795
X13.681 Y49.628
X14.088 Y49.155
X14.468 Y48.661
X14.703 Y48.083
X14.812 Y47.468
X14.829 Y46.844
X14.787 Y46.222
X14.709 Y45.603
X14.612 Y44.987
X14.4 Y43.757
X14.299 Y43.141
X14.206 Y42.524
X14.124 Y41.906
X14.054 Y41.286
X13.996 Y40.664
X13.952 Y40.042
X13.921 Y39.419
X13.905 Y38.795
X13.902 Y38.171
X13.914 Y37.547
X13.941 Y36.924
X13.982 Y36.301
X14.037 Y35.68
X14.107 Y35.06
X14.192 Y34.442
X14.291 Y33.826
X14.404 Y33.212
X14.531 Y32.601
X14.673 Y31.994
X14.829 Y31.389
X14.999 Y30.789
X15.183 Y30.193
X15.381 Y29.601
X15.593 Y29.014
X15.818 Y28.433
X16.058 Y27.856
X16.31 Y27.286
X16.576 Y26.721
X16.855 Y26.163
X17.146 Y25.611
X17.203 Y25.509
X17.236 Y25.455
X17.274 Y25.405
X17.316 Y25.359
X26.43 Y16.109
X26.822 Y15.75
X27.288 Y15.386
X27.809 Y15.043
X28.35 Y14.731
X28.903 Y14.443
X29.465 Y14.173
X30.035 Y13.919
X30.612 Y13.68
X31.193 Y13.454
X31.645 Y13.292
X31.722 Y13.269
X31.802 Y13.255
X31.882 Y13.25
G3 X32.012 Y13.815 I-0.01 J0.3
G1 X26.792 Y16.577
G3 X26.43 Y16.109 I-0.14 J-0.265
G1 X28.804 Y13.7
X28.86 Y13.644
X28.944 Y13.558
X29.091 Y13.423
X29.123 Y13.398
X29.255 Y13.317
X29.401 Y13.267
X29.554 Y13.25
G3 X29.69 Y13.812 I-0.01 J0.3
G1 X29.684 Y13.815
X29.311 Y14.023
G3 X28.944 Y13.558 I-0.146 J-0.262
G1 X29.224 Y13.275
X29.239 Y13.265
X29.254 Y13.258
X29.27 Y13.254
X29.285 Y13.251
X29.568 Y13.25
X36.583
G0 Z5
X13.625 Y51.696
Z-2.385
G1 Z-2.685 F200
X13.621 Y51.69 Z-2.752
X13.609 Y51.671 Z-2.815
X13.591 Y51.64 Z-2.872
X13.567 Y51.599 Z-2.92
X13.538 Y51.55 Z-2.955
X13.505 Y51.496 Z-2.977
X13.471 Y51.438 Z-2.985
G3 X13.25 Y50.685 I1.36 J-0.809
G1 Y49.551
X13.257 Y49.401
X13.341 Y48.783
X13.456 Y48.17
X13.522 Y47.549
X13.537 Y46.926
X13.508 Y46.302
X13.449 Y45.681
X13.37 Y45.062
X13.28 Y44.445
X13.258 Y44.292
X13.253 Y44.258
X13.251 Y44.223
X13.25 Y44.189
G3 X13.85 Y44.199 I0.3 J0.01
G1 Y49.541
G3 X13.25 Y49.551 I-0.3 J0
G1 Y34.247
X13.281 Y33.624
X13.331 Y33.002
X13.423 Y32.385
X13.543 Y31.773
X13.686 Y31.165
X13.848 Y30.563
X14.025 Y29.965
X14.218 Y29.371
X14.425 Y28.782
X14.645 Y28.199
X14.682 Y28.108
X14.722 Y28.025
X14.772 Y27.948
X14.832 Y27.879
G3 X15.33 Y28.168 I0.206 J0.218
G1 X15.327 Y28.183
X13.841 Y34.307
G3 X13.25 Y34.247 I-0.292 J-0.071
G1 Y29.854
Y29.53
X13.252 Y29.517
X13.26 Y29.49
X13.266 Y29.476
X13.274 Y29.463
X13.305 Y29.429
X17.316 Y25.359
G3 X17.81 Y25.662 I0.206 J0.218
G1 X17.791 Y25.726 Z-2.977
X17.772 Y25.787 Z-2.955
X17.756 Y25.842 Z-2.92
X17.743 Y25.887 Z-2.872
X17.732 Y25.921 Z-2.815
X17.726 Y25.943 Z-2.752
X17.724 Y25.95 Z-2.685
G0 Z15
X67.372 Y56.006
Z5
Z-0.4
G1 Z-0.7 F200
X67.376 Y56.012 Z-0.767
X67.387 Y56.031 Z-0.83
X67.405 Y56.062 Z-0.887
X67.429 Y56.103 Z-0.935
X67.459 Y56.152 Z-0.97
X67.491 Y56.206 Z-0.992
X67.525 Y56.264 Z-1
G3 X67.99 Y57.847 I-2.858 J1.699
G1 Y58.018
X67.988 Y58.056
X67.9 Y58.177
X67.794 Y58.284
X67.678 Y58.378
X67.553 Y58.462
X67.423 Y58.537
X67.289 Y58.604
X67.151 Y58.663
X67.011 Y58.716
X66.869 Y58.764
X66.725 Y58.806
X66.58 Y58.844
X66.434 Y58.879
X66.287 Y58.909
X66.139 Y58.937
X65.991 Y58.961
X65.843 Y58.983
X65.694 Y59.003
X65.545 Y59.021
X65.396 Y59.037
X65.247 Y59.051
X65.098 Y59.064
X64.948 Y59.076
X64.792 Y59.086
X64.618 Y59.097
X64.419 Y59.108
X64.19 Y59.119
X63.918 Y59.13
X63.584 Y59.141
X63.152 Y59.151
X62.543 Y59.162
X61.919 Y59.169
X61.295 Y59.173
X60.047 Y59.176
X57.317 Y59.178
X56.849
X56.697 Y59.212
X56.556 Y59.28
X56.434 Y59.377
X56.336 Y59.498
X56.268 Y59.638
X56.232 Y59.79
X56.231 Y59.946
X56.264 Y60.099
X56.53 Y60.663
X56.759 Y60.988
X57.069 Y61.434
X57.421 Y61.949
X57.771 Y62.466
X58.029 Y62.849
X58.111 Y62.975
X58.191 Y63.101
X58.27 Y63.229
X58.348 Y63.357
X58.424 Y63.486
X58.5 Y63.616
X58.581 Y63.758
X58.671 Y63.918
X58.772 Y64.103
X58.889 Y64.319
X59.028 Y64.579
X59.199 Y64.905
X59.358 Y65.216
X59.426 Y65.35
X59.492 Y65.485
X59.555 Y65.621
X59.617 Y65.757
X59.678 Y65.895
X59.737 Y66.033
X59.794 Y66.171
X59.853 Y66.313
X59.917 Y66.473
X59.988 Y66.655
X60.068 Y66.866
X60.162 Y67.115
X60.273 Y67.42
X60.41 Y67.801
X60.46 Y67.943
X60.507 Y68.085
X60.552 Y68.228
X60.596 Y68.372
X60.637 Y68.516
X60.678 Y68.66
X60.717 Y68.805
X60.754 Y68.95
X60.795 Y69.112
X60.84 Y69.296
X60.89 Y69.507
X60.947 Y69.755
X61.014 Y70.055
X61.095 Y70.435
X61.125 Y70.582
X61.155 Y70.729
X61.181 Y70.877
X61.206 Y71.025
X61.229 Y71.173
X61.251 Y71.321
X61.271 Y71.47
X61.29 Y71.619
X61.308 Y71.774
X61.327 Y71.948
X61.347 Y72.146
X61.369 Y72.375
X61.393 Y72.646
X61.42 Y72.98
X61.445 Y73.327
X61.455 Y73.476
X61.463 Y73.626
X61.468 Y73.776
X61.471 Y73.926
X61.473 Y74.076
X61.474 Y74.226
X61.472 Y74.376
X61.47 Y74.527
X61.466 Y74.695
X61.461 Y74.885
X61.452 Y75.104
X61.441 Y75.361
X61.425 Y75.672
X61.401 Y76.067
X61.391 Y76.216
X61.38 Y76.366
X61.366 Y76.515
X61.35 Y76.664
X61.332 Y76.813
X61.313 Y76.962
X61.292 Y77.111
X61.27 Y77.259
X61.246 Y77.417
X61.217 Y77.594
X61.183 Y77.796
X61.141 Y78.03
X61.089 Y78.309
X61.022 Y78.654
X60.967 Y78.93
X60.936 Y79.076
X60.903 Y79.223
X60.868 Y79.369
X60.832 Y79.514
X60.793 Y79.659
X60.753 Y79.804
X60.712 Y79.948
X60.669 Y80.094
X60.62 Y80.257
X60.563 Y80.442
X60.496 Y80.653
X60.414 Y80.902
X60.313 Y81.204
X60.182 Y81.588
X60.132 Y81.73
X60.081 Y81.87
X60.027 Y82.01
X59.971 Y82.15
X59.914 Y82.288
X59.855 Y82.426
X59.795 Y82.564
X59.734 Y82.701
X59.666 Y82.852
X59.587 Y83.021
X59.496 Y83.215
X59.387 Y83.441
X59.254 Y83.713
X59.084 Y84.053
X59.006 Y84.207
X58.937 Y84.34
X58.866 Y84.472
X58.793 Y84.603
X58.719 Y84.733
X58.643 Y84.863
X58.566 Y84.991
X58.488 Y85.119
X58.406 Y85.251
X58.313 Y85.397
X58.207 Y85.563
X58.083 Y85.753
X57.934 Y85.977
X57.75 Y86.249
X57.54 Y86.555
X57.455 Y86.678
X57.367 Y86.8
X57.278 Y86.92
X57.187 Y87.04
X57.095 Y87.158
X57.001 Y87.275
X56.907 Y87.392
X56.811 Y87.508
X56.703 Y87.637
X56.581 Y87.781
X56.439 Y87.946
X56.27 Y88.138
X56.065 Y88.369
X55.803 Y88.66
X55.701 Y88.771
X55.599 Y88.881
X55.495 Y88.989
X55.39 Y89.095
X55.283 Y89.201
X55.175 Y89.305
X55.067 Y89.408
X54.957 Y89.511
X54.841 Y89.618
X54.709 Y89.736
X54.559 Y89.87
X54.384 Y90.025
X54.174 Y90.206
X53.913 Y90.428
X53.671 Y90.632
X53.555 Y90.728
X53.438 Y90.822
X53.32 Y90.914
X53.2 Y91.005
X53.08 Y91.094
X52.958 Y91.182
X52.836 Y91.269
X52.712 Y91.356
X52.572 Y91.452
X52.414 Y91.56
X52.231 Y91.682
X52.014 Y91.825
X51.749 Y91.996
X51.412 Y92.211
X51.285 Y92.29
X51.157 Y92.368
X51.027 Y92.444
X50.897 Y92.519
X50.331 Y92.781
X49.762 Y93.036
X49.19 Y93.287
X48.618 Y93.536
X48.04 Y93.771
X47.451 Y93.976
X46.856 Y94.165
X46.258 Y94.344
X45.659 Y94.517
X45.051 Y94.656
X44.438 Y94.771
X43.822 Y94.873
X43.205 Y94.967
X42.586 Y95.042
X41.963 Y95.085
X41.34 Y95.109
X40.716 Y95.123
X40.092 Y95.131
X39.469 Y95.102
X38.847 Y95.049
X38.227 Y94.983
X37.607 Y94.909
X36.99 Y94.816
X36.379 Y94.69
X35.772 Y94.547
X35.167 Y94.394
X34.563 Y94.236
X33.971 Y94.041
X33.386 Y93.824
X32.805 Y93.594
X32.228 Y93.358
X31.659 Y93.102
X31.103 Y92.818
X30.556 Y92.518
X30.014 Y92.209
X29.475 Y91.895
X28.956 Y91.549
X28.451 Y91.183
X27.953 Y90.807
X27.459 Y90.425
X26.979 Y90.026
X26.52 Y89.604
X26.073 Y89.169
X25.633 Y88.727
X25.197 Y88.28
X24.79 Y87.807
X24.4 Y87.32
X24.021 Y86.825
X23.647 Y86.325
X23.292 Y85.812
X22.962 Y85.282
X22.647 Y84.743
X22.341 Y84.2
X22.04 Y83.653
X21.775 Y83.089
X21.53 Y82.515
X21.296 Y81.936
X21.069 Y81.355
X20.864 Y80.766
X20.689 Y80.167
X20.529 Y79.564
X20.379 Y78.958
X20.236 Y78.351
X20.131 Y77.736
X20.048 Y77.117
X19.977 Y76.497
X19.913 Y75.877
X19.874 Y75.254
X19.864 Y74.63
X19.872 Y74.006
X19.889 Y73.383
X19.914 Y72.759
X19.977 Y72.138
X20.062 Y71.52
X20.159 Y70.904
X20.264 Y70.289
X20.392 Y69.678
X20.55 Y69.075
X20.724 Y68.475
X20.906 Y67.879
X21.097 Y67.285
X21.166 Y67.067
X21.213 Y66.925
X21.263 Y66.783
X21.314 Y66.642
X21.367 Y66.502
X21.421 Y66.362
X21.476 Y66.223
X21.536 Y66.075
X21.604 Y65.91
X21.683 Y65.722
X21.777 Y65.505
X21.868 Y65.298
X21.929 Y65.161
X21.993 Y65.025
X22.058 Y64.89
X22.126 Y64.757
X22.195 Y64.623
X22.266 Y64.491
X22.338 Y64.36
X22.411 Y64.229
X22.488 Y64.094
X22.575 Y63.944
X22.675 Y63.775
X22.791 Y63.58
X22.931 Y63.351
X23.104 Y63.072
X23.249 Y62.841
X23.33 Y62.715
X23.413 Y62.59
X23.497 Y62.466
X23.583 Y62.343
X23.671 Y62.221
X23.76 Y62.1
X23.849 Y61.98
X23.941 Y61.86
X24.043 Y61.728
X24.16 Y61.579
X24.296 Y61.408
X24.456 Y61.21
X24.653 Y60.971
X24.966 Y60.597
X25.038 Y60.458
X25.077 Y60.307
X25.081 Y60.151
X25.052 Y59.998
X24.988 Y59.856
X24.895 Y59.73
X24.777 Y59.629
X24.501 Y59.484
X23.89 Y59.357
X23.27 Y59.283
X22.648 Y59.239
X22.025 Y59.213
X21.401 Y59.199
X20.777 Y59.19
X20.153 Y59.185
X19.529 Y59.182
X18.281 Y59.179
X14.537 Y59.178
X13.95
X13.734 Y59.144
X13.539 Y59.044
X13.384 Y58.889
X13.284 Y58.694
X13.25 Y58.478
G0 Z5
X67.615 Y57.007
Z-0.4
G1 Z-0.7 F200
X67.619 Y57.013 Z-0.767
X67.631 Y57.033 Z-0.83
X67.649 Y57.063 Z-0.887
X67.673 Y57.104 Z-0.935
X67.702 Y57.153 Z-0.97
X67.735 Y57.208 Z-0.992
X67.769 Y57.265 Z-1
G3 X67.99 Y58.018 I-1.36 J0.809
G1 Y58.449
X67.982 Y58.599
X67.923 Y58.736
X67.847 Y58.866
X67.758 Y58.986
X67.657 Y59.1
X67.531 Y59.22
X67.379 Y59.344
X67.191 Y59.473
X66.96 Y59.606
X66.672 Y59.743
X66.305 Y59.881
X65.819 Y60.022
X65.208 Y60.146
X64.589 Y60.227
X63.967 Y60.281
X63.344 Y60.316
X62.721 Y60.338
X62.097 Y60.353
X61.473 Y60.362
X60.849 Y60.368
X59.991 Y60.373
X59.835
X59.683 Y60.408
X59.543 Y60.476
X59.421 Y60.573
X59.324 Y60.695
X59.256 Y60.836
X59.185 Y61.14
X59.246 Y61.761
X59.413 Y62.362
X59.637 Y62.944
X59.889 Y63.515
X60.155 Y64.079
X60.418 Y64.645
X60.672 Y65.215
X60.913 Y65.791
X61.143 Y66.371
X61.362 Y66.955
X61.563 Y67.545
X61.745 Y68.142
X61.91 Y68.744
X62.061 Y69.349
X62.198 Y69.958
X62.314 Y70.571
X62.411 Y71.188
X62.49 Y71.806
X62.555 Y72.427
X62.605 Y73.049
X62.633 Y73.672
X62.641 Y74.296
X62.633 Y74.92
X62.611 Y75.544
X62.571 Y76.166
X62.51 Y76.787
X62.43 Y77.406
X62.335 Y78.023
X62.226 Y78.637
X62.098 Y79.248
X61.949 Y79.854
X61.783 Y80.455
X61.602 Y81.052
X61.408 Y81.645
X61.194 Y82.231
X60.961 Y82.81
X60.711 Y83.382
X60.449 Y83.948
X60.172 Y84.507
X59.877 Y85.057
X59.564 Y85.597
X59.237 Y86.128
X58.899 Y86.652
X58.546 Y87.167
X58.175 Y87.669
X57.789 Y88.159
X57.391 Y88.639
X56.982 Y89.111
X56.559 Y89.57
X56.121 Y90.014
X55.67 Y90.444
X55.208 Y90.864
X54.737 Y91.274
X54.253 Y91.668
X53.756 Y92.045
X53.249 Y92.408
X52.734 Y92.76
X52.21 Y93.098
X51.667 Y93.407
X51.113 Y93.694
X50.552 Y93.966
X49.986 Y94.228
X49.415 Y94.48
X48.837 Y94.717
X48.253 Y94.935
X47.663 Y95.139
X47.07 Y95.331
X46.471 Y95.508
X45.867 Y95.665
X45.259 Y95.803
X44.647 Y95.924
X44.032 Y96.031
X43.415 Y96.123
X42.795 Y96.193
X42.173 Y96.243
X41.55 Y96.277
X40.926 Y96.3
X40.303 Y96.301
X39.679 Y96.281
X39.056 Y96.242
X38.435 Y96.188
X37.814 Y96.12
X37.197 Y96.032
X36.582 Y95.923
X35.971 Y95.797
X35.363 Y95.658
X34.758 Y95.504
X34.16 Y95.328
X33.567 Y95.133
X32.98 Y94.922
X32.397 Y94.699
X31.821 Y94.459
X31.254 Y94.2
X30.695 Y93.923
X30.143 Y93.632
X29.596 Y93.331
X29.06 Y93.011
X28.536 Y92.672
X28.023 Y92.318
X27.517 Y91.953
X27.02 Y91.575
X26.536 Y91.181
X26.066 Y90.771
X25.607 Y90.349
X25.156 Y89.917
X24.717 Y89.473
X24.294 Y89.015
X23.887 Y88.542
X23.492 Y88.06
X23.107 Y87.568
X22.737 Y87.066
X22.384 Y86.551
X22.047 Y86.026
X21.724 Y85.493
X21.41 Y84.953
X21.115 Y84.403
X20.84 Y83.843
X20.582 Y83.275
X20.336 Y82.702
X20.105 Y82.122
X19.893 Y81.535
X19.7 Y80.942
X19.524 Y80.343
X19.36 Y79.741
X19.212 Y79.135
X19.086 Y78.524
X18.979 Y77.909
X18.889 Y77.292
X18.812 Y76.673
X18.753 Y76.052
X18.715 Y75.429
X18.697 Y74.805
X18.694 Y74.181
X18.703 Y73.557
X18.733 Y72.934
X18.786 Y72.313
X18.857 Y71.693
X18.941 Y71.074
X19.041 Y70.459
X19.161 Y69.846
X19.302 Y69.238
X19.458 Y68.634
X19.628 Y68.034
X19.806 Y67.436
X19.998 Y66.842
X20.208 Y66.255
X20.433 Y65.673
X20.675 Y65.098
X20.938 Y64.532
X21.222 Y63.976
X21.522 Y63.429
X21.836 Y62.89
X22.164 Y62.359
X22.251 Y62.23
X22.339 Y62.101
X22.396 Y61.956
X22.419 Y61.801
X22.408 Y61.646
X22.362 Y61.497
X22.285 Y61.361
X22.074 Y61.131
X21.526 Y60.832
X20.93 Y60.648
X20.316 Y60.537
X19.696 Y60.471
X19.073 Y60.432
X18.449 Y60.41
X17.826 Y60.396
X17.202 Y60.389
X16.578 Y60.384
X15.954 Y60.382
X14.713 Y60.378
X14.412 Y60.353
X14.135 Y60.307
X13.934 Y60.257
X13.731 Y60.189
X13.674 Y60.164
X13.501 Y60.058
X13.366 Y59.906
X13.28 Y59.722
X13.25 Y59.521
Y59.427
G0 Z5
X67.615 Y57.437
Z-0.4
G1 Z-0.7 F200
X67.619 Y57.444 Z-0.767
X67.631 Y57.463 Z-0.83
X67.649 Y57.494 Z-0.887
X67.673 Y57.534 Z-0.935
X67.702 Y57.583 Z-0.97
X67.735 Y57.638 Z-0.992
X67.769 Y57.695 Z-1
G3 X67.99 Y58.449 I-1.36 J0.809
G1 Y59.122
X67.982 Y59.272
X67.949 Y59.418
X67.896 Y59.559
X67.829 Y59.693
X67.75 Y59.82
X67.651 Y59.954
X67.528 Y60.094
X67.382 Y60.236
X67.19 Y60.395
X66.98 Y60.541
X66.697 Y60.708
X66.38 Y60.86
X65.962 Y61.022
X65.431 Y61.18
X64.82 Y61.309
X64.203 Y61.398
X63.582 Y61.458
X62.959 Y61.498
X62.336 Y61.525
X62.18 Y61.53
X62.029 Y61.569
X61.89 Y61.64
X61.771 Y61.741
X61.677 Y61.865
X61.548 Y62.149
X61.448 Y62.765
X61.498 Y63.387
X61.632 Y63.997
X61.81 Y64.594
X62.01 Y65.186
X62.218 Y65.774
X62.423 Y66.363
X62.618 Y66.956
X62.801 Y67.552
X62.972 Y68.153
X63.129 Y68.756
X63.271 Y69.364
X63.396 Y69.975
X63.504 Y70.59
X63.597 Y71.207
X63.674 Y71.826
X63.735 Y72.447
X63.778 Y73.069
X63.804 Y73.693
X63.813 Y74.317
X63.807 Y74.94
X63.784 Y75.564
X63.744 Y76.187
X63.686 Y76.808
X63.612 Y77.427
X63.522 Y78.045
X63.416 Y78.66
X63.292 Y79.271
X63.151 Y79.879
X62.994 Y80.483
X62.822 Y81.083
X62.634 Y81.678
X62.429 Y82.267
X62.208 Y82.85
X61.971 Y83.428
X61.72 Y83.999
X61.454 Y84.563
X61.173 Y85.12
X60.875 Y85.669
X60.563 Y86.209
X60.238 Y86.742
X59.9 Y87.266
X59.546 Y87.78
X59.178 Y88.284
X58.797 Y88.777
X58.403 Y89.262
X57.997 Y89.735
X57.577 Y90.197
X57.145 Y90.647
X56.7 Y91.084
X56.245 Y91.511
X55.779 Y91.926
X55.301 Y92.327
X54.812 Y92.715
X54.313 Y93.089
X53.805 Y93.451
X53.286 Y93.798
X52.755 Y94.125
X52.212 Y94.434
X51.661 Y94.726
X51.103 Y95.004
X50.538 Y95.27
X49.968 Y95.523
X49.391 Y95.76
X48.808 Y95.984
X48.22 Y96.193
X47.628 Y96.389
X47.031 Y96.569
X46.428 Y96.732
X45.822 Y96.879
X45.212 Y97.01
X44.599 Y97.126
X43.983 Y97.226
X43.364 Y97.308
X42.744 Y97.372
X42.122 Y97.421
X41.499 Y97.455
X40.875 Y97.472
X40.251 Y97.469
X39.627 Y97.45
X39.005 Y97.414
X38.383 Y97.363
X37.762 Y97.295
X37.145 Y97.209
X36.529 Y97.105
X35.917 Y96.987
X35.307 Y96.853
X34.702 Y96.702
X34.101 Y96.533
X33.505 Y96.348
X32.914 Y96.147
X32.329 Y95.932
X31.749 Y95.701
X31.177 Y95.453
X30.611 Y95.189
X30.053 Y94.911
X29.501 Y94.62
X28.957 Y94.313
X28.423 Y93.991
X27.899 Y93.653
X27.383 Y93.302
X26.876 Y92.938
X26.379 Y92.561
X25.893 Y92.169
X25.419 Y91.764
X24.954 Y91.347
X24.501 Y90.919
X24.059 Y90.478
X23.631 Y90.025
X23.215 Y89.559
X22.811 Y89.084
X22.42 Y88.598
X22.042 Y88.101
X21.678 Y87.594
X21.329 Y87.077
X20.993 Y86.552
X20.669 Y86.018
X20.361 Y85.476
X20.069 Y84.924
X19.793 Y84.365
X19.531 Y83.799
X19.283 Y83.226
X19.051 Y82.647
X18.836 Y82.061
X18.637 Y81.469
X18.454 Y80.873
X18.285 Y80.273
X18.133 Y79.667
X17.999 Y79.058
X17.882 Y78.445
X17.78 Y77.83
X17.694 Y77.212
X17.625 Y76.591
X17.574 Y75.97
X17.541 Y75.347
X17.522 Y74.723
X17.52 Y74.099
X17.534 Y73.475
X17.568 Y72.852
X17.618 Y72.23
X17.684 Y71.61
X17.767 Y70.991
X17.866 Y70.375
X17.982 Y69.762
X18.116 Y69.153
X18.265 Y68.547
X18.427 Y67.944
X18.601 Y67.345
X18.789 Y66.75
X18.992 Y66.16
X19.21 Y65.576
X19.444 Y64.997
X19.697 Y64.427
X19.967 Y63.864
X20.11 Y63.587
X20.183 Y63.449
X20.223 Y63.298
X20.23 Y63.143
X20.201 Y62.989
X20.14 Y62.846
X19.956 Y62.594
X19.467 Y62.206
X18.894 Y61.96
X18.289 Y61.807
X17.672 Y61.715
X17.05 Y61.659
X16.427 Y61.626
X15.803 Y61.606
X15.18 Y61.583
X14.647 Y61.532
X14.299 Y61.47
X14.005 Y61.393
X13.797 Y61.32
X13.667 Y61.263
X13.496 Y61.156
X13.363 Y61.005
X13.279 Y60.822
X13.25 Y60.623
Y59.521
G0 Z5
X67.615 Y58.111
Z-0.4
G1 Z-0.7 F200
X67.619 Y58.117 Z-0.767
X67.631 Y58.136 Z-0.83
X67.649 Y58.167 Z-0.887
X67.673 Y58.208 Z-0.935
X67.702 Y58.257 Z-0.97
X67.735 Y58.311 Z-0.992
X67.769 Y58.369 Z-1
G3 X67.99 Y59.122 I-1.36 J0.809
G1 Y60.007
X67.982 Y60.157
X67.954 Y60.305
X67.91 Y60.448
X67.85 Y60.585
X67.779 Y60.718
X67.684 Y60.865
X67.571 Y61.012
X67.426 Y61.172
X67.252 Y61.336
X67.039 Y61.507
X66.778 Y61.683
X66.467 Y61.859
X66.088 Y62.035
X65.609 Y62.212
X65.008 Y62.38
X64.396 Y62.501
X64.241 Y62.522
X64.095 Y62.577
X63.965 Y62.663
X63.749 Y62.888
X63.447 Y63.434
X63.349 Y64.05
X63.376 Y64.674
X63.476 Y65.29
X63.615 Y65.898
X63.771 Y66.502
X63.932 Y67.105
X64.092 Y67.708
X64.243 Y68.313
X64.384 Y68.921
X64.51 Y69.532
X64.623 Y70.146
X64.721 Y70.762
X64.805 Y71.38
X64.873 Y72.001
X64.925 Y72.622
X64.961 Y73.245
X64.982 Y73.869
X64.987 Y74.493
X64.976 Y75.117
X64.949 Y75.74
X64.906 Y76.362
X64.847 Y76.984
X64.772 Y77.603
X64.682 Y78.221
X64.576 Y78.835
X64.454 Y79.447
X64.316 Y80.056
X64.163 Y80.66
X63.994 Y81.261
X63.81 Y81.858
X63.611 Y82.449
X63.395 Y83.034
X63.166 Y83.614
X62.922 Y84.189
X62.663 Y84.756
X62.39 Y85.317
X62.102 Y85.871
X61.8 Y86.417
X61.485 Y86.956
X61.156 Y87.486
X60.814 Y88.008
X60.458 Y88.52
X60.089 Y89.023
X59.708 Y89.517
X59.314 Y90.002
X58.908 Y90.475
X58.49 Y90.938
X58.06 Y91.39
X57.618 Y91.831
X57.166 Y92.261
X56.703 Y92.679
X56.228 Y93.084
X55.743 Y93.477
X55.249 Y93.857
X54.745 Y94.225
X54.23 Y94.578
X53.705 Y94.914
X53.17 Y95.235
X52.625 Y95.54
X52.074 Y95.831
X51.515 Y96.109
X50.95 Y96.373
X50.378 Y96.624
X49.801 Y96.861
X49.219 Y97.085
X48.631 Y97.296
X48.039 Y97.492
X47.442 Y97.673
X46.84 Y97.838
X46.235 Y97.989
X45.626 Y98.125
X45.014 Y98.246
X44.399 Y98.35
X43.781 Y98.438
X43.161 Y98.511
X42.54 Y98.569
X41.918 Y98.61
X41.294 Y98.636
X40.67 Y98.645
X40.046 Y98.637
X39.423 Y98.615
X38.8 Y98.576
X38.178 Y98.521
X37.559 Y98.45
X36.941 Y98.363
X36.325 Y98.261
X35.712 Y98.144
X35.103 Y98.01
X34.497 Y97.861
X33.896 Y97.695
X33.298 Y97.515
X32.706 Y97.319
X32.119 Y97.108
X31.537 Y96.882
X30.962 Y96.64
X30.393 Y96.384
X29.83 Y96.115
X29.275 Y95.831
X28.727 Y95.532
X28.187 Y95.219
X27.655 Y94.892
X27.132 Y94.552
X26.618 Y94.199
X26.113 Y93.833
X25.618 Y93.453
X25.132 Y93.061
X24.657 Y92.657
X24.192 Y92.241
X23.737 Y91.814
X23.294 Y91.374
X22.863 Y90.923
X22.444 Y90.461
X22.036 Y89.989
X21.641 Y89.506
X21.258 Y89.013
X20.889 Y88.51
X20.532 Y87.998
X20.189 Y87.478
X19.858 Y86.948
X19.541 Y86.411
X19.239 Y85.865
X18.951 Y85.311
X18.677 Y84.751
X18.417 Y84.184
X18.172 Y83.61
X17.943 Y83.03
X17.728 Y82.444
X17.528 Y81.853
X17.343 Y81.257
X17.172 Y80.657
X17.018 Y80.052
X16.88 Y79.444
X16.758 Y78.832
X16.651 Y78.217
X16.56 Y77.6
X16.485 Y76.98
X16.427 Y76.359
X16.384 Y75.737
X16.357 Y75.113
X16.345 Y74.489
X16.35 Y73.865
X16.371 Y73.242
X16.409 Y72.619
X16.462 Y71.997
X16.531 Y71.377
X16.615 Y70.759
X16.716 Y70.143
X16.833 Y69.53
X16.965 Y68.921
X17.111 Y68.314
X17.27 Y67.711
X17.442 Y67.111
X17.628 Y66.515
X17.827 Y65.924
X18.042 Y65.338
X18.157 Y65.048
X18.277 Y64.76
X18.304 Y64.607
X18.297 Y64.451
X18.255 Y64.301
X18.107 Y64.026
X17.682 Y63.569
X17.136 Y63.267
X16.542 Y63.075
X15.931 Y62.951
X15.315 Y62.853
X14.7 Y62.745
X14.264 Y62.641
X13.942 Y62.537
X13.721 Y62.445
X13.63 Y62.398
X13.474 Y62.289
X13.353 Y62.14
X13.276 Y61.965
X13.25 Y61.776
Y60.623
G0 Z5
X67.615 Y58.996
Z-0.4
G1 Z-0.7 F200
X67.619 Y59.003 Z-0.767
X67.631 Y59.022 Z-0.83
X67.649 Y59.052 Z-0.887
X67.673 Y59.093 Z-0.935
X67.702 Y59.142 Z-0.97
X67.735 Y59.197 Z-0.992
X67.769 Y59.254 Z-1
G3 X67.99 Y60.007 I-1.36 J0.809
G1 Y60.999
X67.982 Y61.149
X67.955 Y61.297
X67.912 Y61.44
X67.856 Y61.579
X67.782 Y61.722
X67.688 Y61.875
X67.572 Y62.034
X67.422 Y62.206
X67.248 Y62.378
X67.022 Y62.567
X66.765 Y62.749
X66.431 Y62.947
X65.871 Y63.221
X65.619 Y63.406
X65.419 Y63.645
X65.115 Y64.19
X64.988 Y64.8
X64.978 Y65.424
X65.038 Y66.045
X65.139 Y66.661
X65.261 Y67.273
X65.39 Y67.883
X65.518 Y68.494
X65.64 Y69.106
X65.752 Y69.72
X65.852 Y70.336
X65.939 Y70.954
X66.012 Y71.573
X66.071 Y72.194
X66.116 Y72.817
X66.145 Y73.44
X66.16 Y74.064
Y74.688
X66.144 Y75.311
X66.113 Y75.935
X66.068 Y76.557
X66.007 Y77.178
X65.931 Y77.797
X65.84 Y78.414
X65.734 Y79.029
X65.613 Y79.641
X65.477 Y80.25
X65.327 Y80.856
X65.161 Y81.458
X64.981 Y82.055
X64.786 Y82.647
X64.576 Y83.235
X64.352 Y83.817
X64.114 Y84.394
X63.861 Y84.965
X63.595 Y85.529
X63.315 Y86.087
X63.022 Y86.637
X62.716 Y87.181
X62.396 Y87.717
X62.064 Y88.245
X61.719 Y88.765
X61.361 Y89.276
X60.991 Y89.778
X60.609 Y90.272
X60.215 Y90.755
X59.809 Y91.229
X59.391 Y91.693
X58.963 Y92.146
X58.523 Y92.589
X58.073 Y93.022
X57.613 Y93.442
X57.142 Y93.852
X56.661 Y94.249
X56.17 Y94.634
X55.669 Y95.007
X55.159 Y95.365
X54.638 Y95.71
X54.109 Y96.04
X53.571 Y96.355
X53.025 Y96.657
X52.472 Y96.946
X51.912 Y97.222
X51.346 Y97.484
X50.774 Y97.733
X50.196 Y97.97
X49.614 Y98.193
X49.026 Y98.403
X48.434 Y98.6
X47.837 Y98.782
X47.236 Y98.95
X46.632 Y99.104
X46.023 Y99.243
X45.412 Y99.368
X44.798 Y99.477
X44.727 Y99.486
X44.692 Y99.489
X44.657 Y99.49
X37.786
X37.163 Y99.459
X36.54 Y99.419
X35.921 Y99.341
X35.306 Y99.235
X34.696 Y99.107
X34.089 Y98.959
X33.488 Y98.795
X32.89 Y98.615
X32.298 Y98.419
X31.711 Y98.208
X31.129 Y97.983
X30.553 Y97.743
X29.983 Y97.489
X29.419 Y97.222
X28.862 Y96.941
X28.312 Y96.646
X27.77 Y96.338
X27.235 Y96.016
X26.709 Y95.681
X26.19 Y95.333
X25.681 Y94.973
X25.181 Y94.6
X24.689 Y94.216
X24.208 Y93.819
X23.736 Y93.411
X23.274 Y92.992
X22.822 Y92.561
X22.382 Y92.119
X21.952 Y91.667
X21.533 Y91.204
X21.126 Y90.731
X20.731 Y90.248
X20.348 Y89.756
X19.977 Y89.254
X19.618 Y88.744
X19.272 Y88.225
X18.938 Y87.698
X18.618 Y87.162
X18.311 Y86.619
X18.018 Y86.068
X17.738 Y85.51
X17.472 Y84.946
X17.22 Y84.375
X16.982 Y83.798
X16.758 Y83.216
X16.549 Y82.628
X16.353 Y82.036
X16.172 Y81.439
X16.006 Y80.837
X15.855 Y80.232
X15.719 Y79.623
X15.597 Y79.011
X15.491 Y78.396
X15.4 Y77.779
X15.324 Y77.16
X15.263 Y76.539
X15.218 Y75.916
X15.187 Y75.293
X15.171 Y74.669
X15.172 Y74.045
X15.188 Y73.422
X15.219 Y72.799
X15.265 Y72.176
X15.327 Y71.555
X15.404 Y70.936
X15.496 Y70.319
X15.603 Y69.704
X15.724 Y69.092
X15.859 Y68.483
X16.008 Y67.877
X16.169 Y67.275
X16.344 Y66.676
X16.532 Y66.081
X16.545 Y65.925
X16.504 Y65.616
X16.37 Y65.334
X15.987 Y64.842
X15.474 Y64.487
X14.911 Y64.218
X14.332 Y63.985
X13.886 Y63.796
X13.628 Y63.661
X13.577 Y63.628
X13.441 Y63.517
X13.337 Y63.374
X13.272 Y63.211
X13.25 Y63.036
Y61.776
G0 Z5
X38.798 Y99.115
Z-0.4
G1 Z-0.7 F200
X38.791 Y99.119 Z-0.767
X38.772 Y99.131 Z-0.83
X38.741 Y99.149 Z-0.887
X38.701 Y99.173 Z-0.935
X38.652 Y99.202 Z-0.97
X38.597 Y99.235 Z-0.992
X38.54 Y99.269 Z-1
G3 X37.786 Y99.49 I-0.809 J-1.36
G1 X33.11
X32.568 Y99.463
X32.104 Y99.402
X31.494 Y99.271
X30.896 Y99.093
X30.309 Y98.881
X29.731 Y98.646
X29.161 Y98.392
X28.599 Y98.121
X28.044 Y97.835
X27.497 Y97.535
X27.167 Y97.343
X27.115 Y97.309
X27.065 Y97.271
X27.02 Y97.229
G3 X27.345 Y96.745 I0.221 J-0.203
G1 X33.204 Y98.909
G3 X33.11 Y99.49 I-0.104 J0.281
G1 X29.993
X29.852
X29.809
X29.659 Y99.482
X29.408 Y99.447
X29.261 Y99.41
X29.125 Y99.342
X29.007 Y99.245
G3 X29.303 Y98.752 I0.221 J-0.203
G1 X29.318 Y98.756
X29.873 Y98.9
G3 X29.809 Y99.49 I-0.075 J0.29
G1 X29.426
X29.285 Y99.489
X29.27 Y99.486
X29.254 Y99.482
X29.239 Y99.475
X29.224 Y99.465
X28.665 Y98.898
X18.375 Y88.456
X17.959 Y87.99
X17.58 Y87.501
X17.238 Y86.979
X16.926 Y86.438
X16.636 Y85.886
X16.365 Y85.324
X16.111 Y84.754
X15.872 Y84.178
X15.648 Y83.595
X15.437 Y83.008
X15.241 Y82.416
X15.059 Y81.819
X14.891 Y81.218
X14.737 Y80.613
X14.597 Y80.005
X14.472 Y79.394
X14.361 Y78.78
X14.265 Y78.163
X14.184 Y77.545
X14.117 Y76.924
X14.065 Y76.303
X14.027 Y75.68
X14.003 Y75.056
X13.994 Y74.433
X14.001 Y73.809
X14.021 Y73.185
X14.057 Y72.562
X14.107 Y71.94
X14.171 Y71.32
X14.25 Y70.701
X14.343 Y70.084
X14.451 Y69.469
X14.571 Y68.857
X14.706 Y68.248
X14.853 Y67.641
X14.933 Y67.34
X14.968 Y67.03
X14.911 Y66.723
X14.665 Y66.15
X14.252 Y65.682
X13.768 Y65.288
X13.52 Y65.094
X13.374 Y64.94
X13.282 Y64.75
X13.25 Y64.542
Y63.036
G0 Z5
X19.351 Y88.913
Z-0.4
G1 Z-0.7 F200
X19.344 Y88.911 Z-0.767
X19.323 Y88.906 Z-0.83
X19.288 Y88.897 Z-0.887
X19.242 Y88.884 Z-0.935
X19.187 Y88.87 Z-0.97
X19.126 Y88.854 Z-0.992
X19.061 Y88.837 Z-1
G3 X18.375 Y88.456 I0.401 J-1.531
G1 X15.824 Y85.867
X15.534 Y85.542
X15.296 Y85.228
X15.024 Y84.8
X14.732 Y84.248
X14.479 Y83.678
X14.255 Y83.095
X14.054 Y82.505
X13.87 Y81.908
X13.704 Y81.307
X13.552 Y80.702
X13.415 Y80.093
X13.293 Y79.481
X13.261 Y79.298
X13.255 Y79.258
X13.251 Y79.218
X13.25 Y79.177
G3 X13.83 Y79.08 I0.3 J0.01
G1 X16.31 Y85.542
G3 X15.824 Y85.867 I-0.28 J0.108
G1 X13.863 Y83.878
X13.656 Y83.645
X13.472 Y83.401
X13.36 Y83.225
X13.299 Y83.108
X13.262 Y82.981
X13.25 Y82.849
G3 X13.801 Y82.696 I0.3 J0.01
G1 X13.816 Y82.718
X14.321 Y83.496
G3 X13.863 Y83.878 I-0.252 J0.163
G1 X13.305 Y83.311
X13.274 Y83.277
X13.266 Y83.264
X13.26 Y83.25
X13.252 Y83.223
X13.25 Y83.21
Y70.699
X13.281 Y70.076
X13.329 Y69.454
X13.415 Y68.836
X13.527 Y68.222
X13.521 Y67.91
X13.392 Y67.3
X13.33 Y67.183
X13.286 Y67.079
X13.259 Y66.97
X13.25 Y66.857
G3 X13.85 Y66.868 I0.3 J0.01
G1 Y70.689
G3 X13.25 Y70.699 I-0.3 J0
G1 Y64.542
G0 Z5
X67.615 Y59.988
Z-0.4
G1 Z-0.7 F200
X67.619 Y59.994 Z-0.767
X67.631 Y60.014 Z-0.83
X67.649 Y60.044 Z-0.887
X67.673 Y60.085 Z-0.935
X67.702 Y60.134 Z-0.97
X67.735 Y60.188 Z-0.992
X67.769 Y60.246 Z-1
G3 X67.99 Y60.999 I-1.36 J0.809
G1 Y62.055
X67.982 Y62.205
X67.954 Y62.352
X67.91 Y62.496
X67.854 Y62.635
X67.778 Y62.784
X67.68 Y62.945
X67.559 Y63.112
X67.152 Y63.585
X66.772 Y64.079
X66.537 Y64.657
X66.428 Y65.272
X66.411 Y65.896
X66.453 Y66.518
X66.531 Y67.137
X66.628 Y67.753
X66.84 Y68.983
X66.941 Y69.599
X67.034 Y70.216
X67.116 Y70.834
X67.186 Y71.454
X67.244 Y72.076
X67.288 Y72.698
X67.319 Y73.321
X67.335 Y73.945
X67.338 Y74.569
X67.326 Y75.193
X67.299 Y75.816
X67.258 Y76.439
X67.203 Y77.06
X67.133 Y77.68
X67.048 Y78.298
X66.949 Y78.914
X66.836 Y79.528
X66.709 Y80.139
X66.567 Y80.746
X66.411 Y81.351
X66.241 Y81.951
X66.057 Y82.547
X65.859 Y83.139
X65.647 Y83.726
X65.422 Y84.307
X65.182 Y84.884
X64.93 Y85.454
X64.664 Y86.019
X64.385 Y86.577
X64.094 Y87.129
X64.037 Y87.231
X64.004 Y87.285
X63.966 Y87.335
X63.924 Y87.381
X54.81 Y96.631
X54.418 Y96.99
X53.952 Y97.354
X53.431 Y97.697
X52.89 Y98.009
X52.337 Y98.297
X51.775 Y98.567
X51.205 Y98.821
X50.628 Y99.06
X50.047 Y99.286
X49.595 Y99.448
X49.518 Y99.471
X49.438 Y99.485
X49.358 Y99.49
G3 X49.228 Y98.925 I0.01 J-0.3
G1 X54.448 Y96.163
G3 X54.81 Y96.631 I0.14 J0.265
G1 X52.436 Y99.04
X52.38 Y99.096
X52.296 Y99.182
X52.149 Y99.317
X52.117 Y99.342
X51.985 Y99.423
X51.839 Y99.473
X51.686 Y99.49
G3 X51.55 Y98.928 I0.01 J-0.3
G1 X51.556 Y98.925
X51.929 Y98.717
G3 X52.296 Y99.182 I0.146 J0.262
G1 X52.016 Y99.465
X52.001 Y99.475
X51.986 Y99.482
X51.97 Y99.486
X51.955 Y99.489
X51.672 Y99.49
X44.657
G0 Z5
X67.615 Y61.044
Z-0.4
G1 Z-0.7 F200
