(1001)
(T1  D=1.5 CR=0 - ZMIN=-7.2 - flat end mill)
G90 G94
G17
G21

(2D Pocket1)
T1
S5000 M3
G54
M8
G0 X32.896 Y64.439
Z7
Z2
G1 Z1.8 F400
Z-0.1
X32.916
X32.896
G0 Z4
X8.906 Y64.429
Z2
G1 Z1.8 F400
Z-0.1
Y64.449
Y64.429
G0 Z4
X8.916 Y4.439
Z2
G1 Z1.8 F400
Z-0.1
X8.896
X8.916
G0 Z4
X32.906 Y4.449
Z2
G1 Z1.8 F400
Z-0.1
Y4.429
Y4.449
G0 Z7
X8.906 Y64.449
Z2
G1 Z1.8 F400
Z-0.8
Y64.429
Y64.449
X8.896 Y64.439 Z-0.801
X8.906 Y64.429
X8.912 Y64.431
X8.916 Y64.439 Z-0.802
X8.906 Y64.449
X8.896 Y64.439 Z-0.803
X8.906 Y64.429
X8.912 Y64.431 Z-0.804
X8.916 Y64.439
X8.906 Y64.449
X8.896 Y64.439 Z-0.805
X8.906 Y64.429
X8.912 Y64.431 Z-0.806
X8.916 Y64.439
X8.906 Y64.449 Z-0.807
X8.896 Y64.439
X8.906 Y64.429 Z-0.808
X8.912 Y64.431
X8.916 Y64.439
X8.906 Y64.449 Z-0.809
X8.896 Y64.439
X8.906 Y64.429 Z-0.81
X8.912 Y64.431
X8.916 Y64.439
X8.906 Y64.449 Z-0.811
X8.896 Y64.439 Z-0.812
X8.906 Y64.429
X8.912 Y64.431
X8.916 Y64.439 Z-0.813
X8.906 Y64.449
X8.896 Y64.439 Z-0.814
X8.906 Y64.429
X8.912 Y64.431
X8.916 Y64.439 Z-0.815
X8.906 Y64.449
X8.896 Y64.439 Z-0.816
X8.906 Y64.429
X8.912 Y64.431 Z-0.817
X8.916 Y64.439
X8.906 Y64.449 Z-0.818
X8.896 Y64.439
X8.906 Y64.429 Z-0.819
X8.912 Y64.431
X8.916 Y64.439
X8.906 Y64.449 Z-0.82
X8.896 Y64.439
X8.906 Y64.429 Z-0.821
X8.912 Y64.431
X8.916 Y64.439
X8.906 Y64.449 Z-0.822
X8.896 Y64.439
X8.906 Y64.429 Z-0.823
X8.912 Y64.431
X8.916 Y64.439 Z-0.824
X8.906 Y64.449
X8.896 Y64.439 Z-0.825
X8.906 Y64.429
X8.912 Y64.431
X8.916 Y64.439 Z-0.826
X8.906 Y64.449
X8.896 Y64.439 Z-0.827
X8.906 Y64.429
X8.912 Y64.431 Z-0.828
X8.916 Y64.439
X8.906 Y64.449 Z-0.829
X8.896 Y64.439
X8.906 Y64.429 Z-0.83
X8.912 Y64.431
X8.916 Y64.439
X8.906 Y64.449 Z-0.831
X8.896 Y64.439
X8.906 Y64.429 Z-0.832
X8.912 Y64.431
X8.916 Y64.439
X8.906 Y64.449 Z-0.833
X8.896 Y64.439
X8.906 Y64.429 Z-0.834
X8.912 Y64.431
X8.916 Y64.439 Z-0.835
X8.906 Y64.449
X8.896 Y64.439 Z-0.836
X8.906 Y64.429
X8.912 Y64.431
X8.916 Y64.439 Z-0.837
X8.906 Y64.449
X8.896 Y64.439 Z-0.838
X8.906 Y64.429
X8.912 Y64.431 Z-0.839
X8.916 Y64.439
X8.906 Y64.449
X8.896 Y64.439 Z-0.84
X8.906 Y64.429 Z-0.841
X8.912 Y64.431
X8.916 Y64.439
X8.906 Y64.449 Z-0.842
X8.896 Y64.439
X8.906 Y64.429 Z-0.843
X8.912 Y64.431
X8.916 Y64.439
X8.906 Y64.449 Z-0.844
X8.896 Y64.439
X8.906 Y64.429 Z-0.845
X8.912 Y64.431
X8.916 Y64.439 Z-0.846
X8.906 Y64.449
X8.896 Y64.439 Z-0.847
X8.906 Y64.429
X8.912 Y64.431
X8.916 Y64.439 Z-0.848
X8.906 Y64.449
X8.896 Y64.439 Z-0.849
X8.906 Y64.429
X8.912 Y64.431 Z-0.85
X8.916 Y64.439
X8.906 Y64.449
X8.896 Y64.439 Z-0.851
X8.906 Y64.429 Z-0.852
X8.912 Y64.431
X8.916 Y64.439
X8.906 Y64.449 Z-0.853
X8.896 Y64.439
X8.906 Y64.429 Z-0.854
X8.912 Y64.431
X8.916 Y64.439
X8.906 Y64.449 Z-0.855
X8.896 Y64.439
X8.906 Y64.429 Z-0.856
X8.912 Y64.431
X8.916 Y64.439
X8.906 Y64.449 Z-0.857
X8.896 Y64.439 Z-0.858
X8.906 Y64.429
X8.912 Y64.431
X8.916 Y64.439 Z-0.859
X8.906 Y64.449
X8.896 Y64.439 Z-0.86
X8.906 Y64.429
X8.912 Y64.431 Z-0.861
X8.916 Y64.439
X8.906 Y64.449
X8.896 Y64.439 Z-0.862
X8.906 Y64.429 Z-0.863
X8.912 Y64.431
X8.916 Y64.439
X8.906 Y64.449 Z-0.864
X8.896 Y64.439
X8.906 Y64.429 Z-0.865
X8.912 Y64.431
X8.916 Y64.439
X8.906 Y64.449 Z-0.866
X8.896 Y64.439
X8.906 Y64.429 Z-0.867
X8.912 Y64.431
X8.916 Y64.439
X8.906 Y64.449 Z-0.868
X8.896 Y64.439 Z-0.869
X8.906 Y64.429
X8.912 Y64.431
X8.916 Y64.439 Z-0.87
X8.906 Y64.449
X8.896 Y64.439 Z-0.871
X8.906 Y64.429
X8.912 Y64.431 Z-0.872
X8.916 Y64.439
X8.906 Y64.449
X8.896 Y64.439 Z-0.873
X8.906 Y64.429 Z-0.874
X8.912 Y64.431
X8.916 Y64.439
X8.906 Y64.449 Z-0.875
X8.896 Y64.439
X8.906 Y64.429 Z-0.876
X8.912 Y64.431
X8.916 Y64.439
X8.906 Y64.449 Z-0.877
X8.896 Y64.439
X8.906 Y64.429 Z-0.878
X8.912 Y64.431
X8.916 Y64.439
X8.906 Y64.449 Z-0.879
X8.896 Y64.439 Z-0.88
X8.906 Y64.429
X8.912 Y64.431
X8.916 Y64.439 Z-0.881
X8.906 Y64.449
X8.896 Y64.439 Z-0.882
X8.906 Y64.429
X8.912 Y64.431 Z-0.883
X8.916 Y64.439
X8.906 Y64.449
X8.896 Y64.439 Z-0.884
X8.906 Y64.429
X8.912 Y64.431 Z-0.885
X8.916 Y64.439
X8.906 Y64.449 Z-0.886
X8.896 Y64.439
X8.906 Y64.429 Z-0.887
X8.912 Y64.431
X8.916 Y64.439
X8.906 Y64.449 Z-0.888
X8.896 Y64.439
X8.906 Y64.429 Z-0.889
X8.912 Y64.431
X8.916 Y64.439
X8.906 Y64.449 Z-0.89
X8.896 Y64.439 Z-0.891
X8.906 Y64.429
X8.912 Y64.431
X8.916 Y64.439 Z-0.892
X8.906 Y64.449
X8.896 Y64.439 Z-0.893
X8.906 Y64.429
X8.912 Y64.431
X8.916 Y64.439 Z-0.894
X8.906 Y64.449
X8.896 Y64.439 Z-0.895
X8.906 Y64.429
X8.912 Y64.431 Z-0.896
X8.916 Y64.439
X8.906 Y64.449 Z-0.897
X8.896 Y64.439
X8.906 Y64.429 Z-0.898
X8.912 Y64.431
X8.916 Y64.439
X8.906 Y64.449 Z-0.899
X8.896 Y64.439
X8.906 Y64.429 Z-0.9
X8.912 Y64.431
X8.916 Y64.439
X8.906 Y64.449 Z-0.901
X8.896 Y64.439
X8.906 Y64.429 Z-0.902
X8.912 Y64.431
X8.916 Y64.439 Z-0.903
X8.906 Y64.449
X8.896 Y64.439 Z-0.904
X8.906 Y64.429
X8.912 Y64.431
X8.916 Y64.439 Z-0.905
X8.906 Y64.449
X8.896 Y64.439 Z-0.906
X8.906 Y64.429
X8.912 Y64.431 Z-0.907
X8.916 Y64.439
X8.906 Y64.449 Z-0.908
X8.896 Y64.439
X8.906 Y64.429 Z-0.909
X8.912 Y64.431
X8.916 Y64.439
X8.906 Y64.449 Z-0.91
X8.896 Y64.439
X8.906 Y64.429 Z-0.911
X8.912 Y64.431
X8.916 Y64.439
X8.906 Y64.449 Z-0.912
X8.896 Y64.439
X8.906 Y64.429 Z-0.913
X8.912 Y64.431
X8.916 Y64.439 Z-0.914
X8.906 Y64.449
X8.896 Y64.439 Z-0.915
X8.906 Y64.429
X8.912 Y64.431
X8.916 Y64.439 Z-0.916
X8.906 Y64.449
X8.896 Y64.439 Z-0.917
X8.906 Y64.429
X8.912 Y64.431 Z-0.918
X8.916 Y64.439
X8.906 Y64.449
X8.896 Y64.439 Z-0.919
X8.906 Y64.429 Z-0.92
X8.912 Y64.431
X8.916 Y64.439
X8.906 Y64.449 Z-0.921
X8.896 Y64.439
X8.906 Y64.429 Z-0.922
X8.912 Y64.431
X8.916 Y64.439
X8.906 Y64.449 Z-0.923
X8.896 Y64.439
X8.906 Y64.429 Z-0.924
X8.912 Y64.431
X8.916 Y64.439 Z-0.925
X8.906 Y64.449
X8.896 Y64.439 Z-0.926
X8.906 Y64.429
X8.912 Y64.431
X8.916 Y64.439 Z-0.927
X8.906 Y64.449
X8.896 Y64.439 Z-0.928
X8.906 Y64.429
X8.912 Y64.431 Z-0.929
X8.916 Y64.439
X8.906 Y64.449
X8.896 Y64.439 Z-0.93
X8.906 Y64.429 Z-0.931
X8.912 Y64.431
X8.916 Y64.439
X8.906 Y64.449 Z-0.932
X8.896 Y64.439
X8.906 Y64.429 Z-0.933
X8.912 Y64.431
X8.916 Y64.439
X8.906 Y64.449 Z-0.934
X8.896 Y64.439
X8.906 Y64.429 Z-0.935
X8.912 Y64.431
X8.916 Y64.439
X8.906 Y64.449 Z-0.936
X8.896 Y64.439 Z-0.937
X8.906 Y64.429
X8.912 Y64.431
X8.916 Y64.439 Z-0.938
X8.906 Y64.449
X8.896 Y64.439 Z-0.939
X8.906 Y64.429
X8.912 Y64.431 Z-0.94
X8.916 Y64.439
X8.906 Y64.449
X8.896 Y64.439 Z-0.941
X8.906 Y64.429 Z-0.942
X8.912 Y64.431
X8.916 Y64.439
X8.906 Y64.449 Z-0.943
X8.896 Y64.439
X8.906 Y64.429 Z-0.944
X8.912 Y64.431
X8.916 Y64.439
X8.906 Y64.449 Z-0.945
X8.896 Y64.439
X8.906 Y64.429 Z-0.946
X8.912 Y64.431
X8.916 Y64.439
X8.906 Y64.449 Z-0.947
X8.896 Y64.439 Z-0.948
X8.906 Y64.429
X8.912 Y64.431
X8.916 Y64.439 Z-0.949
X8.906 Y64.449
X8.896 Y64.439 Z-0.95
X8.906 Y64.429
X8.912 Y64.431 Z-0.951
X8.916 Y64.439
X8.906 Y64.449
X8.896 Y64.439 Z-0.952
X8.906 Y64.429
X8.912 Y64.431 Z-0.953
X8.916 Y64.439
X8.906 Y64.449 Z-0.954
X8.896 Y64.439
X8.906 Y64.429 Z-0.955
X8.912 Y64.431
X8.916 Y64.439
X8.906 Y64.449 Z-0.956
X8.896 Y64.439
X8.906 Y64.429 Z-0.957
X8.912 Y64.431
X8.916 Y64.439
X8.906 Y64.449 Z-0.958
X8.896 Y64.439 Z-0.959
X8.906 Y64.429
X8.912 Y64.431
X8.916 Y64.439 Z-0.96
X8.906 Y64.449
X8.896 Y64.439 Z-0.961
X8.906 Y64.429
X8.912 Y64.431 Z-0.962
X8.916 Y64.439
X8.906 Y64.449
X8.896 Y64.439 Z-0.963
X8.906 Y64.429
X8.912 Y64.431 Z-0.964
X8.916 Y64.439
X8.906 Y64.449 Z-0.965
X8.896 Y64.439
X8.906 Y64.429 Z-0.966
X8.912 Y64.431
X8.916 Y64.439
X8.906 Y64.449 Z-0.967
X8.896 Y64.439
X8.906 Y64.429 Z-0.968
X8.912 Y64.431
X8.916 Y64.439
X8.906 Y64.449 Z-0.969
X8.896 Y64.439
X8.906 Y64.429 Z-0.97
X8.912 Y64.431
X8.916 Y64.439 Z-0.971
X8.906 Y64.449
X8.896 Y64.439 Z-0.972
X8.906 Y64.429
X8.912 Y64.431
X8.916 Y64.439 Z-0.973
X8.906 Y64.449
X8.896 Y64.439 Z-0.974
X8.906 Y64.429
X8.912 Y64.431 Z-0.975
X8.916 Y64.439
X8.906 Y64.449 Z-0.976
X8.896 Y64.439
X8.906 Y64.429 Z-0.977
X8.912 Y64.431
X8.916 Y64.439
X8.906 Y64.449 Z-0.978
X8.896 Y64.439
X8.906 Y64.429 Z-0.979
X8.912 Y64.431
X8.916 Y64.439
X8.906 Y64.449 Z-0.98
X8.896 Y64.439
X8.906 Y64.429 Z-0.981
X8.912 Y64.431
X8.916 Y64.439 Z-0.982
X8.906 Y64.449
X8.896 Y64.439 Z-0.983
X8.906 Y64.429
X8.912 Y64.431
X8.916 Y64.439 Z-0.984
X8.906 Y64.449
X8.896 Y64.439 Z-0.985
X8.906 Y64.429
X8.912 Y64.431 Z-0.986
X8.916 Y64.439
X8.906 Y64.449 Z-0.987
X8.896 Y64.439
X8.906 Y64.429 Z-0.988
X8.912 Y64.431
X8.916 Y64.439
X8.906 Y64.449 Z-0.989
X8.896 Y64.439
X8.906 Y64.429 Z-0.99
X8.912 Y64.431
X8.916 Y64.439
X8.906 Y64.449 Z-0.991
X8.896 Y64.439
X8.906 Y64.429 Z-0.992
X8.912 Y64.431
X8.916 Y64.439 Z-0.993
X8.906 Y64.449
X8.896 Y64.439 Z-0.994
X8.906 Y64.429
X8.912 Y64.431
X8.916 Y64.439 Z-0.995
X8.906 Y64.449
X8.896 Y64.439 Z-0.996
X8.906 Y64.429
X8.912 Y64.431 Z-0.997
X8.916 Y64.439
X8.906 Y64.449
X8.896 Y64.439 Z-0.998
X8.906 Y64.429 Z-0.999
X8.912 Y64.431
X8.916 Y64.439
X8.906 Y64.449 Z-1
X8.896 Y64.439
X8.906 Y64.429 Z-1.001
X8.912 Y64.431
X8.916 Y64.439
X8.906 Y64.449 Z-1.002
X8.896 Y64.439
X8.906 Y64.429 Z-1.003
X8.912 Y64.431
X8.916 Y64.439 Z-1.004
X8.906 Y64.449
X8.896 Y64.439 Z-1.005
X8.906 Y64.429
X8.912 Y64.431
X8.916 Y64.439 Z-1.006
X8.906 Y64.449
X8.896 Y64.439 Z-1.007
X8.906 Y64.429
X8.912 Y64.431 Z-1.008
X8.916 Y64.439
X8.906 Y64.449
X8.896 Y64.439 Z-1.009
X8.906 Y64.429 Z-1.01
X8.912 Y64.431
X8.916 Y64.439
X8.906 Y64.449 Z-1.011
X8.896 Y64.439
X8.906 Y64.429 Z-1.012
X8.912 Y64.431
X8.916 Y64.439
X8.906 Y64.449 Z-1.013
X8.896 Y64.439
X8.906 Y64.429 Z-1.014
X8.912 Y64.431
X8.916 Y64.439
X8.906 Y64.449 Z-1.015
X8.896 Y64.439 Z-1.016
X8.906 Y64.429
X8.912 Y64.431
X8.916 Y64.439 Z-1.017
X8.906 Y64.449
X8.896 Y64.439 Z-1.018
X8.906 Y64.429
X8.912 Y64.431 Z-1.019
X8.916 Y64.439
X8.906 Y64.449
X8.896 Y64.439 Z-1.02
X8.906 Y64.429 Z-1.021
X8.912 Y64.431
X8.916 Y64.439
X8.906 Y64.449 Z-1.022
X8.896 Y64.439
X8.906 Y64.429 Z-1.023
X8.912 Y64.431
X8.916 Y64.439
X8.906 Y64.449 Z-1.024
X8.896 Y64.439
X8.906 Y64.429 Z-1.025
X8.912 Y64.431
X8.916 Y64.439
X8.906 Y64.449 Z-1.026
X8.896 Y64.439 Z-1.027
X8.906 Y64.429
X8.912 Y64.431
X8.916 Y64.439 Z-1.028
X8.906 Y64.449
X8.896 Y64.439 Z-1.029
X8.906 Y64.429
X8.912 Y64.431 Z-1.03
X8.916 Y64.439
X8.906 Y64.449
X8.896 Y64.439 Z-1.031
X8.906 Y64.429
X8.912 Y64.431 Z-1.032
X8.916 Y64.439
X8.906 Y64.449 Z-1.033
X8.896 Y64.439
X8.906 Y64.429 Z-1.034
X8.912 Y64.431
X8.916 Y64.439
X8.906 Y64.449 Z-1.035
X8.896 Y64.439
X8.906 Y64.429 Z-1.036
X8.912 Y64.431
X8.916 Y64.439
X8.906 Y64.449 Z-1.037
X8.896 Y64.439 Z-1.038
X8.906 Y64.429
X8.912 Y64.431
X8.916 Y64.439 Z-1.039
X8.906 Y64.449
X8.896 Y64.439 Z-1.04
X8.906 Y64.429
X8.912 Y64.431
X8.916 Y64.439 Z-1.041
X8.906 Y64.449
X8.896 Y64.439 Z-1.042
X8.906 Y64.429
X8.912 Y64.431 Z-1.043
X8.916 Y64.439
X8.906 Y64.449 Z-1.044
X8.896 Y64.439
X8.906 Y64.429 Z-1.045
X8.912 Y64.431
X8.916 Y64.439
X8.906 Y64.449 Z-1.046
X8.896 Y64.439
X8.906 Y64.429 Z-1.047
X8.912 Y64.431
X8.916 Y64.439
X8.906 Y64.449 Z-1.048
X8.896 Y64.439
X8.906 Y64.429 Z-1.049
X8.912 Y64.431
X8.916 Y64.439 Z-1.05
X8.906 Y64.449
X8.896 Y64.439 Z-1.051
X8.906 Y64.429
X8.912 Y64.431
X8.916 Y64.439 Z-1.052
X8.906 Y64.449
X8.896 Y64.439 Z-1.053
X8.906 Y64.429
X8.912 Y64.431 Z-1.054
X8.916 Y64.439
X8.906 Y64.449 Z-1.055
X8.896 Y64.439
X8.906 Y64.429 Z-1.056
X8.912 Y64.431
X8.916 Y64.439
X8.906 Y64.449 Z-1.057
X8.896 Y64.439
X8.906 Y64.429 Z-1.058
X8.912 Y64.431
X8.916 Y64.439
X8.906 Y64.449 Z-1.059
X8.896 Y64.439
X8.906 Y64.429 Z-1.06
X8.912 Y64.431
X8.916 Y64.439 Z-1.061
X8.906 Y64.449
X8.896 Y64.439 Z-1.062
X8.906 Y64.429
X8.912 Y64.431
X8.916 Y64.439 Z-1.063
X8.906 Y64.449
X8.896 Y64.439 Z-1.064
X8.906 Y64.429
X8.912 Y64.431 Z-1.065
X8.916 Y64.439
X8.906 Y64.449
X8.896 Y64.439 Z-1.066
X8.906 Y64.429 Z-1.067
X8.912 Y64.431
X8.916 Y64.439
X8.906 Y64.449 Z-1.068
X8.896 Y64.439
X8.906 Y64.429 Z-1.069
X8.912 Y64.431
X8.916 Y64.439
X8.906 Y64.449 Z-1.07
X8.896 Y64.439
X8.906 Y64.429 Z-1.071
X8.912 Y64.431
X8.916 Y64.439 Z-1.072
X8.906 Y64.449
X8.896 Y64.439 Z-1.073
X8.906 Y64.429
X8.912 Y64.431
X8.916 Y64.439 Z-1.074
X8.906 Y64.449
X8.896 Y64.439 Z-1.075
X8.906 Y64.429
X8.912 Y64.431 Z-1.076
X8.916 Y64.439
X8.906 Y64.449
X8.896 Y64.439 Z-1.077
X8.906 Y64.429 Z-1.078
X8.912 Y64.431
X8.916 Y64.439
X8.906 Y64.449 Z-1.079
X8.896 Y64.439
X8.906 Y64.429 Z-1.08
X8.912 Y64.431
X8.916 Y64.439
X8.906 Y64.449 Z-1.081
X8.896 Y64.439
X8.906 Y64.429 Z-1.082
X8.912 Y64.431
X8.916 Y64.439
X8.906 Y64.449 Z-1.083
X8.896 Y64.439 Z-1.084
X8.906 Y64.429
X8.912 Y64.431
X8.916 Y64.439 Z-1.085
X8.906 Y64.449
X8.896 Y64.439 Z-1.086
X8.906 Y64.429
X8.912 Y64.431 Z-1.087
X8.916 Y64.439
X8.906 Y64.449
X8.896 Y64.439 Z-1.088
X8.906 Y64.429 Z-1.089
X8.912 Y64.431
X8.916 Y64.439
X8.906 Y64.449 Z-1.09
X8.896 Y64.439
X8.906 Y64.429 Z-1.091
X8.912 Y64.431
X8.916 Y64.439
X8.906 Y64.449 Z-1.092
X8.896 Y64.439
X8.906 Y64.429 Z-1.093
X8.912 Y64.431
X8.916 Y64.439
X8.906 Y64.449 Z-1.094
X8.896 Y64.439 Z-1.095
X8.906 Y64.429
X8.912 Y64.431
X8.916 Y64.439 Z-1.096
X8.906 Y64.449
X8.896 Y64.439 Z-1.097
X8.906 Y64.429
X8.912 Y64.431 Z-1.098
X8.916 Y64.439
X8.906 Y64.449
X8.896 Y64.439 Z-1.099
X8.906 Y64.429
X8.912 Y64.431 Z-1.1
X8.916 Y64.439
X8.906 Y64.449 Z-1.101
X8.896 Y64.439
X8.906 Y64.429 Z-1.102
X8.912 Y64.431
X8.916 Y64.439
X8.906 Y64.449 Z-1.103
X8.896 Y64.439
X8.906 Y64.429 Z-1.104
X8.912 Y64.431
X8.916 Y64.439
X8.906 Y64.449 Z-1.105
X8.896 Y64.439 Z-1.106
X8.906 Y64.429
X8.912 Y64.431
X8.916 Y64.439 Z-1.107
X8.906 Y64.449
X8.896 Y64.439 Z-1.108
X8.906 Y64.429
X8.912 Y64.431 Z-1.109
X8.916 Y64.439
X8.906 Y64.449
X8.896 Y64.439 Z-1.11
X8.906 Y64.429
X8.912 Y64.431 Z-1.111
X8.916 Y64.439
X8.906 Y64.449 Z-1.112
X8.896 Y64.439
X8.906 Y64.429 Z-1.113
X8.912 Y64.431
X8.916 Y64.439
X8.906 Y64.449 Z-1.114
X8.896 Y64.439
X8.906 Y64.429 Z-1.115
X8.912 Y64.431
X8.916 Y64.439
X8.906 Y64.449 Z-1.116
X8.896 Y64.439 Z-1.117
X8.906 Y64.429
X8.912 Y64.431
X8.916 Y64.439 Z-1.118
X8.906 Y64.449
X8.896 Y64.439 Z-1.119
X8.906 Y64.429
X8.912 Y64.431
X8.916 Y64.439 Z-1.12
X8.906 Y64.449
X8.896 Y64.439 Z-1.121
X8.906 Y64.429
X8.912 Y64.431 Z-1.122
X8.916 Y64.439
X8.906 Y64.449 Z-1.123
X8.896 Y64.439
X8.906 Y64.429 Z-1.124
X8.912 Y64.431
X8.916 Y64.439
X8.906 Y64.449 Z-1.125
X8.896 Y64.439
X8.906 Y64.429 Z-1.126
X8.912 Y64.431
X8.916 Y64.439
X8.906 Y64.449 Z-1.127
X8.896 Y64.439
X8.906 Y64.429 Z-1.128
X8.912 Y64.431
X8.916 Y64.439 Z-1.129
X8.906 Y64.449
X8.896 Y64.439 Z-1.13
X8.906 Y64.429
X8.912 Y64.431
X8.916 Y64.439 Z-1.131
X8.906 Y64.449
X8.896 Y64.439 Z-1.132
X8.906 Y64.429
X8.912 Y64.431 Z-1.133
X8.916 Y64.439
X8.906 Y64.449 Z-1.134
X8.896 Y64.439
X8.906 Y64.429 Z-1.135
X8.912 Y64.431
X8.916 Y64.439
X8.906 Y64.449 Z-1.136
X8.896 Y64.439
X8.906 Y64.429 Z-1.137
X8.912 Y64.431
X8.916 Y64.439
X8.906 Y64.449 Z-1.138
X8.896 Y64.439
X8.906 Y64.429 Z-1.139
X8.912 Y64.431
X8.916 Y64.439 Z-1.14
X8.906 Y64.449
X8.896 Y64.439 Z-1.141
X8.906 Y64.429
X8.912 Y64.431
X8.916 Y64.439 Z-1.142
X8.906 Y64.449
X8.896 Y64.439 Z-1.143
X8.906 Y64.429
X8.912 Y64.431 Z-1.144
X8.916 Y64.439
X8.906 Y64.449
X8.896 Y64.439 Z-1.145
X8.906 Y64.429 Z-1.146
X8.912 Y64.431
X8.916 Y64.439
X8.906 Y64.449 Z-1.147
X8.896 Y64.439
X8.906 Y64.429 Z-1.148
X8.912 Y64.431
X8.916 Y64.439
X8.906 Y64.449 Z-1.149
X8.896 Y64.439
X8.906 Y64.429 Z-1.15
X8.912 Y64.431
X8.916 Y64.439 Z-1.151
X8.906 Y64.449
X8.896 Y64.439 Z-1.152
X8.906 Y64.429
X8.912 Y64.431
X8.916 Y64.439 Z-1.153
X8.906 Y64.449
X8.896 Y64.439 Z-1.154
X8.906 Y64.429
X8.912 Y64.431 Z-1.155
X8.916 Y64.439
X8.906 Y64.449
X8.896 Y64.439 Z-1.156
X8.906 Y64.429 Z-1.157
X8.912 Y64.431
X8.916 Y64.439
X8.906 Y64.449 Z-1.158
X8.896 Y64.439
X8.906 Y64.429 Z-1.159
X8.912 Y64.431
X8.916 Y64.439
X8.906 Y64.449 Z-1.16
X8.896 Y64.439
X8.906 Y64.429 Z-1.161
X8.912 Y64.431
X8.916 Y64.439
X8.906 Y64.449 Z-1.162
X8.896 Y64.439 Z-1.163
X8.906 Y64.429
X8.912 Y64.431
X8.916 Y64.439 Z-1.164
X8.906 Y64.449
X8.896 Y64.439 Z-1.165
X8.906 Y64.429
X8.912 Y64.431 Z-1.166
X8.916 Y64.439
X8.906 Y64.449
X8.896 Y64.439 Z-1.167
X8.906 Y64.429 Z-1.168
X8.912 Y64.431
X8.916 Y64.439
X8.906 Y64.449 Z-1.169
X8.896 Y64.439
X8.906 Y64.429 Z-1.17
X8.912 Y64.431
X8.916 Y64.439
X8.906 Y64.449 Z-1.171
X8.896 Y64.439
X8.906 Y64.429 Z-1.172
X8.912 Y64.431
X8.916 Y64.439
X8.906 Y64.449 Z-1.173
X8.896 Y64.439 Z-1.174
X8.906 Y64.429
X8.912 Y64.431
X8.916 Y64.439 Z-1.175
X8.906 Y64.449
X8.896 Y64.439 Z-1.176
X8.906 Y64.429
X8.912 Y64.431 Z-1.177
X8.916 Y64.439
X8.906 Y64.449
X8.896 Y64.439 Z-1.178
X8.906 Y64.429
X8.912 Y64.431 Z-1.179
X8.916 Y64.439
X8.906 Y64.449 Z-1.18
X8.896 Y64.439
X8.906 Y64.429 Z-1.181
X8.912 Y64.431
X8.916 Y64.439
X8.906 Y64.449 Z-1.182
X8.896 Y64.439
X8.906 Y64.429 Z-1.183
X8.912 Y64.431
X8.916 Y64.439
X8.906 Y64.449 Z-1.184
X8.896 Y64.439 Z-1.185
X8.906 Y64.429
X8.912 Y64.431
X8.916 Y64.439 Z-1.186
X8.906 Y64.449
X8.896 Y64.439 Z-1.187
X8.906 Y64.429
X8.912 Y64.431 Z-1.188
X8.916 Y64.439
X8.906 Y64.449
X8.896 Y64.439 Z-1.189
X8.906 Y64.429
X8.912 Y64.431 Z-1.19
X8.916 Y64.439
X8.906 Y64.449 Z-1.191
X8.896 Y64.439
X8.906 Y64.429 Z-1.192
X8.912 Y64.431
X8.916 Y64.439
X8.906 Y64.449 Z-1.193
X8.896 Y64.439
X8.906 Y64.429 Z-1.194
X8.912 Y64.431
X8.916 Y64.439
X8.906 Y64.449 Z-1.195
X8.896 Y64.439
X8.906 Y64.429 Z-1.196
X8.912 Y64.431
X8.916 Y64.439 Z-1.197
X8.906 Y64.449
X8.896 Y64.439 Z-1.198
X8.906 Y64.429
X8.912 Y64.431
X8.916 Y64.439 Z-1.199
X8.906 Y64.449
X8.896 Y64.439 Z-1.2
X8.906 Y64.429
X8.912 Y64.431 Z-1.201
X8.916 Y64.439
X8.906 Y64.449 Z-1.202
X8.896 Y64.439
X8.906 Y64.429 Z-1.203
X8.912 Y64.431
X8.916 Y64.439
X8.906 Y64.449 Z-1.204
X8.896 Y64.439
X8.906 Y64.429 Z-1.205
X8.912 Y64.431
X8.916 Y64.439
X8.906 Y64.449 Z-1.206
X8.896 Y64.439
X8.906 Y64.429 Z-1.207
X8.912 Y64.431
X8.916 Y64.439 Z-1.208
X8.906 Y64.449
X8.896 Y64.439 Z-1.209
X8.906 Y64.429
X8.912 Y64.431
X8.916 Y64.439 Z-1.21
X8.906 Y64.449
X8.896 Y64.439 Z-1.211
X8.906 Y64.429
X8.912 Y64.431 Z-1.212
X8.916 Y64.439
X8.906 Y64.449
X8.896 Y64.439 Z-1.213
X8.906 Y64.429 Z-1.214
X8.912 Y64.431
X8.916 Y64.439
X8.906 Y64.449 Z-1.215
X8.896 Y64.439
X8.906 Y64.429 Z-1.216
X8.912 Y64.431
X8.916 Y64.439
X8.906 Y64.449 Z-1.217
X8.896 Y64.439
X8.906 Y64.429 Z-1.218
X8.912 Y64.431
X8.916 Y64.439 Z-1.219
X8.906 Y64.449
X8.896 Y64.439 Z-1.22
X8.906 Y64.429
X8.912 Y64.431
X8.916 Y64.439 Z-1.221
X8.906 Y64.449
X8.896 Y64.439 Z-1.222
X8.906 Y64.429
X8.912 Y64.431 Z-1.223
X8.916 Y64.439
X8.906 Y64.449
X8.896 Y64.439 Z-1.224
X8.906 Y64.429 Z-1.225
X8.912 Y64.431
X8.916 Y64.439
X8.906 Y64.449 Z-1.226
X8.896 Y64.439
X8.906 Y64.429 Z-1.227
X8.912 Y64.431
X8.916 Y64.439
X8.906 Y64.449 Z-1.228
X8.896 Y64.439
X8.906 Y64.429 Z-1.229
X8.912 Y64.431
X8.916 Y64.439 Z-1.23
X8.906 Y64.449
X8.896 Y64.439 Z-1.231
X8.906 Y64.429
X8.912 Y64.431
X8.916 Y64.439 Z-1.232
X8.906 Y64.449
X8.896 Y64.439 Z-1.233
X8.906 Y64.429
X8.912 Y64.431 Z-1.234
X8.916 Y64.439
X8.906 Y64.449
X8.896 Y64.439 Z-1.235
X8.906 Y64.429 Z-1.236
X8.912 Y64.431
X8.916 Y64.439
X8.906 Y64.449 Z-1.237
X8.896 Y64.439
X8.906 Y64.429 Z-1.238
X8.912 Y64.431
X8.916 Y64.439
X8.906 Y64.449 Z-1.239
X8.896 Y64.439
X8.906 Y64.429 Z-1.24
X8.912 Y64.431
X8.916 Y64.439
X8.906 Y64.449 Z-1.241
X8.896 Y64.439 Z-1.242
X8.906 Y64.429
X8.912 Y64.431
X8.916 Y64.439 Z-1.243
X8.906 Y64.449
X8.896 Y64.439 Z-1.244
X8.906 Y64.429
X8.912 Y64.431 Z-1.245
X8.916 Y64.439
X8.906 Y64.449
X8.896 Y64.439 Z-1.246
X8.906 Y64.429 Z-1.247
X8.912 Y64.431
X8.916 Y64.439
X8.906 Y64.449 Z-1.248
X8.896 Y64.439
X8.906 Y64.429 Z-1.249
X8.912 Y64.431
X8.916 Y64.439
X8.906 Y64.449 Z-1.25
X8.896 Y64.439
X8.906 Y64.429 Z-1.251
X8.912 Y64.431
X8.916 Y64.439
X8.906 Y64.449 Z-1.252
X8.896 Y64.439 Z-1.253
X8.906 Y64.429
X8.912 Y64.431
X8.916 Y64.439 Z-1.254
X8.906 Y64.449
X8.896 Y64.439 Z-1.255
X8.906 Y64.429
X8.912 Y64.431 Z-1.256
X8.916 Y64.439
X8.906 Y64.449
X8.896 Y64.439 Z-1.257
X8.906 Y64.429
X8.912 Y64.431 Z-1.258
X8.916 Y64.439
X8.906 Y64.449 Z-1.259
X8.896 Y64.439
X8.906 Y64.429 Z-1.26
X8.912 Y64.431
X8.916 Y64.439
X8.906 Y64.449 Z-1.261
X8.896 Y64.439
X8.906 Y64.429 Z-1.262
X8.912 Y64.431
X8.916 Y64.439
X8.906 Y64.449 Z-1.263
X8.896 Y64.439 Z-1.264
X8.906 Y64.429
X8.912 Y64.431
X8.916 Y64.439 Z-1.265
X8.906 Y64.449
X8.896 Y64.439 Z-1.266
X8.906 Y64.429
X8.912 Y64.431
X8.916 Y64.439 Z-1.267
X8.906 Y64.449
X8.896 Y64.439 Z-1.268
X8.906 Y64.429
X8.912 Y64.431 Z-1.269
X8.916 Y64.439
X8.906 Y64.449 Z-1.27
X8.896 Y64.439
X8.906 Y64.429 Z-1.271
X8.912 Y64.431
X8.916 Y64.439
X8.906 Y64.449 Z-1.272
X8.896 Y64.439
X8.906 Y64.429 Z-1.273
X8.912 Y64.431
X8.916 Y64.439
X8.906 Y64.449 Z-1.274
X8.896 Y64.439
X8.906 Y64.429 Z-1.275
X8.912 Y64.431
X8.916 Y64.439 Z-1.276
X8.906 Y64.449
X8.896 Y64.439 Z-1.277
X8.906 Y64.429
X8.912 Y64.431
X8.916 Y64.439 Z-1.278
X8.906 Y64.449
X8.896 Y64.439 Z-1.279
X8.906 Y64.429
X8.912 Y64.431 Z-1.28
X8.916 Y64.439
X8.906 Y64.449 Z-1.281
X8.896 Y64.439
X8.906 Y64.429 Z-1.282
X8.912 Y64.431
X8.916 Y64.439
X8.906 Y64.449 Z-1.283
X8.896 Y64.439
X8.906 Y64.429 Z-1.284
X8.912 Y64.431
X8.916 Y64.439
X8.906 Y64.449 Z-1.285
X8.896 Y64.439
X8.906 Y64.429 Z-1.286
X8.912 Y64.431
X8.916 Y64.439 Z-1.287
X8.906 Y64.449
X8.896 Y64.439 Z-1.288
X8.906 Y64.429
X8.912 Y64.431
X8.916 Y64.439 Z-1.289
X8.906 Y64.449
X8.896 Y64.439 Z-1.29
X8.906 Y64.429
X8.912 Y64.431 Z-1.291
X8.916 Y64.439
X8.906 Y64.449
X8.896 Y64.439 Z-1.292
X8.906 Y64.429 Z-1.293
X8.912 Y64.431
X8.916 Y64.439
X8.906 Y64.449 Z-1.294
X8.896 Y64.439
X8.906 Y64.429 Z-1.295
X8.912 Y64.431
X8.916 Y64.439
X8.906 Y64.449 Z-1.296
X8.896 Y64.439
X8.906 Y64.429 Z-1.297
X8.912 Y64.431
X8.916 Y64.439 Z-1.298
X8.906 Y64.449
X8.896 Y64.439 Z-1.299
X8.906 Y64.429
X8.912 Y64.431
X8.916 Y64.439 Z-1.3
X8.906 Y64.449
X8.896 Y64.439 Z-1.301
X8.906 Y64.429
X8.912 Y64.431 Z-1.302
X8.916 Y64.439
X8.906 Y64.449
X8.896 Y64.439 Z-1.303
X8.906 Y64.429 Z-1.304
X8.912 Y64.431
X8.916 Y64.439
X8.906 Y64.449 Z-1.305
X8.896 Y64.439
X8.906 Y64.429 Z-1.306
X8.912 Y64.431
X8.916 Y64.439
X8.906 Y64.449 Z-1.307
X8.896 Y64.439
X8.906 Y64.429 Z-1.308
X8.912 Y64.431
X8.916 Y64.439
X8.906 Y64.449 Z-1.309
X8.896 Y64.439 Z-1.31
X8.906 Y64.429
X8.912 Y64.431
X8.916 Y64.439 Z-1.311
X8.906 Y64.449
X8.896 Y64.439 Z-1.312
X8.906 Y64.429
X8.912 Y64.431 Z-1.313
X8.916 Y64.439
X8.906 Y64.449
X8.896 Y64.439 Z-1.314
X8.906 Y64.429 Z-1.315
X8.912 Y64.431
X8.916 Y64.439
X8.906 Y64.449 Z-1.316
X8.896 Y64.439
X8.906 Y64.429 Z-1.317
X8.912 Y64.431
X8.916 Y64.439
X8.906 Y64.449 Z-1.318
X8.896 Y64.439
X8.906 Y64.429 Z-1.319
X8.912 Y64.431
X8.916 Y64.439
X8.906 Y64.449 Z-1.32
X8.896 Y64.439 Z-1.321
X8.906 Y64.429
X8.912 Y64.431
X8.916 Y64.439 Z-1.322
X8.906 Y64.449
X8.896 Y64.439 Z-1.323
X8.906 Y64.429
X8.912 Y64.431 Z-1.324
X8.916 Y64.439
X8.906 Y64.449
X8.896 Y64.439 Z-1.325
X8.906 Y64.429
X8.912 Y64.431 Z-1.326
X8.916 Y64.439
X8.906 Y64.449 Z-1.327
X8.896 Y64.439
X8.906 Y64.429 Z-1.328
X8.912 Y64.431
X8.916 Y64.439
X8.906 Y64.449 Z-1.329
X8.896 Y64.439
X8.906 Y64.429 Z-1.33
X8.912 Y64.431
X8.916 Y64.439
X8.906 Y64.449 Z-1.331
X8.896 Y64.439 Z-1.332
X8.906 Y64.429
X8.912 Y64.431
X8.916 Y64.439 Z-1.333
X8.906 Y64.449
X8.896 Y64.439 Z-1.334
X8.906 Y64.429
X8.912 Y64.431 Z-1.335
X8.916 Y64.439
X8.906 Y64.449
X8.896 Y64.439 Z-1.336
X8.906 Y64.429
X8.912 Y64.431 Z-1.337
X8.916 Y64.439
X8.906 Y64.449 Z-1.338
X8.896 Y64.439
X8.906 Y64.429 Z-1.339
X8.912 Y64.431
X8.916 Y64.439
X8.906 Y64.449 Z-1.34
X8.896 Y64.439
X8.906 Y64.429 Z-1.341
X8.912 Y64.431
X8.916 Y64.439
X8.906 Y64.449 Z-1.342
X8.896 Y64.439 Z-1.343
X8.906 Y64.429
X8.912 Y64.431
X8.916 Y64.439 Z-1.344
X8.906 Y64.449
X8.896 Y64.439 Z-1.345
X8.906 Y64.429
X8.912 Y64.431
X8.916 Y64.439 Z-1.346
X8.906 Y64.449
X8.896 Y64.439 Z-1.347
X8.906 Y64.429
X8.912 Y64.431 Z-1.348
X8.916 Y64.439
X8.906 Y64.449 Z-1.349
X8.896 Y64.439
X8.906 Y64.429 Z-1.35
X8.912 Y64.431
X8.916 Y64.439
X8.906 Y64.449 Z-1.351
X8.896 Y64.439
X8.906 Y64.429 Z-1.352
X8.912 Y64.431
X8.916 Y64.439
X8.906 Y64.449 Z-1.353
X8.896 Y64.439
X8.906 Y64.429 Z-1.354
X8.912 Y64.431
X8.916 Y64.439 Z-1.355
X8.906 Y64.449
X8.896 Y64.439 Z-1.356
X8.906 Y64.429
X8.912 Y64.431
X8.916 Y64.439 Z-1.357
X8.906 Y64.449
X8.896 Y64.439 Z-1.358
X8.906 Y64.429
X8.912 Y64.431 Z-1.359
X8.916 Y64.439
X8.906 Y64.449 Z-1.36
X8.896 Y64.439
X8.906 Y64.429 Z-1.361
X8.912 Y64.431
X8.916 Y64.439
X8.906 Y64.449 Z-1.362
X8.896 Y64.439
X8.906 Y64.429 Z-1.363
X8.912 Y64.431
X8.916 Y64.439
X8.906 Y64.449 Z-1.364
X8.896 Y64.439
X8.906 Y64.429 Z-1.365
X8.912 Y64.431
X8.916 Y64.439 Z-1.366
X8.906 Y64.449
X8.896 Y64.439 Z-1.367
X8.906 Y64.429
X8.912 Y64.431
X8.916 Y64.439 Z-1.368
X8.906 Y64.449
X8.896 Y64.439 Z-1.369
X8.906 Y64.429
X8.912 Y64.431 Z-1.37
X8.916 Y64.439
X8.906 Y64.449
X8.896 Y64.439 Z-1.371
X8.906 Y64.429 Z-1.372
X8.912 Y64.431
X8.916 Y64.439
X8.906 Y64.449 Z-1.373
X8.896 Y64.439
X8.906 Y64.429 Z-1.374
X8.912 Y64.431
X8.916 Y64.439
X8.906 Y64.449 Z-1.375
X8.896 Y64.439
X8.906 Y64.429 Z-1.376
X8.912 Y64.431
X8.916 Y64.439 Z-1.377
X8.906 Y64.449
X8.896 Y64.439 Z-1.378
X8.906 Y64.429
X8.912 Y64.431
X8.916 Y64.439 Z-1.379
X8.906 Y64.449
X8.896 Y64.439 Z-1.38
X8.906 Y64.429
X8.912 Y64.431 Z-1.381
X8.916 Y64.439
X8.906 Y64.449
X8.896 Y64.439 Z-1.382
X8.906 Y64.429 Z-1.383
X8.912 Y64.431
X8.916 Y64.439
X8.906 Y64.449 Z-1.384
X8.896 Y64.439
X8.906 Y64.429 Z-1.385
X8.912 Y64.431
X8.916 Y64.439
X8.906 Y64.449 Z-1.386
X8.896 Y64.439
X8.906 Y64.429 Z-1.387
X8.912 Y64.431
X8.916 Y64.439
X8.906 Y64.449 Z-1.388
X8.896 Y64.439 Z-1.389
X8.906 Y64.429
X8.912 Y64.431
X8.916 Y64.439 Z-1.39
X8.906 Y64.449
X8.896 Y64.439 Z-1.391
X8.906 Y64.429
X8.912 Y64.431 Z-1.392
X8.916 Y64.439
X8.906 Y64.449
X8.896 Y64.439 Z-1.393
X8.906 Y64.429 Z-1.394
X8.912 Y64.431
X8.916 Y64.439
X8.906 Y64.449 Z-1.395
X8.896 Y64.439
X8.906 Y64.429 Z-1.396
X8.912 Y64.431
X8.916 Y64.439
X8.906 Y64.449 Z-1.397
X8.896 Y64.439
X8.906 Y64.429 Z-1.398
X8.912 Y64.431
X8.916 Y64.439
X8.906 Y64.449 Z-1.399
X8.896 Y64.439 Z-1.4
X8.906 Y64.429
X8.912 Y64.431
X8.916 Y64.439 Z-1.401
X8.906 Y64.449
X8.896 Y64.439 Z-1.402
X8.906 Y64.429
X8.912 Y64.431 Z-1.403
X8.916 Y64.439
X8.906 Y64.449
X8.896 Y64.439 Z-1.404
X8.906 Y64.429
X8.912 Y64.431 Z-1.405
X8.916 Y64.439
X8.906 Y64.449 Z-1.406
X8.896 Y64.439
X8.906 Y64.429 Z-1.407
X8.912 Y64.431
X8.916 Y64.439
X8.906 Y64.449 Z-1.408
X8.896 Y64.439
X8.906 Y64.429 Z-1.409
X8.912 Y64.431
X8.916 Y64.439
X8.906 Y64.449 Z-1.41
X8.896 Y64.439 Z-1.411
X8.906 Y64.429
X8.912 Y64.431
X8.916 Y64.439 Z-1.412
X8.906 Y64.449
X8.896 Y64.439 Z-1.413
X8.906 Y64.429
X8.912 Y64.431
X8.916 Y64.439 Z-1.414
X8.906 Y64.449
X8.896 Y64.439 Z-1.415
X8.906 Y64.429
X8.912 Y64.431 Z-1.416
X8.916 Y64.439
X8.906 Y64.449 Z-1.417
X8.896 Y64.439
X8.906 Y64.429 Z-1.418
X8.912 Y64.431
X8.916 Y64.439
X8.906 Y64.449 Z-1.419
X8.896 Y64.439
X8.906 Y64.429 Z-1.42
X8.912 Y64.431
X8.916 Y64.439
X8.906 Y64.449 Z-1.421
X8.896 Y64.439
X8.906 Y64.429 Z-1.422
X8.912 Y64.431
X8.916 Y64.439 Z-1.423
X8.906 Y64.449
X8.896 Y64.439 Z-1.424
X8.906 Y64.429
X8.912 Y64.431
X8.916 Y64.439 Z-1.425
X8.906 Y64.449
X8.896 Y64.439 Z-1.426
X8.906 Y64.429
X8.912 Y64.431 Z-1.427
X8.916 Y64.439
X8.906 Y64.449 Z-1.428
X8.896 Y64.439
X8.906 Y64.429 Z-1.429
X8.912 Y64.431
X8.916 Y64.439
X8.906 Y64.449 Z-1.43
X8.896 Y64.439
X8.906 Y64.429 Z-1.431
X8.912 Y64.431
X8.916 Y64.439
X8.906 Y64.449 Z-1.432
X8.896 Y64.439
X8.906 Y64.429 Z-1.433
X8.912 Y64.431
X8.916 Y64.439 Z-1.434
X8.906 Y64.449
X8.896 Y64.439 Z-1.435
X8.906 Y64.429
X8.912 Y64.431
X8.916 Y64.439 Z-1.436
X8.906 Y64.449
X8.896 Y64.439 Z-1.437
X8.906 Y64.429
X8.912 Y64.431 Z-1.438
X8.916 Y64.439
X8.906 Y64.449
X8.896 Y64.439 Z-1.439
X8.906 Y64.429 Z-1.44
X8.912 Y64.431
X8.916 Y64.439
X8.906 Y64.449 Z-1.441
X8.896 Y64.439
X8.906 Y64.429 Z-1.442
X8.912 Y64.431
X8.916 Y64.439
X8.906 Y64.449 Z-1.443
X8.896 Y64.439
X8.906 Y64.429 Z-1.444
X8.912 Y64.431
X8.916 Y64.439 Z-1.445
X8.906 Y64.449
X8.896 Y64.439 Z-1.446
X8.906 Y64.429
X8.912 Y64.431
X8.916 Y64.439 Z-1.447
X8.906 Y64.449
X8.896 Y64.439 Z-1.448
X8.906 Y64.429
X8.912 Y64.431 Z-1.449
X8.916 Y64.439
X8.906 Y64.449
X8.896 Y64.439 Z-1.45
X8.906 Y64.429 Z-1.451
X8.912 Y64.431
X8.916 Y64.439
X8.906 Y64.449 Z-1.452
X8.896 Y64.439
X8.906 Y64.429 Z-1.453
X8.912 Y64.431
X8.916 Y64.439
X8.906 Y64.449 Z-1.454
X8.896 Y64.439
X8.906 Y64.429 Z-1.455
X8.912 Y64.431
X8.916 Y64.439
X8.906 Y64.449 Z-1.456
X8.896 Y64.439 Z-1.457
X8.906 Y64.429
X8.912 Y64.431
X8.916 Y64.439 Z-1.458
X8.906 Y64.449
X8.896 Y64.439 Z-1.459
X8.906 Y64.429
X8.912 Y64.431 Z-1.46
X8.916 Y64.439
X8.906 Y64.449
X8.896 Y64.439 Z-1.461
X8.906 Y64.429 Z-1.462
X8.912 Y64.431
X8.916 Y64.439
X8.906 Y64.449 Z-1.463
X8.896 Y64.439
X8.906 Y64.429 Z-1.464
X8.912 Y64.431
X8.916 Y64.439
X8.906 Y64.449 Z-1.465
X8.896 Y64.439
X8.906 Y64.429 Z-1.466
X8.912 Y64.431
X8.916 Y64.439
X8.906 Y64.449 Z-1.467
X8.896 Y64.439 Z-1.468
X8.906 Y64.429
X8.912 Y64.431
X8.916 Y64.439 Z-1.469
X8.906 Y64.449
X8.896 Y64.439 Z-1.47
X8.906 Y64.429
X8.912 Y64.431 Z-1.471
X8.916 Y64.439
X8.906 Y64.449
X8.896 Y64.439 Z-1.472
X8.906 Y64.429 Z-1.473
X8.912 Y64.431
X8.916 Y64.439
X8.906 Y64.449 Z-1.474
X8.896 Y64.439
X8.906 Y64.429 Z-1.475
X8.912 Y64.431
X8.916 Y64.439
X8.906 Y64.449 Z-1.476
X8.896 Y64.439
X8.906 Y64.429 Z-1.477
X8.912 Y64.431
X8.916 Y64.439
X8.906 Y64.449 Z-1.478
X8.896 Y64.439 Z-1.479
X8.906 Y64.429
X8.912 Y64.431
X8.916 Y64.439 Z-1.48
X8.906 Y64.449
X8.896 Y64.439 Z-1.481
X8.906 Y64.429
X8.912 Y64.431 Z-1.482
X8.916 Y64.439
X8.906 Y64.449
X8.896 Y64.439 Z-1.483
X8.906 Y64.429
X8.912 Y64.431 Z-1.484
X8.916 Y64.439
X8.906 Y64.449 Z-1.485
X8.896 Y64.439
X8.906 Y64.429 Z-1.486
X8.912 Y64.431
X8.916 Y64.439
X8.906 Y64.449 Z-1.487
X8.896 Y64.439
X8.906 Y64.429 Z-1.488
X8.912 Y64.431
X8.916 Y64.439
X8.906 Y64.449 Z-1.489
X8.896 Y64.439 Z-1.49
X8.906 Y64.429
X8.912 Y64.431
X8.916 Y64.439 Z-1.491
X8.906 Y64.449
X8.896 Y64.439 Z-1.492
X8.906 Y64.429
X8.912 Y64.431
X8.916 Y64.439 Z-1.493
X8.906 Y64.449
X8.896 Y64.439 Z-1.494
X8.906 Y64.429
X8.912 Y64.431 Z-1.495
X8.916 Y64.439
X8.906 Y64.449 Z-1.496
X8.896 Y64.439
X8.906 Y64.429 Z-1.497
X8.912 Y64.431
X8.916 Y64.439
X8.906 Y64.449 Z-1.498
X8.896 Y64.439
X8.906 Y64.429 Z-1.499
X8.912 Y64.431
X8.916 Y64.439
X8.906 Y64.449 Z-1.5
X8.896 Y64.439
X8.906 Y64.429 Z-1.501
X8.912 Y64.431
X8.916 Y64.439 Z-1.502
X8.906 Y64.449
X8.896 Y64.439 Z-1.503
X8.906 Y64.429
X8.912 Y64.431
X8.916 Y64.439 Z-1.504
X8.906 Y64.449
X8.896 Y64.439 Z-1.505
X8.906 Y64.429
X8.912 Y64.431 Z-1.506
X8.916 Y64.439
X8.906 Y64.449 Z-1.507
X8.896 Y64.439
X8.906 Y64.429 Z-1.508
X8.912 Y64.431
X8.916 Y64.439
X8.906 Y64.449 Z-1.509
X8.896 Y64.439
X8.906 Y64.429 Z-1.51
X8.912 Y64.431
X8.916 Y64.439
X8.906 Y64.449 Z-1.511
X8.896 Y64.439
X8.906 Y64.429 Z-1.512
X8.912 Y64.431
X8.916 Y64.439 Z-1.513
X8.906 Y64.449
X8.896 Y64.439 Z-1.514
X8.906 Y64.429
X8.912 Y64.431
X8.916 Y64.439 Z-1.515
X8.906 Y64.449
X8.896 Y64.439 Z-1.516
X8.906 Y64.429
X8.912 Y64.431 Z-1.517
X8.916 Y64.439
X8.906 Y64.449
X8.896 Y64.439 Z-1.518
X8.906 Y64.429 Z-1.519
X8.912 Y64.431
X8.916 Y64.439
X8.906 Y64.449 Z-1.52
X8.896 Y64.439
X8.906 Y64.429 Z-1.521
X8.912 Y64.431
X8.916 Y64.439
X8.906 Y64.449 Z-1.522
X8.896 Y64.439
X8.906 Y64.429 Z-1.523
X8.912 Y64.431
X8.916 Y64.439 Z-1.524
X8.906 Y64.449
X8.896 Y64.439 Z-1.525
X8.906 Y64.429
X8.912 Y64.431
X8.916 Y64.439 Z-1.526
X8.906 Y64.449
X8.896 Y64.439 Z-1.527
X8.906 Y64.429
X8.912 Y64.431 Z-1.528
X8.916 Y64.439
X8.906 Y64.449
X8.896 Y64.439 Z-1.529
X8.906 Y64.429 Z-1.53
X8.912 Y64.431
X8.916 Y64.439
X8.906 Y64.449 Z-1.531
X8.896 Y64.439
X8.906 Y64.429 Z-1.532
X8.912 Y64.431
X8.916 Y64.439
X8.906 Y64.449 Z-1.533
X8.896 Y64.439
X8.906 Y64.429 Z-1.534
X8.912 Y64.431
X8.916 Y64.439
X8.906 Y64.449 Z-1.535
X8.896 Y64.439 Z-1.536
X8.906 Y64.429
X8.912 Y64.431
X8.916 Y64.439 Z-1.537
X8.906 Y64.449
X8.896 Y64.439 Z-1.538
X8.906 Y64.429
X8.912 Y64.431 Z-1.539
X8.916 Y64.439
X8.906 Y64.449
X8.896 Y64.439 Z-1.54
X8.906 Y64.429 Z-1.541
X8.912 Y64.431
X8.916 Y64.439
X8.906 Y64.449 Z-1.542
X8.896 Y64.439
X8.906 Y64.429 Z-1.543
X8.912 Y64.431
X8.916 Y64.439
X8.906 Y64.449 Z-1.544
X8.896 Y64.439
X8.906 Y64.429 Z-1.545
X8.912 Y64.431
X8.916 Y64.439
X8.906 Y64.449 Z-1.546
X8.896 Y64.439 Z-1.547
X8.906 Y64.429
X8.912 Y64.431
X8.916 Y64.439 Z-1.548
X8.906 Y64.449
X8.896 Y64.439 Z-1.549
X8.906 Y64.429
X8.912 Y64.431 Z-1.55
X8.916 Y64.439
X8.906 Y64.449
X8.896 Y64.439 Z-1.551
X8.906 Y64.429
X8.912 Y64.431 Z-1.552
X8.916 Y64.439
X8.906 Y64.449 Z-1.553
X8.896 Y64.439
X8.906 Y64.429 Z-1.554
X8.912 Y64.431
X8.916 Y64.439
X8.906 Y64.449 Z-1.555
X8.896 Y64.439
X8.906 Y64.429 Z-1.556
X8.912 Y64.431
X8.916 Y64.439
X8.906 Y64.449 Z-1.557
X8.896 Y64.439 Z-1.558
X8.906 Y64.429
X8.912 Y64.431
X8.916 Y64.439 Z-1.559
X8.906 Y64.449
X8.896 Y64.439 Z-1.56
X8.906 Y64.429
X8.912 Y64.431 Z-1.561
X8.916 Y64.439
X8.906 Y64.449
X8.896 Y64.439 Z-1.562
X8.906 Y64.429
X8.912 Y64.431 Z-1.563
X8.916 Y64.439
X8.906 Y64.449 Z-1.564
X8.896 Y64.439
X8.906 Y64.429 Z-1.565
X8.912 Y64.431
X8.916 Y64.439
X8.906 Y64.449 Z-1.566
X8.896 Y64.439
X8.906 Y64.429 Z-1.567
X8.912 Y64.431
X8.916 Y64.439
X8.906 Y64.449 Z-1.568
X8.896 Y64.439
X8.906 Y64.429 Z-1.569
X8.912 Y64.431
X8.916 Y64.439 Z-1.57
X8.906 Y64.449
X8.896 Y64.439 Z-1.571
X8.906 Y64.429
X8.912 Y64.431
X8.916 Y64.439 Z-1.572
X8.906 Y64.449
X8.896 Y64.439 Z-1.573
X8.906 Y64.429
X8.912 Y64.431 Z-1.574
X8.916 Y64.439
X8.906 Y64.449 Z-1.575
X8.896 Y64.439
X8.906 Y64.429 Z-1.576
X8.912 Y64.431
X8.916 Y64.439
X8.906 Y64.449 Z-1.577
X8.896 Y64.439
X8.906 Y64.429 Z-1.578
X8.912 Y64.431
X8.916 Y64.439
X8.906 Y64.449 Z-1.579
X8.896 Y64.439
X8.906 Y64.429 Z-1.58
X8.912 Y64.431
X8.916 Y64.439 Z-1.581
X8.906 Y64.449
X8.896 Y64.439 Z-1.582
X8.906 Y64.429
X8.912 Y64.431
X8.916 Y64.439 Z-1.583
X8.906 Y64.449
X8.896 Y64.439 Z-1.584
X8.906 Y64.429
X8.912 Y64.431 Z-1.585
X8.916 Y64.439
X8.906 Y64.449 Z-1.586
X8.896 Y64.439
X8.906 Y64.429 Z-1.587
X8.912 Y64.431
X8.916 Y64.439
X8.906 Y64.449 Z-1.588
X8.896 Y64.439
X8.906 Y64.429 Z-1.589
X8.912 Y64.431
X8.916 Y64.439
X8.906 Y64.449 Z-1.59
X8.896 Y64.439
X8.906 Y64.429 Z-1.591
X8.912 Y64.431
X8.916 Y64.439 Z-1.592
X8.906 Y64.449
X8.896 Y64.439 Z-1.593
X8.906 Y64.429
X8.912 Y64.431
X8.916 Y64.439 Z-1.594
X8.906 Y64.449
X8.896 Y64.439 Z-1.595
X8.906 Y64.429
X8.912 Y64.431 Z-1.596
X8.916 Y64.439
X8.906 Y64.449
X8.896 Y64.439 Z-1.597
X8.906 Y64.429 Z-1.598
X8.912 Y64.431
X8.916 Y64.439
X8.906 Y64.449 Z-1.599
X8.896 Y64.439
X8.906 Y64.429 Z-1.6
X8.912 Y64.431
X8.906 Y64.449
Y64.429
X8.912 Y64.431
X8.916 Y64.439
X8.906 Y64.449 Z-1.601
X8.896 Y64.441
Y64.439
X8.906 Y64.429 Z-1.602
X8.912 Y64.431
X8.916 Y64.439 Z-1.603
X8.906 Y64.449
X8.896 Y64.441 Z-1.604
Y64.439
X8.906 Y64.429
X8.912 Y64.431
X8.916 Y64.439 Z-1.605
X8.906 Y64.449
X8.896 Y64.441 Z-1.606
Y64.439
X8.906 Y64.429
X8.912 Y64.431 Z-1.607
X8.916 Y64.439
X8.906 Y64.449
X8.896 Y64.441 Z-1.608
Y64.439
X8.906 Y64.429 Z-1.609
X8.912 Y64.431
X8.916 Y64.439
X8.906 Y64.449 Z-1.61
X8.896 Y64.441
Y64.439
X8.906 Y64.429 Z-1.611
X8.912 Y64.431
X8.916 Y64.439
X8.906 Y64.449 Z-1.612
X8.896 Y64.441
Y64.439
X8.906 Y64.429 Z-1.613
X8.912 Y64.431
X8.916 Y64.439
X8.906 Y64.449 Z-1.614
X8.896 Y64.441
Y64.439 Z-1.615
X8.906 Y64.429
X8.912 Y64.431
X8.916 Y64.439 Z-1.616
X8.906 Y64.449
X8.896 Y64.441 Z-1.617
Y64.439
X8.906 Y64.429
X8.912 Y64.431 Z-1.618
X8.916 Y64.439
X8.906 Y64.449
X8.896 Y64.441 Z-1.619
Y64.439
X8.906 Y64.429 Z-1.62
X8.912 Y64.431
X8.916 Y64.439
X8.906 Y64.449 Z-1.621
X8.896 Y64.441
Y64.439
X8.906 Y64.429 Z-1.622
X8.912 Y64.431
X8.916 Y64.439
X8.906 Y64.449 Z-1.623
X8.896 Y64.441
Y64.439
X8.906 Y64.429 Z-1.624
X8.912 Y64.431
X8.916 Y64.439
X8.906 Y64.449 Z-1.625
X8.896 Y64.441
Y64.439 Z-1.626
X8.906 Y64.429
X8.912 Y64.431
X8.916 Y64.439 Z-1.627
X8.906 Y64.449
X8.896 Y64.441 Z-1.628
Y64.439
X8.906 Y64.429
X8.912 Y64.431 Z-1.629
X8.916 Y64.439
X8.906 Y64.449
X8.896 Y64.441 Z-1.63
Y64.439
X8.906 Y64.429
X8.912 Y64.431 Z-1.631
X8.916 Y64.439
X8.906 Y64.449 Z-1.632
X8.896 Y64.441
Y64.439
X8.906 Y64.429 Z-1.633
X8.912 Y64.431
X8.916 Y64.439
X8.906 Y64.449 Z-1.634
X8.896 Y64.441
Y64.439
X8.906 Y64.429 Z-1.635
X8.912 Y64.431
X8.916 Y64.439
X8.906 Y64.449 Z-1.636
X8.896 Y64.441
Y64.439 Z-1.637
X8.906 Y64.429
X8.912 Y64.431
X8.916 Y64.439 Z-1.638
X8.906 Y64.449
X8.896 Y64.441 Z-1.639
Y64.439
X8.906 Y64.429
X8.912 Y64.431
X8.916 Y64.439 Z-1.64
X8.906 Y64.449
X8.896 Y64.441 Z-1.641
Y64.439
X8.906 Y64.429
X8.912 Y64.431 Z-1.642
X8.916 Y64.439
X8.906 Y64.449 Z-1.643
X8.896 Y64.441
Y64.439
X8.906 Y64.429 Z-1.644
X8.912 Y64.431
X8.916 Y64.439
X8.906 Y64.449 Z-1.645
X8.896 Y64.441
Y64.439
X8.906 Y64.429 Z-1.646
X8.912 Y64.431
X8.916 Y64.439
X8.906 Y64.449 Z-1.647
X8.896 Y64.441
Y64.439
X8.906 Y64.429 Z-1.648
X8.912 Y64.431
X8.916 Y64.439 Z-1.649
X8.906 Y64.449
X8.896 Y64.441 Z-1.65
Y64.439
X8.906 Y64.429
X8.912 Y64.431
X8.916 Y64.439 Z-1.651
X8.906 Y64.449
X8.896 Y64.441 Z-1.652
Y64.439
X8.906 Y64.429
X8.912 Y64.431 Z-1.653
X8.916 Y64.439
X8.906 Y64.449 Z-1.654
X8.896 Y64.441
Y64.439
X8.906 Y64.429 Z-1.655
X8.912 Y64.431
X8.916 Y64.439
X8.906 Y64.449 Z-1.656
X8.896 Y64.441
Y64.439
X8.906 Y64.429 Z-1.657
X8.912 Y64.431
X8.916 Y64.439
X8.906 Y64.449 Z-1.658
X8.896 Y64.441
Y64.439
X8.906 Y64.429 Z-1.659
X8.912 Y64.431
X8.916 Y64.439 Z-1.66
X8.906 Y64.449
X8.896 Y64.441 Z-1.661
Y64.439
X8.906 Y64.429
X8.912 Y64.431
X8.916 Y64.439 Z-1.662
X8.906 Y64.449
X8.896 Y64.441 Z-1.663
Y64.439
X8.906 Y64.429
X8.912 Y64.431 Z-1.664
X8.916 Y64.439
X8.906 Y64.449
X8.896 Y64.441 Z-1.665
Y64.439
X8.906 Y64.429 Z-1.666
X8.912 Y64.431
X8.916 Y64.439
X8.906 Y64.449 Z-1.667
X8.896 Y64.441
Y64.439
X8.906 Y64.429 Z-1.668
X8.912 Y64.431
X8.916 Y64.439
X8.906 Y64.449 Z-1.669
X8.896 Y64.441
Y64.439
X8.906 Y64.429 Z-1.67
X8.912 Y64.431
X8.916 Y64.439 Z-1.671
X8.906 Y64.449
X8.896 Y64.441 Z-1.672
Y64.439
X8.906 Y64.429
X8.912 Y64.431
X8.916 Y64.439 Z-1.673
X8.906 Y64.449
X8.896 Y64.441 Z-1.674
Y64.439
X8.906 Y64.429
X8.912 Y64.431 Z-1.675
X8.916 Y64.439
X8.906 Y64.449
X8.896 Y64.441 Z-1.676
Y64.439
X8.906 Y64.429 Z-1.677
X8.912 Y64.431
X8.916 Y64.439
X8.906 Y64.449 Z-1.678
X8.896 Y64.441
Y64.439
X8.906 Y64.429 Z-1.679
X8.912 Y64.431
X8.916 Y64.439
X8.906 Y64.449 Z-1.68
X8.896 Y64.441
Y64.439
X8.906 Y64.429 Z-1.681
X8.912 Y64.431
X8.916 Y64.439
X8.906 Y64.449 Z-1.682
X8.896 Y64.441 Z-1.683
Y64.439
X8.906 Y64.429
X8.912 Y64.431
X8.916 Y64.439 Z-1.684
X8.906 Y64.449
X8.896 Y64.441 Z-1.685
Y64.439
X8.906 Y64.429
X8.912 Y64.431 Z-1.686
X8.916 Y64.439
X8.906 Y64.449
X8.896 Y64.441 Z-1.687
Y64.439
X8.906 Y64.429 Z-1.688
X8.912 Y64.431
X8.916 Y64.439
X8.906 Y64.449 Z-1.689
X8.896 Y64.441
Y64.439
X8.906 Y64.429 Z-1.69
X8.912 Y64.431
X8.916 Y64.439
X8.906 Y64.449 Z-1.691
X8.896 Y64.441
Y64.439
X8.906 Y64.429 Z-1.692
X8.912 Y64.431
X8.916 Y64.439
X8.906 Y64.449 Z-1.693
X8.896 Y64.441
Y64.439 Z-1.694
X8.906 Y64.429
X8.912 Y64.431
X8.916 Y64.439 Z-1.695
X8.906 Y64.449
X8.896 Y64.441 Z-1.696
Y64.439
X8.906 Y64.429
X8.912 Y64.431 Z-1.697
X8.916 Y64.439
X8.906 Y64.449
X8.896 Y64.441 Z-1.698
Y64.439
X8.906 Y64.429
X8.912 Y64.431 Z-1.699
X8.916 Y64.439
X8.906 Y64.449 Z-1.7
X8.896 Y64.441
Y64.439
X8.906 Y64.429 Z-1.701
X8.912 Y64.431
X8.916 Y64.439
X8.906 Y64.449 Z-1.702
X8.896 Y64.441
Y64.439
X8.906 Y64.429 Z-1.703
X8.912 Y64.431
X8.916 Y64.439
X8.906 Y64.449 Z-1.704
X8.896 Y64.441
Y64.439 Z-1.705
X8.906 Y64.429
X8.912 Y64.431
X8.916 Y64.439 Z-1.706
X8.906 Y64.449
X8.896 Y64.441 Z-1.707
Y64.439
X8.906 Y64.429
X8.912 Y64.431 Z-1.708
X8.916 Y64.439
X8.906 Y64.449
X8.896 Y64.441 Z-1.709
Y64.439
X8.906 Y64.429
X8.912 Y64.431 Z-1.71
X8.916 Y64.439
X8.906 Y64.449 Z-1.711
X8.896 Y64.441
Y64.439
X8.906 Y64.429 Z-1.712
X8.912 Y64.431
X8.916 Y64.439
X8.906 Y64.449 Z-1.713
X8.896 Y64.441
Y64.439
X8.906 Y64.429 Z-1.714
X8.912 Y64.431
X8.916 Y64.439
X8.906 Y64.449 Z-1.715
X8.896 Y64.441
Y64.439 Z-1.716
X8.906 Y64.429
X8.912 Y64.431
X8.916 Y64.439 Z-1.717
X8.906 Y64.449
X8.896 Y64.441 Z-1.718
Y64.439
X8.906 Y64.429
X8.912 Y64.431
X8.916 Y64.439 Z-1.719
X8.906 Y64.449
X8.896 Y64.441 Z-1.72
Y64.439
X8.906 Y64.429
X8.912 Y64.431 Z-1.721
X8.916 Y64.439
X8.906 Y64.449 Z-1.722
X8.896 Y64.441
Y64.439
X8.906 Y64.429 Z-1.723
X8.912 Y64.431
X8.916 Y64.439
X8.906 Y64.449 Z-1.724
X8.896 Y64.441
Y64.439
X8.906 Y64.429 Z-1.725
X8.912 Y64.431
X8.916 Y64.439
X8.906 Y64.449 Z-1.726
X8.896 Y64.441
Y64.439
X8.906 Y64.429 Z-1.727
X8.912 Y64.431
X8.916 Y64.439 Z-1.728
X8.906 Y64.449
X8.896 Y64.441 Z-1.729
Y64.439
X8.906 Y64.429
X8.912 Y64.431
X8.916 Y64.439 Z-1.73
X8.906 Y64.449
X8.896 Y64.441 Z-1.731
Y64.439
X8.906 Y64.429
X8.912 Y64.431 Z-1.732
X8.916 Y64.439
X8.906 Y64.449 Z-1.733
X8.896 Y64.441
Y64.439
X8.906 Y64.429 Z-1.734
X8.912 Y64.431
X8.916 Y64.439
X8.906 Y64.449 Z-1.735
X8.896 Y64.441
Y64.439
X8.906 Y64.429 Z-1.736
X8.912 Y64.431
X8.916 Y64.439
X8.906 Y64.449 Z-1.737
X8.896 Y64.441
Y64.439
X8.906 Y64.429 Z-1.738
X8.912 Y64.431
X8.916 Y64.439 Z-1.739
X8.906 Y64.449
X8.896 Y64.441 Z-1.74
Y64.439
X8.906 Y64.429
X8.912 Y64.431
X8.916 Y64.439 Z-1.741
X8.906 Y64.449
X8.896 Y64.441 Z-1.742
Y64.439
X8.906 Y64.429
X8.912 Y64.431 Z-1.743
X8.916 Y64.439
X8.906 Y64.449
X8.896 Y64.441 Z-1.744
Y64.439
X8.906 Y64.429 Z-1.745
X8.912 Y64.431
X8.916 Y64.439
X8.906 Y64.449 Z-1.746
X8.896 Y64.441
Y64.439
X8.906 Y64.429 Z-1.747
X8.912 Y64.431
X8.916 Y64.439
X8.906 Y64.449 Z-1.748
X8.896 Y64.441
Y64.439
X8.906 Y64.429 Z-1.749
X8.912 Y64.431
X8.916 Y64.439 Z-1.75
X8.906 Y64.449
X8.896 Y64.441 Z-1.751
Y64.439
X8.906 Y64.429
X8.912 Y64.431
X8.916 Y64.439 Z-1.752
X8.906 Y64.449
X8.896 Y64.441 Z-1.753
Y64.439
X8.906 Y64.429
X8.912 Y64.431 Z-1.754
X8.916 Y64.439
X8.906 Y64.449
X8.896 Y64.441 Z-1.755
Y64.439
X8.906 Y64.429 Z-1.756
X8.912 Y64.431
X8.916 Y64.439
X8.906 Y64.449 Z-1.757
X8.896 Y64.441
Y64.439
X8.906 Y64.429 Z-1.758
X8.912 Y64.431
X8.916 Y64.439
X8.906 Y64.449 Z-1.759
X8.896 Y64.441
Y64.439
X8.906 Y64.429 Z-1.76
X8.912 Y64.431
X8.916 Y64.439
X8.906 Y64.449 Z-1.761
X8.896 Y64.441 Z-1.762
Y64.439
X8.906 Y64.429
X8.912 Y64.431
X8.916 Y64.439 Z-1.763
X8.906 Y64.449
X8.896 Y64.441 Z-1.764
Y64.439
X8.906 Y64.429
X8.912 Y64.431 Z-1.765
X8.916 Y64.439
X8.906 Y64.449
X8.896 Y64.441 Z-1.766
Y64.439
X8.906 Y64.429 Z-1.767
X8.912 Y64.431
X8.916 Y64.439
X8.906 Y64.449 Z-1.768
X8.896 Y64.441
Y64.439
X8.906 Y64.429 Z-1.769
X8.912 Y64.431
X8.916 Y64.439
X8.906 Y64.449 Z-1.77
X8.896 Y64.441
Y64.439
X8.906 Y64.429 Z-1.771
X8.912 Y64.431
X8.916 Y64.439
X8.906 Y64.449 Z-1.772
X8.896 Y64.441
Y64.439 Z-1.773
X8.906 Y64.429
X8.912 Y64.431
X8.916 Y64.439 Z-1.774
X8.906 Y64.449
X8.896 Y64.441 Z-1.775
Y64.439
X8.906 Y64.429
X8.912 Y64.431 Z-1.776
X8.916 Y64.439
X8.906 Y64.449
X8.896 Y64.441 Z-1.777
Y64.439
X8.906 Y64.429
X8.912 Y64.431 Z-1.778
X8.916 Y64.439
X8.906 Y64.449 Z-1.779
X8.896 Y64.441
Y64.439
X8.906 Y64.429 Z-1.78
X8.912 Y64.431
X8.916 Y64.439
X8.906 Y64.449 Z-1.781
X8.896 Y64.441
Y64.439
X8.906 Y64.429 Z-1.782
X8.912 Y64.431
X8.916 Y64.439
X8.906 Y64.449 Z-1.783
X8.896 Y64.441
Y64.439 Z-1.784
X8.906 Y64.429
X8.912 Y64.431
X8.916 Y64.439 Z-1.785
X8.906 Y64.449
X8.896 Y64.441 Z-1.786
Y64.439
X8.906 Y64.429
X8.912 Y64.431 Z-1.787
X8.916 Y64.439
X8.906 Y64.449
X8.896 Y64.441 Z-1.788
Y64.439
X8.906 Y64.429
X8.912 Y64.431 Z-1.789
X8.916 Y64.439
X8.906 Y64.449 Z-1.79
X8.896 Y64.441
Y64.439
X8.906 Y64.429 Z-1.791
X8.912 Y64.431
X8.916 Y64.439
X8.906 Y64.449 Z-1.792
X8.896 Y64.441
Y64.439
X8.906 Y64.429 Z-1.793
X8.912 Y64.431
X8.916 Y64.439
X8.906 Y64.449 Z-1.794
X8.896 Y64.441
Y64.439
X8.906 Y64.429 Z-1.795
X8.912 Y64.431
X8.916 Y64.439 Z-1.796
X8.906 Y64.449
X8.896 Y64.441 Z-1.797
Y64.439
X8.906 Y64.429
X8.912 Y64.431
X8.916 Y64.439 Z-1.798
X8.906 Y64.449
X8.896 Y64.441 Z-1.799
Y64.439
X8.906 Y64.429
X8.912 Y64.431 Z-1.8
X8.916 Y64.439
X8.906 Y64.449 Z-1.801
X8.896 Y64.441
Y64.439
X8.906 Y64.429 Z-1.802
X8.912 Y64.431
X8.916 Y64.439
X8.906 Y64.449 Z-1.803
X8.896 Y64.441
Y64.439
X8.906 Y64.429 Z-1.804
X8.912 Y64.431
X8.916 Y64.439
X8.906 Y64.449 Z-1.805
X8.896 Y64.441
Y64.439
X8.906 Y64.429 Z-1.806
X8.912 Y64.431
X8.916 Y64.439 Z-1.807
X8.906 Y64.449
X8.896 Y64.441 Z-1.808
Y64.439
X8.906 Y64.429
X8.912 Y64.431
X8.916 Y64.439 Z-1.809
X8.906 Y64.449
X8.896 Y64.441 Z-1.81
Y64.439
X8.906 Y64.429
X8.912 Y64.431 Z-1.811
X8.916 Y64.439
X8.906 Y64.449
X8.896 Y64.441 Z-1.812
Y64.439
X8.906 Y64.429 Z-1.813
X8.912 Y64.431
X8.916 Y64.439
X8.906 Y64.449 Z-1.814
X8.896 Y64.441
Y64.439
X8.906 Y64.429 Z-1.815
X8.912 Y64.431
X8.916 Y64.439
X8.906 Y64.449 Z-1.816
X8.896 Y64.441
Y64.439
X8.906 Y64.429 Z-1.817
X8.912 Y64.431
X8.916 Y64.439 Z-1.818
X8.906 Y64.449
X8.896 Y64.441 Z-1.819
Y64.439
X8.906 Y64.429
X8.912 Y64.431
X8.916 Y64.439 Z-1.82
X8.906 Y64.449
X8.896 Y64.441 Z-1.821
Y64.439
X8.906 Y64.429
X8.912 Y64.431 Z-1.822
X8.916 Y64.439
X8.906 Y64.449
X8.896 Y64.441 Z-1.823
Y64.439
X8.906 Y64.429 Z-1.824
X8.912 Y64.431
X8.916 Y64.439
X8.906 Y64.449 Z-1.825
X8.896 Y64.441
Y64.439
X8.906 Y64.429 Z-1.826
X8.912 Y64.431
X8.916 Y64.439
X8.906 Y64.449 Z-1.827
X8.896 Y64.441
Y64.439
X8.906 Y64.429 Z-1.828
X8.912 Y64.431
X8.916 Y64.439 Z-1.829
X8.906 Y64.449
X8.896 Y64.441 Z-1.83
Y64.439
X8.906 Y64.429
X8.912 Y64.431
X8.916 Y64.439 Z-1.831
X8.906 Y64.449
X8.896 Y64.441 Z-1.832
Y64.439
X8.906 Y64.429
X8.912 Y64.431 Z-1.833
X8.916 Y64.439
X8.906 Y64.449
X8.896 Y64.441 Z-1.834
Y64.439
X8.906 Y64.429 Z-1.835
X8.912 Y64.431
X8.916 Y64.439
X8.906 Y64.449 Z-1.836
X8.896 Y64.441
Y64.439
X8.906 Y64.429 Z-1.837
X8.912 Y64.431
X8.916 Y64.439
X8.906 Y64.449 Z-1.838
X8.896 Y64.441
Y64.439
X8.906 Y64.429 Z-1.839
X8.912 Y64.431
X8.916 Y64.439
X8.906 Y64.449 Z-1.84
X8.896 Y64.441
Y64.439 Z-1.841
X8.906 Y64.429
X8.912 Y64.431
X8.916 Y64.439 Z-1.842
X8.906 Y64.449
X8.896 Y64.441 Z-1.843
Y64.439
X8.906 Y64.429
X8.912 Y64.431 Z-1.844
X8.916 Y64.439
X8.906 Y64.449
X8.896 Y64.441 Z-1.845
Y64.439
X8.906 Y64.429 Z-1.846
X8.912 Y64.431
X8.916 Y64.439
X8.906 Y64.449 Z-1.847
X8.896 Y64.441
Y64.439
X8.906 Y64.429 Z-1.848
X8.912 Y64.431
X8.916 Y64.439
X8.906 Y64.449 Z-1.849
X8.896 Y64.441
Y64.439
X8.906 Y64.429 Z-1.85
X8.912 Y64.431
X8.916 Y64.439
X8.906 Y64.449 Z-1.851
X8.896 Y64.441
Y64.439 Z-1.852
X8.906 Y64.429
X8.912 Y64.431
X8.916 Y64.439 Z-1.853
X8.906 Y64.449
X8.896 Y64.441 Z-1.854
Y64.439
X8.906 Y64.429
X8.912 Y64.431 Z-1.855
X8.916 Y64.439
X8.906 Y64.449
X8.896 Y64.441 Z-1.856
Y64.439
X8.906 Y64.429
X8.912 Y64.431 Z-1.857
X8.916 Y64.439
X8.906 Y64.449 Z-1.858
X8.896 Y64.441
Y64.439
X8.906 Y64.429 Z-1.859
X8.912 Y64.431
X8.916 Y64.439
X8.906 Y64.449 Z-1.86
X8.896 Y64.441
Y64.439
X8.906 Y64.429 Z-1.861
X8.912 Y64.431
X8.916 Y64.439
X8.906 Y64.449 Z-1.862
X8.896 Y64.441
Y64.439 Z-1.863
X8.906 Y64.429
X8.912 Y64.431
X8.916 Y64.439 Z-1.864
X8.906 Y64.449
X8.896 Y64.441 Z-1.865
Y64.439
X8.906 Y64.429
X8.912 Y64.431
X8.916 Y64.439 Z-1.866
X8.906 Y64.449
X8.896 Y64.441 Z-1.867
Y64.439
X8.906 Y64.429
X8.912 Y64.431 Z-1.868
X8.916 Y64.439
X8.906 Y64.449 Z-1.869
X8.896 Y64.441
Y64.439
X8.906 Y64.429 Z-1.87
X8.912 Y64.431
X8.916 Y64.439
X8.906 Y64.449 Z-1.871
X8.896 Y64.441
Y64.439
X8.906 Y64.429 Z-1.872
X8.912 Y64.431
X8.916 Y64.439
X8.906 Y64.449 Z-1.873
X8.896 Y64.441
Y64.439
X8.906 Y64.429 Z-1.874
X8.912 Y64.431
X8.916 Y64.439 Z-1.875
X8.906 Y64.449
X8.896 Y64.441 Z-1.876
Y64.439
X8.906 Y64.429
X8.912 Y64.431
X8.916 Y64.439 Z-1.877
X8.906 Y64.449
X8.896 Y64.441 Z-1.878
Y64.439
X8.906 Y64.429
X8.912 Y64.431 Z-1.879
X8.916 Y64.439
X8.906 Y64.449 Z-1.88
X8.896 Y64.441
Y64.439
X8.906 Y64.429 Z-1.881
X8.912 Y64.431
X8.916 Y64.439
X8.906 Y64.449 Z-1.882
X8.896 Y64.441
Y64.439
X8.906 Y64.429 Z-1.883
X8.912 Y64.431
X8.916 Y64.439
X8.906 Y64.449 Z-1.884
X8.896 Y64.441
Y64.439
X8.906 Y64.429 Z-1.885
X8.912 Y64.431
X8.916 Y64.439 Z-1.886
X8.906 Y64.449
X8.896 Y64.441 Z-1.887
Y64.439
X8.906 Y64.429
X8.912 Y64.431
X8.916 Y64.439 Z-1.888
X8.906 Y64.449
X8.896 Y64.441 Z-1.889
Y64.439
X8.906 Y64.429
X8.912 Y64.431 Z-1.89
X8.916 Y64.439
X8.906 Y64.449
X8.896 Y64.441 Z-1.891
Y64.439
X8.906 Y64.429 Z-1.892
X8.912 Y64.431
X8.916 Y64.439
X8.906 Y64.449 Z-1.893
X8.896 Y64.441
Y64.439
X8.906 Y64.429 Z-1.894
X8.912 Y64.431
X8.916 Y64.439
X8.906 Y64.449 Z-1.895
X8.896 Y64.441
Y64.439
X8.906 Y64.429 Z-1.896
X8.912 Y64.431
X8.916 Y64.439 Z-1.897
X8.906 Y64.449
X8.896 Y64.441 Z-1.898
Y64.439
X8.906 Y64.429
X8.912 Y64.431
X8.916 Y64.439 Z-1.899
X8.906 Y64.449
X8.896 Y64.441 Z-1.9
Y64.439
X8.906 Y64.429
X8.912 Y64.431 Z-1.901
X8.916 Y64.439
X8.906 Y64.449
X8.896 Y64.441 Z-1.902
Y64.439
X8.906 Y64.429 Z-1.903
X8.912 Y64.431
X8.916 Y64.439
X8.906 Y64.449 Z-1.904
X8.896 Y64.441
Y64.439
X8.906 Y64.429 Z-1.905
X8.912 Y64.431
X8.916 Y64.439
X8.906 Y64.449 Z-1.906
X8.896 Y64.441
Y64.439
X8.906 Y64.429 Z-1.907
X8.912 Y64.431
X8.916 Y64.439
X8.906 Y64.449 Z-1.908
X8.896 Y64.441 Z-1.909
Y64.439
X8.906 Y64.429
X8.912 Y64.431
X8.916 Y64.439 Z-1.91
X8.906 Y64.449
X8.896 Y64.441 Z-1.911
Y64.439
X8.906 Y64.429
X8.912 Y64.431 Z-1.912
X8.916 Y64.439
X8.906 Y64.449
X8.896 Y64.441 Z-1.913
Y64.439
X8.906 Y64.429 Z-1.914
X8.912 Y64.431
X8.916 Y64.439
X8.906 Y64.449 Z-1.915
X8.896 Y64.441
Y64.439
X8.906 Y64.429 Z-1.916
X8.912 Y64.431
X8.916 Y64.439
X8.906 Y64.449 Z-1.917
X8.896 Y64.441
Y64.439
X8.906 Y64.429 Z-1.918
X8.912 Y64.431
X8.916 Y64.439
X8.906 Y64.449 Z-1.919
X8.896 Y64.441
Y64.439 Z-1.92
X8.906 Y64.429
X8.912 Y64.431
X8.916 Y64.439 Z-1.921
X8.906 Y64.449
X8.896 Y64.441 Z-1.922
Y64.439
X8.906 Y64.429
X8.912 Y64.431 Z-1.923
X8.916 Y64.439
X8.906 Y64.449
X8.896 Y64.441 Z-1.924
Y64.439
X8.906 Y64.429
X8.912 Y64.431 Z-1.925
X8.916 Y64.439
X8.906 Y64.449 Z-1.926
X8.896 Y64.441
Y64.439
X8.906 Y64.429 Z-1.927
X8.912 Y64.431
X8.916 Y64.439
X8.906 Y64.449 Z-1.928
X8.896 Y64.441
Y64.439
X8.906 Y64.429 Z-1.929
X8.912 Y64.431
X8.916 Y64.439
X8.906 Y64.449 Z-1.93
X8.896 Y64.441
Y64.439 Z-1.931
X8.906 Y64.429
X8.912 Y64.431
X8.916 Y64.439 Z-1.932
X8.906 Y64.449
X8.896 Y64.441 Z-1.933
Y64.439
X8.906 Y64.429
X8.912 Y64.431 Z-1.934
X8.916 Y64.439
X8.906 Y64.449
X8.896 Y64.441 Z-1.935
Y64.439
X8.906 Y64.429
X8.912 Y64.431 Z-1.936
X8.916 Y64.439
X8.906 Y64.449 Z-1.937
X8.896 Y64.441
Y64.439
X8.906 Y64.429 Z-1.938
X8.912 Y64.431
X8.916 Y64.439
X8.906 Y64.449 Z-1.939
X8.896 Y64.441
Y64.439
X8.906 Y64.429 Z-1.94
X8.912 Y64.431
X8.916 Y64.439
X8.906 Y64.449 Z-1.941
X8.896 Y64.441
Y64.439
X8.906 Y64.429 Z-1.942
X8.912 Y64.431
X8.916 Y64.439 Z-1.943
X8.906 Y64.449
X8.896 Y64.441 Z-1.944
Y64.439
X8.906 Y64.429
X8.912 Y64.431
X8.916 Y64.439 Z-1.945
X8.906 Y64.449
X8.896 Y64.441 Z-1.946
Y64.439
X8.906 Y64.429
X8.912 Y64.431 Z-1.947
X8.916 Y64.439
X8.906 Y64.449 Z-1.948
X8.896 Y64.441
Y64.439
X8.906 Y64.429 Z-1.949
X8.912 Y64.431
X8.916 Y64.439
X8.906 Y64.449 Z-1.95
X8.896 Y64.441
Y64.439
X8.906 Y64.429 Z-1.951
X8.912 Y64.431
X8.916 Y64.439
X8.906 Y64.449 Z-1.952
X8.896 Y64.441
Y64.439
X8.906 Y64.429 Z-1.953
X8.912 Y64.431
X8.916 Y64.439 Z-1.954
X8.906 Y64.449
X8.896 Y64.441 Z-1.955
Y64.439
X8.906 Y64.429
X8.912 Y64.431
X8.916 Y64.439 Z-1.956
X8.906 Y64.449
X8.896 Y64.441 Z-1.957
Y64.439
X8.906 Y64.429
X8.912 Y64.431 Z-1.958
X8.916 Y64.439
X8.906 Y64.449 Z-1.959
X8.896 Y64.441
Y64.439
X8.906 Y64.429 Z-1.96
X8.912 Y64.431
X8.916 Y64.439
X8.906 Y64.449 Z-1.961
X8.896 Y64.441
Y64.439
X8.906 Y64.429 Z-1.962
X8.912 Y64.431
X8.916 Y64.439
X8.906 Y64.449 Z-1.963
X8.896 Y64.441
Y64.439
X8.906 Y64.429 Z-1.964
X8.912 Y64.431
X8.916 Y64.439 Z-1.965
X8.906 Y64.449
X8.896 Y64.441 Z-1.966
Y64.439
X8.906 Y64.429
X8.912 Y64.431
X8.916 Y64.439 Z-1.967
X8.906 Y64.449
X8.896 Y64.441 Z-1.968
Y64.439
X8.906 Y64.429
X8.912 Y64.431 Z-1.969
X8.916 Y64.439
X8.906 Y64.449
X8.896 Y64.441 Z-1.97
Y64.439
X8.906 Y64.429 Z-1.971
X8.912 Y64.431
X8.916 Y64.439
X8.906 Y64.449 Z-1.972
X8.896 Y64.441
Y64.439
X8.906 Y64.429 Z-1.973
X8.912 Y64.431
X8.916 Y64.439
X8.906 Y64.449 Z-1.974
X8.896 Y64.441
Y64.439
X8.906 Y64.429 Z-1.975
X8.912 Y64.431
X8.916 Y64.439 Z-1.976
X8.906 Y64.449
X8.896 Y64.441 Z-1.977
Y64.439
X8.906 Y64.429
X8.912 Y64.431
X8.916 Y64.439 Z-1.978
X8.906 Y64.449
X8.896 Y64.441 Z-1.979
Y64.439
X8.906 Y64.429
X8.912 Y64.431 Z-1.98
X8.916 Y64.439
X8.906 Y64.449
X8.896 Y64.441 Z-1.981
Y64.439
X8.906 Y64.429 Z-1.982
X8.912 Y64.431
X8.916 Y64.439
X8.906 Y64.449 Z-1.983
X8.896 Y64.441
Y64.439
X8.906 Y64.429 Z-1.984
X8.912 Y64.431
X8.916 Y64.439
X8.906 Y64.449 Z-1.985
X8.896 Y64.441
Y64.439
X8.906 Y64.429 Z-1.986
X8.912 Y64.431
X8.916 Y64.439
X8.906 Y64.449 Z-1.987
X8.896 Y64.441 Z-1.988
Y64.439
X8.906 Y64.429
X8.912 Y64.431
X8.916 Y64.439 Z-1.989
X8.906 Y64.449
X8.896 Y64.441 Z-1.99
Y64.439
X8.906 Y64.429
X8.912 Y64.431 Z-1.991
X8.916 Y64.439
X8.906 Y64.449
X8.896 Y64.441 Z-1.992
Y64.439
X8.906 Y64.429 Z-1.993
X8.912 Y64.431
X8.916 Y64.439
X8.906 Y64.449 Z-1.994
X8.896 Y64.441
Y64.439
X8.906 Y64.429 Z-1.995
X8.912 Y64.431
X8.916 Y64.439
X8.906 Y64.449 Z-1.996
X8.896 Y64.441
Y64.439
X8.906 Y64.429 Z-1.997
X8.912 Y64.431
X8.916 Y64.439
X8.906 Y64.449 Z-1.998
X8.896 Y64.441
Y64.439 Z-1.999
X8.906 Y64.429
X8.912 Y64.431
X8.916 Y64.439 Z-2
X8.906 Y64.449
X8.896 Y64.441 Z-2.001
Y64.439
X8.906 Y64.429
X8.912 Y64.431 Z-2.002
X8.916 Y64.439
X8.906 Y64.449
X8.896 Y64.441 Z-2.003
Y64.439
X8.906 Y64.429
X8.912 Y64.431 Z-2.004
X8.916 Y64.439
X8.906 Y64.449 Z-2.005
X8.896 Y64.441
Y64.439
X8.906 Y64.429 Z-2.006
X8.912 Y64.431
X8.916 Y64.439
X8.906 Y64.449 Z-2.007
X8.896 Y64.441
Y64.439
X8.906 Y64.429 Z-2.008
X8.912 Y64.431
X8.916 Y64.439
X8.906 Y64.449 Z-2.009
X8.896 Y64.441
Y64.439 Z-2.01
X8.906 Y64.429
X8.912 Y64.431
X8.916 Y64.439 Z-2.011
X8.906 Y64.449
X8.896 Y64.441 Z-2.012
Y64.439
X8.906 Y64.429
X8.912 Y64.431
X8.916 Y64.439 Z-2.013
X8.906 Y64.449
X8.896 Y64.441 Z-2.014
Y64.439
X8.906 Y64.429
X8.912 Y64.431 Z-2.015
X8.916 Y64.439
X8.906 Y64.449 Z-2.016
X8.896 Y64.441
Y64.439
X8.906 Y64.429 Z-2.017
X8.912 Y64.431
X8.916 Y64.439
X8.906 Y64.449 Z-2.018
X8.896 Y64.441
Y64.439
X8.906 Y64.429 Z-2.019
X8.912 Y64.431
X8.916 Y64.439
X8.906 Y64.449 Z-2.02
X8.896 Y64.441
Y64.439
X8.906 Y64.429 Z-2.021
X8.912 Y64.431
X8.916 Y64.439 Z-2.022
X8.906 Y64.449
X8.896 Y64.441 Z-2.023
Y64.439
X8.906 Y64.429
X8.912 Y64.431
X8.916 Y64.439 Z-2.024
X8.906 Y64.449
X8.896 Y64.441 Z-2.025
Y64.439
X8.906 Y64.429
X8.912 Y64.431 Z-2.026
X8.916 Y64.439
X8.906 Y64.449 Z-2.027
X8.896 Y64.441
Y64.439
X8.906 Y64.429 Z-2.028
X8.912 Y64.431
X8.916 Y64.439
X8.906 Y64.449 Z-2.029
X8.896 Y64.441
Y64.439
X8.906 Y64.429 Z-2.03
X8.912 Y64.431
X8.916 Y64.439
X8.906 Y64.449 Z-2.031
X8.896 Y64.441
Y64.439
X8.906 Y64.429 Z-2.032
X8.912 Y64.431
X8.916 Y64.439 Z-2.033
X8.906 Y64.449
X8.896 Y64.441 Z-2.034
Y64.439
X8.906 Y64.429
X8.912 Y64.431
X8.916 Y64.439 Z-2.035
X8.906 Y64.449
X8.896 Y64.441 Z-2.036
Y64.439
X8.906 Y64.429
X8.912 Y64.431 Z-2.037
X8.916 Y64.439
X8.906 Y64.449
X8.896 Y64.441 Z-2.038
Y64.439
X8.906 Y64.429 Z-2.039
X8.912 Y64.431
X8.916 Y64.439
X8.906 Y64.449 Z-2.04
X8.896 Y64.441
Y64.439
X8.906 Y64.429 Z-2.041
X8.912 Y64.431
X8.916 Y64.439
X8.906 Y64.449 Z-2.042
X8.896 Y64.441
Y64.439
X8.906 Y64.429 Z-2.043
X8.912 Y64.431
X8.916 Y64.439 Z-2.044
X8.906 Y64.449
X8.896 Y64.441 Z-2.045
Y64.439
X8.906 Y64.429
X8.912 Y64.431
X8.916 Y64.439 Z-2.046
X8.906 Y64.449
X8.896 Y64.441 Z-2.047
Y64.439
X8.906 Y64.429
X8.912 Y64.431 Z-2.048
X8.916 Y64.439
X8.906 Y64.449
X8.896 Y64.441 Z-2.049
Y64.439
X8.906 Y64.429 Z-2.05
X8.912 Y64.431
X8.916 Y64.439
X8.906 Y64.449 Z-2.051
X8.896 Y64.441
Y64.439
X8.906 Y64.429 Z-2.052
X8.912 Y64.431
X8.916 Y64.439
X8.906 Y64.449 Z-2.053
X8.896 Y64.441
Y64.439
X8.906 Y64.429 Z-2.054
X8.912 Y64.431
X8.916 Y64.439
X8.906 Y64.449 Z-2.055
X8.896 Y64.441 Z-2.056
Y64.439
X8.906 Y64.429
X8.912 Y64.431
X8.916 Y64.439 Z-2.057
X8.906 Y64.449
X8.896 Y64.441 Z-2.058
Y64.439
X8.906 Y64.429
X8.912 Y64.431 Z-2.059
X8.916 Y64.439
X8.906 Y64.449
X8.896 Y64.441 Z-2.06
Y64.439
X8.906 Y64.429 Z-2.061
X8.912 Y64.431
X8.916 Y64.439
X8.906 Y64.449 Z-2.062
X8.896 Y64.441
Y64.439
X8.906 Y64.429 Z-2.063
X8.912 Y64.431
X8.916 Y64.439
X8.906 Y64.449 Z-2.064
X8.896 Y64.441
Y64.439
X8.906 Y64.429 Z-2.065
X8.912 Y64.431
X8.916 Y64.439
X8.906 Y64.449 Z-2.066
X8.896 Y64.441
Y64.439 Z-2.067
X8.906 Y64.429
X8.912 Y64.431
X8.916 Y64.439 Z-2.068
X8.906 Y64.449
X8.896 Y64.441 Z-2.069
Y64.439
X8.906 Y64.429
X8.912 Y64.431 Z-2.07
X8.916 Y64.439
X8.906 Y64.449
X8.896 Y64.441 Z-2.071
Y64.439
X8.906 Y64.429 Z-2.072
X8.912 Y64.431
X8.916 Y64.439
X8.906 Y64.449 Z-2.073
X8.896 Y64.441
Y64.439
X8.906 Y64.429 Z-2.074
X8.912 Y64.431
X8.916 Y64.439
X8.906 Y64.449 Z-2.075
X8.896 Y64.441
Y64.439
X8.906 Y64.429 Z-2.076
X8.912 Y64.431
X8.916 Y64.439
X8.906 Y64.449 Z-2.077
X8.896 Y64.441
Y64.439 Z-2.078
X8.906 Y64.429
X8.912 Y64.431
X8.916 Y64.439 Z-2.079
X8.906 Y64.449
X8.896 Y64.441 Z-2.08
Y64.439
X8.906 Y64.429
X8.912 Y64.431 Z-2.081
X8.916 Y64.439
X8.906 Y64.449
X8.896 Y64.441 Z-2.082
Y64.439
X8.906 Y64.429
X8.912 Y64.431 Z-2.083
X8.916 Y64.439
X8.906 Y64.449 Z-2.084
X8.896 Y64.441
Y64.439
X8.906 Y64.429 Z-2.085
X8.912 Y64.431
X8.916 Y64.439
X8.906 Y64.449 Z-2.086
X8.896 Y64.441
Y64.439
X8.906 Y64.429 Z-2.087
X8.912 Y64.431
X8.916 Y64.439
X8.906 Y64.449 Z-2.088
X8.896 Y64.441
Y64.439 Z-2.089
X8.906 Y64.429
X8.912 Y64.431
X8.916 Y64.439 Z-2.09
X8.906 Y64.449
X8.896 Y64.441 Z-2.091
Y64.439
X8.906 Y64.429
X8.912 Y64.431
X8.916 Y64.439 Z-2.092
X8.906 Y64.449
X8.896 Y64.441 Z-2.093
Y64.439
X8.906 Y64.429
X8.912 Y64.431 Z-2.094
X8.916 Y64.439
X8.906 Y64.449 Z-2.095
X8.896 Y64.441
Y64.439
X8.906 Y64.429 Z-2.096
X8.912 Y64.431
X8.916 Y64.439
X8.906 Y64.449 Z-2.097
X8.896 Y64.441
Y64.439
X8.906 Y64.429 Z-2.098
X8.912 Y64.431
X8.916 Y64.439
X8.906 Y64.449 Z-2.099
X8.896 Y64.441
Y64.439
X8.906 Y64.429 Z-2.1
X8.912 Y64.431
X8.916 Y64.439 Z-2.101
X8.906 Y64.449
X8.896 Y64.441 Z-2.102
Y64.439
X8.906 Y64.429
X8.912 Y64.431
X8.916 Y64.439 Z-2.103
X8.906 Y64.449
X8.896 Y64.441 Z-2.104
Y64.439
X8.906 Y64.429
X8.912 Y64.431 Z-2.105
X8.916 Y64.439
X8.906 Y64.449 Z-2.106
X8.896 Y64.441
Y64.439
X8.906 Y64.429 Z-2.107
X8.912 Y64.431
X8.916 Y64.439
X8.906 Y64.449 Z-2.108
X8.896 Y64.441
Y64.439
X8.906 Y64.429 Z-2.109
X8.912 Y64.431
X8.916 Y64.439
X8.906 Y64.449 Z-2.11
X8.896 Y64.441
Y64.439
X8.906 Y64.429 Z-2.111
X8.912 Y64.431
X8.916 Y64.439 Z-2.112
X8.906 Y64.449
X8.896 Y64.441 Z-2.113
Y64.439
X8.906 Y64.429
X8.912 Y64.431
X8.916 Y64.439 Z-2.114
X8.906 Y64.449
X8.896 Y64.441 Z-2.115
Y64.439
X8.906 Y64.429
X8.912 Y64.431 Z-2.116
X8.916 Y64.439
X8.906 Y64.449
X8.896 Y64.441 Z-2.117
Y64.439
X8.906 Y64.429 Z-2.118
X8.912 Y64.431
X8.916 Y64.439
X8.906 Y64.449 Z-2.119
X8.896 Y64.441
Y64.439
X8.906 Y64.429 Z-2.12
X8.912 Y64.431
X8.916 Y64.439
X8.906 Y64.449 Z-2.121
X8.896 Y64.441
Y64.439
X8.906 Y64.429 Z-2.122
X8.912 Y64.431
X8.916 Y64.439 Z-2.123
X8.906 Y64.449
X8.896 Y64.441 Z-2.124
Y64.439
X8.906 Y64.429
X8.912 Y64.431
X8.916 Y64.439 Z-2.125
X8.906 Y64.449
X8.896 Y64.441 Z-2.126
Y64.439
X8.906 Y64.429
X8.912 Y64.431 Z-2.127
X8.916 Y64.439
X8.906 Y64.449
X8.896 Y64.441 Z-2.128
Y64.439
X8.906 Y64.429 Z-2.129
X8.912 Y64.431
X8.916 Y64.439
X8.906 Y64.449 Z-2.13
X8.896 Y64.441
Y64.439
X8.906 Y64.429 Z-2.131
X8.912 Y64.431
X8.916 Y64.439
X8.906 Y64.449 Z-2.132
X8.896 Y64.441
Y64.439
X8.906 Y64.429 Z-2.133
X8.912 Y64.431
X8.916 Y64.439
X8.906 Y64.449 Z-2.134
X8.896 Y64.441 Z-2.135
Y64.439
X8.906 Y64.429
X8.912 Y64.431
X8.916 Y64.439 Z-2.136
X8.906 Y64.449
X8.896 Y64.441 Z-2.137
Y64.439
X8.906 Y64.429
X8.912 Y64.431 Z-2.138
X8.916 Y64.439
X8.906 Y64.449
X8.896 Y64.441 Z-2.139
Y64.439
X8.906 Y64.429 Z-2.14
X8.912 Y64.431
X8.916 Y64.439
X8.906 Y64.449 Z-2.141
X8.896 Y64.441
Y64.439
X8.906 Y64.429 Z-2.142
X8.912 Y64.431
X8.916 Y64.439
X8.906 Y64.449 Z-2.143
X8.896 Y64.441
Y64.439
X8.906 Y64.429 Z-2.144
X8.912 Y64.431
X8.916 Y64.439
X8.906 Y64.449 Z-2.145
X8.896 Y64.441
Y64.439 Z-2.146
X8.906 Y64.429
X8.912 Y64.431
X8.916 Y64.439 Z-2.147
X8.906 Y64.449
X8.896 Y64.441 Z-2.148
Y64.439
X8.906 Y64.429
X8.912 Y64.431 Z-2.149
X8.916 Y64.439
X8.906 Y64.449
X8.896 Y64.441 Z-2.15
Y64.439
X8.906 Y64.429
X8.912 Y64.431 Z-2.151
X8.916 Y64.439
X8.906 Y64.449 Z-2.152
X8.896 Y64.441
Y64.439
X8.906 Y64.429 Z-2.153
X8.912 Y64.431
X8.916 Y64.439
X8.906 Y64.449 Z-2.154
X8.896 Y64.441
Y64.439
X8.906 Y64.429 Z-2.155
X8.912 Y64.431
X8.916 Y64.439
X8.906 Y64.449 Z-2.156
X8.896 Y64.441
Y64.439 Z-2.157
X8.906 Y64.429
X8.912 Y64.431
X8.916 Y64.439 Z-2.158
X8.906 Y64.449
X8.896 Y64.441 Z-2.159
Y64.439
X8.906 Y64.429
X8.912 Y64.431 Z-2.16
X8.916 Y64.439
X8.906 Y64.449
X8.896 Y64.441 Z-2.161
Y64.439
X8.906 Y64.429
X8.912 Y64.431 Z-2.162
X8.916 Y64.439
X8.906 Y64.449 Z-2.163
X8.896 Y64.441
Y64.439
X8.906 Y64.429 Z-2.164
X8.912 Y64.431
X8.916 Y64.439
X8.906 Y64.449 Z-2.165
X8.896 Y64.441
Y64.439
X8.906 Y64.429 Z-2.166
X8.912 Y64.431
X8.916 Y64.439
X8.906 Y64.449 Z-2.167
X8.896 Y64.441
Y64.439
X8.906 Y64.429 Z-2.168
X8.912 Y64.431
X8.916 Y64.439 Z-2.169
X8.906 Y64.449
X8.896 Y64.441 Z-2.17
Y64.439
X8.906 Y64.429
X8.912 Y64.431
X8.916 Y64.439 Z-2.171
X8.906 Y64.449
X8.896 Y64.441 Z-2.172
Y64.439
X8.906 Y64.429
X8.912 Y64.431 Z-2.173
X8.916 Y64.439
X8.906 Y64.449 Z-2.174
X8.896 Y64.441
Y64.439
X8.906 Y64.429 Z-2.175
X8.912 Y64.431
X8.916 Y64.439
X8.906 Y64.449 Z-2.176
X8.896 Y64.441
Y64.439
X8.906 Y64.429 Z-2.177
X8.912 Y64.431
X8.916 Y64.439
X8.906 Y64.449 Z-2.178
X8.896 Y64.441
Y64.439
X8.906 Y64.429 Z-2.179
X8.912 Y64.431
X8.916 Y64.439 Z-2.18
X8.906 Y64.449
X8.896 Y64.441 Z-2.181
Y64.439
X8.906 Y64.429
X8.912 Y64.431
X8.916 Y64.439 Z-2.182
X8.906 Y64.449
X8.896 Y64.441 Z-2.183
Y64.439
X8.906 Y64.429
X8.912 Y64.431 Z-2.184
X8.916 Y64.439
X8.906 Y64.449 Z-2.185
X8.896 Y64.441
Y64.439
X8.906 Y64.429 Z-2.186
X8.912 Y64.431
X8.916 Y64.439
X8.906 Y64.449 Z-2.187
X8.896 Y64.441
Y64.439
X8.906 Y64.429 Z-2.188
X8.912 Y64.431
X8.916 Y64.439
X8.906 Y64.449 Z-2.189
X8.896 Y64.441
Y64.439
X8.906 Y64.429 Z-2.19
X8.912 Y64.431
X8.916 Y64.439 Z-2.191
X8.906 Y64.449
X8.896 Y64.441 Z-2.192
Y64.439
X8.906 Y64.429
X8.912 Y64.431
X8.916 Y64.439 Z-2.193
X8.906 Y64.449
X8.896 Y64.441 Z-2.194
Y64.439
X8.906 Y64.429
X8.912 Y64.431 Z-2.195
X8.916 Y64.439
X8.906 Y64.449
X8.896 Y64.441 Z-2.196
Y64.439
X8.906 Y64.429 Z-2.197
X8.912 Y64.431
X8.916 Y64.439
X8.906 Y64.449 Z-2.198
X8.896 Y64.441
Y64.439
X8.906 Y64.429 Z-2.199
X8.912 Y64.431
X8.916 Y64.439
X8.906 Y64.449 Z-2.2
X8.896 Y64.441
Y64.439
X8.906 Y64.429 Z-2.201
X8.912 Y64.431
X8.916 Y64.439 Z-2.202
X8.906 Y64.449
X8.896 Y64.441 Z-2.203
Y64.439
X8.906 Y64.429
X8.912 Y64.431
X8.916 Y64.439 Z-2.204
X8.906 Y64.449
X8.896 Y64.441 Z-2.205
Y64.439
X8.906 Y64.429
X8.912 Y64.431 Z-2.206
X8.916 Y64.439
X8.906 Y64.449
X8.896 Y64.441 Z-2.207
Y64.439
X8.906 Y64.429 Z-2.208
X8.912 Y64.431
X8.916 Y64.439
X8.906 Y64.449 Z-2.209
X8.896 Y64.441
Y64.439
X8.906 Y64.429 Z-2.21
X8.912 Y64.431
X8.916 Y64.439
X8.906 Y64.449 Z-2.211
X8.896 Y64.441
Y64.439
X8.906 Y64.429 Z-2.212
X8.912 Y64.431
X8.916 Y64.439
X8.906 Y64.449 Z-2.213
X8.896 Y64.441
Y64.439 Z-2.214
X8.906 Y64.429
X8.912 Y64.431
X8.916 Y64.439 Z-2.215
X8.906 Y64.449
X8.896 Y64.441 Z-2.216
Y64.439
X8.906 Y64.429
X8.912 Y64.431 Z-2.217
X8.916 Y64.439
X8.906 Y64.449
X8.896 Y64.441 Z-2.218
Y64.439
X8.906 Y64.429 Z-2.219
X8.912 Y64.431
X8.916 Y64.439
X8.906 Y64.449 Z-2.22
X8.896 Y64.441
Y64.439
X8.906 Y64.429 Z-2.221
X8.912 Y64.431
X8.916 Y64.439
X8.906 Y64.449 Z-2.222
X8.896 Y64.441
Y64.439
X8.906 Y64.429 Z-2.223
X8.912 Y64.431
X8.916 Y64.439
X8.906 Y64.449 Z-2.224
X8.896 Y64.441
Y64.439 Z-2.225
X8.906 Y64.429
X8.912 Y64.431
X8.916 Y64.439 Z-2.226
X8.906 Y64.449
X8.896 Y64.441 Z-2.227
Y64.439
X8.906 Y64.429
X8.912 Y64.431 Z-2.228
X8.916 Y64.439
X8.906 Y64.449
X8.896 Y64.441 Z-2.229
Y64.439
X8.906 Y64.429
X8.912 Y64.431 Z-2.23
X8.916 Y64.439
X8.906 Y64.449 Z-2.231
X8.896 Y64.441
Y64.439
X8.906 Y64.429 Z-2.232
X8.912 Y64.431
X8.916 Y64.439
X8.906 Y64.449 Z-2.233
X8.896 Y64.441
Y64.439
X8.906 Y64.429 Z-2.234
X8.912 Y64.431
X8.916 Y64.439
X8.906 Y64.449 Z-2.235
X8.896 Y64.441
Y64.439 Z-2.236
X8.906 Y64.429
X8.912 Y64.431
X8.916 Y64.439 Z-2.237
X8.906 Y64.449
X8.896 Y64.441 Z-2.238
Y64.439
X8.906 Y64.429
X8.912 Y64.431
X8.916 Y64.439 Z-2.239
X8.906 Y64.449
X8.896 Y64.441 Z-2.24
Y64.439
X8.906 Y64.429
X8.912 Y64.431 Z-2.241
X8.916 Y64.439
X8.906 Y64.449 Z-2.242
X8.896 Y64.441
Y64.439
X8.906 Y64.429 Z-2.243
X8.912 Y64.431
X8.916 Y64.439
X8.906 Y64.449 Z-2.244
X8.896 Y64.441
Y64.439
X8.906 Y64.429 Z-2.245
X8.912 Y64.431
X8.916 Y64.439
X8.906 Y64.449 Z-2.246
X8.896 Y64.441
Y64.439
X8.906 Y64.429 Z-2.247
X8.912 Y64.431
X8.916 Y64.439 Z-2.248
X8.906 Y64.449
X8.896 Y64.441 Z-2.249
Y64.439
X8.906 Y64.429
X8.912 Y64.431
X8.916 Y64.439 Z-2.25
X8.906 Y64.449
X8.896 Y64.441 Z-2.251
Y64.439
X8.906 Y64.429
X8.912 Y64.431 Z-2.252
X8.916 Y64.439
X8.906 Y64.449 Z-2.253
X8.896 Y64.441
Y64.439
X8.906 Y64.429 Z-2.254
X8.912 Y64.431
X8.916 Y64.439
X8.906 Y64.449 Z-2.255
X8.896 Y64.441
Y64.439
X8.906 Y64.429 Z-2.256
X8.912 Y64.431
X8.916 Y64.439
X8.906 Y64.449 Z-2.257
X8.896 Y64.441
Y64.439
X8.906 Y64.429 Z-2.258
X8.912 Y64.431
X8.916 Y64.439 Z-2.259
X8.906 Y64.449
X8.896 Y64.441 Z-2.26
Y64.439
X8.906 Y64.429
X8.912 Y64.431
X8.916 Y64.439 Z-2.261
X8.906 Y64.449
X8.896 Y64.441 Z-2.262
Y64.439
X8.906 Y64.429
X8.912 Y64.431 Z-2.263
X8.916 Y64.439
X8.906 Y64.449
X8.896 Y64.441 Z-2.264
Y64.439
X8.906 Y64.429 Z-2.265
X8.912 Y64.431
X8.916 Y64.439
X8.906 Y64.449 Z-2.266
X8.896 Y64.441
Y64.439
X8.906 Y64.429 Z-2.267
X8.912 Y64.431
X8.916 Y64.439
X8.906 Y64.449 Z-2.268
X8.896 Y64.441
Y64.439
X8.906 Y64.429 Z-2.269
X8.912 Y64.431
X8.916 Y64.439 Z-2.27
X8.906 Y64.449
X8.896 Y64.441 Z-2.271
Y64.439
X8.906 Y64.429
X8.912 Y64.431
X8.916 Y64.439 Z-2.272
X8.906 Y64.449
X8.896 Y64.441 Z-2.273
Y64.439
X8.906 Y64.429
X8.912 Y64.431 Z-2.274
X8.916 Y64.439
X8.906 Y64.449
X8.896 Y64.441 Z-2.275
Y64.439
X8.906 Y64.429 Z-2.276
X8.912 Y64.431
X8.916 Y64.439
X8.906 Y64.449 Z-2.277
X8.896 Y64.441
Y64.439
X8.906 Y64.429 Z-2.278
X8.912 Y64.431
X8.916 Y64.439
X8.906 Y64.449 Z-2.279
X8.896 Y64.441
Y64.439
X8.906 Y64.429 Z-2.28
X8.912 Y64.431
X8.916 Y64.439
X8.906 Y64.449 Z-2.281
X8.896 Y64.441 Z-2.282
Y64.439
X8.906 Y64.429
X8.912 Y64.431
X8.916 Y64.439 Z-2.283
X8.906 Y64.449
X8.896 Y64.441 Z-2.284
Y64.439
X8.906 Y64.429
X8.912 Y64.431 Z-2.285
X8.916 Y64.439
X8.906 Y64.449
X8.896 Y64.441 Z-2.286
Y64.439
X8.906 Y64.429 Z-2.287
X8.912 Y64.431
X8.916 Y64.439
X8.906 Y64.449 Z-2.288
X8.896 Y64.441
Y64.439
X8.906 Y64.429 Z-2.289
X8.912 Y64.431
X8.916 Y64.439
X8.906 Y64.449 Z-2.29
X8.896 Y64.441
Y64.439
X8.906 Y64.429 Z-2.291
X8.912 Y64.431
X8.916 Y64.439
X8.906 Y64.449 Z-2.292
X8.896 Y64.441
Y64.439 Z-2.293
X8.906 Y64.429
X8.912 Y64.431
X8.916 Y64.439 Z-2.294
X8.906 Y64.449
X8.896 Y64.441 Z-2.295
Y64.439
X8.906 Y64.429
X8.912 Y64.431 Z-2.296
X8.916 Y64.439
X8.906 Y64.449
X8.896 Y64.441 Z-2.297
Y64.439
X8.906 Y64.429
X8.912 Y64.431 Z-2.298
X8.916 Y64.439
X8.906 Y64.449 Z-2.299
X8.896 Y64.441
Y64.439
X8.906 Y64.429 Z-2.3
X8.912 Y64.431
X8.916 Y64.439
X8.906 Y64.449 Z-2.301
X8.896 Y64.441
Y64.439
X8.906 Y64.429 Z-2.302
X8.912 Y64.431
X8.916 Y64.439
X8.906 Y64.449 Z-2.303
X8.896 Y64.441
Y64.439 Z-2.304
X8.906 Y64.429
X8.912 Y64.431
X8.916 Y64.439 Z-2.305
X8.906 Y64.449
X8.896 Y64.441 Z-2.306
Y64.439
X8.906 Y64.429
X8.912 Y64.431 Z-2.307
X8.916 Y64.439
X8.906 Y64.449
X8.896 Y64.441 Z-2.308
Y64.439
X8.906 Y64.429
X8.912 Y64.431 Z-2.309
X8.916 Y64.439
X8.906 Y64.449 Z-2.31
X8.896 Y64.441
Y64.439
X8.906 Y64.429 Z-2.311
X8.912 Y64.431
X8.916 Y64.439
X8.906 Y64.449 Z-2.312
X8.896 Y64.441
Y64.439
X8.906 Y64.429 Z-2.313
X8.912 Y64.431
X8.916 Y64.439
X8.906 Y64.449 Z-2.314
X8.896 Y64.441
Y64.439 Z-2.315
X8.906 Y64.429
X8.912 Y64.431
X8.916 Y64.439 Z-2.316
X8.906 Y64.449
X8.896 Y64.441 Z-2.317
Y64.439
X8.906 Y64.429
X8.912 Y64.431
X8.916 Y64.439 Z-2.318
X8.906 Y64.449
X8.896 Y64.441 Z-2.319
Y64.439
X8.906 Y64.429
X8.912 Y64.431 Z-2.32
X8.916 Y64.439
X8.906 Y64.449 Z-2.321
X8.896 Y64.441
Y64.439
X8.906 Y64.429 Z-2.322
X8.912 Y64.431
X8.916 Y64.439
X8.906 Y64.449 Z-2.323
X8.896 Y64.441
Y64.439
X8.906 Y64.429 Z-2.324
X8.912 Y64.431
X8.916 Y64.439
X8.906 Y64.449 Z-2.325
X8.896 Y64.441
Y64.439
X8.906 Y64.429 Z-2.326
X8.912 Y64.431
X8.916 Y64.439 Z-2.327
X8.906 Y64.449
X8.896 Y64.441 Z-2.328
Y64.439
X8.906 Y64.429
X8.912 Y64.431
X8.916 Y64.439 Z-2.329
X8.906 Y64.449
X8.896 Y64.441 Z-2.33
Y64.439
X8.906 Y64.429
X8.912 Y64.431 Z-2.331
X8.916 Y64.439
X8.906 Y64.449 Z-2.332
X8.896 Y64.441
Y64.439
X8.906 Y64.429 Z-2.333
X8.912 Y64.431
X8.916 Y64.439
X8.906 Y64.449 Z-2.334
X8.896 Y64.441
Y64.439
X8.906 Y64.429 Z-2.335
X8.912 Y64.431
X8.916 Y64.439
X8.906 Y64.449 Z-2.336
X8.896 Y64.441
Y64.439
X8.906 Y64.429 Z-2.337
X8.912 Y64.431
X8.916 Y64.439 Z-2.338
X8.906 Y64.449
X8.896 Y64.441 Z-2.339
Y64.439
X8.906 Y64.429
X8.912 Y64.431
X8.916 Y64.439 Z-2.34
X8.906 Y64.449
X8.896 Y64.441 Z-2.341
Y64.439
X8.906 Y64.429
X8.912 Y64.431 Z-2.342
X8.916 Y64.439
X8.906 Y64.449
X8.896 Y64.441 Z-2.343
Y64.439
X8.906 Y64.429 Z-2.344
X8.912 Y64.431
X8.916 Y64.439
X8.906 Y64.449 Z-2.345
X8.896 Y64.441
Y64.439
X8.906 Y64.429 Z-2.346
X8.912 Y64.431
X8.916 Y64.439
X8.906 Y64.449 Z-2.347
X8.896 Y64.441
Y64.439
X8.906 Y64.429 Z-2.348
X8.912 Y64.431
X8.916 Y64.439 Z-2.349
X8.906 Y64.449
X8.896 Y64.441 Z-2.35
Y64.439
X8.906 Y64.429
X8.912 Y64.431
X8.916 Y64.439 Z-2.351
X8.906 Y64.449
X8.896 Y64.441 Z-2.352
Y64.439
X8.906 Y64.429
X8.912 Y64.431 Z-2.353
X8.916 Y64.439
X8.906 Y64.449
X8.896 Y64.441 Z-2.354
Y64.439
X8.906 Y64.429 Z-2.355
X8.912 Y64.431
X8.916 Y64.439
X8.906 Y64.449 Z-2.356
X8.896 Y64.441
Y64.439
X8.906 Y64.429 Z-2.357
X8.912 Y64.431
X8.916 Y64.439
X8.906 Y64.449 Z-2.358
X8.896 Y64.441
Y64.439
X8.906 Y64.429 Z-2.359
X8.912 Y64.431
X8.916 Y64.439
X8.906 Y64.449 Z-2.36
X8.896 Y64.441 Z-2.361
Y64.439
X8.906 Y64.429
X8.912 Y64.431
X8.916 Y64.439 Z-2.362
X8.906 Y64.449
X8.896 Y64.441 Z-2.363
Y64.439
X8.906 Y64.429
X8.912 Y64.431 Z-2.364
X8.916 Y64.439
X8.906 Y64.449
X8.896 Y64.441 Z-2.365
Y64.439
X8.906 Y64.429 Z-2.366
X8.912 Y64.431
X8.916 Y64.439
X8.906 Y64.449 Z-2.367
X8.896 Y64.441
Y64.439
X8.906 Y64.429 Z-2.368
X8.912 Y64.431
X8.916 Y64.439
X8.906 Y64.449 Z-2.369
X8.896 Y64.441
Y64.439
X8.906 Y64.429 Z-2.37
X8.912 Y64.431
X8.916 Y64.439
X8.906 Y64.449 Z-2.371
X8.896 Y64.441
Y64.439 Z-2.372
X8.906 Y64.429
X8.912 Y64.431
X8.916 Y64.439 Z-2.373
X8.906 Y64.449
X8.896 Y64.441 Z-2.374
Y64.439
X8.906 Y64.429
X8.912 Y64.431 Z-2.375
X8.916 Y64.439
X8.906 Y64.449
X8.896 Y64.441 Z-2.376
Y64.439
X8.906 Y64.429
X8.912 Y64.431 Z-2.377
X8.916 Y64.439
X8.906 Y64.449 Z-2.378
X8.896 Y64.441
Y64.439
X8.906 Y64.429 Z-2.379
X8.912 Y64.431
X8.916 Y64.439
X8.906 Y64.449 Z-2.38
X8.896 Y64.441
Y64.439
X8.906 Y64.429 Z-2.381
X8.912 Y64.431
X8.916 Y64.439
X8.906 Y64.449 Z-2.382
X8.896 Y64.441
Y64.439 Z-2.383
X8.906 Y64.429
X8.912 Y64.431
X8.916 Y64.439 Z-2.384
X8.906 Y64.449
X8.896 Y64.441 Z-2.385
Y64.439
X8.906 Y64.429
X8.912 Y64.431 Z-2.386
X8.916 Y64.439
X8.906 Y64.449
X8.896 Y64.441 Z-2.387
Y64.439
X8.906 Y64.429
X8.912 Y64.431 Z-2.388
X8.916 Y64.439
X8.906 Y64.449 Z-2.389
X8.896 Y64.441
Y64.439
X8.906 Y64.429 Z-2.39
X8.912 Y64.431
X8.916 Y64.439
X8.906 Y64.449 Z-2.391
X8.896 Y64.441
Y64.439
X8.906 Y64.429 Z-2.392
X8.912 Y64.431
X8.916 Y64.439
X8.906 Y64.449 Z-2.393
X8.896 Y64.441
Y64.439
X8.906 Y64.429 Z-2.394
X8.912 Y64.431
X8.916 Y64.439 Z-2.395
X8.906 Y64.449
X8.896 Y64.441 Z-2.396
Y64.439
X8.906 Y64.429
X8.912 Y64.431
X8.916 Y64.439 Z-2.397
X8.906 Y64.449
X8.896 Y64.441 Z-2.398
Y64.439
X8.906 Y64.429
X8.912 Y64.431 Z-2.399
X8.916 Y64.439
X8.906 Y64.449 Z-2.4
X8.896 Y64.441
X8.912 Y64.431
X8.906 Y64.449
X8.896 Y64.441
Y64.439
X8.906 Y64.429 Z-2.401
X8.916 Y64.439
X8.915 Y64.444
X8.906 Y64.449 Z-2.402
X8.896 Y64.441
Y64.439
X8.906 Y64.429 Z-2.403
X8.916 Y64.439
X8.915 Y64.444 Z-2.404
X8.906 Y64.449
X8.896 Y64.441
Y64.439
X8.906 Y64.429 Z-2.405
X8.916 Y64.439 Z-2.406
X8.915 Y64.444
X8.906 Y64.449
X8.896 Y64.441 Z-2.407
Y64.439
X8.906 Y64.429
X8.916 Y64.439 Z-2.408
X8.915 Y64.444
X8.906 Y64.449
X8.896 Y64.441 Z-2.409
Y64.439
X8.906 Y64.429
X8.916 Y64.439 Z-2.41
X8.915 Y64.444
X8.906 Y64.449
X8.896 Y64.441 Z-2.411
Y64.439
X8.906 Y64.429 Z-2.412
X8.916 Y64.439
X8.915 Y64.444
X8.906 Y64.449 Z-2.413
X8.896 Y64.441
Y64.439
X8.906 Y64.429 Z-2.414
X8.916 Y64.439
X8.915 Y64.444
X8.906 Y64.449 Z-2.415
X8.896 Y64.441
Y64.439
X8.906 Y64.429 Z-2.416
X8.916 Y64.439 Z-2.417
X8.915 Y64.444
X8.906 Y64.449
X8.896 Y64.441 Z-2.418
Y64.439
X8.906 Y64.429
X8.916 Y64.439 Z-2.419
X8.915 Y64.444
X8.906 Y64.449
X8.896 Y64.441 Z-2.42
Y64.439
X8.906 Y64.429
X8.916 Y64.439 Z-2.421
X8.915 Y64.444
X8.906 Y64.449
X8.896 Y64.441 Z-2.422
Y64.439
X8.906 Y64.429 Z-2.423
X8.916 Y64.439
X8.915 Y64.444
X8.906 Y64.449 Z-2.424
X8.896 Y64.441
Y64.439
X8.906 Y64.429 Z-2.425
X8.916 Y64.439
X8.915 Y64.444
X8.906 Y64.449 Z-2.426
X8.896 Y64.441
Y64.439
X8.906 Y64.429 Z-2.427
X8.916 Y64.439 Z-2.428
X8.915 Y64.444
X8.906 Y64.449
X8.896 Y64.441 Z-2.429
Y64.439
X8.906 Y64.429
X8.916 Y64.439 Z-2.43
X8.915 Y64.444
X8.906 Y64.449
X8.896 Y64.441 Z-2.431
Y64.439
X8.906 Y64.429
X8.916 Y64.439 Z-2.432
X8.915 Y64.444
X8.906 Y64.449
X8.896 Y64.441 Z-2.433
Y64.439
X8.906 Y64.429 Z-2.434
X8.916 Y64.439
X8.915 Y64.444
X8.906 Y64.449 Z-2.435
X8.896 Y64.441
Y64.439
X8.906 Y64.429 Z-2.436
X8.916 Y64.439
X8.915 Y64.444
X8.906 Y64.449 Z-2.437
X8.896 Y64.441
Y64.439
X8.906 Y64.429 Z-2.438
X8.916 Y64.439
X8.915 Y64.444 Z-2.439
X8.906 Y64.449
X8.896 Y64.441
Y64.439 Z-2.44
X8.906 Y64.429
X8.916 Y64.439 Z-2.441
X8.915 Y64.444
X8.906 Y64.449
X8.896 Y64.441 Z-2.442
Y64.439
X8.906 Y64.429
X8.916 Y64.439 Z-2.443
X8.915 Y64.444
X8.906 Y64.449
X8.896 Y64.441 Z-2.444
Y64.439
X8.906 Y64.429 Z-2.445
X8.916 Y64.439
X8.915 Y64.444
X8.906 Y64.449 Z-2.446
X8.896 Y64.441
Y64.439
X8.906 Y64.429 Z-2.447
X8.916 Y64.439
X8.915 Y64.444
X8.906 Y64.449 Z-2.448
X8.896 Y64.441
Y64.439
X8.906 Y64.429 Z-2.449
X8.916 Y64.439
X8.915 Y64.444 Z-2.45
X8.906 Y64.449
X8.896 Y64.441
Y64.439 Z-2.451
X8.906 Y64.429
X8.916 Y64.439 Z-2.452
X8.915 Y64.444
X8.906 Y64.449
X8.896 Y64.441 Z-2.453
Y64.439
X8.906 Y64.429
X8.916 Y64.439 Z-2.454
X8.915 Y64.444
X8.906 Y64.449
X8.896 Y64.441 Z-2.455
Y64.439
X8.906 Y64.429
X8.916 Y64.439 Z-2.456
X8.915 Y64.444
X8.906 Y64.449 Z-2.457
X8.896 Y64.441
Y64.439
X8.906 Y64.429 Z-2.458
X8.916 Y64.439
X8.915 Y64.444
X8.906 Y64.449 Z-2.459
X8.896 Y64.441
Y64.439
X8.906 Y64.429 Z-2.46
X8.916 Y64.439
X8.915 Y64.444 Z-2.461
X8.906 Y64.449
X8.896 Y64.441
Y64.439 Z-2.462
X8.906 Y64.429
X8.916 Y64.439 Z-2.463
X8.915 Y64.444
X8.906 Y64.449
X8.896 Y64.441 Z-2.464
Y64.439
X8.906 Y64.429
X8.916 Y64.439 Z-2.465
X8.915 Y64.444
X8.906 Y64.449
X8.896 Y64.441 Z-2.466
Y64.439
X8.906 Y64.429
X8.916 Y64.439 Z-2.467
X8.915 Y64.444
X8.906 Y64.449 Z-2.468
X8.896 Y64.441
Y64.439
X8.906 Y64.429 Z-2.469
X8.916 Y64.439
X8.915 Y64.444
X8.906 Y64.449 Z-2.47
X8.896 Y64.441
Y64.439
X8.906 Y64.429 Z-2.471
X8.916 Y64.439
X8.915 Y64.444 Z-2.472
X8.906 Y64.449
X8.896 Y64.441
Y64.439
X8.906 Y64.429 Z-2.473
X8.916 Y64.439 Z-2.474
X8.915 Y64.444
X8.906 Y64.449
X8.896 Y64.441 Z-2.475
Y64.439
X8.906 Y64.429
X8.916 Y64.439 Z-2.476
X8.915 Y64.444
X8.906 Y64.449
X8.896 Y64.441 Z-2.477
Y64.439
X8.906 Y64.429
X8.916 Y64.439 Z-2.478
X8.915 Y64.444
X8.906 Y64.449 Z-2.479
X8.896 Y64.441
Y64.439
X8.906 Y64.429 Z-2.48
X8.916 Y64.439
X8.915 Y64.444
X8.906 Y64.449 Z-2.481
X8.896 Y64.441
Y64.439
X8.906 Y64.429 Z-2.482
X8.916 Y64.439
X8.915 Y64.444 Z-2.483
X8.906 Y64.449
X8.896 Y64.441
Y64.439
X8.906 Y64.429 Z-2.484
X8.916 Y64.439 Z-2.485
X8.915 Y64.444
X8.906 Y64.449
X8.896 Y64.441 Z-2.486
Y64.439
X8.906 Y64.429
X8.916 Y64.439 Z-2.487
X8.915 Y64.444
X8.906 Y64.449
X8.896 Y64.441 Z-2.488
Y64.439
X8.906 Y64.429
X8.916 Y64.439 Z-2.489
X8.915 Y64.444
X8.906 Y64.449
X8.896 Y64.441 Z-2.49
Y64.439
X8.906 Y64.429 Z-2.491
X8.916 Y64.439
X8.915 Y64.444
X8.906 Y64.449 Z-2.492
X8.896 Y64.441
Y64.439
X8.906 Y64.429 Z-2.493
X8.916 Y64.439
X8.915 Y64.444
X8.906 Y64.449 Z-2.494
X8.896 Y64.441
Y64.439
X8.906 Y64.429 Z-2.495
X8.916 Y64.439 Z-2.496
X8.915 Y64.444
X8.906 Y64.449
X8.896 Y64.441 Z-2.497
Y64.439
X8.906 Y64.429
X8.916 Y64.439 Z-2.498
X8.915 Y64.444
X8.906 Y64.449
X8.896 Y64.441 Z-2.499
Y64.439
X8.906 Y64.429
X8.916 Y64.439 Z-2.5
X8.915 Y64.444
X8.906 Y64.449
X8.896 Y64.441 Z-2.501
Y64.439
X8.906 Y64.429 Z-2.502
X8.916 Y64.439
X8.915 Y64.444
X8.906 Y64.449 Z-2.503
X8.896 Y64.441
Y64.439
X8.906 Y64.429 Z-2.504
X8.916 Y64.439
X8.915 Y64.444
X8.906 Y64.449 Z-2.505
X8.896 Y64.441
Y64.439
X8.906 Y64.429 Z-2.506
X8.916 Y64.439
X8.915 Y64.444 Z-2.507
X8.906 Y64.449
X8.896 Y64.441 Z-2.508
Y64.439
X8.906 Y64.429
X8.916 Y64.439 Z-2.509
X8.915 Y64.444
X8.906 Y64.449
X8.896 Y64.441 Z-2.51
Y64.439
X8.906 Y64.429
X8.916 Y64.439 Z-2.511
X8.915 Y64.444
X8.906 Y64.449
X8.896 Y64.441 Z-2.512
Y64.439
X8.906 Y64.429 Z-2.513
X8.916 Y64.439
X8.915 Y64.444
X8.906 Y64.449 Z-2.514
X8.896 Y64.441
Y64.439
X8.906 Y64.429 Z-2.515
X8.916 Y64.439
X8.915 Y64.444
X8.906 Y64.449 Z-2.516
X8.896 Y64.441
Y64.439
X8.906 Y64.429 Z-2.517
X8.916 Y64.439
X8.915 Y64.444 Z-2.518
X8.906 Y64.449
X8.896 Y64.441
Y64.439 Z-2.519
X8.906 Y64.429
X8.916 Y64.439 Z-2.52
X8.915 Y64.444
X8.906 Y64.449
X8.896 Y64.441 Z-2.521
Y64.439
X8.906 Y64.429
X8.916 Y64.439 Z-2.522
X8.915 Y64.444
X8.906 Y64.449
X8.896 Y64.441 Z-2.523
Y64.439
X8.906 Y64.429
X8.916 Y64.439 Z-2.524
X8.915 Y64.444
X8.906 Y64.449 Z-2.525
X8.896 Y64.441
Y64.439
X8.906 Y64.429 Z-2.526
X8.916 Y64.439
X8.915 Y64.444
X8.906 Y64.449 Z-2.527
X8.896 Y64.441
Y64.439
X8.906 Y64.429 Z-2.528
X8.916 Y64.439
X8.915 Y64.444 Z-2.529
X8.906 Y64.449
X8.896 Y64.441
Y64.439 Z-2.53
X8.906 Y64.429
X8.916 Y64.439 Z-2.531
X8.915 Y64.444
X8.906 Y64.449
X8.896 Y64.441 Z-2.532
Y64.439
X8.906 Y64.429
X8.916 Y64.439 Z-2.533
X8.915 Y64.444
X8.906 Y64.449
X8.896 Y64.441 Z-2.534
Y64.439
X8.906 Y64.429
X8.916 Y64.439 Z-2.535
X8.915 Y64.444
X8.906 Y64.449 Z-2.536
X8.896 Y64.441
Y64.439
X8.906 Y64.429 Z-2.537
X8.916 Y64.439
X8.915 Y64.444
X8.906 Y64.449 Z-2.538
X8.896 Y64.441
Y64.439
X8.906 Y64.429 Z-2.539
X8.916 Y64.439
X8.915 Y64.444 Z-2.54
X8.906 Y64.449
X8.896 Y64.441
Y64.439
X8.906 Y64.429 Z-2.541
X8.916 Y64.439 Z-2.542
X8.915 Y64.444
X8.906 Y64.449
X8.896 Y64.441 Z-2.543
Y64.439
X8.906 Y64.429
X8.916 Y64.439 Z-2.544
X8.915 Y64.444
X8.906 Y64.449
X8.896 Y64.441 Z-2.545
Y64.439
X8.906 Y64.429
X8.916 Y64.439 Z-2.546
X8.915 Y64.444
X8.906 Y64.449 Z-2.547
X8.896 Y64.441
Y64.439
X8.906 Y64.429 Z-2.548
X8.916 Y64.439
X8.915 Y64.444
X8.906 Y64.449 Z-2.549
X8.896 Y64.441
Y64.439
X8.906 Y64.429 Z-2.55
X8.916 Y64.439
X8.915 Y64.444 Z-2.551
X8.906 Y64.449
X8.896 Y64.441
Y64.439
X8.906 Y64.429 Z-2.552
X8.916 Y64.439 Z-2.553
X8.915 Y64.444
X8.906 Y64.449
X8.896 Y64.441 Z-2.554
Y64.439
X8.906 Y64.429
X8.916 Y64.439 Z-2.555
X8.915 Y64.444
X8.906 Y64.449
X8.896 Y64.441 Z-2.556
Y64.439
X8.906 Y64.429
X8.916 Y64.439 Z-2.557
X8.915 Y64.444
X8.906 Y64.449 Z-2.558
X8.896 Y64.441
Y64.439
X8.906 Y64.429 Z-2.559
X8.916 Y64.439
X8.915 Y64.444
X8.906 Y64.449 Z-2.56
X8.896 Y64.441
Y64.439
X8.906 Y64.429 Z-2.561
X8.916 Y64.439
X8.915 Y64.444 Z-2.562
X8.906 Y64.449
X8.896 Y64.441
Y64.439
X8.906 Y64.429 Z-2.563
X8.916 Y64.439 Z-2.564
X8.915 Y64.444
X8.906 Y64.449
X8.896 Y64.441 Z-2.565
Y64.439
X8.906 Y64.429
X8.916 Y64.439 Z-2.566
X8.915 Y64.444
X8.906 Y64.449
X8.896 Y64.441 Z-2.567
Y64.439
X8.906 Y64.429
X8.916 Y64.439 Z-2.568
X8.915 Y64.444
X8.906 Y64.449
X8.896 Y64.441 Z-2.569
Y64.439
X8.906 Y64.429 Z-2.57
X8.916 Y64.439
X8.915 Y64.444
X8.906 Y64.449 Z-2.571
X8.896 Y64.441
Y64.439
X8.906 Y64.429 Z-2.572
X8.916 Y64.439
X8.915 Y64.444
X8.906 Y64.449 Z-2.573
X8.896 Y64.441
Y64.439
X8.906 Y64.429 Z-2.574
X8.916 Y64.439 Z-2.575
X8.915 Y64.444
X8.906 Y64.449
X8.896 Y64.441 Z-2.576
Y64.439
X8.906 Y64.429
X8.916 Y64.439 Z-2.577
X8.915 Y64.444
X8.906 Y64.449
X8.896 Y64.441 Z-2.578
Y64.439
X8.906 Y64.429
X8.916 Y64.439 Z-2.579
X8.915 Y64.444
X8.906 Y64.449
X8.896 Y64.441 Z-2.58
Y64.439
X8.906 Y64.429 Z-2.581
X8.916 Y64.439
X8.915 Y64.444
X8.906 Y64.449 Z-2.582
X8.896 Y64.441
Y64.439
X8.906 Y64.429 Z-2.583
X8.916 Y64.439
X8.915 Y64.444
X8.906 Y64.449 Z-2.584
X8.896 Y64.441
Y64.439
X8.906 Y64.429 Z-2.585
X8.916 Y64.439
X8.915 Y64.444 Z-2.586
X8.906 Y64.449
X8.896 Y64.441 Z-2.587
Y64.439
X8.906 Y64.429
X8.916 Y64.439 Z-2.588
X8.915 Y64.444
X8.906 Y64.449
X8.896 Y64.441 Z-2.589
Y64.439
X8.906 Y64.429
X8.916 Y64.439 Z-2.59
X8.915 Y64.444
X8.906 Y64.449
X8.896 Y64.441 Z-2.591
Y64.439
X8.906 Y64.429 Z-2.592
X8.916 Y64.439
X8.915 Y64.444
X8.906 Y64.449 Z-2.593
X8.896 Y64.441
Y64.439
X8.906 Y64.429 Z-2.594
X8.916 Y64.439
X8.915 Y64.444
X8.906 Y64.449 Z-2.595
X8.896 Y64.441
Y64.439
X8.906 Y64.429 Z-2.596
X8.916 Y64.439
X8.915 Y64.444 Z-2.597
X8.906 Y64.449
X8.896 Y64.441
Y64.439 Z-2.598
X8.906 Y64.429
X8.916 Y64.439 Z-2.599
X8.915 Y64.444
X8.906 Y64.449
X8.896 Y64.441 Z-2.6
Y64.439
X8.906 Y64.429
X8.916 Y64.439 Z-2.601
X8.915 Y64.444
X8.906 Y64.449
X8.896 Y64.441 Z-2.602
Y64.439
X8.906 Y64.429
X8.916 Y64.439 Z-2.603
X8.915 Y64.444
X8.906 Y64.449 Z-2.604
X8.896 Y64.441
Y64.439
X8.906 Y64.429 Z-2.605
X8.916 Y64.439
X8.915 Y64.444
X8.906 Y64.449 Z-2.606
X8.896 Y64.441
Y64.439
X8.906 Y64.429 Z-2.607
X8.916 Y64.439
X8.915 Y64.444 Z-2.608
X8.906 Y64.449
X8.896 Y64.441
Y64.439 Z-2.609
X8.906 Y64.429
X8.916 Y64.439 Z-2.61
X8.915 Y64.444
X8.906 Y64.449
X8.896 Y64.441 Z-2.611
Y64.439
X8.906 Y64.429
X8.916 Y64.439 Z-2.612
X8.915 Y64.444
X8.906 Y64.449
X8.896 Y64.441 Z-2.613
Y64.439
X8.906 Y64.429
X8.916 Y64.439 Z-2.614
X8.915 Y64.444
X8.906 Y64.449 Z-2.615
X8.896 Y64.441
Y64.439
X8.906 Y64.429 Z-2.616
X8.916 Y64.439
X8.915 Y64.444
X8.906 Y64.449 Z-2.617
X8.896 Y64.441
Y64.439
X8.906 Y64.429 Z-2.618
X8.916 Y64.439
X8.915 Y64.444 Z-2.619
X8.906 Y64.449
X8.896 Y64.441
Y64.439
X8.906 Y64.429 Z-2.62
X8.916 Y64.439 Z-2.621
X8.915 Y64.444
X8.906 Y64.449
X8.896 Y64.441 Z-2.622
Y64.439
X8.906 Y64.429
X8.916 Y64.439 Z-2.623
X8.915 Y64.444
X8.906 Y64.449
X8.896 Y64.441 Z-2.624
Y64.439
X8.906 Y64.429
X8.916 Y64.439 Z-2.625
X8.915 Y64.444
X8.906 Y64.449 Z-2.626
X8.896 Y64.441
Y64.439
X8.906 Y64.429 Z-2.627
X8.916 Y64.439
X8.915 Y64.444
X8.906 Y64.449 Z-2.628
X8.896 Y64.441
Y64.439
X8.906 Y64.429 Z-2.629
X8.916 Y64.439
X8.915 Y64.444 Z-2.63
X8.906 Y64.449
X8.896 Y64.441
Y64.439
X8.906 Y64.429 Z-2.631
X8.916 Y64.439 Z-2.632
X8.915 Y64.444
X8.906 Y64.449
X8.896 Y64.441 Z-2.633
Y64.439
X8.906 Y64.429
X8.916 Y64.439 Z-2.634
X8.915 Y64.444
X8.906 Y64.449
X8.896 Y64.441 Z-2.635
Y64.439
X8.906 Y64.429
X8.916 Y64.439 Z-2.636
X8.915 Y64.444
X8.906 Y64.449
X8.896 Y64.441 Z-2.637
Y64.439
X8.906 Y64.429 Z-2.638
X8.916 Y64.439
X8.915 Y64.444
X8.906 Y64.449 Z-2.639
X8.896 Y64.441
Y64.439
X8.906 Y64.429 Z-2.64
X8.916 Y64.439
X8.915 Y64.444
X8.906 Y64.449 Z-2.641
X8.896 Y64.441
Y64.439
X8.906 Y64.429 Z-2.642
X8.916 Y64.439 Z-2.643
X8.915 Y64.444
X8.906 Y64.449
X8.896 Y64.441 Z-2.644
Y64.439
X8.906 Y64.429
X8.916 Y64.439 Z-2.645
X8.915 Y64.444
X8.906 Y64.449
X8.896 Y64.441 Z-2.646
Y64.439
X8.906 Y64.429
X8.916 Y64.439 Z-2.647
X8.915 Y64.444
X8.906 Y64.449
X8.896 Y64.441 Z-2.648
Y64.439
X8.906 Y64.429 Z-2.649
X8.916 Y64.439
X8.915 Y64.444
X8.906 Y64.449 Z-2.65
X8.896 Y64.441
Y64.439
X8.906 Y64.429 Z-2.651
X8.916 Y64.439
X8.915 Y64.444
X8.906 Y64.449 Z-2.652
X8.896 Y64.441
Y64.439
X8.906 Y64.429 Z-2.653
X8.916 Y64.439
X8.915 Y64.444 Z-2.654
X8.906 Y64.449
X8.896 Y64.441 Z-2.655
Y64.439
X8.906 Y64.429
X8.916 Y64.439 Z-2.656
X8.915 Y64.444
X8.906 Y64.449
X8.896 Y64.441 Z-2.657
Y64.439
X8.906 Y64.429
X8.916 Y64.439 Z-2.658
X8.915 Y64.444
X8.906 Y64.449
X8.896 Y64.441 Z-2.659
Y64.439
X8.906 Y64.429 Z-2.66
X8.916 Y64.439
X8.915 Y64.444
X8.906 Y64.449 Z-2.661
X8.896 Y64.441
Y64.439
X8.906 Y64.429 Z-2.662
X8.916 Y64.439
X8.915 Y64.444
X8.906 Y64.449 Z-2.663
X8.896 Y64.441
Y64.439
X8.906 Y64.429 Z-2.664
X8.916 Y64.439
X8.915 Y64.444 Z-2.665
X8.906 Y64.449
X8.896 Y64.441
Y64.439 Z-2.666
X8.906 Y64.429
X8.916 Y64.439 Z-2.667
X8.915 Y64.444
X8.906 Y64.449
X8.896 Y64.441 Z-2.668
Y64.439
X8.906 Y64.429
X8.916 Y64.439 Z-2.669
X8.915 Y64.444
X8.906 Y64.449
X8.896 Y64.441 Z-2.67
Y64.439
X8.906 Y64.429 Z-2.671
X8.916 Y64.439
X8.915 Y64.444
X8.906 Y64.449 Z-2.672
X8.896 Y64.441
Y64.439
X8.906 Y64.429 Z-2.673
X8.916 Y64.439
X8.915 Y64.444
X8.906 Y64.449 Z-2.674
X8.896 Y64.441
Y64.439
X8.906 Y64.429 Z-2.675
X8.916 Y64.439
X8.915 Y64.444 Z-2.676
X8.906 Y64.449
X8.896 Y64.441
Y64.439 Z-2.677
X8.906 Y64.429
X8.916 Y64.439 Z-2.678
X8.915 Y64.444
X8.906 Y64.449
X8.896 Y64.441 Z-2.679
Y64.439
X8.906 Y64.429
X8.916 Y64.439 Z-2.68
X8.915 Y64.444
X8.906 Y64.449
X8.896 Y64.441 Z-2.681
Y64.439
X8.906 Y64.429
X8.916 Y64.439 Z-2.682
X8.915 Y64.444
X8.906 Y64.449 Z-2.683
X8.896 Y64.441
Y64.439
X8.906 Y64.429 Z-2.684
X8.916 Y64.439
X8.915 Y64.444
X8.906 Y64.449 Z-2.685
X8.896 Y64.441
Y64.439
X8.906 Y64.429 Z-2.686
X8.916 Y64.439
X8.915 Y64.444 Z-2.687
X8.906 Y64.449
X8.896 Y64.441
Y64.439 Z-2.688
X8.906 Y64.429
X8.916 Y64.439 Z-2.689
X8.915 Y64.444
X8.906 Y64.449
X8.896 Y64.441 Z-2.69
Y64.439
X8.906 Y64.429
X8.916 Y64.439 Z-2.691
X8.915 Y64.444
X8.906 Y64.449
X8.896 Y64.441 Z-2.692
Y64.439
X8.906 Y64.429
X8.916 Y64.439 Z-2.693
X8.915 Y64.444
X8.906 Y64.449 Z-2.694
X8.896 Y64.441
Y64.439
X8.906 Y64.429 Z-2.695
X8.916 Y64.439
X8.915 Y64.444
X8.906 Y64.449 Z-2.696
X8.896 Y64.441
Y64.439
X8.906 Y64.429 Z-2.697
X8.916 Y64.439
X8.915 Y64.444 Z-2.698
X8.906 Y64.449
X8.896 Y64.441
Y64.439
X8.906 Y64.429 Z-2.699
X8.916 Y64.439 Z-2.7
X8.915 Y64.444
X8.906 Y64.449
X8.896 Y64.441 Z-2.701
Y64.439
X8.906 Y64.429
X8.916 Y64.439 Z-2.702
X8.915 Y64.444
X8.906 Y64.449
X8.896 Y64.441 Z-2.703
Y64.439
X8.906 Y64.429
X8.916 Y64.439 Z-2.704
X8.915 Y64.444
X8.906 Y64.449 Z-2.705
X8.896 Y64.441
Y64.439
X8.906 Y64.429 Z-2.706
X8.916 Y64.439
X8.915 Y64.444
X8.906 Y64.449 Z-2.707
X8.896 Y64.441
Y64.439
X8.906 Y64.429 Z-2.708
X8.916 Y64.439
X8.915 Y64.444 Z-2.709
X8.906 Y64.449
X8.896 Y64.441
Y64.439
X8.906 Y64.429 Z-2.71
X8.916 Y64.439 Z-2.711
X8.915 Y64.444
X8.906 Y64.449
X8.896 Y64.441 Z-2.712
Y64.439
X8.906 Y64.429
X8.916 Y64.439 Z-2.713
X8.915 Y64.444
X8.906 Y64.449
X8.896 Y64.441 Z-2.714
Y64.439
X8.906 Y64.429
X8.916 Y64.439 Z-2.715
X8.915 Y64.444
X8.906 Y64.449
X8.896 Y64.441 Z-2.716
Y64.439
X8.906 Y64.429 Z-2.717
X8.916 Y64.439
X8.915 Y64.444
X8.906 Y64.449 Z-2.718
X8.896 Y64.441
Y64.439
X8.906 Y64.429 Z-2.719
X8.916 Y64.439
X8.915 Y64.444
X8.906 Y64.449 Z-2.72
X8.896 Y64.441
Y64.439
X8.906 Y64.429 Z-2.721
X8.916 Y64.439 Z-2.722
X8.915 Y64.444
X8.906 Y64.449
X8.896 Y64.441 Z-2.723
Y64.439
X8.906 Y64.429
X8.916 Y64.439 Z-2.724
X8.915 Y64.444
X8.906 Y64.449
X8.896 Y64.441 Z-2.725
Y64.439
X8.906 Y64.429
X8.916 Y64.439 Z-2.726
X8.915 Y64.444
X8.906 Y64.449
X8.896 Y64.441 Z-2.727
Y64.439
X8.906 Y64.429 Z-2.728
X8.916 Y64.439
X8.915 Y64.444
X8.906 Y64.449 Z-2.729
X8.896 Y64.441
Y64.439
X8.906 Y64.429 Z-2.73
X8.916 Y64.439
X8.915 Y64.444
X8.906 Y64.449 Z-2.731
X8.896 Y64.441
Y64.439
X8.906 Y64.429 Z-2.732
X8.916 Y64.439
X8.915 Y64.444 Z-2.733
X8.906 Y64.449
X8.896 Y64.441 Z-2.734
Y64.439
X8.906 Y64.429
X8.916 Y64.439 Z-2.735
X8.915 Y64.444
X8.906 Y64.449
X8.896 Y64.441 Z-2.736
Y64.439
X8.906 Y64.429
X8.916 Y64.439 Z-2.737
X8.915 Y64.444
X8.906 Y64.449
X8.896 Y64.441 Z-2.738
Y64.439
X8.906 Y64.429 Z-2.739
X8.916 Y64.439
X8.915 Y64.444
X8.906 Y64.449 Z-2.74
X8.896 Y64.441
Y64.439
X8.906 Y64.429 Z-2.741
X8.916 Y64.439
X8.915 Y64.444
X8.906 Y64.449 Z-2.742
X8.896 Y64.441
Y64.439
X8.906 Y64.429 Z-2.743
X8.916 Y64.439
X8.915 Y64.444 Z-2.744
X8.906 Y64.449
X8.896 Y64.441
Y64.439 Z-2.745
X8.906 Y64.429
X8.916 Y64.439 Z-2.746
X8.915 Y64.444
X8.906 Y64.449
X8.896 Y64.441 Z-2.747
Y64.439
X8.906 Y64.429
X8.916 Y64.439 Z-2.748
X8.915 Y64.444
X8.906 Y64.449
X8.896 Y64.441 Z-2.749
Y64.439
X8.906 Y64.429
X8.916 Y64.439 Z-2.75
X8.915 Y64.444
X8.906 Y64.449 Z-2.751
X8.896 Y64.441
Y64.439
X8.906 Y64.429 Z-2.752
X8.916 Y64.439
X8.915 Y64.444
X8.906 Y64.449 Z-2.753
X8.896 Y64.441
Y64.439
X8.906 Y64.429 Z-2.754
X8.916 Y64.439
X8.915 Y64.444 Z-2.755
X8.906 Y64.449
X8.896 Y64.441
Y64.439 Z-2.756
X8.906 Y64.429
X8.916 Y64.439 Z-2.757
X8.915 Y64.444
X8.906 Y64.449
X8.896 Y64.441 Z-2.758
Y64.439
X8.906 Y64.429
X8.916 Y64.439 Z-2.759
X8.915 Y64.444
X8.906 Y64.449
X8.896 Y64.441 Z-2.76
Y64.439
X8.906 Y64.429
X8.916 Y64.439 Z-2.761
X8.915 Y64.444
X8.906 Y64.449 Z-2.762
X8.896 Y64.441
Y64.439
X8.906 Y64.429 Z-2.763
X8.916 Y64.439
X8.915 Y64.444
X8.906 Y64.449 Z-2.764
X8.896 Y64.441
Y64.439
X8.906 Y64.429 Z-2.765
X8.916 Y64.439
X8.915 Y64.444 Z-2.766
X8.906 Y64.449
X8.896 Y64.441
Y64.439
X8.906 Y64.429 Z-2.767
X8.916 Y64.439 Z-2.768
X8.915 Y64.444
X8.906 Y64.449
X8.896 Y64.441 Z-2.769
Y64.439
X8.906 Y64.429
X8.916 Y64.439 Z-2.77
X8.915 Y64.444
X8.906 Y64.449
X8.896 Y64.441 Z-2.771
Y64.439
X8.906 Y64.429
X8.916 Y64.439 Z-2.772
X8.915 Y64.444
X8.906 Y64.449 Z-2.773
X8.896 Y64.441
Y64.439
X8.906 Y64.429 Z-2.774
X8.916 Y64.439
X8.915 Y64.444
X8.906 Y64.449 Z-2.775
X8.896 Y64.441
Y64.439
X8.906 Y64.429 Z-2.776
X8.916 Y64.439
X8.915 Y64.444 Z-2.777
X8.906 Y64.449
X8.896 Y64.441
Y64.439
X8.906 Y64.429 Z-2.778
X8.916 Y64.439 Z-2.779
X8.915 Y64.444
X8.906 Y64.449
X8.896 Y64.441 Z-2.78
Y64.439
X8.906 Y64.429
X8.916 Y64.439 Z-2.781
X8.915 Y64.444
X8.906 Y64.449
X8.896 Y64.441 Z-2.782
Y64.439
X8.906 Y64.429
X8.916 Y64.439 Z-2.783
X8.915 Y64.444
X8.906 Y64.449
X8.896 Y64.441 Z-2.784
Y64.439
X8.906 Y64.429 Z-2.785
X8.916 Y64.439
X8.915 Y64.444
X8.906 Y64.449 Z-2.786
X8.896 Y64.441
Y64.439
X8.906 Y64.429 Z-2.787
X8.916 Y64.439
X8.915 Y64.444 Z-2.788
X8.906 Y64.449
X8.896 Y64.441
Y64.439
X8.906 Y64.429 Z-2.789
X8.916 Y64.439 Z-2.79
X8.915 Y64.444
X8.906 Y64.449
X8.896 Y64.441 Z-2.791
Y64.439
X8.906 Y64.429
X8.916 Y64.439 Z-2.792
X8.915 Y64.444
X8.906 Y64.449
X8.896 Y64.441 Z-2.793
Y64.439
X8.906 Y64.429
X8.916 Y64.439 Z-2.794
X8.915 Y64.444
X8.906 Y64.449
X8.896 Y64.441 Z-2.795
Y64.439
X8.906 Y64.429 Z-2.796
X8.916 Y64.439
X8.915 Y64.444
X8.906 Y64.449 Z-2.797
X8.896 Y64.441
Y64.439
X8.906 Y64.429 Z-2.798
X8.916 Y64.439
X8.915 Y64.444
X8.906 Y64.449 Z-2.799
X8.896 Y64.441
Y64.439
X8.906 Y64.429 Z-2.8
X8.916 Y64.439 Z-2.801
X8.915 Y64.444
X8.906 Y64.449
X8.896 Y64.441 Z-2.802
Y64.439
X8.906 Y64.429
X8.916 Y64.439 Z-2.803
X8.915 Y64.444
X8.906 Y64.449
X8.896 Y64.441 Z-2.804
Y64.439
X8.906 Y64.429
X8.916 Y64.439 Z-2.805
X8.915 Y64.444
X8.906 Y64.449
X8.896 Y64.441 Z-2.806
Y64.439
X8.906 Y64.429 Z-2.807
X8.916 Y64.439
X8.915 Y64.444
X8.906 Y64.449 Z-2.808
X8.896 Y64.441
Y64.439
X8.906 Y64.429 Z-2.809
X8.916 Y64.439
X8.915 Y64.444
X8.906 Y64.449 Z-2.81
X8.896 Y64.441
Y64.439
X8.906 Y64.429 Z-2.811
X8.916 Y64.439
X8.915 Y64.444 Z-2.812
X8.906 Y64.449
X8.896 Y64.441
Y64.439 Z-2.813
X8.906 Y64.429
X8.916 Y64.439 Z-2.814
X8.915 Y64.444
X8.906 Y64.449
X8.896 Y64.441 Z-2.815
Y64.439
X8.906 Y64.429
X8.916 Y64.439 Z-2.816
X8.915 Y64.444
X8.906 Y64.449
X8.896 Y64.441 Z-2.817
Y64.439
X8.906 Y64.429 Z-2.818
X8.916 Y64.439
X8.915 Y64.444
X8.906 Y64.449 Z-2.819
X8.896 Y64.441
Y64.439
X8.906 Y64.429 Z-2.82
X8.916 Y64.439
X8.915 Y64.444
X8.906 Y64.449 Z-2.821
X8.896 Y64.441
Y64.439
X8.906 Y64.429 Z-2.822
X8.916 Y64.439
X8.915 Y64.444 Z-2.823
X8.906 Y64.449
X8.896 Y64.441
Y64.439 Z-2.824
X8.906 Y64.429
X8.916 Y64.439 Z-2.825
X8.915 Y64.444
X8.906 Y64.449
X8.896 Y64.441 Z-2.826
Y64.439
X8.906 Y64.429
X8.916 Y64.439 Z-2.827
X8.915 Y64.444
X8.906 Y64.449
X8.896 Y64.441 Z-2.828
Y64.439
X8.906 Y64.429
X8.916 Y64.439 Z-2.829
X8.915 Y64.444
X8.906 Y64.449 Z-2.83
X8.896 Y64.441
Y64.439
X8.906 Y64.429 Z-2.831
X8.916 Y64.439
X8.915 Y64.444
X8.906 Y64.449 Z-2.832
X8.896 Y64.441
Y64.439
X8.906 Y64.429 Z-2.833
X8.916 Y64.439
X8.915 Y64.444 Z-2.834
X8.906 Y64.449
X8.896 Y64.441
Y64.439 Z-2.835
X8.906 Y64.429
X8.916 Y64.439 Z-2.836
X8.915 Y64.444
X8.906 Y64.449
X8.896 Y64.441 Z-2.837
Y64.439
X8.906 Y64.429
X8.916 Y64.439 Z-2.838
X8.915 Y64.444
X8.906 Y64.449
X8.896 Y64.441 Z-2.839
Y64.439
X8.906 Y64.429
X8.916 Y64.439 Z-2.84
X8.915 Y64.444
X8.906 Y64.449 Z-2.841
X8.896 Y64.441
Y64.439
X8.906 Y64.429 Z-2.842
X8.916 Y64.439
X8.915 Y64.444
X8.906 Y64.449 Z-2.843
X8.896 Y64.441
Y64.439
X8.906 Y64.429 Z-2.844
X8.916 Y64.439
X8.915 Y64.444 Z-2.845
X8.906 Y64.449
X8.896 Y64.441
Y64.439
X8.906 Y64.429 Z-2.846
X8.916 Y64.439 Z-2.847
X8.915 Y64.444
X8.906 Y64.449
X8.896 Y64.441 Z-2.848
Y64.439
X8.906 Y64.429
X8.916 Y64.439 Z-2.849
X8.915 Y64.444
X8.906 Y64.449
X8.896 Y64.441 Z-2.85
Y64.439
X8.906 Y64.429
X8.916 Y64.439 Z-2.851
X8.915 Y64.444
X8.906 Y64.449 Z-2.852
X8.896 Y64.441
Y64.439
X8.906 Y64.429 Z-2.853
X8.916 Y64.439
X8.915 Y64.444
X8.906 Y64.449 Z-2.854
X8.896 Y64.441
Y64.439
X8.906 Y64.429 Z-2.855
X8.916 Y64.439
X8.915 Y64.444 Z-2.856
X8.906 Y64.449
X8.896 Y64.441
Y64.439
X8.906 Y64.429 Z-2.857
X8.916 Y64.439 Z-2.858
X8.915 Y64.444
X8.906 Y64.449
X8.896 Y64.441 Z-2.859
Y64.439
X8.906 Y64.429
X8.916 Y64.439 Z-2.86
X8.915 Y64.444
X8.906 Y64.449
X8.896 Y64.441 Z-2.861
Y64.439
X8.906 Y64.429
X8.916 Y64.439 Z-2.862
X8.915 Y64.444
X8.906 Y64.449
X8.896 Y64.441 Z-2.863
Y64.439
X8.906 Y64.429 Z-2.864
X8.916 Y64.439
X8.915 Y64.444
X8.906 Y64.449 Z-2.865
X8.896 Y64.441
Y64.439
X8.906 Y64.429 Z-2.866
X8.916 Y64.439
X8.915 Y64.444
X8.906 Y64.449 Z-2.867
X8.896 Y64.441
Y64.439
X8.906 Y64.429 Z-2.868
X8.916 Y64.439 Z-2.869
X8.915 Y64.444
X8.906 Y64.449
X8.896 Y64.441 Z-2.87
Y64.439
X8.906 Y64.429
X8.916 Y64.439 Z-2.871
X8.915 Y64.444
X8.906 Y64.449
X8.896 Y64.441 Z-2.872
Y64.439
X8.906 Y64.429
X8.916 Y64.439 Z-2.873
X8.915 Y64.444
X8.906 Y64.449
X8.896 Y64.441 Z-2.874
Y64.439
X8.906 Y64.429 Z-2.875
X8.916 Y64.439
X8.915 Y64.444
X8.906 Y64.449 Z-2.876
X8.896 Y64.441
Y64.439
X8.906 Y64.429 Z-2.877
X8.916 Y64.439
X8.915 Y64.444
X8.906 Y64.449 Z-2.878
X8.896 Y64.441
Y64.439
X8.906 Y64.429 Z-2.879
X8.916 Y64.439
X8.915 Y64.444 Z-2.88
X8.906 Y64.449
X8.896 Y64.441 Z-2.881
Y64.439
X8.906 Y64.429
X8.916 Y64.439 Z-2.882
X8.915 Y64.444
X8.906 Y64.449
X8.896 Y64.441 Z-2.883
Y64.439
X8.906 Y64.429
X8.916 Y64.439 Z-2.884
X8.915 Y64.444
X8.906 Y64.449
X8.896 Y64.441 Z-2.885
Y64.439
X8.906 Y64.429 Z-2.886
X8.916 Y64.439
X8.915 Y64.444
X8.906 Y64.449 Z-2.887
X8.896 Y64.441
Y64.439
X8.906 Y64.429 Z-2.888
X8.916 Y64.439
X8.915 Y64.444
X8.906 Y64.449 Z-2.889
X8.896 Y64.441
Y64.439
X8.906 Y64.429 Z-2.89
X8.916 Y64.439
X8.915 Y64.444 Z-2.891
X8.906 Y64.449
X8.896 Y64.441
Y64.439 Z-2.892
X8.906 Y64.429
X8.916 Y64.439 Z-2.893
X8.915 Y64.444
X8.906 Y64.449
X8.896 Y64.441 Z-2.894
Y64.439
X8.906 Y64.429
X8.916 Y64.439 Z-2.895
X8.915 Y64.444
X8.906 Y64.449
X8.896 Y64.441 Z-2.896
Y64.439
X8.906 Y64.429
X8.916 Y64.439 Z-2.897
X8.915 Y64.444
X8.906 Y64.449 Z-2.898
X8.896 Y64.441
Y64.439
X8.906 Y64.429 Z-2.899
X8.916 Y64.439
X8.915 Y64.444
X8.906 Y64.449 Z-2.9
X8.896 Y64.441
Y64.439
X8.906 Y64.429 Z-2.901
X8.916 Y64.439
X8.915 Y64.444 Z-2.902
X8.906 Y64.449
X8.896 Y64.441
Y64.439 Z-2.903
X8.906 Y64.429
X8.916 Y64.439 Z-2.904
X8.915 Y64.444
X8.906 Y64.449
X8.896 Y64.441 Z-2.905
Y64.439
X8.906 Y64.429
X8.916 Y64.439 Z-2.906
X8.915 Y64.444
X8.906 Y64.449
X8.896 Y64.441 Z-2.907
Y64.439
X8.906 Y64.429
X8.916 Y64.439 Z-2.908
X8.915 Y64.444
X8.906 Y64.449 Z-2.909
X8.896 Y64.441
Y64.439
X8.906 Y64.429 Z-2.91
X8.916 Y64.439
X8.915 Y64.444
X8.906 Y64.449 Z-2.911
X8.896 Y64.441
Y64.439
X8.906 Y64.429 Z-2.912
X8.916 Y64.439
X8.915 Y64.444 Z-2.913
X8.906 Y64.449
X8.896 Y64.441
Y64.439 Z-2.914
X8.906 Y64.429
X8.916 Y64.439 Z-2.915
X8.915 Y64.444
X8.906 Y64.449
X8.896 Y64.441 Z-2.916
Y64.439
X8.906 Y64.429
X8.916 Y64.439 Z-2.917
X8.915 Y64.444
X8.906 Y64.449
X8.896 Y64.441 Z-2.918
Y64.439
X8.906 Y64.429
X8.916 Y64.439 Z-2.919
X8.915 Y64.444
X8.906 Y64.449 Z-2.92
X8.896 Y64.441
Y64.439
X8.906 Y64.429 Z-2.921
X8.916 Y64.439
X8.915 Y64.444
X8.906 Y64.449 Z-2.922
X8.896 Y64.441
Y64.439
X8.906 Y64.429 Z-2.923
X8.916 Y64.439
X8.915 Y64.444 Z-2.924
X8.906 Y64.449
X8.896 Y64.441
Y64.439
X8.906 Y64.429 Z-2.925
X8.916 Y64.439 Z-2.926
X8.915 Y64.444
X8.906 Y64.449
X8.896 Y64.441 Z-2.927
Y64.439
X8.906 Y64.429
X8.916 Y64.439 Z-2.928
X8.915 Y64.444
X8.906 Y64.449
X8.896 Y64.441 Z-2.929
Y64.439
X8.906 Y64.429
X8.916 Y64.439 Z-2.93
X8.915 Y64.444
X8.906 Y64.449 Z-2.931
X8.896 Y64.441
Y64.439
X8.906 Y64.429 Z-2.932
X8.916 Y64.439
X8.915 Y64.444
X8.906 Y64.449 Z-2.933
X8.896 Y64.441
Y64.439
X8.906 Y64.429 Z-2.934
X8.916 Y64.439
X8.915 Y64.444 Z-2.935
X8.906 Y64.449
X8.896 Y64.441
Y64.439
X8.906 Y64.429 Z-2.936
X8.916 Y64.439 Z-2.937
X8.915 Y64.444
X8.906 Y64.449
X8.896 Y64.441 Z-2.938
Y64.439
X8.906 Y64.429
X8.916 Y64.439 Z-2.939
X8.915 Y64.444
X8.906 Y64.449
X8.896 Y64.441 Z-2.94
Y64.439
X8.906 Y64.429
X8.916 Y64.439 Z-2.941
X8.915 Y64.444
X8.906 Y64.449
X8.896 Y64.441 Z-2.942
Y64.439
X8.906 Y64.429 Z-2.943
X8.916 Y64.439
X8.915 Y64.444
X8.906 Y64.449 Z-2.944
X8.896 Y64.441
Y64.439
X8.906 Y64.429 Z-2.945
X8.916 Y64.439
X8.915 Y64.444
X8.906 Y64.449 Z-2.946
X8.896 Y64.441
Y64.439
X8.906 Y64.429 Z-2.947
X8.916 Y64.439 Z-2.948
X8.915 Y64.444
X8.906 Y64.449
X8.896 Y64.441 Z-2.949
Y64.439
X8.906 Y64.429
X8.916 Y64.439 Z-2.95
X8.915 Y64.444
X8.906 Y64.449
X8.896 Y64.441 Z-2.951
Y64.439
X8.906 Y64.429
X8.916 Y64.439 Z-2.952
X8.915 Y64.444
X8.906 Y64.449
X8.896 Y64.441 Z-2.953
Y64.439
X8.906 Y64.429 Z-2.954
X8.916 Y64.439
X8.915 Y64.444
X8.906 Y64.449 Z-2.955
X8.896 Y64.441
Y64.439
X8.906 Y64.429 Z-2.956
X8.916 Y64.439
X8.915 Y64.444
X8.906 Y64.449 Z-2.957
X8.896 Y64.441
Y64.439
X8.906 Y64.429 Z-2.958
X8.916 Y64.439
X8.915 Y64.444 Z-2.959
X8.906 Y64.449
X8.896 Y64.441 Z-2.96
Y64.439
X8.906 Y64.429
X8.916 Y64.439 Z-2.961
X8.915 Y64.444
X8.906 Y64.449
X8.896 Y64.441 Z-2.962
Y64.439
X8.906 Y64.429
X8.916 Y64.439 Z-2.963
X8.915 Y64.444
X8.906 Y64.449
X8.896 Y64.441 Z-2.964
Y64.439
X8.906 Y64.429 Z-2.965
X8.916 Y64.439
X8.915 Y64.444
X8.906 Y64.449 Z-2.966
X8.896 Y64.441
Y64.439
X8.906 Y64.429 Z-2.967
X8.916 Y64.439
X8.915 Y64.444
X8.906 Y64.449 Z-2.968
X8.896 Y64.441
Y64.439
X8.906 Y64.429 Z-2.969
X8.916 Y64.439
X8.915 Y64.444 Z-2.97
X8.906 Y64.449
X8.896 Y64.441
Y64.439 Z-2.971
X8.906 Y64.429
X8.916 Y64.439 Z-2.972
X8.915 Y64.444
X8.906 Y64.449
X8.896 Y64.441 Z-2.973
Y64.439
X8.906 Y64.429
X8.916 Y64.439 Z-2.974
X8.915 Y64.444
X8.906 Y64.449
X8.896 Y64.441 Z-2.975
Y64.439
X8.906 Y64.429
X8.916 Y64.439 Z-2.976
X8.915 Y64.444
X8.906 Y64.449 Z-2.977
X8.896 Y64.441
Y64.439
X8.906 Y64.429 Z-2.978
X8.916 Y64.439
X8.915 Y64.444
X8.906 Y64.449 Z-2.979
X8.896 Y64.441
Y64.439
X8.906 Y64.429 Z-2.98
X8.916 Y64.439
X8.915 Y64.444 Z-2.981
X8.906 Y64.449
X8.896 Y64.441
Y64.439 Z-2.982
X8.906 Y64.429
X8.916 Y64.439 Z-2.983
X8.915 Y64.444
X8.906 Y64.449
X8.896 Y64.441 Z-2.984
Y64.439
X8.906 Y64.429
X8.916 Y64.439 Z-2.985
X8.915 Y64.444
X8.906 Y64.449
X8.896 Y64.441 Z-2.986
Y64.439
X8.906 Y64.429
X8.916 Y64.439 Z-2.987
X8.915 Y64.444
X8.906 Y64.449 Z-2.988
X8.896 Y64.441
Y64.439
X8.906 Y64.429 Z-2.989
X8.916 Y64.439
X8.915 Y64.444
X8.906 Y64.449 Z-2.99
X8.896 Y64.441
Y64.439
X8.906 Y64.429 Z-2.991
X8.916 Y64.439
X8.915 Y64.444 Z-2.992
X8.906 Y64.449
X8.896 Y64.441
Y64.439
X8.906 Y64.429 Z-2.993
X8.916 Y64.439 Z-2.994
X8.915 Y64.444
X8.906 Y64.449
X8.896 Y64.441 Z-2.995
Y64.439
X8.906 Y64.429
X8.916 Y64.439 Z-2.996
X8.915 Y64.444
X8.906 Y64.449
X8.896 Y64.441 Z-2.997
Y64.439
X8.906 Y64.429
X8.916 Y64.439 Z-2.998
X8.915 Y64.444
X8.906 Y64.449 Z-2.999
X8.896 Y64.441
Y64.439
X8.906 Y64.429 Z-3
X8.916 Y64.439
X8.915 Y64.444
X8.906 Y64.449 Z-3.001
X8.896 Y64.441
Y64.439
X8.906 Y64.429 Z-3.002
X8.916 Y64.439
X8.915 Y64.444 Z-3.003
X8.906 Y64.449
X8.896 Y64.441
Y64.439
X8.906 Y64.429 Z-3.004
X8.916 Y64.439 Z-3.005
X8.915 Y64.444
X8.906 Y64.449
X8.896 Y64.441 Z-3.006
Y64.439
X8.906 Y64.429
X8.916 Y64.439 Z-3.007
X8.915 Y64.444
X8.906 Y64.449
X8.896 Y64.441 Z-3.008
Y64.439
X8.906 Y64.429
X8.916 Y64.439 Z-3.009
X8.915 Y64.444
X8.906 Y64.449
X8.896 Y64.441 Z-3.01
Y64.439
X8.906 Y64.429 Z-3.011
X8.916 Y64.439
X8.915 Y64.444
X8.906 Y64.449 Z-3.012
X8.896 Y64.441
Y64.439
X8.906 Y64.429 Z-3.013
X8.916 Y64.439
X8.915 Y64.444
X8.906 Y64.449 Z-3.014
X8.896 Y64.441
Y64.439
X8.906 Y64.429 Z-3.015
X8.916 Y64.439 Z-3.016
X8.915 Y64.444
X8.906 Y64.449
X8.896 Y64.441 Z-3.017
Y64.439
X8.906 Y64.429
X8.916 Y64.439 Z-3.018
X8.915 Y64.444
X8.906 Y64.449
X8.896 Y64.441 Z-3.019
Y64.439
X8.906 Y64.429
X8.916 Y64.439 Z-3.02
X8.915 Y64.444
X8.906 Y64.449
X8.896 Y64.441 Z-3.021
Y64.439
X8.906 Y64.429 Z-3.022
X8.916 Y64.439
X8.915 Y64.444
X8.906 Y64.449 Z-3.023
X8.896 Y64.441
Y64.439
X8.906 Y64.429 Z-3.024
X8.916 Y64.439
X8.915 Y64.444
X8.906 Y64.449 Z-3.025
X8.896 Y64.441
Y64.439
X8.906 Y64.429 Z-3.026
X8.916 Y64.439 Z-3.027
X8.915 Y64.444
X8.906 Y64.449
X8.896 Y64.441 Z-3.028
Y64.439
X8.906 Y64.429
X8.916 Y64.439 Z-3.029
X8.915 Y64.444
X8.906 Y64.449
X8.896 Y64.441 Z-3.03
Y64.439
X8.906 Y64.429
X8.916 Y64.439 Z-3.031
X8.915 Y64.444
X8.906 Y64.449
X8.896 Y64.441 Z-3.032
Y64.439
X8.906 Y64.429 Z-3.033
X8.916 Y64.439
X8.915 Y64.444
X8.906 Y64.449 Z-3.034
X8.896 Y64.441
Y64.439
X8.906 Y64.429 Z-3.035
X8.916 Y64.439
X8.915 Y64.444
X8.906 Y64.449 Z-3.036
X8.896 Y64.441
Y64.439
X8.906 Y64.429 Z-3.037
X8.916 Y64.439
X8.915 Y64.444 Z-3.038
X8.906 Y64.449
X8.896 Y64.441
Y64.439 Z-3.039
X8.906 Y64.429
X8.916 Y64.439 Z-3.04
X8.915 Y64.444
X8.906 Y64.449
X8.896 Y64.441 Z-3.041
Y64.439
