(1001)
(T1  D=1.5 CR=0 - ZMIN=-7.2 - flat end mill)
G90 G94
G17
G21

(2D Pocket11)
T1
S5000 M3
G54
M8
G0 X24.025 Y24.991
Z6
Z2
G1 Z1.5 F400
Z-0.5
G3 X23.525 Y24.991 I-0.25 J0
X24.025 Y24.991 I0.25 J0
X23.525 Y24.991 Z-0.638 I-0.25 J0
X24.026 Y24.991 Z-0.777 I0.25 J0
X23.525 Y24.991 Z-0.915 I-0.25 J0
X23.861 Y24.756 Z-1 I0.25 J0
X23.69 Y25.226 I-0.085 J0.235
X23.861 Y24.756 I0.085 J-0.235
X23.69 Y25.226 Z-1.138 I-0.085 J0.235
X23.861 Y24.756 Z-1.277 I0.085 J-0.235
X23.69 Y25.226 Z-1.415 I-0.085 J0.235
X23.583 Y24.831 Z-1.5 I0.085 J-0.235
X23.968 Y25.151 I0.192 J0.16
X23.583 Y24.831 I-0.192 J-0.16
X23.968 Y25.151 Z-1.638 I0.192 J0.16
X23.583 Y24.831 Z-1.777 I-0.192 J-0.16
X23.968 Y25.151 Z-1.915 I0.192 J0.16
X23.56 Y25.118 Z-2 I-0.192 J-0.16
X23.991 Y24.865 I0.216 J-0.126
X23.56 Y25.118 I-0.216 J0.126
X23.991 Y24.865 Z-2.138 I0.216 J-0.126
X23.56 Y25.118 Z-2.277 I-0.216 J0.126
X23.991 Y24.865 Z-2.415 I0.216 J-0.126
X23.821 Y25.237 Z-2.5 I-0.216 J0.126
X23.73 Y24.745 I-0.045 J-0.246
X23.821 Y25.237 I0.045 J0.246
X23.73 Y24.745 Z-2.638 I-0.045 J-0.246
X23.821 Y25.237 Z-2.777 I0.045 J0.246
X23.73 Y24.745 Z-2.915 I-0.045 J-0.246
X24.022 Y25.032 Z-3 I0.045 J0.246
X23.529 Y24.95 I-0.247 J-0.041
X24.022 Y25.032 I0.247 J0.041
X23.529 Y24.95 Z-3.138 I-0.247 J-0.041
X24.022 Y25.032 Z-3.277 I0.247 J0.041
X23.529 Y24.95 Z-3.415 I-0.247 J-0.041
X23.898 Y24.773 Z-3.5 I0.247 J0.041
X23.653 Y25.209 I-0.122 J0.218
X23.898 Y24.773 I0.122 J-0.218
X23.653 Y25.209 Z-3.638 I-0.122 J0.218
X23.898 Y24.773 Z-3.777 I0.122 J-0.218
X23.653 Y25.209 Z-3.915 I-0.122 J0.218
X23.612 Y24.802 Z-4 I0.122 J-0.218
X23.939 Y25.18 I0.163 J0.189
X23.612 Y24.802 I-0.163 J-0.189
X23.939 Y25.18 Z-4.138 I0.163 J0.189
X23.612 Y24.802 Z-4.277 I-0.163 J-0.189
X23.939 Y25.18 Z-4.415 I0.163 J0.189
X23.542 Y25.081 Z-4.5 I-0.163 J-0.189
X24.009 Y24.902 I0.233 J-0.089
X23.542 Y25.081 I-0.233 J0.089
X24.009 Y24.902 Z-4.638 I0.233 J-0.089
X23.542 Y25.081 Z-4.777 I-0.233 J0.089
X24.009 Y24.902 Z-4.915 I0.233 J-0.089
X23.78 Y25.241 Z-5 I-0.233 J0.089
X23.771 Y24.741 I-0.005 J-0.25
X23.78 Y25.241 I0.005 J0.25
X23.771 Y24.741 Z-5.138 I-0.005 J-0.25
X23.78 Y25.241 Z-5.277 I0.005 J0.25
X23.771 Y24.741 Z-5.415 I-0.005 J-0.25
X24.012 Y25.072 Z-5.5 I0.005 J0.25
X23.539 Y24.911 I-0.237 J-0.081
X24.012 Y25.072 I0.237 J0.081
X23.539 Y24.911 Z-5.638 I-0.237 J-0.081
X24.012 Y25.072 Z-5.777 I0.237 J0.081
X23.539 Y24.911 Z-5.915 I-0.237 J-0.081
X23.932 Y24.796 Z-6 I0.237 J0.081
X23.619 Y25.186 I-0.156 J0.195
X23.932 Y24.796 I0.156 J-0.195
X23.619 Y25.186 Z-6.138 I-0.156 J0.195
X23.932 Y24.796 Z-6.277 I0.156 J-0.195
X23.619 Y25.186 Z-6.415 I-0.156 J0.195
X23.645 Y24.778 Z-6.5 I0.156 J-0.195
X23.906 Y25.205 I0.13 J0.213
X23.645 Y24.778 I-0.13 J-0.213
X23.906 Y25.205 Z-6.638 I0.13 J0.213
X23.645 Y24.778 Z-6.777 I-0.13 J-0.213
X23.906 Y25.205 Z-6.915 I0.13 J0.213
X23.531 Y25.041 Z-7 I-0.13 J-0.213
X24.02 Y24.941 I0.245 J-0.05
X23.531 Y25.041 I-0.245 J0.05
X24.02 Y24.941 Z-7.138 I0.245 J-0.05
X23.868 Y25.224 Z-7.2 I-0.245 J0.05
X23.683 Y24.759 I-0.092 J-0.232
X23.868 Y25.224 I0.092 J0.232
G0 Z4
X26.587 Y23.48
Z2
G1 Z1.5 F400
Z-0.5
G3 X27.587 Y23.48 I0.5 J0
X26.587 Y23.48 I-0.5 J0
X27.587 Y23.48 Z-0.777 I0.5 J0
X26.678 Y23.767 Z-1 I-0.5 J0
X27.496 Y23.193 I0.409 J-0.287
X26.678 Y23.767 I-0.409 J0.287
X27.496 Y23.193 Z-1.277 I0.409 J-0.287
X26.917 Y23.95 Z-1.5 I-0.409 J0.287
X27.257 Y23.01 I0.17 J-0.47
X26.917 Y23.95 I-0.17 J0.47
X27.257 Y23.01 Z-1.777 I0.17 J-0.47
X27.218 Y23.962 Z-2 I-0.17 J0.47
X26.956 Y22.997 I-0.131 J-0.483
X27.218 Y23.962 I0.131 J0.483
X26.956 Y22.997 Z-2.277 I-0.131 J-0.483
X27.471 Y23.8 Z-2.5 I0.131 J0.483
X26.702 Y23.16 I-0.384 J-0.32
X27.471 Y23.8 I0.384 J0.32
X26.702 Y23.16 Z-2.777 I-0.384 J-0.32
X27.585 Y23.521 Z-3 I0.384 J0.32
X26.588 Y23.439 I-0.498 J-0.041
X27.585 Y23.521 I0.498 J0.041
X26.588 Y23.439 Z-3.277 I-0.498 J-0.041
X27.518 Y23.227 Z-3.5 I0.498 J0.041
X26.655 Y23.732 I-0.431 J0.253
X27.518 Y23.227 I0.431 J-0.253
X26.655 Y23.732 Z-3.777 I-0.431 J0.253
X27.295 Y23.025 Z-4 I0.431 J-0.253
X26.879 Y23.934 I-0.208 J0.455
X27.295 Y23.025 I0.208 J-0.455
X26.879 Y23.934 Z-4.277 I-0.208 J0.455
X26.996 Y22.988 Z-4.5 I0.208 J-0.455
X27.178 Y23.971 I0.091 J0.492
X26.996 Y22.988 I-0.091 J-0.492
X27.178 Y23.971 Z-4.777 I0.091 J0.492
X26.73 Y23.13 Z-5 I-0.091 J-0.492
X27.444 Y23.83 I0.357 J0.35
X26.73 Y23.13 I-0.357 J-0.35
X27.444 Y23.83 Z-5.277 I0.357 J0.35
X26.594 Y23.398 Z-5.5 I-0.357 J-0.35
X27.58 Y23.562 I0.493 J0.082
X26.594 Y23.398 I-0.493 J-0.082
X27.58 Y23.562 Z-5.777 I0.493 J0.082
X26.636 Y23.696 Z-6 I-0.493 J-0.082
X27.538 Y23.263 I0.451 J-0.216
X26.636 Y23.696 I-0.451 J0.216
X27.538 Y23.263 Z-6.277 I0.451 J-0.216
X26.842 Y23.916 Z-6.5 I-0.451 J0.216
X27.331 Y23.044 I0.245 J-0.436
X26.842 Y23.916 I-0.245 J0.436
X27.331 Y23.044 Z-6.777 I0.245 J-0.436
X27.137 Y23.977 Z-7 I-0.245 J0.436
X27.037 Y22.982 I-0.05 J-0.497
X27.137 Y23.977 I0.05 J0.497
X26.673 Y23.199 Z-7.2 I-0.05 J-0.497
X27.5 Y23.761 I0.414 J0.281
X26.673 Y23.199 I-0.414 J-0.281
G0 Z4
X23.786 Y21.748
Z2
G1 Z1.5 F400
Z-0.5
G3 X23.786 Y21.248 I0 J-0.25
X23.786 Y21.748 I0 J0.25
X23.786 Y21.248 Z-0.638 I0 J-0.25
X23.786 Y21.748 Z-0.777 I0 J0.25
X23.786 Y21.248 Z-0.915 I0 J-0.25
X24.021 Y21.583 Z-1 I0 J0.25
X23.551 Y21.413 I-0.235 J-0.085
X24.021 Y21.583 I0.235 J0.085
X23.551 Y21.413 Z-1.138 I-0.235 J-0.085
X24.021 Y21.583 Z-1.277 I0.235 J0.085
X23.551 Y21.413 Z-1.415 I-0.235 J-0.085
X23.946 Y21.306 Z-1.5 I0.235 J0.085
X23.626 Y21.69 I-0.16 J0.192
X23.946 Y21.306 I0.16 J-0.192
X23.626 Y21.69 Z-1.638 I-0.16 J0.192
X23.946 Y21.306 Z-1.777 I0.16 J-0.192
X23.626 Y21.69 Z-1.915 I-0.16 J0.192
X23.659 Y21.282 Z-2 I0.16 J-0.192
X23.912 Y21.714 I0.126 J0.216
X23.659 Y21.282 I-0.126 J-0.216
X23.912 Y21.714 Z-2.138 I0.126 J0.216
X23.659 Y21.282 Z-2.277 I-0.126 J-0.216
X23.912 Y21.714 Z-2.415 I0.126 J0.216
X23.54 Y21.544 Z-2.5 I-0.126 J-0.216
X24.032 Y21.453 I0.246 J-0.045
X23.54 Y21.544 I-0.246 J0.045
X24.032 Y21.453 Z-2.638 I0.246 J-0.045
X23.54 Y21.544 Z-2.777 I-0.246 J0.045
X24.032 Y21.453 Z-2.915 I0.246 J-0.045
X23.745 Y21.745 Z-3 I-0.246 J0.045
X23.827 Y21.251 I0.041 J-0.247
X23.745 Y21.745 I-0.041 J0.247
X23.827 Y21.251 Z-3.138 I0.041 J-0.247
X23.745 Y21.745 Z-3.277 I-0.041 J0.247
X23.827 Y21.251 Z-3.415 I0.041 J-0.247
X24.004 Y21.62 Z-3.5 I-0.041 J0.247
X23.568 Y21.376 I-0.218 J-0.122
X24.004 Y21.62 I0.218 J0.122
X23.568 Y21.376 Z-3.638 I-0.218 J-0.122
X24.004 Y21.62 Z-3.777 I0.218 J0.122
X23.568 Y21.376 Z-3.915 I-0.218 J-0.122
X23.975 Y21.335 Z-4 I0.218 J0.122
X23.597 Y21.662 I-0.189 J0.163
X23.975 Y21.335 I0.189 J-0.163
X23.597 Y21.662 Z-4.138 I-0.189 J0.163
X23.975 Y21.335 Z-4.277 I0.189 J-0.163
X23.597 Y21.662 Z-4.415 I-0.189 J0.163
X23.696 Y21.265 Z-4.5 I0.189 J-0.163
X23.875 Y21.732 I0.089 J0.233
X23.696 Y21.265 I-0.089 J-0.233
X23.875 Y21.732 Z-4.638 I0.089 J0.233
X23.696 Y21.265 Z-4.777 I-0.089 J-0.233
X23.875 Y21.732 Z-4.915 I0.089 J0.233
X23.536 Y21.503 Z-5 I-0.089 J-0.233
X24.036 Y21.493 I0.25 J-0.005
X23.536 Y21.503 I-0.25 J0.005
G1 Y21.498 Z-5.001
G3 X24.036 Y21.498 Z-5.139 I0.25 J0
X23.536 Y21.498 Z-5.278 I-0.25 J0
X24.036 Y21.498 Z-5.416 I0.25 J0
X23.705 Y21.735 Z-5.5 I-0.25 J0
X23.866 Y21.261 I0.081 J-0.237
X23.705 Y21.735 I-0.081 J0.237
X23.866 Y21.261 Z-5.638 I0.081 J-0.237
X23.705 Y21.735 Z-5.777 I-0.081 J0.237
X23.866 Y21.261 Z-5.915 I0.081 J-0.237
X23.981 Y21.654 Z-6 I-0.081 J0.237
X23.591 Y21.342 I-0.195 J-0.156
X23.981 Y21.654 I0.195 J0.156
X23.591 Y21.342 Z-6.138 I-0.195 J-0.156
X23.981 Y21.654 Z-6.277 I0.195 J0.156
X23.591 Y21.342 Z-6.415 I-0.195 J-0.156
X23.999 Y21.368 Z-6.5 I0.195 J0.156
X23.572 Y21.628 I-0.213 J0.13
X23.999 Y21.368 I0.213 J-0.13
X23.572 Y21.628 Z-6.638 I-0.213 J0.13
X23.999 Y21.368 Z-6.777 I0.213 J-0.13
X23.572 Y21.628 Z-6.915 I-0.213 J0.13
X23.736 Y21.253 Z-7 I0.213 J-0.13
X23.836 Y21.743 I0.05 J0.245
X23.736 Y21.253 I-0.05 J-0.245
X23.836 Y21.743 Z-7.138 I0.05 J0.245
X23.553 Y21.59 Z-7.2 I-0.05 J-0.245
X24.018 Y21.406 I0.232 J-0.092
X23.553 Y21.59 I-0.232 J0.092
G0 Z4
X19.608 Y16
Z2
G1 Z1.5 F400
Z-0.5
G3 X19.886 Y16 I0.139 J0
X19.608 Y16 I-0.139 J0
X19.886 Y16 Z-0.577 I0.139 J0
X19.608 Y16 Z-0.654 I-0.139 J0
X19.886 Y16 Z-0.731 I0.139 J0
X19.608 Y16 Z-0.808 I-0.139 J0
X19.886 Y16 Z-0.885 I0.139 J0
X19.608 Y16 Z-0.962 I-0.139 J0
X19.744 Y15.861 Z-1 I0.139 J0
X19.75 Y16.139 I0.003 J0.139
X19.744 Y15.861 I-0.003 J-0.139
X19.75 Y16.139 Z-1.077 I0.003 J0.139
X19.744 Y15.861 Z-1.154 I-0.003 J-0.139
X19.75 Y16.139 Z-1.231 I0.003 J0.139
X19.744 Y15.861 Z-1.308 I-0.003 J-0.139
X19.75 Y16.139 Z-1.385 I0.003 J0.139
X19.744 Y15.861 Z-1.462 I-0.003 J-0.139
X19.886 Y15.994 Z-1.5 I0.003 J0.139
X19.608 Y16.006 I-0.139 J0.006
X19.886 Y15.994 I0.139 J-0.006
X19.608 Y16.006 Z-1.577 I-0.139 J0.006
X19.886 Y15.994 Z-1.654 I0.139 J-0.006
X19.608 Y16.006 Z-1.731 I-0.139 J0.006
X19.886 Y15.994 Z-1.808 I0.139 J-0.006
X19.608 Y16.006 Z-1.885 I-0.139 J0.006
X19.886 Y15.994 Z-1.962 I0.139 J-0.006
X19.755 Y16.139 Z-2 I-0.139 J0.006
X19.739 Y15.861 I-0.008 J-0.139
X19.755 Y16.139 I0.008 J0.139
X19.739 Y15.861 Z-2.077 I-0.008 J-0.139
X19.755 Y16.139 Z-2.154 I0.008 J0.139
X19.739 Y15.861 Z-2.231 I-0.008 J-0.139
X19.755 Y16.139 Z-2.308 I0.008 J0.139
X19.739 Y15.861 Z-2.385 I-0.008 J-0.139
X19.755 Y16.139 Z-2.462 I0.008 J0.139
X19.608 Y16.011 Z-2.5 I-0.008 J-0.139
X19.886 Y15.989 I0.139 J-0.011
X19.608 Y16.011 I-0.139 J0.011
X19.886 Y15.989 Z-2.577 I0.139 J-0.011
X19.608 Y16.011 Z-2.654 I-0.139 J0.011
X19.886 Y15.989 Z-2.731 I0.139 J-0.011
X19.608 Y16.011 Z-2.808 I-0.139 J0.011
X19.886 Y15.989 Z-2.885 I0.139 J-0.011
X19.608 Y16.011 Z-2.962 I-0.139 J0.011
X19.733 Y15.862 Z-3 I0.139 J-0.011
X19.761 Y16.138 I0.014 J0.138
X19.733 Y15.862 I-0.014 J-0.138
X19.761 Y16.138 Z-3.077 I0.014 J0.138
X19.733 Y15.862 Z-3.154 I-0.014 J-0.138
X19.761 Y16.138 Z-3.231 I0.014 J0.138
X19.733 Y15.862 Z-3.308 I-0.014 J-0.138
X19.761 Y16.138 Z-3.385 I0.014 J0.138
X19.733 Y15.862 Z-3.462 I-0.014 J-0.138
X19.885 Y15.983 Z-3.5 I0.014 J0.138
X19.609 Y16.017 I-0.138 J0.017
X19.885 Y15.983 I0.138 J-0.017
X19.609 Y16.017 Z-3.577 I-0.138 J0.017
X19.885 Y15.983 Z-3.654 I0.138 J-0.017
X19.609 Y16.017 Z-3.731 I-0.138 J0.017
X19.885 Y15.983 Z-3.808 I0.138 J-0.017
X19.609 Y16.017 Z-3.885 I-0.138 J0.017
X19.885 Y15.983 Z-3.962 I0.138 J-0.017
X19.766 Y16.138 Z-4 I-0.138 J0.017
X19.728 Y15.862 I-0.019 J-0.138
X19.766 Y16.138 I0.019 J0.138
X19.728 Y15.862 Z-4.077 I-0.019 J-0.138
X19.766 Y16.138 Z-4.154 I0.019 J0.138
X19.728 Y15.862 Z-4.231 I-0.019 J-0.138
X19.766 Y16.138 Z-4.308 I0.019 J0.138
X19.728 Y15.862 Z-4.385 I-0.019 J-0.138
X19.766 Y16.138 Z-4.462 I0.019 J0.138
X19.61 Y16.022 Z-4.5 I-0.019 J-0.138
X19.884 Y15.978 I0.137 J-0.022
X19.61 Y16.022 I-0.137 J0.022
X19.884 Y15.978 Z-4.577 I0.137 J-0.022
X19.61 Y16.022 Z-4.654 I-0.137 J0.022
X19.884 Y15.978 Z-4.731 I0.137 J-0.022
X19.61 Y16.022 Z-4.808 I-0.137 J0.022
X19.884 Y15.978 Z-4.885 I0.137 J-0.022
X19.61 Y16.022 Z-4.962 I-0.137 J0.022
X19.722 Y15.863 Z-5 I0.137 J-0.022
X19.772 Y16.137 I0.025 J0.137
X19.722 Y15.863 I-0.025 J-0.137
X19.772 Y16.137 Z-5.077 I0.025 J0.137
X19.722 Y15.863 Z-5.154 I-0.025 J-0.137
X19.772 Y16.137 Z-5.231 I0.025 J0.137
X19.722 Y15.863 Z-5.308 I-0.025 J-0.137
X19.772 Y16.137 Z-5.385 I0.025 J0.137
X19.722 Y15.863 Z-5.462 I-0.025 J-0.137
X19.883 Y15.972 Z-5.5 I0.025 J0.137
X19.611 Y16.028 I-0.136 J0.028
X19.883 Y15.972 I0.136 J-0.028
X19.611 Y16.028 Z-5.577 I-0.136 J0.028
X19.883 Y15.972 Z-5.654 I0.136 J-0.028
X19.611 Y16.028 Z-5.731 I-0.136 J0.028
X19.883 Y15.972 Z-5.808 I0.136 J-0.028
X19.611 Y16.028 Z-5.885 I-0.136 J0.028
X19.883 Y15.972 Z-5.962 I0.136 J-0.028
X19.777 Y16.136 Z-6 I-0.136 J0.028
X19.717 Y15.864 I-0.03 J-0.136
X19.777 Y16.136 I0.03 J0.136
X19.717 Y15.864 Z-6.077 I-0.03 J-0.136
X19.777 Y16.136 Z-6.154 I0.03 J0.136
X19.717 Y15.864 Z-6.231 I-0.03 J-0.136
X19.777 Y16.136 Z-6.308 I0.03 J0.136
X19.717 Y15.864 Z-6.385 I-0.03 J-0.136
X19.777 Y16.136 Z-6.462 I0.03 J0.136
X19.612 Y16.033 Z-6.5 I-0.03 J-0.136
X19.882 Y15.967 I0.135 J-0.033
X19.612 Y16.033 I-0.135 J0.033
X19.882 Y15.967 Z-6.577 I0.135 J-0.033
X19.612 Y16.033 Z-6.654 I-0.135 J0.033
X19.882 Y15.967 Z-6.731 I0.135 J-0.033
X19.612 Y16.033 Z-6.808 I-0.135 J0.033
X19.882 Y15.967 Z-6.885 I0.135 J-0.033
X19.612 Y16.033 Z-6.962 I-0.135 J0.033
X19.711 Y15.866 Z-7 I0.135 J-0.033
X19.783 Y16.134 I0.036 J0.134
X19.711 Y15.866 I-0.036 J-0.134
X19.783 Y16.134 Z-7.077 I0.036 J0.134
X19.711 Y15.866 Z-7.154 I-0.036 J-0.134
X19.886 Y16.006 Z-7.2 I0.036 J0.134
X19.608 Y15.994 I-0.139 J-0.006
X19.886 Y16.006 I0.139 J0.006
G0 Z4
X13.95 Y10.369
Z2
G1 Z1.5 F400
Z-0.5
G3 X14.05 Y10.369 I0.05 J0
X13.95 Y10.369 I-0.05 J0
G1 X13.958 Y10.342 Z-0.505
X13.979 Y10.323 Z-0.51
X14.007 Y10.319 Z-0.515
X14.032 Y10.33 Z-0.52
X14.048 Y10.354 Z-0.525
Y10.382 Z-0.53
X14.034 Y10.405 Z-0.535
X14.009 Y10.418 Z-0.54
X13.981 Y10.415 Z-0.545
X13.959 Y10.397 Z-0.55
X13.95 Y10.371 Z-0.555
X13.957 Y10.344 Z-0.56
X13.977 Y10.324 Z-0.565
X14.004 Y10.319 Z-0.57
X14.03 Y10.329 Z-0.575
X14.047 Y10.351 Z-0.58
X14.049 Y10.379 Z-0.585
X14.035 Y10.404 Z-0.59
X14.011 Y10.417 Z-0.595
X13.983 Y10.416 Z-0.6
X13.96 Y10.399 Z-0.605
X13.95 Y10.373 Z-0.61
X13.956 Y10.346 Z-0.615
X13.975 Y10.325 Z-0.62
X14.002 Y10.319 Z-0.625
X14.029 Y10.328 Z-0.63
X14.046 Y10.349 Z-0.635
X14.049 Y10.377 Z-0.64
X14.037 Y10.402 Z-0.645
X14.013 Y10.417 Z-0.65
X13.985 Y10.416 Z-0.655
X13.962 Y10.401 Z-0.66
X13.95 Y10.375 Z-0.665
X13.955 Y10.348 Z-0.67
X13.973 Y10.327 Z-0.675
X14 Y10.319 Z-0.68
X14.027 Y10.326 Z-0.685
X14.045 Y10.347 Z-0.69
X14.05 Y10.375 Z-0.695
X14.038 Y10.401 Z-0.7
X14.015 Y10.416 Z-0.705
X13.987 Y10.417 Z-0.71
X13.963 Y10.403 Z-0.715
X13.951 Y10.378 Z-0.72
X13.954 Y10.35 Z-0.725
X13.971 Y10.328 Z-0.73
X13.998 Y10.319 Z-0.735
X14.025 Y10.325 Z-0.74
X14.044 Y10.345 Z-0.745
X14.05 Y10.373 Z-0.75
X14.04 Y10.399 Z-0.755
X14.017 Y10.415 Z-0.76
X13.989 Y10.417 Z-0.765
X13.965 Y10.404 Z-0.77
X13.951 Y10.38 Z-0.775
X13.953 Y10.352 Z-0.78
X13.969 Y10.329 Z-0.785
X13.995 Y10.319 Z-0.79
X14.023 Y10.324 Z-0.795
X14.043 Y10.343 Z-0.8
X14.05 Y10.37 Z-0.805
X14.041 Y10.397 Z-0.81
X14.019 Y10.415 Z-0.815
X13.992 Y10.418 Z-0.82
X13.966 Y10.406 Z-0.825
X13.952 Y10.382 Z-0.83
Y10.354 Z-0.835
X13.968 Y10.331 Z-0.84
X13.993 Y10.319 Z-0.845
X14.021 Y10.323 Z-0.85
X14.042 Y10.341 Z-0.855
X14.05 Y10.368 Z-0.86
X14.042 Y10.395 Z-0.865
X14.021 Y10.414 Z-0.87
X13.994 Y10.418 Z-0.875
X13.968 Y10.407 Z-0.88
X13.952 Y10.384 Z-0.885
Y10.356 Z-0.89
X13.966 Y10.332 Z-0.895
X13.991 Y10.319 Z-0.9
X14.019 Y10.322 Z-0.905
X14.041 Y10.34 Z-0.91
X14.05 Y10.366 Z-0.915
X14.044 Y10.393 Z-0.92
X14.023 Y10.413 Z-0.925
X13.996 Y10.418 Z-0.93
X13.97 Y10.409 Z-0.935
X13.953 Y10.386 Z-0.94
X13.951 Y10.358 Z-0.945
X13.964 Y10.334 Z-0.95
X13.989 Y10.32 Z-0.955
X14.017 Y10.321 Z-0.96
X14.039 Y10.338 Z-0.965
X14.05 Y10.364 Z-0.97
X14.045 Y10.391 Z-0.975
X14.025 Y10.412 Z-0.98
X13.998 Y10.419 Z-0.985
X13.972 Y10.41 Z-0.99
X13.954 Y10.388 Z-0.995
X13.951 Y10.36 Z-1
G3 X14.049 Y10.377 I0.049 J0.008
X13.951 Y10.36 I-0.049 J-0.008
G1 X13.963 Y10.335 Z-1.005
X13.987 Y10.32 Z-1.01
X14.015 Y10.321 Z-1.015
X14.038 Y10.336 Z-1.02
X14.049 Y10.362 Z-1.025
X14.046 Y10.389 Z-1.03
X14.027 Y10.41 Z-1.035
X14.001 Y10.419 Z-1.04
X13.974 Y10.411 Z-1.045
X13.955 Y10.39 Z-1.05
X13.95 Y10.363 Z-1.055
X13.961 Y10.337 Z-1.06
X13.984 Y10.321 Z-1.065
X14.012 Y10.32 Z-1.07
X14.036 Y10.334 Z-1.075
X14.049 Y10.359 Z-1.08
X14.046 Y10.387 Z-1.085
X14.029 Y10.409 Z-1.09
X14.003 Y10.419 Z-1.095
X13.976 Y10.412 Z-1.1
X13.956 Y10.392 Z-1.105
X13.95 Y10.365 Z-1.11
X13.96 Y10.339 Z-1.115
X13.982 Y10.322 Z-1.12
X14.01 Y10.32 Z-1.125
X14.035 Y10.333 Z-1.13
X14.049 Y10.357 Z-1.135
X14.047 Y10.385 Z-1.14
X14.031 Y10.408 Z-1.145
X14.005 Y10.418 Z-1.15
X13.978 Y10.413 Z-1.155
X13.957 Y10.394 Z-1.16
X13.95 Y10.367 Z-1.165
X13.959 Y10.34 Z-1.17
X13.98 Y10.323 Z-1.175
X14.008 Y10.319 Z-1.18
X14.033 Y10.331 Z-1.185
X14.048 Y10.355 Z-1.19
Y10.383 Z-1.195
X14.033 Y10.406 Z-1.2
X14.007 Y10.418 Z-1.205
X13.98 Y10.414 Z-1.21
X13.958 Y10.396 Z-1.215
X13.95 Y10.369 Z-1.22
X13.957 Y10.342 Z-1.225
X13.978 Y10.324 Z-1.23
X14.006 Y10.319 Z-1.235
X14.032 Y10.33 Z-1.24
X14.047 Y10.353 Z-1.245
X14.048 Y10.381 Z-1.25
X14.034 Y10.405 Z-1.255
X14.009 Y10.418 Z-1.26
X13.982 Y10.415 Z-1.265
X13.96 Y10.398 Z-1.27
X13.95 Y10.372 Z-1.275
X13.956 Y10.344 Z-1.28
X13.976 Y10.325 Z-1.285
X14.004 Y10.319 Z-1.29
X14.03 Y10.328 Z-1.295
X14.047 Y10.351 Z-1.3
X14.049 Y10.379 Z-1.305
X14.036 Y10.403 Z-1.31
X14.012 Y10.417 Z-1.315
X13.984 Y10.416 Z-1.32
X13.961 Y10.4 Z-1.325
X13.95 Y10.374 Z-1.33
X13.955 Y10.346 Z-1.335
X13.974 Y10.326 Z-1.34
X14.001 Y10.319 Z-1.345
X14.028 Y10.327 Z-1.35
X14.046 Y10.349 Z-1.355
X14.049 Y10.376 Z-1.36
X14.037 Y10.402 Z-1.365
X14.014 Y10.417 Z-1.37
X13.986 Z-1.375
X13.962 Y10.401 Z-1.38
X13.951 Y10.376 Z-1.385
X13.954 Y10.348 Z-1.39
X13.972 Y10.327 Z-1.395
X13.999 Y10.319 Z-1.4
X14.026 Y10.326 Z-1.405
X14.045 Y10.347 Z-1.41
X14.05 Y10.374 Z-1.415
X14.039 Y10.4 Z-1.42
X14.016 Y10.416 Z-1.425
X13.988 Y10.417 Z-1.43
X13.964 Y10.403 Z-1.435
X13.951 Y10.378 Z-1.44
X13.953 Y10.35 Z-1.445
X13.971 Y10.328 Z-1.45
X13.997 Y10.319 Z-1.455
X14.024 Y10.325 Z-1.46
X14.044 Y10.345 Z-1.465
X14.05 Y10.372 Z-1.47
X14.04 Y10.398 Z-1.475
X14.018 Y10.415 Z-1.48
X13.99 Y10.418 Z-1.485
X13.965 Y10.405 Z-1.49
X13.951 Y10.38 Z-1.495
X13.953 Y10.352 Z-1.5
G3 X14.047 Y10.385 I0.047 J0.016
X13.953 Y10.352 I-0.047 J-0.016
G1 X13.969 Y10.33 Z-1.505
X13.995 Y10.319 Z-1.51
X14.022 Y10.324 Z-1.515
X14.043 Y10.343 Z-1.52
X14.05 Y10.37 Z-1.525
X14.042 Y10.396 Z-1.53
X14.02 Y10.414 Z-1.535
X13.992 Y10.418 Z-1.54
X13.967 Y10.406 Z-1.545
X13.952 Y10.383 Z-1.55
Y10.355 Z-1.555
X13.967 Y10.331 Z-1.56
X13.992 Y10.319 Z-1.565
X14.02 Y10.323 Z-1.57
X14.042 Y10.341 Z-1.575
X14.05 Y10.367 Z-1.58
X14.043 Y10.395 Z-1.585
X14.022 Y10.413 Z-1.59
X13.995 Y10.418 Z-1.595
X13.969 Y10.408 Z-1.6
X13.953 Y10.385 Z-1.605
X13.951 Y10.357 Z-1.61
X13.965 Y10.333 Z-1.615
X13.99 Y10.32 Z-1.62
X14.018 Y10.322 Z-1.625
X14.04 Y10.339 Z-1.63
X14.05 Y10.365 Z-1.635
X14.044 Y10.393 Z-1.64
X14.024 Y10.412 Z-1.645
X13.997 Y10.418 Z-1.65
X13.971 Y10.409 Z-1.655
X13.953 Y10.387 Z-1.66
X13.951 Y10.359 Z-1.665
X13.964 Y10.334 Z-1.67
X13.988 Y10.32 Z-1.675
X14.016 Y10.321 Z-1.68
X14.039 Y10.337 Z-1.685
X14.05 Y10.363 Z-1.69
X14.045 Y10.391 Z-1.695
X14.026 Y10.411 Z-1.7
X13.999 Y10.419 Z-1.705
X13.972 Y10.41 Z-1.71
X13.954 Y10.389 Z-1.715
X13.951 Y10.361 Z-1.72
X13.962 Y10.336 Z-1.725
X13.986 Y10.321 Z-1.73
X14.014 Z-1.735
X14.037 Y10.335 Z-1.74
X14.049 Y10.361 Z-1.745
X14.046 Y10.389 Z-1.75
X14.028 Y10.41 Z-1.755
X14.001 Y10.419 Z-1.76
X13.974 Y10.411 Z-1.765
X13.955 Y10.391 Z-1.77
X13.95 Y10.363 Z-1.775
X13.961 Y10.337 Z-1.78
X13.984 Y10.321 Z-1.785
X14.012 Y10.32 Z-1.79
X14.036 Y10.334 Z-1.795
X14.049 Y10.359 Z-1.8
X14.047 Y10.386 Z-1.805
X14.03 Y10.409 Z-1.81
X14.004 Y10.418 Z-1.815
X13.976 Y10.413 Z-1.82
X13.956 Y10.393 Z-1.825
X13.95 Y10.366 Z-1.83
X13.96 Y10.339 Z-1.835
X13.982 Y10.322 Z-1.84
X14.009 Y10.32 Z-1.845
X14.034 Y10.332 Z-1.85
X14.048 Y10.356 Z-1.855
X14.047 Y10.384 Z-1.86
X14.032 Y10.407 Z-1.865
X14.006 Y10.418 Z-1.87
X13.978 Y10.414 Z-1.875
X13.957 Y10.395 Z-1.88
X13.95 Y10.368 Z-1.885
X13.958 Y10.341 Z-1.89
X13.98 Y10.323 Z-1.895
X14.007 Y10.319 Z-1.9
X14.033 Y10.331 Z-1.905
X14.048 Y10.354 Z-1.91
Y10.382 Z-1.915
X14.033 Y10.406 Z-1.92
X14.008 Y10.418 Z-1.925
X13.98 Y10.415 Z-1.93
X13.959 Y10.397 Z-1.935
X13.95 Y10.37 Z-1.94
X13.957 Y10.343 Z-1.945
X13.978 Y10.324 Z-1.95
X14.005 Y10.319 Z-1.955
X14.031 Y10.329 Z-1.96
X14.047 Y10.352 Z-1.965
X14.049 Y10.38 Z-1.97
X14.035 Y10.404 Z-1.975
X14.01 Y10.418 Z-1.98
X13.982 Y10.415 Z-1.985
X13.96 Y10.399 Z-1.99
X13.95 Y10.372 Z-1.995
X13.956 Y10.345 Z-2
G3 X14.044 Y10.392 I0.044 J0.024
X13.956 Y10.345 I-0.044 J-0.024
G1 X13.976 Y10.325 Z-2.005
X14.003 Y10.319 Z-2.01
X14.029 Y10.328 Z-2.015
X14.046 Y10.35 Z-2.02
X14.049 Y10.378 Z-2.025
X14.036 Y10.403 Z-2.03
X14.012 Y10.417 Z-2.035
X13.984 Y10.416 Z-2.04
X13.961 Y10.4 Z-2.045
X13.95 Y10.375 Z-2.05
X13.955 Y10.347 Z-2.055
X13.974 Y10.326 Z-2.06
X14.001 Y10.319 Z-2.065
X14.027 Y10.327 Z-2.07
X14.046 Y10.348 Z-2.075
X14.049 Y10.376 Z-2.08
X14.038 Y10.401 Z-2.085
X14.015 Y10.416 Z-2.09
X13.987 Y10.417 Z-2.095
X13.963 Y10.402 Z-2.1
X13.951 Y10.377 Z-2.105
X13.954 Y10.349 Z-2.11
X13.972 Y10.327 Z-2.115
X13.998 Y10.319 Z-2.12
X14.025 Y10.326 Z-2.125
X14.045 Y10.346 Z-2.13
X14.05 Y10.373 Z-2.135
X14.039 Y10.399 Z-2.14
X14.017 Y10.416 Z-2.145
X13.989 Y10.417 Z-2.15
X13.964 Y10.404 Z-2.155
X13.951 Y10.379 Z-2.16
X13.953 Y10.351 Z-2.165
X13.97 Y10.329 Z-2.17
X13.996 Y10.319 Z-2.175
X14.023 Y10.324 Z-2.18
X14.044 Y10.344 Z-2.185
X14.05 Y10.371 Z-2.19
X14.041 Y10.398 Z-2.195
X14.019 Y10.415 Z-2.2
X13.991 Y10.418 Z-2.205
X13.966 Y10.405 Z-2.21
X13.952 Y10.381 Z-2.215
Y10.353 Z-2.22
X13.968 Y10.33 Z-2.225
X13.994 Y10.319 Z-2.23
X14.021 Y10.323 Z-2.235
X14.042 Y10.342 Z-2.24
X14.05 Y10.369 Z-2.245
X14.042 Y10.396 Z-2.25
X14.021 Y10.414 Z-2.255
X13.993 Y10.418 Z-2.26
X13.968 Y10.407 Z-2.265
X13.952 Y10.383 Z-2.27
Y10.355 Z-2.275
X13.966 Y10.332 Z-2.28
X13.992 Y10.319 Z-2.285
X14.019 Y10.323 Z-2.29
X14.041 Y10.34 Z-2.295
X14.05 Y10.367 Z-2.3
X14.043 Y10.394 Z-2.305
X14.023 Y10.413 Z-2.31
X13.995 Y10.418 Z-2.315
X13.969 Y10.408 Z-2.32
X13.953 Y10.385 Z-2.325
X13.951 Y10.358 Z-2.33
X13.965 Y10.333 Z-2.335
X13.989 Y10.32 Z-2.34
X14.017 Y10.322 Z-2.345
X14.04 Y10.338 Z-2.35
X14.05 Y10.364 Z-2.355
X14.044 Y10.392 Z-2.36
X14.025 Y10.412 Z-2.365
X13.998 Y10.419 Z-2.37
X13.971 Y10.409 Z-2.375
X13.954 Y10.388 Z-2.38
X13.951 Y10.36 Z-2.385
X13.963 Y10.335 Z-2.39
X13.987 Y10.32 Z-2.395
X14.015 Y10.321 Z-2.4
X14.038 Y10.337 Z-2.405
X14.05 Y10.362 Z-2.41
X14.045 Y10.39 Z-2.415
X14.027 Y10.411 Z-2.42
X14 Y10.419 Z-2.425
X13.973 Y10.411 Z-2.43
X13.955 Y10.39 Z-2.435
X13.95 Y10.362 Z-2.44
X13.962 Y10.336 Z-2.445
X13.985 Y10.321 Z-2.45
X14.013 Y10.32 Z-2.455
X14.037 Y10.335 Z-2.46
X14.049 Y10.36 Z-2.465
X14.046 Y10.388 Z-2.47
X14.029 Y10.41 Z-2.475
X14.002 Y10.419 Z-2.48
X13.975 Y10.412 Z-2.485
X13.956 Y10.392 Z-2.49
X13.95 Y10.364 Z-2.495
X13.96 Y10.338 Z-2.5
G3 X14.04 Y10.399 I0.04 J0.031
X13.96 Y10.338 I-0.04 J-0.031
G1 X13.983 Y10.322 Z-2.505
X14.011 Y10.32 Z-2.51
X14.035 Y10.333 Z-2.515
X14.049 Y10.358 Z-2.52
X14.047 Y10.386 Z-2.525
X14.03 Y10.408 Z-2.53
X14.004 Y10.418 Z-2.535
X13.977 Y10.413 Z-2.54
X13.957 Y10.394 Z-2.545
X13.95 Y10.366 Z-2.55
X13.959 Y10.34 Z-2.555
X13.981 Y10.322 Z-2.56
X14.009 Y10.319 Z-2.565
X14.034 Y10.332 Z-2.57
X14.048 Y10.356 Z-2.575
Y10.384 Z-2.58
X14.032 Y10.407 Z-2.585
X14.007 Y10.418 Z-2.59
X13.979 Y10.414 Z-2.595
X13.958 Y10.395 Z-2.6
X13.95 Y10.369 Z-2.605
X13.958 Y10.342 Z-2.61
X13.979 Y10.323 Z-2.615
X14.007 Y10.319 Z-2.62
X14.032 Y10.33 Z-2.625
X14.048 Y10.354 Z-2.63
Y10.382 Z-2.635
X14.034 Y10.405 Z-2.64
X14.009 Y10.418 Z-2.645
X13.981 Y10.415 Z-2.65
X13.959 Y10.397 Z-2.655
X13.95 Y10.371 Z-2.66
X13.957 Y10.344 Z-2.665
X13.977 Y10.324 Z-2.67
X14.004 Y10.319 Z-2.675
X14.03 Y10.329 Z-2.68
X14.047 Y10.351 Z-2.685
X14.049 Y10.379 Z-2.69
X14.035 Y10.404 Z-2.695
X14.011 Y10.417 Z-2.7
X13.983 Y10.416 Z-2.705
X13.96 Y10.399 Z-2.71
X13.95 Y10.373 Z-2.715
X13.956 Y10.346 Z-2.72
X13.975 Y10.325 Z-2.725
X14.002 Y10.319 Z-2.73
X14.029 Y10.328 Z-2.735
X14.046 Y10.349 Z-2.74
X14.049 Y10.377 Z-2.745
X14.037 Y10.402 Z-2.75
X14.013 Y10.417 Z-2.755
X13.985 Y10.416 Z-2.76
X13.962 Y10.401 Z-2.765
X13.95 Y10.375 Z-2.77
X13.955 Y10.348 Z-2.775
X13.973 Y10.327 Z-2.78
X14 Y10.319 Z-2.785
X14.027 Y10.326 Z-2.79
X14.045 Y10.347 Z-2.795
X14.05 Y10.375 Z-2.8
X14.038 Y10.401 Z-2.805
X14.015 Y10.416 Z-2.81
X13.987 Y10.417 Z-2.815
X13.963 Y10.403 Z-2.82
X13.951 Y10.378 Z-2.825
X13.954 Y10.35 Z-2.83
X13.971 Y10.328 Z-2.835
X13.998 Y10.319 Z-2.84
X14.025 Y10.325 Z-2.845
X14.044 Y10.345 Z-2.85
X14.05 Y10.373 Z-2.855
X14.04 Y10.399 Z-2.86
X14.017 Y10.415 Z-2.865
X13.989 Y10.417 Z-2.87
X13.965 Y10.404 Z-2.875
X13.951 Y10.38 Z-2.88
X13.953 Y10.352 Z-2.885
X13.969 Y10.329 Z-2.89
X13.995 Y10.319 Z-2.895
X14.023 Y10.324 Z-2.9
X14.043 Y10.343 Z-2.905
X14.05 Y10.37 Z-2.91
X14.041 Y10.397 Z-2.915
X14.019 Y10.415 Z-2.92
X13.992 Y10.418 Z-2.925
X13.966 Y10.406 Z-2.93
X13.952 Y10.382 Z-2.935
Y10.354 Z-2.94
X13.968 Y10.331 Z-2.945
X13.993 Y10.319 Z-2.95
X14.021 Y10.323 Z-2.955
X14.042 Y10.341 Z-2.96
X14.05 Y10.368 Z-2.965
X14.042 Y10.395 Z-2.97
X14.021 Y10.414 Z-2.975
X13.994 Y10.418 Z-2.98
X13.968 Y10.407 Z-2.985
X13.952 Y10.384 Z-2.99
Y10.356 Z-2.995
X13.966 Y10.332 Z-3
G3 X14.034 Y10.405 I0.034 J0.037
X13.966 Y10.332 I-0.034 J-0.037
G1 X13.991 Y10.319 Z-3.005
X14.019 Y10.322 Z-3.01
X14.041 Y10.34 Z-3.015
X14.05 Y10.366 Z-3.02
X14.044 Y10.393 Z-3.025
X14.023 Y10.413 Z-3.03
X13.996 Y10.418 Z-3.035
X13.97 Y10.409 Z-3.04
X13.953 Y10.386 Z-3.045
X13.951 Y10.358 Z-3.05
X13.964 Y10.334 Z-3.055
X13.989 Y10.32 Z-3.06
X14.017 Y10.321 Z-3.065
X14.039 Y10.338 Z-3.07
X14.05 Y10.364 Z-3.075
X14.045 Y10.391 Z-3.08
X14.025 Y10.412 Z-3.085
X13.998 Y10.419 Z-3.09
X13.972 Y10.41 Z-3.095
X13.954 Y10.388 Z-3.1
X13.951 Y10.36 Z-3.105
X13.963 Y10.335 Z-3.11
X13.987 Y10.32 Z-3.115
X14.015 Y10.321 Z-3.12
X14.038 Y10.336 Z-3.125
X14.049 Y10.362 Z-3.13
X14.046 Y10.389 Z-3.135
X14.027 Y10.41 Z-3.14
X14.001 Y10.419 Z-3.145
X13.974 Y10.411 Z-3.15
X13.955 Y10.39 Z-3.155
X13.95 Y10.363 Z-3.16
X13.961 Y10.337 Z-3.165
X13.984 Y10.321 Z-3.17
X14.012 Y10.32 Z-3.175
X14.036 Y10.334 Z-3.18
X14.049 Y10.359 Z-3.185
X14.046 Y10.387 Z-3.19
X14.029 Y10.409 Z-3.195
X14.003 Y10.419 Z-3.2
X13.976 Y10.412 Z-3.205
X13.956 Y10.392 Z-3.21
X13.95 Y10.365 Z-3.215
X13.96 Y10.339 Z-3.22
X13.982 Y10.322 Z-3.225
X14.01 Y10.32 Z-3.23
X14.035 Y10.333 Z-3.235
X14.049 Y10.357 Z-3.24
X14.047 Y10.385 Z-3.245
X14.031 Y10.408 Z-3.25
X14.005 Y10.418 Z-3.255
X13.978 Y10.413 Z-3.26
X13.957 Y10.394 Z-3.265
X13.95 Y10.367 Z-3.27
X13.959 Y10.34 Z-3.275
X13.98 Y10.323 Z-3.28
X14.008 Y10.319 Z-3.285
X14.033 Y10.331 Z-3.29
X14.048 Y10.355 Z-3.295
Y10.383 Z-3.3
X14.033 Y10.406 Z-3.305
X14.007 Y10.418 Z-3.31
X13.98 Y10.414 Z-3.315
X13.958 Y10.396 Z-3.32
X13.95 Y10.369 Z-3.325
X13.957 Y10.342 Z-3.33
X13.978 Y10.324 Z-3.335
X14.006 Y10.319 Z-3.34
X14.032 Y10.33 Z-3.345
X14.047 Y10.353 Z-3.35
X14.048 Y10.381 Z-3.355
X14.034 Y10.405 Z-3.36
X14.009 Y10.418 Z-3.365
X13.982 Y10.415 Z-3.37
X13.96 Y10.398 Z-3.375
X13.95 Y10.372 Z-3.38
X13.956 Y10.344 Z-3.385
X13.976 Y10.325 Z-3.39
X14.004 Y10.319 Z-3.395
X14.03 Y10.328 Z-3.4
X14.047 Y10.351 Z-3.405
X14.049 Y10.379 Z-3.41
X14.036 Y10.403 Z-3.415
X14.012 Y10.417 Z-3.42
X13.984 Y10.416 Z-3.425
X13.961 Y10.4 Z-3.43
X13.95 Y10.374 Z-3.435
X13.955 Y10.346 Z-3.44
X13.974 Y10.326 Z-3.445
X14.001 Y10.319 Z-3.45
X14.028 Y10.327 Z-3.455
X14.046 Y10.349 Z-3.46
X14.049 Y10.376 Z-3.465
X14.037 Y10.402 Z-3.47
X14.014 Y10.417 Z-3.475
X13.986 Z-3.48
X13.962 Y10.401 Z-3.485
X13.951 Y10.376 Z-3.49
X13.954 Y10.348 Z-3.495
X13.972 Y10.327 Z-3.5
G3 X14.028 Y10.41 I0.028 J0.042
X13.972 Y10.327 I-0.028 J-0.042
G1 X13.999 Y10.319 Z-3.505
X14.026 Y10.326 Z-3.51
X14.045 Y10.347 Z-3.515
X14.05 Y10.374 Z-3.52
X14.039 Y10.4 Z-3.525
X14.016 Y10.416 Z-3.53
X13.988 Y10.417 Z-3.535
X13.964 Y10.403 Z-3.54
X13.951 Y10.378 Z-3.545
X13.953 Y10.35 Z-3.55
X13.971 Y10.328 Z-3.555
X13.997 Y10.319 Z-3.56
X14.024 Y10.325 Z-3.565
X14.044 Y10.345 Z-3.57
X14.05 Y10.372 Z-3.575
X14.04 Y10.398 Z-3.58
X14.018 Y10.415 Z-3.585
X13.99 Y10.418 Z-3.59
X13.965 Y10.405 Z-3.595
X13.951 Y10.38 Z-3.6
X13.953 Y10.352 Z-3.605
X13.969 Y10.33 Z-3.61
X13.995 Y10.319 Z-3.615
X14.022 Y10.324 Z-3.62
X14.043 Y10.343 Z-3.625
X14.05 Y10.37 Z-3.63
X14.042 Y10.396 Z-3.635
X14.02 Y10.414 Z-3.64
X13.992 Y10.418 Z-3.645
X13.967 Y10.406 Z-3.65
X13.952 Y10.383 Z-3.655
Y10.355 Z-3.66
X13.967 Y10.331 Z-3.665
X13.992 Y10.319 Z-3.67
X14.02 Y10.323 Z-3.675
X14.042 Y10.341 Z-3.68
X14.05 Y10.367 Z-3.685
X14.043 Y10.395 Z-3.69
X14.022 Y10.413 Z-3.695
X13.995 Y10.418 Z-3.7
X13.969 Y10.408 Z-3.705
X13.953 Y10.385 Z-3.71
X13.951 Y10.357 Z-3.715
X13.965 Y10.333 Z-3.72
X13.99 Y10.32 Z-3.725
X14.018 Y10.322 Z-3.73
X14.04 Y10.339 Z-3.735
X14.05 Y10.365 Z-3.74
X14.044 Y10.393 Z-3.745
X14.024 Y10.412 Z-3.75
X13.997 Y10.418 Z-3.755
X13.971 Y10.409 Z-3.76
X13.953 Y10.387 Z-3.765
X13.951 Y10.359 Z-3.77
X13.964 Y10.334 Z-3.775
X13.988 Y10.32 Z-3.78
X14.016 Y10.321 Z-3.785
X14.039 Y10.337 Z-3.79
X14.05 Y10.363 Z-3.795
X14.045 Y10.391 Z-3.8
X14.026 Y10.411 Z-3.805
X13.999 Y10.419 Z-3.81
X13.972 Y10.41 Z-3.815
X13.954 Y10.389 Z-3.82
X13.951 Y10.361 Z-3.825
X13.962 Y10.336 Z-3.83
X13.986 Y10.321 Z-3.835
X14.014 Z-3.84
X14.037 Y10.335 Z-3.845
X14.049 Y10.361 Z-3.85
X14.046 Y10.389 Z-3.855
X14.028 Y10.41 Z-3.86
X14.001 Y10.419 Z-3.865
X13.974 Y10.411 Z-3.87
X13.955 Y10.391 Z-3.875
X13.95 Y10.363 Z-3.88
X13.961 Y10.337 Z-3.885
X13.984 Y10.321 Z-3.89
X14.012 Y10.32 Z-3.895
X14.036 Y10.334 Z-3.9
X14.049 Y10.359 Z-3.905
X14.047 Y10.386 Z-3.91
X14.03 Y10.409 Z-3.915
X14.004 Y10.418 Z-3.92
X13.976 Y10.413 Z-3.925
X13.956 Y10.393 Z-3.93
X13.95 Y10.366 Z-3.935
X13.96 Y10.339 Z-3.94
X13.982 Y10.322 Z-3.945
X14.009 Y10.32 Z-3.95
X14.034 Y10.332 Z-3.955
X14.048 Y10.356 Z-3.96
X14.047 Y10.384 Z-3.965
X14.032 Y10.407 Z-3.97
X14.006 Y10.418 Z-3.975
X13.978 Y10.414 Z-3.98
X13.957 Y10.395 Z-3.985
X13.95 Y10.368 Z-3.99
X13.958 Y10.341 Z-3.995
X13.98 Y10.323 Z-4
G3 X14.02 Y10.414 I0.02 J0.046
X13.98 Y10.323 I-0.02 J-0.046
G1 X14.007 Y10.319 Z-4.005
X14.033 Y10.331 Z-4.01
X14.048 Y10.354 Z-4.015
Y10.382 Z-4.02
X14.033 Y10.406 Z-4.025
X14.008 Y10.418 Z-4.03
X13.98 Y10.415 Z-4.035
X13.959 Y10.397 Z-4.04
X13.95 Y10.37 Z-4.045
X13.957 Y10.343 Z-4.05
X13.978 Y10.324 Z-4.055
X14.005 Y10.319 Z-4.06
X14.031 Y10.329 Z-4.065
X14.047 Y10.352 Z-4.07
X14.049 Y10.38 Z-4.075
X14.035 Y10.404 Z-4.08
X14.01 Y10.418 Z-4.085
X13.982 Y10.415 Z-4.09
X13.96 Y10.399 Z-4.095
X13.95 Y10.372 Z-4.1
X13.956 Y10.345 Z-4.105
X13.976 Y10.325 Z-4.11
X14.003 Y10.319 Z-4.115
X14.029 Y10.328 Z-4.12
X14.046 Y10.35 Z-4.125
X14.049 Y10.378 Z-4.13
X14.036 Y10.403 Z-4.135
X14.012 Y10.417 Z-4.14
X13.984 Y10.416 Z-4.145
X13.961 Y10.4 Z-4.15
X13.95 Y10.375 Z-4.155
X13.955 Y10.347 Z-4.16
X13.974 Y10.326 Z-4.165
X14.001 Y10.319 Z-4.17
X14.027 Y10.327 Z-4.175
X14.046 Y10.348 Z-4.18
X14.049 Y10.376 Z-4.185
X14.038 Y10.401 Z-4.19
X14.015 Y10.416 Z-4.195
X13.987 Y10.417 Z-4.2
X13.963 Y10.402 Z-4.205
X13.951 Y10.377 Z-4.21
X13.954 Y10.349 Z-4.215
X13.972 Y10.327 Z-4.22
X13.998 Y10.319 Z-4.225
X14.025 Y10.326 Z-4.23
X14.045 Y10.346 Z-4.235
X14.05 Y10.373 Z-4.24
X14.039 Y10.399 Z-4.245
X14.017 Y10.416 Z-4.25
X13.989 Y10.417 Z-4.255
X13.964 Y10.404 Z-4.26
X13.951 Y10.379 Z-4.265
X13.953 Y10.351 Z-4.27
X13.97 Y10.329 Z-4.275
X13.996 Y10.319 Z-4.28
X14.023 Y10.324 Z-4.285
X14.044 Y10.344 Z-4.29
X14.05 Y10.371 Z-4.295
X14.041 Y10.398 Z-4.3
X14.019 Y10.415 Z-4.305
X13.991 Y10.418 Z-4.31
X13.966 Y10.405 Z-4.315
X13.952 Y10.381 Z-4.32
Y10.353 Z-4.325
X13.968 Y10.33 Z-4.33
X13.994 Y10.319 Z-4.335
X14.021 Y10.323 Z-4.34
X14.042 Y10.342 Z-4.345
X14.05 Y10.369 Z-4.35
X14.042 Y10.396 Z-4.355
X14.021 Y10.414 Z-4.36
X13.993 Y10.418 Z-4.365
X13.968 Y10.407 Z-4.37
X13.952 Y10.383 Z-4.375
Y10.355 Z-4.38
X13.966 Y10.332 Z-4.385
X13.992 Y10.319 Z-4.39
X14.019 Y10.323 Z-4.395
X14.041 Y10.34 Z-4.4
X14.05 Y10.367 Z-4.405
X14.043 Y10.394 Z-4.41
X14.023 Y10.413 Z-4.415
X13.995 Y10.418 Z-4.42
X13.969 Y10.408 Z-4.425
X13.953 Y10.385 Z-4.43
X13.951 Y10.358 Z-4.435
X13.965 Y10.333 Z-4.44
X13.989 Y10.32 Z-4.445
X14.017 Y10.322 Z-4.45
X14.04 Y10.338 Z-4.455
X14.05 Y10.364 Z-4.46
X14.044 Y10.392 Z-4.465
X14.025 Y10.412 Z-4.47
X13.998 Y10.419 Z-4.475
X13.971 Y10.409 Z-4.48
X13.954 Y10.388 Z-4.485
X13.951 Y10.36 Z-4.49
X13.963 Y10.335 Z-4.495
X13.987 Y10.32 Z-4.5
G3 X14.013 Y10.417 I0.013 J0.048
X13.987 Y10.32 I-0.013 J-0.048
G1 X14.015 Y10.321 Z-4.505
X14.038 Y10.337 Z-4.51
X14.05 Y10.362 Z-4.515
X14.045 Y10.39 Z-4.52
X14.027 Y10.411 Z-4.525
X14 Y10.419 Z-4.53
X13.973 Y10.411 Z-4.535
X13.955 Y10.39 Z-4.54
X13.95 Y10.362 Z-4.545
X13.962 Y10.336 Z-4.55
X13.985 Y10.321 Z-4.555
X14.013 Y10.32 Z-4.56
X14.037 Y10.335 Z-4.565
X14.049 Y10.36 Z-4.57
X14.046 Y10.388 Z-4.575
X14.029 Y10.41 Z-4.58
X14.002 Y10.419 Z-4.585
X13.975 Y10.412 Z-4.59
X13.956 Y10.392 Z-4.595
X13.95 Y10.364 Z-4.6
X13.96 Y10.338 Z-4.605
X13.983 Y10.322 Z-4.61
X14.011 Y10.32 Z-4.615
X14.035 Y10.333 Z-4.62
X14.049 Y10.358 Z-4.625
X14.047 Y10.386 Z-4.63
X14.03 Y10.408 Z-4.635
X14.004 Y10.418 Z-4.64
X13.977 Y10.413 Z-4.645
X13.957 Y10.394 Z-4.65
X13.95 Y10.366 Z-4.655
X13.959 Y10.34 Z-4.66
X13.981 Y10.322 Z-4.665
X14.009 Y10.319 Z-4.67
X14.034 Y10.332 Z-4.675
X14.048 Y10.356 Z-4.68
Y10.384 Z-4.685
X14.032 Y10.407 Z-4.69
X14.007 Y10.418 Z-4.695
X13.979 Y10.414 Z-4.7
X13.958 Y10.395 Z-4.705
X13.95 Y10.369 Z-4.71
X13.958 Y10.342 Z-4.715
X13.979 Y10.323 Z-4.72
X14.007 Y10.319 Z-4.725
X14.032 Y10.33 Z-4.73
X14.048 Y10.354 Z-4.735
Y10.382 Z-4.74
X14.034 Y10.405 Z-4.745
X14.009 Y10.418 Z-4.75
X13.981 Y10.415 Z-4.755
X13.959 Y10.397 Z-4.76
X13.95 Y10.371 Z-4.765
X13.957 Y10.344 Z-4.77
X13.977 Y10.324 Z-4.775
X14.004 Y10.319 Z-4.78
X14.03 Y10.329 Z-4.785
X14.047 Y10.351 Z-4.79
X14.049 Y10.379 Z-4.795
X14.035 Y10.404 Z-4.8
X14.011 Y10.417 Z-4.805
X13.983 Y10.416 Z-4.81
X13.96 Y10.399 Z-4.815
X13.95 Y10.373 Z-4.82
X13.956 Y10.346 Z-4.825
X13.975 Y10.325 Z-4.83
X14.002 Y10.319 Z-4.835
X14.029 Y10.328 Z-4.84
X14.046 Y10.349 Z-4.845
X14.049 Y10.377 Z-4.85
X14.037 Y10.402 Z-4.855
X14.013 Y10.417 Z-4.86
X13.985 Y10.416 Z-4.865
X13.962 Y10.401 Z-4.87
X13.95 Y10.375 Z-4.875
X13.955 Y10.348 Z-4.88
X13.973 Y10.327 Z-4.885
X14 Y10.319 Z-4.89
X14.027 Y10.326 Z-4.895
X14.045 Y10.347 Z-4.9
X14.05 Y10.375 Z-4.905
X14.038 Y10.401 Z-4.91
X14.015 Y10.416 Z-4.915
X13.987 Y10.417 Z-4.92
X13.963 Y10.403 Z-4.925
X13.951 Y10.378 Z-4.93
X13.954 Y10.35 Z-4.935
X13.971 Y10.328 Z-4.94
X13.998 Y10.319 Z-4.945
X14.025 Y10.325 Z-4.95
X14.044 Y10.345 Z-4.955
X14.05 Y10.373 Z-4.96
X14.04 Y10.399 Z-4.965
X14.017 Y10.415 Z-4.97
X13.989 Y10.417 Z-4.975
X13.965 Y10.404 Z-4.98
X13.951 Y10.38 Z-4.985
X13.953 Y10.352 Z-4.99
X13.969 Y10.329 Z-4.995
X13.995 Y10.319 Z-5
G3 X14.005 Y10.418 I0.005 J0.05
X13.995 Y10.319 I-0.005 J-0.05
G1 X14.023 Y10.324 Z-5.005
X14.043 Y10.343 Z-5.01
X14.05 Y10.37 Z-5.015
X14.041 Y10.397 Z-5.02
X14.019 Y10.415 Z-5.025
X13.992 Y10.418 Z-5.03
X13.966 Y10.406 Z-5.035
X13.952 Y10.382 Z-5.04
Y10.354 Z-5.045
X13.968 Y10.331 Z-5.05
X13.993 Y10.319 Z-5.055
X14.021 Y10.323 Z-5.06
X14.042 Y10.341 Z-5.065
X14.05 Y10.368 Z-5.07
X14.042 Y10.395 Z-5.075
X14.021 Y10.414 Z-5.08
X13.994 Y10.418 Z-5.085
X13.968 Y10.407 Z-5.09
X13.952 Y10.384 Z-5.095
Y10.356 Z-5.1
X13.966 Y10.332 Z-5.105
X13.991 Y10.319 Z-5.11
X14.019 Y10.322 Z-5.115
X14.041 Y10.34 Z-5.12
X14.05 Y10.366 Z-5.125
X14.044 Y10.393 Z-5.13
X14.023 Y10.413 Z-5.135
X13.996 Y10.418 Z-5.14
X13.97 Y10.409 Z-5.145
X13.953 Y10.386 Z-5.15
X13.951 Y10.358 Z-5.155
X13.964 Y10.334 Z-5.16
X13.989 Y10.32 Z-5.165
X14.017 Y10.321 Z-5.17
X14.039 Y10.338 Z-5.175
X14.05 Y10.364 Z-5.18
X14.045 Y10.391 Z-5.185
X14.025 Y10.412 Z-5.19
X13.998 Y10.419 Z-5.195
X13.972 Y10.41 Z-5.2
X13.954 Y10.388 Z-5.205
X13.951 Y10.36 Z-5.21
X13.963 Y10.335 Z-5.215
X13.987 Y10.32 Z-5.22
X14.015 Y10.321 Z-5.225
X14.038 Y10.336 Z-5.23
X14.049 Y10.362 Z-5.235
X14.046 Y10.389 Z-5.24
X14.027 Y10.41 Z-5.245
X14.001 Y10.419 Z-5.25
X13.974 Y10.411 Z-5.255
X13.955 Y10.39 Z-5.26
X13.95 Y10.363 Z-5.265
X13.961 Y10.337 Z-5.27
X13.984 Y10.321 Z-5.275
X14.012 Y10.32 Z-5.28
X14.036 Y10.334 Z-5.285
X14.049 Y10.359 Z-5.29
X14.046 Y10.387 Z-5.295
X14.029 Y10.409 Z-5.3
X14.003 Y10.419 Z-5.305
X13.976 Y10.412 Z-5.31
X13.956 Y10.392 Z-5.315
X13.95 Y10.365 Z-5.32
X13.96 Y10.339 Z-5.325
X13.982 Y10.322 Z-5.33
X14.01 Y10.32 Z-5.335
X14.035 Y10.333 Z-5.34
X14.049 Y10.357 Z-5.345
X14.047 Y10.385 Z-5.35
X14.031 Y10.408 Z-5.355
X14.005 Y10.418 Z-5.36
X13.978 Y10.413 Z-5.365
X13.957 Y10.394 Z-5.37
X13.95 Y10.367 Z-5.375
X13.959 Y10.34 Z-5.38
X13.98 Y10.323 Z-5.385
X14.008 Y10.319 Z-5.39
X14.033 Y10.331 Z-5.395
X14.048 Y10.355 Z-5.4
Y10.383 Z-5.405
X14.033 Y10.406 Z-5.41
X14.007 Y10.418 Z-5.415
X13.98 Y10.414 Z-5.42
X13.958 Y10.396 Z-5.425
X13.95 Y10.369 Z-5.43
X13.957 Y10.342 Z-5.435
X13.978 Y10.324 Z-5.44
X14.006 Y10.319 Z-5.445
X14.032 Y10.33 Z-5.45
X14.047 Y10.353 Z-5.455
X14.048 Y10.381 Z-5.46
X14.034 Y10.405 Z-5.465
X14.009 Y10.418 Z-5.47
X13.982 Y10.415 Z-5.475
X13.96 Y10.398 Z-5.48
X13.95 Y10.372 Z-5.485
X13.956 Y10.344 Z-5.49
X13.976 Y10.325 Z-5.495
X14.004 Y10.319 Z-5.5
G3 X13.996 Y10.418 I-0.004 J0.05
X14.004 Y10.319 I0.004 J-0.05
G1 X14.03 Y10.328 Z-5.505
X14.047 Y10.351 Z-5.51
X14.049 Y10.379 Z-5.515
X14.036 Y10.403 Z-5.52
X14.012 Y10.417 Z-5.525
X13.984 Y10.416 Z-5.53
X13.961 Y10.4 Z-5.535
X13.95 Y10.374 Z-5.54
X13.955 Y10.346 Z-5.545
X13.974 Y10.326 Z-5.55
X14.001 Y10.319 Z-5.555
X14.028 Y10.327 Z-5.56
X14.046 Y10.349 Z-5.565
X14.049 Y10.376 Z-5.57
X14.037 Y10.402 Z-5.575
X14.014 Y10.417 Z-5.58
X13.986 Z-5.585
X13.962 Y10.401 Z-5.59
X13.951 Y10.376 Z-5.595
X13.954 Y10.348 Z-5.6
X13.972 Y10.327 Z-5.605
X13.999 Y10.319 Z-5.61
X14.026 Y10.326 Z-5.615
X14.045 Y10.347 Z-5.62
X14.05 Y10.374 Z-5.625
X14.039 Y10.4 Z-5.63
X14.016 Y10.416 Z-5.635
X13.988 Y10.417 Z-5.64
X13.964 Y10.403 Z-5.645
X13.951 Y10.378 Z-5.65
X13.953 Y10.35 Z-5.655
X13.971 Y10.328 Z-5.66
X13.997 Y10.319 Z-5.665
X14.024 Y10.325 Z-5.67
X14.044 Y10.345 Z-5.675
X14.05 Y10.372 Z-5.68
X14.04 Y10.398 Z-5.685
X14.018 Y10.415 Z-5.69
X13.99 Y10.418 Z-5.695
X13.965 Y10.405 Z-5.7
X13.951 Y10.38 Z-5.705
X13.953 Y10.352 Z-5.71
X13.969 Y10.33 Z-5.715
X13.995 Y10.319 Z-5.72
X14.022 Y10.324 Z-5.725
X14.043 Y10.343 Z-5.73
X14.05 Y10.37 Z-5.735
X14.042 Y10.396 Z-5.74
X14.02 Y10.414 Z-5.745
X13.992 Y10.418 Z-5.75
X13.967 Y10.406 Z-5.755
X13.952 Y10.383 Z-5.76
Y10.355 Z-5.765
X13.967 Y10.331 Z-5.77
X13.992 Y10.319 Z-5.775
X14.02 Y10.323 Z-5.78
X14.042 Y10.341 Z-5.785
X14.05 Y10.367 Z-5.79
X14.043 Y10.395 Z-5.795
X14.022 Y10.413 Z-5.8
X13.995 Y10.418 Z-5.805
X13.969 Y10.408 Z-5.81
X13.953 Y10.385 Z-5.815
X13.951 Y10.357 Z-5.82
X13.965 Y10.333 Z-5.825
X13.99 Y10.32 Z-5.83
X14.018 Y10.322 Z-5.835
X14.04 Y10.339 Z-5.84
X14.05 Y10.365 Z-5.845
X14.044 Y10.393 Z-5.85
X14.024 Y10.412 Z-5.855
X13.997 Y10.418 Z-5.86
X13.971 Y10.409 Z-5.865
X13.953 Y10.387 Z-5.87
X13.951 Y10.359 Z-5.875
X13.964 Y10.334 Z-5.88
X13.988 Y10.32 Z-5.885
X14.016 Y10.321 Z-5.89
X14.039 Y10.337 Z-5.895
X14.05 Y10.363 Z-5.9
X14.045 Y10.391 Z-5.905
X14.026 Y10.411 Z-5.91
X13.999 Y10.419 Z-5.915
X13.972 Y10.41 Z-5.92
X13.954 Y10.389 Z-5.925
X13.951 Y10.361 Z-5.93
X13.962 Y10.336 Z-5.935
X13.986 Y10.321 Z-5.94
X14.014 Z-5.945
X14.037 Y10.335 Z-5.95
X14.049 Y10.361 Z-5.955
X14.046 Y10.389 Z-5.96
X14.028 Y10.41 Z-5.965
X14.001 Y10.419 Z-5.97
X13.974 Y10.411 Z-5.975
X13.955 Y10.391 Z-5.98
X13.95 Y10.363 Z-5.985
X13.961 Y10.337 Z-5.99
X13.984 Y10.321 Z-5.995
X14.012 Y10.32 Z-6
G3 X13.988 Y10.417 I-0.012 J0.049
X14.012 Y10.32 I0.012 J-0.049
G1 X14.036 Y10.334 Z-6.005
X14.049 Y10.359 Z-6.01
X14.047 Y10.386 Z-6.015
X14.03 Y10.409 Z-6.02
X14.004 Y10.418 Z-6.025
X13.976 Y10.413 Z-6.03
X13.956 Y10.393 Z-6.035
X13.95 Y10.366 Z-6.04
X13.959 Y10.339 Z-6.045
X13.982 Y10.322 Z-6.05
X14.009 Y10.32 Z-6.055
X14.034 Y10.332 Z-6.06
X14.048 Y10.356 Z-6.065
X14.047 Y10.384 Z-6.07
X14.032 Y10.407 Z-6.075
X14.006 Y10.418 Z-6.08
X13.978 Y10.414 Z-6.085
X13.957 Y10.395 Z-6.09
X13.95 Y10.368 Z-6.095
X13.958 Y10.341 Z-6.1
X13.98 Y10.323 Z-6.105
X14.007 Y10.319 Z-6.11
X14.033 Y10.331 Z-6.115
X14.048 Y10.354 Z-6.12
Y10.382 Z-6.125
X14.033 Y10.406 Z-6.13
X14.008 Y10.418 Z-6.135
X13.98 Y10.415 Z-6.14
X13.959 Y10.397 Z-6.145
X13.95 Y10.37 Z-6.15
X13.957 Y10.343 Z-6.155
X13.978 Y10.324 Z-6.16
X14.005 Y10.319 Z-6.165
X14.031 Y10.329 Z-6.17
X14.047 Y10.352 Z-6.175
X14.049 Y10.38 Z-6.18
X14.035 Y10.404 Z-6.185
X14.01 Y10.418 Z-6.19
X13.982 Y10.415 Z-6.195
X13.96 Y10.399 Z-6.2
X13.95 Y10.372 Z-6.205
X13.956 Y10.345 Z-6.21
X13.976 Y10.325 Z-6.215
X14.003 Y10.319 Z-6.22
X14.029 Y10.328 Z-6.225
X14.046 Y10.35 Z-6.23
X14.049 Y10.378 Z-6.235
X14.036 Y10.403 Z-6.24
X14.012 Y10.417 Z-6.245
X13.984 Y10.416 Z-6.25
X13.961 Y10.4 Z-6.255
X13.95 Y10.375 Z-6.26
X13.955 Y10.347 Z-6.265
X13.974 Y10.326 Z-6.27
X14.001 Y10.319 Z-6.275
X14.027 Y10.327 Z-6.28
X14.046 Y10.348 Z-6.285
X14.049 Y10.376 Z-6.29
X14.038 Y10.401 Z-6.295
X14.015 Y10.416 Z-6.3
X13.987 Y10.417 Z-6.305
X13.963 Y10.402 Z-6.31
X13.951 Y10.377 Z-6.315
X13.954 Y10.349 Z-6.32
X13.972 Y10.327 Z-6.325
X13.998 Y10.319 Z-6.33
X14.025 Y10.326 Z-6.335
X14.045 Y10.346 Z-6.34
X14.05 Y10.373 Z-6.345
X14.039 Y10.399 Z-6.35
X14.017 Y10.416 Z-6.355
X13.989 Y10.417 Z-6.36
X13.964 Y10.404 Z-6.365
X13.951 Y10.379 Z-6.37
X13.953 Y10.351 Z-6.375
X13.97 Y10.329 Z-6.38
X13.996 Y10.319 Z-6.385
X14.023 Y10.324 Z-6.39
X14.044 Y10.344 Z-6.395
X14.05 Y10.371 Z-6.4
X14.041 Y10.398 Z-6.405
X14.019 Y10.415 Z-6.41
X13.991 Y10.418 Z-6.415
X13.966 Y10.405 Z-6.42
X13.952 Y10.381 Z-6.425
Y10.353 Z-6.43
X13.968 Y10.33 Z-6.435
X13.994 Y10.319 Z-6.44
X14.021 Y10.323 Z-6.445
X14.042 Y10.342 Z-6.45
X14.05 Y10.369 Z-6.455
X14.042 Y10.396 Z-6.46
X14.021 Y10.414 Z-6.465
X13.993 Y10.418 Z-6.47
X13.968 Y10.407 Z-6.475
X13.952 Y10.383 Z-6.48
Y10.355 Z-6.485
X13.966 Y10.332 Z-6.49
X13.992 Y10.319 Z-6.495
X14.019 Y10.323 Z-6.5
G3 X13.981 Y10.415 I-0.019 J0.046
X14.019 Y10.323 I0.019 J-0.046
G1 X14.041 Y10.34 Z-6.505
X14.05 Y10.367 Z-6.51
X14.043 Y10.394 Z-6.515
X14.023 Y10.413 Z-6.52
X13.995 Y10.418 Z-6.525
X13.969 Y10.408 Z-6.53
X13.953 Y10.385 Z-6.535
X13.951 Y10.358 Z-6.54
X13.965 Y10.333 Z-6.545
X13.989 Y10.32 Z-6.55
X14.017 Y10.322 Z-6.555
X14.04 Y10.338 Z-6.56
X14.05 Y10.364 Z-6.565
X14.044 Y10.392 Z-6.57
X14.025 Y10.412 Z-6.575
X13.998 Y10.419 Z-6.58
X13.971 Y10.409 Z-6.585
X13.954 Y10.388 Z-6.59
X13.951 Y10.36 Z-6.595
X13.963 Y10.335 Z-6.6
X13.987 Y10.32 Z-6.605
X14.015 Y10.321 Z-6.61
X14.038 Y10.337 Z-6.615
X14.05 Y10.362 Z-6.62
X14.045 Y10.39 Z-6.625
X14.027 Y10.411 Z-6.63
X14 Y10.419 Z-6.635
X13.973 Y10.411 Z-6.64
X13.955 Y10.39 Z-6.645
X13.95 Y10.362 Z-6.65
X13.962 Y10.336 Z-6.655
X13.985 Y10.321 Z-6.66
X14.013 Y10.32 Z-6.665
X14.037 Y10.335 Z-6.67
X14.049 Y10.36 Z-6.675
X14.046 Y10.388 Z-6.68
X14.029 Y10.41 Z-6.685
X14.002 Y10.419 Z-6.69
X13.975 Y10.412 Z-6.695
X13.956 Y10.392 Z-6.7
X13.95 Y10.364 Z-6.705
X13.96 Y10.338 Z-6.71
X13.983 Y10.322 Z-6.715
X14.011 Y10.32 Z-6.72
X14.035 Y10.333 Z-6.725
X14.049 Y10.358 Z-6.73
X14.047 Y10.386 Z-6.735
X14.03 Y10.408 Z-6.74
X14.004 Y10.418 Z-6.745
X13.977 Y10.413 Z-6.75
X13.957 Y10.394 Z-6.755
X13.95 Y10.366 Z-6.76
X13.959 Y10.34 Z-6.765
X13.981 Y10.322 Z-6.77
X14.009 Y10.319 Z-6.775
X14.034 Y10.332 Z-6.78
X14.048 Y10.356 Z-6.785
Y10.384 Z-6.79
X14.032 Y10.407 Z-6.795
X14.007 Y10.418 Z-6.8
X13.979 Y10.414 Z-6.805
X13.958 Y10.395 Z-6.81
X13.95 Y10.369 Z-6.815
X13.958 Y10.342 Z-6.82
X13.979 Y10.323 Z-6.825
X14.006 Y10.319 Z-6.83
X14.032 Y10.33 Z-6.835
X14.048 Y10.354 Z-6.84
Y10.381 Z-6.845
X14.034 Y10.405 Z-6.85
X14.009 Y10.418 Z-6.855
X13.981 Y10.415 Z-6.86
X13.959 Y10.397 Z-6.865
X13.95 Y10.371 Z-6.87
X13.957 Y10.344 Z-6.875
X13.977 Y10.324 Z-6.88
X14.004 Y10.319 Z-6.885
X14.03 Y10.329 Z-6.89
X14.047 Y10.351 Z-6.895
X14.049 Y10.379 Z-6.9
X14.035 Y10.404 Z-6.905
X14.011 Y10.417 Z-6.91
X13.983 Y10.416 Z-6.915
X13.96 Y10.399 Z-6.92
X13.95 Y10.373 Z-6.925
X13.956 Y10.346 Z-6.93
X13.975 Y10.325 Z-6.935
X14.002 Y10.319 Z-6.94
X14.029 Y10.328 Z-6.945
X14.046 Y10.349 Z-6.95
X14.049 Y10.377 Z-6.955
X14.037 Y10.402 Z-6.96
X14.013 Y10.417 Z-6.965
X13.985 Y10.416 Z-6.97
X13.962 Y10.401 Z-6.975
X13.95 Y10.375 Z-6.98
X13.955 Y10.348 Z-6.985
X13.973 Y10.327 Z-6.99
X14 Y10.319 Z-6.995
X14.027 Y10.326 Z-7
G3 X13.973 Y10.411 I-0.027 J0.042
X14.027 Y10.326 I0.027 J-0.042
G1 X14.045 Y10.347 Z-7.005
X14.05 Y10.375 Z-7.01
X14.038 Y10.401 Z-7.015
X14.015 Y10.416 Z-7.02
X13.987 Y10.417 Z-7.025
X13.963 Y10.403 Z-7.03
X13.951 Y10.378 Z-7.035
X13.954 Y10.35 Z-7.04
X13.971 Y10.328 Z-7.045
X13.998 Y10.319 Z-7.05
X14.025 Y10.325 Z-7.055
X14.044 Y10.345 Z-7.06
X14.05 Y10.373 Z-7.065
X14.04 Y10.399 Z-7.07
X14.017 Y10.415 Z-7.075
X13.989 Y10.417 Z-7.08
X13.965 Y10.404 Z-7.085
X13.951 Y10.38 Z-7.09
X13.953 Y10.352 Z-7.095
X13.969 Y10.329 Z-7.1
X13.995 Y10.319 Z-7.105
X14.023 Y10.324 Z-7.11
X14.043 Y10.343 Z-7.115
X14.05 Y10.37 Z-7.12
X14.041 Y10.397 Z-7.125
X14.019 Y10.415 Z-7.13
X13.992 Y10.418 Z-7.135
X13.966 Y10.406 Z-7.14
X13.952 Y10.382 Z-7.145
Y10.354 Z-7.15
X13.968 Y10.331 Z-7.155
X13.993 Y10.319 Z-7.16
X14.021 Y10.323 Z-7.165
X14.042 Y10.341 Z-7.17
X14.05 Y10.368 Z-7.175
X14.042 Y10.395 Z-7.18
X14.021 Y10.414 Z-7.185
X13.994 Y10.418 Z-7.19
X13.968 Y10.407 Z-7.195
X13.952 Y10.384 Z-7.2
G3 X14.048 Y10.353 I0.048 J-0.015
X13.952 Y10.384 I-0.048 J0.015
G0 Z4
X24 Y-0.01
Z2
G1 Z1.5 F400
Z-0.5
Y0.01
Y-0.01
X24.007 Y-0.007 Z-0.501
X24.01 Y0 Z-0.503
X24 Y0.01 Z-0.506
X23.99 Y0 Z-0.508
X24 Y-0.01 Z-0.511
X24.007 Y-0.007 Z-0.513
X24.01 Y0 Z-0.514
X24 Y0.01 Z-0.517
X23.99 Y0 Z-0.519
X24 Y-0.01 Z-0.522
X24.007 Y-0.007 Z-0.524
X24.01 Y0 Z-0.525
X24 Y0.01 Z-0.528
X23.99 Y0 Z-0.53
X24 Y-0.01 Z-0.533
X24.007 Y-0.007 Z-0.535
X24.01 Y0 Z-0.536
X24 Y0.01 Z-0.539
X23.99 Y0 Z-0.542
X24 Y-0.01 Z-0.544
X24.007 Y-0.007 Z-0.546
X24.01 Y0 Z-0.547
X24 Y0.01 Z-0.55
X23.99 Y0 Z-0.553
X24 Y-0.01 Z-0.555
X24.007 Y-0.007 Z-0.557
X24.01 Y0 Z-0.558
X24 Y0.01 Z-0.561
X23.99 Y0 Z-0.564
X24 Y-0.01 Z-0.566
X24.007 Y-0.007 Z-0.568
X24.01 Y0 Z-0.569
X24 Y0.01 Z-0.572
X23.99 Y0 Z-0.575
X24 Y-0.01 Z-0.578
X24.007 Y-0.007 Z-0.579
X24.01 Y0 Z-0.58
X24 Y0.01 Z-0.583
X23.99 Y0 Z-0.586
X24 Y-0.01 Z-0.589
X24.007 Y-0.007 Z-0.59
X24.01 Y0 Z-0.591
X24 Y0.01 Z-0.594
X23.99 Y0 Z-0.597
X24 Y-0.01 Z-0.6
X24.007 Y-0.007 Z-0.601
X24.01 Y0 Z-0.602
X24 Y0.01 Z-0.605
X23.99 Y0 Z-0.608
X24 Y-0.01 Z-0.611
X24.007 Y-0.007 Z-0.612
X24.01 Y0 Z-0.614
X24 Y0.01 Z-0.616
X23.99 Y0 Z-0.619
X24 Y-0.01 Z-0.622
X24.007 Y-0.007 Z-0.623
X24.01 Y0 Z-0.625
X24 Y0.01 Z-0.627
X23.99 Y0 Z-0.63
X24 Y-0.01 Z-0.633
X24.007 Y-0.007 Z-0.634
X24.01 Y0 Z-0.636
X24 Y0.01 Z-0.638
X23.99 Y0 Z-0.641
X24 Y-0.01 Z-0.644
X24.007 Y-0.007 Z-0.645
X24.01 Y0 Z-0.647
X24 Y0.01 Z-0.65
X23.99 Y0 Z-0.652
X24 Y-0.01 Z-0.655
X24.007 Y-0.007 Z-0.657
X24.01 Y0 Z-0.658
X24 Y0.01 Z-0.661
X23.99 Y0 Z-0.663
X24 Y-0.01 Z-0.666
X24.007 Y-0.007 Z-0.668
X24.01 Y0 Z-0.669
X24 Y0.01 Z-0.672
X23.99 Y0 Z-0.674
X24 Y-0.01 Z-0.677
X24.007 Y-0.007 Z-0.679
X24.01 Y0 Z-0.68
X24 Y0.01 Z-0.683
X23.99 Y0 Z-0.686
X24 Y-0.01 Z-0.688
X24.007 Y-0.007 Z-0.69
X24.01 Y0 Z-0.691
X24 Y0.01 Z-0.694
X23.99 Y0 Z-0.697
X24 Y-0.01 Z-0.699
X24.007 Y-0.007 Z-0.701
X24.01 Y0 Z-0.702
X24 Y0.01 Z-0.705
X23.99 Y0 Z-0.708
X24 Y-0.01 Z-0.711
X24.007 Y-0.007 Z-0.712
X24.01 Y0 Z-0.713
X24 Y0.01 Z-0.716
X23.99 Y0 Z-0.719
X24 Y-0.01 Z-0.722
X24.007 Y-0.007 Z-0.723
X24.01 Y0 Z-0.724
X24 Y0.01 Z-0.727
X23.99 Y0 Z-0.73
X24 Y-0.01 Z-0.733
X24.007 Y-0.007 Z-0.734
X24.01 Y0 Z-0.735
X24 Y0.01 Z-0.738
X23.99 Y0 Z-0.741
X24 Y-0.01 Z-0.744
X24.007 Y-0.007 Z-0.745
X24.01 Y0 Z-0.747
X24 Y0.01 Z-0.749
X23.99 Y0 Z-0.752
X24 Y-0.01 Z-0.755
X24.007 Y-0.007 Z-0.756
X24.01 Y0 Z-0.758
X24 Y0.01 Z-0.76
X23.99 Y0 Z-0.763
X24 Y-0.01 Z-0.766
X24.007 Y-0.007 Z-0.767
X24.01 Y0 Z-0.769
X24 Y0.01 Z-0.771
X23.99 Y0 Z-0.774
X24 Y-0.01 Z-0.777
X24.007 Y-0.007 Z-0.778
X24.01 Y0 Z-0.78
X24 Y0.01 Z-0.783
X23.99 Y0 Z-0.785
X24 Y-0.01 Z-0.788
X24.007 Y-0.007 Z-0.789
X24.01 Y0 Z-0.791
X24 Y0.01 Z-0.794
X23.99 Y0 Z-0.796
X24 Y-0.01 Z-0.799
X24.007 Y-0.007 Z-0.801
X24.01 Y0 Z-0.802
X24 Y0.01 Z-0.805
X23.99 Y0 Z-0.807
X24 Y-0.01 Z-0.81
X24.007 Y-0.007 Z-0.812
X24.01 Y0 Z-0.813
X24 Y0.01 Z-0.816
X23.99 Y0 Z-0.819
X24 Y-0.01 Z-0.821
X24.007 Y-0.007 Z-0.823
X24.01 Y0 Z-0.824
X24 Y0.01 Z-0.827
X23.99 Y0 Z-0.83
X24 Y-0.01 Z-0.832
X24.007 Y-0.007 Z-0.834
X24.01 Y0 Z-0.835
X24 Y0.01 Z-0.838
X23.99 Y0 Z-0.841
X24 Y-0.01 Z-0.843
X24.007 Y-0.007 Z-0.845
X24.01 Y0 Z-0.846
X24 Y0.01 Z-0.849
X23.99 Y0 Z-0.852
X24 Y-0.01 Z-0.855
X24.007 Y-0.007 Z-0.856
X24.01 Y0 Z-0.857
X24 Y0.01 Z-0.86
X23.99 Y0 Z-0.863
X24 Y-0.01 Z-0.866
X24.007 Y-0.007 Z-0.867
X24.01 Y0 Z-0.868
X24 Y0.01 Z-0.871
X23.99 Y0 Z-0.874
X24 Y-0.01 Z-0.877
X24.007 Y-0.007 Z-0.878
X24.01 Y0 Z-0.879
X24 Y0.01 Z-0.882
X23.99 Y0 Z-0.885
X24 Y-0.01 Z-0.888
X24.007 Y-0.007 Z-0.889
X24.01 Y0 Z-0.891
X24 Y0.01 Z-0.893
X23.99 Y0 Z-0.896
X24 Y-0.01 Z-0.899
X24.007 Y-0.007 Z-0.9
X24.01 Y0 Z-0.902
X24 Y0.01 Z-0.904
X23.99 Y0 Z-0.907
X24 Y-0.01 Z-0.91
X24.007 Y-0.007 Z-0.911
X24.01 Y0 Z-0.913
X24 Y0.01 Z-0.915
X23.99 Y0 Z-0.918
X24 Y-0.01 Z-0.921
X24.007 Y-0.007 Z-0.922
X24.01 Y0 Z-0.924
X24 Y0.01 Z-0.927
X23.99 Y0 Z-0.929
X24 Y-0.01 Z-0.932
X24.007 Y-0.007 Z-0.934
X24.01 Y0 Z-0.935
X24 Y0.01 Z-0.938
X23.99 Y0 Z-0.94
X24 Y-0.01 Z-0.943
X24.007 Y-0.007 Z-0.945
X24.01 Y0 Z-0.946
X24 Y0.01 Z-0.949
X23.99 Y0 Z-0.951
X24 Y-0.01 Z-0.954
X24.007 Y-0.007 Z-0.956
X24.01 Y0 Z-0.957
X24 Y0.01 Z-0.96
X23.99 Y0 Z-0.963
X24 Y-0.01 Z-0.965
X24.007 Y-0.007 Z-0.967
X24.01 Y0 Z-0.968
X24 Y0.01 Z-0.971
X23.99 Y0 Z-0.974
X24 Y-0.01 Z-0.976
X24.007 Y-0.007 Z-0.978
X24.01 Y0 Z-0.979
X24 Y0.01 Z-0.982
X23.99 Y0 Z-0.985
X24 Y-0.01 Z-0.987
X24.007 Y-0.007 Z-0.989
X24.01 Y0 Z-0.99
X24 Y0.01 Z-0.993
X23.99 Y0 Z-0.996
X24 Y-0.01 Z-0.999
X24.007 Y-0.007 Z-1
X24 Y0.01
Y-0.01
X24.007 Y-0.007
X24.01 Y0 Z-1.001
Y0.001
X24 Y0.01 Z-1.004
X23.99 Y0 Z-1.007
X24 Y-0.01 Z-1.01
X24.007 Y-0.007 Z-1.011
X24.01 Y0 Z-1.012
Y0.001 Z-1.013
X24 Y0.01 Z-1.015
X23.99 Y0 Z-1.018
X24 Y-0.01 Z-1.021
X24.007 Y-0.007 Z-1.022
X24.01 Y0 Z-1.023
Y0.001 Z-1.024
X24 Y0.01 Z-1.026
X23.99 Y0 Z-1.029
X24 Y-0.01 Z-1.032
X24.007 Y-0.007 Z-1.033
X24.01 Y0 Z-1.035
Y0.001
X24 Y0.01 Z-1.037
X23.99 Y0 Z-1.04
X24 Y-0.01 Z-1.043
X24.007 Y-0.007 Z-1.044
X24.01 Y0 Z-1.046
Y0.001
X24 Y0.01 Z-1.048
X23.99 Y0 Z-1.051
X24 Y-0.01 Z-1.054
X24.007 Y-0.007 Z-1.055
X24.01 Y0 Z-1.057
Y0.001
X24 Y0.01 Z-1.059
X23.99 Y0 Z-1.062
X24 Y-0.01 Z-1.065
X24.007 Y-0.007 Z-1.066
X24.01 Y0 Z-1.068
Y0.001
X24 Y0.01 Z-1.071
X23.99 Y0 Z-1.073
X24 Y-0.01 Z-1.076
X24.007 Y-0.007 Z-1.078
X24.01 Y0 Z-1.079
Y0.001
X24 Y0.01 Z-1.082
X23.99 Y0 Z-1.084
X24 Y-0.01 Z-1.087
X24.007 Y-0.007 Z-1.089
X24.01 Y0 Z-1.09
Y0.001
X24 Y0.01 Z-1.093
X23.99 Y0 Z-1.095
X24 Y-0.01 Z-1.098
X24.007 Y-0.007 Z-1.1
X24.01 Y0 Z-1.101
Y0.001
X24 Y0.01 Z-1.104
X23.99 Y0 Z-1.107
X24 Y-0.01 Z-1.109
X24.007 Y-0.007 Z-1.111
X24.01 Y0 Z-1.112
Y0.001
X24 Y0.01 Z-1.115
X23.99 Y0 Z-1.118
X24 Y-0.01 Z-1.12
X24.007 Y-0.007 Z-1.122
X24.01 Y0 Z-1.123
Y0.001
X24 Y0.01 Z-1.126
X23.99 Y0 Z-1.129
X24 Y-0.01 Z-1.132
X24.007 Y-0.007 Z-1.133
X24.01 Y0 Z-1.134
Y0.001
X24 Y0.01 Z-1.137
X23.99 Y0 Z-1.14
X24 Y-0.01 Z-1.143
X24.007 Y-0.007 Z-1.144
X24.01 Y0 Z-1.145
Y0.001
X24 Y0.01 Z-1.148
X23.99 Y0 Z-1.151
X24 Y-0.01 Z-1.154
X24.007 Y-0.007 Z-1.155
X24.01 Y0 Z-1.156
Y0.001 Z-1.157
X24 Y0.01 Z-1.159
X23.99 Y0 Z-1.162
X24 Y-0.01 Z-1.165
X24.007 Y-0.007 Z-1.166
X24.01 Y0 Z-1.168
Y0.001
X24 Y0.01 Z-1.17
X23.99 Y0 Z-1.173
X24 Y-0.01 Z-1.176
X24.007 Y-0.007 Z-1.177
X24.01 Y0 Z-1.179
Y0.001
X24 Y0.01 Z-1.181
X23.99 Y0 Z-1.184
X24 Y-0.01 Z-1.187
X24.007 Y-0.007 Z-1.188
X24.01 Y0 Z-1.19
Y0.001
X24 Y0.01 Z-1.192
X23.99 Y0 Z-1.195
X24 Y-0.01 Z-1.198
X24.007 Y-0.007 Z-1.199
X24.01 Y0 Z-1.201
Y0.001
X24 Y0.01 Z-1.204
X23.99 Y0 Z-1.206
X24 Y-0.01 Z-1.209
X24.007 Y-0.007 Z-1.211
X24.01 Y0 Z-1.212
Y0.001
X24 Y0.01 Z-1.215
X23.99 Y0 Z-1.217
X24 Y-0.01 Z-1.22
X24.007 Y-0.007 Z-1.222
X24.01 Y0 Z-1.223
Y0.001
X24 Y0.01 Z-1.226
X23.99 Y0 Z-1.228
X24 Y-0.01 Z-1.231
X24.007 Y-0.007 Z-1.233
X24.01 Y0 Z-1.234
Y0.001
X24 Y0.01 Z-1.237
X23.99 Y0 Z-1.24
X24 Y-0.01 Z-1.242
X24.007 Y-0.007 Z-1.244
X24.01 Y0 Z-1.245
Y0.001
X24 Y0.01 Z-1.248
X23.99 Y0 Z-1.251
X24 Y-0.01 Z-1.253
X24.007 Y-0.007 Z-1.255
X24.01 Y0 Z-1.256
Y0.001
X24 Y0.01 Z-1.259
X23.99 Y0 Z-1.262
X24 Y-0.01 Z-1.264
X24.007 Y-0.007 Z-1.266
X24.01 Y0 Z-1.267
Y0.001
X24 Y0.01 Z-1.27
X23.99 Y0 Z-1.273
X24 Y-0.01 Z-1.276
X24.007 Y-0.007 Z-1.277
X24.01 Y0 Z-1.278
Y0.001
X24 Y0.01 Z-1.281
X23.99 Y0 Z-1.284
X24 Y-0.01 Z-1.287
X24.007 Y-0.007 Z-1.288
X24.01 Y0 Z-1.289
Y0.001
X24 Y0.01 Z-1.292
X23.99 Y0 Z-1.295
X24 Y-0.01 Z-1.298
X24.007 Y-0.007 Z-1.299
X24.01 Y0 Z-1.3
Y0.001 Z-1.301
X24 Y0.01 Z-1.303
X23.99 Y0 Z-1.306
X24 Y-0.01 Z-1.309
X24.007 Y-0.007 Z-1.31
X24.01 Y0 Z-1.312
Y0.001
X24 Y0.01 Z-1.314
X23.99 Y0 Z-1.317
X24 Y-0.01 Z-1.32
X24.007 Y-0.007 Z-1.321
X24.01 Y0 Z-1.323
Y0.001
X24 Y0.01 Z-1.325
X23.99 Y0 Z-1.328
X24 Y-0.01 Z-1.331
X24.007 Y-0.007 Z-1.332
X24.01 Y0 Z-1.334
Y0.001
X24 Y0.01 Z-1.336
X23.99 Y0 Z-1.339
X24 Y-0.01 Z-1.342
X24.007 Y-0.007 Z-1.343
X24.01 Y0 Z-1.345
Y0.001
X24 Y0.01 Z-1.348
X23.99 Y0 Z-1.35
X24 Y-0.01 Z-1.353
X24.007 Y-0.007 Z-1.355
X24.01 Y0 Z-1.356
Y0.001
X24 Y0.01 Z-1.359
X23.99 Y0 Z-1.361
X24 Y-0.01 Z-1.364
X24.007 Y-0.007 Z-1.366
X24.01 Y0 Z-1.367
Y0.001
X24 Y0.01 Z-1.37
X23.99 Y0 Z-1.372
X24 Y-0.01 Z-1.375
X24.007 Y-0.007 Z-1.377
X24.01 Y0 Z-1.378
Y0.001
X24 Y0.01 Z-1.381
X23.99 Y0 Z-1.384
X24 Y-0.01 Z-1.386
X24.007 Y-0.007 Z-1.388
X24.01 Y0 Z-1.389
Y0.001
X24 Y0.01 Z-1.392
X23.99 Y0 Z-1.395
X24 Y-0.01 Z-1.397
X24.007 Y-0.007 Z-1.399
X24.01 Y0 Z-1.4
Y0.001
X24 Y0.01 Z-1.403
X23.99 Y0 Z-1.406
X24 Y-0.01 Z-1.408
X24.007 Y-0.007 Z-1.41
X24.01 Y0 Z-1.411
Y0.001
X24 Y0.01 Z-1.414
X23.99 Y0 Z-1.417
X24 Y-0.01 Z-1.42
X24.007 Y-0.007 Z-1.421
X24.01 Y0 Z-1.422
Y0.001
X24 Y0.01 Z-1.425
X23.99 Y0 Z-1.428
X24 Y-0.01 Z-1.431
X24.007 Y-0.007 Z-1.432
X24.01 Y0 Z-1.433
Y0.001 Z-1.434
X24 Y0.01 Z-1.436
X23.99 Y0 Z-1.439
X24 Y-0.01 Z-1.442
X24.007 Y-0.007 Z-1.443
X24.01 Y0 Z-1.444
Y0.001 Z-1.445
X24 Y0.01 Z-1.447
X23.99 Y0 Z-1.45
X24 Y-0.01 Z-1.453
X24.007 Y-0.007 Z-1.454
X24.01 Y0 Z-1.456
Y0.001
X24 Y0.01 Z-1.458
X23.99 Y0 Z-1.461
X24 Y-0.01 Z-1.464
X24.007 Y-0.007 Z-1.465
X24.01 Y0 Z-1.467
Y0.001
X24 Y0.01 Z-1.469
X23.99 Y0 Z-1.472
X24 Y-0.01 Z-1.475
X24.007 Y-0.007 Z-1.476
X24.01 Y0 Z-1.478
Y0.001
X24 Y0.01 Z-1.48
X23.99 Y0 Z-1.483
X24 Y-0.01 Z-1.486
X24.007 Y-0.007 Z-1.487
X24.01 Y0 Z-1.489
Y0.001
X24 Y0.01 Z-1.492
X23.99 Y0 Z-1.494
X24 Y-0.01 Z-1.497
X24.007 Y-0.007 Z-1.499
X24.01 Y0 Z-1.5
Y0.001
X23.99 Y0
X24.01
Y0.001
X24.006 Y0.008 Z-1.501
X24 Y0.01 Z-1.503
X23.99 Y0 Z-1.505
X24 Y-0.01 Z-1.508
X24.01 Y0 Z-1.511
Y0.001
X24.006 Y0.008 Z-1.513
X24 Y0.01 Z-1.514
X23.99 Y0 Z-1.516
X24 Y-0.01 Z-1.519
X24.01 Y0 Z-1.522
Y0.001
X24.006 Y0.008 Z-1.524
X24 Y0.01 Z-1.525
X23.99 Y0 Z-1.528
X24 Y-0.01 Z-1.53
X24.01 Y0 Z-1.533
Y0.001
X24.006 Y0.008 Z-1.535
X24 Y0.01 Z-1.536
X23.99 Y0 Z-1.539
X24 Y-0.01 Z-1.541
X24.01 Y0 Z-1.544
Y0.001
X24.006 Y0.008 Z-1.546
X24 Y0.01 Z-1.547
X23.99 Y0 Z-1.55
X24 Y-0.01 Z-1.553
X24.01 Y0 Z-1.555
Y0.001
X24.006 Y0.008 Z-1.557
X24 Y0.01 Z-1.558
X23.99 Y0 Z-1.561
X24 Y-0.01 Z-1.564
X24.01 Y0 Z-1.566
Y0.001
X24.006 Y0.008 Z-1.568
X24 Y0.01 Z-1.569
X23.99 Y0 Z-1.572
X24 Y-0.01 Z-1.575
X24.01 Y0 Z-1.577
Y0.001 Z-1.578
X24.006 Y0.008 Z-1.579
X24 Y0.01 Z-1.58
X23.99 Y0 Z-1.583
X24 Y-0.01 Z-1.586
X24.01 Y0 Z-1.589
Y0.001
X24.006 Y0.008 Z-1.59
X24 Y0.01 Z-1.591
X23.99 Y0 Z-1.594
X24 Y-0.01 Z-1.597
X24.01 Y0 Z-1.6
Y0.001
X24.006 Y0.008 Z-1.601
X24 Y0.01 Z-1.602
X23.99 Y0 Z-1.605
X24 Y-0.01 Z-1.608
X24.01 Y0 Z-1.611
Y0.001
X24.006 Y0.008 Z-1.612
X24 Y0.01 Z-1.613
X23.99 Y0 Z-1.616
X24 Y-0.01 Z-1.619
X24.01 Y0 Z-1.622
Y0.001
X24.006 Y0.008 Z-1.623
X24 Y0.01 Z-1.625
X23.99 Y0 Z-1.627
X24 Y-0.01 Z-1.63
X24.01 Y0 Z-1.633
Y0.001
X24.006 Y0.008 Z-1.634
X24 Y0.01 Z-1.636
X23.99 Y0 Z-1.638
X24 Y-0.01 Z-1.641
X24.01 Y0 Z-1.644
Y0.001
X24.006 Y0.008 Z-1.645
X24 Y0.01 Z-1.647
X23.99 Y0 Z-1.649
X24 Y-0.01 Z-1.652
X24.01 Y0 Z-1.655
Y0.001
X24.006 Y0.008 Z-1.657
X24 Y0.01 Z-1.658
X23.99 Y0 Z-1.661
X24 Y-0.01 Z-1.663
X24.01 Y0 Z-1.666
Y0.001
X24.006 Y0.008 Z-1.668
X24 Y0.01 Z-1.669
X23.99 Y0 Z-1.672
X24 Y-0.01 Z-1.674
X24.01 Y0 Z-1.677
Y0.001
X24.006 Y0.008 Z-1.679
X24 Y0.01 Z-1.68
X23.99 Y0 Z-1.683
X24 Y-0.01 Z-1.685
X24.01 Y0 Z-1.688
Y0.001
X24.006 Y0.008 Z-1.69
X24 Y0.01 Z-1.691
X23.99 Y0 Z-1.694
X24 Y-0.01 Z-1.697
X24.01 Y0 Z-1.699
Y0.001
X24.006 Y0.008 Z-1.701
X24 Y0.01 Z-1.702
X23.99 Y0 Z-1.705
X24 Y-0.01 Z-1.708
X24.01 Y0 Z-1.71
Y0.001 Z-1.711
X24.006 Y0.008 Z-1.712
X24 Y0.01 Z-1.713
X23.99 Y0 Z-1.716
X24 Y-0.01 Z-1.719
X24.01 Y0 Z-1.721
Y0.001 Z-1.722
X24.006 Y0.008 Z-1.723
X24 Y0.01 Z-1.724
X23.99 Y0 Z-1.727
X24 Y-0.01 Z-1.73
X24.01 Y0 Z-1.733
Y0.001
X24.006 Y0.008 Z-1.734
X24 Y0.01 Z-1.735
X23.99 Y0 Z-1.738
X24 Y-0.01 Z-1.741
X24.01 Y0 Z-1.744
Y0.001
X24.006 Y0.008 Z-1.745
X24 Y0.01 Z-1.746
X23.99 Y0 Z-1.749
X24 Y-0.01 Z-1.752
X24.01 Y0 Z-1.755
Y0.001
X24.006 Y0.008 Z-1.756
X24 Y0.01 Z-1.757
X23.99 Y0 Z-1.76
X24 Y-0.01 Z-1.763
X24.01 Y0 Z-1.766
Y0.001
X24.006 Y0.008 Z-1.767
X24 Y0.01 Z-1.769
X23.99 Y0 Z-1.771
X24 Y-0.01 Z-1.774
X24.01 Y0 Z-1.777
Y0.001
X24.006 Y0.008 Z-1.778
X24 Y0.01 Z-1.78
X23.99 Y0 Z-1.782
X24 Y-0.01 Z-1.785
X24.01 Y0 Z-1.788
Y0.001
X24.006 Y0.008 Z-1.789
X24 Y0.01 Z-1.791
X23.99 Y0 Z-1.793
X24 Y-0.01 Z-1.796
X24.01 Y0 Z-1.799
Y0.001
X24.006 Y0.008 Z-1.801
X24 Y0.01 Z-1.802
X23.99 Y0 Z-1.805
X24 Y-0.01 Z-1.807
X24.01 Y0 Z-1.81
Y0.001
X24.006 Y0.008 Z-1.812
X24 Y0.01 Z-1.813
X23.99 Y0 Z-1.816
X24 Y-0.01 Z-1.818
X24.01 Y0 Z-1.821
Y0.001
X24.006 Y0.008 Z-1.823
X24 Y0.01 Z-1.824
X23.99 Y0 Z-1.827
X24 Y-0.01 Z-1.829
X24.01 Y0 Z-1.832
Y0.001
X24.006 Y0.008 Z-1.834
X24 Y0.01 Z-1.835
X23.99 Y0 Z-1.838
X24 Y-0.01 Z-1.841
X24.01 Y0 Z-1.843
Y0.001
X24.006 Y0.008 Z-1.845
X24 Y0.01 Z-1.846
X23.99 Y0 Z-1.849
X24 Y-0.01 Z-1.852
X24.01 Y0 Z-1.854
Y0.001 Z-1.855
X24.006 Y0.008 Z-1.856
X24 Y0.01 Z-1.857
X23.99 Y0 Z-1.86
X24 Y-0.01 Z-1.863
X24.01 Y0 Z-1.865
Y0.001 Z-1.866
X24.006 Y0.008 Z-1.867
X24 Y0.01 Z-1.868
X23.99 Y0 Z-1.871
X24 Y-0.01 Z-1.874
X24.01 Y0 Z-1.877
Y0.001
X24.006 Y0.008 Z-1.878
X24 Y0.01 Z-1.879
X23.99 Y0 Z-1.882
X24 Y-0.01 Z-1.885
X24.01 Y0 Z-1.888
Y0.001
X24.006 Y0.008 Z-1.889
X24 Y0.01 Z-1.89
X23.99 Y0 Z-1.893
X24 Y-0.01 Z-1.896
X24.01 Y0 Z-1.899
Y0.001
X24.006 Y0.008 Z-1.9
X24 Y0.01 Z-1.901
X23.99 Y0 Z-1.904
X24 Y-0.01 Z-1.907
X24.01 Y0 Z-1.91
Y0.001
X24.006 Y0.008 Z-1.911
X24 Y0.01 Z-1.913
X23.99 Y0 Z-1.915
X24 Y-0.01 Z-1.918
X24.01 Y0 Z-1.921
Y0.001
X24.006 Y0.008 Z-1.922
X24 Y0.01 Z-1.924
X23.99 Y0 Z-1.926
X24 Y-0.01 Z-1.929
X24.01 Y0 Z-1.932
Y0.001
X24.006 Y0.008 Z-1.934
X24 Y0.01 Z-1.935
X23.99 Y0 Z-1.937
X24 Y-0.01 Z-1.94
X24.01 Y0 Z-1.943
Y0.001
X24.006 Y0.008 Z-1.945
X24 Y0.01 Z-1.946
X23.99 Y0 Z-1.949
X24 Y-0.01 Z-1.951
X24.01 Y0 Z-1.954
Y0.001
X24.006 Y0.008 Z-1.956
X24 Y0.01 Z-1.957
X23.99 Y0 Z-1.96
X24 Y-0.01 Z-1.962
X24.01 Y0 Z-1.965
Y0.001
X24.006 Y0.008 Z-1.967
X24 Y0.01 Z-1.968
X23.99 Y0 Z-1.971
X24 Y-0.01 Z-1.974
X24.01 Y0 Z-1.976
Y0.001
X24.006 Y0.008 Z-1.978
X24 Y0.01 Z-1.979
X23.99 Y0 Z-1.982
X24 Y-0.01 Z-1.985
X24.01 Y0 Z-1.987
Y0.001
X24.006 Y0.008 Z-1.989
X24 Y0.01 Z-1.99
X23.99 Y0 Z-1.993
X24 Y-0.01 Z-1.996
X24.01 Y0 Z-1.998
Y0.001 Z-1.999
X24.006 Y0.008 Z-2
X23.99 Y0
X24.01
X24.006 Y0.008
X24 Y0.01 Z-2.001
X23.999
X23.99 Y0 Z-2.004
X24 Y-0.01 Z-2.007
X24.01 Y0 Z-2.01
X24.006 Y0.008 Z-2.011
X24 Y0.01 Z-2.012
X23.999 Z-2.013
X23.99 Y0 Z-2.015
X24 Y-0.01 Z-2.018
X24.01 Y0 Z-2.021
X24.006 Y0.008 Z-2.022
X24 Y0.01 Z-2.023
X23.999 Z-2.024
X23.99 Y0 Z-2.026
X24 Y-0.01 Z-2.029
X24.01 Y0 Z-2.032
X24.006 Y0.008 Z-2.033
X24 Y0.01 Z-2.034
X23.999 Z-2.035
X23.99 Y0 Z-2.037
X24 Y-0.01 Z-2.04
X24.01 Y0 Z-2.043
X24.006 Y0.008 Z-2.044
X24 Y0.01 Z-2.046
X23.999
X23.99 Y0 Z-2.048
X24 Y-0.01 Z-2.051
X24.01 Y0 Z-2.054
X24.006 Y0.008 Z-2.055
X24 Y0.01 Z-2.057
X23.999
X23.99 Y0 Z-2.059
X24 Y-0.01 Z-2.062
X24.01 Y0 Z-2.065
X24.006 Y0.008 Z-2.066
X24 Y0.01 Z-2.068
X23.999
X23.99 Y0 Z-2.07
X24 Y-0.01 Z-2.073
X24.01 Y0 Z-2.076
X24.006 Y0.008 Z-2.078
X24 Y0.01 Z-2.079
X23.999
X23.99 Y0 Z-2.082
X24 Y-0.01 Z-2.084
X24.01 Y0 Z-2.087
X24.006 Y0.008 Z-2.089
X24 Y0.01 Z-2.09
X23.999
X23.99 Y0 Z-2.093
X24 Y-0.01 Z-2.095
X24.01 Y0 Z-2.098
X24.006 Y0.008 Z-2.1
X24 Y0.01 Z-2.101
X23.999
X23.99 Y0 Z-2.104
X24 Y-0.01 Z-2.106
X24.01 Y0 Z-2.109
X24.006 Y0.008 Z-2.111
X24 Y0.01 Z-2.112
X23.999
X23.99 Y0 Z-2.115
X24 Y-0.01 Z-2.118
X24.01 Y0 Z-2.12
X24.006 Y0.008 Z-2.122
X24 Y0.01 Z-2.123
X23.999
X23.99 Y0 Z-2.126
X24 Y-0.01 Z-2.129
X24.01 Y0 Z-2.131
X24.006 Y0.008 Z-2.133
X24 Y0.01 Z-2.134
X23.999
X23.99 Y0 Z-2.137
X24 Y-0.01 Z-2.14
X24.01 Y0 Z-2.142
X24.006 Y0.008 Z-2.144
X24 Y0.01 Z-2.145
X23.999
X23.99 Y0 Z-2.148
X24 Y-0.01 Z-2.151
X24.01 Y0 Z-2.154
X24.006 Y0.008 Z-2.155
X24 Y0.01 Z-2.156
X23.999 Z-2.157
X23.99 Y0 Z-2.159
X24 Y-0.01 Z-2.162
X24.01 Y0 Z-2.165
X24.006 Y0.008 Z-2.166
X24 Y0.01 Z-2.167
X23.999 Z-2.168
X23.99 Y0 Z-2.17
X24 Y-0.01 Z-2.173
X24.01 Y0 Z-2.176
X24.006 Y0.008 Z-2.177
X24 Y0.01 Z-2.178
X23.999 Z-2.179
X23.99 Y0 Z-2.181
X24 Y-0.01 Z-2.184
X24.01 Y0 Z-2.187
X24.006 Y0.008 Z-2.188
X24 Y0.01 Z-2.19
X23.999
X23.99 Y0 Z-2.192
X24 Y-0.01 Z-2.195
X24.01 Y0 Z-2.198
X24.006 Y0.008 Z-2.199
X24 Y0.01 Z-2.201
X23.999
X23.99 Y0 Z-2.203
X24 Y-0.01 Z-2.206
X24.01 Y0 Z-2.209
X24.006 Y0.008 Z-2.211
X24 Y0.01 Z-2.212
X23.999
X23.99 Y0 Z-2.214
X24 Y-0.01 Z-2.217
X24.01 Y0 Z-2.22
X24.006 Y0.008 Z-2.222
X24 Y0.01 Z-2.223
X23.999
X23.99 Y0 Z-2.226
X24 Y-0.01 Z-2.228
X24.01 Y0 Z-2.231
X24.006 Y0.008 Z-2.233
X24 Y0.01 Z-2.234
X23.999
X23.99 Y0 Z-2.237
X24 Y-0.01 Z-2.239
X24.01 Y0 Z-2.242
X24.006 Y0.008 Z-2.244
X24 Y0.01 Z-2.245
X23.999
X23.99 Y0 Z-2.248
X24 Y-0.01 Z-2.25
X24.01 Y0 Z-2.253
X24.006 Y0.008 Z-2.255
X24 Y0.01 Z-2.256
X23.999
X23.99 Y0 Z-2.259
X24 Y-0.01 Z-2.262
X24.01 Y0 Z-2.264
X24.006 Y0.008 Z-2.266
X24 Y0.01 Z-2.267
X23.999
X23.99 Y0 Z-2.27
X24 Y-0.01 Z-2.273
X24.01 Y0 Z-2.275
X24.006 Y0.008 Z-2.277
X24 Y0.01 Z-2.278
X23.999
X23.99 Y0 Z-2.281
X24 Y-0.01 Z-2.284
X24.01 Y0 Z-2.286
X24.006 Y0.008 Z-2.288
X24 Y0.01 Z-2.289
X23.999
X23.99 Y0 Z-2.292
X24 Y-0.01 Z-2.295
X24.01 Y0 Z-2.298
X24.006 Y0.008 Z-2.299
X24 Y0.01 Z-2.3
X23.999 Z-2.301
X23.99 Y0 Z-2.303
X24 Y-0.01 Z-2.306
X24.01 Y0 Z-2.309
X24.006 Y0.008 Z-2.31
X24 Y0.01 Z-2.311
X23.999 Z-2.312
X23.99 Y0 Z-2.314
X24 Y-0.01 Z-2.317
X24.01 Y0 Z-2.32
X24.006 Y0.008 Z-2.321
X24 Y0.01 Z-2.322
X23.999 Z-2.323
X23.99 Y0 Z-2.325
X24 Y-0.01 Z-2.328
X24.01 Y0 Z-2.331
X24.006 Y0.008 Z-2.332
X24 Y0.01 Z-2.334
X23.999
X23.99 Y0 Z-2.336
X24 Y-0.01 Z-2.339
X24.01 Y0 Z-2.342
X24.006 Y0.008 Z-2.343
X24 Y0.01 Z-2.345
X23.999
X23.99 Y0 Z-2.347
X24 Y-0.01 Z-2.35
X24.01 Y0 Z-2.353
X24.006 Y0.008 Z-2.355
X24 Y0.01 Z-2.356
X23.999
X23.99 Y0 Z-2.358
X24 Y-0.01 Z-2.361
X24.01 Y0 Z-2.364
X24.006 Y0.008 Z-2.366
X24 Y0.01 Z-2.367
X23.999
X23.99 Y0 Z-2.37
X24 Y-0.01 Z-2.372
X24.01 Y0 Z-2.375
X24.006 Y0.008 Z-2.377
X24 Y0.01 Z-2.378
X23.999
X23.99 Y0 Z-2.381
X24 Y-0.01 Z-2.383
X24.01 Y0 Z-2.386
X24.006 Y0.008 Z-2.388
X24 Y0.01 Z-2.389
X23.999
X23.99 Y0 Z-2.392
X24 Y-0.01 Z-2.395
X24.01 Y0 Z-2.397
X24.006 Y0.008 Z-2.399
X24 Y0.01 Z-2.4
X23.999
X23.99 Y0 Z-2.403
X24 Y-0.01 Z-2.406
X24.01 Y0 Z-2.408
X24.006 Y0.008 Z-2.41
X24 Y0.01 Z-2.411
X23.999
X23.99 Y0 Z-2.414
X24 Y-0.01 Z-2.417
X24.01 Y0 Z-2.419
X24.006 Y0.008 Z-2.421
X24 Y0.01 Z-2.422
X23.999
X23.99 Y0 Z-2.425
X24 Y-0.01 Z-2.428
X24.01 Y0 Z-2.431
X24.006 Y0.008 Z-2.432
X24 Y0.01 Z-2.433
X23.999 Z-2.434
X23.99 Y0 Z-2.436
X24 Y-0.01 Z-2.439
X24.01 Y0 Z-2.442
X24.006 Y0.008 Z-2.443
X24 Y0.01 Z-2.444
X23.999 Z-2.445
X23.99 Y0 Z-2.447
X24 Y-0.01 Z-2.45
X24.01 Y0 Z-2.453
X24.006 Y0.008 Z-2.454
X24 Y0.01 Z-2.455
X23.999 Z-2.456
X23.99 Y0 Z-2.458
X24 Y-0.01 Z-2.461
X24.01 Y0 Z-2.464
X24.006 Y0.008 Z-2.465
X24 Y0.01 Z-2.467
X23.999
X23.99 Y0 Z-2.469
X24 Y-0.01 Z-2.472
X24.01 Y0 Z-2.475
X24.006 Y0.008 Z-2.476
X24 Y0.01 Z-2.478
X23.999
X23.99 Y0 Z-2.48
X24 Y-0.01 Z-2.483
X24.01 Y0 Z-2.486
X24.006 Y0.008 Z-2.487
X24 Y0.01 Z-2.489
X23.999
X23.99 Y0 Z-2.491
X24 Y-0.01 Z-2.494
X24.01 Y0 Z-2.497
X24.006 Y0.008 Z-2.499
X24 Y0.01 Z-2.5
X23.999
X24 Y-0.01
Y0.01
X23.999
X23.992 Y0.006 Z-2.501
X23.99 Y0 Z-2.503
X24 Y-0.01 Z-2.505
X24.01 Y0 Z-2.508
X24 Y0.01 Z-2.511
X23.999
X23.992 Y0.006 Z-2.513
X23.99 Y0 Z-2.514
X24 Y-0.01 Z-2.516
X24.01 Y0 Z-2.519
X24 Y0.01 Z-2.522
X23.999
X23.992 Y0.006 Z-2.524
X23.99 Y0 Z-2.525
X24 Y-0.01 Z-2.527
X24.01 Y0 Z-2.53
X24 Y0.01 Z-2.533
X23.999
X23.992 Y0.006 Z-2.535
X23.99 Y0 Z-2.536
X24 Y-0.01 Z-2.539
X24.01 Y0 Z-2.541
X24 Y0.01 Z-2.544
X23.999
X23.992 Y0.006 Z-2.546
X23.99 Y0 Z-2.547
X24 Y-0.01 Z-2.55
X24.01 Y0 Z-2.552
X24 Y0.01 Z-2.555
X23.999
X23.992 Y0.006 Z-2.557
X23.99 Y0 Z-2.558
X24 Y-0.01 Z-2.561
X24.01 Y0 Z-2.563
X24 Y0.01 Z-2.566
X23.999
X23.992 Y0.006 Z-2.568
X23.99 Y0 Z-2.569
X24 Y-0.01 Z-2.572
X24.01 Y0 Z-2.575
X24 Y0.01 Z-2.577
X23.999 Z-2.578
X23.992 Y0.006 Z-2.579
X23.99 Y0 Z-2.58
X24 Y-0.01 Z-2.583
X24.01 Y0 Z-2.586
X24 Y0.01 Z-2.588
X23.999 Z-2.589
X23.992 Y0.006 Z-2.59
X23.99 Y0 Z-2.591
X24 Y-0.01 Z-2.594
X24.01 Y0 Z-2.597
X24 Y0.01 Z-2.599
X23.999 Z-2.6
X23.992 Y0.006 Z-2.601
X23.99 Y0 Z-2.602
X24 Y-0.01 Z-2.605
X24.01 Y0 Z-2.608
X24 Y0.01 Z-2.611
X23.999
X23.992 Y0.006 Z-2.612
X23.99 Y0 Z-2.613
X24 Y-0.01 Z-2.616
X24.01 Y0 Z-2.619
X24 Y0.01 Z-2.622
X23.999
X23.992 Y0.006 Z-2.623
X23.99 Y0 Z-2.624
X24 Y-0.01 Z-2.627
X24.01 Y0 Z-2.63
X24 Y0.01 Z-2.633
X23.999
X23.992 Y0.006 Z-2.634
X23.99 Y0 Z-2.635
X24 Y-0.01 Z-2.638
X24.01 Y0 Z-2.641
X24 Y0.01 Z-2.644
X23.999
X23.992 Y0.006 Z-2.645
X23.99 Y0 Z-2.647
X24 Y-0.01 Z-2.649
X24.01 Y0 Z-2.652
X24 Y0.01 Z-2.655
X23.999
X23.992 Y0.006 Z-2.657
X23.99 Y0 Z-2.658
X24 Y-0.01 Z-2.66
X24.01 Y0 Z-2.663
X24 Y0.01 Z-2.666
X23.999
X23.992 Y0.006 Z-2.668
X23.99 Y0 Z-2.669
X24 Y-0.01 Z-2.671
X24.01 Y0 Z-2.674
X24 Y0.01 Z-2.677
X23.999
X23.992 Y0.006 Z-2.679
X23.99 Y0 Z-2.68
X24 Y-0.01 Z-2.683
X24.01 Y0 Z-2.685
X24 Y0.01 Z-2.688
X23.999
X23.992 Y0.006 Z-2.69
X23.99 Y0 Z-2.691
X24 Y-0.01 Z-2.694
X24.01 Y0 Z-2.696
X24 Y0.01 Z-2.699
X23.999
X23.992 Y0.006 Z-2.701
X23.99 Y0 Z-2.702
X24 Y-0.01 Z-2.705
X24.01 Y0 Z-2.707
X24 Y0.01 Z-2.71
X23.999 Z-2.711
X23.992 Y0.006 Z-2.712
X23.99 Y0 Z-2.713
X24 Y-0.01 Z-2.716
X24.01 Y0 Z-2.719
X24 Y0.01 Z-2.721
X23.999 Z-2.722
X23.992 Y0.006 Z-2.723
X23.99 Y0 Z-2.724
X24 Y-0.01 Z-2.727
X24.01 Y0 Z-2.73
X24 Y0.01 Z-2.732
X23.999 Z-2.733
X23.992 Y0.006 Z-2.734
X23.99 Y0 Z-2.735
X24 Y-0.01 Z-2.738
X24.01 Y0 Z-2.741
X24 Y0.01 Z-2.743
X23.999 Z-2.744
X23.992 Y0.006 Z-2.745
X23.99 Y0 Z-2.746
X24 Y-0.01 Z-2.749
X24.01 Y0 Z-2.752
X24 Y0.01 Z-2.755
X23.999
X23.992 Y0.006 Z-2.756
X23.99 Y0 Z-2.757
X24 Y-0.01 Z-2.76
X24.01 Y0 Z-2.763
X24 Y0.01 Z-2.766
X23.999
X23.992 Y0.006 Z-2.767
X23.99 Y0 Z-2.768
X24 Y-0.01 Z-2.771
X24.01 Y0 Z-2.774
X24 Y0.01 Z-2.777
X23.999
X23.992 Y0.006 Z-2.778
X23.99 Y0 Z-2.779
X24 Y-0.01 Z-2.782
X24.01 Y0 Z-2.785
X24 Y0.01 Z-2.788
X23.999
X23.992 Y0.006 Z-2.789
X23.99 Y0 Z-2.791
X24 Y-0.01 Z-2.793
X24.01 Y0 Z-2.796
X24 Y0.01 Z-2.799
X23.999
X23.992 Y0.006 Z-2.801
X23.99 Y0 Z-2.802
X24 Y-0.01 Z-2.804
X24.01 Y0 Z-2.807
X24 Y0.01 Z-2.81
X23.999
X23.992 Y0.006 Z-2.812
X23.99 Y0 Z-2.813
X24 Y-0.01 Z-2.816
X24.01 Y0 Z-2.818
X24 Y0.01 Z-2.821
X23.999
X23.992 Y0.006 Z-2.823
X23.99 Y0 Z-2.824
X24 Y-0.01 Z-2.827
X24.01 Y0 Z-2.829
X24 Y0.01 Z-2.832
X23.999
X23.992 Y0.006 Z-2.834
X23.99 Y0 Z-2.835
X24 Y-0.01 Z-2.838
X24.01 Y0 Z-2.84
X24 Y0.01 Z-2.843
X23.999
X23.992 Y0.006 Z-2.845
X23.99 Y0 Z-2.846
X24 Y-0.01 Z-2.849
X24.01 Y0 Z-2.852
X24 Y0.01 Z-2.854
X23.999 Z-2.855
X23.992 Y0.006 Z-2.856
X23.99 Y0 Z-2.857
X24 Y-0.01 Z-2.86
X24.01 Y0 Z-2.863
X24 Y0.01 Z-2.865
X23.999 Z-2.866
X23.992 Y0.006 Z-2.867
X23.99 Y0 Z-2.868
X24 Y-0.01 Z-2.871
X24.01 Y0 Z-2.874
X24 Y0.01 Z-2.876
X23.999 Z-2.877
X23.992 Y0.006 Z-2.878
X23.99 Y0 Z-2.879
X24 Y-0.01 Z-2.882
X24.01 Y0 Z-2.885
X24 Y0.01 Z-2.888
X23.999
X23.992 Y0.006 Z-2.889
X23.99 Y0 Z-2.89
X24 Y-0.01 Z-2.893
X24.01 Y0 Z-2.896
X24 Y0.01 Z-2.899
X23.999
X23.992 Y0.006 Z-2.9
X23.99 Y0 Z-2.901
X24 Y-0.01 Z-2.904
X24.01 Y0 Z-2.907
X24 Y0.01 Z-2.91
X23.999
X23.992 Y0.006 Z-2.911
X23.99 Y0 Z-2.912
X24 Y-0.01 Z-2.915
X24.01 Y0 Z-2.918
X24 Y0.01 Z-2.921
X23.999
X23.992 Y0.006 Z-2.922
X23.99 Y0 Z-2.924
X24 Y-0.01 Z-2.926
X24.01 Y0 Z-2.929
X24 Y0.01 Z-2.932
X23.999
X23.992 Y0.006 Z-2.934
X23.99 Y0 Z-2.935
X24 Y-0.01 Z-2.937
X24.01 Y0 Z-2.94
X24 Y0.01 Z-2.943
X23.999
X23.992 Y0.006 Z-2.945
X23.99 Y0 Z-2.946
X24 Y-0.01 Z-2.948
X24.01 Y0 Z-2.951
X24 Y0.01 Z-2.954
X23.999
X23.992 Y0.006 Z-2.956
X23.99 Y0 Z-2.957
X24 Y-0.01 Z-2.96
X24.01 Y0 Z-2.962
X24 Y0.01 Z-2.965
X23.999
X23.992 Y0.006 Z-2.967
X23.99 Y0 Z-2.968
X24 Y-0.01 Z-2.971
X24.01 Y0 Z-2.973
X24 Y0.01 Z-2.976
X23.999
X23.992 Y0.006 Z-2.978
X23.99 Y0 Z-2.979
X24 Y-0.01 Z-2.982
X24.01 Y0 Z-2.984
X24 Y0.01 Z-2.987
X23.999
X23.992 Y0.006 Z-2.989
X23.99 Y0 Z-2.99
X24 Y-0.01 Z-2.993
X24.01 Y0 Z-2.996
X24 Y0.01 Z-2.998
X23.999 Z-2.999
X23.992 Y0.006 Z-3
X24 Y-0.01
Y0.01
X23.992 Y0.006
X23.99 Y0 Z-3.001
Y-0.002
X24 Y-0.01 Z-3.004
X24.01 Y0 Z-3.007
X24 Y0.01 Z-3.009
X23.992 Y0.006 Z-3.011
X23.99 Y0 Z-3.012
Y-0.002 Z-3.013
X24 Y-0.01 Z-3.015
X24.01 Y0 Z-3.018
X24 Y0.01 Z-3.02
X23.992 Y0.006 Z-3.022
X23.99 Y0 Z-3.023
Y-0.002 Z-3.024
X24 Y-0.01 Z-3.026
X24.01 Y0 Z-3.029
X24 Y0.01 Z-3.032
X23.992 Y0.006 Z-3.033
X23.99 Y0 Z-3.034
Y-0.002 Z-3.035
X24 Y-0.01 Z-3.037
X24.01 Y0 Z-3.04
X24 Y0.01 Z-3.043
X23.992 Y0.006 Z-3.044
X23.99 Y0 Z-3.045
Y-0.002 Z-3.046
X24 Y-0.01 Z-3.048
X24.01 Y0 Z-3.051
X24 Y0.01 Z-3.054
X23.992 Y0.006 Z-3.055
X23.99 Y0 Z-3.056
Y-0.002 Z-3.057
X24 Y-0.01 Z-3.059
X24.01 Y0 Z-3.062
X24 Y0.01 Z-3.065
X23.992 Y0.006 Z-3.066
X23.99 Y0 Z-3.068
Y-0.002
X24 Y-0.01 Z-3.07
X24.01 Y0 Z-3.073
X24 Y0.01 Z-3.076
X23.992 Y0.006 Z-3.078
X23.99 Y0 Z-3.079
Y-0.002
X24 Y-0.01 Z-3.081
X24.01 Y0 Z-3.084
X24 Y0.01 Z-3.087
X23.992 Y0.006 Z-3.089
X23.99 Y0 Z-3.09
Y-0.002
X24 Y-0.01 Z-3.092
X24.01 Y0 Z-3.095
X24 Y0.01 Z-3.098
X23.992 Y0.006 Z-3.1
X23.99 Y0 Z-3.101
Y-0.002
X24 Y-0.01 Z-3.104
X24.01 Y0 Z-3.106
X24 Y0.01 Z-3.109
X23.992 Y0.006 Z-3.111
X23.99 Y0 Z-3.112
Y-0.002
X24 Y-0.01 Z-3.115
X24.01 Y0 Z-3.117
X24 Y0.01 Z-3.12
X23.992 Y0.006 Z-3.122
X23.99 Y0 Z-3.123
Y-0.002
X24 Y-0.01 Z-3.126
X24.01 Y0 Z-3.128
X24 Y0.01 Z-3.131
X23.992 Y0.006 Z-3.133
X23.99 Y0 Z-3.134
Y-0.002
X24 Y-0.01 Z-3.137
X24.01 Y0 Z-3.14
X24 Y0.01 Z-3.142
X23.992 Y0.006 Z-3.144
X23.99 Y0 Z-3.145
Y-0.002
X24 Y-0.01 Z-3.148
X24.01 Y0 Z-3.151
X24 Y0.01 Z-3.153
X23.992 Y0.006 Z-3.155
X23.99 Y0 Z-3.156
Y-0.002 Z-3.157
X24 Y-0.01 Z-3.159
X24.01 Y0 Z-3.162
X24 Y0.01 Z-3.164
X23.992 Y0.006 Z-3.166
X23.99 Y0 Z-3.167
Y-0.002 Z-3.168
X24 Y-0.01 Z-3.17
X24.01 Y0 Z-3.173
X24 Y0.01 Z-3.176
X23.992 Y0.006 Z-3.177
X23.99 Y0 Z-3.178
Y-0.002 Z-3.179
X24 Y-0.01 Z-3.181
X24.01 Y0 Z-3.184
X24 Y0.01 Z-3.187
X23.992 Y0.006 Z-3.188
X23.99 Y0 Z-3.189
Y-0.002 Z-3.19
X24 Y-0.01 Z-3.192
X24.01 Y0 Z-3.195
X24 Y0.01 Z-3.198
X23.992 Y0.006 Z-3.199
X23.99 Y0 Z-3.2
Y-0.002 Z-3.201
X24 Y-0.01 Z-3.203
X24.01 Y0 Z-3.206
X24 Y0.01 Z-3.209
X23.992 Y0.006 Z-3.211
X23.99 Y0 Z-3.212
Y-0.002
X24 Y-0.01 Z-3.214
X24.01 Y0 Z-3.217
X24 Y0.01 Z-3.22
X23.992 Y0.006 Z-3.222
X23.99 Y0 Z-3.223
Y-0.002
X24 Y-0.01 Z-3.225
X24.01 Y0 Z-3.228
X24 Y0.01 Z-3.231
X23.992 Y0.006 Z-3.233
X23.99 Y0 Z-3.234
Y-0.002
X24 Y-0.01 Z-3.237
X24.01 Y0 Z-3.239
X24 Y0.01 Z-3.242
X23.992 Y0.006 Z-3.244
X23.99 Y0 Z-3.245
Y-0.002
X24 Y-0.01 Z-3.248
X24.01 Y0 Z-3.25
X24 Y0.01 Z-3.253
X23.992 Y0.006 Z-3.255
X23.99 Y0 Z-3.256
Y-0.002
X24 Y-0.01 Z-3.259
X24.01 Y0 Z-3.261
X24 Y0.01 Z-3.264
X23.992 Y0.006 Z-3.266
X23.99 Y0 Z-3.267
Y-0.002
X24 Y-0.01 Z-3.27
X24.01 Y0 Z-3.273
X24 Y0.01 Z-3.275
X23.992 Y0.006 Z-3.277
X23.99 Y0 Z-3.278
Y-0.002
X24 Y-0.01 Z-3.281
X24.01 Y0 Z-3.284
X24 Y0.01 Z-3.286
X23.992 Y0.006 Z-3.288
X23.99 Y0 Z-3.289
Y-0.002
X24 Y-0.01 Z-3.292
X24.01 Y0 Z-3.295
X24 Y0.01 Z-3.297
X23.992 Y0.006 Z-3.299
X23.99 Y0 Z-3.3
Y-0.002 Z-3.301
X24 Y-0.01 Z-3.303
X24.01 Y0 Z-3.306
X24 Y0.01 Z-3.309
X23.992 Y0.006 Z-3.31
X23.99 Y0 Z-3.311
Y-0.002 Z-3.312
X24 Y-0.01 Z-3.314
X24.01 Y0 Z-3.317
X24 Y0.01 Z-3.32
X23.992 Y0.006 Z-3.321
X23.99 Y0 Z-3.322
Y-0.002 Z-3.323
X24 Y-0.01 Z-3.325
X24.01 Y0 Z-3.328
X24 Y0.01 Z-3.331
X23.992 Y0.006 Z-3.332
X23.99 Y0 Z-3.333
Y-0.002 Z-3.334
X24 Y-0.01 Z-3.336
X24.01 Y0 Z-3.339
X24 Y0.01 Z-3.342
X23.992 Y0.006 Z-3.343
X23.99 Y0 Z-3.345
Y-0.002
X24 Y-0.01 Z-3.347
X24.01 Y0 Z-3.35
X24 Y0.01 Z-3.353
X23.992 Y0.006 Z-3.355
X23.99 Y0 Z-3.356
Y-0.002
X24 Y-0.01 Z-3.358
X24.01 Y0 Z-3.361
X24 Y0.01 Z-3.364
X23.992 Y0.006 Z-3.366
X23.99 Y0 Z-3.367
Y-0.002
X24 Y-0.01 Z-3.369
X24.01 Y0 Z-3.372
X24 Y0.01 Z-3.375
X23.992 Y0.006 Z-3.377
X23.99 Y0 Z-3.378
Y-0.002
X24 Y-0.01 Z-3.381
X24.01 Y0 Z-3.383
X24 Y0.01 Z-3.386
X23.992 Y0.006 Z-3.388
X23.99 Y0 Z-3.389
Y-0.002
X24 Y-0.01 Z-3.392
X24.01 Y0 Z-3.394
X24 Y0.01 Z-3.397
X23.992 Y0.006 Z-3.399
X23.99 Y0 Z-3.4
Y-0.002
X24 Y-0.01 Z-3.403
X24.01 Y0 Z-3.405
X24 Y0.01 Z-3.408
X23.992 Y0.006 Z-3.41
X23.99 Y0 Z-3.411
Y-0.002
X24 Y-0.01 Z-3.414
X24.01 Y0 Z-3.417
X24 Y0.01 Z-3.419
X23.992 Y0.006 Z-3.421
X23.99 Y0 Z-3.422
Y-0.002
X24 Y-0.01 Z-3.425
X24.01 Y0 Z-3.428
X24 Y0.01 Z-3.43
X23.992 Y0.006 Z-3.432
X23.99 Y0 Z-3.433
Y-0.002 Z-3.434
X24 Y-0.01 Z-3.436
X24.01 Y0 Z-3.439
X24 Y0.01 Z-3.441
X23.992 Y0.006 Z-3.443
X23.99 Y0 Z-3.444
Y-0.002 Z-3.445
X24 Y-0.01 Z-3.447
X24.01 Y0 Z-3.45
X24 Y0.01 Z-3.453
X23.992 Y0.006 Z-3.454
X23.99 Y0 Z-3.455
Y-0.002 Z-3.456
X24 Y-0.01 Z-3.458
X24.01 Y0 Z-3.461
X24 Y0.01 Z-3.464
X23.992 Y0.006 Z-3.465
X23.99 Y0 Z-3.466
Y-0.002 Z-3.467
X24 Y-0.01 Z-3.469
X24.01 Y0 Z-3.472
X24 Y0.01 Z-3.475
X23.992 Y0.006 Z-3.476
X23.99 Y0 Z-3.477
Y-0.002 Z-3.478
X24 Y-0.01 Z-3.48
X24.01 Y0 Z-3.483
X24 Y0.01 Z-3.486
X23.992 Y0.006 Z-3.487
X23.99 Y0 Z-3.489
Y-0.002
X24 Y-0.01 Z-3.491
X24.01 Y0 Z-3.494
X24 Y0.01 Z-3.497
X23.992 Y0.006 Z-3.499
X23.99 Y0 Z-3.5
Y-0.002
X24.01 Y0
X23.99
Y-0.002
X23.995 Y-0.009 Z-3.501
X24 Y-0.01 Z-3.502
X24.01 Y0 Z-3.505
X24 Y0.01 Z-3.508
X23.99 Y0 Z-3.511
Y-0.002
X23.995 Y-0.009 Z-3.513
X24 Y-0.01
X24.01 Y0 Z-3.516
X24 Y0.01 Z-3.519
X23.99 Y0 Z-3.522
Y-0.002
X23.995 Y-0.009 Z-3.524
X24 Y-0.01 Z-3.525
X24.01 Y0 Z-3.527
X24 Y0.01 Z-3.53
X23.99 Y0 Z-3.533
Y-0.002
X23.995 Y-0.009 Z-3.535
X24 Y-0.01 Z-3.536
X24.01 Y0 Z-3.538
X24 Y0.01 Z-3.541
X23.99 Y0 Z-3.544
Y-0.002
X23.995 Y-0.009 Z-3.546
X24 Y-0.01 Z-3.547
X24.01 Y0 Z-3.549
X24 Y0.01 Z-3.552
X23.99 Y0 Z-3.555
Y-0.002
X23.995 Y-0.009 Z-3.557
X24 Y-0.01 Z-3.558
X24.01 Y0 Z-3.561
X24 Y0.01 Z-3.563
X23.99 Y0 Z-3.566
Y-0.002
X23.995 Y-0.009 Z-3.568
X24 Y-0.01 Z-3.569
X24.01 Y0 Z-3.572
X24 Y0.01 Z-3.574
X23.99 Y0 Z-3.577
Y-0.002 Z-3.578
X23.995 Y-0.009 Z-3.579
X24 Y-0.01 Z-3.58
X24.01 Y0 Z-3.583
X24 Y0.01 Z-3.585
X23.99 Y0 Z-3.588
Y-0.002 Z-3.589
X23.995 Y-0.009 Z-3.59
X24 Y-0.01 Z-3.591
X24.01 Y0 Z-3.594
X24 Y0.01 Z-3.597
X23.99 Y0 Z-3.599
Y-0.002 Z-3.6
X23.995 Y-0.009 Z-3.601
X24 Y-0.01 Z-3.602
X24.01 Y0 Z-3.605
X24 Y0.01 Z-3.608
X23.99 Y0 Z-3.61
Y-0.002 Z-3.611
X23.995 Y-0.009 Z-3.612
X24 Y-0.01 Z-3.613
X24.01 Y0 Z-3.616
X24 Y0.01 Z-3.619
X23.99 Y0 Z-3.621
Y-0.002 Z-3.622
X23.995 Y-0.009 Z-3.623
X24 Y-0.01 Z-3.624
X24.01 Y0 Z-3.627
X24 Y0.01 Z-3.63
X23.99 Y0 Z-3.633
Y-0.002
X23.995 Y-0.009 Z-3.634
X24 Y-0.01 Z-3.635
X24.01 Y0 Z-3.638
X24 Y0.01 Z-3.641
X23.99 Y0 Z-3.644
Y-0.002
X23.995 Y-0.009 Z-3.645
X24 Y-0.01 Z-3.646
X24.01 Y0 Z-3.649
X24 Y0.01 Z-3.652
X23.99 Y0 Z-3.655
Y-0.002
X23.995 Y-0.009 Z-3.657
X24 Y-0.01 Z-3.658
X24.01 Y0 Z-3.66
X24 Y0.01 Z-3.663
X23.99 Y0 Z-3.666
Y-0.002
X23.995 Y-0.009 Z-3.668
X24 Y-0.01 Z-3.669
X24.01 Y0 Z-3.671
X24 Y0.01 Z-3.674
X23.99 Y0 Z-3.677
Y-0.002
X23.995 Y-0.009 Z-3.679
X24 Y-0.01 Z-3.68
X24.01 Y0 Z-3.682
X24 Y0.01 Z-3.685
X23.99 Y0 Z-3.688
Y-0.002
X23.995 Y-0.009 Z-3.69
X24 Y-0.01 Z-3.691
X24.01 Y0 Z-3.694
X24 Y0.01 Z-3.696
X23.99 Y0 Z-3.699
Y-0.002
X23.995 Y-0.009 Z-3.701
X24 Y-0.01 Z-3.702
X24.01 Y0 Z-3.705
X24 Y0.01 Z-3.707
X23.99 Y0 Z-3.71
Y-0.002 Z-3.711
X23.995 Y-0.009 Z-3.712
X24 Y-0.01 Z-3.713
X24.01 Y0 Z-3.716
X24 Y0.01 Z-3.718
X23.99 Y0 Z-3.721
Y-0.002 Z-3.722
X23.995 Y-0.009 Z-3.723
X24 Y-0.01 Z-3.724
X24.01 Y0 Z-3.727
X24 Y0.01 Z-3.73
X23.99 Y0 Z-3.732
Y-0.002 Z-3.733
X23.995 Y-0.009 Z-3.734
X24 Y-0.01 Z-3.735
X24.01 Y0 Z-3.738
X24 Y0.01 Z-3.741
X23.99 Y0 Z-3.743
Y-0.002 Z-3.744
X23.995 Y-0.009 Z-3.745
X24 Y-0.01 Z-3.746
X24.01 Y0 Z-3.749
X24 Y0.01 Z-3.752
X23.99 Y0 Z-3.754
Y-0.002 Z-3.755
X23.995 Y-0.009 Z-3.756
X24 Y-0.01 Z-3.757
X24.01 Y0 Z-3.76
X24 Y0.01 Z-3.763
X23.99 Y0 Z-3.766
Y-0.002
X23.995 Y-0.009 Z-3.767
X24 Y-0.01 Z-3.768
X24.01 Y0 Z-3.771
X24 Y0.01 Z-3.774
X23.99 Y0 Z-3.777
Y-0.002
X23.995 Y-0.009 Z-3.778
X24 Y-0.01 Z-3.779
X24.01 Y0 Z-3.782
X24 Y0.01 Z-3.785
X23.99 Y0 Z-3.788
Y-0.002
X23.995 Y-0.009 Z-3.789
X24 Y-0.01 Z-3.79
X24.01 Y0 Z-3.793
X24 Y0.01 Z-3.796
X23.99 Y0 Z-3.799
Y-0.002
X23.995 Y-0.009 Z-3.801
X24 Y-0.01 Z-3.802
X24.01 Y0 Z-3.804
X24 Y0.01 Z-3.807
X23.99 Y0 Z-3.81
Y-0.002
X23.995 Y-0.009 Z-3.812
X24 Y-0.01 Z-3.813
X24.01 Y0 Z-3.815
X24 Y0.01 Z-3.818
X23.99 Y0 Z-3.821
Y-0.002
X23.995 Y-0.009 Z-3.823
X24 Y-0.01 Z-3.824
X24.01 Y0 Z-3.826
X24 Y0.01 Z-3.829
X23.99 Y0 Z-3.832
Y-0.002
X23.995 Y-0.009 Z-3.834
X24 Y-0.01 Z-3.835
X24.01 Y0 Z-3.838
X24 Y0.01 Z-3.84
X23.99 Y0 Z-3.843
Y-0.002
X23.995 Y-0.009 Z-3.845
X24 Y-0.01 Z-3.846
X24.01 Y0 Z-3.849
X24 Y0.01 Z-3.851
X23.99 Y0 Z-3.854
Y-0.002 Z-3.855
X23.995 Y-0.009 Z-3.856
X24 Y-0.01 Z-3.857
X24.01 Y0 Z-3.86
X24 Y0.01 Z-3.862
X23.99 Y0 Z-3.865
Y-0.002 Z-3.866
X23.995 Y-0.009 Z-3.867
X24 Y-0.01 Z-3.868
X24.01 Y0 Z-3.871
X24 Y0.01 Z-3.874
X23.99 Y0 Z-3.876
Y-0.002 Z-3.877
X23.995 Y-0.009 Z-3.878
X24 Y-0.01 Z-3.879
X24.01 Y0 Z-3.882
X24 Y0.01 Z-3.885
X23.99 Y0 Z-3.887
Y-0.002 Z-3.888
X23.995 Y-0.009 Z-3.889
X24 Y-0.01 Z-3.89
X24.01 Y0 Z-3.893
X24 Y0.01 Z-3.896
X23.99 Y0 Z-3.898
Y-0.002 Z-3.899
X23.995 Y-0.009 Z-3.9
X24 Y-0.01 Z-3.901
X24.01 Y0 Z-3.904
X24 Y0.01 Z-3.907
X23.99 Y0 Z-3.91
Y-0.002
X23.995 Y-0.009 Z-3.911
X24 Y-0.01 Z-3.912
X24.01 Y0 Z-3.915
X24 Y0.01 Z-3.918
X23.99 Y0 Z-3.921
Y-0.002
X23.995 Y-0.009 Z-3.922
X24 Y-0.01 Z-3.923
X24.01 Y0 Z-3.926
X24 Y0.01 Z-3.929
X23.99 Y0 Z-3.932
Y-0.002
X23.995 Y-0.009 Z-3.934
X24 Y-0.01
X24.01 Y0 Z-3.937
X24 Y0.01 Z-3.94
X23.99 Y0 Z-3.943
Y-0.002
X23.995 Y-0.009 Z-3.945
X24 Y-0.01 Z-3.946
X24.01 Y0 Z-3.948
X24 Y0.01 Z-3.951
X23.99 Y0 Z-3.954
Y-0.002
X23.995 Y-0.009 Z-3.956
X24 Y-0.01 Z-3.957
X24.01 Y0 Z-3.959
X24 Y0.01 Z-3.962
X23.99 Y0 Z-3.965
Y-0.002
X23.995 Y-0.009 Z-3.967
X24 Y-0.01 Z-3.968
X24.01 Y0 Z-3.97
X24 Y0.01 Z-3.973
X23.99 Y0 Z-3.976
Y-0.002
X23.995 Y-0.009 Z-3.978
X24 Y-0.01 Z-3.979
X24.01 Y0 Z-3.982
X24 Y0.01 Z-3.984
X23.99 Y0 Z-3.987
Y-0.002
X23.995 Y-0.009 Z-3.989
X24 Y-0.01 Z-3.99
X24.01 Y0 Z-3.993
X24 Y0.01 Z-3.995
X23.99 Y0 Z-3.998
Y-0.002 Z-3.999
X23.995 Y-0.009 Z-4
X24.01 Y0
X23.99
X23.995 Y-0.009
X24 Y-0.01 Z-4.001
X24.003
X24.01 Y0 Z-4.004
X24 Y0.01 Z-4.006
X23.99 Y0 Z-4.009
X23.995 Y-0.009 Z-4.011
X24 Y-0.01 Z-4.012
X24.003 Z-4.013
X24.01 Y0 Z-4.015
X24 Y0.01 Z-4.018
X23.99 Y0 Z-4.02
X23.995 Y-0.009 Z-4.022
X24 Y-0.01 Z-4.023
X24.003 Z-4.024
X24.01 Y0 Z-4.026
X24 Y0.01 Z-4.029
X23.99 Y0 Z-4.031
X23.995 Y-0.009 Z-4.033
X24 Y-0.01 Z-4.034
X24.003 Z-4.035
X24.01 Y0 Z-4.037
X24 Y0.01 Z-4.04
X23.99 Y0 Z-4.042
X23.995 Y-0.009 Z-4.044
X24 Y-0.01 Z-4.045
X24.003 Z-4.046
X24.01 Y0 Z-4.048
X24 Y0.01 Z-4.051
X23.99 Y0 Z-4.054
X23.995 Y-0.009 Z-4.055
X24 Y-0.01 Z-4.056
X24.003 Z-4.057
X24.01 Y0 Z-4.059
X24 Y0.01 Z-4.062
X23.99 Y0 Z-4.065
X23.995 Y-0.009 Z-4.066
X24 Y-0.01 Z-4.067
X24.003 Z-4.068
X24.01 Y0 Z-4.07
X24 Y0.01 Z-4.073
X23.99 Y0 Z-4.076
X23.995 Y-0.009 Z-4.078
X24 Y-0.01 Z-4.079
X24.003
X24.01 Y0 Z-4.081
X24 Y0.01 Z-4.084
X23.99 Y0 Z-4.087
X23.995 Y-0.009 Z-4.089
X24 Y-0.01 Z-4.09
X24.003
X24.01 Y0 Z-4.092
X24 Y0.01 Z-4.095
X23.99 Y0 Z-4.098
X23.995 Y-0.009 Z-4.1
X24 Y-0.01 Z-4.101
X24.003
X24.01 Y0 Z-4.103
X24 Y0.01 Z-4.106
X23.99 Y0 Z-4.109
X23.995 Y-0.009 Z-4.111
X24 Y-0.01 Z-4.112
X24.003
X24.01 Y0 Z-4.115
X24 Y0.01 Z-4.117
X23.99 Y0 Z-4.12
X23.995 Y-0.009 Z-4.122
X24 Y-0.01 Z-4.123
X24.003
X24.01 Y0 Z-4.126
X24 Y0.01 Z-4.128
X23.99 Y0 Z-4.131
X23.995 Y-0.009 Z-4.133
X24 Y-0.01 Z-4.134
X24.003
X24.01 Y0 Z-4.137
X24 Y0.01 Z-4.139
X23.99 Y0 Z-4.142
X23.995 Y-0.009 Z-4.144
X24 Y-0.01 Z-4.145
X24.003
X24.01 Y0 Z-4.148
X24 Y0.01 Z-4.151
X23.99 Y0 Z-4.153
X23.995 Y-0.009 Z-4.155
X24 Y-0.01 Z-4.156
X24.003 Z-4.157
X24.01 Y0 Z-4.159
X24 Y0.01 Z-4.162
X23.99 Y0 Z-4.164
X23.995 Y-0.009 Z-4.166
X24 Y-0.01 Z-4.167
X24.003 Z-4.168
X24.01 Y0 Z-4.17
X24 Y0.01 Z-4.173
X23.99 Y0 Z-4.175
X23.995 Y-0.009 Z-4.177
X24 Y-0.01 Z-4.178
X24.003 Z-4.179
X24.01 Y0 Z-4.181
X24 Y0.01 Z-4.184
X23.99 Y0 Z-4.187
X23.995 Y-0.009 Z-4.188
X24 Y-0.01 Z-4.189
X24.003 Z-4.19
X24.01 Y0 Z-4.192
X24 Y0.01 Z-4.195
X23.99 Y0 Z-4.198
X23.995 Y-0.009 Z-4.199
X24 Y-0.01 Z-4.2
X24.003 Z-4.201
X24.01 Y0 Z-4.203
X24 Y0.01 Z-4.206
X23.99 Y0 Z-4.209
X23.995 Y-0.009 Z-4.211
X24 Y-0.01
X24.003 Z-4.212
X24.01 Y0 Z-4.214
X24 Y0.01 Z-4.217
X23.99 Y0 Z-4.22
X23.995 Y-0.009 Z-4.222
X24 Y-0.01 Z-4.223
X24.003
X24.01 Y0 Z-4.225
X24 Y0.01 Z-4.228
X23.99 Y0 Z-4.231
X23.995 Y-0.009 Z-4.233
X24 Y-0.01 Z-4.234
X24.003
X24.01 Y0 Z-4.236
X24 Y0.01 Z-4.239
X23.99 Y0 Z-4.242
X23.995 Y-0.009 Z-4.244
X24 Y-0.01 Z-4.245
X24.003
X24.01 Y0 Z-4.247
X24 Y0.01 Z-4.25
X23.99 Y0 Z-4.253
X23.995 Y-0.009 Z-4.255
X24 Y-0.01 Z-4.256
X24.003
X24.01 Y0 Z-4.259
X24 Y0.01 Z-4.261
X23.99 Y0 Z-4.264
X23.995 Y-0.009 Z-4.266
X24 Y-0.01 Z-4.267
X24.003
X24.01 Y0 Z-4.27
X24 Y0.01 Z-4.272
X23.99 Y0 Z-4.275
X23.995 Y-0.009 Z-4.277
X24 Y-0.01 Z-4.278
X24.003
X24.01 Y0 Z-4.281
X24 Y0.01 Z-4.283
X23.99 Y0 Z-4.286
X23.995 Y-0.009 Z-4.288
X24 Y-0.01 Z-4.289
X24.003
X24.01 Y0 Z-4.292
X24 Y0.01 Z-4.295
X23.99 Y0 Z-4.297
X23.995 Y-0.009 Z-4.299
X24 Y-0.01 Z-4.3
X24.003 Z-4.301
X24.01 Y0 Z-4.303
X24 Y0.01 Z-4.306
X23.99 Y0 Z-4.308
X23.995 Y-0.009 Z-4.31
X24 Y-0.01 Z-4.311
X24.003 Z-4.312
X24.01 Y0 Z-4.314
X24 Y0.01 Z-4.317
X23.99 Y0 Z-4.319
X23.995 Y-0.009 Z-4.321
X24 Y-0.01 Z-4.322
X24.003 Z-4.323
X24.01 Y0 Z-4.325
X24 Y0.01 Z-4.328
X23.99 Y0 Z-4.331
X23.995 Y-0.009 Z-4.332
X24 Y-0.01 Z-4.333
X24.003 Z-4.334
X24.01 Y0 Z-4.336
X24 Y0.01 Z-4.339
X23.99 Y0 Z-4.342
X23.995 Y-0.009 Z-4.343
X24 Y-0.01 Z-4.344
X24.003 Z-4.345
X24.01 Y0 Z-4.347
X24 Y0.01 Z-4.35
X23.99 Y0 Z-4.353
X23.995 Y-0.009 Z-4.355
X24 Y-0.01
X24.003 Z-4.356
X24.01 Y0 Z-4.358
X24 Y0.01 Z-4.361
X23.99 Y0 Z-4.364
X23.995 Y-0.009 Z-4.366
X24 Y-0.01 Z-4.367
X24.003
X24.01 Y0 Z-4.369
X24 Y0.01 Z-4.372
X23.99 Y0 Z-4.375
X23.995 Y-0.009 Z-4.377
X24 Y-0.01 Z-4.378
X24.003
X24.01 Y0 Z-4.38
X24 Y0.01 Z-4.383
X23.99 Y0 Z-4.386
X23.995 Y-0.009 Z-4.388
X24 Y-0.01 Z-4.389
X24.003
X24.01 Y0 Z-4.391
X24 Y0.01 Z-4.394
X23.99 Y0 Z-4.397
X23.995 Y-0.009 Z-4.399
X24 Y-0.01 Z-4.4
X24.003
X24.01 Y0 Z-4.403
X24 Y0.01 Z-4.405
X23.99 Y0 Z-4.408
X23.995 Y-0.009 Z-4.41
X24 Y-0.01 Z-4.411
X24.003
X24.01 Y0 Z-4.414
X24 Y0.01 Z-4.416
X23.99 Y0 Z-4.419
X23.995 Y-0.009 Z-4.421
X24 Y-0.01 Z-4.422
X24.003
X24.01 Y0 Z-4.425
X24 Y0.01 Z-4.427
X23.99 Y0 Z-4.43
X23.995 Y-0.009 Z-4.432
X24 Y-0.01 Z-4.433
X24.003 Z-4.434
X24.01 Y0 Z-4.436
X24 Y0.01 Z-4.439
X23.99 Y0 Z-4.441
X23.995 Y-0.009 Z-4.443
X24 Y-0.01 Z-4.444
X24.003 Z-4.445
X24.01 Y0 Z-4.447
X24 Y0.01 Z-4.45
X23.99 Y0 Z-4.452
X23.995 Y-0.009 Z-4.454
X24 Y-0.01 Z-4.455
X24.003 Z-4.456
X24.01 Y0 Z-4.458
X24 Y0.01 Z-4.461
X23.99 Y0 Z-4.463
X23.995 Y-0.009 Z-4.465
X24 Y-0.01 Z-4.466
X24.003 Z-4.467
X24.01 Y0 Z-4.469
X24 Y0.01 Z-4.472
X23.99 Y0 Z-4.475
X23.995 Y-0.009 Z-4.476
X24 Y-0.01 Z-4.477
X24.003 Z-4.478
X24.01 Y0 Z-4.48
X24 Y0.01 Z-4.483
X23.99 Y0 Z-4.486
X23.995 Y-0.009 Z-4.487
X24 Y-0.01 Z-4.488
X24.003 Z-4.489
X24.01 Y0 Z-4.491
X24 Y0.01 Z-4.494
X23.99 Y0 Z-4.497
X23.995 Y-0.009 Z-4.499
X24 Y-0.01 Z-4.5
X24.003
X24 Y0.01
Y-0.01
X24.003
X24.009 Y-0.005 Z-4.501
X24.01 Y0 Z-4.502
X24 Y0.01 Z-4.505
X23.99 Y0 Z-4.508
X24 Y-0.01 Z-4.511
X24.003
X24.009 Y-0.005 Z-4.513
X24.01 Y0
X24 Y0.01 Z-4.516
X23.99 Y0 Z-4.519
X24 Y-0.01 Z-4.522
X24.003
X24.009 Y-0.005 Z-4.524
X24.01 Y0
X24 Y0.01 Z-4.527
X23.99 Y0 Z-4.53
X24 Y-0.01 Z-4.533
X24.003
X24.009 Y-0.005 Z-4.535
X24.01 Y0 Z-4.536
X24 Y0.01 Z-4.538
X23.99 Y0 Z-4.541
X24 Y-0.01 Z-4.544
X24.003
X24.009 Y-0.005 Z-4.546
X24.01 Y0 Z-4.547
X24 Y0.01 Z-4.549
X23.99 Y0 Z-4.552
X24 Y-0.01 Z-4.555
X24.003
X24.009 Y-0.005 Z-4.557
X24.01 Y0 Z-4.558
X24 Y0.01 Z-4.56
X23.99 Y0 Z-4.563
X24 Y-0.01 Z-4.566
X24.003
X24.009 Y-0.005 Z-4.568
X24.01 Y0 Z-4.569
X24 Y0.01 Z-4.572
X23.99 Y0 Z-4.574
X24 Y-0.01 Z-4.577
X24.003 Z-4.578
X24.009 Y-0.005 Z-4.579
X24.01 Y0 Z-4.58
X24 Y0.01 Z-4.583
X23.99 Y0 Z-4.585
X24 Y-0.01 Z-4.588
X24.003 Z-4.589
X24.009 Y-0.005 Z-4.59
X24.01 Y0 Z-4.591
X24 Y0.01 Z-4.594
X23.99 Y0 Z-4.596
X24 Y-0.01 Z-4.599
X24.003 Z-4.6
X24.009 Y-0.005 Z-4.601
X24.01 Y0 Z-4.602
X24 Y0.01 Z-4.605
X23.99 Y0 Z-4.608
X24 Y-0.01 Z-4.61
X24.003 Z-4.611
X24.009 Y-0.005 Z-4.612
X24.01 Y0 Z-4.613
X24 Y0.01 Z-4.616
X23.99 Y0 Z-4.619
X24 Y-0.01 Z-4.621
X24.003 Z-4.622
X24.009 Y-0.005 Z-4.623
X24.01 Y0 Z-4.624
X24 Y0.01 Z-4.627
X23.99 Y0 Z-4.63
X24 Y-0.01 Z-4.632
X24.003 Z-4.633
X24.009 Y-0.005 Z-4.634
X24.01 Y0 Z-4.635
X24 Y0.01 Z-4.638
X23.99 Y0 Z-4.641
X24 Y-0.01 Z-4.644
X24.003
X24.009 Y-0.005 Z-4.645
X24.01 Y0 Z-4.646
X24 Y0.01 Z-4.649
X23.99 Y0 Z-4.652
X24 Y-0.01 Z-4.655
X24.003
X24.009 Y-0.005 Z-4.657
X24.01 Y0
X24 Y0.01 Z-4.66
X23.99 Y0 Z-4.663
X24 Y-0.01 Z-4.666
X24.003
X24.009 Y-0.005 Z-4.668
X24.01 Y0
X24 Y0.01 Z-4.671
X23.99 Y0 Z-4.674
X24 Y-0.01 Z-4.677
X24.003
X24.009 Y-0.005 Z-4.679
X24.01 Y0 Z-4.68
X24 Y0.01 Z-4.682
X23.99 Y0 Z-4.685
X24 Y-0.01 Z-4.688
X24.003
X24.009 Y-0.005 Z-4.69
X24.01 Y0 Z-4.691
X24 Y0.01 Z-4.693
X23.99 Y0 Z-4.696
X24 Y-0.01 Z-4.699
X24.003
X24.009 Y-0.005 Z-4.701
X24.01 Y0 Z-4.702
X24 Y0.01 Z-4.704
X23.99 Y0 Z-4.707
X24 Y-0.01 Z-4.71
X24.003 Z-4.711
X24.009 Y-0.005 Z-4.712
X24.01 Y0 Z-4.713
X24 Y0.01 Z-4.716
X23.99 Y0 Z-4.718
X24 Y-0.01 Z-4.721
X24.003 Z-4.722
X24.009 Y-0.005 Z-4.723
X24.01 Y0 Z-4.724
X24 Y0.01 Z-4.727
X23.99 Y0 Z-4.729
X24 Y-0.01 Z-4.732
X24.003 Z-4.733
X24.009 Y-0.005 Z-4.734
X24.01 Y0 Z-4.735
X24 Y0.01 Z-4.738
X23.99 Y0 Z-4.74
X24 Y-0.01 Z-4.743
X24.003 Z-4.744
X24.009 Y-0.005 Z-4.745
X24.01 Y0 Z-4.746
X24 Y0.01 Z-4.749
X23.99 Y0 Z-4.752
X24 Y-0.01 Z-4.754
X24.003 Z-4.755
X24.009 Y-0.005 Z-4.756
X24.01 Y0 Z-4.757
X24 Y0.01 Z-4.76
X23.99 Y0 Z-4.763
X24 Y-0.01 Z-4.765
X24.003 Z-4.766
X24.009 Y-0.005 Z-4.767
X24.01 Y0 Z-4.768
X24 Y0.01 Z-4.771
X23.99 Y0 Z-4.774
X24 Y-0.01 Z-4.776
X24.003 Z-4.777
X24.009 Y-0.005 Z-4.778
X24.01 Y0 Z-4.779
X24 Y0.01 Z-4.782
X23.99 Y0 Z-4.785
X24 Y-0.01 Z-4.788
X24.003
X24.009 Y-0.005 Z-4.789
X24.01 Y0 Z-4.79
X24 Y0.01 Z-4.793
X23.99 Y0 Z-4.796
X24 Y-0.01 Z-4.799
X24.003
X24.009 Y-0.005 Z-4.801
X24.01 Y0
X24 Y0.01 Z-4.804
X23.99 Y0 Z-4.807
X24 Y-0.01 Z-4.81
X24.003
X24.009 Y-0.005 Z-4.812
X24.01 Y0
X24 Y0.01 Z-4.815
X23.99 Y0 Z-4.818
X24 Y-0.01 Z-4.821
X24.003
X24.009 Y-0.005 Z-4.823
X24.01 Y0 Z-4.824
X24 Y0.01 Z-4.826
X23.99 Y0 Z-4.829
X24 Y-0.01 Z-4.832
X24.003
X24.009 Y-0.005 Z-4.834
X24.01 Y0 Z-4.835
X24 Y0.01 Z-4.837
X23.99 Y0 Z-4.84
X24 Y-0.01 Z-4.843
X24.003
X24.009 Y-0.005 Z-4.845
X24.01 Y0 Z-4.846
X24 Y0.01 Z-4.848
X23.99 Y0 Z-4.851
X24 Y-0.01 Z-4.854
X24.003 Z-4.855
X24.009 Y-0.005 Z-4.856
X24.01 Y0 Z-4.857
X24 Y0.01 Z-4.86
X23.99 Y0 Z-4.862
X24 Y-0.01 Z-4.865
X24.003 Z-4.866
X24.009 Y-0.005 Z-4.867
X24.01 Y0 Z-4.868
X24 Y0.01 Z-4.871
X23.99 Y0 Z-4.873
X24 Y-0.01 Z-4.876
X24.003 Z-4.877
X24.009 Y-0.005 Z-4.878
X24.01 Y0 Z-4.879
X24 Y0.01 Z-4.882
X23.99 Y0 Z-4.884
X24 Y-0.01 Z-4.887
X24.003 Z-4.888
X24.009 Y-0.005 Z-4.889
X24.01 Y0 Z-4.89
X24 Y0.01 Z-4.893
X23.99 Y0 Z-4.896
X24 Y-0.01 Z-4.898
X24.003 Z-4.899
X24.009 Y-0.005 Z-4.9
X24.01 Y0 Z-4.901
X24 Y0.01 Z-4.904
X23.99 Y0 Z-4.907
X24 Y-0.01 Z-4.909
X24.003 Z-4.91
X24.009 Y-0.005 Z-4.911
X24.01 Y0 Z-4.912
X24 Y0.01 Z-4.915
X23.99 Y0 Z-4.918
X24 Y-0.01 Z-4.921
X24.003
X24.009 Y-0.005 Z-4.922
X24.01 Y0 Z-4.923
X24 Y0.01 Z-4.926
X23.99 Y0 Z-4.929
X24 Y-0.01 Z-4.932
X24.003
X24.009 Y-0.005 Z-4.934
X24.01 Y0
X24 Y0.01 Z-4.937
X23.99 Y0 Z-4.94
X24 Y-0.01 Z-4.943
X24.003
X24.009 Y-0.005 Z-4.945
X24.01 Y0
X24 Y0.01 Z-4.948
X23.99 Y0 Z-4.951
X24 Y-0.01 Z-4.954
X24.003
X24.009 Y-0.005 Z-4.956
X24.01 Y0 Z-4.957
X24 Y0.01 Z-4.959
X23.99 Y0 Z-4.962
X24 Y-0.01 Z-4.965
X24.003
X24.009 Y-0.005 Z-4.967
X24.01 Y0 Z-4.968
X24 Y0.01 Z-4.97
X23.99 Y0 Z-4.973
X24 Y-0.01 Z-4.976
X24.003
X24.009 Y-0.005 Z-4.978
X24.01 Y0 Z-4.979
X24 Y0.01 Z-4.981
X23.99 Y0 Z-4.984
X24 Y-0.01 Z-4.987
X24.003
X24.009 Y-0.005 Z-4.989
X24.01 Y0 Z-4.99
X24 Y0.01 Z-4.993
X23.99 Y0 Z-4.995
X24 Y-0.01 Z-4.998
X24.003 Z-4.999
X24.009 Y-0.005 Z-5
X24 Y0.01
Y-0.01
X24.009 Y-0.005
X24.01 Y0 Z-5.001
X24.009 Y0.003
X24 Y0.01 Z-5.004
X23.99 Y0 Z-5.006
X24 Y-0.01 Z-5.009
X24.009 Y-0.005 Z-5.011
X24.01 Y0 Z-5.012
X24.009 Y0.003 Z-5.013
X24 Y0.01 Z-5.015
X23.99 Y0 Z-5.017
X24 Y-0.01 Z-5.02
X24.009 Y-0.005 Z-5.022
X24.01 Y0 Z-5.023
X24.009 Y0.003 Z-5.024
X24 Y0.01 Z-5.026
X23.99 Y0 Z-5.029
X24 Y-0.01 Z-5.031
X24.009 Y-0.005 Z-5.033
X24.01 Y0 Z-5.034
X24.009 Y0.003 Z-5.035
X24 Y0.01 Z-5.037
X23.99 Y0 Z-5.04
X24 Y-0.01 Z-5.042
X24.009 Y-0.005 Z-5.044
X24.01 Y0 Z-5.045
X24.009 Y0.003 Z-5.046
X24 Y0.01 Z-5.048
X23.99 Y0 Z-5.051
X24 Y-0.01 Z-5.053
X24.009 Y-0.005 Z-5.055
X24.01 Y0 Z-5.056
X24.009 Y0.003 Z-5.057
X24 Y0.01 Z-5.059
X23.99 Y0 Z-5.062
X24 Y-0.01 Z-5.065
X24.009 Y-0.005 Z-5.066
X24.01 Y0 Z-5.067
X24.009 Y0.003 Z-5.068
X24 Y0.01 Z-5.07
X23.99 Y0 Z-5.073
X24 Y-0.01 Z-5.076
X24.009 Y-0.005 Z-5.078
X24.01 Y0
X24.009 Y0.003 Z-5.079
X24 Y0.01 Z-5.081
X23.99 Y0 Z-5.084
X24 Y-0.01 Z-5.087
X24.009 Y-0.005 Z-5.089
X24.01 Y0
X24.009 Y0.003 Z-5.09
X24 Y0.01 Z-5.092
X23.99 Y0 Z-5.095
X24 Y-0.01 Z-5.098
X24.009 Y-0.005 Z-5.1
X24.01 Y0 Z-5.101
X24.009 Y0.003
X24 Y0.01 Z-5.103
X23.99 Y0 Z-5.106
X24 Y-0.01 Z-5.109
X24.009 Y-0.005 Z-5.111
X24.01 Y0 Z-5.112
X24.009 Y0.003
X24 Y0.01 Z-5.114
X23.99 Y0 Z-5.117
X24 Y-0.01 Z-5.12
X24.009 Y-0.005 Z-5.122
X24.01 Y0 Z-5.123
X24.009 Y0.003
X24 Y0.01 Z-5.125
X23.99 Y0 Z-5.128
X24 Y-0.01 Z-5.131
X24.009 Y-0.005 Z-5.133
X24.01 Y0 Z-5.134
X24.009 Y0.003
X24 Y0.01 Z-5.137
X23.99 Y0 Z-5.139
X24 Y-0.01 Z-5.142
X24.009 Y-0.005 Z-5.144
X24.01 Y0 Z-5.145
X24.009 Y0.003
X24 Y0.01 Z-5.148
X23.99 Y0 Z-5.15
X24 Y-0.01 Z-5.153
X24.009 Y-0.005 Z-5.155
X24.01 Y0 Z-5.156
X24.009 Y0.003 Z-5.157
X24 Y0.01 Z-5.159
X23.99 Y0 Z-5.161
X24 Y-0.01 Z-5.164
X24.009 Y-0.005 Z-5.166
X24.01 Y0 Z-5.167
X24.009 Y0.003 Z-5.168
X24 Y0.01 Z-5.17
X23.99 Y0 Z-5.173
X24 Y-0.01 Z-5.175
X24.009 Y-0.005 Z-5.177
X24.01 Y0 Z-5.178
X24.009 Y0.003 Z-5.179
X24 Y0.01 Z-5.181
X23.99 Y0 Z-5.184
X24 Y-0.01 Z-5.186
X24.009 Y-0.005 Z-5.188
X24.01 Y0 Z-5.189
X24.009 Y0.003 Z-5.19
X24 Y0.01 Z-5.192
X23.99 Y0 Z-5.195
X24 Y-0.01 Z-5.197
X24.009 Y-0.005 Z-5.199
X24.01 Y0 Z-5.2
X24.009 Y0.003 Z-5.201
X24 Y0.01 Z-5.203
X23.99 Y0 Z-5.206
X24 Y-0.01 Z-5.209
X24.009 Y-0.005 Z-5.211
X24.01 Y0
X24.009 Y0.003 Z-5.212
X24 Y0.01 Z-5.214
X23.99 Y0 Z-5.217
X24 Y-0.01 Z-5.22
X24.009 Y-0.005 Z-5.222
X24.01 Y0
X24.009 Y0.003 Z-5.223
X24 Y0.01 Z-5.225
X23.99 Y0 Z-5.228
X24 Y-0.01 Z-5.231
X24.009 Y-0.005 Z-5.233
X24.01 Y0
X24.009 Y0.003 Z-5.234
X24 Y0.01 Z-5.236
X23.99 Y0 Z-5.239
X24 Y-0.01 Z-5.242
X24.009 Y-0.005 Z-5.244
X24.01 Y0 Z-5.245
X24.009 Y0.003
X24 Y0.01 Z-5.247
X23.99 Y0 Z-5.25
X24 Y-0.01 Z-5.253
X24.009 Y-0.005 Z-5.255
X24.01 Y0 Z-5.256
X24.009 Y0.003
X24 Y0.01 Z-5.258
X23.99 Y0 Z-5.261
X24 Y-0.01 Z-5.264
X24.009 Y-0.005 Z-5.266
X24.01 Y0 Z-5.267
X24.009 Y0.003
X24 Y0.01 Z-5.269
X23.99 Y0 Z-5.272
X24 Y-0.01 Z-5.275
X24.009 Y-0.005 Z-5.277
X24.01 Y0 Z-5.278
X24.009 Y0.003
X24 Y0.01 Z-5.281
X23.99 Y0 Z-5.283
X24 Y-0.01 Z-5.286
X24.009 Y-0.005 Z-5.288
X24.01 Y0 Z-5.289
X24.009 Y0.003
X24 Y0.01 Z-5.292
X23.99 Y0 Z-5.294
X24 Y-0.01 Z-5.297
X24.009 Y-0.005 Z-5.299
X24.01 Y0 Z-5.3
X24.009 Y0.003 Z-5.301
X24 Y0.01 Z-5.303
X23.99 Y0 Z-5.305
X24 Y-0.01 Z-5.308
X24.009 Y-0.005 Z-5.31
X24.01 Y0 Z-5.311
X24.009 Y0.003 Z-5.312
X24 Y0.01 Z-5.314
X23.99 Y0 Z-5.317
X24 Y-0.01 Z-5.319
X24.009 Y-0.005 Z-5.321
X24.01 Y0 Z-5.322
X24.009 Y0.003 Z-5.323
X24 Y0.01 Z-5.325
X23.99 Y0 Z-5.328
X24 Y-0.01 Z-5.33
X24.009 Y-0.005 Z-5.332
X24.01 Y0 Z-5.333
X24.009 Y0.003 Z-5.334
X24 Y0.01 Z-5.336
X23.99 Y0 Z-5.339
X24 Y-0.01 Z-5.342
X24.009 Y-0.005 Z-5.343
X24.01 Y0 Z-5.344
X24.009 Y0.003 Z-5.345
X24 Y0.01 Z-5.347
X23.99 Y0 Z-5.35
X24 Y-0.01 Z-5.353
X24.009 Y-0.005 Z-5.355
X24.01 Y0
X24.009 Y0.003 Z-5.356
X24 Y0.01 Z-5.358
X23.99 Y0 Z-5.361
X24 Y-0.01 Z-5.364
X24.009 Y-0.005 Z-5.366
X24.01 Y0
X24.009 Y0.003 Z-5.367
X24 Y0.01 Z-5.369
X23.99 Y0 Z-5.372
X24 Y-0.01 Z-5.375
X24.009 Y-0.005 Z-5.377
X24.01 Y0 Z-5.378
X24.009 Y0.003
X24 Y0.01 Z-5.38
X23.99 Y0 Z-5.383
X24 Y-0.01 Z-5.386
X24.009 Y-0.005 Z-5.388
X24.01 Y0 Z-5.389
X24.009 Y0.003
X24 Y0.01 Z-5.391
X23.99 Y0 Z-5.394
X24 Y-0.01 Z-5.397
X24.009 Y-0.005 Z-5.399
X24.01 Y0 Z-5.4
X24.009 Y0.003
X24 Y0.01 Z-5.402
X23.99 Y0 Z-5.405
X24 Y-0.01 Z-5.408
X24.009 Y-0.005 Z-5.41
X24.01 Y0 Z-5.411
X24.009 Y0.003
X24 Y0.01 Z-5.414
X23.99 Y0 Z-5.416
X24 Y-0.01 Z-5.419
X24.009 Y-0.005 Z-5.421
X24.01 Y0 Z-5.422
X24.009 Y0.003
X24 Y0.01 Z-5.425
X23.99 Y0 Z-5.427
X24 Y-0.01 Z-5.43
X24.009 Y-0.005 Z-5.432
X24.01 Y0 Z-5.433
X24.009 Y0.003 Z-5.434
X24 Y0.01 Z-5.436
X23.99 Y0 Z-5.438
X24 Y-0.01 Z-5.441
X24.009 Y-0.005 Z-5.443
X24.01 Y0 Z-5.444
X24.009 Y0.003 Z-5.445
X24 Y0.01 Z-5.447
X23.99 Y0 Z-5.45
X24 Y-0.01 Z-5.452
X24.009 Y-0.005 Z-5.454
X24.01 Y0 Z-5.455
X24.009 Y0.003 Z-5.456
X24 Y0.01 Z-5.458
X23.99 Y0 Z-5.461
X24 Y-0.01 Z-5.463
X24.009 Y-0.005 Z-5.465
X24.01 Y0 Z-5.466
X24.009 Y0.003 Z-5.467
X24 Y0.01 Z-5.469
X23.99 Y0 Z-5.472
X24 Y-0.01 Z-5.474
X24.009 Y-0.005 Z-5.476
X24.01 Y0 Z-5.477
X24.009 Y0.003 Z-5.478
X24 Y0.01 Z-5.48
X23.99 Y0 Z-5.483
X24 Y-0.01 Z-5.486
X24.009 Y-0.005 Z-5.487
X24.01 Y0 Z-5.488
X24.009 Y0.003 Z-5.489
X24 Y0.01 Z-5.491
X23.99 Y0 Z-5.494
X24 Y-0.01 Z-5.497
X24.009 Y-0.005 Z-5.499
X24.01 Y0
X24.009 Y0.003 Z-5.5
X23.99 Y0
X24.01
X24.009 Y0.003
X24.004 Y0.009 Z-5.501
X24 Y0.01 Z-5.502
X23.99 Y0 Z-5.505
X24 Y-0.01 Z-5.508
X24.01 Y0 Z-5.51
X24.009 Y0.003 Z-5.511
X24.004 Y0.009 Z-5.513
X24 Y0.01
X23.99 Y0 Z-5.516
X24 Y-0.01 Z-5.519
X24.01 Y0 Z-5.522
X24.009 Y0.003
X24.004 Y0.009 Z-5.524
X24 Y0.01
X23.99 Y0 Z-5.527
X24 Y-0.01 Z-5.53
X24.01 Y0 Z-5.533
X24.009 Y0.003
X24.004 Y0.009 Z-5.535
X24 Y0.01
X23.99 Y0 Z-5.538
X24 Y-0.01 Z-5.541
X24.01 Y0 Z-5.544
X24.009 Y0.003
X24.004 Y0.009 Z-5.546
X24 Y0.01
X23.99 Y0 Z-5.549
X24 Y-0.01 Z-5.552
X24.01 Y0 Z-5.555
X24.009 Y0.003
X24.004 Y0.009 Z-5.557
X24 Y0.01 Z-5.558
X23.99 Y0 Z-5.56
X24 Y-0.01 Z-5.563
X24.01 Y0 Z-5.566
X24.009 Y0.003
X24.004 Y0.009 Z-5.568
X24 Y0.01 Z-5.569
X23.99 Y0 Z-5.571
X24 Y-0.01 Z-5.574
X24.01 Y0 Z-5.577
X24.009 Y0.003 Z-5.578
X24.004 Y0.009 Z-5.579
X24 Y0.01 Z-5.58
X23.99 Y0 Z-5.582
X24 Y-0.01 Z-5.585
X24.01 Y0 Z-5.588
X24.009 Y0.003 Z-5.589
X24.004 Y0.009 Z-5.59
X24 Y0.01 Z-5.591
X23.99 Y0 Z-5.594
X24 Y-0.01 Z-5.596
X24.01 Y0 Z-5.599
X24.009 Y0.003 Z-5.6
X24.004 Y0.009 Z-5.601
X24 Y0.01 Z-5.602
X23.99 Y0 Z-5.605
X24 Y-0.01 Z-5.607
X24.01 Y0 Z-5.61
X24.009 Y0.003 Z-5.611
X24.004 Y0.009 Z-5.612
X24 Y0.01 Z-5.613
X23.99 Y0 Z-5.616
X24 Y-0.01 Z-5.618
X24.01 Y0 Z-5.621
X24.009 Y0.003 Z-5.622
X24.004 Y0.009 Z-5.623
X24 Y0.01 Z-5.624
X23.99 Y0 Z-5.627
X24 Y-0.01 Z-5.63
X24.01 Y0 Z-5.632
X24.009 Y0.003 Z-5.633
X24.004 Y0.009 Z-5.634
X24 Y0.01 Z-5.635
X23.99 Y0 Z-5.638
X24 Y-0.01 Z-5.641
X24.01 Y0 Z-5.643
X24.009 Y0.003 Z-5.644
X24.004 Y0.009 Z-5.645
X24 Y0.01 Z-5.646
X23.99 Y0 Z-5.649
X24 Y-0.01 Z-5.652
X24.01 Y0 Z-5.654
X24.009 Y0.003 Z-5.655
X24.004 Y0.009 Z-5.657
X24 Y0.01
X23.99 Y0 Z-5.66
X24 Y-0.01 Z-5.663
X24.01 Y0 Z-5.666
X24.009 Y0.003
X24.004 Y0.009 Z-5.668
X24 Y0.01
X23.99 Y0 Z-5.671
X24 Y-0.01 Z-5.674
X24.01 Y0 Z-5.677
X24.009 Y0.003
X24.004 Y0.009 Z-5.679
X24 Y0.01
X23.99 Y0 Z-5.682
X24 Y-0.01 Z-5.685
X24.01 Y0 Z-5.688
X24.009 Y0.003
X24.004 Y0.009 Z-5.69
X24 Y0.01
X23.99 Y0 Z-5.693
X24 Y-0.01 Z-5.696
X24.01 Y0 Z-5.699
X24.009 Y0.003
X24.004 Y0.009 Z-5.701
X24 Y0.01 Z-5.702
X23.99 Y0 Z-5.704
X24 Y-0.01 Z-5.707
X24.01 Y0 Z-5.71
X24.009 Y0.003 Z-5.711
X24.004 Y0.009 Z-5.712
X24 Y0.01 Z-5.713
X23.99 Y0 Z-5.715
X24 Y-0.01 Z-5.718
X24.01 Y0 Z-5.721
X24.009 Y0.003 Z-5.722
X24.004 Y0.009 Z-5.723
X24 Y0.01 Z-5.724
X23.99 Y0 Z-5.726
X24 Y-0.01 Z-5.729
X24.01 Y0 Z-5.732
X24.009 Y0.003 Z-5.733
X24.004 Y0.009 Z-5.734
X24 Y0.01 Z-5.735
X23.99 Y0 Z-5.738
X24 Y-0.01 Z-5.74
X24.01 Y0 Z-5.743
X24.009 Y0.003 Z-5.744
X24.004 Y0.009 Z-5.745
X24 Y0.01 Z-5.746
X23.99 Y0 Z-5.749
X24 Y-0.01 Z-5.751
X24.01 Y0 Z-5.754
X24.009 Y0.003 Z-5.755
X24.004 Y0.009 Z-5.756
X24 Y0.01 Z-5.757
X23.99 Y0 Z-5.76
X24 Y-0.01 Z-5.763
X24.01 Y0 Z-5.765
X24.009 Y0.003 Z-5.766
X24.004 Y0.009 Z-5.767
X24 Y0.01 Z-5.768
X23.99 Y0 Z-5.771
X24 Y-0.01 Z-5.774
X24.01 Y0 Z-5.776
X24.009 Y0.003 Z-5.777
X24.004 Y0.009 Z-5.778
X24 Y0.01 Z-5.779
X23.99 Y0 Z-5.782
X24 Y-0.01 Z-5.785
X24.01 Y0 Z-5.787
X24.009 Y0.003 Z-5.788
X24.004 Y0.009 Z-5.789
X24 Y0.01 Z-5.79
X23.99 Y0 Z-5.793
X24 Y-0.01 Z-5.796
X24.01 Y0 Z-5.799
X24.009 Y0.003
X24.004 Y0.009 Z-5.801
X24 Y0.01
X23.99 Y0 Z-5.804
X24 Y-0.01 Z-5.807
X24.01 Y0 Z-5.81
X24.009 Y0.003
X24.004 Y0.009 Z-5.812
X24 Y0.01
X23.99 Y0 Z-5.815
X24 Y-0.01 Z-5.818
X24.01 Y0 Z-5.821
X24.009 Y0.003
X24.004 Y0.009 Z-5.823
X24 Y0.01
X23.99 Y0 Z-5.826
X24 Y-0.01 Z-5.829
X24.01 Y0 Z-5.832
X24.009 Y0.003
X24.004 Y0.009 Z-5.834
X24 Y0.01 Z-5.835
X23.99 Y0 Z-5.837
X24 Y-0.01 Z-5.84
X24.01 Y0 Z-5.843
X24.009 Y0.003
X24.004 Y0.009 Z-5.845
X24 Y0.01 Z-5.846
X23.99 Y0 Z-5.848
X24 Y-0.01 Z-5.851
X24.01 Y0 Z-5.854
X24.009 Y0.003 Z-5.855
X24.004 Y0.009 Z-5.856
X24 Y0.01 Z-5.857
X23.99 Y0 Z-5.859
X24 Y-0.01 Z-5.862
X24.01 Y0 Z-5.865
X24.009 Y0.003 Z-5.866
X24.004 Y0.009 Z-5.867
X24 Y0.01 Z-5.868
X23.99 Y0 Z-5.871
X24 Y-0.01 Z-5.873
X24.01 Y0 Z-5.876
X24.009 Y0.003 Z-5.877
X24.004 Y0.009 Z-5.878
X24 Y0.01 Z-5.879
X23.99 Y0 Z-5.882
X24 Y-0.01 Z-5.884
X24.01 Y0 Z-5.887
X24.009 Y0.003 Z-5.888
X24.004 Y0.009 Z-5.889
X24 Y0.01 Z-5.89
X23.99 Y0 Z-5.893
X24 Y-0.01 Z-5.895
X24.01 Y0 Z-5.898
X24.009 Y0.003 Z-5.899
X24.004 Y0.009 Z-5.9
X24 Y0.01 Z-5.901
X23.99 Y0 Z-5.904
X24 Y-0.01 Z-5.907
X24.01 Y0 Z-5.909
X24.009 Y0.003 Z-5.91
X24.004 Y0.009 Z-5.911
X24 Y0.01 Z-5.912
X23.99 Y0 Z-5.915
X24 Y-0.01 Z-5.918
X24.01 Y0 Z-5.92
X24.009 Y0.003 Z-5.921
X24.004 Y0.009 Z-5.922
X24 Y0.01 Z-5.923
X23.99 Y0 Z-5.926
X24 Y-0.01 Z-5.929
X24.01 Y0 Z-5.931
X24.009 Y0.003 Z-5.932
X24.004 Y0.009 Z-5.934
X24 Y0.01
X23.99 Y0 Z-5.937
X24 Y-0.01 Z-5.94
X24.01 Y0 Z-5.943
X24.009 Y0.003
X24.004 Y0.009 Z-5.945
X24 Y0.01
X23.99 Y0 Z-5.948
X24 Y-0.01 Z-5.951
X24.01 Y0 Z-5.954
X24.009 Y0.003
X24.004 Y0.009 Z-5.956
X24 Y0.01
X23.99 Y0 Z-5.959
X24 Y-0.01 Z-5.962
X24.01 Y0 Z-5.965
X24.009 Y0.003
X24.004 Y0.009 Z-5.967
X24 Y0.01
X23.99 Y0 Z-5.97
X24 Y-0.01 Z-5.973
X24.01 Y0 Z-5.976
X24.009 Y0.003
X24.004 Y0.009 Z-5.978
X24 Y0.01 Z-5.979
X23.99 Y0 Z-5.981
X24 Y-0.01 Z-5.984
X24.01 Y0 Z-5.987
X24.009 Y0.003
X24.004 Y0.009 Z-5.989
X24 Y0.01 Z-5.99
X23.99 Y0 Z-5.992
X24 Y-0.01 Z-5.995
X24.01 Y0 Z-5.998
X24.009 Y0.003 Z-5.999
X24.004 Y0.009 Z-6
X23.99 Y0
X24.01
X24.004 Y0.009
X24 Y0.01 Z-6.001
X23.996 Y0.009
X23.99 Y0 Z-6.003
X24 Y-0.01 Z-6.006
X24.01 Y0 Z-6.009
X24.004 Y0.009 Z-6.011
X24 Y0.01 Z-6.012
X23.996 Y0.009 Z-6.013
X23.99 Y0 Z-6.015
X24 Y-0.01 Z-6.017
X24.01 Y0 Z-6.02
X24.004 Y0.009 Z-6.022
X24 Y0.01 Z-6.023
X23.996 Y0.009 Z-6.024
X23.99 Y0 Z-6.026
X24 Y-0.01 Z-6.028
X24.01 Y0 Z-6.031
X24.004 Y0.009 Z-6.033
X24 Y0.01 Z-6.034
X23.996 Y0.009 Z-6.035
X23.99 Y0 Z-6.037
X24 Y-0.01 Z-6.039
X24.01 Y0 Z-6.042
X24.004 Y0.009 Z-6.044
X24 Y0.01 Z-6.045
X23.996 Y0.009 Z-6.046
X23.99 Y0 Z-6.048
X24 Y-0.01 Z-6.051
X24.01 Y0 Z-6.053
X24.004 Y0.009 Z-6.055
X24 Y0.01 Z-6.056
X23.996 Y0.009 Z-6.057
X23.99 Y0 Z-6.059
X24 Y-0.01 Z-6.062
X24.01 Y0 Z-6.064
X24.004 Y0.009 Z-6.066
X24 Y0.01 Z-6.067
X23.996 Y0.009 Z-6.068
X23.99 Y0 Z-6.07
X24 Y-0.01 Z-6.073
X24.01 Y0 Z-6.075
X24.004 Y0.009 Z-6.078
X24 Y0.01
X23.996 Y0.009 Z-6.079
X23.99 Y0 Z-6.081
X24 Y-0.01 Z-6.084
X24.01 Y0 Z-6.087
X24.004 Y0.009 Z-6.089
X24 Y0.01
X23.996 Y0.009 Z-6.09
X23.99 Y0 Z-6.092
X24 Y-0.01 Z-6.095
X24.01 Y0 Z-6.098
X24.004 Y0.009 Z-6.1
X24 Y0.01
X23.996 Y0.009 Z-6.101
X23.99 Y0 Z-6.103
X24 Y-0.01 Z-6.106
X24.01 Y0 Z-6.109
X24.004 Y0.009 Z-6.111
X24 Y0.01
X23.996 Y0.009 Z-6.112
X23.99 Y0 Z-6.114
X24 Y-0.01 Z-6.117
X24.01 Y0 Z-6.12
X24.004 Y0.009 Z-6.122
X24 Y0.01 Z-6.123
X23.996 Y0.009
X23.99 Y0 Z-6.125
X24 Y-0.01 Z-6.128
X24.01 Y0 Z-6.131
X24.004 Y0.009 Z-6.133
X24 Y0.01 Z-6.134
X23.996 Y0.009
X23.99 Y0 Z-6.136
X24 Y-0.01 Z-6.139
X24.01 Y0 Z-6.142
X24.004 Y0.009 Z-6.144
X24 Y0.01 Z-6.145
X23.996 Y0.009
X23.99 Y0 Z-6.147
X24 Y-0.01 Z-6.15
X24.01 Y0 Z-6.153
X24.004 Y0.009 Z-6.155
X24 Y0.01 Z-6.156
X23.996 Y0.009 Z-6.157
X23.99 Y0 Z-6.159
X24 Y-0.01 Z-6.161
X24.01 Y0 Z-6.164
X24.004 Y0.009 Z-6.166
X24 Y0.01 Z-6.167
X23.996 Y0.009 Z-6.168
X23.99 Y0 Z-6.17
X24 Y-0.01 Z-6.172
X24.01 Y0 Z-6.175
X24.004 Y0.009 Z-6.177
X24 Y0.01 Z-6.178
X23.996 Y0.009 Z-6.179
X23.99 Y0 Z-6.181
X24 Y-0.01 Z-6.184
X24.01 Y0 Z-6.186
X24.004 Y0.009 Z-6.188
X24 Y0.01 Z-6.189
X23.996 Y0.009 Z-6.19
X23.99 Y0 Z-6.192
X24 Y-0.01 Z-6.195
X24.01 Y0 Z-6.197
X24.004 Y0.009 Z-6.199
X24 Y0.01 Z-6.2
X23.996 Y0.009 Z-6.201
X23.99 Y0 Z-6.203
X24 Y-0.01 Z-6.206
X24.01 Y0 Z-6.208
X24.004 Y0.009 Z-6.211
X24 Y0.01
X23.996 Y0.009 Z-6.212
X23.99 Y0 Z-6.214
X24 Y-0.01 Z-6.217
X24.01 Y0 Z-6.22
X24.004 Y0.009 Z-6.222
X24 Y0.01
X23.996 Y0.009 Z-6.223
X23.99 Y0 Z-6.225
X24 Y-0.01 Z-6.228
