(1001)
(T1  D=1.5 CR=0 - ZMIN=-4.6 - flat end mill)
G90 G94
G17
G21

(2D Pocket1 2)
T1
S5000 M3
G54
M8
G0 X19.886 Y51
Z7
Z3
G1 Z1.8 F400
Z-0.3
G3 X19.608 Y51 I-0.139 J0
X19.886 Y51 I0.139 J0
G1 Z1.5
Z-0.6
G3 X19.608 Y51 I-0.139 J0
X19.886 Y51 I0.139 J0
G1 Z1.2
Z-0.9
G3 X19.608 Y51 I-0.139 J0
X19.886 Y51 I0.139 J0
G1 Z0.9
Z-1.2
G3 X19.608 Y51 I-0.139 J0
X19.886 Y51 I0.139 J0
G1 Z0.6
Z-1.5
G3 X19.608 Y51 I-0.139 J0
X19.886 Y51 I0.139 J0
G1 Z0.3
Z-1.8
G3 X19.608 Y51 I-0.139 J0
X19.886 Y51 I0.139 J0
G1 Z0
Z-2.1
G3 X19.608 Y51 I-0.139 J0
X19.886 Y51 I0.139 J0
G1 Z-0.3
Z-2.4
G3 X19.608 Y51 I-0.139 J0
X19.886 Y51 I0.139 J0
G1 Z-0.6
Z-2.7
G3 X19.608 Y51 I-0.139 J0
X19.886 Y51 I0.139 J0
G1 Z-0.9
Z-3
G3 X19.608 Y51 I-0.139 J0
X19.886 Y51 I0.139 J0
G1 Z-1.2
Z-3.3
G3 X19.608 Y51 I-0.139 J0
X19.886 Y51 I0.139 J0
G1 Z-1.5
Z-3.6
G3 X19.608 Y51 I-0.139 J0
X19.886 Y51 I0.139 J0
G1 Z-1.8
Z-3.9
G3 X19.608 Y51 I-0.139 J0
X19.886 Y51 I0.139 J0
G1 Z-2.1
Z-4.2
G3 X19.608 Y51 I-0.139 J0
X19.886 Y51 I0.139 J0
G0 Z7
X21.226 Y50.963
Z3
G1 Z1.8 F400
Z-0.3
X21.244 Y50.944
X21.269 Y50.936
X21.295 Y50.942
X21.314 Y50.96
X21.321 Y50.985
X21.314 Y51.011
X21.296 Y51.029
X21.27 Y51.036
X21.245 Y51.028
X21.227 Y51.009
X21.215 Y50.986
X21.226 Y50.963
Z1.5
Z-0.6
X21.244 Y50.944
X21.269 Y50.936
X21.295 Y50.942
X21.314 Y50.96
X21.321 Y50.985
X21.314 Y51.011
X21.296 Y51.029
X21.27 Y51.036
X21.245 Y51.028
X21.227 Y51.009
X21.215 Y50.986
X21.226 Y50.963
Z1.2
Z-0.9
X21.244 Y50.944
X21.269 Y50.936
X21.295 Y50.942
X21.314 Y50.96
X21.321 Y50.985
X21.314 Y51.011
X21.296 Y51.029
X21.27 Y51.036
X21.245 Y51.028
X21.227 Y51.009
X21.215 Y50.986
X21.226 Y50.963
Z0.9
Z-1.2
X21.244 Y50.944
X21.269 Y50.936
X21.295 Y50.942
X21.314 Y50.96
X21.321 Y50.985
X21.314 Y51.011
X21.296 Y51.029
X21.27 Y51.036
X21.245 Y51.028
X21.227 Y51.009
X21.215 Y50.986
X21.226 Y50.963
Z0.6
Z-1.5
X21.244 Y50.944
X21.269 Y50.936
X21.295 Y50.942
X21.314 Y50.96
X21.321 Y50.985
X21.314 Y51.011
X21.296 Y51.029
X21.27 Y51.036
X21.245 Y51.028
X21.227 Y51.009
X21.215 Y50.986
X21.226 Y50.963
Z0.3
Z-1.8
X21.244 Y50.944
X21.269 Y50.936
X21.295 Y50.942
X21.314 Y50.96
X21.321 Y50.985
X21.314 Y51.011
X21.296 Y51.029
X21.27 Y51.036
X21.245 Y51.028
X21.227 Y51.009
X21.215 Y50.986
X21.226 Y50.963
Z0
Z-2.1
X21.244 Y50.944
X21.269 Y50.936
X21.295 Y50.942
X21.314 Y50.96
X21.321 Y50.985
X21.314 Y51.011
X21.296 Y51.029
X21.27 Y51.036
X21.245 Y51.028
X21.227 Y51.009
X21.215 Y50.986
X21.226 Y50.963
Z-0.3
Z-2.4
X21.244 Y50.944
X21.269 Y50.936
X21.295 Y50.942
X21.314 Y50.96
X21.321 Y50.985
X21.314 Y51.011
X21.296 Y51.029
X21.27 Y51.036
X21.245 Y51.028
X21.227 Y51.009
X21.215 Y50.986
X21.226 Y50.963
Z-0.6
Z-2.7
X21.244 Y50.944
X21.269 Y50.936
X21.295 Y50.942
X21.314 Y50.96
X21.321 Y50.985
X21.314 Y51.011
X21.296 Y51.029
X21.27 Y51.036
X21.245 Y51.028
X21.227 Y51.009
X21.215 Y50.986
X21.226 Y50.963
Z-0.9
Z-3
X21.244 Y50.944
X21.269 Y50.936
X21.295 Y50.942
X21.314 Y50.96
X21.321 Y50.985
X21.314 Y51.011
X21.296 Y51.029
X21.27 Y51.036
X21.245 Y51.028
X21.227 Y51.009
X21.215 Y50.986
X21.226 Y50.963
Z-1.2
Z-3.3
X21.244 Y50.944
X21.269 Y50.936
X21.295 Y50.942
X21.314 Y50.96
X21.321 Y50.985
X21.314 Y51.011
X21.296 Y51.029
X21.27 Y51.036
X21.245 Y51.028
X21.227 Y51.009
X21.215 Y50.986
X21.226 Y50.963
Z-1.5
Z-3.5
X21.244 Y50.944
X21.269 Y50.936
X21.295 Y50.942
X21.314 Y50.96
X21.321 Y50.985
X21.314 Y51.011
X21.296 Y51.029
X21.27 Y51.036
X21.245 Y51.028
X21.227 Y51.009
X21.215 Y50.986
X21.226 Y50.963
G0 Z7
X19.886 Y48.5
Z3
G1 Z1.8 F400
Z-0.3
G3 X19.608 Y48.5 I-0.139 J0
X19.886 Y48.5 I0.139 J0
G1 Z1.5
Z-0.6
G3 X19.608 Y48.5 I-0.139 J0
X19.886 Y48.5 I0.139 J0
G1 Z1.2
Z-0.9
G3 X19.608 Y48.5 I-0.139 J0
X19.886 Y48.5 I0.139 J0
G1 Z0.9
Z-1.2
G3 X19.608 Y48.5 I-0.139 J0
X19.886 Y48.5 I0.139 J0
G1 Z0.6
Z-1.5
G3 X19.608 Y48.5 I-0.139 J0
X19.886 Y48.5 I0.139 J0
G1 Z0.3
Z-1.8
G3 X19.608 Y48.5 I-0.139 J0
X19.886 Y48.5 I0.139 J0
G1 Z0
Z-2.1
G3 X19.608 Y48.5 I-0.139 J0
X19.886 Y48.5 I0.139 J0
G1 Z-0.3
Z-2.4
G3 X19.608 Y48.5 I-0.139 J0
X19.886 Y48.5 I0.139 J0
G1 Z-0.6
Z-2.7
G3 X19.608 Y48.5 I-0.139 J0
X19.886 Y48.5 I0.139 J0
G1 Z-0.9
Z-3
G3 X19.608 Y48.5 I-0.139 J0
X19.886 Y48.5 I0.139 J0
G1 Z-1.2
Z-3.3
G3 X19.608 Y48.5 I-0.139 J0
X19.886 Y48.5 I0.139 J0
G1 Z-1.5
Z-3.6
G3 X19.608 Y48.5 I-0.139 J0
X19.886 Y48.5 I0.139 J0
G1 Z-1.8
Z-3.9
G3 X19.608 Y48.5 I-0.139 J0
X19.886 Y48.5 I0.139 J0
G1 Z-2.1
Z-4.2
G3 X19.608 Y48.5 I-0.139 J0
X19.886 Y48.5 I0.139 J0
G0 Z7
X21.226 Y48.463
Z3
G1 Z1.8 F400
Z-0.3
X21.244 Y48.444
X21.269 Y48.436
X21.295 Y48.442
X21.314 Y48.46
X21.321 Y48.485
X21.314 Y48.511
X21.296 Y48.529
X21.27 Y48.536
X21.245 Y48.528
X21.227 Y48.509
X21.215 Y48.486
X21.226 Y48.463
Z1.5
Z-0.6
X21.244 Y48.444
X21.269 Y48.436
X21.295 Y48.442
X21.314 Y48.46
X21.321 Y48.485
X21.314 Y48.511
X21.296 Y48.529
X21.27 Y48.536
X21.245 Y48.528
X21.227 Y48.509
X21.215 Y48.486
X21.226 Y48.463
Z1.2
Z-0.9
X21.244 Y48.444
X21.269 Y48.436
X21.295 Y48.442
X21.314 Y48.46
X21.321 Y48.485
X21.314 Y48.511
X21.296 Y48.529
X21.27 Y48.536
X21.245 Y48.528
X21.227 Y48.509
X21.215 Y48.486
X21.226 Y48.463
Z0.9
Z-1.2
X21.244 Y48.444
X21.269 Y48.436
X21.295 Y48.442
X21.314 Y48.46
X21.321 Y48.485
X21.314 Y48.511
X21.296 Y48.529
X21.27 Y48.536
X21.245 Y48.528
X21.227 Y48.509
X21.215 Y48.486
X21.226 Y48.463
Z0.6
Z-1.5
X21.244 Y48.444
X21.269 Y48.436
X21.295 Y48.442
X21.314 Y48.46
X21.321 Y48.485
X21.314 Y48.511
X21.296 Y48.529
X21.27 Y48.536
X21.245 Y48.528
X21.227 Y48.509
X21.215 Y48.486
X21.226 Y48.463
Z0.3
Z-1.8
X21.244 Y48.444
X21.269 Y48.436
X21.295 Y48.442
X21.314 Y48.46
X21.321 Y48.485
X21.314 Y48.511
X21.296 Y48.529
X21.27 Y48.536
X21.245 Y48.528
X21.227 Y48.509
X21.215 Y48.486
X21.226 Y48.463
Z0
Z-2.1
X21.244 Y48.444
X21.269 Y48.436
X21.295 Y48.442
X21.314 Y48.46
X21.321 Y48.485
X21.314 Y48.511
X21.296 Y48.529
X21.27 Y48.536
X21.245 Y48.528
X21.227 Y48.509
X21.215 Y48.486
X21.226 Y48.463
Z-0.3
Z-2.4
X21.244 Y48.444
X21.269 Y48.436
X21.295 Y48.442
X21.314 Y48.46
X21.321 Y48.485
X21.314 Y48.511
X21.296 Y48.529
X21.27 Y48.536
X21.245 Y48.528
X21.227 Y48.509
X21.215 Y48.486
X21.226 Y48.463
Z-0.6
Z-2.7
X21.244 Y48.444
X21.269 Y48.436
X21.295 Y48.442
X21.314 Y48.46
X21.321 Y48.485
X21.314 Y48.511
X21.296 Y48.529
X21.27 Y48.536
X21.245 Y48.528
X21.227 Y48.509
X21.215 Y48.486
X21.226 Y48.463
Z-0.9
Z-3
X21.244 Y48.444
X21.269 Y48.436
X21.295 Y48.442
X21.314 Y48.46
X21.321 Y48.485
X21.314 Y48.511
X21.296 Y48.529
X21.27 Y48.536
X21.245 Y48.528
X21.227 Y48.509
X21.215 Y48.486
X21.226 Y48.463
Z-1.2
Z-3.3
X21.244 Y48.444
X21.269 Y48.436
X21.295 Y48.442
X21.314 Y48.46
X21.321 Y48.485
X21.314 Y48.511
X21.296 Y48.529
X21.27 Y48.536
X21.245 Y48.528
X21.227 Y48.509
X21.215 Y48.486
X21.226 Y48.463
Z-1.5
Z-3.5
X21.244 Y48.444
X21.269 Y48.436
X21.295 Y48.442
X21.314 Y48.46
X21.321 Y48.485
X21.314 Y48.511
X21.296 Y48.529
X21.27 Y48.536
X21.245 Y48.528
X21.227 Y48.509
X21.215 Y48.486
X21.226 Y48.463
G0 Z7
X19.971 Y46
Z3
G1 Z1.8 F400
Z-0.3
G3 X19.523 Y46 I-0.224 J0
X19.971 Y46 I0.224 J0
G1 Z1.5
Z-0.6
G3 X19.523 Y46 I-0.224 J0
X19.971 Y46 I0.224 J0
G1 Z1.2
Z-0.9
G3 X19.523 Y46 I-0.224 J0
X19.971 Y46 I0.224 J0
G1 Z0.9
Z-1.2
G3 X19.523 Y46 I-0.224 J0
X19.971 Y46 I0.224 J0
G1 Z0.6
Z-1.5
G3 X19.523 Y46 I-0.224 J0
X19.971 Y46 I0.224 J0
G1 Z0.3
Z-1.8
G3 X19.523 Y46 I-0.224 J0
X19.971 Y46 I0.224 J0
G1 Z0
Z-2.1
G3 X19.523 Y46 I-0.224 J0
X19.971 Y46 I0.224 J0
G1 Z-0.3
Z-2.4
G3 X19.523 Y46 I-0.224 J0
X19.971 Y46 I0.224 J0
G1 Z-0.6
Z-2.7
G3 X19.523 Y46 I-0.224 J0
X19.971 Y46 I0.224 J0
G1 Z-0.9
Z-3
G3 X19.523 Y46 I-0.224 J0
X19.971 Y46 I0.224 J0
G1 Z-1.2
Z-3.3
G3 X19.523 Y46 I-0.224 J0
X19.971 Y46 I0.224 J0
G1 Z-1.5
Z-3.6
G3 X19.523 Y46 I-0.224 J0
X19.971 Y46 I0.224 J0
G1 Z-1.8
Z-3.9
G3 X19.523 Y46 I-0.224 J0
X19.971 Y46 I0.224 J0
G1 Z-2.1
Z-4.2
G3 X19.523 Y46 I-0.224 J0
X19.971 Y46 I0.224 J0
G0 Z7
X21.23 Y46.014
Z3
G1 Z1.8 F400
Z-0.3
X21.21 Y45.986
X21.229 Y45.958
X21.251 Y45.94
X21.278 Y45.936
X21.304 Y45.948
X21.319 Y45.971
Y45.999
X21.304 Y46.023
X21.279 Y46.035
X21.252 Y46.032
X21.23 Y46.014
Z1.5
Z-0.6
X21.21 Y45.986
X21.229 Y45.958
X21.251 Y45.94
X21.278 Y45.936
X21.304 Y45.948
X21.319 Y45.971
Y45.999
X21.304 Y46.023
X21.279 Y46.035
X21.252 Y46.032
X21.23 Y46.014
Z1.2
Z-0.9
X21.21 Y45.986
X21.229 Y45.958
X21.251 Y45.94
X21.278 Y45.936
X21.304 Y45.948
X21.319 Y45.971
Y45.999
X21.304 Y46.023
X21.279 Y46.035
X21.252 Y46.032
X21.23 Y46.014
Z0.9
Z-1.2
X21.21 Y45.986
X21.229 Y45.958
X21.251 Y45.94
X21.278 Y45.936
X21.304 Y45.948
X21.319 Y45.971
Y45.999
X21.304 Y46.023
X21.279 Y46.035
X21.252 Y46.032
X21.23 Y46.014
Z0.6
Z-1.5
X21.21 Y45.986
X21.229 Y45.958
X21.251 Y45.94
X21.278 Y45.936
X21.304 Y45.948
X21.319 Y45.971
Y45.999
X21.304 Y46.023
X21.279 Y46.035
X21.252 Y46.032
X21.23 Y46.014
Z0.3
Z-1.8
X21.21 Y45.986
X21.229 Y45.958
X21.251 Y45.94
X21.278 Y45.936
X21.304 Y45.948
X21.319 Y45.971
Y45.999
X21.304 Y46.023
X21.279 Y46.035
X21.252 Y46.032
X21.23 Y46.014
Z0
Z-2.1
X21.21 Y45.986
X21.229 Y45.958
X21.251 Y45.94
X21.278 Y45.936
X21.304 Y45.948
X21.319 Y45.971
Y45.999
X21.304 Y46.023
X21.279 Y46.035
X21.252 Y46.032
X21.23 Y46.014
Z-0.3
Z-2.4
X21.21 Y45.986
X21.229 Y45.958
X21.251 Y45.94
X21.278 Y45.936
X21.304 Y45.948
X21.319 Y45.971
Y45.999
X21.304 Y46.023
X21.279 Y46.035
X21.252 Y46.032
X21.23 Y46.014
Z-0.6
Z-2.7
X21.21 Y45.986
X21.229 Y45.958
X21.251 Y45.94
X21.278 Y45.936
X21.304 Y45.948
X21.319 Y45.971
Y45.999
X21.304 Y46.023
X21.279 Y46.035
X21.252 Y46.032
X21.23 Y46.014
Z-0.9
Z-3
X21.21 Y45.986
X21.229 Y45.958
X21.251 Y45.94
X21.278 Y45.936
X21.304 Y45.948
X21.319 Y45.971
Y45.999
X21.304 Y46.023
X21.279 Y46.035
X21.252 Y46.032
X21.23 Y46.014
Z-1.2
Z-3.3
X21.21 Y45.986
X21.229 Y45.958
X21.251 Y45.94
X21.278 Y45.936
X21.304 Y45.948
X21.319 Y45.971
Y45.999
X21.304 Y46.023
X21.279 Y46.035
X21.252 Y46.032
X21.23 Y46.014
Z-1.5
Z-3.5
X21.21 Y45.986
X21.229 Y45.958
X21.251 Y45.94
X21.278 Y45.936
X21.304 Y45.948
X21.319 Y45.971
Y45.999
X21.304 Y46.023
X21.279 Y46.035
X21.252 Y46.032
X21.23 Y46.014
G0 Z7
X19.971 Y43.5
Z3
G1 Z1.8 F400
Z-0.3
G3 X19.523 Y43.5 I-0.224 J0
X19.971 Y43.5 I0.224 J0
G1 Z1.5
Z-0.6
G3 X19.523 Y43.5 I-0.224 J0
X19.971 Y43.5 I0.224 J0
G1 Z1.2
Z-0.9
G3 X19.523 Y43.5 I-0.224 J0
X19.971 Y43.5 I0.224 J0
G1 Z0.9
Z-1.2
G3 X19.523 Y43.5 I-0.224 J0
X19.971 Y43.5 I0.224 J0
G1 Z0.6
Z-1.5
G3 X19.523 Y43.5 I-0.224 J0
X19.971 Y43.5 I0.224 J0
G1 Z0.3
Z-1.8
G3 X19.523 Y43.5 I-0.224 J0
X19.971 Y43.5 I0.224 J0
G1 Z0
Z-2.1
G3 X19.523 Y43.5 I-0.224 J0
X19.971 Y43.5 I0.224 J0
G1 Z-0.3
Z-2.4
G3 X19.523 Y43.5 I-0.224 J0
X19.971 Y43.5 I0.224 J0
G1 Z-0.6
Z-2.7
G3 X19.523 Y43.5 I-0.224 J0
X19.971 Y43.5 I0.224 J0
G1 Z-0.9
Z-3
G3 X19.523 Y43.5 I-0.224 J0
X19.971 Y43.5 I0.224 J0
G1 Z-1.2
Z-3.3
G3 X19.523 Y43.5 I-0.224 J0
X19.971 Y43.5 I0.224 J0
G1 Z-1.5
Z-3.6
G3 X19.523 Y43.5 I-0.224 J0
X19.971 Y43.5 I0.224 J0
G1 Z-1.8
Z-3.9
G3 X19.523 Y43.5 I-0.224 J0
X19.971 Y43.5 I0.224 J0
G1 Z-2.1
Z-4.2
G3 X19.523 Y43.5 I-0.224 J0
X19.971 Y43.5 I0.224 J0
G0 Z7
X21.23 Y43.514
Z3
G1 Z1.8 F400
Z-0.3
X21.21 Y43.486
X21.229 Y43.458
X21.251 Y43.44
X21.278 Y43.436
X21.304 Y43.448
X21.319 Y43.471
Y43.499
X21.304 Y43.523
X21.279 Y43.535
X21.252 Y43.532
X21.23 Y43.514
Z1.5
Z-0.6
X21.21 Y43.486
X21.229 Y43.458
X21.251 Y43.44
X21.278 Y43.436
X21.304 Y43.448
X21.319 Y43.471
Y43.499
X21.304 Y43.523
X21.279 Y43.535
X21.252 Y43.532
X21.23 Y43.514
Z1.2
Z-0.9
X21.21 Y43.486
X21.229 Y43.458
X21.251 Y43.44
X21.278 Y43.436
X21.304 Y43.448
X21.319 Y43.471
Y43.499
X21.304 Y43.523
X21.279 Y43.535
X21.252 Y43.532
X21.23 Y43.514
Z0.9
Z-1.2
X21.21 Y43.486
X21.229 Y43.458
X21.251 Y43.44
X21.278 Y43.436
X21.304 Y43.448
X21.319 Y43.471
Y43.499
X21.304 Y43.523
X21.279 Y43.535
X21.252 Y43.532
X21.23 Y43.514
Z0.6
Z-1.5
X21.21 Y43.486
X21.229 Y43.458
X21.251 Y43.44
X21.278 Y43.436
X21.304 Y43.448
X21.319 Y43.471
Y43.499
X21.304 Y43.523
X21.279 Y43.535
X21.252 Y43.532
X21.23 Y43.514
Z0.3
Z-1.8
X21.21 Y43.486
X21.229 Y43.458
X21.251 Y43.44
X21.278 Y43.436
X21.304 Y43.448
X21.319 Y43.471
Y43.499
X21.304 Y43.523
X21.279 Y43.535
X21.252 Y43.532
X21.23 Y43.514
Z0
Z-2.1
X21.21 Y43.486
X21.229 Y43.458
X21.251 Y43.44
X21.278 Y43.436
X21.304 Y43.448
X21.319 Y43.471
Y43.499
X21.304 Y43.523
X21.279 Y43.535
X21.252 Y43.532
X21.23 Y43.514
Z-0.3
Z-2.4
X21.21 Y43.486
X21.229 Y43.458
X21.251 Y43.44
X21.278 Y43.436
X21.304 Y43.448
X21.319 Y43.471
Y43.499
X21.304 Y43.523
X21.279 Y43.535
X21.252 Y43.532
X21.23 Y43.514
Z-0.6
Z-2.7
X21.21 Y43.486
X21.229 Y43.458
X21.251 Y43.44
X21.278 Y43.436
X21.304 Y43.448
X21.319 Y43.471
Y43.499
X21.304 Y43.523
X21.279 Y43.535
X21.252 Y43.532
X21.23 Y43.514
Z-0.9
Z-3
X21.21 Y43.486
X21.229 Y43.458
X21.251 Y43.44
X21.278 Y43.436
X21.304 Y43.448
X21.319 Y43.471
Y43.499
X21.304 Y43.523
X21.279 Y43.535
X21.252 Y43.532
X21.23 Y43.514
Z-1.2
Z-3.3
X21.21 Y43.486
X21.229 Y43.458
X21.251 Y43.44
X21.278 Y43.436
X21.304 Y43.448
X21.319 Y43.471
Y43.499
X21.304 Y43.523
X21.279 Y43.535
X21.252 Y43.532
X21.23 Y43.514
Z-1.5
Z-3.5
X21.21 Y43.486
X21.229 Y43.458
X21.251 Y43.44
X21.278 Y43.436
X21.304 Y43.448
X21.319 Y43.471
Y43.499
X21.304 Y43.523
X21.279 Y43.535
X21.252 Y43.532
X21.23 Y43.514
G0 Z7
X19.886 Y41
Z3
G1 Z1.8 F400
Z-0.3
G3 X19.608 Y41 I-0.139 J0
X19.886 Y41 I0.139 J0
G1 Z1.5
Z-0.6
G3 X19.608 Y41 I-0.139 J0
X19.886 Y41 I0.139 J0
G1 Z1.2
Z-0.9
G3 X19.608 Y41 I-0.139 J0
X19.886 Y41 I0.139 J0
G1 Z0.9
Z-1.2
G3 X19.608 Y41 I-0.139 J0
X19.886 Y41 I0.139 J0
G1 Z0.6
Z-1.5
G3 X19.608 Y41 I-0.139 J0
X19.886 Y41 I0.139 J0
G1 Z0.3
Z-1.8
G3 X19.608 Y41 I-0.139 J0
X19.886 Y41 I0.139 J0
G1 Z0
Z-2.1
G3 X19.608 Y41 I-0.139 J0
X19.886 Y41 I0.139 J0
G1 Z-0.3
Z-2.4
G3 X19.608 Y41 I-0.139 J0
X19.886 Y41 I0.139 J0
G1 Z-0.6
Z-2.7
G3 X19.608 Y41 I-0.139 J0
X19.886 Y41 I0.139 J0
G1 Z-0.9
Z-3
G3 X19.608 Y41 I-0.139 J0
X19.886 Y41 I0.139 J0
G1 Z-1.2
Z-3.3
G3 X19.608 Y41 I-0.139 J0
X19.886 Y41 I0.139 J0
G1 Z-1.5
Z-3.6
G3 X19.608 Y41 I-0.139 J0
X19.886 Y41 I0.139 J0
G1 Z-1.8
Z-3.9
G3 X19.608 Y41 I-0.139 J0
X19.886 Y41 I0.139 J0
G1 Z-2.1
Z-4.2
G3 X19.608 Y41 I-0.139 J0
X19.886 Y41 I0.139 J0
G0 Z7
X21.226 Y40.963
Z3
G1 Z1.8 F400
Z-0.3
X21.244 Y40.944
X21.269 Y40.936
X21.295 Y40.942
X21.314 Y40.96
X21.321 Y40.985
X21.314 Y41.011
X21.296 Y41.029
X21.27 Y41.036
X21.245 Y41.028
X21.227 Y41.009
X21.215 Y40.986
X21.226 Y40.963
Z1.5
Z-0.6
X21.244 Y40.944
X21.269 Y40.936
X21.295 Y40.942
X21.314 Y40.96
X21.321 Y40.985
X21.314 Y41.011
X21.296 Y41.029
X21.27 Y41.036
X21.245 Y41.028
X21.227 Y41.009
X21.215 Y40.986
X21.226 Y40.963
Z1.2
Z-0.9
X21.244 Y40.944
X21.269 Y40.936
X21.295 Y40.942
X21.314 Y40.96
X21.321 Y40.985
X21.314 Y41.011
X21.296 Y41.029
X21.27 Y41.036
X21.245 Y41.028
X21.227 Y41.009
X21.215 Y40.986
X21.226 Y40.963
Z0.9
Z-1.2
X21.244 Y40.944
X21.269 Y40.936
X21.295 Y40.942
X21.314 Y40.96
X21.321 Y40.985
X21.314 Y41.011
X21.296 Y41.029
X21.27 Y41.036
X21.245 Y41.028
X21.227 Y41.009
X21.215 Y40.986
X21.226 Y40.963
Z0.6
Z-1.5
X21.244 Y40.944
X21.269 Y40.936
X21.295 Y40.942
X21.314 Y40.96
X21.321 Y40.985
X21.314 Y41.011
X21.296 Y41.029
X21.27 Y41.036
X21.245 Y41.028
X21.227 Y41.009
X21.215 Y40.986
X21.226 Y40.963
Z0.3
Z-1.8
X21.244 Y40.944
X21.269 Y40.936
X21.295 Y40.942
X21.314 Y40.96
X21.321 Y40.985
X21.314 Y41.011
X21.296 Y41.029
X21.27 Y41.036
X21.245 Y41.028
X21.227 Y41.009
X21.215 Y40.986
X21.226 Y40.963
Z0
Z-2.1
X21.244 Y40.944
X21.269 Y40.936
X21.295 Y40.942
X21.314 Y40.96
X21.321 Y40.985
X21.314 Y41.011
X21.296 Y41.029
X21.27 Y41.036
X21.245 Y41.028
X21.227 Y41.009
X21.215 Y40.986
X21.226 Y40.963
Z-0.3
Z-2.4
X21.244 Y40.944
X21.269 Y40.936
X21.295 Y40.942
X21.314 Y40.96
X21.321 Y40.985
X21.314 Y41.011
X21.296 Y41.029
X21.27 Y41.036
X21.245 Y41.028
X21.227 Y41.009
X21.215 Y40.986
X21.226 Y40.963
Z-0.6
Z-2.7
X21.244 Y40.944
X21.269 Y40.936
X21.295 Y40.942
X21.314 Y40.96
X21.321 Y40.985
X21.314 Y41.011
X21.296 Y41.029
X21.27 Y41.036
X21.245 Y41.028
X21.227 Y41.009
X21.215 Y40.986
X21.226 Y40.963
Z-0.9
Z-3
X21.244 Y40.944
X21.269 Y40.936
X21.295 Y40.942
X21.314 Y40.96
X21.321 Y40.985
X21.314 Y41.011
X21.296 Y41.029
X21.27 Y41.036
X21.245 Y41.028
X21.227 Y41.009
X21.215 Y40.986
X21.226 Y40.963
Z-1.2
Z-3.3
X21.244 Y40.944
X21.269 Y40.936
X21.295 Y40.942
X21.314 Y40.96
X21.321 Y40.985
X21.314 Y41.011
X21.296 Y41.029
X21.27 Y41.036
X21.245 Y41.028
X21.227 Y41.009
X21.215 Y40.986
X21.226 Y40.963
Z-1.5
Z-3.5
X21.244 Y40.944
X21.269 Y40.936
X21.295 Y40.942
X21.314 Y40.96
X21.321 Y40.985
X21.314 Y41.011
X21.296 Y41.029
X21.27 Y41.036
X21.245 Y41.028
X21.227 Y41.009
X21.215 Y40.986
X21.226 Y40.963
G0 Z7
X19.886 Y38.5
Z3
G1 Z1.8 F400
Z-0.3
G3 X19.608 Y38.5 I-0.139 J0
X19.886 Y38.5 I0.139 J0
G1 Z1.5
Z-0.6
G3 X19.608 Y38.5 I-0.139 J0
X19.886 Y38.5 I0.139 J0
G1 Z1.2
Z-0.9
G3 X19.608 Y38.5 I-0.139 J0
X19.886 Y38.5 I0.139 J0
G1 Z0.9
Z-1.2
G3 X19.608 Y38.5 I-0.139 J0
X19.886 Y38.5 I0.139 J0
G1 Z0.6
Z-1.5
G3 X19.608 Y38.5 I-0.139 J0
X19.886 Y38.5 I0.139 J0
G1 Z0.3
Z-1.8
G3 X19.608 Y38.5 I-0.139 J0
X19.886 Y38.5 I0.139 J0
G1 Z0
Z-2.1
G3 X19.608 Y38.5 I-0.139 J0
X19.886 Y38.5 I0.139 J0
G1 Z-0.3
Z-2.4
G3 X19.608 Y38.5 I-0.139 J0
X19.886 Y38.5 I0.139 J0
G1 Z-0.6
Z-2.7
G3 X19.608 Y38.5 I-0.139 J0
X19.886 Y38.5 I0.139 J0
G1 Z-0.9
Z-3
G3 X19.608 Y38.5 I-0.139 J0
X19.886 Y38.5 I0.139 J0
G1 Z-1.2
Z-3.3
G3 X19.608 Y38.5 I-0.139 J0
X19.886 Y38.5 I0.139 J0
G1 Z-1.5
Z-3.6
G3 X19.608 Y38.5 I-0.139 J0
X19.886 Y38.5 I0.139 J0
G1 Z-1.8
Z-3.9
G3 X19.608 Y38.5 I-0.139 J0
X19.886 Y38.5 I0.139 J0
G1 Z-2.1
Z-4.2
G3 X19.608 Y38.5 I-0.139 J0
X19.886 Y38.5 I0.139 J0
G0 Z7
X21.226 Y38.463
Z3
G1 Z1.8 F400
Z-0.3
X21.244 Y38.444
X21.269 Y38.436
X21.295 Y38.442
X21.314 Y38.46
X21.321 Y38.485
X21.314 Y38.511
X21.296 Y38.529
X21.27 Y38.536
X21.245 Y38.528
X21.227 Y38.509
X21.215 Y38.486
X21.226 Y38.463
Z1.5
Z-0.6
X21.244 Y38.444
X21.269 Y38.436
X21.295 Y38.442
X21.314 Y38.46
X21.321 Y38.485
X21.314 Y38.511
X21.296 Y38.529
X21.27 Y38.536
X21.245 Y38.528
X21.227 Y38.509
X21.215 Y38.486
X21.226 Y38.463
Z1.2
Z-0.9
X21.244 Y38.444
X21.269 Y38.436
X21.295 Y38.442
X21.314 Y38.46
X21.321 Y38.485
X21.314 Y38.511
X21.296 Y38.529
X21.27 Y38.536
X21.245 Y38.528
X21.227 Y38.509
X21.215 Y38.486
X21.226 Y38.463
Z0.9
Z-1.2
X21.244 Y38.444
X21.269 Y38.436
X21.295 Y38.442
X21.314 Y38.46
X21.321 Y38.485
X21.314 Y38.511
X21.296 Y38.529
X21.27 Y38.536
X21.245 Y38.528
X21.227 Y38.509
X21.215 Y38.486
X21.226 Y38.463
Z0.6
Z-1.5
X21.244 Y38.444
X21.269 Y38.436
X21.295 Y38.442
X21.314 Y38.46
X21.321 Y38.485
X21.314 Y38.511
X21.296 Y38.529
X21.27 Y38.536
X21.245 Y38.528
X21.227 Y38.509
X21.215 Y38.486
X21.226 Y38.463
Z0.3
Z-1.8
X21.244 Y38.444
X21.269 Y38.436
X21.295 Y38.442
X21.314 Y38.46
X21.321 Y38.485
X21.314 Y38.511
X21.296 Y38.529
X21.27 Y38.536
X21.245 Y38.528
X21.227 Y38.509
X21.215 Y38.486
X21.226 Y38.463
Z0
Z-2.1
X21.244 Y38.444
X21.269 Y38.436
X21.295 Y38.442
X21.314 Y38.46
X21.321 Y38.485
X21.314 Y38.511
X21.296 Y38.529
X21.27 Y38.536
X21.245 Y38.528
X21.227 Y38.509
X21.215 Y38.486
X21.226 Y38.463
Z-0.3
Z-2.4
X21.244 Y38.444
X21.269 Y38.436
X21.295 Y38.442
X21.314 Y38.46
X21.321 Y38.485
X21.314 Y38.511
X21.296 Y38.529
X21.27 Y38.536
X21.245 Y38.528
X21.227 Y38.509
X21.215 Y38.486
X21.226 Y38.463
Z-0.6
Z-2.7
X21.244 Y38.444
X21.269 Y38.436
X21.295 Y38.442
X21.314 Y38.46
X21.321 Y38.485
X21.314 Y38.511
X21.296 Y38.529
X21.27 Y38.536
X21.245 Y38.528
X21.227 Y38.509
X21.215 Y38.486
X21.226 Y38.463
Z-0.9
Z-3
X21.244 Y38.444
X21.269 Y38.436
X21.295 Y38.442
X21.314 Y38.46
X21.321 Y38.485
X21.314 Y38.511
X21.296 Y38.529
X21.27 Y38.536
X21.245 Y38.528
X21.227 Y38.509
X21.215 Y38.486
X21.226 Y38.463
Z-1.2
Z-3.3
X21.244 Y38.444
X21.269 Y38.436
X21.295 Y38.442
X21.314 Y38.46
X21.321 Y38.485
X21.314 Y38.511
X21.296 Y38.529
X21.27 Y38.536
X21.245 Y38.528
X21.227 Y38.509
X21.215 Y38.486
X21.226 Y38.463
Z-1.5
Z-3.5
X21.244 Y38.444
X21.269 Y38.436
X21.295 Y38.442
X21.314 Y38.46
X21.321 Y38.485
X21.314 Y38.511
X21.296 Y38.529
X21.27 Y38.536
X21.245 Y38.528
X21.227 Y38.509
X21.215 Y38.486
X21.226 Y38.463
G0 Z7
X19.886 Y36
Z3
G1 Z1.8 F400
Z-0.3
G3 X19.608 Y36 I-0.139 J0
X19.886 Y36 I0.139 J0
G1 Z1.5
Z-0.6
G3 X19.608 Y36 I-0.139 J0
X19.886 Y36 I0.139 J0
G1 Z1.2
Z-0.9
G3 X19.608 Y36 I-0.139 J0
X19.886 Y36 I0.139 J0
G1 Z0.9
Z-1.2
G3 X19.608 Y36 I-0.139 J0
X19.886 Y36 I0.139 J0
G1 Z0.6
Z-1.5
G3 X19.608 Y36 I-0.139 J0
X19.886 Y36 I0.139 J0
G1 Z0.3
Z-1.8
G3 X19.608 Y36 I-0.139 J0
X19.886 Y36 I0.139 J0
G1 Z0
Z-2.1
G3 X19.608 Y36 I-0.139 J0
X19.886 Y36 I0.139 J0
G1 Z-0.3
Z-2.4
G3 X19.608 Y36 I-0.139 J0
X19.886 Y36 I0.139 J0
G1 Z-0.6
Z-2.7
G3 X19.608 Y36 I-0.139 J0
X19.886 Y36 I0.139 J0
G1 Z-0.9
Z-3
G3 X19.608 Y36 I-0.139 J0
X19.886 Y36 I0.139 J0
G1 Z-1.2
Z-3.3
G3 X19.608 Y36 I-0.139 J0
X19.886 Y36 I0.139 J0
G1 Z-1.5
Z-3.6
G3 X19.608 Y36 I-0.139 J0
X19.886 Y36 I0.139 J0
G1 Z-1.8
Z-3.9
G3 X19.608 Y36 I-0.139 J0
X19.886 Y36 I0.139 J0
G1 Z-2.1
Z-4.2
G3 X19.608 Y36 I-0.139 J0
X19.886 Y36 I0.139 J0
G0 Z7
X21.226 Y35.963
Z3
G1 Z1.8 F400
Z-0.3
X21.244 Y35.944
X21.269 Y35.936
X21.295 Y35.942
X21.314 Y35.96
X21.321 Y35.985
X21.314 Y36.011
X21.296 Y36.029
X21.27 Y36.036
X21.245 Y36.028
X21.227 Y36.009
X21.215 Y35.986
X21.226 Y35.963
Z1.5
Z-0.6
X21.244 Y35.944
X21.269 Y35.936
X21.295 Y35.942
X21.314 Y35.96
X21.321 Y35.985
X21.314 Y36.011
X21.296 Y36.029
X21.27 Y36.036
X21.245 Y36.028
X21.227 Y36.009
X21.215 Y35.986
X21.226 Y35.963
Z1.2
Z-0.9
X21.244 Y35.944
X21.269 Y35.936
X21.295 Y35.942
X21.314 Y35.96
X21.321 Y35.985
X21.314 Y36.011
X21.296 Y36.029
X21.27 Y36.036
X21.245 Y36.028
X21.227 Y36.009
X21.215 Y35.986
X21.226 Y35.963
Z0.9
Z-1.2
X21.244 Y35.944
X21.269 Y35.936
X21.295 Y35.942
X21.314 Y35.96
X21.321 Y35.985
X21.314 Y36.011
X21.296 Y36.029
X21.27 Y36.036
X21.245 Y36.028
X21.227 Y36.009
X21.215 Y35.986
X21.226 Y35.963
Z0.6
Z-1.5
X21.244 Y35.944
X21.269 Y35.936
X21.295 Y35.942
X21.314 Y35.96
X21.321 Y35.985
X21.314 Y36.011
X21.296 Y36.029
X21.27 Y36.036
X21.245 Y36.028
X21.227 Y36.009
X21.215 Y35.986
X21.226 Y35.963
Z0.3
Z-1.8
X21.244 Y35.944
X21.269 Y35.936
X21.295 Y35.942
X21.314 Y35.96
X21.321 Y35.985
X21.314 Y36.011
X21.296 Y36.029
X21.27 Y36.036
X21.245 Y36.028
X21.227 Y36.009
X21.215 Y35.986
X21.226 Y35.963
Z0
Z-2.1
X21.244 Y35.944
X21.269 Y35.936
X21.295 Y35.942
X21.314 Y35.96
X21.321 Y35.985
X21.314 Y36.011
X21.296 Y36.029
X21.27 Y36.036
X21.245 Y36.028
X21.227 Y36.009
X21.215 Y35.986
X21.226 Y35.963
Z-0.3
Z-2.4
X21.244 Y35.944
X21.269 Y35.936
X21.295 Y35.942
X21.314 Y35.96
X21.321 Y35.985
X21.314 Y36.011
X21.296 Y36.029
X21.27 Y36.036
X21.245 Y36.028
X21.227 Y36.009
X21.215 Y35.986
X21.226 Y35.963
Z-0.6
Z-2.7
X21.244 Y35.944
X21.269 Y35.936
X21.295 Y35.942
X21.314 Y35.96
X21.321 Y35.985
X21.314 Y36.011
X21.296 Y36.029
X21.27 Y36.036
X21.245 Y36.028
X21.227 Y36.009
X21.215 Y35.986
X21.226 Y35.963
Z-0.9
Z-3
X21.244 Y35.944
X21.269 Y35.936
X21.295 Y35.942
X21.314 Y35.96
X21.321 Y35.985
X21.314 Y36.011
X21.296 Y36.029
X21.27 Y36.036
X21.245 Y36.028
X21.227 Y36.009
X21.215 Y35.986
X21.226 Y35.963
Z-1.2
Z-3.3
X21.244 Y35.944
X21.269 Y35.936
X21.295 Y35.942
X21.314 Y35.96
X21.321 Y35.985
X21.314 Y36.011
X21.296 Y36.029
X21.27 Y36.036
X21.245 Y36.028
X21.227 Y36.009
X21.215 Y35.986
X21.226 Y35.963
Z-1.5
Z-3.5
X21.244 Y35.944
X21.269 Y35.936
X21.295 Y35.942
X21.314 Y35.96
X21.321 Y35.985
X21.314 Y36.011
X21.296 Y36.029
X21.27 Y36.036
X21.245 Y36.028
X21.227 Y36.009
X21.215 Y35.986
X21.226 Y35.963
G0 Z7
X19.886 Y33.5
Z3
G1 Z1.8 F400
Z-0.3
G3 X19.608 Y33.5 I-0.139 J0
X19.886 Y33.5 I0.139 J0
G1 Z1.5
Z-0.6
G3 X19.608 Y33.5 I-0.139 J0
X19.886 Y33.5 I0.139 J0
G1 Z1.2
Z-0.9
G3 X19.608 Y33.5 I-0.139 J0
X19.886 Y33.5 I0.139 J0
G1 Z0.9
Z-1.2
G3 X19.608 Y33.5 I-0.139 J0
X19.886 Y33.5 I0.139 J0
G1 Z0.6
Z-1.5
G3 X19.608 Y33.5 I-0.139 J0
X19.886 Y33.5 I0.139 J0
G1 Z0.3
Z-1.8
G3 X19.608 Y33.5 I-0.139 J0
X19.886 Y33.5 I0.139 J0
G1 Z0
Z-2.1
G3 X19.608 Y33.5 I-0.139 J0
X19.886 Y33.5 I0.139 J0
G1 Z-0.3
Z-2.4
G3 X19.608 Y33.5 I-0.139 J0
X19.886 Y33.5 I0.139 J0
G1 Z-0.6
Z-2.7
G3 X19.608 Y33.5 I-0.139 J0
X19.886 Y33.5 I0.139 J0
G1 Z-0.9
Z-3
G3 X19.608 Y33.5 I-0.139 J0
X19.886 Y33.5 I0.139 J0
G1 Z-1.2
Z-3.3
G3 X19.608 Y33.5 I-0.139 J0
X19.886 Y33.5 I0.139 J0
G1 Z-1.5
Z-3.6
G3 X19.608 Y33.5 I-0.139 J0
X19.886 Y33.5 I0.139 J0
G1 Z-1.8
Z-3.9
G3 X19.608 Y33.5 I-0.139 J0
X19.886 Y33.5 I0.139 J0
G1 Z-2.1
Z-4.2
G3 X19.608 Y33.5 I-0.139 J0
X19.886 Y33.5 I0.139 J0
G0 Z7
X21.226 Y33.463
Z3
G1 Z1.8 F400
Z-0.3
X21.244 Y33.444
X21.269 Y33.436
X21.295 Y33.442
X21.314 Y33.46
X21.321 Y33.485
X21.314 Y33.511
X21.296 Y33.529
X21.27 Y33.536
X21.245 Y33.528
X21.227 Y33.509
X21.215 Y33.486
X21.226 Y33.463
Z1.5
Z-0.6
X21.244 Y33.444
X21.269 Y33.436
X21.295 Y33.442
X21.314 Y33.46
X21.321 Y33.485
X21.314 Y33.511
X21.296 Y33.529
X21.27 Y33.536
X21.245 Y33.528
X21.227 Y33.509
X21.215 Y33.486
X21.226 Y33.463
Z1.2
Z-0.9
X21.244 Y33.444
X21.269 Y33.436
X21.295 Y33.442
X21.314 Y33.46
X21.321 Y33.485
X21.314 Y33.511
X21.296 Y33.529
X21.27 Y33.536
X21.245 Y33.528
X21.227 Y33.509
X21.215 Y33.486
X21.226 Y33.463
Z0.9
Z-1.2
X21.244 Y33.444
X21.269 Y33.436
X21.295 Y33.442
X21.314 Y33.46
X21.321 Y33.485
X21.314 Y33.511
X21.296 Y33.529
X21.27 Y33.536
X21.245 Y33.528
X21.227 Y33.509
X21.215 Y33.486
X21.226 Y33.463
Z0.6
Z-1.5
X21.244 Y33.444
X21.269 Y33.436
X21.295 Y33.442
X21.314 Y33.46
X21.321 Y33.485
X21.314 Y33.511
X21.296 Y33.529
X21.27 Y33.536
X21.245 Y33.528
X21.227 Y33.509
X21.215 Y33.486
X21.226 Y33.463
Z0.3
Z-1.8
X21.244 Y33.444
X21.269 Y33.436
X21.295 Y33.442
X21.314 Y33.46
X21.321 Y33.485
X21.314 Y33.511
X21.296 Y33.529
X21.27 Y33.536
X21.245 Y33.528
X21.227 Y33.509
X21.215 Y33.486
X21.226 Y33.463
Z0
Z-2.1
X21.244 Y33.444
X21.269 Y33.436
X21.295 Y33.442
X21.314 Y33.46
X21.321 Y33.485
X21.314 Y33.511
X21.296 Y33.529
X21.27 Y33.536
X21.245 Y33.528
X21.227 Y33.509
X21.215 Y33.486
X21.226 Y33.463
Z-0.3
Z-2.4
X21.244 Y33.444
X21.269 Y33.436
X21.295 Y33.442
X21.314 Y33.46
X21.321 Y33.485
X21.314 Y33.511
X21.296 Y33.529
X21.27 Y33.536
X21.245 Y33.528
X21.227 Y33.509
X21.215 Y33.486
X21.226 Y33.463
Z-0.6
Z-2.7
X21.244 Y33.444
X21.269 Y33.436
X21.295 Y33.442
X21.314 Y33.46
X21.321 Y33.485
X21.314 Y33.511
X21.296 Y33.529
X21.27 Y33.536
X21.245 Y33.528
X21.227 Y33.509
X21.215 Y33.486
X21.226 Y33.463
Z-0.9
Z-3
X21.244 Y33.444
X21.269 Y33.436
X21.295 Y33.442
X21.314 Y33.46
X21.321 Y33.485
X21.314 Y33.511
X21.296 Y33.529
X21.27 Y33.536
X21.245 Y33.528
X21.227 Y33.509
X21.215 Y33.486
X21.226 Y33.463
Z-1.2
Z-3.3
X21.244 Y33.444
X21.269 Y33.436
X21.295 Y33.442
X21.314 Y33.46
X21.321 Y33.485
X21.314 Y33.511
X21.296 Y33.529
X21.27 Y33.536
X21.245 Y33.528
X21.227 Y33.509
X21.215 Y33.486
X21.226 Y33.463
Z-1.5
Z-3.5
X21.244 Y33.444
X21.269 Y33.436
X21.295 Y33.442
X21.314 Y33.46
X21.321 Y33.485
X21.314 Y33.511
X21.296 Y33.529
X21.27 Y33.536
X21.245 Y33.528
X21.227 Y33.509
X21.215 Y33.486
X21.226 Y33.463
G0 Z7
X19.886 Y31
Z3
G1 Z1.8 F400
Z-0.3
G3 X19.608 Y31 I-0.139 J0
X19.886 Y31 I0.139 J0
G1 Z1.5
Z-0.6
G3 X19.608 Y31 I-0.139 J0
X19.886 Y31 I0.139 J0
G1 Z1.2
Z-0.9
G3 X19.608 Y31 I-0.139 J0
X19.886 Y31 I0.139 J0
G1 Z0.9
Z-1.2
G3 X19.608 Y31 I-0.139 J0
X19.886 Y31 I0.139 J0
G1 Z0.6
Z-1.5
G3 X19.608 Y31 I-0.139 J0
X19.886 Y31 I0.139 J0
G1 Z0.3
Z-1.8
G3 X19.608 Y31 I-0.139 J0
X19.886 Y31 I0.139 J0
G1 Z0
Z-2.1
G3 X19.608 Y31 I-0.139 J0
X19.886 Y31 I0.139 J0
G1 Z-0.3
Z-2.4
G3 X19.608 Y31 I-0.139 J0
X19.886 Y31 I0.139 J0
G1 Z-0.6
Z-2.7
G3 X19.608 Y31 I-0.139 J0
X19.886 Y31 I0.139 J0
G1 Z-0.9
Z-3
G3 X19.608 Y31 I-0.139 J0
X19.886 Y31 I0.139 J0
G1 Z-1.2
Z-3.3
G3 X19.608 Y31 I-0.139 J0
X19.886 Y31 I0.139 J0
G1 Z-1.5
Z-3.6
G3 X19.608 Y31 I-0.139 J0
X19.886 Y31 I0.139 J0
G1 Z-1.8
Z-3.9
G3 X19.608 Y31 I-0.139 J0
X19.886 Y31 I0.139 J0
G1 Z-2.1
Z-4.2
G3 X19.608 Y31 I-0.139 J0
X19.886 Y31 I0.139 J0
G0 Z7
X21.226 Y30.963
Z3
G1 Z1.8 F400
Z-0.3
X21.244 Y30.944
X21.269 Y30.936
X21.295 Y30.942
X21.314 Y30.96
X21.321 Y30.985
X21.314 Y31.011
X21.296 Y31.029
X21.27 Y31.036
X21.245 Y31.028
X21.227 Y31.009
X21.215 Y30.986
X21.226 Y30.963
Z1.5
Z-0.6
X21.244 Y30.944
X21.269 Y30.936
X21.295 Y30.942
X21.314 Y30.96
X21.321 Y30.985
X21.314 Y31.011
X21.296 Y31.029
X21.27 Y31.036
X21.245 Y31.028
X21.227 Y31.009
X21.215 Y30.986
X21.226 Y30.963
Z1.2
Z-0.9
X21.244 Y30.944
X21.269 Y30.936
X21.295 Y30.942
X21.314 Y30.96
X21.321 Y30.985
X21.314 Y31.011
X21.296 Y31.029
X21.27 Y31.036
X21.245 Y31.028
X21.227 Y31.009
X21.215 Y30.986
X21.226 Y30.963
Z0.9
Z-1.2
X21.244 Y30.944
X21.269 Y30.936
X21.295 Y30.942
X21.314 Y30.96
X21.321 Y30.985
X21.314 Y31.011
X21.296 Y31.029
X21.27 Y31.036
X21.245 Y31.028
X21.227 Y31.009
X21.215 Y30.986
X21.226 Y30.963
Z0.6
Z-1.5
X21.244 Y30.944
X21.269 Y30.936
X21.295 Y30.942
X21.314 Y30.96
X21.321 Y30.985
X21.314 Y31.011
X21.296 Y31.029
X21.27 Y31.036
X21.245 Y31.028
X21.227 Y31.009
X21.215 Y30.986
X21.226 Y30.963
Z0.3
Z-1.8
X21.244 Y30.944
X21.269 Y30.936
X21.295 Y30.942
X21.314 Y30.96
X21.321 Y30.985
X21.314 Y31.011
X21.296 Y31.029
X21.27 Y31.036
X21.245 Y31.028
X21.227 Y31.009
X21.215 Y30.986
X21.226 Y30.963
Z0
Z-2.1
X21.244 Y30.944
X21.269 Y30.936
X21.295 Y30.942
X21.314 Y30.96
X21.321 Y30.985
X21.314 Y31.011
X21.296 Y31.029
X21.27 Y31.036
X21.245 Y31.028
X21.227 Y31.009
X21.215 Y30.986
X21.226 Y30.963
Z-0.3
Z-2.4
X21.244 Y30.944
X21.269 Y30.936
X21.295 Y30.942
X21.314 Y30.96
X21.321 Y30.985
X21.314 Y31.011
X21.296 Y31.029
X21.27 Y31.036
X21.245 Y31.028
X21.227 Y31.009
X21.215 Y30.986
X21.226 Y30.963
Z-0.6
Z-2.7
X21.244 Y30.944
X21.269 Y30.936
X21.295 Y30.942
X21.314 Y30.96
X21.321 Y30.985
X21.314 Y31.011
X21.296 Y31.029
X21.27 Y31.036
X21.245 Y31.028
X21.227 Y31.009
X21.215 Y30.986
X21.226 Y30.963
Z-0.9
Z-3
X21.244 Y30.944
X21.269 Y30.936
X21.295 Y30.942
X21.314 Y30.96
X21.321 Y30.985
X21.314 Y31.011
X21.296 Y31.029
X21.27 Y31.036
X21.245 Y31.028
X21.227 Y31.009
X21.215 Y30.986
X21.226 Y30.963
Z-1.2
Z-3.3
X21.244 Y30.944
X21.269 Y30.936
X21.295 Y30.942
X21.314 Y30.96
X21.321 Y30.985
X21.314 Y31.011
X21.296 Y31.029
X21.27 Y31.036
X21.245 Y31.028
X21.227 Y31.009
X21.215 Y30.986
X21.226 Y30.963
Z-1.5
Z-3.5
X21.244 Y30.944
X21.269 Y30.936
X21.295 Y30.942
X21.314 Y30.96
X21.321 Y30.985
X21.314 Y31.011
X21.296 Y31.029
X21.27 Y31.036
X21.245 Y31.028
X21.227 Y31.009
X21.215 Y30.986
X21.226 Y30.963
G0 Z7
X19.886 Y28.5
Z3
G1 Z1.8 F400
Z-0.3
G3 X19.608 Y28.5 I-0.139 J0
X19.886 Y28.5 I0.139 J0
G1 Z1.5
Z-0.6
G3 X19.608 Y28.5 I-0.139 J0
X19.886 Y28.5 I0.139 J0
G1 Z1.2
Z-0.9
G3 X19.608 Y28.5 I-0.139 J0
X19.886 Y28.5 I0.139 J0
G1 Z0.9
Z-1.2
G3 X19.608 Y28.5 I-0.139 J0
X19.886 Y28.5 I0.139 J0
G1 Z0.6
Z-1.5
G3 X19.608 Y28.5 I-0.139 J0
X19.886 Y28.5 I0.139 J0
G1 Z0.3
Z-1.8
G3 X19.608 Y28.5 I-0.139 J0
X19.886 Y28.5 I0.139 J0
G1 Z0
Z-2.1
G3 X19.608 Y28.5 I-0.139 J0
X19.886 Y28.5 I0.139 J0
G1 Z-0.3
Z-2.4
G3 X19.608 Y28.5 I-0.139 J0
X19.886 Y28.5 I0.139 J0
G1 Z-0.6
Z-2.7
G3 X19.608 Y28.5 I-0.139 J0
X19.886 Y28.5 I0.139 J0
G1 Z-0.9
Z-3
G3 X19.608 Y28.5 I-0.139 J0
X19.886 Y28.5 I0.139 J0
G1 Z-1.2
Z-3.3
G3 X19.608 Y28.5 I-0.139 J0
X19.886 Y28.5 I0.139 J0
G1 Z-1.5
Z-3.6
G3 X19.608 Y28.5 I-0.139 J0
X19.886 Y28.5 I0.139 J0
G1 Z-1.8
Z-3.9
G3 X19.608 Y28.5 I-0.139 J0
X19.886 Y28.5 I0.139 J0
G1 Z-2.1
Z-4.2
G3 X19.608 Y28.5 I-0.139 J0
X19.886 Y28.5 I0.139 J0
G0 Z7
Y26
Z3
G1 Z1.8 F400
Z-0.3
G3 X19.608 Y26 I-0.139 J0
X19.886 Y26 I0.139 J0
G1 Z1.5
Z-0.6
G3 X19.608 Y26 I-0.139 J0
X19.886 Y26 I0.139 J0
G1 Z1.2
Z-0.9
G3 X19.608 Y26 I-0.139 J0
X19.886 Y26 I0.139 J0
G1 Z0.9
Z-1.2
G3 X19.608 Y26 I-0.139 J0
X19.886 Y26 I0.139 J0
G1 Z0.6
Z-1.5
G3 X19.608 Y26 I-0.139 J0
X19.886 Y26 I0.139 J0
G1 Z0.3
Z-1.8
G3 X19.608 Y26 I-0.139 J0
X19.886 Y26 I0.139 J0
G1 Z0
Z-2.1
G3 X19.608 Y26 I-0.139 J0
X19.886 Y26 I0.139 J0
G1 Z-0.3
Z-2.4
G3 X19.608 Y26 I-0.139 J0
X19.886 Y26 I0.139 J0
G1 Z-0.6
Z-2.7
G3 X19.608 Y26 I-0.139 J0
X19.886 Y26 I0.139 J0
G1 Z-0.9
Z-3
G3 X19.608 Y26 I-0.139 J0
X19.886 Y26 I0.139 J0
G1 Z-1.2
Z-3.3
G3 X19.608 Y26 I-0.139 J0
X19.886 Y26 I0.139 J0
G1 Z-1.5
Z-3.6
G3 X19.608 Y26 I-0.139 J0
X19.886 Y26 I0.139 J0
G1 Z-1.8
Z-3.9
G3 X19.608 Y26 I-0.139 J0
X19.886 Y26 I0.139 J0
G1 Z-2.1
Z-4.2
G3 X19.608 Y26 I-0.139 J0
X19.886 Y26 I0.139 J0
G0 Z7
Y23.5
Z3
G1 Z1.8 F400
Z-0.3
G3 X19.608 Y23.5 I-0.139 J0
X19.886 Y23.5 I0.139 J0
G1 Z1.5
Z-0.6
G3 X19.608 Y23.5 I-0.139 J0
X19.886 Y23.5 I0.139 J0
G1 Z1.2
Z-0.9
G3 X19.608 Y23.5 I-0.139 J0
X19.886 Y23.5 I0.139 J0
G1 Z0.9
Z-1.2
G3 X19.608 Y23.5 I-0.139 J0
X19.886 Y23.5 I0.139 J0
G1 Z0.6
Z-1.5
G3 X19.608 Y23.5 I-0.139 J0
X19.886 Y23.5 I0.139 J0
G1 Z0.3
Z-1.8
G3 X19.608 Y23.5 I-0.139 J0
X19.886 Y23.5 I0.139 J0
G1 Z0
Z-2.1
G3 X19.608 Y23.5 I-0.139 J0
X19.886 Y23.5 I0.139 J0
G1 Z-0.3
Z-2.4
G3 X19.608 Y23.5 I-0.139 J0
X19.886 Y23.5 I0.139 J0
G1 Z-0.6
Z-2.7
G3 X19.608 Y23.5 I-0.139 J0
X19.886 Y23.5 I0.139 J0
G1 Z-0.9
Z-3
G3 X19.608 Y23.5 I-0.139 J0
X19.886 Y23.5 I0.139 J0
G1 Z-1.2
Z-3.3
G3 X19.608 Y23.5 I-0.139 J0
X19.886 Y23.5 I0.139 J0
G1 Z-1.5
Z-3.6
G3 X19.608 Y23.5 I-0.139 J0
X19.886 Y23.5 I0.139 J0
G1 Z-1.8
Z-3.9
G3 X19.608 Y23.5 I-0.139 J0
X19.886 Y23.5 I0.139 J0
G1 Z-2.1
Z-4.2
G3 X19.608 Y23.5 I-0.139 J0
X19.886 Y23.5 I0.139 J0
G0 Z7
Y21
Z3
G1 Z1.8 F400
Z-0.3
G3 X19.608 Y21 I-0.139 J0
X19.886 Y21 I0.139 J0
G1 Z1.5
Z-0.6
G3 X19.608 Y21 I-0.139 J0
X19.886 Y21 I0.139 J0
G1 Z1.2
Z-0.9
G3 X19.608 Y21 I-0.139 J0
X19.886 Y21 I0.139 J0
G1 Z0.9
Z-1.2
G3 X19.608 Y21 I-0.139 J0
X19.886 Y21 I0.139 J0
G1 Z0.6
Z-1.5
G3 X19.608 Y21 I-0.139 J0
X19.886 Y21 I0.139 J0
G1 Z0.3
Z-1.8
G3 X19.608 Y21 I-0.139 J0
X19.886 Y21 I0.139 J0
G1 Z0
Z-2.1
G3 X19.608 Y21 I-0.139 J0
X19.886 Y21 I0.139 J0
G1 Z-0.3
Z-2.4
G3 X19.608 Y21 I-0.139 J0
X19.886 Y21 I0.139 J0
G1 Z-0.6
Z-2.7
G3 X19.608 Y21 I-0.139 J0
X19.886 Y21 I0.139 J0
G1 Z-0.9
Z-3
G3 X19.608 Y21 I-0.139 J0
X19.886 Y21 I0.139 J0
G1 Z-1.2
Z-3.3
G3 X19.608 Y21 I-0.139 J0
X19.886 Y21 I0.139 J0
G1 Z-1.5
Z-3.6
G3 X19.608 Y21 I-0.139 J0
X19.886 Y21 I0.139 J0
G1 Z-1.8
Z-3.9
G3 X19.608 Y21 I-0.139 J0
X19.886 Y21 I0.139 J0
G1 Z-2.1
Z-4.2
G3 X19.608 Y21 I-0.139 J0
X19.886 Y21 I0.139 J0
G0 Z7
Y18.5
Z3
G1 Z1.8 F400
Z-0.3
G3 X19.608 Y18.5 I-0.139 J0
X19.886 Y18.5 I0.139 J0
G1 Z1.5
Z-0.6
G3 X19.608 Y18.5 I-0.139 J0
X19.886 Y18.5 I0.139 J0
G1 Z1.2
Z-0.9
G3 X19.608 Y18.5 I-0.139 J0
X19.886 Y18.5 I0.139 J0
G1 Z0.9
Z-1.2
G3 X19.608 Y18.5 I-0.139 J0
X19.886 Y18.5 I0.139 J0
G1 Z0.6
Z-1.5
G3 X19.608 Y18.5 I-0.139 J0
X19.886 Y18.5 I0.139 J0
G1 Z0.3
Z-1.8
G3 X19.608 Y18.5 I-0.139 J0
X19.886 Y18.5 I0.139 J0
G1 Z0
Z-2.1
G3 X19.608 Y18.5 I-0.139 J0
X19.886 Y18.5 I0.139 J0
G1 Z-0.3
Z-2.4
G3 X19.608 Y18.5 I-0.139 J0
X19.886 Y18.5 I0.139 J0
G1 Z-0.6
Z-2.7
G3 X19.608 Y18.5 I-0.139 J0
X19.886 Y18.5 I0.139 J0
G1 Z-0.9
Z-3
G3 X19.608 Y18.5 I-0.139 J0
X19.886 Y18.5 I0.139 J0
G1 Z-1.2
Z-3.3
G3 X19.608 Y18.5 I-0.139 J0
X19.886 Y18.5 I0.139 J0
G1 Z-1.5
Z-3.6
G3 X19.608 Y18.5 I-0.139 J0
X19.886 Y18.5 I0.139 J0
G1 Z-1.8
Z-3.9
G3 X19.608 Y18.5 I-0.139 J0
X19.886 Y18.5 I0.139 J0
G1 Z-2.1
Z-4.2
G3 X19.608 Y18.5 I-0.139 J0
X19.886 Y18.5 I0.139 J0
G0 Z7
X13.994 Y14.854
Z3
G1 Z1.8 F400
Z-0.3
Y14.838
X14.01 Y14.846
X13.994 Y14.854
Z1.5
Z-0.6
Y14.838
X14.01 Y14.846
X13.994 Y14.854
Z1.2
Z-0.9
Y14.838
X14.01 Y14.846
X13.994 Y14.854
Z0.9
Z-1.2
Y14.838
X14.01 Y14.846
X13.994 Y14.854
Z0.6
Z-1.5
Y14.838
X14.01 Y14.846
X13.994 Y14.854
Z0.3
Z-1.8
Y14.838
X14.01 Y14.846
X13.994 Y14.854
Z0
Z-2.1
Y14.838
X14.01 Y14.846
X13.994 Y14.854
Z-0.3
Z-2.4
Y14.838
X14.01 Y14.846
X13.994 Y14.854
Z-0.6
Z-2.7
Y14.838
X14.01 Y14.846
X13.994 Y14.854
Z-0.9
Z-3
Y14.838
X14.01 Y14.846
X13.994 Y14.854
Z-1.2
Z-3.3
Y14.838
X14.01 Y14.846
X13.994 Y14.854
Z-1.5
Z-3.6
Y14.838
X14.01 Y14.846
X13.994 Y14.854
Z-1.8
Z-3.9
Y14.838
X14.01 Y14.846
X13.994 Y14.854
Z-2.1
Z-4.2
Y14.838
X14.01 Y14.846
X13.994 Y14.854
G0 Z7
Y12.848
Z3
G1 Z1.8 F400
Z-0.3
Y12.832
X14.01 Y12.84
X13.994 Y12.848
Z1.5
Z-0.6
Y12.832
X14.01 Y12.84
X13.994 Y12.848
Z1.2
Z-0.9
Y12.832
X14.01 Y12.84
X13.994 Y12.848
Z0.9
Z-1.2
Y12.832
X14.01 Y12.84
X13.994 Y12.848
Z0.6
Z-1.5
Y12.832
X14.01 Y12.84
X13.994 Y12.848
Z0.3
Z-1.8
Y12.832
X14.01 Y12.84
X13.994 Y12.848
Z0
Z-2.1
Y12.832
X14.01 Y12.84
X13.994 Y12.848
Z-0.3
Z-2.4
Y12.832
X14.01 Y12.84
X13.994 Y12.848
Z-0.6
Z-2.7
Y12.832
X14.01 Y12.84
X13.994 Y12.848
Z-0.9
Z-3
Y12.832
X14.01 Y12.84
X13.994 Y12.848
Z-1.2
Z-3.3
Y12.832
X14.01 Y12.84
X13.994 Y12.848
Z-1.5
Z-3.6
Y12.832
X14.01 Y12.84
X13.994 Y12.848
Z-1.8
Z-3.9
Y12.832
X14.01 Y12.84
X13.994 Y12.848
Z-2.1
Z-4.2
Y12.832
X14.01 Y12.84
X13.994 Y12.848
G0 Z7
X11.994 Y12.85
Z3
G1 Z1.8 F400
Z-0.3
Y12.834
X12.01 Y12.842
X11.994 Y12.85
Z1.5
Z-0.6
Y12.834
X12.01 Y12.842
X11.994 Y12.85
Z1.2
Z-0.9
Y12.834
X12.01 Y12.842
X11.994 Y12.85
Z0.9
Z-1.2
Y12.834
X12.01 Y12.842
X11.994 Y12.85
Z0.6
Z-1.5
Y12.834
X12.01 Y12.842
X11.994 Y12.85
Z0.3
Z-1.8
Y12.834
X12.01 Y12.842
X11.994 Y12.85
Z0
Z-2.1
Y12.834
X12.01 Y12.842
X11.994 Y12.85
Z-0.3
Z-2.4
Y12.834
X12.01 Y12.842
X11.994 Y12.85
Z-0.6
Z-2.7
Y12.834
X12.01 Y12.842
X11.994 Y12.85
Z-0.9
Z-3
Y12.834
X12.01 Y12.842
X11.994 Y12.85
Z-1.2
Z-3.3
Y12.834
X12.01 Y12.842
X11.994 Y12.85
Z-1.5
Z-3.6
Y12.834
X12.01 Y12.842
X11.994 Y12.85
Z-1.8
Z-3.9
Y12.834
X12.01 Y12.842
X11.994 Y12.85
Z-2.1
Z-4.2
Y12.834
X12.01 Y12.842
X11.994 Y12.85
G0 Z7
Y14.852
Z3
G1 Z1.8 F400
Z-0.3
Y14.836
X12.01 Y14.844
X11.994 Y14.852
Z1.5
Z-0.6
Y14.836
X12.01 Y14.844
X11.994 Y14.852
Z1.2
Z-0.9
Y14.836
X12.01 Y14.844
X11.994 Y14.852
Z0.9
Z-1.2
Y14.836
X12.01 Y14.844
X11.994 Y14.852
Z0.6
Z-1.5
Y14.836
X12.01 Y14.844
X11.994 Y14.852
Z0.3
Z-1.8
Y14.836
X12.01 Y14.844
X11.994 Y14.852
Z0
Z-2.1
Y14.836
X12.01 Y14.844
X11.994 Y14.852
Z-0.3
Z-2.4
Y14.836
X12.01 Y14.844
X11.994 Y14.852
Z-0.6
Z-2.7
Y14.836
X12.01 Y14.844
X11.994 Y14.852
Z-0.9
Z-3
Y14.836
X12.01 Y14.844
X11.994 Y14.852
Z-1.2
Z-3.3
Y14.836
X12.01 Y14.844
X11.994 Y14.852
Z-1.5
Z-3.6
Y14.836
X12.01 Y14.844
X11.994 Y14.852
Z-1.8
Z-3.9
Y14.836
X12.01 Y14.844
X11.994 Y14.852
Z-2.1
Z-4.2
Y14.836
X12.01 Y14.844
X11.994 Y14.852
G0 Z7
X10.002 Y14.834
Z3
G1 Z1.8 F400
Z-0.3
X10.012 Y14.844
X10.002 Y14.854
X9.992 Y14.844
X10.002 Y14.834
Z1.5
Z-0.6
X10.012 Y14.844
X10.002 Y14.854
X9.992 Y14.844
X10.002 Y14.834
Z1.2
Z-0.9
X10.012 Y14.844
X10.002 Y14.854
X9.992 Y14.844
X10.002 Y14.834
Z0.9
Z-1.2
X10.012 Y14.844
X10.002 Y14.854
X9.992 Y14.844
X10.002 Y14.834
Z0.6
Z-1.5
X10.012 Y14.844
X10.002 Y14.854
X9.992 Y14.844
X10.002 Y14.834
Z0.3
Z-1.8
X10.012 Y14.844
X10.002 Y14.854
X9.992 Y14.844
X10.002 Y14.834
Z0
Z-2.1
X10.012 Y14.844
X10.002 Y14.854
X9.992 Y14.844
X10.002 Y14.834
Z-0.3
Z-2.4
X10.012 Y14.844
X10.002 Y14.854
X9.992 Y14.844
X10.002 Y14.834
Z-0.6
Z-2.7
X10.012 Y14.844
X10.002 Y14.854
X9.992 Y14.844
X10.002 Y14.834
Z-0.9
Z-3
X10.012 Y14.844
X10.002 Y14.854
X9.992 Y14.844
X10.002 Y14.834
Z-1.2
Z-3.3
X10.012 Y14.844
X10.002 Y14.854
X9.992 Y14.844
X10.002 Y14.834
Z-1.5
Z-3.6
X10.012 Y14.844
X10.002 Y14.854
X9.992 Y14.844
X10.002 Y14.834
Z-1.8
Z-3.9
X10.012 Y14.844
X10.002 Y14.854
X9.992 Y14.844
X10.002 Y14.834
Z-2.1
Z-4.2
X10.012 Y14.844
X10.002 Y14.854
X9.992 Y14.844
X10.002 Y14.834
G0 Z7
X4.392 Y16
Z3
G1 Z1.8 F400
Z-0.3
G3 X4.114 Y16 I-0.139 J0
X4.392 Y16 I0.139 J0
G1 Z1.5
Z-0.6
G3 X4.114 Y16 I-0.139 J0
X4.392 Y16 I0.139 J0
G1 Z1.2
Z-0.9
G3 X4.114 Y16 I-0.139 J0
X4.392 Y16 I0.139 J0
G1 Z0.9
Z-1.2
G3 X4.114 Y16 I-0.139 J0
X4.392 Y16 I0.139 J0
G1 Z0.6
Z-1.5
G3 X4.114 Y16 I-0.139 J0
X4.392 Y16 I0.139 J0
G1 Z0.3
Z-1.8
G3 X4.114 Y16 I-0.139 J0
X4.392 Y16 I0.139 J0
G1 Z0
Z-2.1
G3 X4.114 Y16 I-0.139 J0
X4.392 Y16 I0.139 J0
G1 Z-0.3
Z-2.4
G3 X4.114 Y16 I-0.139 J0
X4.392 Y16 I0.139 J0
G1 Z-0.6
Z-2.7
G3 X4.114 Y16 I-0.139 J0
X4.392 Y16 I0.139 J0
G1 Z-0.9
Z-3
G3 X4.114 Y16 I-0.139 J0
X4.392 Y16 I0.139 J0
G1 Z-1.2
Z-3.3
G3 X4.114 Y16 I-0.139 J0
X4.392 Y16 I0.139 J0
G1 Z-1.5
Z-3.6
G3 X4.114 Y16 I-0.139 J0
X4.392 Y16 I0.139 J0
G1 Z-1.8
Z-3.9
G3 X4.114 Y16 I-0.139 J0
X4.392 Y16 I0.139 J0
G1 Z-2.1
Z-4.2
G3 X4.114 Y16 I-0.139 J0
X4.392 Y16 I0.139 J0
G0 Z7
Y18.5
Z3
G1 Z1.8 F400
Z-0.3
G3 X4.114 Y18.5 I-0.139 J0
X4.392 Y18.5 I0.139 J0
G1 Z1.5
Z-0.6
G3 X4.114 Y18.5 I-0.139 J0
X4.392 Y18.5 I0.139 J0
G1 Z1.2
Z-0.9
G3 X4.114 Y18.5 I-0.139 J0
X4.392 Y18.5 I0.139 J0
G1 Z0.9
Z-1.2
G3 X4.114 Y18.5 I-0.139 J0
X4.392 Y18.5 I0.139 J0
G1 Z0.6
Z-1.5
G3 X4.114 Y18.5 I-0.139 J0
X4.392 Y18.5 I0.139 J0
G1 Z0.3
Z-1.8
G3 X4.114 Y18.5 I-0.139 J0
X4.392 Y18.5 I0.139 J0
G1 Z0
Z-2.1
G3 X4.114 Y18.5 I-0.139 J0
X4.392 Y18.5 I0.139 J0
G1 Z-0.3
Z-2.4
G3 X4.114 Y18.5 I-0.139 J0
X4.392 Y18.5 I0.139 J0
G1 Z-0.6
Z-2.7
G3 X4.114 Y18.5 I-0.139 J0
X4.392 Y18.5 I0.139 J0
G1 Z-0.9
Z-3
G3 X4.114 Y18.5 I-0.139 J0
X4.392 Y18.5 I0.139 J0
G1 Z-1.2
Z-3.3
G3 X4.114 Y18.5 I-0.139 J0
X4.392 Y18.5 I0.139 J0
G1 Z-1.5
Z-3.6
G3 X4.114 Y18.5 I-0.139 J0
X4.392 Y18.5 I0.139 J0
G1 Z-1.8
Z-3.9
G3 X4.114 Y18.5 I-0.139 J0
X4.392 Y18.5 I0.139 J0
G1 Z-2.1
Z-4.2
G3 X4.114 Y18.5 I-0.139 J0
X4.392 Y18.5 I0.139 J0
G0 Z7
X2.684 Y18.479
Z3
G1 Z1.8 F400
Z-0.3
X2.703 Y18.459
X2.729 Y18.451
X2.755 Y18.459
X2.774 Y18.479
X2.785 Y18.501
X2.774 Y18.524
X2.756 Y18.544
X2.731 Y18.551
X2.705 Y18.545
X2.686 Y18.527
X2.679 Y18.502
X2.684 Y18.479
Z1.5
Z-0.6
X2.703 Y18.459
X2.729 Y18.451
X2.755 Y18.459
X2.774 Y18.479
X2.785 Y18.501
X2.774 Y18.524
X2.756 Y18.544
X2.731 Y18.551
X2.705 Y18.545
X2.686 Y18.527
X2.679 Y18.502
X2.684 Y18.479
Z1.2
Z-0.9
X2.703 Y18.459
X2.729 Y18.451
X2.755 Y18.459
X2.774 Y18.479
X2.785 Y18.501
X2.774 Y18.524
X2.756 Y18.544
X2.731 Y18.551
X2.705 Y18.545
X2.686 Y18.527
X2.679 Y18.502
X2.684 Y18.479
Z0.9
Z-1.2
X2.703 Y18.459
X2.729 Y18.451
X2.755 Y18.459
X2.774 Y18.479
X2.785 Y18.501
X2.774 Y18.524
X2.756 Y18.544
X2.731 Y18.551
X2.705 Y18.545
X2.686 Y18.527
X2.679 Y18.502
X2.684 Y18.479
Z0.6
Z-1.5
X2.703 Y18.459
X2.729 Y18.451
X2.755 Y18.459
X2.774 Y18.479
X2.785 Y18.501
X2.774 Y18.524
X2.756 Y18.544
X2.731 Y18.551
X2.705 Y18.545
X2.686 Y18.527
X2.679 Y18.502
X2.684 Y18.479
Z0.3
Z-1.8
X2.703 Y18.459
X2.729 Y18.451
X2.755 Y18.459
X2.774 Y18.479
X2.785 Y18.501
X2.774 Y18.524
X2.756 Y18.544
X2.731 Y18.551
X2.705 Y18.545
X2.686 Y18.527
X2.679 Y18.502
X2.684 Y18.479
Z0
Z-2.1
X2.703 Y18.459
X2.729 Y18.451
X2.755 Y18.459
X2.774 Y18.479
X2.785 Y18.501
X2.774 Y18.524
X2.756 Y18.544
X2.731 Y18.551
X2.705 Y18.545
X2.686 Y18.527
X2.679 Y18.502
X2.684 Y18.479
Z-0.3
Z-2.4
X2.703 Y18.459
X2.729 Y18.451
X2.755 Y18.459
X2.774 Y18.479
X2.785 Y18.501
X2.774 Y18.524
X2.756 Y18.544
X2.731 Y18.551
X2.705 Y18.545
X2.686 Y18.527
X2.679 Y18.502
X2.684 Y18.479
Z-0.6
Z-2.7
X2.703 Y18.459
X2.729 Y18.451
X2.755 Y18.459
X2.774 Y18.479
X2.785 Y18.501
X2.774 Y18.524
X2.756 Y18.544
X2.731 Y18.551
X2.705 Y18.545
X2.686 Y18.527
X2.679 Y18.502
X2.684 Y18.479
Z-0.9
Z-3
X2.703 Y18.459
X2.729 Y18.451
X2.755 Y18.459
X2.774 Y18.479
X2.785 Y18.501
X2.774 Y18.524
X2.756 Y18.544
X2.731 Y18.551
X2.705 Y18.545
X2.686 Y18.527
X2.679 Y18.502
X2.684 Y18.479
Z-1.2
Z-3.3
X2.703 Y18.459
X2.729 Y18.451
X2.755 Y18.459
X2.774 Y18.479
X2.785 Y18.501
X2.774 Y18.524
X2.756 Y18.544
X2.731 Y18.551
X2.705 Y18.545
X2.686 Y18.527
X2.679 Y18.502
X2.684 Y18.479
Z-1.5
Z-3.5
X2.703 Y18.459
X2.729 Y18.451
X2.755 Y18.459
X2.774 Y18.479
X2.785 Y18.501
X2.774 Y18.524
X2.756 Y18.544
X2.731 Y18.551
X2.705 Y18.545
X2.686 Y18.527
X2.679 Y18.502
X2.684 Y18.479
G0 Z7
X4.392 Y21
Z3
G1 Z1.8 F400
Z-0.3
G3 X4.114 Y21 I-0.139 J0
X4.392 Y21 I0.139 J0
G1 Z1.5
Z-0.6
G3 X4.114 Y21 I-0.139 J0
X4.392 Y21 I0.139 J0
G1 Z1.2
Z-0.9
G3 X4.114 Y21 I-0.139 J0
X4.392 Y21 I0.139 J0
G1 Z0.9
Z-1.2
G3 X4.114 Y21 I-0.139 J0
X4.392 Y21 I0.139 J0
G1 Z0.6
Z-1.5
G3 X4.114 Y21 I-0.139 J0
X4.392 Y21 I0.139 J0
G1 Z0.3
Z-1.8
G3 X4.114 Y21 I-0.139 J0
X4.392 Y21 I0.139 J0
G1 Z0
Z-2.1
G3 X4.114 Y21 I-0.139 J0
X4.392 Y21 I0.139 J0
G1 Z-0.3
Z-2.4
G3 X4.114 Y21 I-0.139 J0
X4.392 Y21 I0.139 J0
G1 Z-0.6
Z-2.7
G3 X4.114 Y21 I-0.139 J0
X4.392 Y21 I0.139 J0
G1 Z-0.9
Z-3
G3 X4.114 Y21 I-0.139 J0
X4.392 Y21 I0.139 J0
G1 Z-1.2
Z-3.3
G3 X4.114 Y21 I-0.139 J0
X4.392 Y21 I0.139 J0
G1 Z-1.5
Z-3.6
G3 X4.114 Y21 I-0.139 J0
X4.392 Y21 I0.139 J0
G1 Z-1.8
Z-3.9
G3 X4.114 Y21 I-0.139 J0
X4.392 Y21 I0.139 J0
G1 Z-2.1
Z-4.2
G3 X4.114 Y21 I-0.139 J0
X4.392 Y21 I0.139 J0
G0 Z7
Y23.5
Z3
G1 Z1.8 F400
Z-0.3
G3 X4.114 Y23.5 I-0.139 J0
X4.392 Y23.5 I0.139 J0
G1 Z1.5
Z-0.6
G3 X4.114 Y23.5 I-0.139 J0
X4.392 Y23.5 I0.139 J0
G1 Z1.2
Z-0.9
G3 X4.114 Y23.5 I-0.139 J0
X4.392 Y23.5 I0.139 J0
G1 Z0.9
Z-1.2
G3 X4.114 Y23.5 I-0.139 J0
X4.392 Y23.5 I0.139 J0
G1 Z0.6
Z-1.5
G3 X4.114 Y23.5 I-0.139 J0
X4.392 Y23.5 I0.139 J0
G1 Z0.3
Z-1.8
G3 X4.114 Y23.5 I-0.139 J0
X4.392 Y23.5 I0.139 J0
G1 Z0
Z-2.1
G3 X4.114 Y23.5 I-0.139 J0
X4.392 Y23.5 I0.139 J0
G1 Z-0.3
Z-2.4
G3 X4.114 Y23.5 I-0.139 J0
X4.392 Y23.5 I0.139 J0
G1 Z-0.6
Z-2.7
G3 X4.114 Y23.5 I-0.139 J0
X4.392 Y23.5 I0.139 J0
G1 Z-0.9
Z-3
G3 X4.114 Y23.5 I-0.139 J0
X4.392 Y23.5 I0.139 J0
G1 Z-1.2
Z-3.3
G3 X4.114 Y23.5 I-0.139 J0
X4.392 Y23.5 I0.139 J0
G1 Z-1.5
Z-3.6
G3 X4.114 Y23.5 I-0.139 J0
X4.392 Y23.5 I0.139 J0
G1 Z-1.8
Z-3.9
G3 X4.114 Y23.5 I-0.139 J0
X4.392 Y23.5 I0.139 J0
G1 Z-2.1
Z-4.2
G3 X4.114 Y23.5 I-0.139 J0
X4.392 Y23.5 I0.139 J0
G0 Z7
Y26
Z3
G1 Z1.8 F400
Z-0.3
G3 X4.114 Y26 I-0.139 J0
X4.392 Y26 I0.139 J0
G1 Z1.5
Z-0.6
G3 X4.114 Y26 I-0.139 J0
X4.392 Y26 I0.139 J0
G1 Z1.2
Z-0.9
G3 X4.114 Y26 I-0.139 J0
X4.392 Y26 I0.139 J0
G1 Z0.9
Z-1.2
G3 X4.114 Y26 I-0.139 J0
X4.392 Y26 I0.139 J0
G1 Z0.6
Z-1.5
G3 X4.114 Y26 I-0.139 J0
X4.392 Y26 I0.139 J0
G1 Z0.3
Z-1.8
G3 X4.114 Y26 I-0.139 J0
X4.392 Y26 I0.139 J0
G1 Z0
Z-2.1
G3 X4.114 Y26 I-0.139 J0
X4.392 Y26 I0.139 J0
G1 Z-0.3
Z-2.4
G3 X4.114 Y26 I-0.139 J0
X4.392 Y26 I0.139 J0
G1 Z-0.6
Z-2.7
G3 X4.114 Y26 I-0.139 J0
X4.392 Y26 I0.139 J0
G1 Z-0.9
Z-3
G3 X4.114 Y26 I-0.139 J0
X4.392 Y26 I0.139 J0
G1 Z-1.2
Z-3.3
G3 X4.114 Y26 I-0.139 J0
X4.392 Y26 I0.139 J0
G1 Z-1.5
Z-3.6
G3 X4.114 Y26 I-0.139 J0
X4.392 Y26 I0.139 J0
G1 Z-1.8
Z-3.9
G3 X4.114 Y26 I-0.139 J0
X4.392 Y26 I0.139 J0
G1 Z-2.1
Z-4.2
G3 X4.114 Y26 I-0.139 J0
X4.392 Y26 I0.139 J0
G0 Z7
X2.774 Y26.02
Z3
G1 Z1.8 F400
Z-0.3
X2.773
X2.756 Y26.04
X2.73 Y26.047
X2.705 Y26.041
X2.686 Y26.023
X2.679 Y25.997
X2.686 Y25.972
X2.705 Y25.953
X2.731 Y25.947
X2.756 Y25.955
X2.774 Y25.975
X2.785 Y25.997
X2.774 Y26.02
Z1.5
Z-0.6
X2.773
X2.756 Y26.04
X2.73 Y26.047
X2.705 Y26.041
X2.686 Y26.023
X2.679 Y25.997
X2.686 Y25.972
X2.705 Y25.953
X2.731 Y25.947
X2.756 Y25.955
X2.774 Y25.975
X2.785 Y25.997
X2.774 Y26.02
Z1.2
Z-0.9
X2.773
X2.756 Y26.04
X2.73 Y26.047
X2.705 Y26.041
X2.686 Y26.023
X2.679 Y25.997
X2.686 Y25.972
X2.705 Y25.953
X2.731 Y25.947
X2.756 Y25.955
X2.774 Y25.975
X2.785 Y25.997
X2.774 Y26.02
Z0.9
Z-1.2
X2.773
X2.756 Y26.04
X2.73 Y26.047
X2.705 Y26.041
X2.686 Y26.023
X2.679 Y25.997
X2.686 Y25.972
X2.705 Y25.953
X2.731 Y25.947
X2.756 Y25.955
X2.774 Y25.975
X2.785 Y25.997
X2.774 Y26.02
Z0.6
Z-1.5
X2.773
X2.756 Y26.04
X2.73 Y26.047
X2.705 Y26.041
X2.686 Y26.023
X2.679 Y25.997
X2.686 Y25.972
X2.705 Y25.953
X2.731 Y25.947
X2.756 Y25.955
X2.774 Y25.975
X2.785 Y25.997
X2.774 Y26.02
Z0.3
Z-1.8
X2.773
X2.756 Y26.04
X2.73 Y26.047
X2.705 Y26.041
X2.686 Y26.023
X2.679 Y25.997
X2.686 Y25.972
X2.705 Y25.953
X2.731 Y25.947
X2.756 Y25.955
X2.774 Y25.975
X2.785 Y25.997
X2.774 Y26.02
Z0
Z-2.1
X2.773
X2.756 Y26.04
X2.73 Y26.047
X2.705 Y26.041
X2.686 Y26.023
X2.679 Y25.997
X2.686 Y25.972
X2.705 Y25.953
X2.731 Y25.947
X2.756 Y25.955
X2.774 Y25.975
X2.785 Y25.997
X2.774 Y26.02
Z-0.3
Z-2.4
X2.773
X2.756 Y26.04
X2.73 Y26.047
X2.705 Y26.041
X2.686 Y26.023
X2.679 Y25.997
X2.686 Y25.972
X2.705 Y25.953
X2.731 Y25.947
X2.756 Y25.955
X2.774 Y25.975
X2.785 Y25.997
X2.774 Y26.02
Z-0.6
Z-2.7
X2.773
X2.756 Y26.04
X2.73 Y26.047
X2.705 Y26.041
X2.686 Y26.023
X2.679 Y25.997
X2.686 Y25.972
X2.705 Y25.953
X2.731 Y25.947
X2.756 Y25.955
X2.774 Y25.975
X2.785 Y25.997
X2.774 Y26.02
Z-0.9
Z-3
X2.773
X2.756 Y26.04
X2.73 Y26.047
X2.705 Y26.041
X2.686 Y26.023
X2.679 Y25.997
X2.686 Y25.972
X2.705 Y25.953
X2.731 Y25.947
X2.756 Y25.955
X2.774 Y25.975
X2.785 Y25.997
X2.774 Y26.02
Z-1.2
Z-3.3
X2.773
X2.756 Y26.04
X2.73 Y26.047
X2.705 Y26.041
X2.686 Y26.023
X2.679 Y25.997
X2.686 Y25.972
X2.705 Y25.953
X2.731 Y25.947
X2.756 Y25.955
X2.774 Y25.975
X2.785 Y25.997
X2.774 Y26.02
Z-1.5
Z-3.5
X2.773
X2.756 Y26.04
X2.73 Y26.047
X2.705 Y26.041
X2.686 Y26.023
X2.679 Y25.997
X2.686 Y25.972
X2.705 Y25.953
X2.731 Y25.947
X2.756 Y25.955
X2.774 Y25.975
X2.785 Y25.997
X2.774 Y26.02
G0 Z7
X4.392 Y28.5
Z3
G1 Z1.8 F400
Z-0.3
G3 X4.114 Y28.5 I-0.139 J0
X4.392 Y28.5 I0.139 J0
G1 Z1.5
Z-0.6
G3 X4.114 Y28.5 I-0.139 J0
X4.392 Y28.5 I0.139 J0
G1 Z1.2
Z-0.9
G3 X4.114 Y28.5 I-0.139 J0
X4.392 Y28.5 I0.139 J0
G1 Z0.9
Z-1.2
G3 X4.114 Y28.5 I-0.139 J0
X4.392 Y28.5 I0.139 J0
G1 Z0.6
Z-1.5
G3 X4.114 Y28.5 I-0.139 J0
X4.392 Y28.5 I0.139 J0
G1 Z0.3
Z-1.8
G3 X4.114 Y28.5 I-0.139 J0
X4.392 Y28.5 I0.139 J0
G1 Z0
Z-2.1
G3 X4.114 Y28.5 I-0.139 J0
X4.392 Y28.5 I0.139 J0
G1 Z-0.3
Z-2.4
G3 X4.114 Y28.5 I-0.139 J0
X4.392 Y28.5 I0.139 J0
G1 Z-0.6
Z-2.7
G3 X4.114 Y28.5 I-0.139 J0
X4.392 Y28.5 I0.139 J0
G1 Z-0.9
Z-3
G3 X4.114 Y28.5 I-0.139 J0
X4.392 Y28.5 I0.139 J0
G1 Z-1.2
Z-3.3
G3 X4.114 Y28.5 I-0.139 J0
X4.392 Y28.5 I0.139 J0
G1 Z-1.5
Z-3.6
G3 X4.114 Y28.5 I-0.139 J0
X4.392 Y28.5 I0.139 J0
G1 Z-1.8
Z-3.9
G3 X4.114 Y28.5 I-0.139 J0
X4.392 Y28.5 I0.139 J0
G1 Z-2.1
Z-4.2
G3 X4.114 Y28.5 I-0.139 J0
X4.392 Y28.5 I0.139 J0
G0 Z7
X2.774 Y28.52
Z3
G1 Z1.8 F400
Z-0.3
X2.773
X2.756 Y28.54
X2.73 Y28.547
X2.705 Y28.541
X2.686 Y28.523
X2.679 Y28.497
X2.686 Y28.472
X2.705 Y28.453
X2.731 Y28.447
X2.756 Y28.455
X2.774 Y28.475
X2.785 Y28.497
X2.774 Y28.52
Z1.5
Z-0.6
X2.773
X2.756 Y28.54
X2.73 Y28.547
X2.705 Y28.541
X2.686 Y28.523
X2.679 Y28.497
X2.686 Y28.472
X2.705 Y28.453
X2.731 Y28.447
X2.756 Y28.455
X2.774 Y28.475
X2.785 Y28.497
X2.774 Y28.52
Z1.2
Z-0.9
X2.773
X2.756 Y28.54
X2.73 Y28.547
X2.705 Y28.541
X2.686 Y28.523
X2.679 Y28.497
X2.686 Y28.472
X2.705 Y28.453
X2.731 Y28.447
X2.756 Y28.455
X2.774 Y28.475
X2.785 Y28.497
X2.774 Y28.52
Z0.9
Z-1.2
X2.773
X2.756 Y28.54
X2.73 Y28.547
X2.705 Y28.541
X2.686 Y28.523
X2.679 Y28.497
X2.686 Y28.472
X2.705 Y28.453
X2.731 Y28.447
X2.756 Y28.455
X2.774 Y28.475
X2.785 Y28.497
X2.774 Y28.52
Z0.6
Z-1.5
X2.773
X2.756 Y28.54
X2.73 Y28.547
X2.705 Y28.541
X2.686 Y28.523
X2.679 Y28.497
X2.686 Y28.472
X2.705 Y28.453
X2.731 Y28.447
X2.756 Y28.455
X2.774 Y28.475
X2.785 Y28.497
X2.774 Y28.52
Z0.3
Z-1.8
X2.773
X2.756 Y28.54
X2.73 Y28.547
X2.705 Y28.541
X2.686 Y28.523
X2.679 Y28.497
X2.686 Y28.472
X2.705 Y28.453
X2.731 Y28.447
X2.756 Y28.455
X2.774 Y28.475
X2.785 Y28.497
X2.774 Y28.52
Z0
Z-2.1
X2.773
X2.756 Y28.54
X2.73 Y28.547
X2.705 Y28.541
X2.686 Y28.523
X2.679 Y28.497
X2.686 Y28.472
X2.705 Y28.453
X2.731 Y28.447
X2.756 Y28.455
X2.774 Y28.475
X2.785 Y28.497
X2.774 Y28.52
Z-0.3
Z-2.4
X2.773
X2.756 Y28.54
X2.73 Y28.547
X2.705 Y28.541
X2.686 Y28.523
X2.679 Y28.497
X2.686 Y28.472
X2.705 Y28.453
X2.731 Y28.447
X2.756 Y28.455
X2.774 Y28.475
X2.785 Y28.497
X2.774 Y28.52
Z-0.6
Z-2.7
X2.773
X2.756 Y28.54
X2.73 Y28.547
X2.705 Y28.541
X2.686 Y28.523
X2.679 Y28.497
X2.686 Y28.472
X2.705 Y28.453
X2.731 Y28.447
X2.756 Y28.455
X2.774 Y28.475
X2.785 Y28.497
X2.774 Y28.52
Z-0.9
Z-3
X2.773
X2.756 Y28.54
X2.73 Y28.547
X2.705 Y28.541
X2.686 Y28.523
X2.679 Y28.497
X2.686 Y28.472
X2.705 Y28.453
X2.731 Y28.447
X2.756 Y28.455
X2.774 Y28.475
X2.785 Y28.497
X2.774 Y28.52
Z-1.2
Z-3.3
X2.773
X2.756 Y28.54
X2.73 Y28.547
X2.705 Y28.541
X2.686 Y28.523
X2.679 Y28.497
X2.686 Y28.472
X2.705 Y28.453
X2.731 Y28.447
X2.756 Y28.455
X2.774 Y28.475
X2.785 Y28.497
X2.774 Y28.52
Z-1.5
Z-3.5
X2.773
X2.756 Y28.54
X2.73 Y28.547
X2.705 Y28.541
X2.686 Y28.523
X2.679 Y28.497
X2.686 Y28.472
X2.705 Y28.453
X2.731 Y28.447
X2.756 Y28.455
X2.774 Y28.475
X2.785 Y28.497
X2.774 Y28.52
G0 Z7
X4.392 Y31
Z3
G1 Z1.8 F400
Z-0.3
G3 X4.114 Y31 I-0.139 J0
X4.392 Y31 I0.139 J0
G1 Z1.5
Z-0.6
G3 X4.114 Y31 I-0.139 J0
X4.392 Y31 I0.139 J0
G1 Z1.2
Z-0.9
G3 X4.114 Y31 I-0.139 J0
X4.392 Y31 I0.139 J0
G1 Z0.9
Z-1.2
G3 X4.114 Y31 I-0.139 J0
X4.392 Y31 I0.139 J0
G1 Z0.6
Z-1.5
G3 X4.114 Y31 I-0.139 J0
X4.392 Y31 I0.139 J0
G1 Z0.3
Z-1.8
G3 X4.114 Y31 I-0.139 J0
X4.392 Y31 I0.139 J0
G1 Z0
Z-2.1
G3 X4.114 Y31 I-0.139 J0
X4.392 Y31 I0.139 J0
G1 Z-0.3
Z-2.4
G3 X4.114 Y31 I-0.139 J0
X4.392 Y31 I0.139 J0
G1 Z-0.6
Z-2.7
G3 X4.114 Y31 I-0.139 J0
X4.392 Y31 I0.139 J0
G1 Z-0.9
Z-3
G3 X4.114 Y31 I-0.139 J0
X4.392 Y31 I0.139 J0
G1 Z-1.2
Z-3.3
G3 X4.114 Y31 I-0.139 J0
X4.392 Y31 I0.139 J0
G1 Z-1.5
Z-3.6
G3 X4.114 Y31 I-0.139 J0
X4.392 Y31 I0.139 J0
G1 Z-1.8
Z-3.9
G3 X4.114 Y31 I-0.139 J0
X4.392 Y31 I0.139 J0
G1 Z-2.1
Z-4.2
G3 X4.114 Y31 I-0.139 J0
X4.392 Y31 I0.139 J0
G0 Z7
X2.774 Y31.02
Z3
G1 Z1.8 F400
Z-0.3
X2.773
X2.756 Y31.04
X2.73 Y31.047
X2.705 Y31.041
X2.686 Y31.023
X2.679 Y30.997
X2.686 Y30.972
X2.705 Y30.953
X2.731 Y30.947
X2.756 Y30.955
X2.774 Y30.975
X2.785 Y30.997
X2.774 Y31.02
Z1.5
Z-0.6
X2.773
X2.756 Y31.04
X2.73 Y31.047
X2.705 Y31.041
X2.686 Y31.023
X2.679 Y30.997
X2.686 Y30.972
X2.705 Y30.953
X2.731 Y30.947
X2.756 Y30.955
X2.774 Y30.975
X2.785 Y30.997
X2.774 Y31.02
Z1.2
Z-0.9
X2.773
X2.756 Y31.04
X2.73 Y31.047
X2.705 Y31.041
X2.686 Y31.023
X2.679 Y30.997
X2.686 Y30.972
X2.705 Y30.953
X2.731 Y30.947
X2.756 Y30.955
X2.774 Y30.975
X2.785 Y30.997
X2.774 Y31.02
Z0.9
Z-1.2
X2.773
X2.756 Y31.04
X2.73 Y31.047
X2.705 Y31.041
X2.686 Y31.023
X2.679 Y30.997
X2.686 Y30.972
X2.705 Y30.953
X2.731 Y30.947
X2.756 Y30.955
X2.774 Y30.975
X2.785 Y30.997
X2.774 Y31.02
Z0.6
Z-1.5
X2.773
X2.756 Y31.04
X2.73 Y31.047
X2.705 Y31.041
X2.686 Y31.023
X2.679 Y30.997
X2.686 Y30.972
X2.705 Y30.953
X2.731 Y30.947
X2.756 Y30.955
X2.774 Y30.975
X2.785 Y30.997
X2.774 Y31.02
Z0.3
Z-1.8
X2.773
X2.756 Y31.04
X2.73 Y31.047
X2.705 Y31.041
X2.686 Y31.023
X2.679 Y30.997
X2.686 Y30.972
X2.705 Y30.953
X2.731 Y30.947
X2.756 Y30.955
X2.774 Y30.975
X2.785 Y30.997
X2.774 Y31.02
Z0
Z-2.1
X2.773
X2.756 Y31.04
X2.73 Y31.047
X2.705 Y31.041
X2.686 Y31.023
X2.679 Y30.997
X2.686 Y30.972
X2.705 Y30.953
X2.731 Y30.947
X2.756 Y30.955
X2.774 Y30.975
X2.785 Y30.997
X2.774 Y31.02
Z-0.3
Z-2.4
X2.773
X2.756 Y31.04
X2.73 Y31.047
X2.705 Y31.041
X2.686 Y31.023
X2.679 Y30.997
X2.686 Y30.972
X2.705 Y30.953
X2.731 Y30.947
X2.756 Y30.955
X2.774 Y30.975
X2.785 Y30.997
X2.774 Y31.02
Z-0.6
Z-2.7
X2.773
X2.756 Y31.04
X2.73 Y31.047
X2.705 Y31.041
X2.686 Y31.023
X2.679 Y30.997
X2.686 Y30.972
X2.705 Y30.953
X2.731 Y30.947
X2.756 Y30.955
X2.774 Y30.975
X2.785 Y30.997
X2.774 Y31.02
Z-0.9
Z-3
X2.773
X2.756 Y31.04
X2.73 Y31.047
X2.705 Y31.041
X2.686 Y31.023
X2.679 Y30.997
X2.686 Y30.972
X2.705 Y30.953
X2.731 Y30.947
X2.756 Y30.955
X2.774 Y30.975
X2.785 Y30.997
X2.774 Y31.02
Z-1.2
Z-3.3
X2.773
X2.756 Y31.04
X2.73 Y31.047
X2.705 Y31.041
X2.686 Y31.023
X2.679 Y30.997
X2.686 Y30.972
X2.705 Y30.953
X2.731 Y30.947
X2.756 Y30.955
X2.774 Y30.975
X2.785 Y30.997
X2.774 Y31.02
Z-1.5
Z-3.5
X2.773
X2.756 Y31.04
X2.73 Y31.047
X2.705 Y31.041
X2.686 Y31.023
X2.679 Y30.997
X2.686 Y30.972
X2.705 Y30.953
X2.731 Y30.947
X2.756 Y30.955
X2.774 Y30.975
X2.785 Y30.997
X2.774 Y31.02
G0 Z7
X4.17 Y33.389
Z3
G1 Z1.8 F400
Z-0.3
G3 X4.336 Y33.611 I0.083 J0.111
X4.17 Y33.389 I-0.083 J-0.111
G1 Z1.5
Z-0.6
G3 X4.336 Y33.611 I0.083 J0.111
X4.17 Y33.389 I-0.083 J-0.111
G1 Z1.2
Z-0.9
G3 X4.336 Y33.611 I0.083 J0.111
X4.17 Y33.389 I-0.083 J-0.111
G1 Z0.9
Z-1.2
G3 X4.336 Y33.611 I0.083 J0.111
X4.17 Y33.389 I-0.083 J-0.111
G1 Z0.6
Z-1.5
G3 X4.336 Y33.611 I0.083 J0.111
X4.17 Y33.389 I-0.083 J-0.111
G1 Z0.3
Z-1.8
G3 X4.336 Y33.611 I0.083 J0.111
X4.17 Y33.389 I-0.083 J-0.111
G1 Z0
Z-2.1
G3 X4.336 Y33.611 I0.083 J0.111
X4.17 Y33.389 I-0.083 J-0.111
G1 Z-0.3
Z-2.4
G3 X4.336 Y33.611 I0.083 J0.111
X4.17 Y33.389 I-0.083 J-0.111
G1 Z-0.6
Z-2.7
G3 X4.336 Y33.611 I0.083 J0.111
X4.17 Y33.389 I-0.083 J-0.111
G1 Z-0.9
Z-3
G3 X4.336 Y33.611 I0.083 J0.111
X4.17 Y33.389 I-0.083 J-0.111
G1 Z-1.2
Z-3.3
G3 X4.336 Y33.611 I0.083 J0.111
X4.17 Y33.389 I-0.083 J-0.111
G1 Z-1.5
Z-3.6
G3 X4.336 Y33.611 I0.083 J0.111
X4.17 Y33.389 I-0.083 J-0.111
G1 Z-1.8
Z-3.9
G3 X4.336 Y33.611 I0.083 J0.111
X4.17 Y33.389 I-0.083 J-0.111
G1 Z-2.1
Z-4.2
G3 X4.336 Y33.611 I0.083 J0.111
X4.17 Y33.389 I-0.083 J-0.111
G0 Z7
X2.774 Y33.52
Z3
G1 Z1.8 F400
Z-0.3
X2.773
X2.756 Y33.54
X2.73 Y33.547
X2.705 Y33.541
X2.686 Y33.523
X2.679 Y33.497
X2.686 Y33.472
X2.705 Y33.453
X2.731 Y33.447
X2.756 Y33.455
X2.774 Y33.475
X2.785 Y33.497
X2.774 Y33.52
Z1.5
Z-0.6
X2.773
X2.756 Y33.54
X2.73 Y33.547
X2.705 Y33.541
X2.686 Y33.523
X2.679 Y33.497
X2.686 Y33.472
X2.705 Y33.453
X2.731 Y33.447
X2.756 Y33.455
X2.774 Y33.475
X2.785 Y33.497
X2.774 Y33.52
Z1.2
Z-0.9
X2.773
X2.756 Y33.54
X2.73 Y33.547
X2.705 Y33.541
X2.686 Y33.523
X2.679 Y33.497
X2.686 Y33.472
X2.705 Y33.453
X2.731 Y33.447
X2.756 Y33.455
X2.774 Y33.475
X2.785 Y33.497
X2.774 Y33.52
Z0.9
Z-1.2
X2.773
X2.756 Y33.54
X2.73 Y33.547
X2.705 Y33.541
X2.686 Y33.523
X2.679 Y33.497
X2.686 Y33.472
X2.705 Y33.453
X2.731 Y33.447
X2.756 Y33.455
X2.774 Y33.475
X2.785 Y33.497
X2.774 Y33.52
Z0.6
Z-1.5
X2.773
X2.756 Y33.54
X2.73 Y33.547
X2.705 Y33.541
X2.686 Y33.523
X2.679 Y33.497
X2.686 Y33.472
X2.705 Y33.453
X2.731 Y33.447
X2.756 Y33.455
X2.774 Y33.475
X2.785 Y33.497
X2.774 Y33.52
Z0.3
Z-1.8
X2.773
X2.756 Y33.54
X2.73 Y33.547
X2.705 Y33.541
X2.686 Y33.523
X2.679 Y33.497
X2.686 Y33.472
X2.705 Y33.453
X2.731 Y33.447
X2.756 Y33.455
X2.774 Y33.475
X2.785 Y33.497
X2.774 Y33.52
Z0
Z-2.1
X2.773
X2.756 Y33.54
X2.73 Y33.547
X2.705 Y33.541
X2.686 Y33.523
X2.679 Y33.497
X2.686 Y33.472
X2.705 Y33.453
X2.731 Y33.447
X2.756 Y33.455
X2.774 Y33.475
X2.785 Y33.497
X2.774 Y33.52
Z-0.3
Z-2.4
X2.773
X2.756 Y33.54
X2.73 Y33.547
X2.705 Y33.541
X2.686 Y33.523
X2.679 Y33.497
X2.686 Y33.472
X2.705 Y33.453
X2.731 Y33.447
X2.756 Y33.455
X2.774 Y33.475
X2.785 Y33.497
X2.774 Y33.52
Z-0.6
Z-2.7
X2.773
X2.756 Y33.54
X2.73 Y33.547
X2.705 Y33.541
X2.686 Y33.523
X2.679 Y33.497
X2.686 Y33.472
X2.705 Y33.453
X2.731 Y33.447
X2.756 Y33.455
X2.774 Y33.475
X2.785 Y33.497
X2.774 Y33.52
Z-0.9
Z-3
X2.773
X2.756 Y33.54
X2.73 Y33.547
X2.705 Y33.541
X2.686 Y33.523
X2.679 Y33.497
X2.686 Y33.472
X2.705 Y33.453
X2.731 Y33.447
X2.756 Y33.455
X2.774 Y33.475
X2.785 Y33.497
X2.774 Y33.52
Z-1.2
Z-3.3
X2.773
X2.756 Y33.54
X2.73 Y33.547
X2.705 Y33.541
X2.686 Y33.523
X2.679 Y33.497
X2.686 Y33.472
X2.705 Y33.453
X2.731 Y33.447
X2.756 Y33.455
X2.774 Y33.475
X2.785 Y33.497
X2.774 Y33.52
Z-1.5
Z-3.5
X2.773
X2.756 Y33.54
X2.73 Y33.547
X2.705 Y33.541
X2.686 Y33.523
X2.679 Y33.497
X2.686 Y33.472
X2.705 Y33.453
X2.731 Y33.447
X2.756 Y33.455
X2.774 Y33.475
X2.785 Y33.497
X2.774 Y33.52
G0 Z7
X4.17 Y35.889
Z3
G1 Z1.8 F400
Z-0.3
G3 X4.336 Y36.111 I0.083 J0.111
X4.17 Y35.889 I-0.083 J-0.111
G1 Z1.5
Z-0.6
G3 X4.336 Y36.111 I0.083 J0.111
X4.17 Y35.889 I-0.083 J-0.111
G1 Z1.2
Z-0.9
G3 X4.336 Y36.111 I0.083 J0.111
X4.17 Y35.889 I-0.083 J-0.111
G1 Z0.9
Z-1.2
G3 X4.336 Y36.111 I0.083 J0.111
X4.17 Y35.889 I-0.083 J-0.111
G1 Z0.6
Z-1.5
G3 X4.336 Y36.111 I0.083 J0.111
X4.17 Y35.889 I-0.083 J-0.111
G1 Z0.3
Z-1.8
G3 X4.336 Y36.111 I0.083 J0.111
X4.17 Y35.889 I-0.083 J-0.111
G1 Z0
Z-2.1
G3 X4.336 Y36.111 I0.083 J0.111
X4.17 Y35.889 I-0.083 J-0.111
G1 Z-0.3
Z-2.4
G3 X4.336 Y36.111 I0.083 J0.111
X4.17 Y35.889 I-0.083 J-0.111
G1 Z-0.6
Z-2.7
G3 X4.336 Y36.111 I0.083 J0.111
X4.17 Y35.889 I-0.083 J-0.111
G1 Z-0.9
Z-3
G3 X4.336 Y36.111 I0.083 J0.111
X4.17 Y35.889 I-0.083 J-0.111
G1 Z-1.2
Z-3.3
G3 X4.336 Y36.111 I0.083 J0.111
X4.17 Y35.889 I-0.083 J-0.111
G1 Z-1.5
Z-3.6
G3 X4.336 Y36.111 I0.083 J0.111
X4.17 Y35.889 I-0.083 J-0.111
G1 Z-1.8
Z-3.9
G3 X4.336 Y36.111 I0.083 J0.111
X4.17 Y35.889 I-0.083 J-0.111
G1 Z-2.1
Z-4.2
G3 X4.336 Y36.111 I0.083 J0.111
X4.17 Y35.889 I-0.083 J-0.111
G0 Z7
X2.774 Y36.02
Z3
G1 Z1.8 F400
Z-0.3
X2.773
X2.756 Y36.04
X2.73 Y36.047
X2.705 Y36.041
X2.686 Y36.023
X2.679 Y35.997
X2.686 Y35.972
X2.705 Y35.953
X2.731 Y35.947
X2.756 Y35.955
X2.774 Y35.975
X2.785 Y35.997
X2.774 Y36.02
Z1.5
Z-0.6
X2.773
X2.756 Y36.04
X2.73 Y36.047
X2.705 Y36.041
X2.686 Y36.023
X2.679 Y35.997
X2.686 Y35.972
X2.705 Y35.953
X2.731 Y35.947
X2.756 Y35.955
X2.774 Y35.975
X2.785 Y35.997
X2.774 Y36.02
Z1.2
Z-0.9
X2.773
X2.756 Y36.04
X2.73 Y36.047
X2.705 Y36.041
X2.686 Y36.023
X2.679 Y35.997
X2.686 Y35.972
X2.705 Y35.953
X2.731 Y35.947
X2.756 Y35.955
X2.774 Y35.975
X2.785 Y35.997
X2.774 Y36.02
Z0.9
Z-1.2
X2.773
X2.756 Y36.04
X2.73 Y36.047
X2.705 Y36.041
X2.686 Y36.023
X2.679 Y35.997
X2.686 Y35.972
X2.705 Y35.953
X2.731 Y35.947
X2.756 Y35.955
X2.774 Y35.975
X2.785 Y35.997
X2.774 Y36.02
Z0.6
Z-1.5
X2.773
X2.756 Y36.04
X2.73 Y36.047
X2.705 Y36.041
X2.686 Y36.023
X2.679 Y35.997
X2.686 Y35.972
X2.705 Y35.953
X2.731 Y35.947
X2.756 Y35.955
X2.774 Y35.975
X2.785 Y35.997
X2.774 Y36.02
Z0.3
Z-1.8
X2.773
X2.756 Y36.04
X2.73 Y36.047
X2.705 Y36.041
X2.686 Y36.023
X2.679 Y35.997
X2.686 Y35.972
X2.705 Y35.953
X2.731 Y35.947
X2.756 Y35.955
X2.774 Y35.975
X2.785 Y35.997
X2.774 Y36.02
Z0
Z-2.1
X2.773
X2.756 Y36.04
X2.73 Y36.047
X2.705 Y36.041
X2.686 Y36.023
X2.679 Y35.997
X2.686 Y35.972
X2.705 Y35.953
X2.731 Y35.947
X2.756 Y35.955
X2.774 Y35.975
X2.785 Y35.997
X2.774 Y36.02
Z-0.3
Z-2.4
X2.773
X2.756 Y36.04
X2.73 Y36.047
X2.705 Y36.041
X2.686 Y36.023
X2.679 Y35.997
X2.686 Y35.972
X2.705 Y35.953
X2.731 Y35.947
X2.756 Y35.955
X2.774 Y35.975
X2.785 Y35.997
X2.774 Y36.02
Z-0.6
Z-2.7
X2.773
X2.756 Y36.04
X2.73 Y36.047
X2.705 Y36.041
X2.686 Y36.023
X2.679 Y35.997
X2.686 Y35.972
X2.705 Y35.953
X2.731 Y35.947
X2.756 Y35.955
X2.774 Y35.975
X2.785 Y35.997
X2.774 Y36.02
Z-0.9
Z-3
X2.773
X2.756 Y36.04
X2.73 Y36.047
X2.705 Y36.041
X2.686 Y36.023
X2.679 Y35.997
X2.686 Y35.972
X2.705 Y35.953
X2.731 Y35.947
X2.756 Y35.955
X2.774 Y35.975
X2.785 Y35.997
X2.774 Y36.02
Z-1.2
Z-3.3
X2.773
X2.756 Y36.04
X2.73 Y36.047
X2.705 Y36.041
X2.686 Y36.023
X2.679 Y35.997
X2.686 Y35.972
X2.705 Y35.953
X2.731 Y35.947
X2.756 Y35.955
X2.774 Y35.975
X2.785 Y35.997
X2.774 Y36.02
Z-1.5
Z-3.5
X2.773
X2.756 Y36.04
X2.73 Y36.047
X2.705 Y36.041
X2.686 Y36.023
X2.679 Y35.997
X2.686 Y35.972
X2.705 Y35.953
X2.731 Y35.947
X2.756 Y35.955
X2.774 Y35.975
X2.785 Y35.997
X2.774 Y36.02
G0 Z7
X4.17 Y38.389
Z3
G1 Z1.8 F400
Z-0.3
G3 X4.336 Y38.611 I0.083 J0.111
X4.17 Y38.389 I-0.083 J-0.111
G1 Z1.5
Z-0.6
G3 X4.336 Y38.611 I0.083 J0.111
X4.17 Y38.389 I-0.083 J-0.111
G1 Z1.2
Z-0.9
G3 X4.336 Y38.611 I0.083 J0.111
X4.17 Y38.389 I-0.083 J-0.111
G1 Z0.9
Z-1.2
G3 X4.336 Y38.611 I0.083 J0.111
X4.17 Y38.389 I-0.083 J-0.111
G1 Z0.6
Z-1.5
G3 X4.336 Y38.611 I0.083 J0.111
X4.17 Y38.389 I-0.083 J-0.111
G1 Z0.3
Z-1.8
G3 X4.336 Y38.611 I0.083 J0.111
X4.17 Y38.389 I-0.083 J-0.111
G1 Z0
Z-2.1
G3 X4.336 Y38.611 I0.083 J0.111
X4.17 Y38.389 I-0.083 J-0.111
G1 Z-0.3
Z-2.4
G3 X4.336 Y38.611 I0.083 J0.111
X4.17 Y38.389 I-0.083 J-0.111
G1 Z-0.6
Z-2.7
G3 X4.336 Y38.611 I0.083 J0.111
X4.17 Y38.389 I-0.083 J-0.111
G1 Z-0.9
Z-3
G3 X4.336 Y38.611 I0.083 J0.111
X4.17 Y38.389 I-0.083 J-0.111
G1 Z-1.2
Z-3.3
G3 X4.336 Y38.611 I0.083 J0.111
X4.17 Y38.389 I-0.083 J-0.111
G1 Z-1.5
Z-3.6
G3 X4.336 Y38.611 I0.083 J0.111
X4.17 Y38.389 I-0.083 J-0.111
G1 Z-1.8
Z-3.9
G3 X4.336 Y38.611 I0.083 J0.111
X4.17 Y38.389 I-0.083 J-0.111
G1 Z-2.1
Z-4.2
G3 X4.336 Y38.611 I0.083 J0.111
X4.17 Y38.389 I-0.083 J-0.111
G0 Z7
X2.774 Y38.52
Z3
G1 Z1.8 F400
Z-0.3
X2.773
X2.756 Y38.54
X2.73 Y38.547
X2.705 Y38.541
X2.686 Y38.523
X2.679 Y38.497
X2.686 Y38.472
X2.705 Y38.453
X2.731 Y38.447
X2.756 Y38.455
X2.774 Y38.475
X2.785 Y38.497
X2.774 Y38.52
Z1.5
Z-0.6
X2.773
X2.756 Y38.54
X2.73 Y38.547
X2.705 Y38.541
X2.686 Y38.523
X2.679 Y38.497
X2.686 Y38.472
X2.705 Y38.453
X2.731 Y38.447
X2.756 Y38.455
X2.774 Y38.475
X2.785 Y38.497
X2.774 Y38.52
Z1.2
Z-0.9
X2.773
X2.756 Y38.54
X2.73 Y38.547
X2.705 Y38.541
X2.686 Y38.523
X2.679 Y38.497
X2.686 Y38.472
X2.705 Y38.453
X2.731 Y38.447
X2.756 Y38.455
X2.774 Y38.475
X2.785 Y38.497
X2.774 Y38.52
Z0.9
Z-1.2
X2.773
X2.756 Y38.54
X2.73 Y38.547
X2.705 Y38.541
X2.686 Y38.523
X2.679 Y38.497
X2.686 Y38.472
X2.705 Y38.453
X2.731 Y38.447
X2.756 Y38.455
X2.774 Y38.475
X2.785 Y38.497
X2.774 Y38.52
Z0.6
Z-1.5
X2.773
X2.756 Y38.54
X2.73 Y38.547
X2.705 Y38.541
X2.686 Y38.523
X2.679 Y38.497
X2.686 Y38.472
X2.705 Y38.453
X2.731 Y38.447
X2.756 Y38.455
X2.774 Y38.475
X2.785 Y38.497
X2.774 Y38.52
Z0.3
Z-1.8
X2.773
X2.756 Y38.54
X2.73 Y38.547
X2.705 Y38.541
X2.686 Y38.523
X2.679 Y38.497
X2.686 Y38.472
X2.705 Y38.453
X2.731 Y38.447
X2.756 Y38.455
X2.774 Y38.475
X2.785 Y38.497
X2.774 Y38.52
Z0
Z-2.1
X2.773
X2.756 Y38.54
X2.73 Y38.547
X2.705 Y38.541
X2.686 Y38.523
X2.679 Y38.497
X2.686 Y38.472
X2.705 Y38.453
X2.731 Y38.447
X2.756 Y38.455
X2.774 Y38.475
X2.785 Y38.497
X2.774 Y38.52
Z-0.3
Z-2.4
X2.773
X2.756 Y38.54
X2.73 Y38.547
X2.705 Y38.541
X2.686 Y38.523
X2.679 Y38.497
X2.686 Y38.472
X2.705 Y38.453
X2.731 Y38.447
X2.756 Y38.455
X2.774 Y38.475
X2.785 Y38.497
X2.774 Y38.52
Z-0.6
Z-2.7
X2.773
X2.756 Y38.54
X2.73 Y38.547
X2.705 Y38.541
X2.686 Y38.523
X2.679 Y38.497
X2.686 Y38.472
X2.705 Y38.453
X2.731 Y38.447
X2.756 Y38.455
X2.774 Y38.475
X2.785 Y38.497
X2.774 Y38.52
Z-0.9
Z-3
X2.773
X2.756 Y38.54
X2.73 Y38.547
X2.705 Y38.541
X2.686 Y38.523
X2.679 Y38.497
X2.686 Y38.472
X2.705 Y38.453
X2.731 Y38.447
X2.756 Y38.455
X2.774 Y38.475
X2.785 Y38.497
X2.774 Y38.52
Z-1.2
Z-3.3
X2.773
X2.756 Y38.54
X2.73 Y38.547
X2.705 Y38.541
X2.686 Y38.523
X2.679 Y38.497
X2.686 Y38.472
X2.705 Y38.453
X2.731 Y38.447
X2.756 Y38.455
X2.774 Y38.475
X2.785 Y38.497
X2.774 Y38.52
Z-1.5
Z-3.5
X2.773
X2.756 Y38.54
X2.73 Y38.547
X2.705 Y38.541
X2.686 Y38.523
X2.679 Y38.497
X2.686 Y38.472
X2.705 Y38.453
X2.731 Y38.447
X2.756 Y38.455
X2.774 Y38.475
X2.785 Y38.497
X2.774 Y38.52
G0 Z7
X4.17 Y40.889
Z3
G1 Z1.8 F400
Z-0.3
G3 X4.336 Y41.111 I0.083 J0.111
X4.17 Y40.889 I-0.083 J-0.111
G1 Z1.5
Z-0.6
G3 X4.336 Y41.111 I0.083 J0.111
X4.17 Y40.889 I-0.083 J-0.111
G1 Z1.2
Z-0.9
G3 X4.336 Y41.111 I0.083 J0.111
X4.17 Y40.889 I-0.083 J-0.111
G1 Z0.9
Z-1.2
G3 X4.336 Y41.111 I0.083 J0.111
X4.17 Y40.889 I-0.083 J-0.111
G1 Z0.6
Z-1.5
G3 X4.336 Y41.111 I0.083 J0.111
X4.17 Y40.889 I-0.083 J-0.111
G1 Z0.3
Z-1.8
G3 X4.336 Y41.111 I0.083 J0.111
X4.17 Y40.889 I-0.083 J-0.111
G1 Z0
Z-2.1
G3 X4.336 Y41.111 I0.083 J0.111
X4.17 Y40.889 I-0.083 J-0.111
G1 Z-0.3
Z-2.4
G3 X4.336 Y41.111 I0.083 J0.111
X4.17 Y40.889 I-0.083 J-0.111
G1 Z-0.6
Z-2.7
G3 X4.336 Y41.111 I0.083 J0.111
X4.17 Y40.889 I-0.083 J-0.111
G1 Z-0.9
Z-3
G3 X4.336 Y41.111 I0.083 J0.111
X4.17 Y40.889 I-0.083 J-0.111
G1 Z-1.2
Z-3.3
G3 X4.336 Y41.111 I0.083 J0.111
X4.17 Y40.889 I-0.083 J-0.111
G1 Z-1.5
Z-3.6
G3 X4.336 Y41.111 I0.083 J0.111
X4.17 Y40.889 I-0.083 J-0.111
G1 Z-1.8
Z-3.9
G3 X4.336 Y41.111 I0.083 J0.111
X4.17 Y40.889 I-0.083 J-0.111
G1 Z-2.1
Z-4.2
G3 X4.336 Y41.111 I0.083 J0.111
X4.17 Y40.889 I-0.083 J-0.111
G0 Z7
X2.774 Y41.02
Z3
G1 Z1.8 F400
Z-0.3
X2.773
X2.756 Y41.04
X2.73 Y41.047
X2.705 Y41.041
X2.686 Y41.023
X2.679 Y40.997
X2.686 Y40.972
X2.705 Y40.953
X2.731 Y40.947
X2.756 Y40.955
X2.774 Y40.975
X2.785 Y40.997
X2.774 Y41.02
Z1.5
Z-0.6
X2.773
X2.756 Y41.04
X2.73 Y41.047
X2.705 Y41.041
X2.686 Y41.023
X2.679 Y40.997
X2.686 Y40.972
X2.705 Y40.953
X2.731 Y40.947
X2.756 Y40.955
X2.774 Y40.975
X2.785 Y40.997
X2.774 Y41.02
Z1.2
Z-0.9
X2.773
X2.756 Y41.04
X2.73 Y41.047
X2.705 Y41.041
X2.686 Y41.023
X2.679 Y40.997
X2.686 Y40.972
X2.705 Y40.953
X2.731 Y40.947
X2.756 Y40.955
X2.774 Y40.975
X2.785 Y40.997
X2.774 Y41.02
Z0.9
Z-1.2
X2.773
X2.756 Y41.04
X2.73 Y41.047
X2.705 Y41.041
X2.686 Y41.023
X2.679 Y40.997
X2.686 Y40.972
X2.705 Y40.953
X2.731 Y40.947
X2.756 Y40.955
X2.774 Y40.975
X2.785 Y40.997
X2.774 Y41.02
Z0.6
Z-1.5
X2.773
X2.756 Y41.04
X2.73 Y41.047
X2.705 Y41.041
X2.686 Y41.023
X2.679 Y40.997
X2.686 Y40.972
X2.705 Y40.953
X2.731 Y40.947
X2.756 Y40.955
X2.774 Y40.975
X2.785 Y40.997
X2.774 Y41.02
Z0.3
Z-1.8
X2.773
X2.756 Y41.04
X2.73 Y41.047
X2.705 Y41.041
X2.686 Y41.023
X2.679 Y40.997
X2.686 Y40.972
X2.705 Y40.953
X2.731 Y40.947
X2.756 Y40.955
X2.774 Y40.975
X2.785 Y40.997
X2.774 Y41.02
Z0
Z-2.1
X2.773
X2.756 Y41.04
X2.73 Y41.047
X2.705 Y41.041
X2.686 Y41.023
X2.679 Y40.997
X2.686 Y40.972
X2.705 Y40.953
X2.731 Y40.947
X2.756 Y40.955
X2.774 Y40.975
X2.785 Y40.997
X2.774 Y41.02
Z-0.3
Z-2.4
X2.773
X2.756 Y41.04
X2.73 Y41.047
X2.705 Y41.041
X2.686 Y41.023
X2.679 Y40.997
X2.686 Y40.972
X2.705 Y40.953
X2.731 Y40.947
X2.756 Y40.955
X2.774 Y40.975
X2.785 Y40.997
X2.774 Y41.02
Z-0.6
Z-2.7
X2.773
X2.756 Y41.04
X2.73 Y41.047
X2.705 Y41.041
X2.686 Y41.023
X2.679 Y40.997
X2.686 Y40.972
X2.705 Y40.953
X2.731 Y40.947
X2.756 Y40.955
X2.774 Y40.975
X2.785 Y40.997
X2.774 Y41.02
Z-0.9
Z-3
X2.773
X2.756 Y41.04
X2.73 Y41.047
X2.705 Y41.041
X2.686 Y41.023
X2.679 Y40.997
X2.686 Y40.972
X2.705 Y40.953
X2.731 Y40.947
X2.756 Y40.955
X2.774 Y40.975
X2.785 Y40.997
X2.774 Y41.02
Z-1.2
Z-3.3
X2.773
X2.756 Y41.04
X2.73 Y41.047
X2.705 Y41.041
X2.686 Y41.023
X2.679 Y40.997
X2.686 Y40.972
X2.705 Y40.953
X2.731 Y40.947
X2.756 Y40.955
X2.774 Y40.975
X2.785 Y40.997
X2.774 Y41.02
Z-1.5
Z-3.5
X2.773
X2.756 Y41.04
X2.73 Y41.047
X2.705 Y41.041
X2.686 Y41.023
X2.679 Y40.997
X2.686 Y40.972
X2.705 Y40.953
X2.731 Y40.947
X2.756 Y40.955
X2.774 Y40.975
X2.785 Y40.997
X2.774 Y41.02
G0 Z7
X4.17 Y43.389
Z3
G1 Z1.8 F400
Z-0.3
G3 X4.336 Y43.611 I0.083 J0.111
X4.17 Y43.389 I-0.083 J-0.111
G1 Z1.5
Z-0.6
G3 X4.336 Y43.611 I0.083 J0.111
X4.17 Y43.389 I-0.083 J-0.111
G1 Z1.2
Z-0.9
G3 X4.336 Y43.611 I0.083 J0.111
X4.17 Y43.389 I-0.083 J-0.111
G1 Z0.9
Z-1.2
G3 X4.336 Y43.611 I0.083 J0.111
X4.17 Y43.389 I-0.083 J-0.111
G1 Z0.6
Z-1.5
G3 X4.336 Y43.611 I0.083 J0.111
X4.17 Y43.389 I-0.083 J-0.111
G1 Z0.3
Z-1.8
G3 X4.336 Y43.611 I0.083 J0.111
X4.17 Y43.389 I-0.083 J-0.111
G1 Z0
Z-2.1
G3 X4.336 Y43.611 I0.083 J0.111
X4.17 Y43.389 I-0.083 J-0.111
G1 Z-0.3
Z-2.4
G3 X4.336 Y43.611 I0.083 J0.111
X4.17 Y43.389 I-0.083 J-0.111
G1 Z-0.6
Z-2.7
G3 X4.336 Y43.611 I0.083 J0.111
X4.17 Y43.389 I-0.083 J-0.111
G1 Z-0.9
Z-3
G3 X4.336 Y43.611 I0.083 J0.111
X4.17 Y43.389 I-0.083 J-0.111
G1 Z-1.2
Z-3.3
G3 X4.336 Y43.611 I0.083 J0.111
X4.17 Y43.389 I-0.083 J-0.111
G1 Z-1.5
Z-3.6
G3 X4.336 Y43.611 I0.083 J0.111
X4.17 Y43.389 I-0.083 J-0.111
G1 Z-1.8
Z-3.9
G3 X4.336 Y43.611 I0.083 J0.111
X4.17 Y43.389 I-0.083 J-0.111
G1 Z-2.1
Z-4.2
G3 X4.336 Y43.611 I0.083 J0.111
X4.17 Y43.389 I-0.083 J-0.111
G0 Z7
Y48.389
Z3
G1 Z1.8 F400
Z-0.3
G3 X4.336 Y48.611 I0.083 J0.111
X4.17 Y48.389 I-0.083 J-0.111
G1 Z1.5
Z-0.6
G3 X4.336 Y48.611 I0.083 J0.111
X4.17 Y48.389 I-0.083 J-0.111
G1 Z1.2
Z-0.9
G3 X4.336 Y48.611 I0.083 J0.111
X4.17 Y48.389 I-0.083 J-0.111
G1 Z0.9
Z-1.2
G3 X4.336 Y48.611 I0.083 J0.111
X4.17 Y48.389 I-0.083 J-0.111
G1 Z0.6
Z-1.5
G3 X4.336 Y48.611 I0.083 J0.111
X4.17 Y48.389 I-0.083 J-0.111
G1 Z0.3
Z-1.8
G3 X4.336 Y48.611 I0.083 J0.111
X4.17 Y48.389 I-0.083 J-0.111
G1 Z0
Z-2.1
G3 X4.336 Y48.611 I0.083 J0.111
X4.17 Y48.389 I-0.083 J-0.111
G1 Z-0.3
Z-2.4
G3 X4.336 Y48.611 I0.083 J0.111
X4.17 Y48.389 I-0.083 J-0.111
G1 Z-0.6
Z-2.7
G3 X4.336 Y48.611 I0.083 J0.111
X4.17 Y48.389 I-0.083 J-0.111
G1 Z-0.9
Z-3
G3 X4.336 Y48.611 I0.083 J0.111
X4.17 Y48.389 I-0.083 J-0.111
G1 Z-1.2
Z-3.3
G3 X4.336 Y48.611 I0.083 J0.111
X4.17 Y48.389 I-0.083 J-0.111
G1 Z-1.5
Z-3.6
G3 X4.336 Y48.611 I0.083 J0.111
X4.17 Y48.389 I-0.083 J-0.111
G1 Z-1.8
Z-3.9
G3 X4.336 Y48.611 I0.083 J0.111
X4.17 Y48.389 I-0.083 J-0.111
G1 Z-2.1
Z-4.2
G3 X4.336 Y48.611 I0.083 J0.111
X4.17 Y48.389 I-0.083 J-0.111
G0 Z7
Y50.889
Z3
G1 Z1.8 F400
Z-0.3
G3 X4.336 Y51.111 I0.083 J0.111
X4.17 Y50.889 I-0.083 J-0.111
G1 Z1.5
Z-0.6
G3 X4.336 Y51.111 I0.083 J0.111
X4.17 Y50.889 I-0.083 J-0.111
G1 Z1.2
Z-0.9
G3 X4.336 Y51.111 I0.083 J0.111
X4.17 Y50.889 I-0.083 J-0.111
G1 Z0.9
Z-1.2
G3 X4.336 Y51.111 I0.083 J0.111
X4.17 Y50.889 I-0.083 J-0.111
G1 Z0.6
Z-1.5
G3 X4.336 Y51.111 I0.083 J0.111
X4.17 Y50.889 I-0.083 J-0.111
G1 Z0.3
Z-1.8
G3 X4.336 Y51.111 I0.083 J0.111
X4.17 Y50.889 I-0.083 J-0.111
G1 Z0
Z-2.1
G3 X4.336 Y51.111 I0.083 J0.111
X4.17 Y50.889 I-0.083 J-0.111
G1 Z-0.3
Z-2.4
G3 X4.336 Y51.111 I0.083 J0.111
X4.17 Y50.889 I-0.083 J-0.111
G1 Z-0.6
Z-2.7
G3 X4.336 Y51.111 I0.083 J0.111
X4.17 Y50.889 I-0.083 J-0.111
G1 Z-0.9
Z-3
G3 X4.336 Y51.111 I0.083 J0.111
X4.17 Y50.889 I-0.083 J-0.111
G1 Z-1.2
Z-3.3
G3 X4.336 Y51.111 I0.083 J0.111
X4.17 Y50.889 I-0.083 J-0.111
G1 Z-1.5
Z-3.6
G3 X4.336 Y51.111 I0.083 J0.111
X4.17 Y50.889 I-0.083 J-0.111
G1 Z-1.8
Z-3.9
G3 X4.336 Y51.111 I0.083 J0.111
X4.17 Y50.889 I-0.083 J-0.111
G1 Z-2.1
Z-4.2
G3 X4.336 Y51.111 I0.083 J0.111
X4.17 Y50.889 I-0.083 J-0.111
G0 Z7
X2.773 Y51.014
Z3
G1 Z1.8 F400
Z-0.3
X2.756 Y51.034
X2.73 Y51.041
X2.705 Y51.035
X2.686 Y51.016
X2.679 Y50.991
X2.686 Y50.965
X2.705 Y50.947
X2.731 Y50.941
X2.756 Y50.949
X2.774 Y50.969
X2.785 Y50.991
X2.773 Y51.014
Z1.5
Z-0.6
X2.756 Y51.034
X2.73 Y51.041
X2.705 Y51.035
X2.686 Y51.016
X2.679 Y50.991
X2.686 Y50.965
X2.705 Y50.947
X2.731 Y50.941
X2.756 Y50.949
X2.774 Y50.969
X2.785 Y50.991
X2.773 Y51.014
Z1.2
Z-0.9
X2.756 Y51.034
X2.73 Y51.041
X2.705 Y51.035
X2.686 Y51.016
X2.679 Y50.991
X2.686 Y50.965
X2.705 Y50.947
X2.731 Y50.941
X2.756 Y50.949
X2.774 Y50.969
X2.785 Y50.991
X2.773 Y51.014
Z0.9
Z-1.2
X2.756 Y51.034
X2.73 Y51.041
X2.705 Y51.035
X2.686 Y51.016
X2.679 Y50.991
X2.686 Y50.965
X2.705 Y50.947
X2.731 Y50.941
X2.756 Y50.949
X2.774 Y50.969
X2.785 Y50.991
X2.773 Y51.014
Z0.6
Z-1.5
X2.756 Y51.034
X2.73 Y51.041
X2.705 Y51.035
X2.686 Y51.016
X2.679 Y50.991
X2.686 Y50.965
X2.705 Y50.947
X2.731 Y50.941
X2.756 Y50.949
X2.774 Y50.969
X2.785 Y50.991
X2.773 Y51.014
Z0.3
Z-1.8
X2.756 Y51.034
X2.73 Y51.041
X2.705 Y51.035
X2.686 Y51.016
X2.679 Y50.991
X2.686 Y50.965
X2.705 Y50.947
X2.731 Y50.941
X2.756 Y50.949
X2.774 Y50.969
X2.785 Y50.991
X2.773 Y51.014
Z0
Z-2.1
X2.756 Y51.034
X2.73 Y51.041
X2.705 Y51.035
X2.686 Y51.016
X2.679 Y50.991
X2.686 Y50.965
X2.705 Y50.947
X2.731 Y50.941
X2.756 Y50.949
X2.774 Y50.969
X2.785 Y50.991
X2.773 Y51.014
Z-0.3
Z-2.4
X2.756 Y51.034
X2.73 Y51.041
X2.705 Y51.035
X2.686 Y51.016
X2.679 Y50.991
X2.686 Y50.965
X2.705 Y50.947
X2.731 Y50.941
X2.756 Y50.949
X2.774 Y50.969
X2.785 Y50.991
X2.773 Y51.014
Z-0.6
Z-2.7
X2.756 Y51.034
X2.73 Y51.041
X2.705 Y51.035
X2.686 Y51.016
X2.679 Y50.991
X2.686 Y50.965
X2.705 Y50.947
X2.731 Y50.941
X2.756 Y50.949
X2.774 Y50.969
X2.785 Y50.991
X2.773 Y51.014
Z-0.9
Z-3
X2.756 Y51.034
X2.73 Y51.041
X2.705 Y51.035
X2.686 Y51.016
X2.679 Y50.991
X2.686 Y50.965
X2.705 Y50.947
X2.731 Y50.941
X2.756 Y50.949
X2.774 Y50.969
X2.785 Y50.991
X2.773 Y51.014
Z-1.2
Z-3.3
X2.756 Y51.034
X2.73 Y51.041
X2.705 Y51.035
X2.686 Y51.016
X2.679 Y50.991
X2.686 Y50.965
X2.705 Y50.947
X2.731 Y50.941
X2.756 Y50.949
X2.774 Y50.969
X2.785 Y50.991
X2.773 Y51.014
Z-1.5
Z-3.5
X2.756 Y51.034
X2.73 Y51.041
X2.705 Y51.035
X2.686 Y51.016
X2.679 Y50.991
X2.686 Y50.965
X2.705 Y50.947
X2.731 Y50.941
X2.756 Y50.949
X2.774 Y50.969
X2.785 Y50.991
X2.773 Y51.014
G0 Z7

(2D Pocket1 3)
X11.522 Y65.028
Z7
Z2
G1 Z1.3 F400
Z-0.3
Y65.022
Y64.137
G3 X11.842 Y63.817 I0.319 J0
G1 X12.158
G3 X12.478 Y64.137 I0 J0.319
G1 Y65.014
G3 X12.278 Y65.214 I-0.2 J0
G1 X10.574 Y65.213
G3 X10.374 Y65.013 I0 J-0.2
G1 Y62.988
G3 X10.693 Y62.669 I0.319 J0
G1 X13.307
G3 X13.626 Y62.988 I0 J0.319
G1 Y65.011
G3 X13.426 Y65.211 I-0.2 J0
G1 X9.426 Y65.216
G3 X9.226 Y65.016 I0 J-0.2
G1 Y61.84
G3 X9.545 Y61.521 I0.319 J0
G1 X14.455
G3 X14.774 Y61.84 I0 J0.319
G1 Y65.02
G3 X14.574 Y65.22 I-0.2 J0
G1 X8.277 Y65.218
G3 X8.077 Y65.018 I0 J-0.2
G1 Y60.692
G3 X8.397 Y60.372 I0.319 J0
G1 X15.603
G3 X15.923 Y60.692 I0 J0.319
G1 Y65.018
G3 X15.723 Y65.218 I-0.2 J0
G1 X7.129 Y65.22
G3 X6.929 Y65.02 I0 J-0.2
G1 Y59.543
G3 X7.248 Y59.224 I0.319 J0
G1 X16.752
G3 X17.071 Y59.543 I0 J0.319
G1 Y65.015
G3 X16.871 Y65.215 I-0.2 J0
G1 X5.981 Y65.211
G3 X5.781 Y65.011 I0 J-0.2
G1 Y58.395
G3 X6.1 Y58.076 I0.319 J0
G1 X17.9
G3 X18.219 Y58.395 I0 J0.319
G1 Y65.013
G3 X18.019 Y65.213 I-0.2 J0
G1 X4.832 Y65.214
G3 X4.632 Y65.014 I0 J-0.2
G1 Y57.247
G3 X4.952 Y56.927 I0.319 J0
G1 X19.048
G3 X19.368 Y57.247 I0 J0.319
G1 Y65.022
G3 X19.168 Y65.222 I-0.2 J0
G1 X3.679 Y65.213
G3 X3.479 Y65.013 I0 J-0.2
G1 Y55.774
X20.521
Y64.373
Y65.016
G3 X20.321 Y65.216 I-0.2 J0
G1 X11.723 Y65.228
G3 X11.522 Y65.028 I0 J-0.2
G1 Z-0.6
Y65.022
Y64.137
G3 X11.842 Y63.817 I0.319 J0
G1 X12.158
G3 X12.478 Y64.137 I0 J0.319
G1 Y65.014
G3 X12.278 Y65.214 I-0.2 J0
G1 X10.574 Y65.213
G3 X10.374 Y65.013 I0 J-0.2
G1 Y62.988
G3 X10.693 Y62.669 I0.319 J0
G1 X13.307
G3 X13.626 Y62.988 I0 J0.319
G1 Y65.011
G3 X13.426 Y65.211 I-0.2 J0
G1 X9.426 Y65.216
G3 X9.226 Y65.016 I0 J-0.2
G1 Y61.84
G3 X9.545 Y61.521 I0.319 J0
G1 X14.455
G3 X14.774 Y61.84 I0 J0.319
G1 Y65.02
G3 X14.574 Y65.22 I-0.2 J0
G1 X8.277 Y65.218
G3 X8.077 Y65.018 I0 J-0.2
G1 Y60.692
G3 X8.397 Y60.372 I0.319 J0
G1 X15.603
G3 X15.923 Y60.692 I0 J0.319
G1 Y65.018
G3 X15.723 Y65.218 I-0.2 J0
G1 X7.129 Y65.22
G3 X6.929 Y65.02 I0 J-0.2
G1 Y59.543
G3 X7.248 Y59.224 I0.319 J0
G1 X16.752
G3 X17.071 Y59.543 I0 J0.319
G1 Y65.015
G3 X16.871 Y65.215 I-0.2 J0
G1 X5.981 Y65.211
G3 X5.781 Y65.011 I0 J-0.2
G1 Y58.395
G3 X6.1 Y58.076 I0.319 J0
G1 X17.9
G3 X18.219 Y58.395 I0 J0.319
G1 Y65.013
G3 X18.019 Y65.213 I-0.2 J0
G1 X4.832 Y65.214
G3 X4.632 Y65.014 I0 J-0.2
G1 Y57.247
G3 X4.952 Y56.927 I0.319 J0
G1 X19.048
G3 X19.368 Y57.247 I0 J0.319
G1 Y65.022
G3 X19.168 Y65.222 I-0.2 J0
G1 X3.679 Y65.213
G3 X3.479 Y65.013 I0 J-0.2
G1 Y55.774
X20.521
Y64.373
Y65.016
G3 X20.321 Y65.216 I-0.2 J0
G1 X11.723 Y65.228
G3 X11.522 Y65.028 I0 J-0.2
G1 Z-0.9
Y65.022
Y64.137
G3 X11.842 Y63.817 I0.319 J0
G1 X12.158
G3 X12.478 Y64.137 I0 J0.319
G1 Y65.014
G3 X12.278 Y65.214 I-0.2 J0
G1 X10.574 Y65.213
G3 X10.374 Y65.013 I0 J-0.2
G1 Y62.988
G3 X10.693 Y62.669 I0.319 J0
G1 X13.307
G3 X13.626 Y62.988 I0 J0.319
G1 Y65.011
G3 X13.426 Y65.211 I-0.2 J0
G1 X9.426 Y65.216
G3 X9.226 Y65.016 I0 J-0.2
G1 Y61.84
G3 X9.545 Y61.521 I0.319 J0
G1 X14.455
G3 X14.774 Y61.84 I0 J0.319
G1 Y65.02
G3 X14.574 Y65.22 I-0.2 J0
G1 X8.277 Y65.218
G3 X8.077 Y65.018 I0 J-0.2
G1 Y60.692
G3 X8.397 Y60.372 I0.319 J0
G1 X15.603
G3 X15.923 Y60.692 I0 J0.319
G1 Y65.018
G3 X15.723 Y65.218 I-0.2 J0
G1 X7.129 Y65.22
G3 X6.929 Y65.02 I0 J-0.2
G1 Y59.543
G3 X7.248 Y59.224 I0.319 J0
G1 X16.752
G3 X17.071 Y59.543 I0 J0.319
G1 Y65.015
G3 X16.871 Y65.215 I-0.2 J0
G1 X5.981 Y65.211
G3 X5.781 Y65.011 I0 J-0.2
G1 Y58.395
G3 X6.1 Y58.076 I0.319 J0
G1 X17.9
G3 X18.219 Y58.395 I0 J0.319
G1 Y65.013
G3 X18.019 Y65.213 I-0.2 J0
G1 X4.832 Y65.214
G3 X4.632 Y65.014 I0 J-0.2
G1 Y57.247
G3 X4.952 Y56.927 I0.319 J0
G1 X19.048
G3 X19.368 Y57.247 I0 J0.319
G1 Y65.022
G3 X19.168 Y65.222 I-0.2 J0
G1 X3.679 Y65.213
G3 X3.479 Y65.013 I0 J-0.2
G1 Y55.774
X20.521
Y64.373
Y65.016
G3 X20.321 Y65.216 I-0.2 J0
G1 X11.723 Y65.228
G3 X11.522 Y65.028 I0 J-0.2
G1 Z-1.2
Y65.022
Y64.137
G3 X11.842 Y63.817 I0.319 J0
G1 X12.158
G3 X12.478 Y64.137 I0 J0.319
G1 Y65.014
G3 X12.278 Y65.214 I-0.2 J0
G1 X10.574 Y65.213
G3 X10.374 Y65.013 I0 J-0.2
G1 Y62.988
G3 X10.693 Y62.669 I0.319 J0
G1 X13.307
G3 X13.626 Y62.988 I0 J0.319
G1 Y65.011
G3 X13.426 Y65.211 I-0.2 J0
G1 X9.426 Y65.216
G3 X9.226 Y65.016 I0 J-0.2
G1 Y61.84
G3 X9.545 Y61.521 I0.319 J0
G1 X14.455
G3 X14.774 Y61.84 I0 J0.319
G1 Y65.02
G3 X14.574 Y65.22 I-0.2 J0
G1 X8.277 Y65.218
G3 X8.077 Y65.018 I0 J-0.2
G1 Y60.692
G3 X8.397 Y60.372 I0.319 J0
G1 X15.603
G3 X15.923 Y60.692 I0 J0.319
G1 Y65.018
G3 X15.723 Y65.218 I-0.2 J0
G1 X7.129 Y65.22
G3 X6.929 Y65.02 I0 J-0.2
G1 Y59.543
G3 X7.248 Y59.224 I0.319 J0
G1 X16.752
G3 X17.071 Y59.543 I0 J0.319
G1 Y65.015
G3 X16.871 Y65.215 I-0.2 J0
G1 X5.981 Y65.211
G3 X5.781 Y65.011 I0 J-0.2
G1 Y58.395
G3 X6.1 Y58.076 I0.319 J0
G1 X17.9
G3 X18.219 Y58.395 I0 J0.319
G1 Y65.013
G3 X18.019 Y65.213 I-0.2 J0
G1 X4.832 Y65.214
G3 X4.632 Y65.014 I0 J-0.2
G1 Y57.247
G3 X4.952 Y56.927 I0.319 J0
G1 X19.048
G3 X19.368 Y57.247 I0 J0.319
G1 Y65.022
G3 X19.168 Y65.222 I-0.2 J0
G1 X3.679 Y65.213
G3 X3.479 Y65.013 I0 J-0.2
G1 Y55.774
X20.521
Y64.373
Y65.016
G3 X20.321 Y65.216 I-0.2 J0
G1 X11.723 Y65.228
G3 X11.522 Y65.028 I0 J-0.2
G1 Z-1.5
Y65.022
Y64.137
G3 X11.842 Y63.817 I0.319 J0
G1 X12.158
G3 X12.478 Y64.137 I0 J0.319
G1 Y65.014
G3 X12.278 Y65.214 I-0.2 J0
G1 X10.574 Y65.213
G3 X10.374 Y65.013 I0 J-0.2
G1 Y62.988
G3 X10.693 Y62.669 I0.319 J0
G1 X13.307
G3 X13.626 Y62.988 I0 J0.319
G1 Y65.011
G3 X13.426 Y65.211 I-0.2 J0
G1 X9.426 Y65.216
G3 X9.226 Y65.016 I0 J-0.2
G1 Y61.84
G3 X9.545 Y61.521 I0.319 J0
G1 X14.455
G3 X14.774 Y61.84 I0 J0.319
G1 Y65.02
G3 X14.574 Y65.22 I-0.2 J0
G1 X8.277 Y65.218
G3 X8.077 Y65.018 I0 J-0.2
G1 Y60.692
G3 X8.397 Y60.372 I0.319 J0
G1 X15.603
G3 X15.923 Y60.692 I0 J0.319
G1 Y65.018
G3 X15.723 Y65.218 I-0.2 J0
G1 X7.129 Y65.22
G3 X6.929 Y65.02 I0 J-0.2
G1 Y59.543
G3 X7.248 Y59.224 I0.319 J0
G1 X16.752
G3 X17.071 Y59.543 I0 J0.319
G1 Y65.015
G3 X16.871 Y65.215 I-0.2 J0
G1 X5.981 Y65.211
G3 X5.781 Y65.011 I0 J-0.2
G1 Y58.395
G3 X6.1 Y58.076 I0.319 J0
G1 X17.9
G3 X18.219 Y58.395 I0 J0.319
G1 Y65.013
G3 X18.019 Y65.213 I-0.2 J0
G1 X4.832 Y65.214
G3 X4.632 Y65.014 I0 J-0.2
G1 Y57.247
G3 X4.952 Y56.927 I0.319 J0
G1 X19.048
G3 X19.368 Y57.247 I0 J0.319
G1 Y65.022
G3 X19.168 Y65.222 I-0.2 J0
G1 X3.679 Y65.213
G3 X3.479 Y65.013 I0 J-0.2
G1 Y55.774
X20.521
Y64.373
Y65.016
G3 X20.321 Y65.216 I-0.2 J0
G1 X11.723 Y65.228
G3 X11.522 Y65.028 I0 J-0.2
G1 Z-1.8
Y65.022
Y64.137
G3 X11.842 Y63.817 I0.319 J0
G1 X12.158
G3 X12.478 Y64.137 I0 J0.319
G1 Y65.014
G3 X12.278 Y65.214 I-0.2 J0
G1 X10.574 Y65.213
G3 X10.374 Y65.013 I0 J-0.2
G1 Y62.988
G3 X10.693 Y62.669 I0.319 J0
G1 X13.307
G3 X13.626 Y62.988 I0 J0.319
G1 Y65.011
G3 X13.426 Y65.211 I-0.2 J0
G1 X9.426 Y65.216
G3 X9.226 Y65.016 I0 J-0.2
G1 Y61.84
G3 X9.545 Y61.521 I0.319 J0
G1 X14.455
G3 X14.774 Y61.84 I0 J0.319
G1 Y65.02
G3 X14.574 Y65.22 I-0.2 J0
G1 X8.277 Y65.218
G3 X8.077 Y65.018 I0 J-0.2
G1 Y60.692
G3 X8.397 Y60.372 I0.319 J0
G1 X15.603
G3 X15.923 Y60.692 I0 J0.319
G1 Y65.018
G3 X15.723 Y65.218 I-0.2 J0
G1 X7.129 Y65.22
G3 X6.929 Y65.02 I0 J-0.2
G1 Y59.543
G3 X7.248 Y59.224 I0.319 J0
G1 X16.752
G3 X17.071 Y59.543 I0 J0.319
G1 Y65.015
G3 X16.871 Y65.215 I-0.2 J0
G1 X5.981 Y65.211
G3 X5.781 Y65.011 I0 J-0.2
G1 Y58.395
G3 X6.1 Y58.076 I0.319 J0
G1 X17.9
G3 X18.219 Y58.395 I0 J0.319
G1 Y65.013
G3 X18.019 Y65.213 I-0.2 J0
G1 X4.832 Y65.214
G3 X4.632 Y65.014 I0 J-0.2
G1 Y57.247
G3 X4.952 Y56.927 I0.319 J0
G1 X19.048
G3 X19.368 Y57.247 I0 J0.319
G1 Y65.022
G3 X19.168 Y65.222 I-0.2 J0
G1 X3.679 Y65.213
G3 X3.479 Y65.013 I0 J-0.2
G1 Y55.774
X20.521
Y64.373
Y65.016
G3 X20.321 Y65.216 I-0.2 J0
G1 X11.723 Y65.228
G3 X11.522 Y65.028 I0 J-0.2
G1 Z-2.1
Y65.022
Y64.137
G3 X11.842 Y63.817 I0.319 J0
G1 X12.158
G3 X12.478 Y64.137 I0 J0.319
G1 Y65.014
G3 X12.278 Y65.214 I-0.2 J0
G1 X10.574 Y65.213
G3 X10.374 Y65.013 I0 J-0.2
G1 Y62.988
G3 X10.693 Y62.669 I0.319 J0
G1 X13.307
G3 X13.626 Y62.988 I0 J0.319
G1 Y65.011
G3 X13.426 Y65.211 I-0.2 J0
G1 X9.426 Y65.216
G3 X9.226 Y65.016 I0 J-0.2
G1 Y61.84
G3 X9.545 Y61.521 I0.319 J0
G1 X14.455
G3 X14.774 Y61.84 I0 J0.319
G1 Y65.02
G3 X14.574 Y65.22 I-0.2 J0
G1 X8.277 Y65.218
G3 X8.077 Y65.018 I0 J-0.2
G1 Y60.692
G3 X8.397 Y60.372 I0.319 J0
G1 X15.603
G3 X15.923 Y60.692 I0 J0.319
G1 Y65.018
G3 X15.723 Y65.218 I-0.2 J0
G1 X7.129 Y65.22
G3 X6.929 Y65.02 I0 J-0.2
G1 Y59.543
G3 X7.248 Y59.224 I0.319 J0
G1 X16.752
G3 X17.071 Y59.543 I0 J0.319
G1 Y65.015
G3 X16.871 Y65.215 I-0.2 J0
G1 X5.981 Y65.211
G3 X5.781 Y65.011 I0 J-0.2
G1 Y58.395
G3 X6.1 Y58.076 I0.319 J0
G1 X17.9
G3 X18.219 Y58.395 I0 J0.319
G1 Y65.013
G3 X18.019 Y65.213 I-0.2 J0
G1 X4.832 Y65.214
G3 X4.632 Y65.014 I0 J-0.2
G1 Y57.247
G3 X4.952 Y56.927 I0.319 J0
G1 X19.048
G3 X19.368 Y57.247 I0 J0.319
G1 Y65.022
G3 X19.168 Y65.222 I-0.2 J0
G1 X3.679 Y65.213
G3 X3.479 Y65.013 I0 J-0.2
G1 Y55.774
X20.521
Y64.373
Y65.016
G3 X20.321 Y65.216 I-0.2 J0
G1 X11.723 Y65.228
G3 X11.522 Y65.028 I0 J-0.2
G1 Z-2.4
Y65.022
Y64.137
G3 X11.842 Y63.817 I0.319 J0
G1 X12.158
G3 X12.478 Y64.137 I0 J0.319
G1 Y65.014
G3 X12.278 Y65.214 I-0.2 J0
G1 X10.574 Y65.213
G3 X10.374 Y65.013 I0 J-0.2
G1 Y62.988
G3 X10.693 Y62.669 I0.319 J0
G1 X13.307
G3 X13.626 Y62.988 I0 J0.319
G1 Y65.011
G3 X13.426 Y65.211 I-0.2 J0
G1 X9.426 Y65.216
G3 X9.226 Y65.016 I0 J-0.2
G1 Y61.84
G3 X9.545 Y61.521 I0.319 J0
G1 X14.455
G3 X14.774 Y61.84 I0 J0.319
G1 Y65.02
G3 X14.574 Y65.22 I-0.2 J0
G1 X8.277 Y65.218
G3 X8.077 Y65.018 I0 J-0.2
G1 Y60.692
G3 X8.397 Y60.372 I0.319 J0
G1 X15.603
G3 X15.923 Y60.692 I0 J0.319
G1 Y65.018
G3 X15.723 Y65.218 I-0.2 J0
G1 X7.129 Y65.22
G3 X6.929 Y65.02 I0 J-0.2
G1 Y59.543
G3 X7.248 Y59.224 I0.319 J0
G1 X16.752
G3 X17.071 Y59.543 I0 J0.319
G1 Y65.015
G3 X16.871 Y65.215 I-0.2 J0
G1 X5.981 Y65.211
G3 X5.781 Y65.011 I0 J-0.2
G1 Y58.395
G3 X6.1 Y58.076 I0.319 J0
G1 X17.9
G3 X18.219 Y58.395 I0 J0.319
G1 Y65.013
G3 X18.019 Y65.213 I-0.2 J0
G1 X4.832 Y65.214
G3 X4.632 Y65.014 I0 J-0.2
G1 Y57.247
G3 X4.952 Y56.927 I0.319 J0
G1 X19.048
G3 X19.368 Y57.247 I0 J0.319
G1 Y65.022
G3 X19.168 Y65.222 I-0.2 J0
G1 X3.679 Y65.213
G3 X3.479 Y65.013 I0 J-0.2
G1 Y55.774
X20.521
Y64.373
Y65.016
G3 X20.321 Y65.216 I-0.2 J0
G1 X11.723 Y65.228
G3 X11.522 Y65.028 I0 J-0.2
G1 Z-2.7
Y65.022
Y64.137
G3 X11.842 Y63.817 I0.319 J0
G1 X12.158
G3 X12.478 Y64.137 I0 J0.319
G1 Y65.014
G3 X12.278 Y65.214 I-0.2 J0
G1 X10.574 Y65.213
G3 X10.374 Y65.013 I0 J-0.2
G1 Y62.988
G3 X10.693 Y62.669 I0.319 J0
G1 X13.307
G3 X13.626 Y62.988 I0 J0.319
G1 Y65.011
G3 X13.426 Y65.211 I-0.2 J0
G1 X9.426 Y65.216
G3 X9.226 Y65.016 I0 J-0.2
G1 Y61.84
G3 X9.545 Y61.521 I0.319 J0
G1 X14.455
G3 X14.774 Y61.84 I0 J0.319
G1 Y65.02
G3 X14.574 Y65.22 I-0.2 J0
G1 X8.277 Y65.218
G3 X8.077 Y65.018 I0 J-0.2
G1 Y60.692
G3 X8.397 Y60.372 I0.319 J0
G1 X15.603
G3 X15.923 Y60.692 I0 J0.319
G1 Y65.018
G3 X15.723 Y65.218 I-0.2 J0
G1 X7.129 Y65.22
G3 X6.929 Y65.02 I0 J-0.2
G1 Y59.543
G3 X7.248 Y59.224 I0.319 J0
G1 X16.752
G3 X17.071 Y59.543 I0 J0.319
G1 Y65.015
G3 X16.871 Y65.215 I-0.2 J0
G1 X5.981 Y65.211
G3 X5.781 Y65.011 I0 J-0.2
G1 Y58.395
G3 X6.1 Y58.076 I0.319 J0
G1 X17.9
G3 X18.219 Y58.395 I0 J0.319
G1 Y65.013
G3 X18.019 Y65.213 I-0.2 J0
G1 X4.832 Y65.214
G3 X4.632 Y65.014 I0 J-0.2
G1 Y57.247
G3 X4.952 Y56.927 I0.319 J0
G1 X19.048
G3 X19.368 Y57.247 I0 J0.319
G1 Y65.022
G3 X19.168 Y65.222 I-0.2 J0
G1 X3.679 Y65.213
G3 X3.479 Y65.013 I0 J-0.2
G1 Y55.774
X20.521
Y64.373
Y65.016
G3 X20.321 Y65.216 I-0.2 J0
G1 X11.723 Y65.228
G3 X11.522 Y65.028 I0 J-0.2
G1 Z-3
Y65.022
Y64.137
G3 X11.842 Y63.817 I0.319 J0
G1 X12.158
G3 X12.478 Y64.137 I0 J0.319
G1 Y65.014
G3 X12.278 Y65.214 I-0.2 J0
G1 X10.574 Y65.213
G3 X10.374 Y65.013 I0 J-0.2
G1 Y62.988
G3 X10.693 Y62.669 I0.319 J0
G1 X13.307
G3 X13.626 Y62.988 I0 J0.319
G1 Y65.011
G3 X13.426 Y65.211 I-0.2 J0
G1 X9.426 Y65.216
G3 X9.226 Y65.016 I0 J-0.2
G1 Y61.84
G3 X9.545 Y61.521 I0.319 J0
G1 X14.455
G3 X14.774 Y61.84 I0 J0.319
G1 Y65.02
G3 X14.574 Y65.22 I-0.2 J0
G1 X8.277 Y65.218
G3 X8.077 Y65.018 I0 J-0.2
G1 Y60.692
G3 X8.397 Y60.372 I0.319 J0
G1 X15.603
G3 X15.923 Y60.692 I0 J0.319
G1 Y65.018
G3 X15.723 Y65.218 I-0.2 J0
G1 X7.129 Y65.22
G3 X6.929 Y65.02 I0 J-0.2
G1 Y59.543
G3 X7.248 Y59.224 I0.319 J0
G1 X16.752
G3 X17.071 Y59.543 I0 J0.319
G1 Y65.015
G3 X16.871 Y65.215 I-0.2 J0
G1 X5.981 Y65.211
G3 X5.781 Y65.011 I0 J-0.2
G1 Y58.395
G3 X6.1 Y58.076 I0.319 J0
G1 X17.9
G3 X18.219 Y58.395 I0 J0.319
G1 Y65.013
G3 X18.019 Y65.213 I-0.2 J0
G1 X4.832 Y65.214
G3 X4.632 Y65.014 I0 J-0.2
G1 Y57.247
G3 X4.952 Y56.927 I0.319 J0
G1 X19.048
G3 X19.368 Y57.247 I0 J0.319
G1 Y65.022
G3 X19.168 Y65.222 I-0.2 J0
G1 X3.679 Y65.213
G3 X3.479 Y65.013 I0 J-0.2
G1 Y55.774
X20.521
Y64.373
Y65.016
G3 X20.321 Y65.216 I-0.2 J0
G1 X11.723 Y65.228
G3 X11.522 Y65.028 I0 J-0.2
G1 Z-3.3
Y65.022
Y64.137
G3 X11.842 Y63.817 I0.319 J0
G1 X12.158
G3 X12.478 Y64.137 I0 J0.319
G1 Y65.014
G3 X12.278 Y65.214 I-0.2 J0
G1 X10.574 Y65.213
G3 X10.374 Y65.013 I0 J-0.2
G1 Y62.988
G3 X10.693 Y62.669 I0.319 J0
G1 X13.307
G3 X13.626 Y62.988 I0 J0.319
G1 Y65.011
G3 X13.426 Y65.211 I-0.2 J0
G1 X9.426 Y65.216
G3 X9.226 Y65.016 I0 J-0.2
G1 Y61.84
G3 X9.545 Y61.521 I0.319 J0
G1 X14.455
G3 X14.774 Y61.84 I0 J0.319
G1 Y65.02
G3 X14.574 Y65.22 I-0.2 J0
G1 X8.277 Y65.218
G3 X8.077 Y65.018 I0 J-0.2
G1 Y60.692
G3 X8.397 Y60.372 I0.319 J0
G1 X15.603
G3 X15.923 Y60.692 I0 J0.319
G1 Y65.018
G3 X15.723 Y65.218 I-0.2 J0
G1 X7.129 Y65.22
G3 X6.929 Y65.02 I0 J-0.2
G1 Y59.543
G3 X7.248 Y59.224 I0.319 J0
G1 X16.752
G3 X17.071 Y59.543 I0 J0.319
G1 Y65.015
G3 X16.871 Y65.215 I-0.2 J0
G1 X5.981 Y65.211
G3 X5.781 Y65.011 I0 J-0.2
G1 Y58.395
G3 X6.1 Y58.076 I0.319 J0
G1 X17.9
G3 X18.219 Y58.395 I0 J0.319
G1 Y65.013
G3 X18.019 Y65.213 I-0.2 J0
G1 X4.832 Y65.214
G3 X4.632 Y65.014 I0 J-0.2
G1 Y57.247
G3 X4.952 Y56.927 I0.319 J0
G1 X19.048
G3 X19.368 Y57.247 I0 J0.319
G1 Y65.022
G3 X19.168 Y65.222 I-0.2 J0
G1 X3.679 Y65.213
G3 X3.479 Y65.013 I0 J-0.2
G1 Y55.774
X20.521
Y64.373
Y65.016
G3 X20.321 Y65.216 I-0.2 J0
G1 X11.723 Y65.228
G3 X11.522 Y65.028 I0 J-0.2
G1 Z-3.6
Y65.022
Y64.137
G3 X11.842 Y63.817 I0.319 J0
G1 X12.158
G3 X12.478 Y64.137 I0 J0.319
G1 Y65.014
G3 X12.278 Y65.214 I-0.2 J0
G1 X10.574 Y65.213
G3 X10.374 Y65.013 I0 J-0.2
G1 Y62.988
G3 X10.693 Y62.669 I0.319 J0
G1 X13.307
G3 X13.626 Y62.988 I0 J0.319
G1 Y65.011
G3 X13.426 Y65.211 I-0.2 J0
G1 X9.426 Y65.216
G3 X9.226 Y65.016 I0 J-0.2
G1 Y61.84
G3 X9.545 Y61.521 I0.319 J0
G1 X14.455
G3 X14.774 Y61.84 I0 J0.319
G1 Y65.02
G3 X14.574 Y65.22 I-0.2 J0
G1 X8.277 Y65.218
G3 X8.077 Y65.018 I0 J-0.2
G1 Y60.692
G3 X8.397 Y60.372 I0.319 J0
G1 X15.603
G3 X15.923 Y60.692 I0 J0.319
G1 Y65.018
G3 X15.723 Y65.218 I-0.2 J0
G1 X7.129 Y65.22
G3 X6.929 Y65.02 I0 J-0.2
G1 Y59.543
G3 X7.248 Y59.224 I0.319 J0
G1 X16.752
G3 X17.071 Y59.543 I0 J0.319
G1 Y65.015
G3 X16.871 Y65.215 I-0.2 J0
G1 X5.981 Y65.211
G3 X5.781 Y65.011 I0 J-0.2
G1 Y58.395
G3 X6.1 Y58.076 I0.319 J0
G1 X17.9
G3 X18.219 Y58.395 I0 J0.319
G1 Y65.013
G3 X18.019 Y65.213 I-0.2 J0
G1 X4.832 Y65.214
G3 X4.632 Y65.014 I0 J-0.2
G1 Y57.247
G3 X4.952 Y56.927 I0.319 J0
G1 X19.048
G3 X19.368 Y57.247 I0 J0.319
G1 Y65.022
G3 X19.168 Y65.222 I-0.2 J0
G1 X3.679 Y65.213
G3 X3.479 Y65.013 I0 J-0.2
G1 Y55.774
X20.521
Y64.373
Y65.016
G3 X20.321 Y65.216 I-0.2 J0
G1 X11.723 Y65.228
G3 X11.522 Y65.028 I0 J-0.2
G1 Z-3.9
Y65.022
Y64.137
G3 X11.842 Y63.817 I0.319 J0
G1 X12.158
G3 X12.478 Y64.137 I0 J0.319
G1 Y65.014
G3 X12.278 Y65.214 I-0.2 J0
G1 X10.574 Y65.213
G3 X10.374 Y65.013 I0 J-0.2
G1 Y62.988
G3 X10.693 Y62.669 I0.319 J0
G1 X13.307
G3 X13.626 Y62.988 I0 J0.319
G1 Y65.011
G3 X13.426 Y65.211 I-0.2 J0
G1 X9.426 Y65.216
G3 X9.226 Y65.016 I0 J-0.2
G1 Y61.84
G3 X9.545 Y61.521 I0.319 J0
G1 X14.455
G3 X14.774 Y61.84 I0 J0.319
G1 Y65.02
G3 X14.574 Y65.22 I-0.2 J0
G1 X8.277 Y65.218
G3 X8.077 Y65.018 I0 J-0.2
G1 Y60.692
G3 X8.397 Y60.372 I0.319 J0
G1 X15.603
G3 X15.923 Y60.692 I0 J0.319
G1 Y65.018
G3 X15.723 Y65.218 I-0.2 J0
G1 X7.129 Y65.22
G3 X6.929 Y65.02 I0 J-0.2
G1 Y59.543
G3 X7.248 Y59.224 I0.319 J0
G1 X16.752
G3 X17.071 Y59.543 I0 J0.319
G1 Y65.015
G3 X16.871 Y65.215 I-0.2 J0
G1 X5.981 Y65.211
G3 X5.781 Y65.011 I0 J-0.2
G1 Y58.395
G3 X6.1 Y58.076 I0.319 J0
G1 X17.9
G3 X18.219 Y58.395 I0 J0.319
G1 Y65.013
G3 X18.019 Y65.213 I-0.2 J0
G1 X4.832 Y65.214
G3 X4.632 Y65.014 I0 J-0.2
G1 Y57.247
G3 X4.952 Y56.927 I0.319 J0
G1 X19.048
G3 X19.368 Y57.247 I0 J0.319
G1 Y65.022
G3 X19.168 Y65.222 I-0.2 J0
G1 X3.679 Y65.213
G3 X3.479 Y65.013 I0 J-0.2
G1 Y55.774
X20.521
Y64.373
Y65.016
G3 X20.321 Y65.216 I-0.2 J0
G1 X11.723 Y65.228
G3 X11.522 Y65.028 I0 J-0.2
G1 Z-4.1
Y65.022
Y64.137
G3 X11.842 Y63.817 I0.319 J0
G1 X12.158
G3 X12.478 Y64.137 I0 J0.319
G1 Y65.014
G3 X12.278 Y65.214 I-0.2 J0
G1 X10.574 Y65.213
G3 X10.374 Y65.013 I0 J-0.2
G1 Y62.988
G3 X10.693 Y62.669 I0.319 J0
G1 X13.307
G3 X13.626 Y62.988 I0 J0.319
G1 Y65.011
G3 X13.426 Y65.211 I-0.2 J0
G1 X9.426 Y65.216
G3 X9.226 Y65.016 I0 J-0.2
G1 Y61.84
G3 X9.545 Y61.521 I0.319 J0
G1 X14.455
G3 X14.774 Y61.84 I0 J0.319
G1 Y65.02
G3 X14.574 Y65.22 I-0.2 J0
G1 X8.277 Y65.218
G3 X8.077 Y65.018 I0 J-0.2
G1 Y60.692
G3 X8.397 Y60.372 I0.319 J0
G1 X15.603
G3 X15.923 Y60.692 I0 J0.319
G1 Y65.018
G3 X15.723 Y65.218 I-0.2 J0
G1 X7.129 Y65.22
G3 X6.929 Y65.02 I0 J-0.2
G1 Y59.543
G3 X7.248 Y59.224 I0.319 J0
G1 X16.752
G3 X17.071 Y59.543 I0 J0.319
G1 Y65.015
G3 X16.871 Y65.215 I-0.2 J0
G1 X5.981 Y65.211
G3 X5.781 Y65.011 I0 J-0.2
G1 Y58.395
G3 X6.1 Y58.076 I0.319 J0
G1 X17.9
G3 X18.219 Y58.395 I0 J0.319
G1 Y65.013
G3 X18.019 Y65.213 I-0.2 J0
G1 X4.832 Y65.214
G3 X4.632 Y65.014 I0 J-0.2
G1 Y57.247
G3 X4.952 Y56.927 I0.319 J0
G1 X19.048
G3 X19.368 Y57.247 I0 J0.319
G1 Y65.022
G3 X19.168 Y65.222 I-0.2 J0
G1 X3.679 Y65.213
G3 X3.479 Y65.013 I0 J-0.2
G1 Y55.774
X20.521
Y64.373
Y65.016
G0 Z7
X6.929 Y16.696
Z2
G1 Z1.3 F400
Z-0.3
Y16.684
Y16.363
G3 X7.248 Y16.044 I0.319 J0
G1 X16.752
G3 X17.071 Y16.363 I0 J0.319
G1 Y16.691
X17.064 Y16.745
X6.173 Y55.584
G3 X5.781 Y55.53 I-0.193 J-0.054
G1 Y15.215
G3 X6.1 Y14.896 I0.319 J0
G1 X17.9
G3 X18.219 Y15.215 I0 J0.319
G1 Y55.566
G3 X18.021 Y55.766 I-0.2 J0
G1 X4.834 Y55.873
G3 X4.632 Y55.673 I-0.002 J-0.2
G1 Y14.067
G3 X4.952 Y13.747 I0.319 J0
G1 X19.048
G3 X19.368 Y14.067 I0 J0.319
G1 Y55.669
G3 X19.168 Y55.869 I-0.2 J0
G1 X3.679 Y55.872
G3 X3.479 Y55.672 I0 J-0.2
G1 Y25.197
Y12.594
X4.099
X4.239 Y12.635
X4.414 Y12.594
X20.521
Y55.664
G3 X20.132 Y55.728 I-0.2 J0
G1 X6.94 Y16.76
X6.932 Y16.729
X6.929 Y16.696
Z-0.6
Y16.684
Y16.363
G3 X7.248 Y16.044 I0.319 J0
G1 X16.752
G3 X17.071 Y16.363 I0 J0.319
G1 Y16.691
X17.064 Y16.745
X6.173 Y55.584
G3 X5.781 Y55.53 I-0.193 J-0.054
G1 Y15.215
G3 X6.1 Y14.896 I0.319 J0
G1 X17.9
G3 X18.219 Y15.215 I0 J0.319
G1 Y55.566
G3 X18.021 Y55.766 I-0.2 J0
G1 X4.834 Y55.873
G3 X4.632 Y55.673 I-0.002 J-0.2
G1 Y14.067
G3 X4.952 Y13.747 I0.319 J0
G1 X19.048
G3 X19.368 Y14.067 I0 J0.319
G1 Y55.669
G3 X19.168 Y55.869 I-0.2 J0
G1 X3.679 Y55.872
G3 X3.479 Y55.672 I0 J-0.2
G1 Y25.197
Y12.594
X4.099
X4.239 Y12.635
X4.414 Y12.594
X20.521
Y55.664
G3 X20.132 Y55.728 I-0.2 J0
G1 X6.94 Y16.76
X6.932 Y16.729
X6.929 Y16.696
Z-0.9
Y16.684
Y16.363
G3 X7.248 Y16.044 I0.319 J0
G1 X16.752
G3 X17.071 Y16.363 I0 J0.319
G1 Y16.691
X17.064 Y16.745
X6.173 Y55.584
G3 X5.781 Y55.53 I-0.193 J-0.054
G1 Y15.215
G3 X6.1 Y14.896 I0.319 J0
G1 X17.9
G3 X18.219 Y15.215 I0 J0.319
G1 Y55.566
G3 X18.021 Y55.766 I-0.2 J0
G1 X4.834 Y55.873
G3 X4.632 Y55.673 I-0.002 J-0.2
G1 Y14.067
G3 X4.952 Y13.747 I0.319 J0
G1 X19.048
G3 X19.368 Y14.067 I0 J0.319
G1 Y55.669
G3 X19.168 Y55.869 I-0.2 J0
G1 X3.679 Y55.872
G3 X3.479 Y55.672 I0 J-0.2
G1 Y25.197
Y12.594
X4.099
X4.239 Y12.635
X4.414 Y12.594
X20.521
Y55.664
G3 X20.132 Y55.728 I-0.2 J0
G1 X6.94 Y16.76
X6.932 Y16.729
X6.929 Y16.696
Z-1.2
Y16.684
Y16.363
G3 X7.248 Y16.044 I0.319 J0
G1 X16.752
G3 X17.071 Y16.363 I0 J0.319
G1 Y16.691
X17.064 Y16.745
X6.173 Y55.584
G3 X5.781 Y55.53 I-0.193 J-0.054
G1 Y15.215
G3 X6.1 Y14.896 I0.319 J0
G1 X17.9
G3 X18.219 Y15.215 I0 J0.319
G1 Y55.566
G3 X18.021 Y55.766 I-0.2 J0
G1 X4.834 Y55.873
G3 X4.632 Y55.673 I-0.002 J-0.2
G1 Y14.067
G3 X4.952 Y13.747 I0.319 J0
G1 X19.048
G3 X19.368 Y14.067 I0 J0.319
G1 Y55.669
G3 X19.168 Y55.869 I-0.2 J0
G1 X3.679 Y55.872
G3 X3.479 Y55.672 I0 J-0.2
G1 Y25.197
Y12.594
X4.099
X4.239 Y12.635
X4.414 Y12.594
X20.521
Y55.664
G3 X20.132 Y55.728 I-0.2 J0
G1 X6.94 Y16.76
X6.932 Y16.729
X6.929 Y16.696
Z-1.5
Y16.684
Y16.363
G3 X7.248 Y16.044 I0.319 J0
G1 X16.752
G3 X17.071 Y16.363 I0 J0.319
G1 Y16.691
X17.064 Y16.745
X6.173 Y55.584
G3 X5.781 Y55.53 I-0.193 J-0.054
G1 Y15.215
G3 X6.1 Y14.896 I0.319 J0
G1 X17.9
G3 X18.219 Y15.215 I0 J0.319
G1 Y55.566
G3 X18.021 Y55.766 I-0.2 J0
G1 X4.834 Y55.873
G3 X4.632 Y55.673 I-0.002 J-0.2
G1 Y14.067
G3 X4.952 Y13.747 I0.319 J0
G1 X19.048
G3 X19.368 Y14.067 I0 J0.319
G1 Y55.669
G3 X19.168 Y55.869 I-0.2 J0
G1 X3.679 Y55.872
G3 X3.479 Y55.672 I0 J-0.2
G1 Y25.197
Y12.594
X4.099
X4.239 Y12.635
X4.414 Y12.594
X20.521
Y55.664
G3 X20.132 Y55.728 I-0.2 J0
G1 X6.94 Y16.76
X6.932 Y16.729
X6.929 Y16.696
Z-1.8
Y16.684
Y16.363
G3 X7.248 Y16.044 I0.319 J0
G1 X16.752
G3 X17.071 Y16.363 I0 J0.319
G1 Y16.691
X17.064 Y16.745
X6.173 Y55.584
G3 X5.781 Y55.53 I-0.193 J-0.054
G1 Y15.215
G3 X6.1 Y14.896 I0.319 J0
G1 X17.9
G3 X18.219 Y15.215 I0 J0.319
G1 Y55.566
G3 X18.021 Y55.766 I-0.2 J0
G1 X4.834 Y55.873
G3 X4.632 Y55.673 I-0.002 J-0.2
G1 Y14.067
G3 X4.952 Y13.747 I0.319 J0
G1 X19.048
G3 X19.368 Y14.067 I0 J0.319
G1 Y55.669
G3 X19.168 Y55.869 I-0.2 J0
G1 X3.679 Y55.872
G3 X3.479 Y55.672 I0 J-0.2
G1 Y25.197
Y12.594
X4.099
X4.239 Y12.635
X4.414 Y12.594
X20.521
Y55.664
G3 X20.132 Y55.728 I-0.2 J0
G1 X6.94 Y16.76
X6.932 Y16.729
X6.929 Y16.696
Z-2.1
Y16.684
Y16.363
G3 X7.248 Y16.044 I0.319 J0
G1 X16.752
G3 X17.071 Y16.363 I0 J0.319
G1 Y16.691
X17.064 Y16.745
X6.173 Y55.584
G3 X5.781 Y55.53 I-0.193 J-0.054
G1 Y15.215
G3 X6.1 Y14.896 I0.319 J0
G1 X17.9
G3 X18.219 Y15.215 I0 J0.319
G1 Y55.566
G3 X18.021 Y55.766 I-0.2 J0
G1 X4.834 Y55.873
G3 X4.632 Y55.673 I-0.002 J-0.2
G1 Y14.067
G3 X4.952 Y13.747 I0.319 J0
G1 X19.048
G3 X19.368 Y14.067 I0 J0.319
G1 Y55.669
G3 X19.168 Y55.869 I-0.2 J0
G1 X3.679 Y55.872
G3 X3.479 Y55.672 I0 J-0.2
G1 Y25.197
Y12.594
X4.099
X4.239 Y12.635
X4.414 Y12.594
X20.521
Y55.664
G3 X20.132 Y55.728 I-0.2 J0
G1 X6.94 Y16.76
X6.932 Y16.729
X6.929 Y16.696
Z-2.4
Y16.684
Y16.363
G3 X7.248 Y16.044 I0.319 J0
G1 X16.752
G3 X17.071 Y16.363 I0 J0.319
G1 Y16.691
X17.064 Y16.745
X6.173 Y55.584
G3 X5.781 Y55.53 I-0.193 J-0.054
G1 Y15.215
G3 X6.1 Y14.896 I0.319 J0
G1 X17.9
G3 X18.219 Y15.215 I0 J0.319
G1 Y55.566
G3 X18.021 Y55.766 I-0.2 J0
G1 X4.834 Y55.873
G3 X4.632 Y55.673 I-0.002 J-0.2
G1 Y14.067
G3 X4.952 Y13.747 I0.319 J0
G1 X19.048
G3 X19.368 Y14.067 I0 J0.319
G1 Y55.669
G3 X19.168 Y55.869 I-0.2 J0
G1 X3.679 Y55.872
G3 X3.479 Y55.672 I0 J-0.2
G1 Y25.197
Y12.594
X4.099
X4.239 Y12.635
X4.414 Y12.594
X20.521
Y55.664
G3 X20.132 Y55.728 I-0.2 J0
G1 X6.94 Y16.76
X6.932 Y16.729
X6.929 Y16.696
Z-2.7
Y16.684
Y16.363
G3 X7.248 Y16.044 I0.319 J0
G1 X16.752
G3 X17.071 Y16.363 I0 J0.319
G1 Y16.691
X17.064 Y16.745
X6.173 Y55.584
G3 X5.781 Y55.53 I-0.193 J-0.054
G1 Y15.215
G3 X6.1 Y14.896 I0.319 J0
G1 X17.9
G3 X18.219 Y15.215 I0 J0.319
G1 Y55.566
G3 X18.021 Y55.766 I-0.2 J0
G1 X4.834 Y55.873
G3 X4.632 Y55.673 I-0.002 J-0.2
G1 Y14.067
G3 X4.952 Y13.747 I0.319 J0
G1 X19.048
G3 X19.368 Y14.067 I0 J0.319
G1 Y55.669
G3 X19.168 Y55.869 I-0.2 J0
G1 X3.679 Y55.872
G3 X3.479 Y55.672 I0 J-0.2
G1 Y25.197
Y12.594
X4.099
X4.239 Y12.635
X4.414 Y12.594
X20.521
Y55.664
G3 X20.132 Y55.728 I-0.2 J0
G1 X6.94 Y16.76
X6.932 Y16.729
X6.929 Y16.696
Z-3
Y16.684
Y16.363
G3 X7.248 Y16.044 I0.319 J0
G1 X16.752
G3 X17.071 Y16.363 I0 J0.319
G1 Y16.691
X17.064 Y16.745
X6.173 Y55.584
G3 X5.781 Y55.53 I-0.193 J-0.054
G1 Y15.215
G3 X6.1 Y14.896 I0.319 J0
G1 X17.9
G3 X18.219 Y15.215 I0 J0.319
G1 Y55.566
G3 X18.021 Y55.766 I-0.2 J0
G1 X4.834 Y55.873
G3 X4.632 Y55.673 I-0.002 J-0.2
G1 Y14.067
G3 X4.952 Y13.747 I0.319 J0
G1 X19.048
G3 X19.368 Y14.067 I0 J0.319
G1 Y55.669
G3 X19.168 Y55.869 I-0.2 J0
G1 X3.679 Y55.872
G3 X3.479 Y55.672 I0 J-0.2
G1 Y25.197
Y12.594
X4.099
X4.239 Y12.635
X4.414 Y12.594
X20.521
Y55.664
G3 X20.132 Y55.728 I-0.2 J0
G1 X6.94 Y16.76
X6.932 Y16.729
X6.929 Y16.696
Z-3.1
Y16.684
Y16.363
G3 X7.248 Y16.044 I0.319 J0
G1 X16.752
G3 X17.071 Y16.363 I0 J0.319
G1 Y16.691
X17.064 Y16.745
X6.173 Y55.584
G3 X5.781 Y55.53 I-0.193 J-0.054
G1 Y15.215
G3 X6.1 Y14.896 I0.319 J0
G1 X17.9
G3 X18.219 Y15.215 I0 J0.319
G1 Y55.566
G3 X18.021 Y55.766 I-0.2 J0
G1 X4.834 Y55.873
G3 X4.632 Y55.673 I-0.002 J-0.2
G1 Y14.067
G3 X4.952 Y13.747 I0.319 J0
G1 X19.048
G3 X19.368 Y14.067 I0 J0.319
G1 Y55.669
G3 X19.168 Y55.869 I-0.2 J0
G1 X3.679 Y55.872
G3 X3.479 Y55.672 I0 J-0.2
G1 Y25.197
Y12.594
X4.099
X4.239 Y12.635
X4.414 Y12.594
X20.521
Y55.664
G0 Z7
X10.104 Y48.51
Z2
G1 Z1 F400
X14.716 Z0.187
X11.956 Z-0.3
X11.921 Y48.507
X11.888 Y48.498
X11.452 Y48.332
G2 X11.316 Y48.688 I-0.068 J0.178
X11.574 Y48.51 I0.068 J-0.178
G1 Y22.496
G3 X11.894 Y22.176 I0.319 J0
G1 X12.018
G3 X12.337 Y22.496 I0 J0.319
G1 Y48.572
G3 X12.018 Y48.892 I-0.319 J0
G1 X11.894
G3 X11.574 Y48.572 I0 J-0.319
G1 Y48.51
G2 X11.182 Y47.922 I-0.637 J0
G3 X10.79 Y47.334 I0.245 J-0.588
G1 Y21.712
G3 X11.11 Y21.392 I0.319 J0
G1 X12.802
G3 X13.121 Y21.712 I0 J0.319
G1 Y49.356
G3 X12.802 Y49.676 I-0.319 J0
G1 X11.11
G3 X10.79 Y49.356 I0 J-0.319
G1 Y47.334
G2 X10.216 Y46.473 I-0.933 J0
G3 X9.642 Y45.611 I0.359 J-0.861
G1 Y20.563
G3 X9.961 Y20.244 I0.319 J0
G1 X13.95
G3 X14.27 Y20.563 I0 J0.319
G1 Y50.505
G3 X13.95 Y50.824 I-0.319 J0
G1 X9.961
G3 X9.642 Y50.505 I0 J-0.319
G1 Y45.611
G2 X9.068 Y44.75 I-0.933 J0
G3 X8.494 Y43.889 I0.359 J-0.861
G1 Y19.415
G3 X8.813 Y19.096 I0.319 J0
G1 X15.099
G3 X15.418 Y19.415 I0 J0.319
G1 Y51.653
G3 X15.099 Y51.972 I-0.319 J0
G1 X8.813
G3 X8.494 Y51.653 I0 J-0.319
G1 Y43.889
G2 X7.919 Y43.028 I-0.933 J0
G3 X7.345 Y42.166 I0.359 J-0.861
G1 Y18.267
G3 X7.665 Y17.947 I0.319 J0
G1 X16.247
G3 X16.566 Y18.267 I0 J0.319
G1 Y52.801
G3 X16.247 Y53.121 I-0.319 J0
G1 X7.665
G3 X7.345 Y52.801 I0 J-0.319
G1 Y42.166
G2 X6.769 Y41.301 I-0.937 J0
G3 X6.192 Y40.437 I0.36 J-0.865
G1 Y16.794
X17.719
Y54.274
X6.192
Y40.437
G3 X7.349 Y39.842 I0.731 J0
G1 X11.411 Y42.749
G3 X11.612 Y42.966 I-0.426 J0.595
G1 X14.284 Y47.402
G3 X13.657 Y48.51 I-0.626 J0.377
G1 X11.956 Z-0.6
X11.921 Y48.507
X11.888 Y48.498
X11.452 Y48.332
G2 X11.316 Y48.688 I-0.068 J0.178
X11.574 Y48.51 I0.068 J-0.178
G1 Y22.496
G3 X11.894 Y22.176 I0.319 J0
G1 X12.018
G3 X12.337 Y22.496 I0 J0.319
G1 Y48.572
G3 X12.018 Y48.892 I-0.319 J0
G1 X11.894
G3 X11.574 Y48.572 I0 J-0.319
G1 Y48.51
G2 X11.182 Y47.922 I-0.637 J0
G3 X10.79 Y47.334 I0.245 J-0.588
