(1001)
(T1  D=1.5 CR=0 - ZMIN=-7.2 - flat end mill)
G90 G94
G17
G21

(2D Contour4)
T1
S5000 M3
G54
M8
G0 X-9.656 Y-1.439
Z6
Z2
G1 Z1.6 F200
Z-0.6
Y57.373
G2 X-1.906 Y65.123 I7.75 J0
G1 X25.35
G2 X33.1 Y57.373 I0 J-7.75
G1 Y-1.439
G2 X29.35 Y-5.189 I-3.75 J0
G1 X-5.906
G2 X-9.656 Y-1.439 I0 J3.75
G1 Z-1.2
Y57.373
G2 X-1.906 Y65.123 I7.75 J0
G1 X25.35
G2 X33.1 Y57.373 I0 J-7.75
G1 Y-1.439
G2 X29.35 Y-5.189 I-3.75 J0
G1 X-5.906
G2 X-9.656 Y-1.439 I0 J3.75
G1 Z-1.8
Y57.373
G2 X-1.906 Y65.123 I7.75 J0
G1 X25.35
G2 X33.1 Y57.373 I0 J-7.75
G1 Y-1.439
G2 X29.35 Y-5.189 I-3.75 J0
G1 X-5.906
G2 X-9.656 Y-1.439 I0 J3.75
G1 Z-2.4
Y57.373
G2 X-1.906 Y65.123 I7.75 J0
G1 X25.35
G2 X33.1 Y57.373 I0 J-7.75
G1 Y-1.439
G2 X29.35 Y-5.189 I-3.75 J0
G1 X-5.906
G2 X-9.656 Y-1.439 I0 J3.75
G1 Z-3
Y57.373
G2 X-1.906 Y65.123 I7.75 J0
G1 X25.35
G2 X33.1 Y57.373 I0 J-7.75
G1 Y-1.439
G2 X29.35 Y-5.189 I-3.75 J0
G1 X-5.906
G2 X-9.656 Y-1.439 I0 J3.75
G1 Z-3.6
Y57.373
G2 X-1.906 Y65.123 I7.75 J0
G1 X25.35
G2 X33.1 Y57.373 I0 J-7.75
G1 Y-1.439
G2 X29.35 Y-5.189 I-3.75 J0
G1 X-5.906
G2 X-9.656 Y-1.439 I0 J3.75
G1 Z-4.2
Y57.373
G2 X-1.906 Y65.123 I7.75 J0
G1 X25.35
G2 X33.1 Y57.373 I0 J-7.75
G1 Y-1.439
G2 X29.35 Y-5.189 I-3.75 J0
G1 X-5.906
G2 X-9.656 Y-1.439 I0 J3.75
G1 Z-4.8
Y57.373
G2 X-1.906 Y65.123 I7.75 J0
G1 X25.35
G2 X33.1 Y57.373 I0 J-7.75
G1 Y-1.439
G2 X29.35 Y-5.189 I-3.75 J0
G1 X-5.906
G2 X-9.656 Y-1.439 I0 J3.75
G1 Z-5.4
Y57.373
G2 X-1.906 Y65.123 I7.75 J0
G1 X25.35
G2 X33.1 Y57.373 I0 J-7.75
G1 Y-1.439
G2 X29.35 Y-5.189 I-3.75 J0
G1 X-5.906
G2 X-9.656 Y-1.439 I0 J3.75
G1 Z-6
Y57.373
G2 X-1.906 Y65.123 I7.75 J0
G1 X25.35
G2 X33.1 Y57.373 I0 J-7.75
G1 Y-1.439
G2 X29.35 Y-5.189 I-3.75 J0
G1 X-5.906
G2 X-9.656 Y-1.439 I0 J3.75
G1 Z-6.6
Y57.373
G2 X-1.906 Y65.123 I7.75 J0
G1 X25.35
G2 X33.1 Y57.373 I0 J-7.75
G1 Y-1.439
G2 X29.35 Y-5.189 I-3.75 J0
G1 X-5.906
G2 X-9.656 Y-1.439 I0 J3.75
G1 Z-7.2
Y4.412
Z-6.6
Y7.412
Z-7.2
Y19.115
Z-6.6
Y22.115
Z-7.2
Y33.818
Z-6.6
Y36.818
Z-7.2
Y48.521
Z-6.6
Y51.521
Z-7.2
Y57.373
G2 X-1.906 Y65.123 I7.75 J0
G1 X3.408
Z-6.6
X6.408
Z-7.2
X17.036
Z-6.6
X20.036
Z-7.2
X25.35
G2 X33.1 Y57.373 I0 J-7.75
G1 Y51.521
Z-6.6
Y48.521
Z-7.2
Y36.818
Z-6.6
Y33.818
Z-7.2
Y22.115
Z-6.6
Y19.115
Z-7.2
Y7.412
Z-6.6
Y4.412
Z-7.2
Y-1.439
G2 X29.35 Y-5.189 I-3.75 J0
G1 X22.036
Z-6.6
X19.036
Z-7.2
X4.408
Z-6.6
X1.408
Z-7.2
X-5.906
G2 X-9.656 Y-1.439 I0 J3.75
G0 Z6
M9
M5
M30
