(1001)
(T1  D=1.5 CR=0 - ZMIN=-2.51 - flat end mill)
G90 G94
G17
G21

(2D Pocket7)
T1
S5000 M3
G54
M8
G0 X3.423 Y20.298
Z7
Z2
G1 Z1.5 F400
Z-0.5
X3.403 Y20.285
X3.186 Y20.132
X0.198 Y18.021
X0.183 Y18.003
X0.177 Y17.98
Y10.369
X0.184 Y10.344
X0.202 Y10.325
X0.227 Y10.319
X9.897
X10.05 Y10.462
Y12.84
X10.043 Y12.865
X10.025 Y12.883
X10 Y12.89
X9.975 Y12.883
X9.957 Y12.865
X9.95 Y12.84
Y11.169
G2 X9.2 Y10.419 I-0.75 J0
G1 X1.027
G2 X0.277 Y11.169 I0 J0.75
G1 Y17.566
G2 X0.595 Y18.179 I0.75 J0
G1 X2.32 Y19.398
X3.399 Y20.16
X2.32 Y19.398 Z-0.526
X0.595 Y18.179 Z-0.568
G3 X0.277 Y17.566 Z-0.582 I0.433 J-0.613
G1 Y11.169 Z-0.709
G3 X1.027 Y10.419 Z-0.732 I0.75 J0
G1 X9.2 Z-0.894
G3 X9.95 Y11.169 Z-0.917 I0 J0.75
G1 Y12.84 Z-0.95
X9.957 Y12.865
X9.975 Y12.883 Z-0.951
X10 Y12.89
X10.025 Y12.883 Z-0.952
X10.043 Y12.865
X10.05 Y12.84 Z-0.953
Y10.462 Z-1
Y12.84
X10.043 Y12.865
X10.025 Y12.883
X10 Y12.89
X9.975 Y12.883
X9.957 Y12.865
X9.95 Y12.84
Y11.169
G2 X9.2 Y10.419 I-0.75 J0
G1 X1.027
G2 X0.277 Y11.169 I0 J0.75
G1 Y17.566
G2 X0.595 Y18.179 I0.75 J0
G1 X2.32 Y19.398
X3.399 Y20.16
X3.401 Y20.223
X3.403 Y20.285
X3.186 Y20.132
X0.198 Y18.021
X0.183 Y18.003
X0.177 Y17.98
Y10.369
X0.184 Y10.344
X0.202 Y10.325
X0.227 Y10.319
X9.897
G0 Z4
X0.177 Y13.368
Z2
G1 Z0.8 F400
Y10.369 Z0.271
X0.184 Y10.344 Z0.267
X0.202 Y10.325 Z0.262
X0.227 Y10.319 Z0.257
X10.05 Z-1.475
Y10.462 Z-1.5
Y12.84
X10.043 Y12.865
X10.025 Y12.883
X10 Y12.89
X9.975 Y12.883
X9.957 Y12.865
X9.95 Y12.84
Y11.169
G2 X9.2 Y10.419 I-0.75 J0
G1 X1.027
G2 X0.277 Y11.169 I0 J0.75
G1 Y17.566
G2 X0.595 Y18.179 I0.75 J0
G1 X2.32 Y19.398
X3.399 Y20.16
X3.401 Y20.223
X3.403 Y20.285
X3.186 Y20.132
X0.198 Y18.021
X0.183 Y18.003
X0.177 Y17.98
Y10.369
X0.184 Y10.344
X0.202 Y10.325
X0.227 Y10.319
X9.897
G0 Z4
X0.177 Y13.368
Z2
G1 Z0.3 F400
Y10.369 Z-0.229
X0.184 Y10.344 Z-0.233
X0.202 Y10.325 Z-0.238
X0.227 Y10.319 Z-0.243
X10.05 Z-1.975
Y10.462 Z-2
Y12.84
X10.043 Y12.865
X10.025 Y12.883
X10 Y12.89
X9.975 Y12.883
X9.957 Y12.865
X9.95 Y12.84
Y11.169
G2 X9.2 Y10.419 I-0.75 J0
G1 X1.027
G2 X0.277 Y11.169 I0 J0.75
G1 Y17.566
G2 X0.595 Y18.179 I0.75 J0
G1 X2.32 Y19.398
X3.399 Y20.16
X3.401 Y20.223
X3.403 Y20.285
X3.186 Y20.132
X0.198 Y18.021
X0.183 Y18.003
X0.177 Y17.98
Y10.369
X0.184 Y10.344
X0.202 Y10.325
X0.227 Y10.319
X9.897
G0 Z4
X0.177 Y13.368
Z2
G1 Z-0.2 F400
Y10.369 Z-0.729
X0.184 Y10.344 Z-0.733
X0.202 Y10.325 Z-0.738
X0.227 Y10.319 Z-0.743
X10.05 Z-2.475
Y10.462 Z-2.5
Y12.84
X10.043 Y12.865
X10.025 Y12.883
X10 Y12.89
X9.975 Y12.883
X9.957 Y12.865
X9.95 Y12.84
Y11.169
G2 X9.2 Y10.419 I-0.75 J0
G1 X1.027
G2 X0.277 Y11.169 I0 J0.75
G1 Y17.566
G2 X0.595 Y18.179 I0.75 J0
G1 X2.32 Y19.398
X3.399 Y20.16
X3.401 Y20.223
X3.403 Y20.285
X3.186 Y20.132
X0.198 Y18.021
X0.183 Y18.003
X0.177 Y17.98
Y10.369
X0.184 Y10.344
X0.202 Y10.325
X0.227 Y10.319
X9.897
G0 Z7
X0.503 Y21.587
Z2
G1 Z1.5 F400
Z-0.5
X0.524 Y21.596
X0.774 Y21.72
X2.42 Y22.537
X3.394 Y23.02
X3.397 Y23.077
X3.401 Y23.135
X3.086 Y22.979
X0.729 Y21.81
X0.468 Y21.68
X0.449 Y21.664
X0.44 Y21.642
X0.443 Y21.618
X0.457 Y21.598
X0.478 Y21.587
X0.502
X0.503
Z-1
X0.524 Y21.596
X0.774 Y21.72
X2.42 Y22.537
X3.394 Y23.02
X3.397 Y23.077
X3.401 Y23.135
X3.086 Y22.979
X0.729 Y21.81
X0.468 Y21.68
X0.449 Y21.664
X0.44 Y21.642
X0.443 Y21.618
X0.457 Y21.598
X0.478 Y21.587
X0.502
X0.503
Z-1.5
X0.524 Y21.596
X0.774 Y21.72
X2.42 Y22.537
X3.394 Y23.02
X3.397 Y23.077
X3.401 Y23.135
X3.086 Y22.979
X0.729 Y21.81
X0.468 Y21.68
X0.449 Y21.664
X0.44 Y21.642
X0.443 Y21.618
X0.457 Y21.598
X0.478 Y21.587
X0.502
X0.503
Z-2
X0.524 Y21.596
X0.774 Y21.72
X2.42 Y22.537
X3.394 Y23.02
X3.397 Y23.077
X3.401 Y23.135
X3.086 Y22.979
X0.729 Y21.81
X0.468 Y21.68
X0.449 Y21.664
X0.44 Y21.642
X0.443 Y21.618
X0.457 Y21.598
X0.478 Y21.587
X0.502
X0.503
Z-2.5
X0.524 Y21.596
X0.774 Y21.72
X2.42 Y22.537
X3.394 Y23.02
X3.397 Y23.077
X3.401 Y23.135
X3.086 Y22.979
X0.729 Y21.81
X0.468 Y21.68
G0 Z7
X0.512 Y25.02
Z2
G1 Z1.5 F400
Z-0.5
X0.535 Y25.025
X0.816 Y25.103
X2.553 Y25.585
X3.398 Y25.819
X3.395 Y25.87
X3.393 Y25.921
X2.953 Y25.799
X0.789 Y25.2
X0.508 Y25.122
X0.484 Y25.107
X0.471 Y25.083
X0.474 Y25.055
X0.49 Y25.033
X0.515 Y25.022
X0.512 Y25.02
Z-1
X0.535 Y25.025
X0.816 Y25.103
X2.553 Y25.585
X3.398 Y25.819
X3.395 Y25.87
X3.393 Y25.921
X2.953 Y25.799
X0.789 Y25.2
X0.508 Y25.122
X0.484 Y25.107
X0.471 Y25.083
X0.474 Y25.055
X0.49 Y25.033
X0.515 Y25.022
X0.512 Y25.02
Z-1.5
X0.535 Y25.025
X0.816 Y25.103
X2.553 Y25.585
X3.398 Y25.819
X3.395 Y25.87
X3.393 Y25.921
X2.953 Y25.799
X0.789 Y25.2
X0.508 Y25.122
X0.484 Y25.107
X0.471 Y25.083
X0.474 Y25.055
X0.49 Y25.033
X0.515 Y25.022
X0.512 Y25.02
Z-2
X0.535 Y25.025
X0.816 Y25.103
X2.553 Y25.585
X3.398 Y25.819
X3.395 Y25.87
X3.393 Y25.921
X2.953 Y25.799
X0.789 Y25.2
X0.508 Y25.122
X0.484 Y25.107
X0.471 Y25.083
X0.474 Y25.055
X0.49 Y25.033
X0.515 Y25.022
X0.512 Y25.02
Z-2.5
X0.535 Y25.025
X0.816 Y25.103
X2.553 Y25.585
X3.398 Y25.819
X3.395 Y25.87
X3.393 Y25.921
X2.953 Y25.799
X0.789 Y25.2
X0.508 Y25.122
G0 Z7
X-2.533 Y28.456
Z2
G1 Z1.5 F400
Z-0.5
X-2.51 Y28.455
X-2.123
X2.754 Y28.451
X3.397
X3.422 Y28.457
X3.44 Y28.476
X3.447 Y28.501
X3.44 Y28.526
X3.422 Y28.544
X3.397 Y28.551
X3.396
X2.752
X-2.123 Y28.555
X-2.509
X-2.123 Z-0.533
X2.752 Y28.551 Z-0.945
X3.396 Z-1
X2.752
X-2.123 Y28.555
X-2.509
X-2.534 Y28.548
X-2.553 Y28.53
X-2.56 Y28.505
X-2.553 Y28.48
X-2.535 Y28.462
X-2.51 Y28.455
X-2.123
X2.754 Y28.451
X3.397
X3.423 Y28.458
X3.442 Y28.478
X3.447 Y28.505
X3.438 Y28.531
X3.416 Y28.548
X3.42 Y28.55
Z-1.5
X3.396 Y28.551
X2.752
X-2.123 Y28.555
X-2.509
X-2.534 Y28.548
X-2.553 Y28.53
X-2.56 Y28.505
X-2.553 Y28.48
X-2.535 Y28.462
X-2.51 Y28.455
X-2.123
X2.754 Y28.451
X3.397
X3.423 Y28.458
X3.442 Y28.478
X3.447 Y28.505
X3.438 Y28.531
X3.416 Y28.548
X3.42 Y28.55
Z-2
X3.396 Y28.551
X2.752
X-2.123 Y28.555
X-2.509
X-2.534 Y28.548
X-2.553 Y28.53
X-2.56 Y28.505
X-2.553 Y28.48
X-2.535 Y28.462
X-2.51 Y28.455
X-2.123
X2.754 Y28.451
X3.397
X3.423 Y28.458
X3.442 Y28.478
X3.447 Y28.505
X3.438 Y28.531
X3.416 Y28.548
X3.42 Y28.55
Z-2.5
X3.396 Y28.551
X2.752
X-2.123 Y28.555
X-2.509
X-2.534 Y28.548
X-2.553 Y28.53
X-2.56 Y28.505
X-2.553 Y28.48
X-2.535 Y28.462
X-2.51 Y28.455
X-2.123
X2.754 Y28.451
X3.397
G0 Z7
X-3.133 Y27.96
Z2
G1 Z1.5 F400
Z-0.5
X-3.134 Y27.937
Y27.545
X-3.136 Y24.44
Y24.054
X-3.086 Y24.051
X-3.036 Y24.048
Y24.44
X-3.034 Y27.545
Y27.931
X-3.041 Y27.957
X-3.06 Y27.976
X-3.087 Y27.982
X-3.113 Y27.974
X-3.131 Y27.954
X-3.133 Y27.96
Z-1
X-3.134 Y27.937
Y27.545
X-3.136 Y24.44
Y24.054
X-3.086 Y24.051
X-3.036 Y24.048
Y24.44
X-3.034 Y27.545
Y27.931
X-3.041 Y27.957
X-3.06 Y27.976
X-3.087 Y27.982
X-3.113 Y27.974
X-3.131 Y27.954
X-3.133 Y27.96
Z-1.5
X-3.134 Y27.937
Y27.545
X-3.136 Y24.44
Y24.054
X-3.086 Y24.051
X-3.036 Y24.048
Y24.44
X-3.034 Y27.545
Y27.931
X-3.041 Y27.957
X-3.06 Y27.976
X-3.087 Y27.982
X-3.113 Y27.974
X-3.131 Y27.954
X-3.133 Y27.96
Z-2
X-3.134 Y27.937
Y27.545
X-3.136 Y24.44
Y24.054
X-3.086 Y24.051
X-3.036 Y24.048
Y24.44
X-3.034 Y27.545
Y27.931
X-3.041 Y27.957
X-3.06 Y27.976
X-3.087 Y27.982
X-3.113 Y27.974
X-3.131 Y27.954
X-3.133 Y27.96
Z-2.5
X-3.134 Y27.937
Y27.545
X-3.136 Y24.44
Y24.054
X-3.086 Y24.051
X-3.036 Y24.048
Y24.44
X-3.034 Y27.545
Y27.931
G0 Z7
X33.559 Y25.905
Z2
G1 Z1.5 F400
Z-0.5
X33.554
X10.717
G3 X10.398 Y25.586 I0 J-0.319
G1 Y25.064
G3 X10.717 Y24.745 I0.319 J0
G1 X33.553
G3 X33.753 Y24.946 I0 J0.2
G1 X33.744 Y26.854
G3 X33.544 Y27.053 I-0.2 J-0.001
G1 X9.569
G3 X9.25 Y26.734 I0 J-0.319
G1 Y23.916
G3 X9.569 Y23.597 I0.319 J0
G1 X33.551
G3 X33.751 Y23.797 I0 J0.2
G1 X33.747 Y28.002
G3 X33.547 Y28.202 I-0.2 J0
G1 X8.421
G3 X8.101 Y27.882 I0 J-0.319
G1 Y22.768
G3 X8.421 Y22.448 I0.319 J0
G1 X33.548
G3 X33.748 Y22.648 I0 J0.2
G1 X33.749 Y29.15
G3 X33.549 Y29.35 I-0.2 J0
G1 X7.272
G3 X6.953 Y29.031 I0 J-0.319
G1 Y21.619
G3 X7.272 Y21.3 I0.319 J0
G1 X33.546
G3 X33.746 Y21.5 I0 J0.2
G1 X33.752 Y30.298
G3 X33.552 Y30.498 I-0.2 J0
G1 X6.124
G3 X5.805 Y30.179 I0 J-0.319
G1 Y20.471
G3 X6.124 Y20.152 I0.319 J0
G1 X33.555
G3 X33.755 Y20.352 I0 J0.2
G1 X33.754 Y31.447
G3 X33.554 Y31.647 I-0.2 J0
G1 X4.976
G3 X4.656 Y31.327 I0 J-0.319
G1 Y19.323
G3 X4.976 Y19.003 I0.319 J0
G1 X33.553
G3 X33.753 Y19.203 I0 J0.2
G1 X33.746 Y32.6
G3 X33.546 Y32.8 I-0.2 J0
G1 X3.503
Y17.85
X32.906
X33.549
G3 X34.261 Y18.562 Z-0.563 I0 J0.712
G1 X34.266 Y25.192 Z-0.937
G3 X33.554 Y25.905 Z-1 I-0.712 J0
G1 X10.717
G3 X10.398 Y25.586 I0 J-0.319
G1 Y25.064
G3 X10.717 Y24.745 I0.319 J0
G1 X33.553
G3 X33.753 Y24.946 I0 J0.2
G1 X33.744 Y26.854
G3 X33.544 Y27.053 I-0.2 J-0.001
G1 X9.569
G3 X9.25 Y26.734 I0 J-0.319
G1 Y23.916
G3 X9.569 Y23.597 I0.319 J0
G1 X33.551
G3 X33.751 Y23.797 I0 J0.2
G1 X33.747 Y28.002
G3 X33.547 Y28.202 I-0.2 J0
G1 X8.421
G3 X8.101 Y27.882 I0 J-0.319
G1 Y22.768
G3 X8.421 Y22.448 I0.319 J0
G1 X33.548
G3 X33.748 Y22.648 I0 J0.2
G1 X33.749 Y29.15
G3 X33.549 Y29.35 I-0.2 J0
G1 X7.272
G3 X6.953 Y29.031 I0 J-0.319
G1 Y21.619
G3 X7.272 Y21.3 I0.319 J0
G1 X33.546
G3 X33.746 Y21.5 I0 J0.2
G1 X33.752 Y30.298
G3 X33.552 Y30.498 I-0.2 J0
G1 X6.124
G3 X5.805 Y30.179 I0 J-0.319
G1 Y20.471
G3 X6.124 Y20.152 I0.319 J0
G1 X33.555
G3 X33.755 Y20.352 I0 J0.2
G1 X33.754 Y31.447
G3 X33.554 Y31.647 I-0.2 J0
G1 X4.976
G3 X4.656 Y31.327 I0 J-0.319
G1 Y19.323
G3 X4.976 Y19.003 I0.319 J0
G1 X33.553
G3 X33.753 Y19.203 I0 J0.2
G1 X33.746 Y32.6
G3 X33.546 Y32.8 I-0.2 J0
G1 X3.503
Y17.85
X32.906
X33.549
G3 X34.261 Y18.562 Z-1.063 I0 J0.712
G1 X34.266 Y25.192 Z-1.437
G3 X33.554 Y25.905 Z-1.5 I-0.712 J0
G1 X10.717
G3 X10.398 Y25.586 I0 J-0.319
G1 Y25.064
G3 X10.717 Y24.745 I0.319 J0
G1 X33.553
G3 X33.753 Y24.946 I0 J0.2
G1 X33.744 Y26.854
G3 X33.544 Y27.053 I-0.2 J-0.001
G1 X9.569
G3 X9.25 Y26.734 I0 J-0.319
G1 Y23.916
G3 X9.569 Y23.597 I0.319 J0
G1 X33.551
G3 X33.751 Y23.797 I0 J0.2
G1 X33.747 Y28.002
G3 X33.547 Y28.202 I-0.2 J0
G1 X8.421
G3 X8.101 Y27.882 I0 J-0.319
G1 Y22.768
G3 X8.421 Y22.448 I0.319 J0
G1 X33.548
G3 X33.748 Y22.648 I0 J0.2
G1 X33.749 Y29.15
G3 X33.549 Y29.35 I-0.2 J0
G1 X7.272
G3 X6.953 Y29.031 I0 J-0.319
G1 Y21.619
G3 X7.272 Y21.3 I0.319 J0
G1 X33.546
G3 X33.746 Y21.5 I0 J0.2
G1 X33.752 Y30.298
G3 X33.552 Y30.498 I-0.2 J0
G1 X6.124
G3 X5.805 Y30.179 I0 J-0.319
G1 Y20.471
G3 X6.124 Y20.152 I0.319 J0
G1 X33.555
G3 X33.755 Y20.352 I0 J0.2
G1 X33.754 Y31.447
G3 X33.554 Y31.647 I-0.2 J0
G1 X4.976
G3 X4.656 Y31.327 I0 J-0.319
G1 Y19.323
G3 X4.976 Y19.003 I0.319 J0
G1 X33.553
G3 X33.753 Y19.203 I0 J0.2
G1 X33.746 Y32.6
G3 X33.546 Y32.8 I-0.2 J0
G1 X3.503
Y17.85
X32.906
X33.549
G3 X34.261 Y18.562 Z-1.563 I0 J0.712
G1 X34.266 Y25.192 Z-1.937
G3 X33.554 Y25.905 Z-2 I-0.712 J0
G1 X10.717
G3 X10.398 Y25.586 I0 J-0.319
G1 Y25.064
G3 X10.717 Y24.745 I0.319 J0
G1 X33.553
G3 X33.753 Y24.946 I0 J0.2
G1 X33.744 Y26.854
G3 X33.544 Y27.053 I-0.2 J-0.001
G1 X9.569
G3 X9.25 Y26.734 I0 J-0.319
G1 Y23.916
G3 X9.569 Y23.597 I0.319 J0
G1 X33.551
G3 X33.751 Y23.797 I0 J0.2
G1 X33.747 Y28.002
G3 X33.547 Y28.202 I-0.2 J0
G1 X8.421
G3 X8.101 Y27.882 I0 J-0.319
G1 Y22.768
G3 X8.421 Y22.448 I0.319 J0
G1 X33.548
G3 X33.748 Y22.648 I0 J0.2
G1 X33.749 Y29.15
G3 X33.549 Y29.35 I-0.2 J0
G1 X7.272
G3 X6.953 Y29.031 I0 J-0.319
G1 Y21.619
G3 X7.272 Y21.3 I0.319 J0
G1 X33.546
G3 X33.746 Y21.5 I0 J0.2
G1 X33.752 Y30.298
G3 X33.552 Y30.498 I-0.2 J0
G1 X6.124
G3 X5.805 Y30.179 I0 J-0.319
G1 Y20.471
G3 X6.124 Y20.152 I0.319 J0
G1 X33.555
G3 X33.755 Y20.352 I0 J0.2
G1 X33.754 Y31.447
G3 X33.554 Y31.647 I-0.2 J0
G1 X4.976
G3 X4.656 Y31.327 I0 J-0.319
G1 Y19.323
G3 X4.976 Y19.003 I0.319 J0
G1 X33.553
G3 X33.753 Y19.203 I0 J0.2
G1 X33.746 Y32.6
G3 X33.546 Y32.8 I-0.2 J0
G1 X3.503
Y17.85
X32.906
X33.549
G3 X34.261 Y18.562 Z-2.032 I0 J0.712
G1 X34.266 Y25.192 Z-2.223
G3 X33.554 Y25.905 Z-2.255 I-0.712 J0
G1 X10.717
G3 X10.398 Y25.586 I0 J-0.319
G1 Y25.064
G3 X10.717 Y24.745 I0.319 J0
G1 X33.553
G3 X33.753 Y24.946 I0 J0.2
G1 X33.744 Y26.854
G3 X33.544 Y27.053 I-0.2 J-0.001
G1 X9.569
G3 X9.25 Y26.734 I0 J-0.319
G1 Y23.916
G3 X9.569 Y23.597 I0.319 J0
G1 X33.551
G3 X33.751 Y23.797 I0 J0.2
G1 X33.747 Y28.002
G3 X33.547 Y28.202 I-0.2 J0
G1 X8.421
G3 X8.101 Y27.882 I0 J-0.319
G1 Y22.768
G3 X8.421 Y22.448 I0.319 J0
G1 X33.548
G3 X33.748 Y22.648 I0 J0.2
G1 X33.749 Y29.15
G3 X33.549 Y29.35 I-0.2 J0
G1 X7.272
G3 X6.953 Y29.031 I0 J-0.319
G1 Y21.619
G3 X7.272 Y21.3 I0.319 J0
G1 X33.546
G3 X33.746 Y21.5 I0 J0.2
G1 X33.752 Y30.298
G3 X33.552 Y30.498 I-0.2 J0
G1 X6.124
G3 X5.805 Y30.179 I0 J-0.319
G1 Y20.471
G3 X6.124 Y20.152 I0.319 J0
G1 X33.555
G3 X33.755 Y20.352 I0 J0.2
G1 X33.754 Y31.447
G3 X33.554 Y31.647 I-0.2 J0
G1 X4.976
G3 X4.656 Y31.327 I0 J-0.319
G1 Y19.323
G3 X4.976 Y19.003 I0.319 J0
G1 X33.553
G3 X33.753 Y19.203 I0 J0.2
G1 X33.746 Y32.6
G3 X33.546 Y32.8 I-0.2 J0
G1 X3.503
Y17.85
X32.906
X33.549
G3 X34.261 Y18.562 Z-2.287 I0 J0.712
G1 X34.266 Y25.192 Z-2.478
G3 X33.554 Y25.905 Z-2.51 I-0.712 J0
G1 X10.717
G3 X10.398 Y25.586 I0 J-0.319
G1 Y25.064
G3 X10.717 Y24.745 I0.319 J0
G1 X33.553
G3 X33.753 Y24.946 I0 J0.2
G1 X33.744 Y26.854
G3 X33.544 Y27.053 I-0.2 J-0.001
G1 X9.569
G3 X9.25 Y26.734 I0 J-0.319
G1 Y23.916
G3 X9.569 Y23.597 I0.319 J0
G1 X33.551
G3 X33.751 Y23.797 I0 J0.2
G1 X33.747 Y28.002
G3 X33.547 Y28.202 I-0.2 J0
G1 X8.421
G3 X8.101 Y27.882 I0 J-0.319
G1 Y22.768
G3 X8.421 Y22.448 I0.319 J0
G1 X33.548
G3 X33.748 Y22.648 I0 J0.2
G1 X33.749 Y29.15
G3 X33.549 Y29.35 I-0.2 J0
G1 X7.272
G3 X6.953 Y29.031 I0 J-0.319
G1 Y21.619
G3 X7.272 Y21.3 I0.319 J0
G1 X33.546
G3 X33.746 Y21.5 I0 J0.2
G1 X33.752 Y30.298
G3 X33.552 Y30.498 I-0.2 J0
G1 X6.124
G3 X5.805 Y30.179 I0 J-0.319
G1 Y20.471
G3 X6.124 Y20.152 I0.319 J0
G1 X33.555
G3 X33.755 Y20.352 I0 J0.2
G1 X33.754 Y31.447
G3 X33.554 Y31.647 I-0.2 J0
G1 X4.976
G3 X4.656 Y31.327 I0 J-0.319
G1 Y19.323
G3 X4.976 Y19.003 I0.319 J0
G1 X33.553
G3 X33.753 Y19.203 I0 J0.2
G1 X33.746 Y32.6
G3 X33.546 Y32.8 I-0.2 J0
G1 X3.503
Y17.85
X32.906
X33.549
G0 Z7
X-3.122 Y20.734
Z2
G1 Z1.8 F400
Z-0.5
G3 X-3.062 Y20.814 I0.03 J0.04
X-3.122 Y20.734 I-0.03 J-0.04
G1 X-3.096 Y20.724 Z-0.505
X-3.068 Y20.73 Z-0.51
X-3.048 Y20.75 Z-0.515
X-3.042 Y20.777 Z-0.52
X-3.051 Y20.803 Z-0.525
X-3.073 Y20.82 Z-0.53
X-3.101 Y20.823 Z-0.535
X-3.126 Y20.811 Z-0.54
X-3.14 Y20.787 Z-0.545
Y20.759 Z-0.55
X-3.124 Y20.735 Z-0.555
X-3.098 Y20.724 Z-0.56
X-3.07 Y20.729 Z-0.565
X-3.05 Y20.748 Z-0.57
X-3.042 Y20.775 Z-0.575
X-3.05 Y20.801 Z-0.58
X-3.071 Y20.82 Z-0.585
X-3.099 Y20.824 Z-0.59
X-3.124 Y20.812 Z-0.595
X-3.14 Y20.789 Z-0.6
Y20.761 Z-0.605
X-3.125 Y20.737 Z-0.61
X-3.1 Y20.725 Z-0.615
X-3.072 Y20.728 Z-0.62
X-3.051 Y20.746 Z-0.625
X-3.042 Y20.772 Z-0.63
X-3.049 Y20.799 Z-0.635
X-3.069 Y20.819 Z-0.64
X-3.097 Y20.824 Z-0.645
X-3.123 Y20.814 Z-0.65
X-3.139 Y20.791 Z-0.655
X-3.141 Y20.763 Z-0.66
X-3.127 Y20.738 Z-0.665
X-3.102 Y20.725 Z-0.67
X-3.075 Y20.727 Z-0.675
X-3.052 Y20.744 Z-0.68
X-3.042 Y20.77 Z-0.685
X-3.048 Y20.797 Z-0.69
X-3.067 Y20.818 Z-0.695
X-3.095 Y20.824 Z-0.7
X-3.121 Y20.815 Z-0.705
X-3.138 Y20.793 Z-0.71
X-3.141 Y20.765 Z-0.715
X-3.129 Y20.74 Z-0.72
X-3.105 Y20.726 Z-0.725
X-3.077 Y20.727 Z-0.73
X-3.054 Y20.742 Z-0.735
X-3.042 Y20.768 Z-0.74
X-3.047 Y20.795 Z-0.745
X-3.065 Y20.816 Z-0.75
X-3.092 Y20.824 Z-0.755
X-3.119 Y20.816 Z-0.76
X-3.137 Y20.795 Z-0.765
X-3.142 Y20.767 Z-0.77
X-3.13 Y20.742 Z-0.775
X-3.107 Y20.726 Z-0.78
X-3.079 Z-0.785
X-3.055 Y20.741 Z-0.79
X-3.043 Y20.766 Z-0.795
X-3.046 Y20.793 Z-0.8
X-3.064 Y20.815 Z-0.805
X-3.09 Y20.824 Z-0.81
X-3.117 Y20.817 Z-0.815
X-3.136 Y20.797 Z-0.82
X-3.142 Y20.77 Z-0.825
X-3.132 Y20.743 Z-0.83
X-3.109 Y20.727 Z-0.835
X-3.081 Y20.725 Z-0.84
X-3.057 Y20.739 Z-0.845
X-3.043 Y20.763 Z-0.85
X-3.045 Y20.791 Z-0.855
X-3.062 Y20.814 Z-0.86
X-3.088 Y20.824 Z-0.865
X-3.115 Y20.818 Z-0.87
X-3.135 Y20.799 Z-0.875
X-3.142 Y20.772 Z-0.88
X-3.133 Y20.745 Z-0.885
X-3.111 Y20.728 Z-0.89
X-3.083 Y20.725 Z-0.895
X-3.058 Y20.737 Z-0.9
X-3.044 Y20.761 Z-0.905
Y20.789 Z-0.91
X-3.06 Y20.812 Z-0.915
X-3.086 Y20.824 Z-0.92
X-3.113 Y20.819 Z-0.925
X-3.134 Y20.801 Z-0.93
X-3.142 Y20.774 Z-0.935
X-3.134 Y20.747 Z-0.94
X-3.113 Y20.729 Z-0.945
X-3.085 Y20.725 Z-0.95
X-3.06 Y20.736 Z-0.955
X-3.044 Y20.759 Z-0.96
Y20.787 Z-0.965
X-3.058 Y20.811 Z-0.97
X-3.083 Y20.823 Z-0.975
X-3.111 Y20.82 Z-0.98
X-3.133 Y20.803 Z-0.985
X-3.142 Y20.776 Z-0.99
X-3.135 Y20.749 Z-0.995
X-3.115 Y20.73 Z-1
G3 X-3.069 Y20.818 I0.023 J0.044
X-3.115 Y20.73 I-0.023 J-0.044
G1 X-3.088 Y20.724 Z-1.005
X-3.062 Y20.734 Z-1.01
X-3.045 Y20.757 Z-1.015
X-3.043 Y20.785 Z-1.02
X-3.057 Y20.809 Z-1.025
X-3.081 Y20.823 Z-1.03
X-3.109 Y20.821 Z-1.035
X-3.132 Y20.805 Z-1.04
X-3.142 Y20.778 Z-1.045
X-3.136 Y20.751 Z-1.05
X-3.117 Y20.731 Z-1.055
X-3.09 Y20.724 Z-1.06
X-3.063 Y20.733 Z-1.065
X-3.046 Y20.755 Z-1.07
X-3.043 Y20.783 Z-1.075
X-3.055 Y20.808 Z-1.08
X-3.079 Y20.822 Z-1.085
X-3.107 Z-1.09
X-3.13 Y20.806 Z-1.095
X-3.142 Y20.781 Z-1.1
X-3.137 Y20.753 Z-1.105
X-3.119 Y20.732 Z-1.11
X-3.092 Y20.724 Z-1.115
X-3.065 Y20.732 Z-1.12
X-3.047 Y20.753 Z-1.125
X-3.042 Y20.781 Z-1.13
X-3.054 Y20.806 Z-1.135
X-3.077 Y20.822 Z-1.14
X-3.105 Z-1.145
X-3.129 Y20.808 Z-1.15
X-3.141 Y20.783 Z-1.155
X-3.138 Y20.755 Z-1.16
X-3.121 Y20.733 Z-1.165
X-3.094 Y20.724 Z-1.17
X-3.067 Y20.731 Z-1.175
X-3.048 Y20.751 Z-1.18
X-3.042 Y20.778 Z-1.185
X-3.052 Y20.804 Z-1.19
X-3.075 Y20.821 Z-1.195
X-3.103 Y20.823 Z-1.2
X-3.127 Y20.81 Z-1.205
X-3.141 Y20.785 Z-1.21
X-3.139 Y20.757 Z-1.215
X-3.123 Y20.735 Z-1.22
X-3.097 Y20.724 Z-1.225
X-3.069 Y20.73 Z-1.23
X-3.049 Y20.749 Z-1.235
X-3.042 Y20.776 Z-1.24
X-3.051 Y20.803 Z-1.245
X-3.073 Y20.82 Z-1.25
X-3.1 Y20.823 Z-1.255
X-3.126 Y20.811 Z-1.26
X-3.14 Y20.787 Z-1.265
Y20.759 Z-1.27
X-3.124 Y20.736 Z-1.275
X-3.099 Y20.725 Z-1.28
X-3.071 Y20.729 Z-1.285
X-3.05 Y20.747 Z-1.29
X-3.042 Y20.774 Z-1.295
X-3.05 Y20.801 Z-1.3
X-3.071 Y20.819 Z-1.305
X-3.098 Y20.824 Z-1.31
X-3.124 Y20.813 Z-1.315
X-3.14 Y20.789 Z-1.32
Y20.761 Z-1.325
X-3.126 Y20.737 Z-1.33
X-3.101 Y20.725 Z-1.335
X-3.073 Y20.728 Z-1.34
X-3.051 Y20.745 Z-1.345
X-3.042 Y20.772 Z-1.35
X-3.049 Y20.799 Z-1.355
X-3.069 Y20.818 Z-1.36
X-3.096 Y20.824 Z-1.365
X-3.122 Y20.814 Z-1.37
X-3.139 Y20.792 Z-1.375
X-3.141 Y20.764 Z-1.38
X-3.128 Y20.739 Z-1.385
X-3.103 Y20.725 Z-1.39
X-3.075 Y20.727 Z-1.395
X-3.053 Y20.743 Z-1.4
X-3.042 Y20.769 Z-1.405
X-3.047 Y20.797 Z-1.41
X-3.067 Y20.817 Z-1.415
X-3.094 Y20.824 Z-1.42
X-3.12 Y20.815 Z-1.425
X-3.138 Y20.794 Z-1.43
X-3.141 Y20.766 Z-1.435
X-3.129 Y20.741 Z-1.44
X-3.105 Y20.726 Z-1.445
X-3.077 Z-1.45
X-3.054 Y20.742 Z-1.455
X-3.042 Y20.767 Z-1.46
X-3.047 Y20.795 Z-1.465
X-3.065 Y20.816 Z-1.47
X-3.092 Y20.824 Z-1.475
X-3.118 Y20.817 Z-1.48
X-3.137 Y20.796 Z-1.485
X-3.142 Y20.768 Z-1.49
X-3.131 Y20.742 Z-1.495
X-3.108 Y20.727 Z-1.5
G3 X-3.077 Y20.822 I0.016 J0.048
X-3.108 Y20.727 I-0.016 J-0.048
G1 X-3.08 Y20.726 Z-1.505
X-3.055 Y20.74 Z-1.51
X-3.043 Y20.765 Z-1.515
X-3.046 Y20.793 Z-1.52
X-3.063 Y20.815 Z-1.525
X-3.089 Y20.824 Z-1.53
X-3.117 Y20.818 Z-1.535
X-3.136 Y20.798 Z-1.54
X-3.142 Y20.77 Z-1.545
X-3.132 Y20.744 Z-1.55
X-3.11 Y20.727 Z-1.555
X-3.082 Y20.725 Z-1.56
X-3.057 Y20.738 Z-1.565
X-3.043 Y20.763 Z-1.57
X-3.045 Y20.791 Z-1.575
X-3.061 Y20.813 Z-1.58
X-3.087 Y20.824 Z-1.585
X-3.115 Y20.819 Z-1.59
X-3.135 Y20.8 Z-1.595
X-3.142 Y20.773 Z-1.6
X-3.133 Y20.746 Z-1.605
X-3.112 Y20.728 Z-1.61
X-3.084 Y20.725 Z-1.615
X-3.059 Y20.737 Z-1.62
X-3.044 Y20.761 Z-1.625
Y20.789 Z-1.63
X-3.059 Y20.812 Z-1.635
X-3.085 Y20.824 Z-1.64
X-3.113 Y20.82 Z-1.645
X-3.134 Y20.802 Z-1.65
X-3.142 Y20.775 Z-1.655
X-3.135 Y20.748 Z-1.66
X-3.114 Y20.729 Z-1.665
X-3.086 Y20.724 Z-1.67
X-3.06 Y20.735 Z-1.675
X-3.045 Y20.758 Z-1.68
X-3.044 Y20.786 Z-1.685
X-3.058 Y20.81 Z-1.69
X-3.083 Y20.823 Z-1.695
X-3.11 Y20.821 Z-1.7
X-3.133 Y20.803 Z-1.705
X-3.142 Y20.777 Z-1.71
X-3.136 Y20.75 Z-1.715
X-3.116 Y20.73 Z-1.72
X-3.088 Y20.724 Z-1.725
X-3.062 Y20.734 Z-1.73
X-3.045 Y20.756 Z-1.735
X-3.043 Y20.784 Z-1.74
X-3.056 Y20.809 Z-1.745
X-3.08 Y20.823 Z-1.75
X-3.108 Y20.821 Z-1.755
X-3.131 Y20.805 Z-1.76
X-3.142 Y20.779 Z-1.765
X-3.137 Y20.752 Z-1.77
X-3.118 Y20.731 Z-1.775
X-3.091 Y20.724 Z-1.78
X-3.064 Y20.733 Z-1.785
X-3.046 Y20.754 Z-1.79
X-3.043 Y20.782 Z-1.795
X-3.055 Y20.807 Z-1.8
X-3.078 Y20.822 Z-1.805
X-3.106 Z-1.81
X-3.13 Y20.807 Z-1.815
X-3.141 Y20.781 Z-1.82
X-3.138 Y20.754 Z-1.825
X-3.12 Y20.732 Z-1.83
X-3.093 Y20.724 Z-1.835
X-3.066 Y20.731 Z-1.84
X-3.047 Y20.752 Z-1.845
X-3.042 Y20.78 Z-1.85
X-3.053 Y20.806 Z-1.855
X-3.076 Y20.822 Z-1.86
X-3.104 Y20.823 Z-1.865
X-3.128 Y20.809 Z-1.87
X-3.141 Y20.784 Z-1.875
X-3.139 Y20.756 Z-1.88
X-3.121 Y20.734 Z-1.885
X-3.095 Y20.724 Z-1.89
X-3.068 Y20.73 Z-1.895
X-3.048 Y20.75 Z-1.9
X-3.042 Y20.778 Z-1.905
X-3.052 Y20.804 Z-1.91
X-3.074 Y20.821 Z-1.915
X-3.102 Y20.823 Z-1.92
X-3.127 Y20.81 Z-1.925
X-3.141 Y20.786 Z-1.93
X-3.139 Y20.758 Z-1.935
X-3.123 Y20.735 Z-1.94
X-3.097 Y20.724 Z-1.945
X-3.07 Y20.729 Z-1.95
X-3.049 Y20.748 Z-1.955
X-3.042 Y20.775 Z-1.96
X-3.051 Y20.802 Z-1.965
X-3.072 Y20.82 Z-1.97
X-3.1 Y20.824 Z-1.975
X-3.125 Y20.812 Z-1.98
X-3.14 Y20.788 Z-1.985
Y20.76 Z-1.99
X-3.125 Y20.736 Z-1.995
X-3.1 Y20.725 Z-2
G3 X-3.084 Y20.824 I0.008 J0.049
X-3.1 Y20.725 I-0.008 J-0.049
G1 X-3.072 Y20.728 Z-2.005
X-3.05 Y20.746 Z-2.01
X-3.042 Y20.773 Z-2.015
X-3.049 Y20.8 Z-2.02
X-3.07 Y20.819 Z-2.025
X-3.098 Y20.824 Z-2.03
X-3.123 Y20.813 Z-2.035
X-3.139 Y20.79 Z-2.04
X-3.141 Y20.762 Z-2.045
X-3.127 Y20.738 Z-2.05
X-3.102 Y20.725 Z-2.055
X-3.074 Y20.728 Z-2.06
X-3.052 Y20.745 Z-2.065
X-3.042 Y20.771 Z-2.07
X-3.048 Y20.798 Z-2.075
X-3.068 Y20.818 Z-2.08
X-3.095 Y20.824 Z-2.085
X-3.122 Y20.814 Z-2.09
X-3.139 Y20.792 Z-2.095
X-3.141 Y20.764 Z-2.1
X-3.128 Y20.74 Z-2.105
X-3.104 Y20.726 Z-2.11
X-3.076 Y20.727 Z-2.115
X-3.053 Y20.743 Z-2.12
X-3.042 Y20.769 Z-2.125
X-3.047 Y20.796 Z-2.13
X-3.066 Y20.817 Z-2.135
X-3.093 Y20.824 Z-2.14
X-3.12 Y20.816 Z-2.145
X-3.138 Y20.794 Z-2.15
X-3.141 Y20.767 Z-2.155
X-3.13 Y20.741 Z-2.16
X-3.106 Y20.726 Z-2.165
X-3.078 Z-2.17
X-3.054 Y20.741 Z-2.175
X-3.043 Y20.766 Z-2.18
X-3.046 Y20.794 Z-2.185
X-3.064 Y20.816 Z-2.19
X-3.091 Y20.824 Z-2.195
X-3.118 Y20.817 Z-2.2
X-3.137 Y20.796 Z-2.205
X-3.142 Y20.769 Z-2.21
X-3.131 Y20.743 Z-2.215
X-3.108 Y20.727 Z-2.22
X-3.08 Y20.725 Z-2.225
X-3.056 Y20.739 Z-2.23
X-3.043 Y20.764 Z-2.235
X-3.045 Y20.792 Z-2.24
X-3.062 Y20.814 Z-2.245
X-3.089 Y20.824 Z-2.25
X-3.116 Y20.818 Z-2.255
X-3.136 Y20.798 Z-2.26
X-3.142 Y20.771 Z-2.265
X-3.132 Y20.745 Z-2.27
X-3.11 Y20.728 Z-2.275
X-3.082 Y20.725 Z-2.28
X-3.058 Y20.738 Z-2.285
X-3.043 Y20.762 Z-2.29
X-3.045 Y20.79 Z-2.295
X-3.061 Y20.813 Z-2.3
X-3.086 Y20.824 Z-2.305
X-3.114 Y20.819 Z-2.31
X-3.135 Y20.8 Z-2.315
X-3.142 Y20.773 Z-2.32
X-3.134 Y20.747 Z-2.325
X-3.112 Y20.728 Z-2.33
X-3.085 Y20.725 Z-2.335
X-3.059 Y20.736 Z-2.34
X-3.044 Y20.76 Z-2.345
Y20.788 Z-2.35
X-3.059 Y20.812 Z-2.355
X-3.084 Y20.823 Z-2.36
X-3.112 Y20.82 Z-2.365
X-3.133 Y20.802 Z-2.37
X-3.142 Y20.775 Z-2.375
X-3.135 Y20.748 Z-2.38
X-3.114 Y20.729 Z-2.385
X-3.087 Y20.724 Z-2.39
X-3.061 Y20.735 Z-2.395
X-3.045 Y20.758 Z-2.4
X-3.043 Y20.786 Z-2.405
X-3.057 Y20.81 Z-2.41
X-3.082 Y20.823 Z-2.415
X-3.11 Y20.821 Z-2.42
X-3.132 Y20.804 Z-2.425
X-3.142 Y20.778 Z-2.43
X-3.136 Y20.75 Z-2.435
X-3.116 Y20.73 Z-2.44
X-3.089 Y20.724 Z-2.445
X-3.063 Y20.734 Z-2.45
X-3.046 Y20.756 Z-2.455
X-3.043 Y20.783 Z-2.46
X-3.056 Y20.808 Z-2.465
X-3.08 Y20.823 Z-2.47
X-3.108 Y20.822 Z-2.475
X-3.131 Y20.806 Z-2.48
X-3.142 Y20.78 Z-2.485
X-3.137 Y20.752 Z-2.49
X-3.118 Y20.732 Z-2.495
X-3.091 Y20.724 Z-2.5
G3 X-3.093 Y20.824 I-0.001 J0.05
X-3.091 Y20.724 I0.001 J-0.05
G0 Z7
X-3.13 Y18.937
Z2
G1 Z1.8 F400
Z-0.5
G3 X-3.07 Y19.017 I0.03 J0.04
X-3.13 Y18.937 I-0.03 J-0.04
G1 X-3.103 Y18.927 Z-0.505
X-3.076 Y18.933 Z-0.51
X-3.056 Y18.953 Z-0.515
X-3.05 Y18.98 Z-0.52
X-3.059 Y19.006 Z-0.525
X-3.081 Y19.024 Z-0.53
X-3.109 Y19.026 Z-0.535
X-3.134 Y19.014 Z-0.54
X-3.148 Y18.99 Z-0.545
X-3.147 Y18.962 Z-0.55
X-3.131 Y18.939 Z-0.555
X-3.106 Y18.928 Z-0.56
X-3.078 Y18.932 Z-0.565
X-3.057 Y18.951 Z-0.57
X-3.05 Y18.978 Z-0.575
X-3.058 Y19.004 Z-0.58
X-3.079 Y19.023 Z-0.585
X-3.107 Y19.027 Z-0.59
X-3.132 Y19.015 Z-0.595
X-3.147 Y18.992 Z-0.6
X-3.148 Y18.964 Z-0.605
X-3.133 Y18.94 Z-0.61
X-3.108 Y18.928 Z-0.615
X-3.08 Y18.931 Z-0.62
X-3.058 Y18.949 Z-0.625
X-3.05 Y18.975 Z-0.63
X-3.057 Y19.003 Z-0.635
X-3.077 Y19.022 Z-0.64
X-3.104 Y19.027 Z-0.645
X-3.13 Y19.017 Z-0.65
X-3.147 Y18.994 Z-0.655
X-3.148 Y18.966 Z-0.66
X-3.135 Y18.942 Z-0.665
X-3.11 Y18.928 Z-0.67
X-3.082 Y18.93 Z-0.675
X-3.06 Y18.947 Z-0.68
X-3.05 Y18.973 Z-0.685
X-3.055 Y19.001 Z-0.69
X-3.075 Y19.021 Z-0.695
X-3.102 Y19.027 Z-0.7
X-3.129 Y19.018 Z-0.705
X-3.146 Y18.996 Z-0.71
X-3.149 Y18.968 Z-0.715
X-3.136 Y18.943 Z-0.72
X-3.112 Y18.929 Z-0.725
X-3.084 Y18.93 Z-0.73
X-3.061 Y18.945 Z-0.735
X-3.05 Y18.971 Z-0.74
X-3.054 Y18.999 Z-0.745
X-3.073 Y19.02 Z-0.75
X-3.1 Y19.027 Z-0.755
X-3.127 Y19.019 Z-0.76
X-3.145 Y18.998 Z-0.765
X-3.149 Y18.97 Z-0.77
X-3.138 Y18.945 Z-0.775
X-3.114 Y18.929 Z-0.78
X-3.086 Z-0.785
X-3.063 Y18.944 Z-0.79
X-3.05 Y18.969 Z-0.795
X-3.054 Y18.997 Z-0.8
X-3.071 Y19.018 Z-0.805
X-3.098 Y19.027 Z-0.81
X-3.125 Y19.02 Z-0.815
X-3.144 Y19 Z-0.82
X-3.149 Y18.973 Z-0.825
X-3.139 Y18.947 Z-0.83
X-3.117 Y18.93 Z-0.835
X-3.089 Y18.928 Z-0.84
X-3.064 Y18.942 Z-0.845
X-3.051 Y18.967 Z-0.85
X-3.053 Y18.994 Z-0.855
X-3.069 Y19.017 Z-0.86
X-3.095 Y19.027 Z-0.865
X-3.123 Y19.021 Z-0.87
X-3.143 Y19.002 Z-0.875
X-3.15 Y18.975 Z-0.88
X-3.141 Y18.948 Z-0.885
X-3.119 Y18.931 Z-0.89
X-3.091 Y18.928 Z-0.895
X-3.066 Y18.94 Z-0.9
X-3.051 Y18.964 Z-0.905
X-3.052 Y18.992 Z-0.91
X-3.068 Y19.016 Z-0.915
X-3.093 Y19.027 Z-0.92
X-3.121 Y19.022 Z-0.925
X-3.142 Y19.004 Z-0.93
X-3.15 Y18.977 Z-0.935
X-3.142 Y18.95 Z-0.94
X-3.121 Y18.932 Z-0.945
X-3.093 Y18.928 Z-0.95
X-3.067 Y18.939 Z-0.955
X-3.052 Y18.962 Z-0.96
X-3.051 Y18.99 Z-0.965
X-3.066 Y19.014 Z-0.97
X-3.091 Y19.026 Z-0.975
X-3.119 Y19.023 Z-0.98
X-3.141 Y19.006 Z-0.985
X-3.15 Y18.979 Z-0.99
X-3.143 Y18.952 Z-0.995
X-3.123 Y18.933 Z-1
G3 X-3.077 Y19.022 I0.023 J0.044
X-3.123 Y18.933 I-0.023 J-0.044
G1 X-3.095 Y18.927 Z-1.005
X-3.069 Y18.938 Z-1.01
X-3.053 Y18.96 Z-1.015
X-3.051 Y18.988 Z-1.02
X-3.064 Y19.013 Z-1.025
X-3.089 Y19.026 Z-1.03
X-3.117 Y19.024 Z-1.035
X-3.139 Y19.008 Z-1.04
X-3.149 Y18.982 Z-1.045
X-3.144 Y18.954 Z-1.05
X-3.125 Y18.934 Z-1.055
X-3.097 Y18.927 Z-1.06
X-3.071 Y18.936 Z-1.065
X-3.053 Y18.958 Z-1.07
X-3.05 Y18.986 Z-1.075
X-3.063 Y19.011 Z-1.08
X-3.087 Y19.025 Z-1.085
X-3.115 Z-1.09
X-3.138 Y19.009 Z-1.095
X-3.149 Y18.984 Z-1.1
X-3.145 Y18.956 Z-1.105
X-3.127 Y18.935 Z-1.11
X-3.1 Y18.927 Z-1.115
X-3.073 Y18.935 Z-1.12
X-3.054 Y18.956 Z-1.125
X-3.05 Y18.984 Z-1.13
X-3.061 Y19.009 Z-1.135
X-3.084 Y19.025 Z-1.14
X-3.112 Y19.026 Z-1.145
X-3.136 Y19.011 Z-1.15
X-3.149 Y18.986 Z-1.155
X-3.146 Y18.958 Z-1.16
X-3.128 Y18.936 Z-1.165
X-3.102 Y18.927 Z-1.17
X-3.075 Y18.934 Z-1.175
X-3.055 Y18.954 Z-1.18
X-3.05 Y18.981 Z-1.185
X-3.06 Y19.008 Z-1.19
X-3.082 Y19.024 Z-1.195
X-3.11 Y19.026 Z-1.2
X-3.135 Y19.013 Z-1.205
X-3.148 Y18.988 Z-1.21
X-3.147 Y18.96 Z-1.215
X-3.13 Y18.938 Z-1.22
X-3.104 Y18.927 Z-1.225
X-3.077 Y18.933 Z-1.23
X-3.056 Y18.952 Z-1.235
X-3.05 Y18.979 Z-1.24
X-3.059 Y19.006 Z-1.245
X-3.08 Y19.023 Z-1.25
X-3.108 Y19.026 Z-1.255
X-3.133 Y19.014 Z-1.26
X-3.148 Y18.99 Z-1.265
X-3.147 Y18.962 Z-1.27
X-3.132 Y18.939 Z-1.275
X-3.106 Y18.928 Z-1.28
X-3.079 Y18.932 Z-1.285
X-3.058 Y18.95 Z-1.29
X-3.05 Y18.977 Z-1.295
X-3.057 Y19.004 Z-1.3
X-3.078 Y19.022 Z-1.305
X-3.106 Y19.027 Z-1.31
X-3.132 Y19.016 Z-1.315
X-3.147 Y18.993 Z-1.32
X-3.148 Y18.965 Z-1.325
X-3.134 Y18.941 Z-1.33
X-3.109 Y18.928 Z-1.335
X-3.081 Y18.931 Z-1.34
X-3.059 Y18.948 Z-1.345
X-3.05 Y18.975 Z-1.35
X-3.056 Y19.002 Z-1.355
X-3.076 Y19.021 Z-1.36
X-3.104 Y19.027 Z-1.365
X-3.13 Y19.017 Z-1.37
X-3.146 Y18.995 Z-1.375
X-3.149 Y18.967 Z-1.38
X-3.135 Y18.942 Z-1.385
X-3.111 Y18.928 Z-1.39
X-3.083 Y18.93 Z-1.395
X-3.06 Y18.946 Z-1.4
X-3.05 Y18.972 Z-1.405
X-3.055 Y19 Z-1.41
X-3.074 Y19.02 Z-1.415
X-3.101 Y19.027 Z-1.42
X-3.128 Y19.018 Z-1.425
X-3.146 Y18.997 Z-1.43
X-3.149 Y18.969 Z-1.435
X-3.137 Y18.944 Z-1.44
X-3.113 Y18.929 Z-1.445
X-3.085 Z-1.45
X-3.062 Y18.945 Z-1.455
X-3.05 Y18.97 Z-1.46
X-3.054 Y18.998 Z-1.465
X-3.072 Y19.019 Z-1.47
X-3.099 Y19.027 Z-1.475
X-3.126 Y19.02 Z-1.48
X-3.145 Y18.999 Z-1.485
X-3.149 Y18.971 Z-1.49
X-3.138 Y18.945 Z-1.495
X-3.115 Y18.93 Z-1.5
G3 X-3.084 Y19.025 I0.016 J0.048
X-3.115 Y18.93 I-0.016 J-0.048
G1 X-3.087 Y18.929 Z-1.505
X-3.063 Y18.943 Z-1.51
X-3.05 Y18.968 Z-1.515
X-3.053 Y18.996 Z-1.52
X-3.071 Y19.018 Z-1.525
X-3.097 Y19.027 Z-1.53
X-3.124 Y19.021 Z-1.535
X-3.144 Y19.001 Z-1.54
X-3.149 Y18.973 Z-1.545
X-3.14 Y18.947 Z-1.55
X-3.117 Y18.93 Z-1.555
X-3.089 Y18.928 Z-1.56
X-3.065 Y18.941 Z-1.565
X-3.051 Y18.966 Z-1.57
X-3.052 Y18.994 Z-1.575
X-3.069 Y19.017 Z-1.58
X-3.095 Y19.027 Z-1.585
X-3.122 Y19.022 Z-1.59
X-3.143 Y19.003 Z-1.595
X-3.15 Y18.976 Z-1.6
X-3.141 Y18.949 Z-1.605
X-3.119 Y18.931 Z-1.61
X-3.092 Y18.928 Z-1.615
X-3.066 Y18.94 Z-1.62
X-3.051 Y18.964 Z-1.625
X-3.052 Y18.992 Z-1.63
X-3.067 Y19.015 Z-1.635
X-3.092 Y19.027 Z-1.64
X-3.12 Y19.023 Z-1.645
X-3.141 Y19.005 Z-1.65
X-3.15 Y18.978 Z-1.655
X-3.142 Y18.951 Z-1.66
X-3.121 Y18.932 Z-1.665
X-3.094 Y18.928 Z-1.67
X-3.068 Y18.938 Z-1.675
X-3.052 Y18.962 Z-1.68
X-3.051 Y18.989 Z-1.685
X-3.065 Y19.014 Z-1.69
X-3.09 Y19.026 Z-1.695
X-3.118 Y19.024 Z-1.7
X-3.14 Y19.006 Z-1.705
X-3.15 Y18.98 Z-1.71
X-3.143 Y18.953 Z-1.715
X-3.123 Y18.933 Z-1.72
X-3.096 Y18.927 Z-1.725
X-3.07 Y18.937 Z-1.73
X-3.053 Y18.959 Z-1.735
X-3.051 Y18.987 Z-1.74
X-3.064 Y19.012 Z-1.745
X-3.088 Y19.026 Z-1.75
X-3.116 Y19.024 Z-1.755
X-3.139 Y19.008 Z-1.76
X-3.149 Y18.982 Z-1.765
X-3.144 Y18.955 Z-1.77
X-3.125 Y18.934 Z-1.775
X-3.098 Y18.927 Z-1.78
X-3.072 Y18.936 Z-1.785
X-3.054 Y18.957 Z-1.79
X-3.05 Y18.985 Z-1.795
X-3.062 Y19.01 Z-1.8
X-3.086 Y19.025 Z-1.805
X-3.114 Z-1.81
X-3.137 Y19.01 Z-1.815
X-3.149 Y18.985 Z-1.82
X-3.145 Y18.957 Z-1.825
X-3.127 Y18.935 Z-1.83
X-3.1 Y18.927 Z-1.835
X-3.073 Y18.935 Z-1.84
X-3.055 Y18.955 Z-1.845
X-3.05 Y18.983 Z-1.85
X-3.061 Y19.009 Z-1.855
X-3.084 Y19.025 Z-1.86
X-3.112 Y19.026 Z-1.865
X-3.136 Y19.012 Z-1.87
X-3.149 Y18.987 Z-1.875
X-3.146 Y18.959 Z-1.88
X-3.129 Y18.937 Z-1.885
X-3.103 Y18.927 Z-1.89
X-3.075 Y18.933 Z-1.895
X-3.056 Y18.953 Z-1.9
X-3.05 Y18.981 Z-1.905
X-3.059 Y19.007 Z-1.91
X-3.082 Y19.024 Z-1.915
X-3.11 Y19.026 Z-1.92
X-3.134 Y19.013 Z-1.925
X-3.148 Y18.989 Z-1.93
X-3.147 Y18.961 Z-1.935
X-3.131 Y18.938 Z-1.94
X-3.105 Y18.927 Z-1.945
X-3.077 Y18.932 Z-1.95
X-3.057 Y18.951 Z-1.955
X-3.05 Y18.978 Z-1.96
X-3.058 Y19.005 Z-1.965
X-3.08 Y19.023 Z-1.97
X-3.107 Y19.027 Z-1.975
X-3.133 Y19.015 Z-1.98
X-3.148 Y18.991 Z-1.985
Y18.963 Z-1.99
X-3.133 Y18.94 Z-1.995
X-3.107 Y18.928 Z-2
G3 X-3.092 Y19.027 I0.008 J0.049
X-3.107 Y18.928 I-0.008 J-0.049
G1 X-3.079 Y18.931 Z-2.005
X-3.058 Y18.949 Z-2.01
X-3.05 Y18.976 Z-2.015
X-3.057 Y19.003 Z-2.02
X-3.078 Y19.022 Z-2.025
X-3.105 Y19.027 Z-2.03
X-3.131 Y19.016 Z-2.035
X-3.147 Y18.993 Z-2.04
X-3.148 Y18.965 Z-2.045
X-3.134 Y18.941 Z-2.05
X-3.109 Y18.928 Z-2.055
X-3.081 Y18.931 Z-2.06
X-3.059 Y18.948 Z-2.065
X-3.05 Y18.974 Z-2.07
X-3.056 Y19.001 Z-2.075
X-3.076 Y19.021 Z-2.08
X-3.103 Y19.027 Z-2.085
X-3.129 Y19.018 Z-2.09
X-3.146 Y18.995 Z-2.095
X-3.149 Y18.967 Z-2.1
X-3.136 Y18.943 Z-2.105
X-3.112 Y18.929 Z-2.11
X-3.084 Y18.93 Z-2.115
X-3.061 Y18.946 Z-2.12
X-3.05 Y18.972 Z-2.125
X-3.055 Y18.999 Z-2.13
X-3.074 Y19.02 Z-2.135
X-3.101 Y19.027 Z-2.14
X-3.127 Y19.019 Z-2.145
X-3.145 Y18.997 Z-2.15
X-3.149 Y18.97 Z-2.155
X-3.137 Y18.944 Z-2.16
X-3.114 Y18.929 Z-2.165
X-3.086 Z-2.17
X-3.062 Y18.944 Z-2.175
X-3.05 Y18.969 Z-2.18
X-3.054 Y18.997 Z-2.185
X-3.072 Y19.019 Z-2.19
X-3.098 Y19.027 Z-2.195
X-3.125 Y19.02 Z-2.2
X-3.144 Y18.999 Z-2.205
X-3.149 Y18.972 Z-2.21
X-3.139 Y18.946 Z-2.215
X-3.116 Y18.93 Z-2.22
X-3.088 Y18.929 Z-2.225
X-3.064 Y18.943 Z-2.23
X-3.051 Y18.967 Z-2.235
X-3.053 Y18.995 Z-2.24
X-3.07 Y19.017 Z-2.245
X-3.096 Y19.027 Z-2.25
X-3.124 Y19.021 Z-2.255
X-3.143 Y19.001 Z-2.26
X-3.15 Y18.974 Z-2.265
X-3.14 Y18.948 Z-2.27
X-3.118 Y18.931 Z-2.275
X-3.09 Y18.928 Z-2.28
X-3.065 Y18.941 Z-2.285
X-3.051 Y18.965 Z-2.29
X-3.052 Y18.993 Z-2.295
X-3.068 Y19.016 Z-2.3
X-3.094 Y19.027 Z-2.305
X-3.122 Y19.022 Z-2.31
X-3.142 Y19.003 Z-2.315
X-3.15 Y18.976 Z-2.32
X-3.141 Y18.95 Z-2.325
X-3.12 Y18.932 Z-2.33
X-3.092 Y18.928 Z-2.335
X-3.067 Y18.939 Z-2.34
X-3.052 Y18.963 Z-2.345
Y18.991 Z-2.35
X-3.066 Y19.015 Z-2.355
X-3.092 Y19.027 Z-2.36
X-3.119 Y19.023 Z-2.365
X-3.141 Y19.005 Z-2.37
X-3.15 Y18.979 Z-2.375
X-3.143 Y18.952 Z-2.38
X-3.122 Y18.932 Z-2.385
X-3.095 Y18.927 Z-2.39
X-3.069 Y18.938 Z-2.395
X-3.052 Y18.961 Z-2.4
X-3.051 Y18.989 Z-2.405
X-3.065 Y19.013 Z-2.41
X-3.09 Y19.026 Z-2.415
X-3.117 Y19.024 Z-2.42
X-3.14 Y19.007 Z-2.425
X-3.149 Y18.981 Z-2.43
X-3.144 Y18.953 Z-2.435
X-3.124 Y18.934 Z-2.44
X-3.097 Y18.927 Z-2.445
X-3.07 Y18.937 Z-2.45
X-3.053 Y18.959 Z-2.455
X-3.051 Y18.987 Z-2.46
X-3.063 Y19.011 Z-2.465
X-3.087 Y19.026 Z-2.47
X-3.115 Y19.025 Z-2.475
X-3.138 Y19.009 Z-2.48
X-3.149 Y18.983 Z-2.485
X-3.145 Y18.955 Z-2.49
X-3.126 Y18.935 Z-2.495
X-3.099 Y18.927 Z-2.5
G3 X-3.1 Y19.027 I-0.001 J0.05
X-3.099 Y18.927 I0.001 J-0.05
G0 Z7
X-3.125 Y30.996
Z2
G1 Z1.8 F400
Z-0.5
G3 X-3.065 Y31.076 I0.03 J0.04
X-3.125 Y30.996 I-0.03 J-0.04
G1 X-3.099 Y30.986 Z-0.505
X-3.072 Y30.992 Z-0.51
X-3.052 Y31.011 Z-0.515
X-3.046 Y31.038 Z-0.52
X-3.055 Y31.065 Z-0.525
X-3.077 Y31.082 Z-0.53
X-3.105 Y31.085 Z-0.535
X-3.13 Y31.072 Z-0.54
X-3.144 Y31.048 Z-0.545
X-3.143 Y31.02 Z-0.55
X-3.127 Y30.997 Z-0.555
X-3.101 Y30.986 Z-0.56
X-3.074 Y30.99 Z-0.565
X-3.053 Y31.009 Z-0.57
X-3.045 Y31.036 Z-0.575
X-3.054 Y31.063 Z-0.58
X-3.075 Y31.081 Z-0.585
X-3.102 Y31.085 Z-0.59
X-3.128 Y31.074 Z-0.595
X-3.143 Y31.05 Z-0.6
X-3.144 Y31.022 Z-0.605
X-3.129 Y30.998 Z-0.61
X-3.104 Y30.986 Z-0.615
X-3.076 Y30.99 Z-0.62
X-3.054 Y31.007 Z-0.625
X-3.045 Y31.034 Z-0.63
X-3.052 Y31.061 Z-0.635
X-3.073 Y31.08 Z-0.64
X-3.1 Y31.085 Z-0.645
X-3.126 Y31.075 Z-0.65
X-3.143 Y31.052 Z-0.655
X-3.144 Y31.024 Z-0.66
X-3.131 Y31 Z-0.665
X-3.106 Y30.987 Z-0.67
X-3.078 Y30.989 Z-0.675
X-3.056 Y31.005 Z-0.68
X-3.046 Y31.032 Z-0.685
X-3.051 Y31.059 Z-0.69
X-3.071 Y31.079 Z-0.695
X-3.098 Y31.086 Z-0.7
X-3.124 Y31.076 Z-0.705
X-3.142 Y31.054 Z-0.71
X-3.145 Y31.027 Z-0.715
X-3.132 Y31.002 Z-0.72
X-3.108 Y30.987 Z-0.725
X-3.08 Y30.988 Z-0.73
X-3.057 Y31.004 Z-0.735
X-3.046 Y31.029 Z-0.74
X-3.05 Y31.057 Z-0.745
X-3.069 Y31.078 Z-0.75
X-3.096 Y31.086 Z-0.755
X-3.123 Y31.078 Z-0.76
X-3.141 Y31.056 Z-0.765
X-3.145 Y31.029 Z-0.77
X-3.134 Y31.003 Z-0.775
X-3.11 Y30.988 Z-0.78
X-3.082 Y30.987 Z-0.785
X-3.058 Y31.002 Z-0.79
X-3.046 Y31.027 Z-0.795
X-3.049 Y31.055 Z-0.8
X-3.067 Y31.077 Z-0.805
X-3.093 Y31.086 Z-0.81
X-3.121 Y31.079 Z-0.815
X-3.14 Y31.058 Z-0.82
X-3.145 Y31.031 Z-0.825
X-3.135 Y31.005 Z-0.83
X-3.112 Y30.989 Z-0.835
X-3.084 Y30.987 Z-0.84
X-3.06 Y31 Z-0.845
X-3.047 Y31.025 Z-0.85
X-3.049 Y31.053 Z-0.855
X-3.065 Y31.075 Z-0.86
X-3.091 Y31.085 Z-0.865
X-3.119 Y31.08 Z-0.87
X-3.139 Y31.06 Z-0.875
X-3.145 Y31.033 Z-0.88
X-3.136 Y31.007 Z-0.885
X-3.114 Y30.989 Z-0.89
X-3.087 Y30.986 Z-0.895
X-3.062 Y30.999 Z-0.9
X-3.047 Y31.023 Z-0.905
X-3.048 Y31.051 Z-0.91
X-3.063 Y31.074 Z-0.915
X-3.089 Y31.085 Z-0.92
X-3.117 Y31.081 Z-0.925
X-3.138 Y31.062 Z-0.93
X-3.145 Y31.036 Z-0.935
X-3.138 Y31.009 Z-0.94
X-3.116 Y30.99 Z-0.945
X-3.089 Y30.986 Z-0.95
X-3.063 Y30.997 Z-0.955
X-3.048 Y31.021 Z-0.96
X-3.047 Y31.049 Z-0.965
X-3.062 Y31.073 Z-0.97
X-3.087 Y31.085 Z-0.975
X-3.115 Y31.082 Z-0.98
X-3.136 Y31.064 Z-0.985
X-3.145 Y31.038 Z-0.99
X-3.139 Y31.011 Z-0.995
X-3.118 Y30.991 Z-1
G3 X-3.072 Y31.08 I0.023 J0.044
X-3.118 Y30.991 I-0.023 J-0.044
G1 X-3.091 Y30.986 Z-1.005
X-3.065 Y30.996 Z-1.01
X-3.048 Y31.019 Z-1.015
X-3.047 Y31.046 Z-1.02
X-3.06 Y31.071 Z-1.025
X-3.085 Y31.084 Z-1.03
X-3.113 Y31.083 Z-1.035
X-3.135 Y31.066 Z-1.04
X-3.145 Y31.04 Z-1.045
X-3.14 Y31.013 Z-1.05
X-3.12 Y30.992 Z-1.055
X-3.093 Y30.986 Z-1.06
X-3.067 Y30.995 Z-1.065
X-3.049 Y31.016 Z-1.07
X-3.046 Y31.044 Z-1.075
X-3.059 Y31.069 Z-1.08
X-3.082 Y31.084 Z-1.085
X-3.11 Y31.083 Z-1.09
X-3.134 Y31.068 Z-1.095
X-3.145 Y31.042 Z-1.1
X-3.141 Y31.015 Z-1.105
X-3.122 Y30.993 Z-1.11
X-3.096 Y30.986 Z-1.115
X-3.069 Y30.993 Z-1.12
X-3.05 Y31.014 Z-1.125
X-3.046 Y31.042 Z-1.13
X-3.057 Y31.068 Z-1.135
X-3.08 Y31.083 Z-1.14
X-3.108 Y31.084 Z-1.145
X-3.132 Y31.069 Z-1.15
X-3.145 Y31.044 Z-1.155
X-3.142 Y31.017 Z-1.16
X-3.124 Y30.995 Z-1.165
X-3.098 Y30.986 Z-1.17
X-3.071 Y30.992 Z-1.175
X-3.051 Y31.012 Z-1.18
X-3.046 Y31.04 Z-1.185
X-3.056 Y31.066 Z-1.19
X-3.078 Y31.083 Z-1.195
X-3.106 Y31.084 Z-1.2
X-3.131 Y31.071 Z-1.205
X-3.144 Y31.047 Z-1.21
X-3.142 Y31.019 Z-1.215
X-3.126 Y30.996 Z-1.22
X-3.1 Y30.986 Z-1.225
X-3.073 Y30.991 Z-1.23
X-3.052 Y31.01 Z-1.235
X-3.045 Y31.038 Z-1.24
X-3.054 Y31.064 Z-1.245
X-3.076 Y31.082 Z-1.25
X-3.104 Y31.085 Z-1.255
X-3.129 Y31.073 Z-1.26
X-3.144 Y31.049 Z-1.265
X-3.143 Y31.021 Z-1.27
X-3.128 Y30.997 Z-1.275
X-3.102 Y30.986 Z-1.28
X-3.075 Y30.99 Z-1.285
X-3.053 Y31.009 Z-1.29
X-3.045 Y31.035 Z-1.295
X-3.053 Y31.062 Z-1.3
X-3.074 Y31.081 Z-1.305
X-3.102 Y31.085 Z-1.31
X-3.127 Y31.074 Z-1.315
X-3.143 Y31.051 Z-1.32
X-3.144 Y31.023 Z-1.325
X-3.129 Y30.999 Z-1.33
X-3.104 Y30.986 Z-1.335
X-3.077 Y30.989 Z-1.34
X-3.055 Y31.007 Z-1.345
X-3.045 Y31.033 Z-1.35
X-3.052 Y31.06 Z-1.355
X-3.072 Y31.08 Z-1.36
X-3.099 Y31.085 Z-1.365
X-3.126 Y31.075 Z-1.37
X-3.142 Y31.053 Z-1.375
X-3.144 Y31.025 Z-1.38
X-3.131 Y31.001 Z-1.385
X-3.107 Y30.987 Z-1.39
X-3.079 Y30.988 Z-1.395
X-3.056 Y31.005 Z-1.4
X-3.046 Y31.031 Z-1.405
X-3.051 Y31.058 Z-1.41
X-3.07 Y31.079 Z-1.415
X-3.097 Y31.086 Z-1.42
X-3.124 Y31.077 Z-1.425
X-3.141 Y31.055 Z-1.43
X-3.145 Y31.027 Z-1.435
X-3.133 Y31.002 Z-1.44
X-3.109 Y30.987 Z-1.445
X-3.081 Y30.988 Z-1.45
X-3.057 Y31.003 Z-1.455
X-3.046 Y31.029 Z-1.46
X-3.05 Y31.056 Z-1.465
X-3.068 Y31.078 Z-1.47
X-3.095 Y31.086 Z-1.475
X-3.122 Y31.078 Z-1.48
X-3.141 Y31.057 Z-1.485
X-3.145 Y31.03 Z-1.49
X-3.134 Y31.004 Z-1.495
X-3.111 Y30.988 Z-1.5
G3 X-3.08 Y31.083 I0.016 J0.048
X-3.111 Y30.988 I-0.016 J-0.048
G1 X-3.083 Y30.987 Z-1.505
X-3.059 Y31.001 Z-1.51
X-3.046 Y31.026 Z-1.515
X-3.049 Y31.054 Z-1.52
X-3.066 Y31.076 Z-1.525
X-3.093 Y31.086 Z-1.53
X-3.12 Y31.079 Z-1.535
X-3.14 Y31.059 Z-1.54
X-3.145 Y31.032 Z-1.545
X-3.135 Y31.006 Z-1.55
X-3.113 Y30.989 Z-1.555
X-3.085 Y30.987 Z-1.56
X-3.06 Y31 Z-1.565
X-3.047 Y31.024 Z-1.57
X-3.048 Y31.052 Z-1.575
X-3.065 Y31.075 Z-1.58
X-3.09 Y31.085 Z-1.585
X-3.118 Y31.08 Z-1.59
X-3.138 Y31.061 Z-1.595
X-3.145 Y31.034 Z-1.6
X-3.137 Y31.007 Z-1.605
X-3.115 Y30.99 Z-1.61
X-3.087 Y30.986 Z-1.615
X-3.062 Y30.998 Z-1.62
X-3.047 Y31.022 Z-1.625
X-3.048 Y31.05 Z-1.63
X-3.063 Y31.073 Z-1.635
X-3.088 Y31.085 Z-1.64
X-3.116 Y31.081 Z-1.645
X-3.137 Y31.063 Z-1.65
X-3.145 Y31.036 Z-1.655
X-3.138 Y31.009 Z-1.66
X-3.117 Y30.991 Z-1.665
X-3.09 Y30.986 Z-1.67
X-3.064 Y30.997 Z-1.675
X-3.048 Y31.02 Z-1.68
X-3.047 Y31.048 Z-1.685
X-3.061 Y31.072 Z-1.69
X-3.086 Y31.085 Z-1.695
X-3.114 Y31.082 Z-1.7
X-3.136 Y31.065 Z-1.705
X-3.145 Y31.038 Z-1.71
X-3.139 Y31.011 Z-1.715
X-3.119 Y30.992 Z-1.72
X-3.092 Y30.986 Z-1.725
X-3.066 Y30.995 Z-1.73
X-3.049 Y31.018 Z-1.735
X-3.046 Y31.046 Z-1.74
X-3.06 Y31.07 Z-1.745
X-3.084 Y31.084 Z-1.75
X-3.112 Y31.083 Z-1.755
X-3.135 Y31.067 Z-1.76
X-3.145 Y31.041 Z-1.765
X-3.14 Y31.013 Z-1.77
X-3.121 Y30.993 Z-1.775
X-3.094 Y30.986 Z-1.78
X-3.067 Y30.994 Z-1.785
X-3.05 Y31.016 Z-1.79
X-3.046 Y31.043 Z-1.795
X-3.058 Y31.069 Z-1.8
X-3.082 Y31.084 Z-1.805
X-3.11 Z-1.81
X-3.133 Y31.068 Z-1.815
X-3.145 Y31.043 Z-1.82
X-3.141 Y31.015 Z-1.825
X-3.123 Y30.994 Z-1.83
X-3.096 Y30.986 Z-1.835
X-3.069 Y30.993 Z-1.84
X-3.05 Y31.014 Z-1.845
X-3.046 Y31.041 Z-1.85
X-3.057 Y31.067 Z-1.855
X-3.08 Y31.083 Z-1.86
X-3.108 Y31.084 Z-1.865
X-3.132 Y31.07 Z-1.87
X-3.145 Y31.045 Z-1.875
X-3.142 Y31.017 Z-1.88
X-3.125 Y30.995 Z-1.885
X-3.099 Y30.986 Z-1.89
X-3.071 Y30.992 Z-1.895
X-3.052 Y31.012 Z-1.9
X-3.046 Y31.039 Z-1.905
X-3.055 Y31.065 Z-1.91
X-3.077 Y31.082 Z-1.915
X-3.105 Y31.085 Z-1.92
X-3.13 Y31.072 Z-1.925
X-3.144 Y31.047 Z-1.93
X-3.143 Y31.019 Z-1.935
X-3.127 Y30.997 Z-1.94
X-3.101 Y30.986 Z-1.945
X-3.073 Y30.991 Z-1.95
X-3.053 Y31.01 Z-1.955
X-3.045 Y31.037 Z-1.96
X-3.054 Y31.063 Z-1.965
X-3.075 Y31.081 Z-1.97
X-3.103 Y31.085 Z-1.975
X-3.128 Y31.073 Z-1.98
X-3.143 Y31.049 Z-1.985
Y31.022 Z-1.99
X-3.128 Y30.998 Z-1.995
X-3.103 Y30.986 Z-2
G3 X-3.088 Y31.085 I0.008 J0.049
X-3.103 Y30.986 I-0.008 J-0.049
G1 X-3.075 Y30.99 Z-2.005
X-3.054 Y31.008 Z-2.01
X-3.045 Y31.035 Z-2.015
X-3.053 Y31.062 Z-2.02
X-3.073 Y31.08 Z-2.025
X-3.101 Y31.085 Z-2.03
X-3.127 Y31.075 Z-2.035
X-3.143 Y31.052 Z-2.04
X-3.144 Y31.024 Z-2.045
X-3.13 Y30.999 Z-2.05
X-3.105 Y30.987 Z-2.055
X-3.077 Y30.989 Z-2.06
X-3.055 Y31.006 Z-2.065
X-3.046 Y31.032 Z-2.07
X-3.052 Y31.06 Z-2.075
X-3.071 Y31.079 Z-2.08
X-3.099 Y31.085 Z-2.085
X-3.125 Y31.076 Z-2.09
X-3.142 Y31.054 Z-2.095
X-3.144 Y31.026 Z-2.1
X-3.132 Y31.001 Z-2.105
X-3.107 Y30.987 Z-2.11
X-3.079 Y30.988 Z-2.115
X-3.056 Y31.004 Z-2.12
X-3.046 Y31.03 Z-2.125
X-3.051 Y31.058 Z-2.13
X-3.069 Y31.078 Z-2.135
X-3.096 Y31.086 Z-2.14
X-3.123 Y31.077 Z-2.145
X-3.141 Y31.056 Z-2.15
X-3.145 Y31.028 Z-2.155
X-3.133 Y31.003 Z-2.16
X-3.11 Y30.988 Z-2.165
X-3.082 Z-2.17
X-3.058 Y31.003 Z-2.175
X-3.046 Y31.028 Z-2.18
X-3.05 Y31.056 Z-2.185
X-3.068 Y31.077 Z-2.19
X-3.094 Y31.086 Z-2.195
X-3.121 Y31.078 Z-2.2
X-3.14 Y31.058 Z-2.205
X-3.145 Y31.03 Z-2.21
X-3.135 Y31.004 Z-2.215
X-3.112 Y30.988 Z-2.22
X-3.084 Y30.987 Z-2.225
X-3.059 Y31.001 Z-2.23
X-3.046 Y31.026 Z-2.235
X-3.049 Y31.054 Z-2.24
X-3.066 Y31.076 Z-2.245
X-3.092 Y31.085 Z-2.25
X-3.119 Y31.08 Z-2.255
X-3.139 Y31.06 Z-2.26
X-3.145 Y31.033 Z-2.265
X-3.136 Y31.006 Z-2.27
X-3.114 Y30.989 Z-2.275
X-3.086 Y30.987 Z-2.28
X-3.061 Y30.999 Z-2.285
X-3.047 Y31.024 Z-2.29
X-3.048 Y31.051 Z-2.295
X-3.064 Y31.074 Z-2.3
X-3.09 Y31.085 Z-2.305
X-3.117 Y31.081 Z-2.31
X-3.138 Y31.062 Z-2.315
X-3.145 Y31.035 Z-2.32
X-3.137 Y31.008 Z-2.325
X-3.116 Y30.99 Z-2.33
X-3.088 Y30.986 Z-2.335
X-3.063 Y30.998 Z-2.34
X-3.048 Y31.021 Z-2.345
X-3.047 Y31.049 Z-2.35
X-3.062 Y31.073 Z-2.355
X-3.088 Y31.085 Z-2.36
X-3.115 Y31.081 Z-2.365
X-3.137 Y31.064 Z-2.37
X-3.145 Y31.037 Z-2.375
X-3.138 Y31.01 Z-2.38
X-3.118 Y30.991 Z-2.385
X-3.09 Y30.986 Z-2.39
X-3.064 Y30.996 Z-2.395
X-3.048 Y31.019 Z-2.4
X-3.047 Y31.047 Z-2.405
X-3.061 Y31.071 Z-2.41
X-3.085 Y31.085 Z-2.415
X-3.113 Y31.082 Z-2.42
X-3.136 Y31.065 Z-2.425
X-3.145 Y31.039 Z-2.43
X-3.139 Y31.012 Z-2.435
X-3.12 Y30.992 Z-2.44
X-3.093 Y30.986 Z-2.445
X-3.066 Y30.995 Z-2.45
X-3.049 Y31.017 Z-2.455
X-3.046 Y31.045 Z-2.46
X-3.059 Y31.07 Z-2.465
X-3.083 Y31.084 Z-2.47
X-3.111 Y31.083 Z-2.475
X-3.134 Y31.067 Z-2.48
X-3.145 Y31.041 Z-2.485
X-3.14 Y31.014 Z-2.49
X-3.122 Y30.993 Z-2.495
X-3.095 Y30.986 Z-2.5
G3 X-3.096 Y31.086 I-0.001 J0.05
X-3.095 Y30.986 I0.001 J-0.05
G0 Z7
M9
M5
M30
