(1001)
(T1  D=1.5 CR=0 - ZMIN=-10 - flat end mill)
G90 G94
G17
G21

(2D Pocket1 2)
T1
S5000 M3
G54
M8
G0 X19.886 Y41.5
Z7
Z3
G1 Z1.8 F400
Z-0.3
G3 X19.608 Y41.5 I-0.139 J0
X19.886 Y41.5 I0.139 J0
G1 Z1.5
Z-0.6
G3 X19.608 Y41.5 I-0.139 J0
X19.886 Y41.5 I0.139 J0
G1 Z1.2
Z-0.9
G3 X19.608 Y41.5 I-0.139 J0
X19.886 Y41.5 I0.139 J0
G1 Z0.9
Z-1.2
G3 X19.608 Y41.5 I-0.139 J0
X19.886 Y41.5 I0.139 J0
G1 Z0.6
Z-1.5
G3 X19.608 Y41.5 I-0.139 J0
X19.886 Y41.5 I0.139 J0
G1 Z0.3
Z-1.8
G3 X19.608 Y41.5 I-0.139 J0
X19.886 Y41.5 I0.139 J0
G1 Z0
Z-2.1
G3 X19.608 Y41.5 I-0.139 J0
X19.886 Y41.5 I0.139 J0
G1 Z-0.3
Z-2.4
G3 X19.608 Y41.5 I-0.139 J0
X19.886 Y41.5 I0.139 J0
G1 Z-0.6
Z-2.7
G3 X19.608 Y41.5 I-0.139 J0
X19.886 Y41.5 I0.139 J0
G1 Z-0.9
Z-3
G3 X19.608 Y41.5 I-0.139 J0
X19.886 Y41.5 I0.139 J0
G1 Z-1.2
Z-3.1
G3 X19.608 Y41.5 I-0.139 J0
X19.886 Y41.5 I0.139 J0
G0 Z7
X19.971 Y39
Z3
G1 Z1.8 F400
Z-0.3
G3 X19.523 Y39 I-0.224 J0
X19.971 Y39 I0.224 J0
G1 Z1.5
Z-0.6
G3 X19.523 Y39 I-0.224 J0
X19.971 Y39 I0.224 J0
G1 Z1.2
Z-0.9
G3 X19.523 Y39 I-0.224 J0
X19.971 Y39 I0.224 J0
G1 Z0.9
Z-1.2
G3 X19.523 Y39 I-0.224 J0
X19.971 Y39 I0.224 J0
G1 Z0.6
Z-1.5
G3 X19.523 Y39 I-0.224 J0
X19.971 Y39 I0.224 J0
G1 Z0.3
Z-1.8
G3 X19.523 Y39 I-0.224 J0
X19.971 Y39 I0.224 J0
G1 Z0
Z-2.1
G3 X19.523 Y39 I-0.224 J0
X19.971 Y39 I0.224 J0
G1 Z-0.3
Z-2.4
G3 X19.523 Y39 I-0.224 J0
X19.971 Y39 I0.224 J0
G1 Z-0.6
Z-2.7
G3 X19.523 Y39 I-0.224 J0
X19.971 Y39 I0.224 J0
G1 Z-0.9
Z-3
G3 X19.523 Y39 I-0.224 J0
X19.971 Y39 I0.224 J0
G1 Z-1.2
Z-3.1
G3 X19.523 Y39 I-0.224 J0
X19.971 Y39 I0.224 J0
G0 Z7
Y36.5
Z3
G1 Z1.8 F400
Z-0.3
G3 X19.523 Y36.5 I-0.224 J0
X19.971 Y36.5 I0.224 J0
G1 Z1.5
Z-0.6
G3 X19.523 Y36.5 I-0.224 J0
X19.971 Y36.5 I0.224 J0
G1 Z1.2
Z-0.9
G3 X19.523 Y36.5 I-0.224 J0
X19.971 Y36.5 I0.224 J0
G1 Z0.9
Z-1.2
G3 X19.523 Y36.5 I-0.224 J0
X19.971 Y36.5 I0.224 J0
G1 Z0.6
Z-1.5
G3 X19.523 Y36.5 I-0.224 J0
X19.971 Y36.5 I0.224 J0
G1 Z0.3
Z-1.8
G3 X19.523 Y36.5 I-0.224 J0
X19.971 Y36.5 I0.224 J0
G1 Z0
Z-2.1
G3 X19.523 Y36.5 I-0.224 J0
X19.971 Y36.5 I0.224 J0
G1 Z-0.3
Z-2.4
G3 X19.523 Y36.5 I-0.224 J0
X19.971 Y36.5 I0.224 J0
G1 Z-0.6
Z-2.7
G3 X19.523 Y36.5 I-0.224 J0
X19.971 Y36.5 I0.224 J0
G1 Z-0.9
Z-3
G3 X19.523 Y36.5 I-0.224 J0
X19.971 Y36.5 I0.224 J0
G1 Z-1.2
Z-3.1
G3 X19.523 Y36.5 I-0.224 J0
X19.971 Y36.5 I0.224 J0
G0 Z7
X19.886 Y34
Z3
G1 Z1.8 F400
Z-0.3
G3 X19.608 Y34 I-0.139 J0
X19.886 Y34 I0.139 J0
G1 Z1.5
Z-0.6
G3 X19.608 Y34 I-0.139 J0
X19.886 Y34 I0.139 J0
G1 Z1.2
Z-0.9
G3 X19.608 Y34 I-0.139 J0
X19.886 Y34 I0.139 J0
G1 Z0.9
Z-1.2
G3 X19.608 Y34 I-0.139 J0
X19.886 Y34 I0.139 J0
G1 Z0.6
Z-1.5
G3 X19.608 Y34 I-0.139 J0
X19.886 Y34 I0.139 J0
G1 Z0.3
Z-1.8
G3 X19.608 Y34 I-0.139 J0
X19.886 Y34 I0.139 J0
G1 Z0
Z-2.1
G3 X19.608 Y34 I-0.139 J0
X19.886 Y34 I0.139 J0
G1 Z-0.3
Z-2.4
G3 X19.608 Y34 I-0.139 J0
X19.886 Y34 I0.139 J0
G1 Z-0.6
Z-2.7
G3 X19.608 Y34 I-0.139 J0
X19.886 Y34 I0.139 J0
G1 Z-0.9
Z-3
G3 X19.608 Y34 I-0.139 J0
X19.886 Y34 I0.139 J0
G1 Z-1.2
Z-3.1
G3 X19.608 Y34 I-0.139 J0
X19.886 Y34 I0.139 J0
G0 Z7
X19.664 Y31.389
Z3
G1 Z1.8 F400
Z-0.3
G3 X19.83 Y31.611 I0.083 J0.111
X19.664 Y31.389 I-0.083 J-0.111
G1 Z1.5
Z-0.6
G3 X19.83 Y31.611 I0.083 J0.111
X19.664 Y31.389 I-0.083 J-0.111
G1 Z1.2
Z-0.9
G3 X19.83 Y31.611 I0.083 J0.111
X19.664 Y31.389 I-0.083 J-0.111
G1 Z0.9
Z-1.2
G3 X19.83 Y31.611 I0.083 J0.111
X19.664 Y31.389 I-0.083 J-0.111
G1 Z0.6
Z-1.5
G3 X19.83 Y31.611 I0.083 J0.111
X19.664 Y31.389 I-0.083 J-0.111
G1 Z0.3
Z-1.8
G3 X19.83 Y31.611 I0.083 J0.111
X19.664 Y31.389 I-0.083 J-0.111
G1 Z0
Z-2.1
G3 X19.83 Y31.611 I0.083 J0.111
X19.664 Y31.389 I-0.083 J-0.111
G1 Z-0.3
Z-2.4
G3 X19.83 Y31.611 I0.083 J0.111
X19.664 Y31.389 I-0.083 J-0.111
G1 Z-0.6
Z-2.7
G3 X19.83 Y31.611 I0.083 J0.111
X19.664 Y31.389 I-0.083 J-0.111
G1 Z-0.9
Z-3
G3 X19.83 Y31.611 I0.083 J0.111
X19.664 Y31.389 I-0.083 J-0.111
G1 Z-1.2
Z-3.1
G3 X19.83 Y31.611 I0.083 J0.111
X19.664 Y31.389 I-0.083 J-0.111
G0 Z7
X19.886 Y29
Z3
G1 Z1.8 F400
Z-0.3
G3 X19.608 Y29 I-0.139 J0
X19.886 Y29 I0.139 J0
G1 Z1.5
Z-0.6
G3 X19.608 Y29 I-0.139 J0
X19.886 Y29 I0.139 J0
G1 Z1.2
Z-0.9
G3 X19.608 Y29 I-0.139 J0
X19.886 Y29 I0.139 J0
G1 Z0.9
Z-1.2
G3 X19.608 Y29 I-0.139 J0
X19.886 Y29 I0.139 J0
G1 Z0.6
Z-1.5
G3 X19.608 Y29 I-0.139 J0
X19.886 Y29 I0.139 J0
G1 Z0.3
Z-1.8
G3 X19.608 Y29 I-0.139 J0
X19.886 Y29 I0.139 J0
G1 Z0
Z-2.1
G3 X19.608 Y29 I-0.139 J0
X19.886 Y29 I0.139 J0
G1 Z-0.3
Z-2.4
G3 X19.608 Y29 I-0.139 J0
X19.886 Y29 I0.139 J0
G1 Z-0.6
Z-2.7
G3 X19.608 Y29 I-0.139 J0
X19.886 Y29 I0.139 J0
G1 Z-0.9
Z-3
G3 X19.608 Y29 I-0.139 J0
X19.886 Y29 I0.139 J0
G1 Z-1.2
Z-3.1
G3 X19.608 Y29 I-0.139 J0
X19.886 Y29 I0.139 J0
G0 Z7
Y24
Z3
G1 Z1.8 F400
Z-0.3
G3 X19.608 Y24 I-0.139 J0
X19.886 Y24 I0.139 J0
G1 Z1.5
Z-0.6
G3 X19.608 Y24 I-0.139 J0
X19.886 Y24 I0.139 J0
G1 Z1.2
Z-0.9
G3 X19.608 Y24 I-0.139 J0
X19.886 Y24 I0.139 J0
G1 Z0.9
Z-1.2
G3 X19.608 Y24 I-0.139 J0
X19.886 Y24 I0.139 J0
G1 Z0.6
Z-1.5
G3 X19.608 Y24 I-0.139 J0
X19.886 Y24 I0.139 J0
G1 Z0.3
Z-1.8
G3 X19.608 Y24 I-0.139 J0
X19.886 Y24 I0.139 J0
G1 Z0
Z-2.1
G3 X19.608 Y24 I-0.139 J0
X19.886 Y24 I0.139 J0
G1 Z-0.3
Z-2.4
G3 X19.608 Y24 I-0.139 J0
X19.886 Y24 I0.139 J0
G1 Z-0.6
Z-2.7
G3 X19.608 Y24 I-0.139 J0
X19.886 Y24 I0.139 J0
G1 Z-0.9
Z-3
G3 X19.608 Y24 I-0.139 J0
X19.886 Y24 I0.139 J0
G1 Z-1.2
Z-3.1
G3 X19.608 Y24 I-0.139 J0
X19.886 Y24 I0.139 J0
G0 Z7
Y11.5
Z3
G1 Z1.8 F400
Z-0.3
G3 X19.608 Y11.5 I-0.139 J0
X19.886 Y11.5 I0.139 J0
G1 Z1.5
Z-0.6
G3 X19.608 Y11.5 I-0.139 J0
X19.886 Y11.5 I0.139 J0
G1 Z1.2
Z-0.9
G3 X19.608 Y11.5 I-0.139 J0
X19.886 Y11.5 I0.139 J0
G1 Z0.9
Z-1.2
G3 X19.608 Y11.5 I-0.139 J0
X19.886 Y11.5 I0.139 J0
G1 Z0.6
Z-1.5
G3 X19.608 Y11.5 I-0.139 J0
X19.886 Y11.5 I0.139 J0
G1 Z0.3
Z-1.8
G3 X19.608 Y11.5 I-0.139 J0
X19.886 Y11.5 I0.139 J0
G1 Z0
Z-2.1
G3 X19.608 Y11.5 I-0.139 J0
X19.886 Y11.5 I0.139 J0
G1 Z-0.3
Z-2.4
G3 X19.608 Y11.5 I-0.139 J0
X19.886 Y11.5 I0.139 J0
G1 Z-0.6
Z-2.7
G3 X19.608 Y11.5 I-0.139 J0
X19.886 Y11.5 I0.139 J0
G1 Z-0.9
Z-3
G3 X19.608 Y11.5 I-0.139 J0
X19.886 Y11.5 I0.139 J0
G1 Z-1.2
Z-3.1
G3 X19.608 Y11.5 I-0.139 J0
X19.886 Y11.5 I0.139 J0
G0 Z7
X10.011 Y5.834
Z3
G1 Z1.8 F400
Z-0.3
X10.021 Y5.844
X10.011 Y5.854
X10.001 Y5.844
X10.011 Y5.834
Z1.5
Z-0.6
X10.021 Y5.844
X10.011 Y5.854
X10.001 Y5.844
X10.011 Y5.834
Z1.2
Z-0.9
X10.021 Y5.844
X10.011 Y5.854
X10.001 Y5.844
X10.011 Y5.834
Z0.9
Z-1.2
X10.021 Y5.844
X10.011 Y5.854
X10.001 Y5.844
X10.011 Y5.834
Z0.6
Z-1.5
X10.021 Y5.844
X10.011 Y5.854
X10.001 Y5.844
X10.011 Y5.834
Z0.3
Z-1.8
X10.021 Y5.844
X10.011 Y5.854
X10.001 Y5.844
X10.011 Y5.834
Z0
Z-2.1
X10.021 Y5.844
X10.011 Y5.854
X10.001 Y5.844
X10.011 Y5.834
Z-0.3
Z-2.4
X10.021 Y5.844
X10.011 Y5.854
X10.001 Y5.844
X10.011 Y5.834
Z-0.6
Z-2.7
X10.021 Y5.844
X10.011 Y5.854
X10.001 Y5.844
X10.011 Y5.834
Z-0.9
Z-3
X10.021 Y5.844
X10.011 Y5.854
X10.001 Y5.844
X10.011 Y5.834
Z-1.2
Z-3.1
X10.021 Y5.844
X10.011 Y5.854
X10.001 Y5.844
X10.011 Y5.834
G0 Z7
X13.994 Y5.848
Z3
G1 Z1.8 F400
Z-0.3
Y5.832
X14.01 Y5.84
X13.994 Y5.848
Z1.5
Z-0.6
Y5.832
X14.01 Y5.84
X13.994 Y5.848
Z1.2
Z-0.9
Y5.832
X14.01 Y5.84
X13.994 Y5.848
Z0.9
Z-1.2
Y5.832
X14.01 Y5.84
X13.994 Y5.848
Z0.6
Z-1.5
Y5.832
X14.01 Y5.84
X13.994 Y5.848
Z0.3
Z-1.8
Y5.832
X14.01 Y5.84
X13.994 Y5.848
Z0
Z-2.1
Y5.832
X14.01 Y5.84
X13.994 Y5.848
Z-0.3
Z-2.4
Y5.832
X14.01 Y5.84
X13.994 Y5.848
Z-0.6
Z-2.7
Y5.832
X14.01 Y5.84
X13.994 Y5.848
Z-0.9
Z-3
Y5.832
X14.01 Y5.84
X13.994 Y5.848
Z-1.2
Z-3.1
Y5.832
X14.01 Y5.84
X13.994 Y5.848
G0 Z7
X4.392 Y14
Z3
G1 Z1.8 F400
Z-0.3
G3 X4.114 Y14 I-0.139 J0
X4.392 Y14 I0.139 J0
G1 Z1.5
Z-0.6
G3 X4.114 Y14 I-0.139 J0
X4.392 Y14 I0.139 J0
G1 Z1.2
Z-0.9
G3 X4.114 Y14 I-0.139 J0
X4.392 Y14 I0.139 J0
G1 Z0.9
Z-1.2
G3 X4.114 Y14 I-0.139 J0
X4.392 Y14 I0.139 J0
G1 Z0.6
Z-1.5
G3 X4.114 Y14 I-0.139 J0
X4.392 Y14 I0.139 J0
G1 Z0.3
Z-1.8
G3 X4.114 Y14 I-0.139 J0
X4.392 Y14 I0.139 J0
G1 Z0
Z-2.1
G3 X4.114 Y14 I-0.139 J0
X4.392 Y14 I0.139 J0
G1 Z-0.3
Z-2.4
G3 X4.114 Y14 I-0.139 J0
X4.392 Y14 I0.139 J0
G1 Z-0.6
Z-2.7
G3 X4.114 Y14 I-0.139 J0
X4.392 Y14 I0.139 J0
G1 Z-0.9
Z-3
G3 X4.114 Y14 I-0.139 J0
X4.392 Y14 I0.139 J0
G1 Z-1.2
Z-3.1
G3 X4.114 Y14 I-0.139 J0
X4.392 Y14 I0.139 J0
G0 Z7
Y16.5
Z3
G1 Z1.8 F400
Z-0.3
G3 X4.114 Y16.5 I-0.139 J0
X4.392 Y16.5 I0.139 J0
G1 Z1.5
Z-0.6
G3 X4.114 Y16.5 I-0.139 J0
X4.392 Y16.5 I0.139 J0
G1 Z1.2
Z-0.9
G3 X4.114 Y16.5 I-0.139 J0
X4.392 Y16.5 I0.139 J0
G1 Z0.9
Z-1.2
G3 X4.114 Y16.5 I-0.139 J0
X4.392 Y16.5 I0.139 J0
G1 Z0.6
Z-1.5
G3 X4.114 Y16.5 I-0.139 J0
X4.392 Y16.5 I0.139 J0
G1 Z0.3
Z-1.8
G3 X4.114 Y16.5 I-0.139 J0
X4.392 Y16.5 I0.139 J0
G1 Z0
Z-2.1
G3 X4.114 Y16.5 I-0.139 J0
X4.392 Y16.5 I0.139 J0
G1 Z-0.3
Z-2.4
G3 X4.114 Y16.5 I-0.139 J0
X4.392 Y16.5 I0.139 J0
G1 Z-0.6
Z-2.7
G3 X4.114 Y16.5 I-0.139 J0
X4.392 Y16.5 I0.139 J0
G1 Z-0.9
Z-3
G3 X4.114 Y16.5 I-0.139 J0
X4.392 Y16.5 I0.139 J0
G1 Z-1.2
Z-3.1
G3 X4.114 Y16.5 I-0.139 J0
X4.392 Y16.5 I0.139 J0
G0 Z7
Y19
Z3
G1 Z1.8 F400
Z-0.3
G3 X4.114 Y19 I-0.139 J0
X4.392 Y19 I0.139 J0
G1 Z1.5
Z-0.6
G3 X4.114 Y19 I-0.139 J0
X4.392 Y19 I0.139 J0
G1 Z1.2
Z-0.9
G3 X4.114 Y19 I-0.139 J0
X4.392 Y19 I0.139 J0
G1 Z0.9
Z-1.2
G3 X4.114 Y19 I-0.139 J0
X4.392 Y19 I0.139 J0
G1 Z0.6
Z-1.5
G3 X4.114 Y19 I-0.139 J0
X4.392 Y19 I0.139 J0
G1 Z0.3
Z-1.8
G3 X4.114 Y19 I-0.139 J0
X4.392 Y19 I0.139 J0
G1 Z0
Z-2.1
G3 X4.114 Y19 I-0.139 J0
X4.392 Y19 I0.139 J0
G1 Z-0.3
Z-2.4
G3 X4.114 Y19 I-0.139 J0
X4.392 Y19 I0.139 J0
G1 Z-0.6
Z-2.7
G3 X4.114 Y19 I-0.139 J0
X4.392 Y19 I0.139 J0
G1 Z-0.9
Z-3
G3 X4.114 Y19 I-0.139 J0
X4.392 Y19 I0.139 J0
G1 Z-1.2
Z-3.1
G3 X4.114 Y19 I-0.139 J0
X4.392 Y19 I0.139 J0
G0 Z7
Y21.5
Z3
G1 Z1.8 F400
Z-0.3
G3 X4.114 Y21.5 I-0.139 J0
X4.392 Y21.5 I0.139 J0
G1 Z1.5
Z-0.6
G3 X4.114 Y21.5 I-0.139 J0
X4.392 Y21.5 I0.139 J0
G1 Z1.2
Z-0.9
G3 X4.114 Y21.5 I-0.139 J0
X4.392 Y21.5 I0.139 J0
G1 Z0.9
Z-1.2
G3 X4.114 Y21.5 I-0.139 J0
X4.392 Y21.5 I0.139 J0
G1 Z0.6
Z-1.5
G3 X4.114 Y21.5 I-0.139 J0
X4.392 Y21.5 I0.139 J0
G1 Z0.3
Z-1.8
G3 X4.114 Y21.5 I-0.139 J0
X4.392 Y21.5 I0.139 J0
G1 Z0
Z-2.1
G3 X4.114 Y21.5 I-0.139 J0
X4.392 Y21.5 I0.139 J0
G1 Z-0.3
Z-2.4
G3 X4.114 Y21.5 I-0.139 J0
X4.392 Y21.5 I0.139 J0
G1 Z-0.6
Z-2.7
G3 X4.114 Y21.5 I-0.139 J0
X4.392 Y21.5 I0.139 J0
G1 Z-0.9
Z-3
G3 X4.114 Y21.5 I-0.139 J0
X4.392 Y21.5 I0.139 J0
G1 Z-1.2
Z-3.1
G3 X4.114 Y21.5 I-0.139 J0
X4.392 Y21.5 I0.139 J0
G0 Z7
Y26.5
Z3
G1 Z1.8 F400
Z-0.3
G3 X4.114 Y26.5 I-0.139 J0
X4.392 Y26.5 I0.139 J0
G1 Z1.5
Z-0.6
G3 X4.114 Y26.5 I-0.139 J0
X4.392 Y26.5 I0.139 J0
G1 Z1.2
Z-0.9
G3 X4.114 Y26.5 I-0.139 J0
X4.392 Y26.5 I0.139 J0
G1 Z0.9
Z-1.2
G3 X4.114 Y26.5 I-0.139 J0
X4.392 Y26.5 I0.139 J0
G1 Z0.6
Z-1.5
G3 X4.114 Y26.5 I-0.139 J0
X4.392 Y26.5 I0.139 J0
G1 Z0.3
Z-1.8
G3 X4.114 Y26.5 I-0.139 J0
X4.392 Y26.5 I0.139 J0
G1 Z0
Z-2.1
G3 X4.114 Y26.5 I-0.139 J0
X4.392 Y26.5 I0.139 J0
G1 Z-0.3
Z-2.4
G3 X4.114 Y26.5 I-0.139 J0
X4.392 Y26.5 I0.139 J0
G1 Z-0.6
Z-2.7
G3 X4.114 Y26.5 I-0.139 J0
X4.392 Y26.5 I0.139 J0
G1 Z-0.9
Z-3
G3 X4.114 Y26.5 I-0.139 J0
X4.392 Y26.5 I0.139 J0
G1 Z-1.2
Z-3.1
G3 X4.114 Y26.5 I-0.139 J0
X4.392 Y26.5 I0.139 J0
G0 Z7
Y29
Z3
G1 Z1.8 F400
Z-0.3
G3 X4.114 Y29 I-0.139 J0
X4.392 Y29 I0.139 J0
G1 Z1.5
Z-0.6
G3 X4.114 Y29 I-0.139 J0
X4.392 Y29 I0.139 J0
G1 Z1.2
Z-0.9
G3 X4.114 Y29 I-0.139 J0
X4.392 Y29 I0.139 J0
G1 Z0.9
Z-1.2
G3 X4.114 Y29 I-0.139 J0
X4.392 Y29 I0.139 J0
G1 Z0.6
Z-1.5
G3 X4.114 Y29 I-0.139 J0
X4.392 Y29 I0.139 J0
G1 Z0.3
Z-1.8
G3 X4.114 Y29 I-0.139 J0
X4.392 Y29 I0.139 J0
G1 Z0
Z-2.1
G3 X4.114 Y29 I-0.139 J0
X4.392 Y29 I0.139 J0
G1 Z-0.3
Z-2.4
G3 X4.114 Y29 I-0.139 J0
X4.392 Y29 I0.139 J0
G1 Z-0.6
Z-2.7
G3 X4.114 Y29 I-0.139 J0
X4.392 Y29 I0.139 J0
G1 Z-0.9
Z-3
G3 X4.114 Y29 I-0.139 J0
X4.392 Y29 I0.139 J0
G1 Z-1.2
Z-3.1
G3 X4.114 Y29 I-0.139 J0
X4.392 Y29 I0.139 J0
G0 Z7
X4.17 Y31.389
Z3
G1 Z1.8 F400
Z-0.3
G3 X4.336 Y31.611 I0.083 J0.111
X4.17 Y31.389 I-0.083 J-0.111
G1 Z1.5
Z-0.6
G3 X4.336 Y31.611 I0.083 J0.111
X4.17 Y31.389 I-0.083 J-0.111
G1 Z1.2
Z-0.9
G3 X4.336 Y31.611 I0.083 J0.111
X4.17 Y31.389 I-0.083 J-0.111
G1 Z0.9
Z-1.2
G3 X4.336 Y31.611 I0.083 J0.111
X4.17 Y31.389 I-0.083 J-0.111
G1 Z0.6
Z-1.5
G3 X4.336 Y31.611 I0.083 J0.111
X4.17 Y31.389 I-0.083 J-0.111
G1 Z0.3
Z-1.8
G3 X4.336 Y31.611 I0.083 J0.111
X4.17 Y31.389 I-0.083 J-0.111
G1 Z0
Z-2.1
G3 X4.336 Y31.611 I0.083 J0.111
X4.17 Y31.389 I-0.083 J-0.111
G1 Z-0.3
Z-2.4
G3 X4.336 Y31.611 I0.083 J0.111
X4.17 Y31.389 I-0.083 J-0.111
G1 Z-0.6
Z-2.7
G3 X4.336 Y31.611 I0.083 J0.111
X4.17 Y31.389 I-0.083 J-0.111
G1 Z-0.9
Z-3
G3 X4.336 Y31.611 I0.083 J0.111
X4.17 Y31.389 I-0.083 J-0.111
G1 Z-1.2
Z-3.1
G3 X4.336 Y31.611 I0.083 J0.111
X4.17 Y31.389 I-0.083 J-0.111
G0 Z7
Y33.889
Z3
G1 Z1.8 F400
Z-0.3
G3 X4.336 Y34.111 I0.083 J0.111
X4.17 Y33.889 I-0.083 J-0.111
G1 Z1.5
Z-0.6
G3 X4.336 Y34.111 I0.083 J0.111
X4.17 Y33.889 I-0.083 J-0.111
G1 Z1.2
Z-0.9
G3 X4.336 Y34.111 I0.083 J0.111
X4.17 Y33.889 I-0.083 J-0.111
G1 Z0.9
Z-1.2
G3 X4.336 Y34.111 I0.083 J0.111
X4.17 Y33.889 I-0.083 J-0.111
G1 Z0.6
Z-1.5
G3 X4.336 Y34.111 I0.083 J0.111
X4.17 Y33.889 I-0.083 J-0.111
G1 Z0.3
Z-1.8
G3 X4.336 Y34.111 I0.083 J0.111
X4.17 Y33.889 I-0.083 J-0.111
G1 Z0
Z-2.1
G3 X4.336 Y34.111 I0.083 J0.111
X4.17 Y33.889 I-0.083 J-0.111
G1 Z-0.3
Z-2.4
G3 X4.336 Y34.111 I0.083 J0.111
X4.17 Y33.889 I-0.083 J-0.111
G1 Z-0.6
Z-2.7
G3 X4.336 Y34.111 I0.083 J0.111
X4.17 Y33.889 I-0.083 J-0.111
G1 Z-0.9
Z-3
G3 X4.336 Y34.111 I0.083 J0.111
X4.17 Y33.889 I-0.083 J-0.111
G1 Z-1.2
Z-3.1
G3 X4.336 Y34.111 I0.083 J0.111
X4.17 Y33.889 I-0.083 J-0.111
G0 Z7
Y41.389
Z3
G1 Z1.8 F400
Z-0.3
G3 X4.336 Y41.611 I0.083 J0.111
X4.17 Y41.389 I-0.083 J-0.111
G1 Z1.5
Z-0.6
G3 X4.336 Y41.611 I0.083 J0.111
X4.17 Y41.389 I-0.083 J-0.111
G1 Z1.2
Z-0.9
G3 X4.336 Y41.611 I0.083 J0.111
X4.17 Y41.389 I-0.083 J-0.111
G1 Z0.9
Z-1.2
G3 X4.336 Y41.611 I0.083 J0.111
X4.17 Y41.389 I-0.083 J-0.111
G1 Z0.6
Z-1.5
G3 X4.336 Y41.611 I0.083 J0.111
X4.17 Y41.389 I-0.083 J-0.111
G1 Z0.3
Z-1.8
G3 X4.336 Y41.611 I0.083 J0.111
X4.17 Y41.389 I-0.083 J-0.111
G1 Z0
Z-2.1
G3 X4.336 Y41.611 I0.083 J0.111
X4.17 Y41.389 I-0.083 J-0.111
G1 Z-0.3
Z-2.4
G3 X4.336 Y41.611 I0.083 J0.111
X4.17 Y41.389 I-0.083 J-0.111
G1 Z-0.6
Z-2.7
G3 X4.336 Y41.611 I0.083 J0.111
X4.17 Y41.389 I-0.083 J-0.111
G1 Z-0.9
Z-3
G3 X4.336 Y41.611 I0.083 J0.111
X4.17 Y41.389 I-0.083 J-0.111
G1 Z-1.2
Z-3.1
G3 X4.336 Y41.611 I0.083 J0.111
X4.17 Y41.389 I-0.083 J-0.111
G0 Z7
Y43.889
Z3
G1 Z1.8 F400
Z-0.3
G3 X4.336 Y44.111 I0.083 J0.111
X4.17 Y43.889 I-0.083 J-0.111
G1 Z1.5
Z-0.6
G3 X4.336 Y44.111 I0.083 J0.111
X4.17 Y43.889 I-0.083 J-0.111
G1 Z1.2
Z-0.9
G3 X4.336 Y44.111 I0.083 J0.111
X4.17 Y43.889 I-0.083 J-0.111
G1 Z0.9
Z-1.2
G3 X4.336 Y44.111 I0.083 J0.111
X4.17 Y43.889 I-0.083 J-0.111
G1 Z0.6
Z-1.5
G3 X4.336 Y44.111 I0.083 J0.111
X4.17 Y43.889 I-0.083 J-0.111
G1 Z0.3
Z-1.8
G3 X4.336 Y44.111 I0.083 J0.111
X4.17 Y43.889 I-0.083 J-0.111
G1 Z0
Z-2.1
G3 X4.336 Y44.111 I0.083 J0.111
X4.17 Y43.889 I-0.083 J-0.111
G1 Z-0.3
Z-2.4
G3 X4.336 Y44.111 I0.083 J0.111
X4.17 Y43.889 I-0.083 J-0.111
G1 Z-0.6
Z-2.7
G3 X4.336 Y44.111 I0.083 J0.111
X4.17 Y43.889 I-0.083 J-0.111
G1 Z-0.9
Z-3
G3 X4.336 Y44.111 I0.083 J0.111
X4.17 Y43.889 I-0.083 J-0.111
G1 Z-1.2
Z-3.1
G3 X4.336 Y44.111 I0.083 J0.111
X4.17 Y43.889 I-0.083 J-0.111
G0 Z7
X23.478 Y21.999
Z3
G1 Z1.3 F400
Z-0.3
X23.455 Y22
X19.747
G3 X19.747 Y21 I0 J-0.5
G1 X23.454
X23.484 Y21.007
X23.508 Y21.026
X23.522 Y21.053
X23.523 Y21.084
X23.456 Y21.422
X23.459 Y21.577
X23.541 Y21.912
X23.542 Y21.942
X23.53 Y21.97
X23.507 Y21.99
X23.478 Y21.999
Z-0.6
X23.455 Y22
X19.747
G3 X19.747 Y21 I0 J-0.5
G1 X23.454
X23.484 Y21.007
X23.508 Y21.026
X23.522 Y21.053
X23.523 Y21.084
X23.456 Y21.422
X23.459 Y21.577
X23.541 Y21.912
X23.542 Y21.942
X23.53 Y21.97
X23.507 Y21.99
X23.478 Y21.999
Z-0.9
X23.455 Y22
X19.747
G3 X19.747 Y21 I0 J-0.5
G1 X23.454
X23.484 Y21.007
X23.508 Y21.026
X23.522 Y21.053
X23.523 Y21.084
X23.456 Y21.422
X23.459 Y21.577
X23.541 Y21.912
X23.542 Y21.942
X23.53 Y21.97
X23.507 Y21.99
X23.478 Y21.999
Z-1.2
X23.455 Y22
X19.747
G3 X19.747 Y21 I0 J-0.5
G1 X23.454
X23.484 Y21.007
X23.508 Y21.026
X23.522 Y21.053
X23.523 Y21.084
X23.456 Y21.422
X23.459 Y21.577
X23.541 Y21.912
X23.542 Y21.942
X23.53 Y21.97
X23.507 Y21.99
X23.478 Y21.999
Z-1.5
X23.455 Y22
X19.747
G3 X19.747 Y21 I0 J-0.5
G1 X23.454
X23.484 Y21.007
X23.508 Y21.026
X23.522 Y21.053
X23.523 Y21.084
X23.456 Y21.422
X23.459 Y21.577
X23.541 Y21.912
X23.542 Y21.942
X23.53 Y21.97
X23.507 Y21.99
X23.478 Y21.999
Z-1.8
X23.455 Y22
X19.747
G3 X19.747 Y21 I0 J-0.5
G1 X23.454
X23.484 Y21.007
X23.508 Y21.026
X23.522 Y21.053
X23.523 Y21.084
X23.456 Y21.422
X23.459 Y21.577
X23.541 Y21.912
X23.542 Y21.942
X23.53 Y21.97
X23.507 Y21.99
X23.478 Y21.999
Z-2.1
X23.455 Y22
X19.747
G3 X19.747 Y21 I0 J-0.5
G1 X23.454
X23.484 Y21.007
X23.508 Y21.026
X23.522 Y21.053
X23.523 Y21.084
X23.456 Y21.422
X23.459 Y21.577
X23.541 Y21.912
X23.542 Y21.942
X23.53 Y21.97
X23.507 Y21.99
X23.478 Y21.999
Z-2.4
X23.455 Y22
X19.747
G3 X19.747 Y21 I0 J-0.5
G1 X23.454
X23.484 Y21.007
X23.508 Y21.026
X23.522 Y21.053
X23.523 Y21.084
X23.456 Y21.422
X23.459 Y21.577
X23.541 Y21.912
X23.542 Y21.942
X23.53 Y21.97
X23.507 Y21.99
X23.478 Y21.999
Z-2.6
X23.455 Y22
X19.747
G3 X19.747 Y21 I0 J-0.5
G1 X23.454
G0 Z7
X23.478 Y16.999
Z3
G1 Z1.3 F400
Z-0.3
X23.455 Y17
X20.04
G3 X19.84 Y16.8 I0 J-0.2
G1 X19.839 Y16.2
G3 X20.039 Y16 I0.2 J0
G1 X23.454
G3 X23.654 Y16.197 I0 J0.2
G1 X23.662 Y16.797
G3 X23.478 Y16.999 I-0.2 J0.003
G1 Z-0.6
X23.455 Y17
X20.04
G3 X19.84 Y16.8 I0 J-0.2
G1 X19.839 Y16.2
G3 X20.039 Y16 I0.2 J0
G1 X23.454
G3 X23.654 Y16.197 I0 J0.2
G1 X23.662 Y16.797
G3 X23.478 Y16.999 I-0.2 J0.003
G1 Z-0.9
X23.455 Y17
X20.04
G3 X19.84 Y16.8 I0 J-0.2
G1 X19.839 Y16.2
G3 X20.039 Y16 I0.2 J0
G1 X23.454
G3 X23.654 Y16.197 I0 J0.2
G1 X23.662 Y16.797
G3 X23.478 Y16.999 I-0.2 J0.003
G1 Z-1.2
X23.455 Y17
X20.04
G3 X19.84 Y16.8 I0 J-0.2
G1 X19.839 Y16.2
G3 X20.039 Y16 I0.2 J0
G1 X23.454
G3 X23.654 Y16.197 I0 J0.2
G1 X23.662 Y16.797
G3 X23.478 Y16.999 I-0.2 J0.003
G1 Z-1.5
X23.455 Y17
X20.04
G3 X19.84 Y16.8 I0 J-0.2
G1 X19.839 Y16.2
G3 X20.039 Y16 I0.2 J0
G1 X23.454
G3 X23.654 Y16.197 I0 J0.2
G1 X23.662 Y16.797
G3 X23.478 Y16.999 I-0.2 J0.003
G1 Z-1.8
X23.455 Y17
X20.04
G3 X19.84 Y16.8 I0 J-0.2
G1 X19.839 Y16.2
G3 X20.039 Y16 I0.2 J0
G1 X23.454
G3 X23.654 Y16.197 I0 J0.2
G1 X23.662 Y16.797
G3 X23.478 Y16.999 I-0.2 J0.003
G1 Z-2.1
X23.455 Y17
X20.04
G3 X19.84 Y16.8 I0 J-0.2
G1 X19.839 Y16.2
G3 X20.039 Y16 I0.2 J0
G1 X23.454
G3 X23.654 Y16.197 I0 J0.2
G1 X23.662 Y16.797
G3 X23.478 Y16.999 I-0.2 J0.003
G1 Z-2.4
X23.455 Y17
X20.04
G3 X19.84 Y16.8 I0 J-0.2
G1 X19.839 Y16.2
G3 X20.039 Y16 I0.2 J0
G1 X23.454
G3 X23.654 Y16.197 I0 J0.2
G1 X23.662 Y16.797
G3 X23.478 Y16.999 I-0.2 J0.003
G1 Z-2.6
X23.455 Y17
X20.04
G3 X19.84 Y16.8 I0 J-0.2
G1 X19.839 Y16.2
G3 X20.039 Y16 I0.2 J0
G1 X23.454
G0 Z7
X14.063 Y5.835
Z3
G1 Z1.8 F400
Z-0.3
X23.747
X23.752 Y13.937
X23.742 Y13.93
Y6.595
G2 X22.992 Y5.845 I-0.75 J0
G1 X14.087
X14.064
G0 Z4
X14.063 Y5.835
Z3
G1 Z1.5 F400
Z-0.6
X23.747
X23.752 Y13.937
X23.742 Y13.93
Y6.595
G2 X22.992 Y5.845 I-0.75 J0
G1 X14.087
X14.064
G0 Z4
X14.063 Y5.835
Z3
G1 Z1.2 F400
Z-0.9
X23.747
X23.752 Y13.937
X23.742 Y13.93
Y6.595
G2 X22.992 Y5.845 I-0.75 J0
G1 X14.087
X14.064
G0 Z4
X14.063 Y5.835
Z3
G1 Z0.9 F400
Z-1.2
X23.747
X23.752 Y13.937
X23.742 Y13.93
Y6.595
G2 X22.992 Y5.845 I-0.75 J0
G1 X14.087
X14.064
G0 Z4
X14.063 Y5.835
Z3
G1 Z0.6 F400
Z-1.5
X23.747
X23.752 Y13.937
X23.742 Y13.93
Y6.595
G2 X22.992 Y5.845 I-0.75 J0
G1 X14.087
X14.064
G0 Z4
X14.063 Y5.835
Z3
G1 Z0.3 F400
Z-1.8
X23.747
X23.752 Y13.937
X23.742 Y13.93
Y6.595
G2 X22.992 Y5.845 I-0.75 J0
G1 X14.087
X14.064
G0 Z4
X14.063 Y5.835
Z3
G1 Z0 F400
Z-2.1
X23.747
X23.752 Y13.937
X23.742 Y13.93
Y6.595
G2 X22.992 Y5.845 I-0.75 J0
G1 X14.087
X14.064
G0 Z4
X14.063 Y5.835
Z3
G1 Z-0.3 F400
Z-2.4
X23.747
X23.752 Y13.937
X23.742 Y13.93
Y6.595
G2 X22.992 Y5.845 I-0.75 J0
G1 X14.087
X14.064
G0 Z4
X14.063 Y5.835
Z3
G1 Z-0.6 F400
Z-2.6
X23.747
X23.752 Y13.937
X23.742 Y13.93
Y6.595
G2 X22.992 Y5.845 I-0.75 J0
G1 X14.087
X14.064
G0 Z7
X4.253 Y23.861
Z3
G1 Z1.8 F400
Z-0.3
G3 X4.253 Y24.139 I0 J0.139
X4.253 Y23.861 I0 J-0.139
G1 Z1.5
Z-0.6
G3 X4.253 Y24.139 I0 J0.139
X4.253 Y23.861 I0 J-0.139
G1 Z1.2
Z-0.9
G3 X4.253 Y24.139 I0 J0.139
X4.253 Y23.861 I0 J-0.139
G1 Z0.9
Z-1.2
G3 X4.253 Y24.139 I0 J0.139
X4.253 Y23.861 I0 J-0.139
G1 Z0.6
Z-1.5
G3 X4.253 Y24.139 I0 J0.139
X4.253 Y23.861 I0 J-0.139
G1 Z0.3
Z-1.8
G3 X4.253 Y24.139 I0 J0.139
X4.253 Y23.861 I0 J-0.139
G1 Z0
Z-2.1
G3 X4.253 Y24.139 I0 J0.139
X4.253 Y23.861 I0 J-0.139
G1 Z-0.3
Z-2.4
G3 X4.253 Y24.139 I0 J0.139
X4.253 Y23.861 I0 J-0.139
G1 Z-0.6
Z-2.7
G3 X4.253 Y24.139 I0 J0.139
X4.253 Y23.861 I0 J-0.139
G1 Z-0.9
Z-3
G3 X4.253 Y24.139 I0 J0.139
X4.253 Y23.861 I0 J-0.139
G1 Z-1.2
Z-3.1
G3 X4.253 Y24.139 I0 J0.139
X4.253 Y23.861 I0 J-0.139
G0 Z4
X4.114 Y11.5
Z3
G1 Z1.8 F400
Z-0.3
G3 X4.392 Y11.5 I0.139 J0
X4.114 Y11.5 I-0.139 J0
G1 Z1.5
Z-0.6
G3 X4.392 Y11.5 I0.139 J0
X4.114 Y11.5 I-0.139 J0
G1 Z1.2
Z-0.9
G3 X4.392 Y11.5 I0.139 J0
X4.114 Y11.5 I-0.139 J0
G1 Z0.9
Z-1.2
G3 X4.392 Y11.5 I0.139 J0
X4.114 Y11.5 I-0.139 J0
G1 Z0.6
Z-1.5
G3 X4.392 Y11.5 I0.139 J0
X4.114 Y11.5 I-0.139 J0
G1 Z0.3
Z-1.8
G3 X4.392 Y11.5 I0.139 J0
X4.114 Y11.5 I-0.139 J0
G1 Z0
Z-2.1
G3 X4.392 Y11.5 I0.139 J0
X4.114 Y11.5 I-0.139 J0
G1 Z-0.3
Z-2.4
G3 X4.392 Y11.5 I0.139 J0
X4.114 Y11.5 I-0.139 J0
G1 Z-0.6
Z-2.7
G3 X4.392 Y11.5 I0.139 J0
X4.114 Y11.5 I-0.139 J0
G1 Z-0.9
Z-3
G3 X4.392 Y11.5 I0.139 J0
X4.114 Y11.5 I-0.139 J0
G1 Z-1.2
Z-3.1
G3 X4.392 Y11.5 I0.139 J0
X4.114 Y11.5 I-0.139 J0
G0 Z4
Y9
Z3
G1 Z1.8 F400
Z-0.3
G3 X4.392 Y9 I0.139 J0
X4.114 Y9 I-0.139 J0
G1 Z1.5
Z-0.6
G3 X4.392 Y9 I0.139 J0
X4.114 Y9 I-0.139 J0
G1 Z1.2
Z-0.9
G3 X4.392 Y9 I0.139 J0
X4.114 Y9 I-0.139 J0
G1 Z0.9
Z-1.2
G3 X4.392 Y9 I0.139 J0
X4.114 Y9 I-0.139 J0
G1 Z0.6
Z-1.5
G3 X4.392 Y9 I0.139 J0
X4.114 Y9 I-0.139 J0
G1 Z0.3
Z-1.8
G3 X4.392 Y9 I0.139 J0
X4.114 Y9 I-0.139 J0
G1 Z0
Z-2.1
G3 X4.392 Y9 I0.139 J0
X4.114 Y9 I-0.139 J0
G1 Z-0.3
Z-2.4
G3 X4.392 Y9 I0.139 J0
X4.114 Y9 I-0.139 J0
G1 Z-0.6
Z-2.7
G3 X4.392 Y9 I0.139 J0
X4.114 Y9 I-0.139 J0
G1 Z-0.9
Z-3
G3 X4.392 Y9 I0.139 J0
X4.114 Y9 I-0.139 J0
G1 Z-1.2
Z-3.1
G3 X4.392 Y9 I0.139 J0
X4.114 Y9 I-0.139 J0
G0 Z4
X10.002 Y7.854
Z3
G1 Z1.8 F400
Z-0.3
X9.992 Y7.844
X10.002 Y7.834
X10.012 Y7.844
X10.002 Y7.854
Z1.5
Z-0.6
X9.992 Y7.844
X10.002 Y7.834
X10.012 Y7.844
X10.002 Y7.854
Z1.2
Z-0.9
X9.992 Y7.844
X10.002 Y7.834
X10.012 Y7.844
X10.002 Y7.854
Z0.9
Z-1.2
X9.992 Y7.844
X10.002 Y7.834
X10.012 Y7.844
X10.002 Y7.854
Z0.6
Z-1.5
X9.992 Y7.844
X10.002 Y7.834
X10.012 Y7.844
X10.002 Y7.854
Z0.3
Z-1.8
X9.992 Y7.844
X10.002 Y7.834
X10.012 Y7.844
X10.002 Y7.854
Z0
Z-2.1
X9.992 Y7.844
X10.002 Y7.834
X10.012 Y7.844
X10.002 Y7.854
Z-0.3
Z-2.4
X9.992 Y7.844
X10.002 Y7.834
X10.012 Y7.844
X10.002 Y7.854
Z-0.6
Z-2.7
X9.992 Y7.844
X10.002 Y7.834
X10.012 Y7.844
X10.002 Y7.854
Z-0.9
Z-3
X9.992 Y7.844
X10.002 Y7.834
X10.012 Y7.844
X10.002 Y7.854
Z-1.2
Z-3.1
X9.992 Y7.844
X10.002 Y7.834
X10.012 Y7.844
X10.002 Y7.854
G0 Z4
X12 Y7.834
Z3
G1 Z1.8 F400
Z-0.3
Y7.854
Y7.834
Z1.5
Z-0.6
Y7.854
Y7.834
Z1.2
Z-0.9
Y7.854
Y7.834
Z0.9
Z-1.2
Y7.854
Y7.834
Z0.6
Z-1.5
Y7.854
Y7.834
Z0.3
Z-1.8
Y7.854
Y7.834
Z0
Z-2.1
Y7.854
Y7.834
Z-0.3
Z-2.4
Y7.854
Y7.834
Z-0.6
Z-2.7
Y7.854
Y7.834
Z-0.9
Z-3
Y7.854
Y7.834
Z-1.2
Z-3.1
Y7.854
Y7.834
G0 Z4
Y5.852
Z3
G1 Z1.8 F400
Z-0.3
Y5.832
Y5.852
Z1.5
Z-0.6
Y5.832
Y5.852
Z1.2
Z-0.9
Y5.832
Y5.852
Z0.9
Z-1.2
Y5.832
Y5.852
Z0.6
Z-1.5
Y5.832
Y5.852
Z0.3
Z-1.8
Y5.832
Y5.852
Z0
Z-2.1
Y5.832
Y5.852
Z-0.3
Z-2.4
Y5.832
Y5.852
Z-0.6
Z-2.7
Y5.832
Y5.852
Z-0.9
Z-3
Y5.832
Y5.852
Z-1.2
Z-3.1
Y5.832
Y5.852
G0 Z4
X13.99 Y7.846
Z3
G1 Z1.8 F400
Z-0.3
X14.01
X13.99
Z1.5
Z-0.6
X14.01
X13.99
Z1.2
Z-0.9
X14.01
X13.99
Z0.9
Z-1.2
X14.01
X13.99
Z0.6
Z-1.5
X14.01
X13.99
Z0.3
Z-1.8
X14.01
X13.99
Z0
Z-2.1
X14.01
X13.99
Z-0.3
Z-2.4
X14.01
X13.99
Z-0.6
Z-2.7
X14.01
X13.99
Z-0.9
Z-3
X14.01
X13.99
Z-1.2
Z-3.1
X14.01
X13.99
G0 Z4
X19.608 Y9
Z3
G1 Z1.8 F400
Z-0.3
G3 X19.886 Y9 I0.139 J0
X19.608 Y9 I-0.139 J0
G1 Z1.5
Z-0.6
G3 X19.886 Y9 I0.139 J0
X19.608 Y9 I-0.139 J0
G1 Z1.2
Z-0.9
G3 X19.886 Y9 I0.139 J0
X19.608 Y9 I-0.139 J0
G1 Z0.9
Z-1.2
G3 X19.886 Y9 I0.139 J0
X19.608 Y9 I-0.139 J0
G1 Z0.6
Z-1.5
G3 X19.886 Y9 I0.139 J0
X19.608 Y9 I-0.139 J0
G1 Z0.3
Z-1.8
G3 X19.886 Y9 I0.139 J0
X19.608 Y9 I-0.139 J0
G1 Z0
Z-2.1
G3 X19.886 Y9 I0.139 J0
X19.608 Y9 I-0.139 J0
G1 Z-0.3
Z-2.4
G3 X19.886 Y9 I0.139 J0
X19.608 Y9 I-0.139 J0
G1 Z-0.6
Z-2.7
G3 X19.886 Y9 I0.139 J0
X19.608 Y9 I-0.139 J0
G1 Z-0.9
Z-3
G3 X19.886 Y9 I0.139 J0
X19.608 Y9 I-0.139 J0
G1 Z-1.2
Z-3.1
G3 X19.886 Y9 I0.139 J0
X19.608 Y9 I-0.139 J0
G0 Z4
Y14
Z3
G1 Z1.8 F400
Z-0.3
G3 X19.886 Y14 I0.139 J0
X19.608 Y14 I-0.139 J0
G1 Z1.5
Z-0.6
G3 X19.886 Y14 I0.139 J0
X19.608 Y14 I-0.139 J0
G1 Z1.2
Z-0.9
G3 X19.886 Y14 I0.139 J0
X19.608 Y14 I-0.139 J0
G1 Z0.9
Z-1.2
G3 X19.886 Y14 I0.139 J0
X19.608 Y14 I-0.139 J0
G1 Z0.6
Z-1.5
G3 X19.886 Y14 I0.139 J0
X19.608 Y14 I-0.139 J0
G1 Z0.3
Z-1.8
G3 X19.886 Y14 I0.139 J0
X19.608 Y14 I-0.139 J0
G1 Z0
Z-2.1
G3 X19.886 Y14 I0.139 J0
X19.608 Y14 I-0.139 J0
G1 Z-0.3
Z-2.4
G3 X19.886 Y14 I0.139 J0
X19.608 Y14 I-0.139 J0
G1 Z-0.6
Z-2.7
G3 X19.886 Y14 I0.139 J0
X19.608 Y14 I-0.139 J0
G1 Z-0.9
Z-3
G3 X19.886 Y14 I0.139 J0
X19.608 Y14 I-0.139 J0
G1 Z-1.2
Z-3.1
G3 X19.886 Y14 I0.139 J0
X19.608 Y14 I-0.139 J0
G0 Z4
X19.747 Y21.361
Z3
G1 Z1.8 F400
Z-0.3
G3 X19.747 Y21.639 I0 J0.139
X19.747 Y21.361 I0 J-0.139
G1 Z1.5
Z-0.6
G3 X19.747 Y21.639 I0 J0.139
X19.747 Y21.361 I0 J-0.139
G1 Z1.2
Z-0.9
G3 X19.747 Y21.639 I0 J0.139
X19.747 Y21.361 I0 J-0.139
G1 Z0.9
Z-1.2
G3 X19.747 Y21.639 I0 J0.139
X19.747 Y21.361 I0 J-0.139
G1 Z0.6
Z-1.5
G3 X19.747 Y21.639 I0 J0.139
X19.747 Y21.361 I0 J-0.139
G1 Z0.3
Z-1.8
G3 X19.747 Y21.639 I0 J0.139
X19.747 Y21.361 I0 J-0.139
G1 Z0
Z-2.1
G3 X19.747 Y21.639 I0 J0.139
X19.747 Y21.361 I0 J-0.139
G1 Z-0.3
Z-2.4
G3 X19.747 Y21.639 I0 J0.139
X19.747 Y21.361 I0 J-0.139
G1 Z-0.6
Z-2.7
G3 X19.747 Y21.639 I0 J0.139
X19.747 Y21.361 I0 J-0.139
G1 Z-0.9
Z-3
G3 X19.747 Y21.639 I0 J0.139
X19.747 Y21.361 I0 J-0.139
G1 Z-1.2
Z-3.1
G3 X19.747 Y21.639 I0 J0.139
X19.747 Y21.361 I0 J-0.139
G0 Z4
X19.608 Y26.5
Z3
G1 Z1.8 F400
Z-0.3
G3 X19.886 Y26.5 I0.139 J0
X19.608 Y26.5 I-0.139 J0
G1 Z1.5
Z-0.6
G3 X19.886 Y26.5 I0.139 J0
X19.608 Y26.5 I-0.139 J0
G1 Z1.2
Z-0.9
G3 X19.886 Y26.5 I0.139 J0
X19.608 Y26.5 I-0.139 J0
G1 Z0.9
Z-1.2
G3 X19.886 Y26.5 I0.139 J0
X19.608 Y26.5 I-0.139 J0
G1 Z0.6
Z-1.5
G3 X19.886 Y26.5 I0.139 J0
X19.608 Y26.5 I-0.139 J0
G1 Z0.3
Z-1.8
G3 X19.886 Y26.5 I0.139 J0
X19.608 Y26.5 I-0.139 J0
G1 Z0
Z-2.1
G3 X19.886 Y26.5 I0.139 J0
X19.608 Y26.5 I-0.139 J0
G1 Z-0.3
Z-2.4
G3 X19.886 Y26.5 I0.139 J0
X19.608 Y26.5 I-0.139 J0
G1 Z-0.6
Z-2.7
G3 X19.886 Y26.5 I0.139 J0
X19.608 Y26.5 I-0.139 J0
G1 Z-0.9
Z-3
G3 X19.886 Y26.5 I0.139 J0
X19.608 Y26.5 I-0.139 J0
G1 Z-1.2
Z-3.1
G3 X19.886 Y26.5 I0.139 J0
X19.608 Y26.5 I-0.139 J0
G0 Z4
X19.747 Y43.861
Z3
G1 Z1.8 F400
Z-0.3
G3 X19.747 Y44.139 I0 J0.139
X19.747 Y43.861 I0 J-0.139
G1 Z1.5
Z-0.6
G3 X19.747 Y44.139 I0 J0.139
X19.747 Y43.861 I0 J-0.139
G1 Z1.2
Z-0.9
G3 X19.747 Y44.139 I0 J0.139
X19.747 Y43.861 I0 J-0.139
G1 Z0.9
Z-1.2
G3 X19.747 Y44.139 I0 J0.139
X19.747 Y43.861 I0 J-0.139
G1 Z0.6
Z-1.5
G3 X19.747 Y44.139 I0 J0.139
X19.747 Y43.861 I0 J-0.139
G1 Z0.3
Z-1.8
G3 X19.747 Y44.139 I0 J0.139
X19.747 Y43.861 I0 J-0.139
G1 Z0
Z-2.1
G3 X19.747 Y44.139 I0 J0.139
X19.747 Y43.861 I0 J-0.139
G1 Z-0.3
Z-2.4
G3 X19.747 Y44.139 I0 J0.139
X19.747 Y43.861 I0 J-0.139
G1 Z-0.6
Z-2.7
G3 X19.747 Y44.139 I0 J0.139
X19.747 Y43.861 I0 J-0.139
G1 Z-0.9
Z-3
G3 X19.747 Y44.139 I0 J0.139
X19.747 Y43.861 I0 J-0.139
G1 Z-1.2
Z-3.1
G3 X19.747 Y44.139 I0 J0.139
X19.747 Y43.861 I0 J-0.139
G0 Z4
X4.253 Y38.861
Z3
G1 Z1.8 F400
Z-0.3
G3 X4.253 Y39.139 I0 J0.139
X4.253 Y38.861 I0 J-0.139
G1 Z1.5
Z-0.6
G3 X4.253 Y39.139 I0 J0.139
X4.253 Y38.861 I0 J-0.139
G1 Z1.2
Z-0.9
G3 X4.253 Y39.139 I0 J0.139
X4.253 Y38.861 I0 J-0.139
G1 Z0.9
Z-1.2
G3 X4.253 Y39.139 I0 J0.139
X4.253 Y38.861 I0 J-0.139
G1 Z0.6
Z-1.5
G3 X4.253 Y39.139 I0 J0.139
X4.253 Y38.861 I0 J-0.139
G1 Z0.3
Z-1.8
G3 X4.253 Y39.139 I0 J0.139
X4.253 Y38.861 I0 J-0.139
G1 Z0
Z-2.1
G3 X4.253 Y39.139 I0 J0.139
X4.253 Y38.861 I0 J-0.139
G1 Z-0.3
Z-2.4
G3 X4.253 Y39.139 I0 J0.139
X4.253 Y38.861 I0 J-0.139
G1 Z-0.6
Z-2.7
G3 X4.253 Y39.139 I0 J0.139
X4.253 Y38.861 I0 J-0.139
G1 Z-0.9
Z-3
G3 X4.253 Y39.139 I0 J0.139
X4.253 Y38.861 I0 J-0.139
G1 Z-1.2
Z-3.1
G3 X4.253 Y39.139 I0 J0.139
X4.253 Y38.861 I0 J-0.139
G0 Z4
Y36.639
Z3
G1 Z1.8 F400
Z-0.3
G3 X4.253 Y36.361 I0 J-0.139
X4.253 Y36.639 I0 J0.139
G1 Z1.5
Z-0.6
G3 X4.253 Y36.361 I0 J-0.139
X4.253 Y36.639 I0 J0.139
G1 Z1.2
Z-0.9
G3 X4.253 Y36.361 I0 J-0.139
X4.253 Y36.639 I0 J0.139
G1 Z0.9
Z-1.2
G3 X4.253 Y36.361 I0 J-0.139
X4.253 Y36.639 I0 J0.139
G1 Z0.6
Z-1.5
G3 X4.253 Y36.361 I0 J-0.139
X4.253 Y36.639 I0 J0.139
G1 Z0.3
Z-1.8
G3 X4.253 Y36.361 I0 J-0.139
X4.253 Y36.639 I0 J0.139
G1 Z0
Z-2.1
G3 X4.253 Y36.361 I0 J-0.139
X4.253 Y36.639 I0 J0.139
G1 Z-0.3
Z-2.4
G3 X4.253 Y36.361 I0 J-0.139
X4.253 Y36.639 I0 J0.139
G1 Z-0.6
Z-2.7
G3 X4.253 Y36.361 I0 J-0.139
X4.253 Y36.639 I0 J0.139
G1 Z-0.9
Z-3
G3 X4.253 Y36.361 I0 J-0.139
X4.253 Y36.639 I0 J0.139
G1 Z-1.2
Z-3.1
G3 X4.253 Y36.361 I0 J-0.139
X4.253 Y36.639 I0 J0.139
G0 Z7

(2D Pocket1 3)
X11.522 Y48.676
Z7
Z2
G1 Z1.3 F400
Z-0.3
Y48.67
Y13.957
G3 X11.842 Y13.637 I0.319 J0
G1 X12.158
G3 X12.478 Y13.957 I0 J0.319
G1 Y48.672
G3 X12.278 Y48.872 I-0.2 J0
G1 X10.574
G3 X10.374 Y48.672 I0 J-0.2
G1 Y12.808
G3 X10.693 Y12.489 I0.319 J0
G1 X13.307
G3 X13.626 Y12.808 I0 J0.319
G1 Y48.67
G3 X13.426 Y48.87 I-0.2 J0
G1 X9.425 Y48.863
G3 X9.226 Y48.663 I0 J-0.2
G1 Y11.66
G3 X9.545 Y11.341 I0.319 J0
G1 X14.455
G3 X14.774 Y11.66 I0 J0.319
G1 Y48.667
G3 X14.574 Y48.867 I-0.2 J0
G1 X8.277 Y48.865
G3 X8.077 Y48.665 I0 J-0.2
G1 Y10.512
G3 X8.397 Y10.192 I0.319 J0
G1 X15.603
G3 X15.923 Y10.512 I0 J0.319
G1 Y48.665
G3 X15.723 Y48.865 I-0.2 J0
G1 X7.129 Y48.868
G3 X6.929 Y48.668 I0 J-0.2
G1 Y9.363
G3 X7.248 Y9.044 I0.319 J0
G1 X16.752
G3 X17.071 Y9.363 I0 J0.319
G1 Y48.662
G3 X16.871 Y48.862 I-0.2 J0
G1 X5.981 Y48.87
G3 X5.781 Y48.67 I0 J-0.2
G1 Y8.215
G3 X6.1 Y7.896 I0.319 J0
G1 X17.9
G3 X18.219 Y8.215 I0 J0.319
G1 Y48.672
G3 X18.019 Y48.872 I-0.2 J0
G1 X4.832 Y48.873
G3 X4.632 Y48.673 I0 J-0.2
G1 Y7.067
G3 X4.952 Y6.747 I0.319 J0
G1 X19.048
G3 X19.368 Y7.067 I0 J0.319
G1 X19.358 Y16.093
X19.357 Y16.9
X19.352 Y21.098
X19.351 Y21.893
X19.323 Y48.024
Y48.667
G3 X19.123 Y48.867 I-0.2 J0
G1 X3.679 Y48.872
G3 X3.479 Y48.672 I0 J-0.2
G1 Y5.594
X20.521
Y15.895
X20.517 Y15.917
X20.506 Y15.937
X20.49 Y15.952
X20.35 Y16.041
X20.333 Y16.056
X20.322 Y16.075
X20.319 Y16.098
Y16.909
X20.322 Y16.931
X20.333 Y16.951
X20.35 Y16.966
X20.49 Y17.054
X20.506 Y17.069
X20.517 Y17.089
X20.521 Y17.111
Y20.9
X20.517 Y20.922
X20.506 Y20.942
X20.49 Y20.957
X20.35 Y21.045
X20.333 Y21.06
X20.322 Y21.08
X20.319 Y21.102
Y21.898
X20.322 Y21.92
X20.333 Y21.94
X20.35 Y21.955
X20.49 Y22.044
X20.506 Y22.059
X20.517 Y22.078
X20.521 Y22.101
Y48.024
Y48.667
G3 X20.321 Y48.867 I-0.2 J0
G1 X11.722 Y48.876
G3 X11.522 Y48.676 I0 J-0.2
G1 Z-0.6
Y48.67
Y13.957
G3 X11.842 Y13.637 I0.319 J0
G1 X12.158
G3 X12.478 Y13.957 I0 J0.319
G1 Y48.672
G3 X12.278 Y48.872 I-0.2 J0
G1 X10.574
G3 X10.374 Y48.672 I0 J-0.2
G1 Y12.808
G3 X10.693 Y12.489 I0.319 J0
G1 X13.307
G3 X13.626 Y12.808 I0 J0.319
G1 Y48.67
G3 X13.426 Y48.87 I-0.2 J0
G1 X9.425 Y48.863
G3 X9.226 Y48.663 I0 J-0.2
G1 Y11.66
G3 X9.545 Y11.341 I0.319 J0
G1 X14.455
G3 X14.774 Y11.66 I0 J0.319
G1 Y48.667
G3 X14.574 Y48.867 I-0.2 J0
G1 X8.277 Y48.865
G3 X8.077 Y48.665 I0 J-0.2
G1 Y10.512
G3 X8.397 Y10.192 I0.319 J0
G1 X15.603
G3 X15.923 Y10.512 I0 J0.319
G1 Y48.665
G3 X15.723 Y48.865 I-0.2 J0
G1 X7.129 Y48.868
G3 X6.929 Y48.668 I0 J-0.2
G1 Y9.363
G3 X7.248 Y9.044 I0.319 J0
G1 X16.752
G3 X17.071 Y9.363 I0 J0.319
G1 Y48.662
G3 X16.871 Y48.862 I-0.2 J0
G1 X5.981 Y48.87
G3 X5.781 Y48.67 I0 J-0.2
G1 Y8.215
G3 X6.1 Y7.896 I0.319 J0
G1 X17.9
G3 X18.219 Y8.215 I0 J0.319
G1 Y48.672
G3 X18.019 Y48.872 I-0.2 J0
G1 X4.832 Y48.873
G3 X4.632 Y48.673 I0 J-0.2
G1 Y7.067
G3 X4.952 Y6.747 I0.319 J0
G1 X19.048
G3 X19.368 Y7.067 I0 J0.319
G1 X19.358 Y16.093
X19.357 Y16.9
X19.352 Y21.098
X19.351 Y21.893
X19.323 Y48.024
Y48.667
G3 X19.123 Y48.867 I-0.2 J0
G1 X3.679 Y48.872
G3 X3.479 Y48.672 I0 J-0.2
G1 Y5.594
X20.521
Y15.895
X20.517 Y15.917
X20.506 Y15.937
X20.49 Y15.952
X20.35 Y16.041
X20.333 Y16.056
X20.322 Y16.075
X20.319 Y16.098
Y16.909
X20.322 Y16.931
X20.333 Y16.951
X20.35 Y16.966
X20.49 Y17.054
X20.506 Y17.069
X20.517 Y17.089
X20.521 Y17.111
Y20.9
X20.517 Y20.922
X20.506 Y20.942
X20.49 Y20.957
X20.35 Y21.045
X20.333 Y21.06
X20.322 Y21.08
X20.319 Y21.102
Y21.898
X20.322 Y21.92
X20.333 Y21.94
X20.35 Y21.955
X20.49 Y22.044
X20.506 Y22.059
X20.517 Y22.078
X20.521 Y22.101
Y48.024
Y48.667
G3 X20.321 Y48.867 I-0.2 J0
G1 X11.722 Y48.876
G3 X11.522 Y48.676 I0 J-0.2
G1 Z-0.9
Y48.67
Y13.957
G3 X11.842 Y13.637 I0.319 J0
G1 X12.158
G3 X12.478 Y13.957 I0 J0.319
G1 Y48.672
G3 X12.278 Y48.872 I-0.2 J0
G1 X10.574
G3 X10.374 Y48.672 I0 J-0.2
G1 Y12.808
G3 X10.693 Y12.489 I0.319 J0
G1 X13.307
G3 X13.626 Y12.808 I0 J0.319
G1 Y48.67
G3 X13.426 Y48.87 I-0.2 J0
G1 X9.425 Y48.863
G3 X9.226 Y48.663 I0 J-0.2
G1 Y11.66
G3 X9.545 Y11.341 I0.319 J0
G1 X14.455
G3 X14.774 Y11.66 I0 J0.319
G1 Y48.667
G3 X14.574 Y48.867 I-0.2 J0
G1 X8.277 Y48.865
G3 X8.077 Y48.665 I0 J-0.2
G1 Y10.512
G3 X8.397 Y10.192 I0.319 J0
G1 X15.603
G3 X15.923 Y10.512 I0 J0.319
G1 Y48.665
G3 X15.723 Y48.865 I-0.2 J0
G1 X7.129 Y48.868
G3 X6.929 Y48.668 I0 J-0.2
G1 Y9.363
G3 X7.248 Y9.044 I0.319 J0
G1 X16.752
G3 X17.071 Y9.363 I0 J0.319
G1 Y48.662
G3 X16.871 Y48.862 I-0.2 J0
G1 X5.981 Y48.87
G3 X5.781 Y48.67 I0 J-0.2
G1 Y8.215
G3 X6.1 Y7.896 I0.319 J0
G1 X17.9
G3 X18.219 Y8.215 I0 J0.319
G1 Y48.672
G3 X18.019 Y48.872 I-0.2 J0
G1 X4.832 Y48.873
G3 X4.632 Y48.673 I0 J-0.2
G1 Y7.067
G3 X4.952 Y6.747 I0.319 J0
G1 X19.048
G3 X19.368 Y7.067 I0 J0.319
G1 X19.358 Y16.093
X19.357 Y16.9
X19.352 Y21.098
X19.351 Y21.893
X19.323 Y48.024
Y48.667
G3 X19.123 Y48.867 I-0.2 J0
G1 X3.679 Y48.872
G3 X3.479 Y48.672 I0 J-0.2
G1 Y5.594
X20.521
Y15.895
X20.517 Y15.917
X20.506 Y15.937
X20.49 Y15.952
X20.35 Y16.041
X20.333 Y16.056
X20.322 Y16.075
X20.319 Y16.098
Y16.909
X20.322 Y16.931
X20.333 Y16.951
X20.35 Y16.966
X20.49 Y17.054
X20.506 Y17.069
X20.517 Y17.089
X20.521 Y17.111
Y20.9
X20.517 Y20.922
X20.506 Y20.942
X20.49 Y20.957
X20.35 Y21.045
X20.333 Y21.06
X20.322 Y21.08
X20.319 Y21.102
Y21.898
X20.322 Y21.92
X20.333 Y21.94
X20.35 Y21.955
X20.49 Y22.044
X20.506 Y22.059
X20.517 Y22.078
X20.521 Y22.101
Y48.024
Y48.667
G3 X20.321 Y48.867 I-0.2 J0
G1 X11.722 Y48.876
G3 X11.522 Y48.676 I0 J-0.2
G1 Z-1.2
Y48.67
Y13.957
G3 X11.842 Y13.637 I0.319 J0
G1 X12.158
G3 X12.478 Y13.957 I0 J0.319
G1 Y48.672
G3 X12.278 Y48.872 I-0.2 J0
G1 X10.574
G3 X10.374 Y48.672 I0 J-0.2
G1 Y12.808
G3 X10.693 Y12.489 I0.319 J0
G1 X13.307
G3 X13.626 Y12.808 I0 J0.319
G1 Y48.67
G3 X13.426 Y48.87 I-0.2 J0
G1 X9.425 Y48.863
G3 X9.226 Y48.663 I0 J-0.2
G1 Y11.66
G3 X9.545 Y11.341 I0.319 J0
G1 X14.455
G3 X14.774 Y11.66 I0 J0.319
G1 Y48.667
G3 X14.574 Y48.867 I-0.2 J0
G1 X8.277 Y48.865
G3 X8.077 Y48.665 I0 J-0.2
G1 Y10.512
G3 X8.397 Y10.192 I0.319 J0
G1 X15.603
G3 X15.923 Y10.512 I0 J0.319
G1 Y48.665
G3 X15.723 Y48.865 I-0.2 J0
G1 X7.129 Y48.868
G3 X6.929 Y48.668 I0 J-0.2
G1 Y9.363
G3 X7.248 Y9.044 I0.319 J0
G1 X16.752
G3 X17.071 Y9.363 I0 J0.319
G1 Y48.662
G3 X16.871 Y48.862 I-0.2 J0
G1 X5.981 Y48.87
G3 X5.781 Y48.67 I0 J-0.2
G1 Y8.215
G3 X6.1 Y7.896 I0.319 J0
G1 X17.9
G3 X18.219 Y8.215 I0 J0.319
G1 Y48.672
G3 X18.019 Y48.872 I-0.2 J0
G1 X4.832 Y48.873
G3 X4.632 Y48.673 I0 J-0.2
G1 Y7.067
G3 X4.952 Y6.747 I0.319 J0
G1 X19.048
G3 X19.368 Y7.067 I0 J0.319
G1 X19.358 Y16.093
X19.357 Y16.9
X19.352 Y21.098
X19.351 Y21.893
X19.323 Y48.024
Y48.667
G3 X19.123 Y48.867 I-0.2 J0
G1 X3.679 Y48.872
G3 X3.479 Y48.672 I0 J-0.2
G1 Y5.594
X20.521
Y15.895
X20.517 Y15.917
X20.506 Y15.937
X20.49 Y15.952
X20.35 Y16.041
X20.333 Y16.056
X20.322 Y16.075
X20.319 Y16.098
Y16.909
X20.322 Y16.931
X20.333 Y16.951
X20.35 Y16.966
X20.49 Y17.054
X20.506 Y17.069
X20.517 Y17.089
X20.521 Y17.111
Y20.9
X20.517 Y20.922
X20.506 Y20.942
X20.49 Y20.957
X20.35 Y21.045
X20.333 Y21.06
X20.322 Y21.08
X20.319 Y21.102
Y21.898
X20.322 Y21.92
X20.333 Y21.94
X20.35 Y21.955
X20.49 Y22.044
X20.506 Y22.059
X20.517 Y22.078
X20.521 Y22.101
Y48.024
Y48.667
G3 X20.321 Y48.867 I-0.2 J0
G1 X11.722 Y48.876
G3 X11.522 Y48.676 I0 J-0.2
G1 Z-1.5
Y48.67
Y13.957
G3 X11.842 Y13.637 I0.319 J0
G1 X12.158
G3 X12.478 Y13.957 I0 J0.319
G1 Y48.672
G3 X12.278 Y48.872 I-0.2 J0
G1 X10.574
G3 X10.374 Y48.672 I0 J-0.2
G1 Y12.808
G3 X10.693 Y12.489 I0.319 J0
G1 X13.307
G3 X13.626 Y12.808 I0 J0.319
G1 Y48.67
G3 X13.426 Y48.87 I-0.2 J0
G1 X9.425 Y48.863
G3 X9.226 Y48.663 I0 J-0.2
G1 Y11.66
G3 X9.545 Y11.341 I0.319 J0
G1 X14.455
G3 X14.774 Y11.66 I0 J0.319
G1 Y48.667
G3 X14.574 Y48.867 I-0.2 J0
G1 X8.277 Y48.865
G3 X8.077 Y48.665 I0 J-0.2
G1 Y10.512
G3 X8.397 Y10.192 I0.319 J0
G1 X15.603
G3 X15.923 Y10.512 I0 J0.319
G1 Y48.665
G3 X15.723 Y48.865 I-0.2 J0
G1 X7.129 Y48.868
G3 X6.929 Y48.668 I0 J-0.2
G1 Y9.363
G3 X7.248 Y9.044 I0.319 J0
G1 X16.752
G3 X17.071 Y9.363 I0 J0.319
G1 Y48.662
G3 X16.871 Y48.862 I-0.2 J0
G1 X5.981 Y48.87
G3 X5.781 Y48.67 I0 J-0.2
G1 Y8.215
G3 X6.1 Y7.896 I0.319 J0
G1 X17.9
G3 X18.219 Y8.215 I0 J0.319
G1 Y48.672
G3 X18.019 Y48.872 I-0.2 J0
G1 X4.832 Y48.873
G3 X4.632 Y48.673 I0 J-0.2
G1 Y7.067
G3 X4.952 Y6.747 I0.319 J0
G1 X19.048
G3 X19.368 Y7.067 I0 J0.319
G1 X19.358 Y16.093
X19.357 Y16.9
X19.352 Y21.098
X19.351 Y21.893
X19.323 Y48.024
Y48.667
G3 X19.123 Y48.867 I-0.2 J0
G1 X3.679 Y48.872
G3 X3.479 Y48.672 I0 J-0.2
G1 Y5.594
X20.521
Y15.895
X20.517 Y15.917
X20.506 Y15.937
X20.49 Y15.952
X20.35 Y16.041
X20.333 Y16.056
X20.322 Y16.075
X20.319 Y16.098
Y16.909
X20.322 Y16.931
X20.333 Y16.951
X20.35 Y16.966
X20.49 Y17.054
X20.506 Y17.069
X20.517 Y17.089
X20.521 Y17.111
Y20.9
X20.517 Y20.922
X20.506 Y20.942
X20.49 Y20.957
X20.35 Y21.045
X20.333 Y21.06
X20.322 Y21.08
X20.319 Y21.102
Y21.898
X20.322 Y21.92
X20.333 Y21.94
X20.35 Y21.955
X20.49 Y22.044
X20.506 Y22.059
X20.517 Y22.078
X20.521 Y22.101
Y48.024
Y48.667
G3 X20.321 Y48.867 I-0.2 J0
G1 X11.722 Y48.876
G3 X11.522 Y48.676 I0 J-0.2
G1 Z-1.6
Y48.67
Y13.957
G3 X11.842 Y13.637 I0.319 J0
G1 X12.158
G3 X12.478 Y13.957 I0 J0.319
G1 Y48.672
G3 X12.278 Y48.872 I-0.2 J0
G1 X10.574
G3 X10.374 Y48.672 I0 J-0.2
G1 Y12.808
G3 X10.693 Y12.489 I0.319 J0
G1 X13.307
G3 X13.626 Y12.808 I0 J0.319
G1 Y48.67
G3 X13.426 Y48.87 I-0.2 J0
G1 X9.425 Y48.863
G3 X9.226 Y48.663 I0 J-0.2
G1 Y11.66
G3 X9.545 Y11.341 I0.319 J0
G1 X14.455
G3 X14.774 Y11.66 I0 J0.319
G1 Y48.667
G3 X14.574 Y48.867 I-0.2 J0
G1 X8.277 Y48.865
G3 X8.077 Y48.665 I0 J-0.2
G1 Y10.512
G3 X8.397 Y10.192 I0.319 J0
G1 X15.603
G3 X15.923 Y10.512 I0 J0.319
G1 Y48.665
G3 X15.723 Y48.865 I-0.2 J0
G1 X7.129 Y48.868
G3 X6.929 Y48.668 I0 J-0.2
G1 Y9.363
G3 X7.248 Y9.044 I0.319 J0
G1 X16.752
G3 X17.071 Y9.363 I0 J0.319
G1 Y48.662
G3 X16.871 Y48.862 I-0.2 J0
G1 X5.981 Y48.87
G3 X5.781 Y48.67 I0 J-0.2
G1 Y8.215
G3 X6.1 Y7.896 I0.319 J0
G1 X17.9
G3 X18.219 Y8.215 I0 J0.319
G1 Y48.672
G3 X18.019 Y48.872 I-0.2 J0
G1 X4.832 Y48.873
G3 X4.632 Y48.673 I0 J-0.2
G1 Y7.067
G3 X4.952 Y6.747 I0.319 J0
G1 X19.048
G3 X19.368 Y7.067 I0 J0.319
G1 X19.358 Y16.093
X19.357 Y16.9
X19.352 Y21.098
X19.351 Y21.893
X19.323 Y48.024
Y48.667
G3 X19.123 Y48.867 I-0.2 J0
G1 X3.679 Y48.872
G3 X3.479 Y48.672 I0 J-0.2
G1 Y5.594
X20.521
Y15.895
X20.517 Y15.917
X20.506 Y15.937
X20.49 Y15.952
X20.35 Y16.041
X20.333 Y16.056
X20.322 Y16.075
X20.319 Y16.098
Y16.909
X20.322 Y16.931
X20.333 Y16.951
X20.35 Y16.966
X20.49 Y17.054
X20.506 Y17.069
X20.517 Y17.089
X20.521 Y17.111
Y20.9
X20.517 Y20.922
X20.506 Y20.942
X20.49 Y20.957
X20.35 Y21.045
X20.333 Y21.06
X20.322 Y21.08
X20.319 Y21.102
Y21.898
X20.322 Y21.92
X20.333 Y21.94
X20.35 Y21.955
X20.49 Y22.044
X20.506 Y22.059
X20.517 Y22.078
X20.521 Y22.101
Y48.024
Y48.667
G0 Z7
X10.374 Y56.028
Z2
G1 Z1.3 F400
Z-0.3
Y56.016
Y55.988
G3 X10.693 Y55.669 I0.319 J0
G1 X13.307
G3 X13.626 Y55.988 I0 J0.319
G1 Y56.012
G3 X13.426 Y56.212 I-0.2 J0
G1 X9.426 Y56.22
G3 X9.226 Y56.02 I0 J-0.2
G1 Y54.84
G3 X9.545 Y54.521 I0.319 J0
G1 X14.455
G3 X14.774 Y54.84 I0 J0.319
G1 Y56.021
G3 X14.574 Y56.221 I-0.2 J0
G1 X8.277 Y56.223
G3 X8.077 Y56.023 I0 J-0.2
G1 Y53.692
G3 X8.397 Y53.372 I0.319 J0
G1 X15.603
G3 X15.923 Y53.692 I0 J0.319
G1 Y56.018
G3 X15.723 Y56.218 I-0.2 J0
G1 X7.129 Y56.213
G3 X6.929 Y56.013 I0 J-0.2
G1 Y52.543
G3 X7.248 Y52.224 I0.319 J0
G1 X16.752
G3 X17.071 Y52.543 I0 J0.319
G1 Y56.016
G3 X16.871 Y56.216 I-0.2 J0
G1 X5.981
G3 X5.781 Y56.016 I0 J-0.2
G1 Y51.395
G3 X6.1 Y51.076 I0.319 J0
G1 X17.9
G3 X18.219 Y51.395 I0 J0.319
G1 Y56.014
G3 X18.019 Y56.214 I-0.2 J0
G1 X4.832 Y56.218
G3 X4.632 Y56.018 I0 J-0.2
G1 Y50.247
G3 X4.952 Y49.927 I0.319 J0
G1 X19.048
G3 X19.368 Y50.247 I0 J0.319
G1 Y56.011
G3 X19.168 Y56.211 I-0.2 J0
G1 X3.679 Y56.218
G3 X3.479 Y56.018 I0 J-0.2
G1 Y48.774
X20.521
Y55.104
Y56.016
G3 X20.321 Y56.216 I-0.2 J0
G1 X10.574 Y56.228
G3 X10.374 Y56.028 I0 J-0.2
G1 Z-0.6
Y56.016
Y55.988
G3 X10.693 Y55.669 I0.319 J0
G1 X13.307
G3 X13.626 Y55.988 I0 J0.319
G1 Y56.012
G3 X13.426 Y56.212 I-0.2 J0
G1 X9.426 Y56.22
G3 X9.226 Y56.02 I0 J-0.2
G1 Y54.84
G3 X9.545 Y54.521 I0.319 J0
G1 X14.455
G3 X14.774 Y54.84 I0 J0.319
G1 Y56.021
G3 X14.574 Y56.221 I-0.2 J0
G1 X8.277 Y56.223
G3 X8.077 Y56.023 I0 J-0.2
G1 Y53.692
G3 X8.397 Y53.372 I0.319 J0
G1 X15.603
G3 X15.923 Y53.692 I0 J0.319
G1 Y56.018
G3 X15.723 Y56.218 I-0.2 J0
G1 X7.129 Y56.213
G3 X6.929 Y56.013 I0 J-0.2
G1 Y52.543
G3 X7.248 Y52.224 I0.319 J0
G1 X16.752
G3 X17.071 Y52.543 I0 J0.319
G1 Y56.016
G3 X16.871 Y56.216 I-0.2 J0
G1 X5.981
G3 X5.781 Y56.016 I0 J-0.2
G1 Y51.395
G3 X6.1 Y51.076 I0.319 J0
G1 X17.9
G3 X18.219 Y51.395 I0 J0.319
G1 Y56.014
G3 X18.019 Y56.214 I-0.2 J0
G1 X4.832 Y56.218
G3 X4.632 Y56.018 I0 J-0.2
G1 Y50.247
G3 X4.952 Y49.927 I0.319 J0
G1 X19.048
G3 X19.368 Y50.247 I0 J0.319
G1 Y56.011
G3 X19.168 Y56.211 I-0.2 J0
G1 X3.679 Y56.218
G3 X3.479 Y56.018 I0 J-0.2
G1 Y48.774
X20.521
Y55.104
Y56.016
G3 X20.321 Y56.216 I-0.2 J0
G1 X10.574 Y56.228
G3 X10.374 Y56.028 I0 J-0.2
G1 Z-0.9
Y56.016
Y55.988
G3 X10.693 Y55.669 I0.319 J0
G1 X13.307
G3 X13.626 Y55.988 I0 J0.319
G1 Y56.012
G3 X13.426 Y56.212 I-0.2 J0
G1 X9.426 Y56.22
G3 X9.226 Y56.02 I0 J-0.2
G1 Y54.84
G3 X9.545 Y54.521 I0.319 J0
G1 X14.455
G3 X14.774 Y54.84 I0 J0.319
G1 Y56.021
G3 X14.574 Y56.221 I-0.2 J0
G1 X8.277 Y56.223
G3 X8.077 Y56.023 I0 J-0.2
G1 Y53.692
G3 X8.397 Y53.372 I0.319 J0
G1 X15.603
G3 X15.923 Y53.692 I0 J0.319
G1 Y56.018
G3 X15.723 Y56.218 I-0.2 J0
G1 X7.129 Y56.213
G3 X6.929 Y56.013 I0 J-0.2
G1 Y52.543
G3 X7.248 Y52.224 I0.319 J0
G1 X16.752
G3 X17.071 Y52.543 I0 J0.319
G1 Y56.016
G3 X16.871 Y56.216 I-0.2 J0
G1 X5.981
G3 X5.781 Y56.016 I0 J-0.2
G1 Y51.395
G3 X6.1 Y51.076 I0.319 J0
G1 X17.9
G3 X18.219 Y51.395 I0 J0.319
G1 Y56.014
G3 X18.019 Y56.214 I-0.2 J0
G1 X4.832 Y56.218
G3 X4.632 Y56.018 I0 J-0.2
G1 Y50.247
G3 X4.952 Y49.927 I0.319 J0
G1 X19.048
G3 X19.368 Y50.247 I0 J0.319
G1 Y56.011
G3 X19.168 Y56.211 I-0.2 J0
G1 X3.679 Y56.218
G3 X3.479 Y56.018 I0 J-0.2
G1 Y48.774
X20.521
Y55.104
Y56.016
G3 X20.321 Y56.216 I-0.2 J0
G1 X10.574 Y56.228
G3 X10.374 Y56.028 I0 J-0.2
G1 Z-1.2
Y56.016
Y55.988
G3 X10.693 Y55.669 I0.319 J0
G1 X13.307
G3 X13.626 Y55.988 I0 J0.319
G1 Y56.012
G3 X13.426 Y56.212 I-0.2 J0
G1 X9.426 Y56.22
G3 X9.226 Y56.02 I0 J-0.2
G1 Y54.84
G3 X9.545 Y54.521 I0.319 J0
G1 X14.455
G3 X14.774 Y54.84 I0 J0.319
G1 Y56.021
G3 X14.574 Y56.221 I-0.2 J0
G1 X8.277 Y56.223
G3 X8.077 Y56.023 I0 J-0.2
G1 Y53.692
G3 X8.397 Y53.372 I0.319 J0
G1 X15.603
G3 X15.923 Y53.692 I0 J0.319
G1 Y56.018
G3 X15.723 Y56.218 I-0.2 J0
G1 X7.129 Y56.213
G3 X6.929 Y56.013 I0 J-0.2
G1 Y52.543
G3 X7.248 Y52.224 I0.319 J0
G1 X16.752
G3 X17.071 Y52.543 I0 J0.319
G1 Y56.016
G3 X16.871 Y56.216 I-0.2 J0
G1 X5.981
G3 X5.781 Y56.016 I0 J-0.2
G1 Y51.395
G3 X6.1 Y51.076 I0.319 J0
G1 X17.9
G3 X18.219 Y51.395 I0 J0.319
G1 Y56.014
G3 X18.019 Y56.214 I-0.2 J0
G1 X4.832 Y56.218
G3 X4.632 Y56.018 I0 J-0.2
G1 Y50.247
G3 X4.952 Y49.927 I0.319 J0
G1 X19.048
G3 X19.368 Y50.247 I0 J0.319
G1 Y56.011
G3 X19.168 Y56.211 I-0.2 J0
G1 X3.679 Y56.218
G3 X3.479 Y56.018 I0 J-0.2
G1 Y48.774
X20.521
Y55.104
Y56.016
G3 X20.321 Y56.216 I-0.2 J0
G1 X10.574 Y56.228
G3 X10.374 Y56.028 I0 J-0.2
G1 Z-1.5
Y56.016
Y55.988
G3 X10.693 Y55.669 I0.319 J0
G1 X13.307
G3 X13.626 Y55.988 I0 J0.319
G1 Y56.012
G3 X13.426 Y56.212 I-0.2 J0
G1 X9.426 Y56.22
G3 X9.226 Y56.02 I0 J-0.2
G1 Y54.84
G3 X9.545 Y54.521 I0.319 J0
G1 X14.455
G3 X14.774 Y54.84 I0 J0.319
G1 Y56.021
G3 X14.574 Y56.221 I-0.2 J0
G1 X8.277 Y56.223
G3 X8.077 Y56.023 I0 J-0.2
G1 Y53.692
G3 X8.397 Y53.372 I0.319 J0
G1 X15.603
G3 X15.923 Y53.692 I0 J0.319
G1 Y56.018
G3 X15.723 Y56.218 I-0.2 J0
G1 X7.129 Y56.213
G3 X6.929 Y56.013 I0 J-0.2
G1 Y52.543
G3 X7.248 Y52.224 I0.319 J0
G1 X16.752
G3 X17.071 Y52.543 I0 J0.319
G1 Y56.016
G3 X16.871 Y56.216 I-0.2 J0
G1 X5.981
G3 X5.781 Y56.016 I0 J-0.2
G1 Y51.395
G3 X6.1 Y51.076 I0.319 J0
G1 X17.9
G3 X18.219 Y51.395 I0 J0.319
G1 Y56.014
G3 X18.019 Y56.214 I-0.2 J0
G1 X4.832 Y56.218
G3 X4.632 Y56.018 I0 J-0.2
G1 Y50.247
G3 X4.952 Y49.927 I0.319 J0
G1 X19.048
G3 X19.368 Y50.247 I0 J0.319
G1 Y56.011
G3 X19.168 Y56.211 I-0.2 J0
G1 X3.679 Y56.218
G3 X3.479 Y56.018 I0 J-0.2
G1 Y48.774
X20.521
Y55.104
Y56.016
G3 X20.321 Y56.216 I-0.2 J0
G1 X10.574 Y56.228
G3 X10.374 Y56.028 I0 J-0.2
G1 Z-1.8
Y56.016
Y55.988
G3 X10.693 Y55.669 I0.319 J0
G1 X13.307
G3 X13.626 Y55.988 I0 J0.319
G1 Y56.012
G3 X13.426 Y56.212 I-0.2 J0
G1 X9.426 Y56.22
G3 X9.226 Y56.02 I0 J-0.2
G1 Y54.84
G3 X9.545 Y54.521 I0.319 J0
G1 X14.455
G3 X14.774 Y54.84 I0 J0.319
G1 Y56.021
G3 X14.574 Y56.221 I-0.2 J0
G1 X8.277 Y56.223
G3 X8.077 Y56.023 I0 J-0.2
G1 Y53.692
G3 X8.397 Y53.372 I0.319 J0
G1 X15.603
G3 X15.923 Y53.692 I0 J0.319
G1 Y56.018
G3 X15.723 Y56.218 I-0.2 J0
G1 X7.129 Y56.213
G3 X6.929 Y56.013 I0 J-0.2
G1 Y52.543
G3 X7.248 Y52.224 I0.319 J0
G1 X16.752
G3 X17.071 Y52.543 I0 J0.319
G1 Y56.016
G3 X16.871 Y56.216 I-0.2 J0
G1 X5.981
G3 X5.781 Y56.016 I0 J-0.2
G1 Y51.395
G3 X6.1 Y51.076 I0.319 J0
G1 X17.9
G3 X18.219 Y51.395 I0 J0.319
G1 Y56.014
G3 X18.019 Y56.214 I-0.2 J0
G1 X4.832 Y56.218
G3 X4.632 Y56.018 I0 J-0.2
G1 Y50.247
G3 X4.952 Y49.927 I0.319 J0
G1 X19.048
G3 X19.368 Y50.247 I0 J0.319
G1 Y56.011
G3 X19.168 Y56.211 I-0.2 J0
G1 X3.679 Y56.218
G3 X3.479 Y56.018 I0 J-0.2
G1 Y48.774
X20.521
Y55.104
Y56.016
G3 X20.321 Y56.216 I-0.2 J0
G1 X10.574 Y56.228
G3 X10.374 Y56.028 I0 J-0.2
G1 Z-2.1
Y56.016
Y55.988
G3 X10.693 Y55.669 I0.319 J0
G1 X13.307
G3 X13.626 Y55.988 I0 J0.319
G1 Y56.012
G3 X13.426 Y56.212 I-0.2 J0
G1 X9.426 Y56.22
G3 X9.226 Y56.02 I0 J-0.2
G1 Y54.84
G3 X9.545 Y54.521 I0.319 J0
G1 X14.455
G3 X14.774 Y54.84 I0 J0.319
G1 Y56.021
G3 X14.574 Y56.221 I-0.2 J0
G1 X8.277 Y56.223
G3 X8.077 Y56.023 I0 J-0.2
G1 Y53.692
G3 X8.397 Y53.372 I0.319 J0
G1 X15.603
G3 X15.923 Y53.692 I0 J0.319
G1 Y56.018
G3 X15.723 Y56.218 I-0.2 J0
G1 X7.129 Y56.213
G3 X6.929 Y56.013 I0 J-0.2
G1 Y52.543
G3 X7.248 Y52.224 I0.319 J0
G1 X16.752
G3 X17.071 Y52.543 I0 J0.319
G1 Y56.016
G3 X16.871 Y56.216 I-0.2 J0
G1 X5.981
G3 X5.781 Y56.016 I0 J-0.2
G1 Y51.395
G3 X6.1 Y51.076 I0.319 J0
G1 X17.9
G3 X18.219 Y51.395 I0 J0.319
G1 Y56.014
G3 X18.019 Y56.214 I-0.2 J0
G1 X4.832 Y56.218
G3 X4.632 Y56.018 I0 J-0.2
G1 Y50.247
G3 X4.952 Y49.927 I0.319 J0
G1 X19.048
G3 X19.368 Y50.247 I0 J0.319
G1 Y56.011
G3 X19.168 Y56.211 I-0.2 J0
G1 X3.679 Y56.218
G3 X3.479 Y56.018 I0 J-0.2
G1 Y48.774
X20.521
Y55.104
Y56.016
G3 X20.321 Y56.216 I-0.2 J0
G1 X10.574 Y56.228
G3 X10.374 Y56.028 I0 J-0.2
G1 Z-2.4
Y56.016
Y55.988
G3 X10.693 Y55.669 I0.319 J0
G1 X13.307
G3 X13.626 Y55.988 I0 J0.319
G1 Y56.012
G3 X13.426 Y56.212 I-0.2 J0
G1 X9.426 Y56.22
G3 X9.226 Y56.02 I0 J-0.2
G1 Y54.84
G3 X9.545 Y54.521 I0.319 J0
G1 X14.455
G3 X14.774 Y54.84 I0 J0.319
G1 Y56.021
G3 X14.574 Y56.221 I-0.2 J0
G1 X8.277 Y56.223
G3 X8.077 Y56.023 I0 J-0.2
G1 Y53.692
G3 X8.397 Y53.372 I0.319 J0
G1 X15.603
G3 X15.923 Y53.692 I0 J0.319
G1 Y56.018
G3 X15.723 Y56.218 I-0.2 J0
G1 X7.129 Y56.213
G3 X6.929 Y56.013 I0 J-0.2
G1 Y52.543
G3 X7.248 Y52.224 I0.319 J0
G1 X16.752
G3 X17.071 Y52.543 I0 J0.319
G1 Y56.016
G3 X16.871 Y56.216 I-0.2 J0
G1 X5.981
G3 X5.781 Y56.016 I0 J-0.2
G1 Y51.395
G3 X6.1 Y51.076 I0.319 J0
G1 X17.9
G3 X18.219 Y51.395 I0 J0.319
G1 Y56.014
G3 X18.019 Y56.214 I-0.2 J0
G1 X4.832 Y56.218
G3 X4.632 Y56.018 I0 J-0.2
G1 Y50.247
G3 X4.952 Y49.927 I0.319 J0
G1 X19.048
G3 X19.368 Y50.247 I0 J0.319
G1 Y56.011
G3 X19.168 Y56.211 I-0.2 J0
G1 X3.679 Y56.218
G3 X3.479 Y56.018 I0 J-0.2
G1 Y48.774
X20.521
Y55.104
Y56.016
G3 X20.321 Y56.216 I-0.2 J0
G1 X10.574 Y56.228
G3 X10.374 Y56.028 I0 J-0.2
G1 Z-2.7
Y56.016
Y55.988
G3 X10.693 Y55.669 I0.319 J0
G1 X13.307
G3 X13.626 Y55.988 I0 J0.319
G1 Y56.012
G3 X13.426 Y56.212 I-0.2 J0
G1 X9.426 Y56.22
G3 X9.226 Y56.02 I0 J-0.2
G1 Y54.84
G3 X9.545 Y54.521 I0.319 J0
G1 X14.455
G3 X14.774 Y54.84 I0 J0.319
G1 Y56.021
G3 X14.574 Y56.221 I-0.2 J0
G1 X8.277 Y56.223
G3 X8.077 Y56.023 I0 J-0.2
G1 Y53.692
G3 X8.397 Y53.372 I0.319 J0
G1 X15.603
G3 X15.923 Y53.692 I0 J0.319
G1 Y56.018
G3 X15.723 Y56.218 I-0.2 J0
G1 X7.129 Y56.213
G3 X6.929 Y56.013 I0 J-0.2
G1 Y52.543
G3 X7.248 Y52.224 I0.319 J0
G1 X16.752
G3 X17.071 Y52.543 I0 J0.319
G1 Y56.016
G3 X16.871 Y56.216 I-0.2 J0
G1 X5.981
G3 X5.781 Y56.016 I0 J-0.2
G1 Y51.395
G3 X6.1 Y51.076 I0.319 J0
G1 X17.9
G3 X18.219 Y51.395 I0 J0.319
G1 Y56.014
G3 X18.019 Y56.214 I-0.2 J0
G1 X4.832 Y56.218
G3 X4.632 Y56.018 I0 J-0.2
G1 Y50.247
G3 X4.952 Y49.927 I0.319 J0
G1 X19.048
G3 X19.368 Y50.247 I0 J0.319
G1 Y56.011
G3 X19.168 Y56.211 I-0.2 J0
G1 X3.679 Y56.218
G3 X3.479 Y56.018 I0 J-0.2
G1 Y48.774
X20.521
Y55.104
Y56.016
G3 X20.321 Y56.216 I-0.2 J0
G1 X10.574 Y56.228
G3 X10.374 Y56.028 I0 J-0.2
G1 Z-3
Y56.016
Y55.988
G3 X10.693 Y55.669 I0.319 J0
G1 X13.307
G3 X13.626 Y55.988 I0 J0.319
G1 Y56.012
G3 X13.426 Y56.212 I-0.2 J0
G1 X9.426 Y56.22
G3 X9.226 Y56.02 I0 J-0.2
G1 Y54.84
G3 X9.545 Y54.521 I0.319 J0
G1 X14.455
G3 X14.774 Y54.84 I0 J0.319
G1 Y56.021
G3 X14.574 Y56.221 I-0.2 J0
G1 X8.277 Y56.223
G3 X8.077 Y56.023 I0 J-0.2
G1 Y53.692
G3 X8.397 Y53.372 I0.319 J0
G1 X15.603
G3 X15.923 Y53.692 I0 J0.319
G1 Y56.018
G3 X15.723 Y56.218 I-0.2 J0
G1 X7.129 Y56.213
G3 X6.929 Y56.013 I0 J-0.2
G1 Y52.543
G3 X7.248 Y52.224 I0.319 J0
G1 X16.752
G3 X17.071 Y52.543 I0 J0.319
G1 Y56.016
G3 X16.871 Y56.216 I-0.2 J0
G1 X5.981
G3 X5.781 Y56.016 I0 J-0.2
G1 Y51.395
G3 X6.1 Y51.076 I0.319 J0
G1 X17.9
G3 X18.219 Y51.395 I0 J0.319
G1 Y56.014
G3 X18.019 Y56.214 I-0.2 J0
G1 X4.832 Y56.218
G3 X4.632 Y56.018 I0 J-0.2
G1 Y50.247
G3 X4.952 Y49.927 I0.319 J0
G1 X19.048
G3 X19.368 Y50.247 I0 J0.319
G1 Y56.011
G3 X19.168 Y56.211 I-0.2 J0
G1 X3.679 Y56.218
G3 X3.479 Y56.018 I0 J-0.2
G1 Y48.774
X20.521
Y55.104
Y56.016
G3 X20.321 Y56.216 I-0.2 J0
G1 X10.574 Y56.228
G3 X10.374 Y56.028 I0 J-0.2
G1 Z-3.3
Y56.016
Y55.988
G3 X10.693 Y55.669 I0.319 J0
G1 X13.307
G3 X13.626 Y55.988 I0 J0.319
G1 Y56.012
G3 X13.426 Y56.212 I-0.2 J0
G1 X9.426 Y56.22
G3 X9.226 Y56.02 I0 J-0.2
G1 Y54.84
G3 X9.545 Y54.521 I0.319 J0
G1 X14.455
G3 X14.774 Y54.84 I0 J0.319
G1 Y56.021
G3 X14.574 Y56.221 I-0.2 J0
G1 X8.277 Y56.223
G3 X8.077 Y56.023 I0 J-0.2
G1 Y53.692
G3 X8.397 Y53.372 I0.319 J0
G1 X15.603
G3 X15.923 Y53.692 I0 J0.319
G1 Y56.018
G3 X15.723 Y56.218 I-0.2 J0
G1 X7.129 Y56.213
G3 X6.929 Y56.013 I0 J-0.2
G1 Y52.543
G3 X7.248 Y52.224 I0.319 J0
G1 X16.752
G3 X17.071 Y52.543 I0 J0.319
G1 Y56.016
G3 X16.871 Y56.216 I-0.2 J0
G1 X5.981
G3 X5.781 Y56.016 I0 J-0.2
G1 Y51.395
G3 X6.1 Y51.076 I0.319 J0
G1 X17.9
G3 X18.219 Y51.395 I0 J0.319
G1 Y56.014
G3 X18.019 Y56.214 I-0.2 J0
G1 X4.832 Y56.218
G3 X4.632 Y56.018 I0 J-0.2
G1 Y50.247
G3 X4.952 Y49.927 I0.319 J0
G1 X19.048
G3 X19.368 Y50.247 I0 J0.319
G1 Y56.011
G3 X19.168 Y56.211 I-0.2 J0
G1 X3.679 Y56.218
G3 X3.479 Y56.018 I0 J-0.2
G1 Y48.774
X20.521
Y55.104
Y56.016
G3 X20.321 Y56.216 I-0.2 J0
G1 X10.574 Y56.228
G3 X10.374 Y56.028 I0 J-0.2
G1 Z-3.6
Y56.016
Y55.988
G3 X10.693 Y55.669 I0.319 J0
G1 X13.307
G3 X13.626 Y55.988 I0 J0.319
G1 Y56.012
G3 X13.426 Y56.212 I-0.2 J0
G1 X9.426 Y56.22
G3 X9.226 Y56.02 I0 J-0.2
G1 Y54.84
G3 X9.545 Y54.521 I0.319 J0
G1 X14.455
G3 X14.774 Y54.84 I0 J0.319
G1 Y56.021
G3 X14.574 Y56.221 I-0.2 J0
G1 X8.277 Y56.223
G3 X8.077 Y56.023 I0 J-0.2
G1 Y53.692
G3 X8.397 Y53.372 I0.319 J0
G1 X15.603
G3 X15.923 Y53.692 I0 J0.319
G1 Y56.018
G3 X15.723 Y56.218 I-0.2 J0
G1 X7.129 Y56.213
G3 X6.929 Y56.013 I0 J-0.2
G1 Y52.543
G3 X7.248 Y52.224 I0.319 J0
G1 X16.752
G3 X17.071 Y52.543 I0 J0.319
G1 Y56.016
G3 X16.871 Y56.216 I-0.2 J0
G1 X5.981
G3 X5.781 Y56.016 I0 J-0.2
G1 Y51.395
G3 X6.1 Y51.076 I0.319 J0
G1 X17.9
G3 X18.219 Y51.395 I0 J0.319
G1 Y56.014
G3 X18.019 Y56.214 I-0.2 J0
G1 X4.832 Y56.218
G3 X4.632 Y56.018 I0 J-0.2
G1 Y50.247
G3 X4.952 Y49.927 I0.319 J0
G1 X19.048
G3 X19.368 Y50.247 I0 J0.319
G1 Y56.011
G3 X19.168 Y56.211 I-0.2 J0
G1 X3.679 Y56.218
G3 X3.479 Y56.018 I0 J-0.2
G1 Y48.774
X20.521
Y55.104
Y56.016
G3 X20.321 Y56.216 I-0.2 J0
G1 X10.574 Y56.228
G3 X10.374 Y56.028 I0 J-0.2
G1 Z-3.9
Y56.016
Y55.988
G3 X10.693 Y55.669 I0.319 J0
G1 X13.307
G3 X13.626 Y55.988 I0 J0.319
G1 Y56.012
G3 X13.426 Y56.212 I-0.2 J0
G1 X9.426 Y56.22
G3 X9.226 Y56.02 I0 J-0.2
G1 Y54.84
G3 X9.545 Y54.521 I0.319 J0
G1 X14.455
G3 X14.774 Y54.84 I0 J0.319
G1 Y56.021
G3 X14.574 Y56.221 I-0.2 J0
G1 X8.277 Y56.223
G3 X8.077 Y56.023 I0 J-0.2
G1 Y53.692
G3 X8.397 Y53.372 I0.319 J0
G1 X15.603
G3 X15.923 Y53.692 I0 J0.319
G1 Y56.018
G3 X15.723 Y56.218 I-0.2 J0
G1 X7.129 Y56.213
G3 X6.929 Y56.013 I0 J-0.2
G1 Y52.543
G3 X7.248 Y52.224 I0.319 J0
G1 X16.752
G3 X17.071 Y52.543 I0 J0.319
G1 Y56.016
G3 X16.871 Y56.216 I-0.2 J0
G1 X5.981
G3 X5.781 Y56.016 I0 J-0.2
G1 Y51.395
G3 X6.1 Y51.076 I0.319 J0
G1 X17.9
G3 X18.219 Y51.395 I0 J0.319
G1 Y56.014
G3 X18.019 Y56.214 I-0.2 J0
G1 X4.832 Y56.218
G3 X4.632 Y56.018 I0 J-0.2
G1 Y50.247
G3 X4.952 Y49.927 I0.319 J0
G1 X19.048
G3 X19.368 Y50.247 I0 J0.319
G1 Y56.011
G3 X19.168 Y56.211 I-0.2 J0
G1 X3.679 Y56.218
G3 X3.479 Y56.018 I0 J-0.2
G1 Y48.774
X20.521
Y55.104
Y56.016
G3 X20.321 Y56.216 I-0.2 J0
G1 X10.574 Y56.228
G3 X10.374 Y56.028 I0 J-0.2
G1 Z-4.1
Y56.016
Y55.988
G3 X10.693 Y55.669 I0.319 J0
G1 X13.307
G3 X13.626 Y55.988 I0 J0.319
G1 Y56.012
G3 X13.426 Y56.212 I-0.2 J0
G1 X9.426 Y56.22
G3 X9.226 Y56.02 I0 J-0.2
G1 Y54.84
G3 X9.545 Y54.521 I0.319 J0
G1 X14.455
G3 X14.774 Y54.84 I0 J0.319
G1 Y56.021
G3 X14.574 Y56.221 I-0.2 J0
G1 X8.277 Y56.223
G3 X8.077 Y56.023 I0 J-0.2
G1 Y53.692
G3 X8.397 Y53.372 I0.319 J0
G1 X15.603
G3 X15.923 Y53.692 I0 J0.319
G1 Y56.018
G3 X15.723 Y56.218 I-0.2 J0
G1 X7.129 Y56.213
G3 X6.929 Y56.013 I0 J-0.2
G1 Y52.543
G3 X7.248 Y52.224 I0.319 J0
G1 X16.752
G3 X17.071 Y52.543 I0 J0.319
G1 Y56.016
G3 X16.871 Y56.216 I-0.2 J0
G1 X5.981
G3 X5.781 Y56.016 I0 J-0.2
G1 Y51.395
G3 X6.1 Y51.076 I0.319 J0
G1 X17.9
G3 X18.219 Y51.395 I0 J0.319
G1 Y56.014
G3 X18.019 Y56.214 I-0.2 J0
G1 X4.832 Y56.218
G3 X4.632 Y56.018 I0 J-0.2
G1 Y50.247
G3 X4.952 Y49.927 I0.319 J0
G1 X19.048
G3 X19.368 Y50.247 I0 J0.319
G1 Y56.011
G3 X19.168 Y56.211 I-0.2 J0
G1 X3.679 Y56.218
G3 X3.479 Y56.018 I0 J-0.2
G1 Y48.774
X20.521
Y55.104
Y56.016
G0 Z7

(Drill2)
X23.747 Y14
Z6
Z4
Z-0.6
G1 Z-6.5 F400
G0 Z4
Y16.5
Z2
G1 Z-10 F400
G0 Z4
X19.747
Z0.4
G1 Z-7.1 F400
G0 Z4
Y19
Z0.4
G1 Z-7.1 F400
G0 Z4
X23.747 Y21.5
Z2
G1 Z-10 F400
G0 Z4
Z6
M9
M5
M30
