(1001)
(T1  D=1.5 CR=0 - ZMIN=-3.6 - flat end mill)
G90 G94
G17
G21

(InsideCavity)
T1
S5000 M3
G54
M8
G0 X11.574 Y48.674
Z7
Z2
G1 Z1.3 F400
Z-0.3
Y48.663
Y15.496
G3 X11.894 Y15.177 I0.319 J0
G1 X12.018
G3 X12.337 Y15.496 I0 J0.319
G1 Y48.668
G3 X12.136 Y48.868 I-0.2 J0
G1 X10.99 Y48.863
G3 X10.79 Y48.663 I0.001 J-0.2
G1 Y14.712
G3 X11.11 Y14.392 I0.319 J0
G1 X12.802
G3 X13.121 Y14.712 I0 J0.319
G1 Y48.667
G3 X12.921 Y48.867 I-0.2 J0
G1 X9.842 Y48.866
G3 X9.642 Y48.666 I0 J-0.2
G1 Y13.563
G3 X9.961 Y13.244 I0.319 J0
G1 X13.95
G3 X14.27 Y13.563 I0 J0.319
G1 Y48.665
G3 X14.07 Y48.865 I-0.2 J0
G1 X8.694 Y48.868
G3 X8.494 Y48.668 I0 J-0.2
G1 Y12.415
G3 X8.813 Y12.096 I0.319 J0
G1 X15.099
G3 X15.418 Y12.415 I0 J0.319
G1 Y48.662
G3 X15.218 Y48.862 I-0.2 J0
G1 X7.546 Y48.871
G3 X7.345 Y48.671 I0 J-0.2
G1 Y11.267
G3 X7.665 Y10.947 I0.319 J0
G1 X16.247
G3 X16.566 Y11.267 I0 J0.319
G1 Y48.672
G3 X16.366 Y48.872 I-0.2 J0
G1 X6.392 Y48.87
G3 X6.192 Y48.67 I0 J-0.2
G1 Y9.794
X17.719
Y48.024
Y48.667
G3 X17.52 Y48.867 I-0.2 J0
G1 X11.775 Y48.874
G3 X11.574 Y48.674 I0 J-0.2
G1 Z-0.6
Y48.663
Y15.496
G3 X11.894 Y15.177 I0.319 J0
G1 X12.018
G3 X12.337 Y15.496 I0 J0.319
G1 Y48.668
G3 X12.136 Y48.868 I-0.2 J0
G1 X10.99 Y48.863
G3 X10.79 Y48.663 I0.001 J-0.2
G1 Y14.712
G3 X11.11 Y14.392 I0.319 J0
G1 X12.802
G3 X13.121 Y14.712 I0 J0.319
G1 Y48.667
G3 X12.921 Y48.867 I-0.2 J0
G1 X9.842 Y48.866
G3 X9.642 Y48.666 I0 J-0.2
G1 Y13.563
G3 X9.961 Y13.244 I0.319 J0
G1 X13.95
G3 X14.27 Y13.563 I0 J0.319
G1 Y48.665
G3 X14.07 Y48.865 I-0.2 J0
G1 X8.694 Y48.868
G3 X8.494 Y48.668 I0 J-0.2
G1 Y12.415
G3 X8.813 Y12.096 I0.319 J0
G1 X15.099
G3 X15.418 Y12.415 I0 J0.319
G1 Y48.662
G3 X15.218 Y48.862 I-0.2 J0
G1 X7.546 Y48.871
G3 X7.345 Y48.671 I0 J-0.2
G1 Y11.267
G3 X7.665 Y10.947 I0.319 J0
G1 X16.247
G3 X16.566 Y11.267 I0 J0.319
G1 Y48.672
G3 X16.366 Y48.872 I-0.2 J0
G1 X6.392 Y48.87
G3 X6.192 Y48.67 I0 J-0.2
G1 Y9.794
X17.719
Y48.024
Y48.667
G3 X17.52 Y48.867 I-0.2 J0
G1 X11.775 Y48.874
G3 X11.574 Y48.674 I0 J-0.2
G1 Z-0.9
Y48.663
Y15.496
G3 X11.894 Y15.177 I0.319 J0
G1 X12.018
G3 X12.337 Y15.496 I0 J0.319
G1 Y48.668
G3 X12.136 Y48.868 I-0.2 J0
G1 X10.99 Y48.863
G3 X10.79 Y48.663 I0.001 J-0.2
G1 Y14.712
G3 X11.11 Y14.392 I0.319 J0
G1 X12.802
G3 X13.121 Y14.712 I0 J0.319
G1 Y48.667
G3 X12.921 Y48.867 I-0.2 J0
G1 X9.842 Y48.866
G3 X9.642 Y48.666 I0 J-0.2
G1 Y13.563
G3 X9.961 Y13.244 I0.319 J0
G1 X13.95
G3 X14.27 Y13.563 I0 J0.319
G1 Y48.665
G3 X14.07 Y48.865 I-0.2 J0
G1 X8.694 Y48.868
G3 X8.494 Y48.668 I0 J-0.2
G1 Y12.415
G3 X8.813 Y12.096 I0.319 J0
G1 X15.099
G3 X15.418 Y12.415 I0 J0.319
G1 Y48.662
G3 X15.218 Y48.862 I-0.2 J0
G1 X7.546 Y48.871
G3 X7.345 Y48.671 I0 J-0.2
G1 Y11.267
G3 X7.665 Y10.947 I0.319 J0
G1 X16.247
G3 X16.566 Y11.267 I0 J0.319
G1 Y48.672
G3 X16.366 Y48.872 I-0.2 J0
G1 X6.392 Y48.87
G3 X6.192 Y48.67 I0 J-0.2
G1 Y9.794
X17.719
Y48.024
Y48.667
G3 X17.52 Y48.867 I-0.2 J0
G1 X11.775 Y48.874
G3 X11.574 Y48.674 I0 J-0.2
G1 Z-1.2
Y48.663
Y15.496
G3 X11.894 Y15.177 I0.319 J0
G1 X12.018
G3 X12.337 Y15.496 I0 J0.319
G1 Y48.668
G3 X12.136 Y48.868 I-0.2 J0
G1 X10.99 Y48.863
G3 X10.79 Y48.663 I0.001 J-0.2
G1 Y14.712
G3 X11.11 Y14.392 I0.319 J0
G1 X12.802
G3 X13.121 Y14.712 I0 J0.319
G1 Y48.667
G3 X12.921 Y48.867 I-0.2 J0
G1 X9.842 Y48.866
G3 X9.642 Y48.666 I0 J-0.2
G1 Y13.563
G3 X9.961 Y13.244 I0.319 J0
G1 X13.95
G3 X14.27 Y13.563 I0 J0.319
G1 Y48.665
G3 X14.07 Y48.865 I-0.2 J0
G1 X8.694 Y48.868
G3 X8.494 Y48.668 I0 J-0.2
G1 Y12.415
G3 X8.813 Y12.096 I0.319 J0
G1 X15.099
G3 X15.418 Y12.415 I0 J0.319
G1 Y48.662
G3 X15.218 Y48.862 I-0.2 J0
G1 X7.546 Y48.871
G3 X7.345 Y48.671 I0 J-0.2
G1 Y11.267
G3 X7.665 Y10.947 I0.319 J0
G1 X16.247
G3 X16.566 Y11.267 I0 J0.319
G1 Y48.672
G3 X16.366 Y48.872 I-0.2 J0
G1 X6.392 Y48.87
G3 X6.192 Y48.67 I0 J-0.2
G1 Y9.794
X17.719
Y48.024
Y48.667
G3 X17.52 Y48.867 I-0.2 J0
G1 X11.775 Y48.874
G3 X11.574 Y48.674 I0 J-0.2
G1 Z-1.5
Y48.663
Y15.496
G3 X11.894 Y15.177 I0.319 J0
G1 X12.018
G3 X12.337 Y15.496 I0 J0.319
G1 Y48.668
G3 X12.136 Y48.868 I-0.2 J0
G1 X10.99 Y48.863
G3 X10.79 Y48.663 I0.001 J-0.2
G1 Y14.712
G3 X11.11 Y14.392 I0.319 J0
G1 X12.802
G3 X13.121 Y14.712 I0 J0.319
G1 Y48.667
G3 X12.921 Y48.867 I-0.2 J0
G1 X9.842 Y48.866
G3 X9.642 Y48.666 I0 J-0.2
G1 Y13.563
G3 X9.961 Y13.244 I0.319 J0
G1 X13.95
G3 X14.27 Y13.563 I0 J0.319
G1 Y48.665
G3 X14.07 Y48.865 I-0.2 J0
G1 X8.694 Y48.868
G3 X8.494 Y48.668 I0 J-0.2
G1 Y12.415
G3 X8.813 Y12.096 I0.319 J0
G1 X15.099
G3 X15.418 Y12.415 I0 J0.319
G1 Y48.662
G3 X15.218 Y48.862 I-0.2 J0
G1 X7.546 Y48.871
G3 X7.345 Y48.671 I0 J-0.2
G1 Y11.267
G3 X7.665 Y10.947 I0.319 J0
G1 X16.247
G3 X16.566 Y11.267 I0 J0.319
G1 Y48.672
G3 X16.366 Y48.872 I-0.2 J0
G1 X6.392 Y48.87
G3 X6.192 Y48.67 I0 J-0.2
G1 Y9.794
X17.719
Y48.024
Y48.667
G3 X17.52 Y48.867 I-0.2 J0
G1 X11.775 Y48.874
G3 X11.574 Y48.674 I0 J-0.2
G1 Z-1.8
Y48.663
Y15.496
G3 X11.894 Y15.177 I0.319 J0
G1 X12.018
G3 X12.337 Y15.496 I0 J0.319
G1 Y48.668
G3 X12.136 Y48.868 I-0.2 J0
G1 X10.99 Y48.863
G3 X10.79 Y48.663 I0.001 J-0.2
G1 Y14.712
G3 X11.11 Y14.392 I0.319 J0
G1 X12.802
G3 X13.121 Y14.712 I0 J0.319
G1 Y48.667
G3 X12.921 Y48.867 I-0.2 J0
G1 X9.842 Y48.866
G3 X9.642 Y48.666 I0 J-0.2
G1 Y13.563
G3 X9.961 Y13.244 I0.319 J0
G1 X13.95
G3 X14.27 Y13.563 I0 J0.319
G1 Y48.665
G3 X14.07 Y48.865 I-0.2 J0
G1 X8.694 Y48.868
G3 X8.494 Y48.668 I0 J-0.2
G1 Y12.415
G3 X8.813 Y12.096 I0.319 J0
G1 X15.099
G3 X15.418 Y12.415 I0 J0.319
G1 Y48.662
G3 X15.218 Y48.862 I-0.2 J0
G1 X7.546 Y48.871
G3 X7.345 Y48.671 I0 J-0.2
G1 Y11.267
G3 X7.665 Y10.947 I0.319 J0
G1 X16.247
G3 X16.566 Y11.267 I0 J0.319
G1 Y48.672
G3 X16.366 Y48.872 I-0.2 J0
G1 X6.392 Y48.87
G3 X6.192 Y48.67 I0 J-0.2
G1 Y9.794
X17.719
Y48.024
Y48.667
G3 X17.52 Y48.867 I-0.2 J0
G1 X11.775 Y48.874
G3 X11.574 Y48.674 I0 J-0.2
G1 Z-2.1
Y48.663
Y15.496
G3 X11.894 Y15.177 I0.319 J0
G1 X12.018
G3 X12.337 Y15.496 I0 J0.319
G1 Y48.668
G3 X12.136 Y48.868 I-0.2 J0
G1 X10.99 Y48.863
G3 X10.79 Y48.663 I0.001 J-0.2
G1 Y14.712
G3 X11.11 Y14.392 I0.319 J0
G1 X12.802
G3 X13.121 Y14.712 I0 J0.319
G1 Y48.667
G3 X12.921 Y48.867 I-0.2 J0
G1 X9.842 Y48.866
G3 X9.642 Y48.666 I0 J-0.2
G1 Y13.563
G3 X9.961 Y13.244 I0.319 J0
G1 X13.95
G3 X14.27 Y13.563 I0 J0.319
G1 Y48.665
G3 X14.07 Y48.865 I-0.2 J0
G1 X8.694 Y48.868
G3 X8.494 Y48.668 I0 J-0.2
G1 Y12.415
G3 X8.813 Y12.096 I0.319 J0
G1 X15.099
G3 X15.418 Y12.415 I0 J0.319
G1 Y48.662
G3 X15.218 Y48.862 I-0.2 J0
G1 X7.546 Y48.871
G3 X7.345 Y48.671 I0 J-0.2
G1 Y11.267
G3 X7.665 Y10.947 I0.319 J0
G1 X16.247
G3 X16.566 Y11.267 I0 J0.319
G1 Y48.672
G3 X16.366 Y48.872 I-0.2 J0
G1 X6.392 Y48.87
G3 X6.192 Y48.67 I0 J-0.2
G1 Y9.794
X17.719
Y48.024
Y48.667
G3 X17.52 Y48.867 I-0.2 J0
G1 X11.775 Y48.874
G3 X11.574 Y48.674 I0 J-0.2
G1 Z-2.4
Y48.663
Y15.496
G3 X11.894 Y15.177 I0.319 J0
G1 X12.018
G3 X12.337 Y15.496 I0 J0.319
G1 Y48.668
G3 X12.136 Y48.868 I-0.2 J0
G1 X10.99 Y48.863
G3 X10.79 Y48.663 I0.001 J-0.2
G1 Y14.712
G3 X11.11 Y14.392 I0.319 J0
G1 X12.802
G3 X13.121 Y14.712 I0 J0.319
G1 Y48.667
G3 X12.921 Y48.867 I-0.2 J0
G1 X9.842 Y48.866
G3 X9.642 Y48.666 I0 J-0.2
G1 Y13.563
G3 X9.961 Y13.244 I0.319 J0
G1 X13.95
G3 X14.27 Y13.563 I0 J0.319
G1 Y48.665
G3 X14.07 Y48.865 I-0.2 J0
G1 X8.694 Y48.868
G3 X8.494 Y48.668 I0 J-0.2
G1 Y12.415
G3 X8.813 Y12.096 I0.319 J0
G1 X15.099
G3 X15.418 Y12.415 I0 J0.319
G1 Y48.662
G3 X15.218 Y48.862 I-0.2 J0
G1 X7.546 Y48.871
G3 X7.345 Y48.671 I0 J-0.2
G1 Y11.267
G3 X7.665 Y10.947 I0.319 J0
G1 X16.247
G3 X16.566 Y11.267 I0 J0.319
G1 Y48.672
G3 X16.366 Y48.872 I-0.2 J0
G1 X6.392 Y48.87
G3 X6.192 Y48.67 I0 J-0.2
G1 Y9.794
X17.719
Y48.024
Y48.667
G3 X17.52 Y48.867 I-0.2 J0
G1 X11.775 Y48.874
G3 X11.574 Y48.674 I0 J-0.2
G1 Z-2.7
Y48.663
Y15.496
G3 X11.894 Y15.177 I0.319 J0
G1 X12.018
G3 X12.337 Y15.496 I0 J0.319
G1 Y48.668
G3 X12.136 Y48.868 I-0.2 J0
G1 X10.99 Y48.863
G3 X10.79 Y48.663 I0.001 J-0.2
G1 Y14.712
G3 X11.11 Y14.392 I0.319 J0
G1 X12.802
G3 X13.121 Y14.712 I0 J0.319
G1 Y48.667
G3 X12.921 Y48.867 I-0.2 J0
G1 X9.842 Y48.866
G3 X9.642 Y48.666 I0 J-0.2
G1 Y13.563
G3 X9.961 Y13.244 I0.319 J0
G1 X13.95
G3 X14.27 Y13.563 I0 J0.319
G1 Y48.665
G3 X14.07 Y48.865 I-0.2 J0
G1 X8.694 Y48.868
G3 X8.494 Y48.668 I0 J-0.2
G1 Y12.415
G3 X8.813 Y12.096 I0.319 J0
G1 X15.099
G3 X15.418 Y12.415 I0 J0.319
G1 Y48.662
G3 X15.218 Y48.862 I-0.2 J0
G1 X7.546 Y48.871
G3 X7.345 Y48.671 I0 J-0.2
G1 Y11.267
G3 X7.665 Y10.947 I0.319 J0
G1 X16.247
G3 X16.566 Y11.267 I0 J0.319
G1 Y48.672
G3 X16.366 Y48.872 I-0.2 J0
G1 X6.392 Y48.87
G3 X6.192 Y48.67 I0 J-0.2
G1 Y9.794
X17.719
Y48.024
Y48.667
G3 X17.52 Y48.867 I-0.2 J0
G1 X11.775 Y48.874
G3 X11.574 Y48.674 I0 J-0.2
G1 Z-3
Y48.663
Y15.496
G3 X11.894 Y15.177 I0.319 J0
G1 X12.018
G3 X12.337 Y15.496 I0 J0.319
G1 Y48.668
G3 X12.136 Y48.868 I-0.2 J0
G1 X10.99 Y48.863
G3 X10.79 Y48.663 I0.001 J-0.2
G1 Y14.712
G3 X11.11 Y14.392 I0.319 J0
G1 X12.802
G3 X13.121 Y14.712 I0 J0.319
G1 Y48.667
G3 X12.921 Y48.867 I-0.2 J0
G1 X9.842 Y48.866
G3 X9.642 Y48.666 I0 J-0.2
G1 Y13.563
G3 X9.961 Y13.244 I0.319 J0
G1 X13.95
G3 X14.27 Y13.563 I0 J0.319
G1 Y48.665
G3 X14.07 Y48.865 I-0.2 J0
G1 X8.694 Y48.868
G3 X8.494 Y48.668 I0 J-0.2
G1 Y12.415
G3 X8.813 Y12.096 I0.319 J0
G1 X15.099
G3 X15.418 Y12.415 I0 J0.319
G1 Y48.662
G3 X15.218 Y48.862 I-0.2 J0
G1 X7.546 Y48.871
G3 X7.345 Y48.671 I0 J-0.2
G1 Y11.267
G3 X7.665 Y10.947 I0.319 J0
G1 X16.247
G3 X16.566 Y11.267 I0 J0.319
G1 Y48.672
G3 X16.366 Y48.872 I-0.2 J0
G1 X6.392 Y48.87
G3 X6.192 Y48.67 I0 J-0.2
G1 Y9.794
X17.719
Y48.024
Y48.667
G3 X17.52 Y48.867 I-0.2 J0
G1 X11.775 Y48.874
G3 X11.574 Y48.674 I0 J-0.2
G1 Z-3.3
Y48.663
Y15.496
G3 X11.894 Y15.177 I0.319 J0
G1 X12.018
G3 X12.337 Y15.496 I0 J0.319
G1 Y48.668
G3 X12.136 Y48.868 I-0.2 J0
G1 X10.99 Y48.863
G3 X10.79 Y48.663 I0.001 J-0.2
G1 Y14.712
G3 X11.11 Y14.392 I0.319 J0
G1 X12.802
G3 X13.121 Y14.712 I0 J0.319
G1 Y48.667
G3 X12.921 Y48.867 I-0.2 J0
G1 X9.842 Y48.866
G3 X9.642 Y48.666 I0 J-0.2
G1 Y13.563
G3 X9.961 Y13.244 I0.319 J0
G1 X13.95
G3 X14.27 Y13.563 I0 J0.319
G1 Y48.665
G3 X14.07 Y48.865 I-0.2 J0
G1 X8.694 Y48.868
G3 X8.494 Y48.668 I0 J-0.2
G1 Y12.415
G3 X8.813 Y12.096 I0.319 J0
G1 X15.099
G3 X15.418 Y12.415 I0 J0.319
G1 Y48.662
G3 X15.218 Y48.862 I-0.2 J0
G1 X7.546 Y48.871
G3 X7.345 Y48.671 I0 J-0.2
G1 Y11.267
G3 X7.665 Y10.947 I0.319 J0
G1 X16.247
G3 X16.566 Y11.267 I0 J0.319
G1 Y48.672
G3 X16.366 Y48.872 I-0.2 J0
G1 X6.392 Y48.87
G3 X6.192 Y48.67 I0 J-0.2
G1 Y9.794
X17.719
Y48.024
Y48.667
G3 X17.52 Y48.867 I-0.2 J0
G1 X11.775 Y48.874
G3 X11.574 Y48.674 I0 J-0.2
G1 Z-3.6
Y48.663
Y15.496
G3 X11.894 Y15.177 I0.319 J0
G1 X12.018
G3 X12.337 Y15.496 I0 J0.319
G1 Y48.668
G3 X12.136 Y48.868 I-0.2 J0
G1 X10.99 Y48.863
G3 X10.79 Y48.663 I0.001 J-0.2
G1 Y14.712
G3 X11.11 Y14.392 I0.319 J0
G1 X12.802
G3 X13.121 Y14.712 I0 J0.319
G1 Y48.667
G3 X12.921 Y48.867 I-0.2 J0
G1 X9.842 Y48.866
G3 X9.642 Y48.666 I0 J-0.2
G1 Y13.563
G3 X9.961 Y13.244 I0.319 J0
G1 X13.95
G3 X14.27 Y13.563 I0 J0.319
G1 Y48.665
G3 X14.07 Y48.865 I-0.2 J0
G1 X8.694 Y48.868
G3 X8.494 Y48.668 I0 J-0.2
G1 Y12.415
G3 X8.813 Y12.096 I0.319 J0
G1 X15.099
G3 X15.418 Y12.415 I0 J0.319
G1 Y48.662
G3 X15.218 Y48.862 I-0.2 J0
G1 X7.546 Y48.871
G3 X7.345 Y48.671 I0 J-0.2
G1 Y11.267
G3 X7.665 Y10.947 I0.319 J0
G1 X16.247
G3 X16.566 Y11.267 I0 J0.319
G1 Y48.672
G3 X16.366 Y48.872 I-0.2 J0
G1 X6.392 Y48.87
G3 X6.192 Y48.67 I0 J-0.2
G1 Y9.794
X17.719
Y48.024
Y48.667
G0 Z7
M9
M5
M30
