(1001)
(T1  D=1.5 CR=0 - ZMIN=-10 - flat end mill)
G90 G94
G17
G21

(2D Pocket2)
T1
S5000 M3
G54
M8
G0 X23.247 Y21.5
Z6
Z2
G1 Z-1 F400
G3 X24.247 Y21.5 I0.5 J0
X23.247 Y21.5 I-0.5 J0
X24.247 Y21.5 Z-1.277 I0.5 J0
X23.247 Y21.5 Z-1.554 I-0.5 J0
X24.247 Y21.5 Z-1.831 I0.5 J0
X23.577 Y21.97 Z-2 I-0.5 J0
X23.917 Y21.03 I0.17 J-0.47
X23.577 Y21.97 I-0.17 J0.47
X23.917 Y21.03 Z-2.277 I0.17 J-0.47
X23.577 Y21.97 Z-2.554 I-0.17 J0.47
X23.917 Y21.03 Z-2.831 I0.17 J-0.47
X24.131 Y21.82 Z-3 I-0.17 J0.47
X23.363 Y21.18 I-0.384 J-0.32
X24.131 Y21.82 I0.384 J0.32
X23.363 Y21.18 Z-3.277 I-0.384 J-0.32
X24.131 Y21.82 Z-3.554 I0.384 J0.32
X23.363 Y21.18 Z-3.831 I-0.384 J-0.32
X24.178 Y21.247 Z-4 I0.384 J0.32
X23.316 Y21.753 I-0.431 J0.253
X24.178 Y21.247 I0.431 J-0.253
X23.316 Y21.753 Z-4.277 I-0.431 J0.253
X24.178 Y21.247 Z-4.554 I0.431 J-0.253
X23.316 Y21.753 Z-4.831 I-0.431 J0.253
X23.656 Y21.008 Z-5 I0.431 J-0.253
X23.838 Y21.992 I0.091 J0.492
X23.656 Y21.008 I-0.091 J-0.492
X23.838 Y21.992 Z-5.277 I0.091 J0.492
X23.656 Y21.008 Z-5.554 I-0.091 J-0.492
X23.838 Y21.992 Z-5.831 I0.091 J0.492
X23.254 Y21.418 Z-6 I-0.091 J-0.492
X24.24 Y21.582 I0.493 J0.082
X23.254 Y21.418 I-0.493 J-0.082
X24.24 Y21.582 Z-6.277 I0.493 J0.082
X23.254 Y21.418 Z-6.554 I-0.493 J-0.082
X24.24 Y21.582 Z-6.831 I0.493 J0.082
X23.502 Y21.936 Z-7 I-0.493 J-0.082
X23.992 Y21.064 I0.245 J-0.436
X23.502 Y21.936 I-0.245 J0.436
X23.992 Y21.064 Z-7.277 I0.245 J-0.436
X23.502 Y21.936 Z-7.554 I-0.245 J0.436
X23.992 Y21.064 Z-7.831 I0.245 J-0.436
X24.074 Y21.878 Z-8 I-0.245 J0.436
X23.42 Y21.122 I-0.327 J-0.378
X24.074 Y21.878 I0.327 J0.378
X23.42 Y21.122 Z-8.277 I-0.327 J-0.378
X24.074 Y21.878 Z-8.554 I0.327 J0.378
X23.42 Y21.122 Z-8.831 I-0.327 J-0.378
X24.214 Y21.321 Z-9 I0.327 J0.378
X23.28 Y21.679 I-0.467 J0.179
X24.214 Y21.321 I0.467 J-0.179
X23.28 Y21.679 Z-9.277 I-0.467 J0.179
X24.214 Y21.321 Z-9.554 I0.467 J-0.179
X23.28 Y21.679 Z-9.831 I-0.467 J0.179
X23.738 Y21 Z-10 I0.467 J-0.179
X23.756 Y22 I0.009 J0.5
X23.738 Y21 I-0.009 J-0.5
G0 Z4
X23.247 Y16.5
Z2
G1 Z-1 F400
G3 X24.247 Y16.5 I0.5 J0
X23.247 Y16.5 I-0.5 J0
X24.247 Y16.5 Z-1.277 I0.5 J0
X23.247 Y16.5 Z-1.554 I-0.5 J0
X24.247 Y16.5 Z-1.831 I0.5 J0
X23.577 Y16.97 Z-2 I-0.5 J0
X23.917 Y16.03 I0.17 J-0.47
X23.577 Y16.97 I-0.17 J0.47
X23.917 Y16.03 Z-2.277 I0.17 J-0.47
X23.577 Y16.97 Z-2.554 I-0.17 J0.47
X23.917 Y16.03 Z-2.831 I0.17 J-0.47
X24.131 Y16.82 Z-3 I-0.17 J0.47
X23.363 Y16.18 I-0.384 J-0.32
X24.131 Y16.82 I0.384 J0.32
X23.363 Y16.18 Z-3.277 I-0.384 J-0.32
X24.131 Y16.82 Z-3.554 I0.384 J0.32
X23.363 Y16.18 Z-3.831 I-0.384 J-0.32
X24.178 Y16.247 Z-4 I0.384 J0.32
X23.316 Y16.753 I-0.431 J0.253
X24.178 Y16.247 I0.431 J-0.253
X23.316 Y16.753 Z-4.277 I-0.431 J0.253
X24.178 Y16.247 Z-4.554 I0.431 J-0.253
X23.316 Y16.753 Z-4.831 I-0.431 J0.253
X23.656 Y16.008 Z-5 I0.431 J-0.253
X23.838 Y16.992 I0.091 J0.492
X23.656 Y16.008 I-0.091 J-0.492
X23.838 Y16.992 Z-5.277 I0.091 J0.492
X23.656 Y16.008 Z-5.554 I-0.091 J-0.492
X23.838 Y16.992 Z-5.831 I0.091 J0.492
X23.254 Y16.418 Z-6 I-0.091 J-0.492
X24.24 Y16.582 I0.493 J0.082
X23.254 Y16.418 I-0.493 J-0.082
X24.24 Y16.582 Z-6.277 I0.493 J0.082
X23.254 Y16.418 Z-6.554 I-0.493 J-0.082
X24.24 Y16.582 Z-6.831 I0.493 J0.082
X23.502 Y16.936 Z-7 I-0.493 J-0.082
X23.992 Y16.064 I0.245 J-0.436
X23.502 Y16.936 I-0.245 J0.436
X23.992 Y16.064 Z-7.277 I0.245 J-0.436
X23.502 Y16.936 Z-7.554 I-0.245 J0.436
X23.992 Y16.064 Z-7.831 I0.245 J-0.436
X24.074 Y16.878 Z-8 I-0.245 J0.436
X23.42 Y16.122 I-0.327 J-0.378
X24.074 Y16.878 I0.327 J0.378
X23.42 Y16.122 Z-8.277 I-0.327 J-0.378
X24.074 Y16.878 Z-8.554 I0.327 J0.378
X23.42 Y16.122 Z-8.831 I-0.327 J-0.378
X24.214 Y16.321 Z-9 I0.327 J0.378
X23.28 Y16.679 I-0.467 J0.179
X24.214 Y16.321 I0.467 J-0.179
X23.28 Y16.679 Z-9.277 I-0.467 J0.179
X24.214 Y16.321 Z-9.554 I0.467 J-0.179
X23.28 Y16.679 Z-9.831 I-0.467 J0.179
X23.738 Y16 Z-10 I0.467 J-0.179
X23.756 Y17 I0.009 J0.5
X23.738 Y16 I-0.009 J-0.5
G0 Z6
M9
M5
M30
