(1001)
(T1  D=1.5 CR=0 - ZMIN=-10 - flat end mill)
G90 G94
G17
G21

(2D Contour4)
T1
S5000 M3
G54
M8
G0 X-2.656 Y-0.439
Z6
Z2
G1 Z1.6 F200
Z-0.6
Y48.373
G2 X5.094 Y56.123 I7.75 J0
G1 X19.35
G2 X27.1 Y48.373 I0 J-7.75
G1 Y-0.439
G2 X23.35 Y-4.189 I-3.75 J0
G1 X1.094
G2 X-2.656 Y-0.439 I0 J3.75
G1 Z-1.2
Y48.373
G2 X5.094 Y56.123 I7.75 J0
G1 X19.35
G2 X27.1 Y48.373 I0 J-7.75
G1 Y-0.439
G2 X23.35 Y-4.189 I-3.75 J0
G1 X1.094
G2 X-2.656 Y-0.439 I0 J3.75
G1 Z-1.8
Y48.373
G2 X5.094 Y56.123 I7.75 J0
G1 X19.35
G2 X27.1 Y48.373 I0 J-7.75
G1 Y-0.439
G2 X23.35 Y-4.189 I-3.75 J0
G1 X1.094
G2 X-2.656 Y-0.439 I0 J3.75
G1 Z-2.4
Y48.373
G2 X5.094 Y56.123 I7.75 J0
G1 X19.35
G2 X27.1 Y48.373 I0 J-7.75
G1 Y-0.439
G2 X23.35 Y-4.189 I-3.75 J0
G1 X1.094
G2 X-2.656 Y-0.439 I0 J3.75
G1 Z-3
Y48.373
G2 X5.094 Y56.123 I7.75 J0
G1 X19.35
G2 X27.1 Y48.373 I0 J-7.75
G1 Y-0.439
G2 X23.35 Y-4.189 I-3.75 J0
G1 X1.094
G2 X-2.656 Y-0.439 I0 J3.75
G1 Z-3.6
Y48.373
G2 X5.094 Y56.123 I7.75 J0
G1 X19.35
G2 X27.1 Y48.373 I0 J-7.75
G1 Y-0.439
G2 X23.35 Y-4.189 I-3.75 J0
G1 X1.094
G2 X-2.656 Y-0.439 I0 J3.75
G1 Z-4.2
Y48.373
G2 X5.094 Y56.123 I7.75 J0
G1 X19.35
G2 X27.1 Y48.373 I0 J-7.75
G1 Y-0.439
G2 X23.35 Y-4.189 I-3.75 J0
G1 X1.094
G2 X-2.656 Y-0.439 I0 J3.75
G1 Z-4.8
Y48.373
G2 X5.094 Y56.123 I7.75 J0
G1 X19.35
G2 X27.1 Y48.373 I0 J-7.75
G1 Y-0.439
G2 X23.35 Y-4.189 I-3.75 J0
G1 X1.094
G2 X-2.656 Y-0.439 I0 J3.75
G1 Z-5.4
Y48.373
G2 X5.094 Y56.123 I7.75 J0
G1 X19.35
G2 X27.1 Y48.373 I0 J-7.75
G1 Y-0.439
G2 X23.35 Y-4.189 I-3.75 J0
G1 X1.094
G2 X-2.656 Y-0.439 I0 J3.75
G1 Z-6
Y48.373
G2 X5.094 Y56.123 I7.75 J0
G1 X19.35
G2 X27.1 Y48.373 I0 J-7.75
G1 Y-0.439
G2 X23.35 Y-4.189 I-3.75 J0
G1 X1.094
G2 X-2.656 Y-0.439 I0 J3.75
G1 Z-6.6
Y48.373
G2 X5.094 Y56.123 I7.75 J0
G1 X19.35
G2 X27.1 Y48.373 I0 J-7.75
G1 Y-0.439
G2 X23.35 Y-4.189 I-3.75 J0
G1 X1.094
G2 X-2.656 Y-0.439 I0 J3.75
G1 Z-7.2
Y48.373
G2 X5.094 Y56.123 I7.75 J0
G1 X19.35
G2 X27.1 Y48.373 I0 J-7.75
G1 Y-0.439
G2 X23.35 Y-4.189 I-3.75 J0
G1 X1.094
G2 X-2.656 Y-0.439 I0 J3.75
G1 Z-7.8
Y48.373
G2 X5.094 Y56.123 I7.75 J0
G1 X19.35
G2 X27.1 Y48.373 I0 J-7.75
G1 Y-0.439
G2 X23.35 Y-4.189 I-3.75 J0
G1 X1.094
G2 X-2.656 Y-0.439 I0 J3.75
G1 Z-8.4
Y48.373
G2 X5.094 Y56.123 I7.75 J0
G1 X19.35
G2 X27.1 Y48.373 I0 J-7.75
G1 Y-0.439
G2 X23.35 Y-4.189 I-3.75 J0
G1 X1.094
G2 X-2.656 Y-0.439 I0 J3.75
G1 Z-9
Y48.373
G2 X5.094 Y56.123 I7.75 J0
G1 X19.35
G2 X27.1 Y48.373 I0 J-7.75
G1 Y-0.439
G2 X23.35 Y-4.189 I-3.75 J0
G1 X1.094
G2 X-2.656 Y-0.439 I0 J3.75
G1 Z-9.6
Y4.162
Z-9.4
Y7.162
Z-9.6
Y16.365
Z-9.4
Y19.365
Z-9.6
Y28.568
Z-9.4
Y31.568
Z-9.6
Y40.771
Z-9.4
Y43.771
Z-9.6
Y48.373
G2 X5.094 Y56.123 I7.75 J0
G1 X10.722
Z-9.4
X13.722
Z-9.6
X19.35
G2 X27.1 Y48.373 I0 J-7.75
G1 Y43.771
Z-9.4
Y40.771
Z-9.6
Y31.568
Z-9.4
Y28.568
Z-9.6
Y19.365
Z-9.4
Y16.365
Z-9.6
Y7.162
Z-9.4
Y4.162
Z-9.6
Y-0.439
G2 X23.35 Y-4.189 I-3.75 J0
G1 X13.722
Z-9.4
X10.722
Z-9.6
X1.094
G2 X-2.656 Y-0.439 I0 J3.75
G1 Z-10
Y4.162
Z-9.4
Y7.162
Z-10
Y16.365
Z-9.4
Y19.365
Z-10
Y28.568
Z-9.4
Y31.568
Z-10
Y40.771
Z-9.4
Y43.771
Z-10
Y48.373
G2 X5.094 Y56.123 I7.75 J0
G1 X10.722
Z-9.4
X13.722
Z-10
X19.35
G2 X27.1 Y48.373 I0 J-7.75
G1 Y43.771
Z-9.4
Y40.771
Z-10
Y31.568
Z-9.4
Y28.568
Z-10
Y19.365
Z-9.4
Y16.365
Z-10
Y7.162
Z-9.4
Y4.162
Z-10
Y-0.439
G2 X23.35 Y-4.189 I-3.75 J0
G1 X13.722
Z-9.4
X10.722
Z-10
X1.094
G2 X-2.656 Y-0.439 I0 J3.75
G0 Z6
M9
M5
M30
