(1001)
(T1  D=1.5 CR=0 - ZMIN=-10 - flat end mill)
G90 G94
G17
G21

(2D Pocket1 4)
T1
S5000 M3
G54
M8
G0 X26.557 Y18.905
Z7
Z2
G1 Z1.3 F400
Z-0.3
X26.546
X10.717
G3 X10.398 Y18.586 I0 J-0.319
G1 Y18.064
G3 X10.717 Y17.745 I0.319 J0
G1 X26.549
G3 X26.749 Y17.945 I0 J0.2
G1 X26.748 Y19.854
G3 X26.548 Y20.053 I-0.2 J0
G1 X9.569
G3 X9.25 Y19.734 I0 J-0.319
G1 Y16.916
G3 X9.569 Y16.597 I0.319 J0
G1 X26.547
G3 X26.747 Y16.796 I0 J0.2
G1 X26.75 Y21.002
G3 X26.55 Y21.202 I-0.2 J0
G1 X8.421
G3 X8.101 Y20.882 I0 J-0.319
G1 Y15.768
G3 X8.421 Y15.448 I0.319 J0
G1 X26.544
G3 X26.744 Y15.648 I0 J0.2
G1 X26.753 Y22.15
G3 X26.553 Y22.35 I-0.2 J0
G1 X7.272
G3 X6.953 Y22.031 I0 J-0.319
G1 Y14.619
G3 X7.272 Y14.3 I0.319 J0
G1 X26.554
G3 X26.754 Y14.5 I0 J0.2
G1 X26.755 Y23.298
G3 X26.555 Y23.498 I-0.2 J0
G1 X6.124
G3 X5.805 Y23.179 I0 J-0.319
G1 Y13.471
G3 X6.124 Y13.152 I0.319 J0
G1 X26.551
G3 X26.751 Y13.352 I0 J0.2
G1 X26.746 Y24.447
G3 X26.546 Y24.647 I-0.2 J0
G1 X4.976
G3 X4.656 Y24.327 I0 J-0.319
G1 Y16.891
Y16.107
Y12.323
G3 X4.976 Y12.003 I0.319 J0
G1 X26.549
G3 X26.749 Y12.203 I0 J0.2
G1 X26.745 Y25.6
G3 X26.545 Y25.8 I-0.2 J0
G1 X3.503
Y21.976
X3.507 Y21.952
X3.519 Y21.931
X3.537 Y21.915
X3.696 Y21.819
X3.714 Y21.804
X3.725 Y21.784
X3.73 Y21.762
X3.755 Y21.32
X3.752 Y21.289
X3.738 Y21.261
X3.715 Y21.24
X3.543 Y21.127
X3.522 Y21.107
X3.508 Y21.082
X3.503 Y21.053
Y13.25
Y10.85
X25.906
X26.549
G3 X26.749 Y11.05 I0 J0.2
G1 X26.757 Y18.705
G3 X26.557 Y18.905 I-0.2 J0
G1 Z-0.6
X26.546
X10.717
G3 X10.398 Y18.586 I0 J-0.319
G1 Y18.064
G3 X10.717 Y17.745 I0.319 J0
G1 X26.549
G3 X26.749 Y17.945 I0 J0.2
G1 X26.748 Y19.854
G3 X26.548 Y20.053 I-0.2 J0
G1 X9.569
G3 X9.25 Y19.734 I0 J-0.319
G1 Y16.916
G3 X9.569 Y16.597 I0.319 J0
G1 X26.547
G3 X26.747 Y16.796 I0 J0.2
G1 X26.75 Y21.002
G3 X26.55 Y21.202 I-0.2 J0
G1 X8.421
G3 X8.101 Y20.882 I0 J-0.319
G1 Y15.768
G3 X8.421 Y15.448 I0.319 J0
G1 X26.544
G3 X26.744 Y15.648 I0 J0.2
G1 X26.753 Y22.15
G3 X26.553 Y22.35 I-0.2 J0
G1 X7.272
G3 X6.953 Y22.031 I0 J-0.319
G1 Y14.619
G3 X7.272 Y14.3 I0.319 J0
G1 X26.554
G3 X26.754 Y14.5 I0 J0.2
G1 X26.755 Y23.298
G3 X26.555 Y23.498 I-0.2 J0
G1 X6.124
G3 X5.805 Y23.179 I0 J-0.319
G1 Y13.471
G3 X6.124 Y13.152 I0.319 J0
G1 X26.551
G3 X26.751 Y13.352 I0 J0.2
G1 X26.746 Y24.447
G3 X26.546 Y24.647 I-0.2 J0
G1 X4.976
G3 X4.656 Y24.327 I0 J-0.319
G1 Y16.891
Y16.107
Y12.323
G3 X4.976 Y12.003 I0.319 J0
G1 X26.549
G3 X26.749 Y12.203 I0 J0.2
G1 X26.745 Y25.6
G3 X26.545 Y25.8 I-0.2 J0
G1 X3.503
Y21.976
X3.507 Y21.952
X3.519 Y21.931
X3.537 Y21.915
X3.696 Y21.819
X3.714 Y21.804
X3.725 Y21.784
X3.73 Y21.762
X3.755 Y21.32
X3.752 Y21.289
X3.738 Y21.261
X3.715 Y21.24
X3.543 Y21.127
X3.522 Y21.107
X3.508 Y21.082
X3.503 Y21.053
Y13.25
Y10.85
X25.906
X26.549
G3 X26.749 Y11.05 I0 J0.2
G1 X26.757 Y18.705
G3 X26.557 Y18.905 I-0.2 J0
G1 Z-0.9
X26.546
X10.717
G3 X10.398 Y18.586 I0 J-0.319
G1 Y18.064
G3 X10.717 Y17.745 I0.319 J0
G1 X26.549
G3 X26.749 Y17.945 I0 J0.2
G1 X26.748 Y19.854
G3 X26.548 Y20.053 I-0.2 J0
G1 X9.569
G3 X9.25 Y19.734 I0 J-0.319
G1 Y16.916
G3 X9.569 Y16.597 I0.319 J0
G1 X26.547
G3 X26.747 Y16.796 I0 J0.2
G1 X26.75 Y21.002
G3 X26.55 Y21.202 I-0.2 J0
G1 X8.421
G3 X8.101 Y20.882 I0 J-0.319
G1 Y15.768
G3 X8.421 Y15.448 I0.319 J0
G1 X26.544
G3 X26.744 Y15.648 I0 J0.2
G1 X26.753 Y22.15
G3 X26.553 Y22.35 I-0.2 J0
G1 X7.272
G3 X6.953 Y22.031 I0 J-0.319
G1 Y14.619
G3 X7.272 Y14.3 I0.319 J0
G1 X26.554
G3 X26.754 Y14.5 I0 J0.2
G1 X26.755 Y23.298
G3 X26.555 Y23.498 I-0.2 J0
G1 X6.124
G3 X5.805 Y23.179 I0 J-0.319
G1 Y13.471
G3 X6.124 Y13.152 I0.319 J0
G1 X26.551
G3 X26.751 Y13.352 I0 J0.2
G1 X26.746 Y24.447
G3 X26.546 Y24.647 I-0.2 J0
G1 X4.976
G3 X4.656 Y24.327 I0 J-0.319
G1 Y16.891
Y16.107
Y12.323
G3 X4.976 Y12.003 I0.319 J0
G1 X26.549
G3 X26.749 Y12.203 I0 J0.2
G1 X26.745 Y25.6
G3 X26.545 Y25.8 I-0.2 J0
G1 X3.503
Y21.976
X3.507 Y21.952
X3.519 Y21.931
X3.537 Y21.915
X3.696 Y21.819
X3.714 Y21.804
X3.725 Y21.784
X3.73 Y21.762
X3.755 Y21.32
X3.752 Y21.289
X3.738 Y21.261
X3.715 Y21.24
X3.543 Y21.127
X3.522 Y21.107
X3.508 Y21.082
X3.503 Y21.053
Y13.25
Y10.85
X25.906
X26.549
G3 X26.749 Y11.05 I0 J0.2
G1 X26.757 Y18.705
G3 X26.557 Y18.905 I-0.2 J0
G1 Z-1.2
X26.546
X10.717
G3 X10.398 Y18.586 I0 J-0.319
G1 Y18.064
G3 X10.717 Y17.745 I0.319 J0
G1 X26.549
G3 X26.749 Y17.945 I0 J0.2
G1 X26.748 Y19.854
G3 X26.548 Y20.053 I-0.2 J0
G1 X9.569
G3 X9.25 Y19.734 I0 J-0.319
G1 Y16.916
G3 X9.569 Y16.597 I0.319 J0
G1 X26.547
G3 X26.747 Y16.796 I0 J0.2
G1 X26.75 Y21.002
G3 X26.55 Y21.202 I-0.2 J0
G1 X8.421
G3 X8.101 Y20.882 I0 J-0.319
G1 Y15.768
G3 X8.421 Y15.448 I0.319 J0
G1 X26.544
G3 X26.744 Y15.648 I0 J0.2
G1 X26.753 Y22.15
G3 X26.553 Y22.35 I-0.2 J0
G1 X7.272
G3 X6.953 Y22.031 I0 J-0.319
G1 Y14.619
G3 X7.272 Y14.3 I0.319 J0
G1 X26.554
G3 X26.754 Y14.5 I0 J0.2
G1 X26.755 Y23.298
G3 X26.555 Y23.498 I-0.2 J0
G1 X6.124
G3 X5.805 Y23.179 I0 J-0.319
G1 Y13.471
G3 X6.124 Y13.152 I0.319 J0
G1 X26.551
G3 X26.751 Y13.352 I0 J0.2
G1 X26.746 Y24.447
G3 X26.546 Y24.647 I-0.2 J0
G1 X4.976
G3 X4.656 Y24.327 I0 J-0.319
G1 Y16.891
Y16.107
Y12.323
G3 X4.976 Y12.003 I0.319 J0
G1 X26.549
G3 X26.749 Y12.203 I0 J0.2
G1 X26.745 Y25.6
G3 X26.545 Y25.8 I-0.2 J0
G1 X3.503
Y21.976
X3.507 Y21.952
X3.519 Y21.931
X3.537 Y21.915
X3.696 Y21.819
X3.714 Y21.804
X3.725 Y21.784
X3.73 Y21.762
X3.755 Y21.32
X3.752 Y21.289
X3.738 Y21.261
X3.715 Y21.24
X3.543 Y21.127
X3.522 Y21.107
X3.508 Y21.082
X3.503 Y21.053
Y13.25
Y10.85
X25.906
X26.549
G3 X26.749 Y11.05 I0 J0.2
G1 X26.757 Y18.705
G3 X26.557 Y18.905 I-0.2 J0
G1 Z-1.5
X26.546
X10.717
G3 X10.398 Y18.586 I0 J-0.319
G1 Y18.064
G3 X10.717 Y17.745 I0.319 J0
G1 X26.549
G3 X26.749 Y17.945 I0 J0.2
G1 X26.748 Y19.854
G3 X26.548 Y20.053 I-0.2 J0
G1 X9.569
G3 X9.25 Y19.734 I0 J-0.319
G1 Y16.916
G3 X9.569 Y16.597 I0.319 J0
G1 X26.547
G3 X26.747 Y16.796 I0 J0.2
G1 X26.75 Y21.002
G3 X26.55 Y21.202 I-0.2 J0
G1 X8.421
G3 X8.101 Y20.882 I0 J-0.319
G1 Y15.768
G3 X8.421 Y15.448 I0.319 J0
G1 X26.544
G3 X26.744 Y15.648 I0 J0.2
G1 X26.753 Y22.15
G3 X26.553 Y22.35 I-0.2 J0
G1 X7.272
G3 X6.953 Y22.031 I0 J-0.319
G1 Y14.619
G3 X7.272 Y14.3 I0.319 J0
G1 X26.554
G3 X26.754 Y14.5 I0 J0.2
G1 X26.755 Y23.298
G3 X26.555 Y23.498 I-0.2 J0
G1 X6.124
G3 X5.805 Y23.179 I0 J-0.319
G1 Y13.471
G3 X6.124 Y13.152 I0.319 J0
G1 X26.551
G3 X26.751 Y13.352 I0 J0.2
G1 X26.746 Y24.447
G3 X26.546 Y24.647 I-0.2 J0
G1 X4.976
G3 X4.656 Y24.327 I0 J-0.319
G1 Y16.891
Y16.107
Y12.323
G3 X4.976 Y12.003 I0.319 J0
G1 X26.549
G3 X26.749 Y12.203 I0 J0.2
G1 X26.745 Y25.6
G3 X26.545 Y25.8 I-0.2 J0
G1 X3.503
Y21.976
X3.507 Y21.952
X3.519 Y21.931
X3.537 Y21.915
X3.696 Y21.819
X3.714 Y21.804
X3.725 Y21.784
X3.73 Y21.762
X3.755 Y21.32
X3.752 Y21.289
X3.738 Y21.261
X3.715 Y21.24
X3.543 Y21.127
X3.522 Y21.107
X3.508 Y21.082
X3.503 Y21.053
Y13.25
Y10.85
X25.906
X26.549
G3 X26.749 Y11.05 I0 J0.2
G1 X26.757 Y18.705
G3 X26.557 Y18.905 I-0.2 J0
G1 Z-1.8
X26.546
X10.717
G3 X10.398 Y18.586 I0 J-0.319
G1 Y18.064
G3 X10.717 Y17.745 I0.319 J0
G1 X26.549
G3 X26.749 Y17.945 I0 J0.2
G1 X26.748 Y19.854
G3 X26.548 Y20.053 I-0.2 J0
G1 X9.569
G3 X9.25 Y19.734 I0 J-0.319
G1 Y16.916
G3 X9.569 Y16.597 I0.319 J0
G1 X26.547
G3 X26.747 Y16.796 I0 J0.2
G1 X26.75 Y21.002
G3 X26.55 Y21.202 I-0.2 J0
G1 X8.421
G3 X8.101 Y20.882 I0 J-0.319
G1 Y15.768
G3 X8.421 Y15.448 I0.319 J0
G1 X26.544
G3 X26.744 Y15.648 I0 J0.2
G1 X26.753 Y22.15
G3 X26.553 Y22.35 I-0.2 J0
G1 X7.272
G3 X6.953 Y22.031 I0 J-0.319
G1 Y14.619
G3 X7.272 Y14.3 I0.319 J0
G1 X26.554
G3 X26.754 Y14.5 I0 J0.2
G1 X26.755 Y23.298
G3 X26.555 Y23.498 I-0.2 J0
G1 X6.124
G3 X5.805 Y23.179 I0 J-0.319
G1 Y13.471
G3 X6.124 Y13.152 I0.319 J0
G1 X26.551
G3 X26.751 Y13.352 I0 J0.2
G1 X26.746 Y24.447
G3 X26.546 Y24.647 I-0.2 J0
G1 X4.976
G3 X4.656 Y24.327 I0 J-0.319
G1 Y16.891
Y16.107
Y12.323
G3 X4.976 Y12.003 I0.319 J0
G1 X26.549
G3 X26.749 Y12.203 I0 J0.2
G1 X26.745 Y25.6
G3 X26.545 Y25.8 I-0.2 J0
G1 X3.503
Y21.976
X3.507 Y21.952
X3.519 Y21.931
X3.537 Y21.915
X3.696 Y21.819
X3.714 Y21.804
X3.725 Y21.784
X3.73 Y21.762
X3.755 Y21.32
X3.752 Y21.289
X3.738 Y21.261
X3.715 Y21.24
X3.543 Y21.127
X3.522 Y21.107
X3.508 Y21.082
X3.503 Y21.053
Y13.25
Y10.85
X25.906
X26.549
G3 X26.749 Y11.05 I0 J0.2
G1 X26.757 Y18.705
G3 X26.557 Y18.905 I-0.2 J0
G1 Z-2.1
X26.546
X10.717
G3 X10.398 Y18.586 I0 J-0.319
G1 Y18.064
G3 X10.717 Y17.745 I0.319 J0
G1 X26.549
G3 X26.749 Y17.945 I0 J0.2
G1 X26.748 Y19.854
G3 X26.548 Y20.053 I-0.2 J0
G1 X9.569
G3 X9.25 Y19.734 I0 J-0.319
G1 Y16.916
G3 X9.569 Y16.597 I0.319 J0
G1 X26.547
G3 X26.747 Y16.796 I0 J0.2
G1 X26.75 Y21.002
G3 X26.55 Y21.202 I-0.2 J0
G1 X8.421
G3 X8.101 Y20.882 I0 J-0.319
G1 Y15.768
G3 X8.421 Y15.448 I0.319 J0
G1 X26.544
G3 X26.744 Y15.648 I0 J0.2
G1 X26.753 Y22.15
G3 X26.553 Y22.35 I-0.2 J0
G1 X7.272
G3 X6.953 Y22.031 I0 J-0.319
G1 Y14.619
G3 X7.272 Y14.3 I0.319 J0
G1 X26.554
G3 X26.754 Y14.5 I0 J0.2
G1 X26.755 Y23.298
G3 X26.555 Y23.498 I-0.2 J0
G1 X6.124
G3 X5.805 Y23.179 I0 J-0.319
G1 Y13.471
G3 X6.124 Y13.152 I0.319 J0
G1 X26.551
G3 X26.751 Y13.352 I0 J0.2
G1 X26.746 Y24.447
G3 X26.546 Y24.647 I-0.2 J0
G1 X4.976
G3 X4.656 Y24.327 I0 J-0.319
G1 Y16.891
Y16.107
Y12.323
G3 X4.976 Y12.003 I0.319 J0
G1 X26.549
G3 X26.749 Y12.203 I0 J0.2
G1 X26.745 Y25.6
G3 X26.545 Y25.8 I-0.2 J0
G1 X3.503
Y21.976
X3.507 Y21.952
X3.519 Y21.931
X3.537 Y21.915
X3.696 Y21.819
X3.714 Y21.804
X3.725 Y21.784
X3.73 Y21.762
X3.755 Y21.32
X3.752 Y21.289
X3.738 Y21.261
X3.715 Y21.24
X3.543 Y21.127
X3.522 Y21.107
X3.508 Y21.082
X3.503 Y21.053
Y13.25
Y10.85
X25.906
X26.549
G3 X26.749 Y11.05 I0 J0.2
G1 X26.757 Y18.705
G3 X26.557 Y18.905 I-0.2 J0
G1 Z-2.4
X26.546
X10.717
G3 X10.398 Y18.586 I0 J-0.319
G1 Y18.064
G3 X10.717 Y17.745 I0.319 J0
G1 X26.549
G3 X26.749 Y17.945 I0 J0.2
G1 X26.748 Y19.854
G3 X26.548 Y20.053 I-0.2 J0
G1 X9.569
G3 X9.25 Y19.734 I0 J-0.319
G1 Y16.916
G3 X9.569 Y16.597 I0.319 J0
G1 X26.547
G3 X26.747 Y16.796 I0 J0.2
G1 X26.75 Y21.002
G3 X26.55 Y21.202 I-0.2 J0
G1 X8.421
G3 X8.101 Y20.882 I0 J-0.319
G1 Y15.768
G3 X8.421 Y15.448 I0.319 J0
G1 X26.544
G3 X26.744 Y15.648 I0 J0.2
G1 X26.753 Y22.15
G3 X26.553 Y22.35 I-0.2 J0
G1 X7.272
G3 X6.953 Y22.031 I0 J-0.319
G1 Y14.619
G3 X7.272 Y14.3 I0.319 J0
G1 X26.554
G3 X26.754 Y14.5 I0 J0.2
G1 X26.755 Y23.298
G3 X26.555 Y23.498 I-0.2 J0
G1 X6.124
G3 X5.805 Y23.179 I0 J-0.319
G1 Y13.471
G3 X6.124 Y13.152 I0.319 J0
G1 X26.551
G3 X26.751 Y13.352 I0 J0.2
G1 X26.746 Y24.447
G3 X26.546 Y24.647 I-0.2 J0
G1 X4.976
G3 X4.656 Y24.327 I0 J-0.319
G1 Y16.891
Y16.107
Y12.323
G3 X4.976 Y12.003 I0.319 J0
G1 X26.549
G3 X26.749 Y12.203 I0 J0.2
G1 X26.745 Y25.6
G3 X26.545 Y25.8 I-0.2 J0
G1 X3.503
Y21.976
X3.507 Y21.952
X3.519 Y21.931
X3.537 Y21.915
X3.696 Y21.819
X3.714 Y21.804
X3.725 Y21.784
X3.73 Y21.762
X3.755 Y21.32
X3.752 Y21.289
X3.738 Y21.261
X3.715 Y21.24
X3.543 Y21.127
X3.522 Y21.107
X3.508 Y21.082
X3.503 Y21.053
Y13.25
Y10.85
X25.906
X26.549
G3 X26.749 Y11.05 I0 J0.2
G1 X26.757 Y18.705
G3 X26.557 Y18.905 I-0.2 J0
G1 Z-2.7
X26.546
X10.717
G3 X10.398 Y18.586 I0 J-0.319
G1 Y18.064
G3 X10.717 Y17.745 I0.319 J0
G1 X26.549
G3 X26.749 Y17.945 I0 J0.2
G1 X26.748 Y19.854
G3 X26.548 Y20.053 I-0.2 J0
G1 X9.569
G3 X9.25 Y19.734 I0 J-0.319
G1 Y16.916
G3 X9.569 Y16.597 I0.319 J0
G1 X26.547
G3 X26.747 Y16.796 I0 J0.2
G1 X26.75 Y21.002
G3 X26.55 Y21.202 I-0.2 J0
G1 X8.421
G3 X8.101 Y20.882 I0 J-0.319
G1 Y15.768
G3 X8.421 Y15.448 I0.319 J0
G1 X26.544
G3 X26.744 Y15.648 I0 J0.2
G1 X26.753 Y22.15
G3 X26.553 Y22.35 I-0.2 J0
G1 X7.272
G3 X6.953 Y22.031 I0 J-0.319
G1 Y14.619
G3 X7.272 Y14.3 I0.319 J0
G1 X26.554
G3 X26.754 Y14.5 I0 J0.2
G1 X26.755 Y23.298
G3 X26.555 Y23.498 I-0.2 J0
G1 X6.124
G3 X5.805 Y23.179 I0 J-0.319
G1 Y13.471
G3 X6.124 Y13.152 I0.319 J0
G1 X26.551
G3 X26.751 Y13.352 I0 J0.2
G1 X26.746 Y24.447
G3 X26.546 Y24.647 I-0.2 J0
G1 X4.976
G3 X4.656 Y24.327 I0 J-0.319
G1 Y16.891
Y16.107
Y12.323
G3 X4.976 Y12.003 I0.319 J0
G1 X26.549
G3 X26.749 Y12.203 I0 J0.2
G1 X26.745 Y25.6
G3 X26.545 Y25.8 I-0.2 J0
G1 X3.503
Y21.976
X3.507 Y21.952
X3.519 Y21.931
X3.537 Y21.915
X3.696 Y21.819
X3.714 Y21.804
X3.725 Y21.784
X3.73 Y21.762
X3.755 Y21.32
X3.752 Y21.289
X3.738 Y21.261
X3.715 Y21.24
X3.543 Y21.127
X3.522 Y21.107
X3.508 Y21.082
X3.503 Y21.053
Y13.25
Y10.85
X25.906
X26.549
G3 X26.749 Y11.05 I0 J0.2
G1 X26.757 Y18.705
G3 X26.557 Y18.905 I-0.2 J0
G1 Z-2.9
X26.546
X10.717
G3 X10.398 Y18.586 I0 J-0.319
G1 Y18.064
G3 X10.717 Y17.745 I0.319 J0
G1 X26.549
G3 X26.749 Y17.945 I0 J0.2
G1 X26.748 Y19.854
G3 X26.548 Y20.053 I-0.2 J0
G1 X9.569
G3 X9.25 Y19.734 I0 J-0.319
G1 Y16.916
G3 X9.569 Y16.597 I0.319 J0
G1 X26.547
G3 X26.747 Y16.796 I0 J0.2
G1 X26.75 Y21.002
G3 X26.55 Y21.202 I-0.2 J0
G1 X8.421
G3 X8.101 Y20.882 I0 J-0.319
G1 Y15.768
G3 X8.421 Y15.448 I0.319 J0
G1 X26.544
G3 X26.744 Y15.648 I0 J0.2
G1 X26.753 Y22.15
G3 X26.553 Y22.35 I-0.2 J0
G1 X7.272
G3 X6.953 Y22.031 I0 J-0.319
G1 Y14.619
G3 X7.272 Y14.3 I0.319 J0
G1 X26.554
G3 X26.754 Y14.5 I0 J0.2
G1 X26.755 Y23.298
G3 X26.555 Y23.498 I-0.2 J0
G1 X6.124
G3 X5.805 Y23.179 I0 J-0.319
G1 Y13.471
G3 X6.124 Y13.152 I0.319 J0
G1 X26.551
G3 X26.751 Y13.352 I0 J0.2
G1 X26.746 Y24.447
G3 X26.546 Y24.647 I-0.2 J0
G1 X4.976
G3 X4.656 Y24.327 I0 J-0.319
G1 Y16.891
Y16.107
Y12.323
G3 X4.976 Y12.003 I0.319 J0
G1 X26.549
G3 X26.749 Y12.203 I0 J0.2
G1 X26.745 Y25.6
G3 X26.545 Y25.8 I-0.2 J0
G1 X3.503
Y21.976
X3.507 Y21.952
X3.519 Y21.931
X3.537 Y21.915
X3.696 Y21.819
X3.714 Y21.804
X3.725 Y21.784
X3.73 Y21.762
X3.755 Y21.32
X3.752 Y21.289
X3.738 Y21.261
X3.715 Y21.24
X3.543 Y21.127
X3.522 Y21.107
X3.508 Y21.082
X3.503 Y21.053
Y13.25
Y10.85
X25.906
X26.549
G0 Z7
X0.746 Y16.759
Z2
G1 Z1.3 F400
Z-0.3
X0.747 Y16.782
X0.751 Y20.406
G2 X1.499 Y21.155 I0.75 J-0.001
G1 X4.016 Y21.164
G3 X4.215 Y21.357 I-0.001 J0.2
G1 X4.225 Y21.639
G3 X4.033 Y21.846 I-0.2 J0.007
G1 X0.563 Y21.987
X0.51 Y21.982
X0.46 Y21.963
X0.416 Y21.931
X-0.186 Y21.352
X-0.219 Y21.31
X-0.24 Y21.261
X-0.247 Y21.208
Y16.803
G3 X-0.056 Y16.603 I0.2 J0
G1 X0.537 Y16.575
G3 X0.746 Y16.759 I0.009 J0.2
G1 Z-0.6
X0.747 Y16.782
X0.751 Y20.406
G2 X1.499 Y21.155 I0.75 J-0.001
G1 X4.016 Y21.164
G3 X4.215 Y21.357 I-0.001 J0.2
G1 X4.225 Y21.639
G3 X4.033 Y21.846 I-0.2 J0.007
G1 X0.563 Y21.987
X0.51 Y21.982
X0.46 Y21.963
X0.416 Y21.931
X-0.186 Y21.352
X-0.219 Y21.31
X-0.24 Y21.261
X-0.247 Y21.208
Y16.803
G3 X-0.056 Y16.603 I0.2 J0
G1 X0.537 Y16.575
G3 X0.746 Y16.759 I0.009 J0.2
G1 Z-0.9
X0.747 Y16.782
X0.751 Y20.406
G2 X1.499 Y21.155 I0.75 J-0.001
G1 X4.016 Y21.164
G3 X4.215 Y21.357 I-0.001 J0.2
G1 X4.225 Y21.639
G3 X4.033 Y21.846 I-0.2 J0.007
G1 X0.563 Y21.987
X0.51 Y21.982
X0.46 Y21.963
X0.416 Y21.931
X-0.186 Y21.352
X-0.219 Y21.31
X-0.24 Y21.261
X-0.247 Y21.208
Y16.803
G3 X-0.056 Y16.603 I0.2 J0
G1 X0.537 Y16.575
G3 X0.746 Y16.759 I0.009 J0.2
G1 Z-1.2
X0.747 Y16.782
X0.751 Y20.406
G2 X1.499 Y21.155 I0.75 J-0.001
G1 X4.016 Y21.164
G3 X4.215 Y21.357 I-0.001 J0.2
G1 X4.225 Y21.639
G3 X4.033 Y21.846 I-0.2 J0.007
G1 X0.563 Y21.987
X0.51 Y21.982
X0.46 Y21.963
X0.416 Y21.931
X-0.186 Y21.352
X-0.219 Y21.31
X-0.24 Y21.261
X-0.247 Y21.208
Y16.803
G3 X-0.056 Y16.603 I0.2 J0
G1 X0.537 Y16.575
G3 X0.746 Y16.759 I0.009 J0.2
G1 Z-1.5
X0.747 Y16.782
X0.751 Y20.406
G2 X1.499 Y21.155 I0.75 J-0.001
G1 X4.016 Y21.164
G3 X4.215 Y21.357 I-0.001 J0.2
G1 X4.225 Y21.639
G3 X4.033 Y21.846 I-0.2 J0.007
G1 X0.563 Y21.987
X0.51 Y21.982
X0.46 Y21.963
X0.416 Y21.931
X-0.186 Y21.352
X-0.219 Y21.31
X-0.24 Y21.261
X-0.247 Y21.208
Y16.803
G3 X-0.056 Y16.603 I0.2 J0
G1 X0.537 Y16.575
G3 X0.746 Y16.759 I0.009 J0.2
G1 Z-1.8
X0.747 Y16.782
X0.751 Y20.406
G2 X1.499 Y21.155 I0.75 J-0.001
G1 X4.016 Y21.164
G3 X4.215 Y21.357 I-0.001 J0.2
G1 X4.225 Y21.639
G3 X4.033 Y21.846 I-0.2 J0.007
G1 X0.563 Y21.987
X0.51 Y21.982
X0.46 Y21.963
X0.416 Y21.931
X-0.186 Y21.352
X-0.219 Y21.31
X-0.24 Y21.261
X-0.247 Y21.208
Y16.803
G3 X-0.056 Y16.603 I0.2 J0
G1 X0.537 Y16.575
G3 X0.746 Y16.759 I0.009 J0.2
G1 Z-2.1
X0.747 Y16.782
X0.751 Y20.406
G2 X1.499 Y21.155 I0.75 J-0.001
G1 X4.016 Y21.164
G3 X4.215 Y21.357 I-0.001 J0.2
G1 X4.225 Y21.639
G3 X4.033 Y21.846 I-0.2 J0.007
G1 X0.563 Y21.987
X0.51 Y21.982
X0.46 Y21.963
X0.416 Y21.931
X-0.186 Y21.352
X-0.219 Y21.31
X-0.24 Y21.261
X-0.247 Y21.208
Y16.803
G3 X-0.056 Y16.603 I0.2 J0
G1 X0.537 Y16.575
G3 X0.746 Y16.759 I0.009 J0.2
G1 Z-2.4
X0.747 Y16.782
X0.751 Y20.406
G2 X1.499 Y21.155 I0.75 J-0.001
G1 X4.016 Y21.164
G3 X4.215 Y21.357 I-0.001 J0.2
G1 X4.225 Y21.639
G3 X4.033 Y21.846 I-0.2 J0.007
G1 X0.563 Y21.987
X0.51 Y21.982
X0.46 Y21.963
X0.416 Y21.931
X-0.186 Y21.352
X-0.219 Y21.31
X-0.24 Y21.261
X-0.247 Y21.208
Y16.803
G3 X-0.056 Y16.603 I0.2 J0
G1 X0.537 Y16.575
G3 X0.746 Y16.759 I0.009 J0.2
G1 Z-2.7
X0.747 Y16.782
X0.751 Y20.406
G2 X1.499 Y21.155 I0.75 J-0.001
G1 X4.016 Y21.164
G3 X4.215 Y21.357 I-0.001 J0.2
G1 X4.225 Y21.639
G3 X4.033 Y21.846 I-0.2 J0.007
G1 X0.563 Y21.987
X0.51 Y21.982
X0.46 Y21.963
X0.416 Y21.931
X-0.186 Y21.352
X-0.219 Y21.31
X-0.24 Y21.261
X-0.247 Y21.208
Y16.803
G3 X-0.056 Y16.603 I0.2 J0
G1 X0.537 Y16.575
G3 X0.746 Y16.759 I0.009 J0.2
G1 Z-3
X0.747 Y16.782
X0.751 Y20.406
G2 X1.499 Y21.155 I0.75 J-0.001
G1 X4.016 Y21.164
G3 X4.215 Y21.357 I-0.001 J0.2
G1 X4.225 Y21.639
G3 X4.033 Y21.846 I-0.2 J0.007
G1 X0.563 Y21.987
X0.51 Y21.982
X0.46 Y21.963
X0.416 Y21.931
X-0.186 Y21.352
X-0.219 Y21.31
X-0.24 Y21.261
X-0.247 Y21.208
Y16.803
G3 X-0.056 Y16.603 I0.2 J0
G1 X0.537 Y16.575
G3 X0.746 Y16.759 I0.009 J0.2
G1 Z-3.3
X0.747 Y16.782
X0.751 Y20.406
G2 X1.499 Y21.155 I0.75 J-0.001
G1 X4.016 Y21.164
G3 X4.215 Y21.357 I-0.001 J0.2
G1 X4.225 Y21.639
G3 X4.033 Y21.846 I-0.2 J0.007
G1 X0.563 Y21.987
X0.51 Y21.982
X0.46 Y21.963
X0.416 Y21.931
X-0.186 Y21.352
X-0.219 Y21.31
X-0.24 Y21.261
X-0.247 Y21.208
Y16.803
G3 X-0.056 Y16.603 I0.2 J0
G1 X0.537 Y16.575
G3 X0.746 Y16.759 I0.009 J0.2
G1 Z-3.5
X0.747 Y16.782
X0.751 Y20.406
G2 X1.499 Y21.155 I0.75 J-0.001
G1 X4.016 Y21.164
G3 X4.215 Y21.357 I-0.001 J0.2
G1 X4.225 Y21.639
G3 X4.033 Y21.846 I-0.2 J0.007
G1 X0.563 Y21.987
X0.51 Y21.982
X0.46 Y21.963
X0.416 Y21.931
X-0.186 Y21.352
X-0.219 Y21.31
X-0.24 Y21.261
X-0.247 Y21.208
Y16.803
G0 Z7
X0.474 Y13.78
Z2
G1 Z1.3 F400
Z-0.3
G2 X1.005 Y14 I0.531 J-0.53
X0.474 Y14.22 I0 J0.75
G3 X0.032 Y13.78 I-0.221 J-0.22
X0.474 Y13.78 I0.221 J0.22
G1 Z1
Z-0.6
G2 X1.005 Y14 I0.531 J-0.53
X0.474 Y14.22 I0 J0.75
G3 X0.032 Y13.78 I-0.221 J-0.22
X0.474 Y13.78 I0.221 J0.22
G1 Z0.7
Z-0.9
G2 X1.005 Y14 I0.531 J-0.53
X0.474 Y14.22 I0 J0.75
G3 X0.032 Y13.78 I-0.221 J-0.22
X0.474 Y13.78 I0.221 J0.22
G1 Z0.4
Z-1.2
G2 X1.005 Y14 I0.531 J-0.53
X0.474 Y14.22 I0 J0.75
G3 X0.032 Y13.78 I-0.221 J-0.22
X0.474 Y13.78 I0.221 J0.22
G1 Z0.1
Z-1.5
G2 X1.005 Y14 I0.531 J-0.53
X0.474 Y14.22 I0 J0.75
G3 X0.032 Y13.78 I-0.221 J-0.22
X0.474 Y13.78 I0.221 J0.22
G1 Z-0.2
Z-1.8
G2 X1.005 Y14 I0.531 J-0.53
X0.474 Y14.22 I0 J0.75
G3 X0.032 Y13.78 I-0.221 J-0.22
X0.474 Y13.78 I0.221 J0.22
G1 Z-0.5
Z-2.1
G2 X1.005 Y14 I0.531 J-0.53
X0.474 Y14.22 I0 J0.75
G3 X0.032 Y13.78 I-0.221 J-0.22
X0.474 Y13.78 I0.221 J0.22
G1 Z-0.8
Z-2.4
G2 X1.005 Y14 I0.531 J-0.53
X0.474 Y14.22 I0 J0.75
G3 X0.032 Y13.78 I-0.221 J-0.22
X0.474 Y13.78 I0.221 J0.22
G1 Z-1.1
Z-2.7
G2 X1.005 Y14 I0.531 J-0.53
X0.474 Y14.22 I0 J0.75
G3 X0.032 Y13.78 I-0.221 J-0.22
X0.474 Y13.78 I0.221 J0.22
G1 Z-1.4
Z-3
G2 X1.005 Y14 I0.531 J-0.53
X0.474 Y14.22 I0 J0.75
G3 X0.032 Y13.78 I-0.221 J-0.22
X0.474 Y13.78 I0.221 J0.22
G1 Z-1.7
Z-3.3
G2 X1.005 Y14 I0.531 J-0.53
X0.474 Y14.22 I0 J0.75
G3 X0.032 Y13.78 I-0.221 J-0.22
X0.474 Y13.78 I0.221 J0.22
G1 Z-2
Z-3.5
G2 X1.005 Y14 I0.531 J-0.53
X0.474 Y14.22 I0 J0.75
G3 X0.032 Y13.78 I-0.221 J-0.22
X0.474 Y13.78 I0.221 J0.22
G0 Z7
X4.051 Y21.231
Z2
G1 Z1.3 F400
Z-0.3
G3 X4.455 Y21.769 I0.202 J0.269
X4.051 Y21.231 I-0.202 J-0.269
G1 Z1
Z-0.6
G3 X4.455 Y21.769 I0.202 J0.269
X4.051 Y21.231 I-0.202 J-0.269
G1 Z0.7
Z-0.9
G3 X4.455 Y21.769 I0.202 J0.269
X4.051 Y21.231 I-0.202 J-0.269
G1 Z0.4
Z-1.2
G3 X4.455 Y21.769 I0.202 J0.269
X4.051 Y21.231 I-0.202 J-0.269
G1 Z0.1
Z-1.5
G3 X4.455 Y21.769 I0.202 J0.269
X4.051 Y21.231 I-0.202 J-0.269
G1 Z-0.2
Z-1.8
G3 X4.455 Y21.769 I0.202 J0.269
X4.051 Y21.231 I-0.202 J-0.269
G1 Z-0.5
Z-2.1
G3 X4.455 Y21.769 I0.202 J0.269
X4.051 Y21.231 I-0.202 J-0.269
G1 Z-0.8
Z-2.4
G3 X4.455 Y21.769 I0.202 J0.269
X4.051 Y21.231 I-0.202 J-0.269
G1 Z-1.1
Z-2.7
G3 X4.455 Y21.769 I0.202 J0.269
X4.051 Y21.231 I-0.202 J-0.269
G1 Z-1.4
Z-3
G3 X4.455 Y21.769 I0.202 J0.269
X4.051 Y21.231 I-0.202 J-0.269
G1 Z-1.7
Z-3.3
G3 X4.455 Y21.769 I0.202 J0.269
X4.051 Y21.231 I-0.202 J-0.269
G1 Z-2
Z-3.6
G3 X4.455 Y21.769 I0.202 J0.269
X4.051 Y21.231 I-0.202 J-0.269
G1 Z-2.3
Z-3.9
G3 X4.455 Y21.769 I0.202 J0.269
X4.051 Y21.231 I-0.202 J-0.269
G1 Z-2.6
Z-4.2
G3 X4.455 Y21.769 I0.202 J0.269
X4.051 Y21.231 I-0.202 J-0.269
G1 Z-2.9
Z-4.5
G3 X4.455 Y21.769 I0.202 J0.269
X4.051 Y21.231 I-0.202 J-0.269
G1 Z-3.2
Z-4.8
G3 X4.455 Y21.769 I0.202 J0.269
X4.051 Y21.231 I-0.202 J-0.269
G1 Z-3.5
Z-5.1
G3 X4.455 Y21.769 I0.202 J0.269
X4.051 Y21.231 I-0.202 J-0.269
G1 Z-3.8
Z-5.4
G3 X4.455 Y21.769 I0.202 J0.269
X4.051 Y21.231 I-0.202 J-0.269
G1 Z-4.1
Z-5.7
G3 X4.455 Y21.769 I0.202 J0.269
X4.051 Y21.231 I-0.202 J-0.269
G1 Z-4.4
Z-6
G3 X4.455 Y21.769 I0.202 J0.269
X4.051 Y21.231 I-0.202 J-0.269
G0 Z7
X4.077 Y13.766
Z2
G1 Z1.3 F400
Z-0.3
G3 X4.429 Y14.234 I0.176 J0.234
X4.077 Y13.766 I-0.176 J-0.234
G1 Z1
Z-0.6
G3 X4.429 Y14.234 I0.176 J0.234
X4.077 Y13.766 I-0.176 J-0.234
G1 Z0.7
Z-0.9
G3 X4.429 Y14.234 I0.176 J0.234
X4.077 Y13.766 I-0.176 J-0.234
G1 Z0.4
Z-1.2
G3 X4.429 Y14.234 I0.176 J0.234
X4.077 Y13.766 I-0.176 J-0.234
G1 Z0.1
Z-1.5
G3 X4.429 Y14.234 I0.176 J0.234
X4.077 Y13.766 I-0.176 J-0.234
G1 Z-0.2
Z-1.8
G3 X4.429 Y14.234 I0.176 J0.234
X4.077 Y13.766 I-0.176 J-0.234
G1 Z-0.5
Z-2.1
G3 X4.429 Y14.234 I0.176 J0.234
X4.077 Y13.766 I-0.176 J-0.234
G1 Z-0.8
Z-2.4
G3 X4.429 Y14.234 I0.176 J0.234
X4.077 Y13.766 I-0.176 J-0.234
G1 Z-1.1
Z-2.7
G3 X4.429 Y14.234 I0.176 J0.234
X4.077 Y13.766 I-0.176 J-0.234
G1 Z-1.4
Z-3
G3 X4.429 Y14.234 I0.176 J0.234
X4.077 Y13.766 I-0.176 J-0.234
G1 Z-1.7
Z-3.3
G3 X4.429 Y14.234 I0.176 J0.234
X4.077 Y13.766 I-0.176 J-0.234
G1 Z-2
Z-3.6
G3 X4.429 Y14.234 I0.176 J0.234
X4.077 Y13.766 I-0.176 J-0.234
G1 Z-2.3
Z-3.9
G3 X4.429 Y14.234 I0.176 J0.234
X4.077 Y13.766 I-0.176 J-0.234
G1 Z-2.6
Z-4.2
G3 X4.429 Y14.234 I0.176 J0.234
X4.077 Y13.766 I-0.176 J-0.234
G1 Z-2.9
Z-4.5
G3 X4.429 Y14.234 I0.176 J0.234
X4.077 Y13.766 I-0.176 J-0.234
G1 Z-3.2
Z-4.8
G3 X4.429 Y14.234 I0.176 J0.234
X4.077 Y13.766 I-0.176 J-0.234
G1 Z-3.5
Z-5.1
G3 X4.429 Y14.234 I0.176 J0.234
X4.077 Y13.766 I-0.176 J-0.234
G1 Z-3.8
Z-5.4
G3 X4.429 Y14.234 I0.176 J0.234
X4.077 Y13.766 I-0.176 J-0.234
G1 Z-4.1
Z-5.7
G3 X4.429 Y14.234 I0.176 J0.234
X4.077 Y13.766 I-0.176 J-0.234
G1 Z-4.4
Z-6
G3 X4.429 Y14.234 I0.176 J0.234
X4.077 Y13.766 I-0.176 J-0.234
G0 Z7

(Drill3)
X0.253 Y16.5
Z6
Z4
Z2
G1 Z-10 F400
G0 Z4
Y14
Z-1.5
G1 Z-7.4 F400
G0 Z4
X4.253
Z-0.9
G1 Z-6 F400
G0 Z4
Y16.5
Z-0.9
G1 Z-8.4 F400
G0 Z4
Y19
Z-0.9
G1 Z-8.4 F400
G0 Z4
Y21.5
Z-0.9
G1 Z-6 F400
G0 Z4
X0.253
Z2
G1 Z-10 F400
G0 Z4
Z6
M9
M5
M30
