(1001)
(T1  D=1.5 CR=0 - ZMIN=-10 - flat end mill)
G90 G94
G17
G21

(2D Pocket1)
T1
S5000 M3
G54
M8
G0 X25.916 Y50.439
Z7
Z2
G1 Z1.8 F200
Z-0.1
X25.896
X25.916
G0 Z4
X1.906 Y50.449
Z2
G1 Z1.8 F200
Z-0.1
Y50.429
Y50.449
G0 Z4
Y3.449
Z2
G1 Z1.8 F200
Z-0.1
Y3.429
Y3.449
G0 Z4
X25.906
Z2
G1 Z1.8 F200
Z-0.1
Y3.429
Y3.449
G0 Z7
X1.906
Z2
G1 Z1.8 F200
Z-0.8
Y3.429
Y3.449
X1.896 Y3.439 Z-0.801
X1.906 Y3.429
X1.912 Y3.431
X1.916 Y3.439 Z-0.802
X1.906 Y3.449
X1.896 Y3.439 Z-0.803
X1.906 Y3.429
X1.912 Y3.431 Z-0.804
X1.916 Y3.439
X1.906 Y3.449
X1.896 Y3.439 Z-0.805
X1.906 Y3.429
X1.912 Y3.431 Z-0.806
X1.916 Y3.439
X1.906 Y3.449 Z-0.807
X1.896 Y3.439
X1.906 Y3.429 Z-0.808
X1.912 Y3.431
X1.916 Y3.439
X1.906 Y3.449 Z-0.809
X1.896 Y3.439
X1.906 Y3.429 Z-0.81
X1.912 Y3.431
X1.916 Y3.439
X1.906 Y3.449 Z-0.811
X1.896 Y3.439 Z-0.812
X1.906 Y3.429
X1.912 Y3.431
X1.916 Y3.439 Z-0.813
X1.906 Y3.449
X1.896 Y3.439 Z-0.814
X1.906 Y3.429
X1.912 Y3.431
X1.916 Y3.439 Z-0.815
X1.906 Y3.449
X1.896 Y3.439 Z-0.816
X1.906 Y3.429
X1.912 Y3.431 Z-0.817
X1.916 Y3.439
X1.906 Y3.449 Z-0.818
X1.896 Y3.439
X1.906 Y3.429 Z-0.819
X1.912 Y3.431
X1.916 Y3.439
X1.906 Y3.449 Z-0.82
X1.896 Y3.439
X1.906 Y3.429 Z-0.821
X1.912 Y3.431
X1.916 Y3.439
X1.906 Y3.449 Z-0.822
X1.896 Y3.439
X1.906 Y3.429 Z-0.823
X1.912 Y3.431
X1.916 Y3.439 Z-0.824
X1.906 Y3.449
X1.896 Y3.439 Z-0.825
X1.906 Y3.429
X1.912 Y3.431
X1.916 Y3.439 Z-0.826
X1.906 Y3.449
X1.896 Y3.439 Z-0.827
X1.906 Y3.429
X1.912 Y3.431 Z-0.828
X1.916 Y3.439
X1.906 Y3.449 Z-0.829
X1.896 Y3.439
X1.906 Y3.429 Z-0.83
X1.912 Y3.431
X1.916 Y3.439
X1.906 Y3.449 Z-0.831
X1.896 Y3.439
X1.906 Y3.429 Z-0.832
X1.912 Y3.431
X1.916 Y3.439
X1.906 Y3.449 Z-0.833
X1.896 Y3.439
X1.906 Y3.429 Z-0.834
X1.912 Y3.431
X1.916 Y3.439 Z-0.835
X1.906 Y3.449
X1.896 Y3.439 Z-0.836
X1.906 Y3.429
X1.912 Y3.431
X1.916 Y3.439 Z-0.837
X1.906 Y3.449
X1.896 Y3.439 Z-0.838
X1.906 Y3.429
X1.912 Y3.431 Z-0.839
X1.916 Y3.439
X1.906 Y3.449
X1.896 Y3.439 Z-0.84
X1.906 Y3.429 Z-0.841
X1.912 Y3.431
X1.916 Y3.439
X1.906 Y3.449 Z-0.842
X1.896 Y3.439
X1.906 Y3.429 Z-0.843
X1.912 Y3.431
X1.916 Y3.439
X1.906 Y3.449 Z-0.844
X1.896 Y3.439
X1.906 Y3.429 Z-0.845
X1.912 Y3.431
X1.916 Y3.439 Z-0.846
X1.906 Y3.449
X1.896 Y3.439 Z-0.847
X1.906 Y3.429
X1.912 Y3.431
X1.916 Y3.439 Z-0.848
X1.906 Y3.449
X1.896 Y3.439 Z-0.849
X1.906 Y3.429
X1.912 Y3.431 Z-0.85
X1.916 Y3.439
X1.906 Y3.449
X1.896 Y3.439 Z-0.851
X1.906 Y3.429 Z-0.852
X1.912 Y3.431
X1.916 Y3.439
X1.906 Y3.449 Z-0.853
X1.896 Y3.439
X1.906 Y3.429 Z-0.854
X1.912 Y3.431
X1.916 Y3.439
X1.906 Y3.449 Z-0.855
X1.896 Y3.439
X1.906 Y3.429 Z-0.856
X1.912 Y3.431
X1.916 Y3.439
X1.906 Y3.449 Z-0.857
X1.896 Y3.439 Z-0.858
X1.906 Y3.429
X1.912 Y3.431
X1.916 Y3.439 Z-0.859
X1.906 Y3.449
X1.896 Y3.439 Z-0.86
X1.906 Y3.429
X1.912 Y3.431 Z-0.861
X1.916 Y3.439
X1.906 Y3.449
X1.896 Y3.439 Z-0.862
X1.906 Y3.429 Z-0.863
X1.912 Y3.431
X1.916 Y3.439
X1.906 Y3.449 Z-0.864
X1.896 Y3.439
X1.906 Y3.429 Z-0.865
X1.912 Y3.431
X1.916 Y3.439
X1.906 Y3.449 Z-0.866
X1.896 Y3.439
X1.906 Y3.429 Z-0.867
X1.912 Y3.431
X1.916 Y3.439
X1.906 Y3.449 Z-0.868
X1.896 Y3.439 Z-0.869
X1.906 Y3.429
X1.912 Y3.431
X1.916 Y3.439 Z-0.87
X1.906 Y3.449
X1.896 Y3.439 Z-0.871
X1.906 Y3.429
X1.912 Y3.431 Z-0.872
X1.916 Y3.439
X1.906 Y3.449
X1.896 Y3.439 Z-0.873
X1.906 Y3.429 Z-0.874
X1.912 Y3.431
X1.916 Y3.439
X1.906 Y3.449 Z-0.875
X1.896 Y3.439
X1.906 Y3.429 Z-0.876
X1.912 Y3.431
X1.916 Y3.439
X1.906 Y3.449 Z-0.877
X1.896 Y3.439
X1.906 Y3.429 Z-0.878
X1.912 Y3.431
X1.916 Y3.439
X1.906 Y3.449 Z-0.879
X1.896 Y3.439 Z-0.88
X1.906 Y3.429
X1.912 Y3.431
X1.916 Y3.439 Z-0.881
X1.906 Y3.449
X1.896 Y3.439 Z-0.882
X1.906 Y3.429
X1.912 Y3.431 Z-0.883
X1.916 Y3.439
X1.906 Y3.449
X1.896 Y3.439 Z-0.884
X1.906 Y3.429
X1.912 Y3.431 Z-0.885
X1.916 Y3.439
X1.906 Y3.449 Z-0.886
X1.896 Y3.439
X1.906 Y3.429 Z-0.887
X1.912 Y3.431
X1.916 Y3.439
X1.906 Y3.449 Z-0.888
X1.896 Y3.439
X1.906 Y3.429 Z-0.889
X1.912 Y3.431
X1.916 Y3.439
X1.906 Y3.449 Z-0.89
X1.896 Y3.439 Z-0.891
X1.906 Y3.429
X1.912 Y3.431
X1.916 Y3.439 Z-0.892
X1.906 Y3.449
X1.896 Y3.439 Z-0.893
X1.906 Y3.429
X1.912 Y3.431
X1.916 Y3.439 Z-0.894
X1.906 Y3.449
X1.896 Y3.439 Z-0.895
X1.906 Y3.429
X1.912 Y3.431 Z-0.896
X1.916 Y3.439
X1.906 Y3.449 Z-0.897
X1.896 Y3.439
X1.906 Y3.429 Z-0.898
X1.912 Y3.431
X1.916 Y3.439
X1.906 Y3.449 Z-0.899
X1.896 Y3.439
X1.906 Y3.429 Z-0.9
X1.912 Y3.431
X1.916 Y3.439
X1.906 Y3.449 Z-0.901
X1.896 Y3.439
X1.906 Y3.429 Z-0.902
X1.912 Y3.431
X1.916 Y3.439 Z-0.903
X1.906 Y3.449
X1.896 Y3.439 Z-0.904
X1.906 Y3.429
X1.912 Y3.431
X1.916 Y3.439 Z-0.905
X1.906 Y3.449
X1.896 Y3.439 Z-0.906
X1.906 Y3.429
X1.912 Y3.431 Z-0.907
X1.916 Y3.439
X1.906 Y3.449 Z-0.908
X1.896 Y3.439
X1.906 Y3.429 Z-0.909
X1.912 Y3.431
X1.916 Y3.439
X1.906 Y3.449 Z-0.91
X1.896 Y3.439
X1.906 Y3.429 Z-0.911
X1.912 Y3.431
X1.916 Y3.439
X1.906 Y3.449 Z-0.912
X1.896 Y3.439
X1.906 Y3.429 Z-0.913
X1.912 Y3.431
X1.916 Y3.439 Z-0.914
X1.906 Y3.449
X1.896 Y3.439 Z-0.915
X1.906 Y3.429
X1.912 Y3.431
X1.916 Y3.439 Z-0.916
X1.906 Y3.449
X1.896 Y3.439 Z-0.917
X1.906 Y3.429
X1.912 Y3.431 Z-0.918
X1.916 Y3.439
X1.906 Y3.449
X1.896 Y3.439 Z-0.919
X1.906 Y3.429 Z-0.92
X1.912 Y3.431
X1.916 Y3.439
X1.906 Y3.449 Z-0.921
X1.896 Y3.439
X1.906 Y3.429 Z-0.922
X1.912 Y3.431
X1.916 Y3.439
X1.906 Y3.449 Z-0.923
X1.896 Y3.439
X1.906 Y3.429 Z-0.924
X1.912 Y3.431
X1.916 Y3.439 Z-0.925
X1.906 Y3.449
X1.896 Y3.439 Z-0.926
X1.906 Y3.429
X1.912 Y3.431
X1.916 Y3.439 Z-0.927
X1.906 Y3.449
X1.896 Y3.439 Z-0.928
X1.906 Y3.429
X1.912 Y3.431 Z-0.929
X1.916 Y3.439
X1.906 Y3.449
X1.896 Y3.439 Z-0.93
X1.906 Y3.429 Z-0.931
X1.912 Y3.431
X1.916 Y3.439
X1.906 Y3.449 Z-0.932
X1.896 Y3.439
X1.906 Y3.429 Z-0.933
X1.912 Y3.431
X1.916 Y3.439
X1.906 Y3.449 Z-0.934
X1.896 Y3.439
X1.906 Y3.429 Z-0.935
X1.912 Y3.431
X1.916 Y3.439
X1.906 Y3.449 Z-0.936
X1.896 Y3.439 Z-0.937
X1.906 Y3.429
X1.912 Y3.431
X1.916 Y3.439 Z-0.938
X1.906 Y3.449
X1.896 Y3.439 Z-0.939
X1.906 Y3.429
X1.912 Y3.431 Z-0.94
X1.916 Y3.439
X1.906 Y3.449
X1.896 Y3.439 Z-0.941
X1.906 Y3.429 Z-0.942
X1.912 Y3.431
X1.916 Y3.439
X1.906 Y3.449 Z-0.943
X1.896 Y3.439
X1.906 Y3.429 Z-0.944
X1.912 Y3.431
X1.916 Y3.439
X1.906 Y3.449 Z-0.945
X1.896 Y3.439
X1.906 Y3.429 Z-0.946
X1.912 Y3.431
X1.916 Y3.439
X1.906 Y3.449 Z-0.947
X1.896 Y3.439 Z-0.948
X1.906 Y3.429
X1.912 Y3.431
X1.916 Y3.439 Z-0.949
X1.906 Y3.449
X1.896 Y3.439 Z-0.95
X1.906 Y3.429
X1.912 Y3.431 Z-0.951
X1.916 Y3.439
X1.906 Y3.449
X1.896 Y3.439 Z-0.952
X1.906 Y3.429
X1.912 Y3.431 Z-0.953
X1.916 Y3.439
X1.906 Y3.449 Z-0.954
X1.896 Y3.439
X1.906 Y3.429 Z-0.955
X1.912 Y3.431
X1.916 Y3.439
X1.906 Y3.449 Z-0.956
X1.896 Y3.439
X1.906 Y3.429 Z-0.957
X1.912 Y3.431
X1.916 Y3.439
X1.906 Y3.449 Z-0.958
X1.896 Y3.439 Z-0.959
X1.906 Y3.429
X1.912 Y3.431
X1.916 Y3.439 Z-0.96
X1.906 Y3.449
X1.896 Y3.439 Z-0.961
X1.906 Y3.429
X1.912 Y3.431 Z-0.962
X1.916 Y3.439
X1.906 Y3.449
X1.896 Y3.439 Z-0.963
X1.906 Y3.429
X1.912 Y3.431 Z-0.964
X1.916 Y3.439
X1.906 Y3.449 Z-0.965
X1.896 Y3.439
X1.906 Y3.429 Z-0.966
X1.912 Y3.431
X1.916 Y3.439
X1.906 Y3.449 Z-0.967
X1.896 Y3.439
X1.906 Y3.429 Z-0.968
X1.912 Y3.431
X1.916 Y3.439
X1.906 Y3.449 Z-0.969
X1.896 Y3.439
X1.906 Y3.429 Z-0.97
X1.912 Y3.431
X1.916 Y3.439 Z-0.971
X1.906 Y3.449
X1.896 Y3.439 Z-0.972
X1.906 Y3.429
X1.912 Y3.431
X1.916 Y3.439 Z-0.973
X1.906 Y3.449
X1.896 Y3.439 Z-0.974
X1.906 Y3.429
X1.912 Y3.431 Z-0.975
X1.916 Y3.439
X1.906 Y3.449 Z-0.976
X1.896 Y3.439
X1.906 Y3.429 Z-0.977
X1.912 Y3.431
X1.916 Y3.439
X1.906 Y3.449 Z-0.978
X1.896 Y3.439
X1.906 Y3.429 Z-0.979
X1.912 Y3.431
X1.916 Y3.439
X1.906 Y3.449 Z-0.98
X1.896 Y3.439
X1.906 Y3.429 Z-0.981
X1.912 Y3.431
X1.916 Y3.439 Z-0.982
X1.906 Y3.449
X1.896 Y3.439 Z-0.983
X1.906 Y3.429
X1.912 Y3.431
X1.916 Y3.439 Z-0.984
X1.906 Y3.449
X1.896 Y3.439 Z-0.985
X1.906 Y3.429
X1.912 Y3.431 Z-0.986
X1.916 Y3.439
X1.906 Y3.449 Z-0.987
X1.896 Y3.439
X1.906 Y3.429 Z-0.988
X1.912 Y3.431
X1.916 Y3.439
X1.906 Y3.449 Z-0.989
X1.896 Y3.439
X1.906 Y3.429 Z-0.99
X1.912 Y3.431
X1.916 Y3.439
X1.906 Y3.449 Z-0.991
X1.896 Y3.439
X1.906 Y3.429 Z-0.992
X1.912 Y3.431
X1.916 Y3.439 Z-0.993
X1.906 Y3.449
X1.896 Y3.439 Z-0.994
X1.906 Y3.429
X1.912 Y3.431
X1.916 Y3.439 Z-0.995
X1.906 Y3.449
X1.896 Y3.439 Z-0.996
X1.906 Y3.429
X1.912 Y3.431 Z-0.997
X1.916 Y3.439
X1.906 Y3.449
X1.896 Y3.439 Z-0.998
X1.906 Y3.429 Z-0.999
X1.912 Y3.431
X1.916 Y3.439
X1.906 Y3.449 Z-1
X1.896 Y3.439
X1.906 Y3.429 Z-1.001
X1.912 Y3.431
X1.916 Y3.439
X1.906 Y3.449 Z-1.002
X1.896 Y3.439
X1.906 Y3.429 Z-1.003
X1.912 Y3.431
X1.916 Y3.439 Z-1.004
X1.906 Y3.449
X1.896 Y3.439 Z-1.005
X1.906 Y3.429
X1.912 Y3.431
X1.916 Y3.439 Z-1.006
X1.906 Y3.449
X1.896 Y3.439 Z-1.007
X1.906 Y3.429
X1.912 Y3.431 Z-1.008
X1.916 Y3.439
X1.906 Y3.449
X1.896 Y3.439 Z-1.009
X1.906 Y3.429 Z-1.01
X1.912 Y3.431
X1.916 Y3.439
X1.906 Y3.449 Z-1.011
X1.896 Y3.439
X1.906 Y3.429 Z-1.012
X1.912 Y3.431
X1.916 Y3.439
X1.906 Y3.449 Z-1.013
X1.896 Y3.439
X1.906 Y3.429 Z-1.014
X1.912 Y3.431
X1.916 Y3.439
X1.906 Y3.449 Z-1.015
X1.896 Y3.439 Z-1.016
X1.906 Y3.429
X1.912 Y3.431
X1.916 Y3.439 Z-1.017
X1.906 Y3.449
X1.896 Y3.439 Z-1.018
X1.906 Y3.429
X1.912 Y3.431 Z-1.019
X1.916 Y3.439
X1.906 Y3.449
X1.896 Y3.439 Z-1.02
X1.906 Y3.429 Z-1.021
X1.912 Y3.431
X1.916 Y3.439
X1.906 Y3.449 Z-1.022
X1.896 Y3.439
X1.906 Y3.429 Z-1.023
X1.912 Y3.431
X1.916 Y3.439
X1.906 Y3.449 Z-1.024
X1.896 Y3.439
X1.906 Y3.429 Z-1.025
X1.912 Y3.431
X1.916 Y3.439
X1.906 Y3.449 Z-1.026
X1.896 Y3.439 Z-1.027
X1.906 Y3.429
X1.912 Y3.431
X1.916 Y3.439 Z-1.028
X1.906 Y3.449
X1.896 Y3.439 Z-1.029
X1.906 Y3.429
X1.912 Y3.431 Z-1.03
X1.916 Y3.439
X1.906 Y3.449
X1.896 Y3.439 Z-1.031
X1.906 Y3.429
X1.912 Y3.431 Z-1.032
X1.916 Y3.439
X1.906 Y3.449 Z-1.033
X1.896 Y3.439
X1.906 Y3.429 Z-1.034
X1.912 Y3.431
X1.916 Y3.439
X1.906 Y3.449 Z-1.035
X1.896 Y3.439
X1.906 Y3.429 Z-1.036
X1.912 Y3.431
X1.916 Y3.439
X1.906 Y3.449 Z-1.037
X1.896 Y3.439 Z-1.038
X1.906 Y3.429
X1.912 Y3.431
X1.916 Y3.439 Z-1.039
X1.906 Y3.449
X1.896 Y3.439 Z-1.04
X1.906 Y3.429
X1.912 Y3.431
X1.916 Y3.439 Z-1.041
X1.906 Y3.449
X1.896 Y3.439 Z-1.042
X1.906 Y3.429
X1.912 Y3.431 Z-1.043
X1.916 Y3.439
X1.906 Y3.449 Z-1.044
X1.896 Y3.439
X1.906 Y3.429 Z-1.045
X1.912 Y3.431
X1.916 Y3.439
X1.906 Y3.449 Z-1.046
X1.896 Y3.439
X1.906 Y3.429 Z-1.047
X1.912 Y3.431
X1.916 Y3.439
X1.906 Y3.449 Z-1.048
X1.896 Y3.439
X1.906 Y3.429 Z-1.049
X1.912 Y3.431
X1.916 Y3.439 Z-1.05
X1.906 Y3.449
X1.896 Y3.439 Z-1.051
X1.906 Y3.429
X1.912 Y3.431
X1.916 Y3.439 Z-1.052
X1.906 Y3.449
X1.896 Y3.439 Z-1.053
X1.906 Y3.429
X1.912 Y3.431 Z-1.054
X1.916 Y3.439
X1.906 Y3.449 Z-1.055
X1.896 Y3.439
X1.906 Y3.429 Z-1.056
X1.912 Y3.431
X1.916 Y3.439
X1.906 Y3.449 Z-1.057
X1.896 Y3.439
X1.906 Y3.429 Z-1.058
X1.912 Y3.431
X1.916 Y3.439
X1.906 Y3.449 Z-1.059
X1.896 Y3.439
X1.906 Y3.429 Z-1.06
X1.912 Y3.431
X1.916 Y3.439 Z-1.061
X1.906 Y3.449
X1.896 Y3.439 Z-1.062
X1.906 Y3.429
X1.912 Y3.431
X1.916 Y3.439 Z-1.063
X1.906 Y3.449
X1.896 Y3.439 Z-1.064
X1.906 Y3.429
X1.912 Y3.431 Z-1.065
X1.916 Y3.439
X1.906 Y3.449
X1.896 Y3.439 Z-1.066
X1.906 Y3.429 Z-1.067
X1.912 Y3.431
X1.916 Y3.439
X1.906 Y3.449 Z-1.068
X1.896 Y3.439
X1.906 Y3.429 Z-1.069
X1.912 Y3.431
X1.916 Y3.439
X1.906 Y3.449 Z-1.07
X1.896 Y3.439
X1.906 Y3.429 Z-1.071
X1.912 Y3.431
X1.916 Y3.439 Z-1.072
X1.906 Y3.449
X1.896 Y3.439 Z-1.073
X1.906 Y3.429
X1.912 Y3.431
X1.916 Y3.439 Z-1.074
X1.906 Y3.449
X1.896 Y3.439 Z-1.075
X1.906 Y3.429
X1.912 Y3.431 Z-1.076
X1.916 Y3.439
X1.906 Y3.449
X1.896 Y3.439 Z-1.077
X1.906 Y3.429 Z-1.078
X1.912 Y3.431
X1.916 Y3.439
X1.906 Y3.449 Z-1.079
X1.896 Y3.439
X1.906 Y3.429 Z-1.08
X1.912 Y3.431
X1.916 Y3.439
X1.906 Y3.449 Z-1.081
X1.896 Y3.439
X1.906 Y3.429 Z-1.082
X1.912 Y3.431
X1.916 Y3.439
X1.906 Y3.449 Z-1.083
X1.896 Y3.439 Z-1.084
X1.906 Y3.429
X1.912 Y3.431
X1.916 Y3.439 Z-1.085
X1.906 Y3.449
X1.896 Y3.439 Z-1.086
X1.906 Y3.429
X1.912 Y3.431 Z-1.087
X1.916 Y3.439
X1.906 Y3.449
X1.896 Y3.439 Z-1.088
X1.906 Y3.429 Z-1.089
X1.912 Y3.431
X1.916 Y3.439
X1.906 Y3.449 Z-1.09
X1.896 Y3.439
X1.906 Y3.429 Z-1.091
X1.912 Y3.431
X1.916 Y3.439
X1.906 Y3.449 Z-1.092
X1.896 Y3.439
X1.906 Y3.429 Z-1.093
X1.912 Y3.431
X1.916 Y3.439
X1.906 Y3.449 Z-1.094
X1.896 Y3.439 Z-1.095
X1.906 Y3.429
X1.912 Y3.431
X1.916 Y3.439 Z-1.096
X1.906 Y3.449
X1.896 Y3.439 Z-1.097
X1.906 Y3.429
X1.912 Y3.431 Z-1.098
X1.916 Y3.439
X1.906 Y3.449
X1.896 Y3.439 Z-1.099
X1.906 Y3.429
X1.912 Y3.431 Z-1.1
X1.916 Y3.439
X1.906 Y3.449 Z-1.101
X1.896 Y3.439
X1.906 Y3.429 Z-1.102
X1.912 Y3.431
X1.916 Y3.439
X1.906 Y3.449 Z-1.103
X1.896 Y3.439
X1.906 Y3.429 Z-1.104
X1.912 Y3.431
X1.916 Y3.439
X1.906 Y3.449 Z-1.105
X1.896 Y3.439 Z-1.106
X1.906 Y3.429
X1.912 Y3.431
X1.916 Y3.439 Z-1.107
X1.906 Y3.449
X1.896 Y3.439 Z-1.108
X1.906 Y3.429
X1.912 Y3.431 Z-1.109
X1.916 Y3.439
X1.906 Y3.449
X1.896 Y3.439 Z-1.11
X1.906 Y3.429
X1.912 Y3.431 Z-1.111
X1.916 Y3.439
X1.906 Y3.449 Z-1.112
X1.896 Y3.439
X1.906 Y3.429 Z-1.113
X1.912 Y3.431
X1.916 Y3.439
X1.906 Y3.449 Z-1.114
X1.896 Y3.439
X1.906 Y3.429 Z-1.115
X1.912 Y3.431
X1.916 Y3.439
X1.906 Y3.449 Z-1.116
X1.896 Y3.439 Z-1.117
X1.906 Y3.429
X1.912 Y3.431
X1.916 Y3.439 Z-1.118
X1.906 Y3.449
X1.896 Y3.439 Z-1.119
X1.906 Y3.429
X1.912 Y3.431
X1.916 Y3.439 Z-1.12
X1.906 Y3.449
X1.896 Y3.439 Z-1.121
X1.906 Y3.429
X1.912 Y3.431 Z-1.122
X1.916 Y3.439
X1.906 Y3.449 Z-1.123
X1.896 Y3.439
X1.906 Y3.429 Z-1.124
X1.912 Y3.431
X1.916 Y3.439
X1.906 Y3.449 Z-1.125
X1.896 Y3.439
X1.906 Y3.429 Z-1.126
X1.912 Y3.431
X1.916 Y3.439
X1.906 Y3.449 Z-1.127
X1.896 Y3.439
X1.906 Y3.429 Z-1.128
X1.912 Y3.431
X1.916 Y3.439 Z-1.129
X1.906 Y3.449
X1.896 Y3.439 Z-1.13
X1.906 Y3.429
X1.912 Y3.431
X1.916 Y3.439 Z-1.131
X1.906 Y3.449
X1.896 Y3.439 Z-1.132
X1.906 Y3.429
X1.912 Y3.431 Z-1.133
X1.916 Y3.439
X1.906 Y3.449 Z-1.134
X1.896 Y3.439
X1.906 Y3.429 Z-1.135
X1.912 Y3.431
X1.916 Y3.439
X1.906 Y3.449 Z-1.136
X1.896 Y3.439
X1.906 Y3.429 Z-1.137
X1.912 Y3.431
X1.916 Y3.439
X1.906 Y3.449 Z-1.138
X1.896 Y3.439
X1.906 Y3.429 Z-1.139
X1.912 Y3.431
X1.916 Y3.439 Z-1.14
X1.906 Y3.449
X1.896 Y3.439 Z-1.141
X1.906 Y3.429
X1.912 Y3.431
X1.916 Y3.439 Z-1.142
X1.906 Y3.449
X1.896 Y3.439 Z-1.143
X1.906 Y3.429
X1.912 Y3.431 Z-1.144
X1.916 Y3.439
X1.906 Y3.449
X1.896 Y3.439 Z-1.145
X1.906 Y3.429 Z-1.146
X1.912 Y3.431
X1.916 Y3.439
X1.906 Y3.449 Z-1.147
X1.896 Y3.439
X1.906 Y3.429 Z-1.148
X1.912 Y3.431
X1.916 Y3.439
X1.906 Y3.449 Z-1.149
X1.896 Y3.439
X1.906 Y3.429 Z-1.15
X1.912 Y3.431
X1.916 Y3.439 Z-1.151
X1.906 Y3.449
X1.896 Y3.439 Z-1.152
X1.906 Y3.429
X1.912 Y3.431
X1.916 Y3.439 Z-1.153
X1.906 Y3.449
X1.896 Y3.439 Z-1.154
X1.906 Y3.429
X1.912 Y3.431 Z-1.155
X1.916 Y3.439
X1.906 Y3.449
X1.896 Y3.439 Z-1.156
X1.906 Y3.429 Z-1.157
X1.912 Y3.431
X1.916 Y3.439
X1.906 Y3.449 Z-1.158
X1.896 Y3.439
X1.906 Y3.429 Z-1.159
X1.912 Y3.431
X1.916 Y3.439
X1.906 Y3.449 Z-1.16
X1.896 Y3.439
X1.906 Y3.429 Z-1.161
X1.912 Y3.431
X1.916 Y3.439
X1.906 Y3.449 Z-1.162
X1.896 Y3.439 Z-1.163
X1.906 Y3.429
X1.912 Y3.431
X1.916 Y3.439 Z-1.164
X1.906 Y3.449
X1.896 Y3.439 Z-1.165
X1.906 Y3.429
X1.912 Y3.431 Z-1.166
X1.916 Y3.439
X1.906 Y3.449
X1.896 Y3.439 Z-1.167
X1.906 Y3.429 Z-1.168
X1.912 Y3.431
X1.916 Y3.439
X1.906 Y3.449 Z-1.169
X1.896 Y3.439
X1.906 Y3.429 Z-1.17
X1.912 Y3.431
X1.916 Y3.439
X1.906 Y3.449 Z-1.171
X1.896 Y3.439
X1.906 Y3.429 Z-1.172
X1.912 Y3.431
X1.916 Y3.439
X1.906 Y3.449 Z-1.173
X1.896 Y3.439 Z-1.174
X1.906 Y3.429
X1.912 Y3.431
X1.916 Y3.439 Z-1.175
X1.906 Y3.449
X1.896 Y3.439 Z-1.176
X1.906 Y3.429
X1.912 Y3.431 Z-1.177
X1.916 Y3.439
X1.906 Y3.449
X1.896 Y3.439 Z-1.178
X1.906 Y3.429
X1.912 Y3.431 Z-1.179
X1.916 Y3.439
X1.906 Y3.449 Z-1.18
X1.896 Y3.439
X1.906 Y3.429 Z-1.181
X1.912 Y3.431
X1.916 Y3.439
X1.906 Y3.449 Z-1.182
X1.896 Y3.439
X1.906 Y3.429 Z-1.183
X1.912 Y3.431
X1.916 Y3.439
X1.906 Y3.449 Z-1.184
X1.896 Y3.439 Z-1.185
X1.906 Y3.429
X1.912 Y3.431
X1.916 Y3.439 Z-1.186
X1.906 Y3.449
X1.896 Y3.439 Z-1.187
X1.906 Y3.429
X1.912 Y3.431 Z-1.188
X1.916 Y3.439
X1.906 Y3.449
X1.896 Y3.439 Z-1.189
X1.906 Y3.429
X1.912 Y3.431 Z-1.19
X1.916 Y3.439
X1.906 Y3.449 Z-1.191
X1.896 Y3.439
X1.906 Y3.429 Z-1.192
X1.912 Y3.431
X1.916 Y3.439
X1.906 Y3.449 Z-1.193
X1.896 Y3.439
X1.906 Y3.429 Z-1.194
X1.912 Y3.431
X1.916 Y3.439
X1.906 Y3.449 Z-1.195
X1.896 Y3.439
X1.906 Y3.429 Z-1.196
X1.912 Y3.431
X1.916 Y3.439 Z-1.197
X1.906 Y3.449
X1.896 Y3.439 Z-1.198
X1.906 Y3.429
X1.912 Y3.431
X1.916 Y3.439 Z-1.199
X1.906 Y3.449
X1.896 Y3.439 Z-1.2
X1.906 Y3.429
X1.912 Y3.431 Z-1.201
X1.916 Y3.439
X1.906 Y3.449 Z-1.202
X1.896 Y3.439
X1.906 Y3.429 Z-1.203
X1.912 Y3.431
X1.916 Y3.439
X1.906 Y3.449 Z-1.204
X1.896 Y3.439
X1.906 Y3.429 Z-1.205
X1.912 Y3.431
X1.916 Y3.439
X1.906 Y3.449 Z-1.206
X1.896 Y3.439
X1.906 Y3.429 Z-1.207
X1.912 Y3.431
X1.916 Y3.439 Z-1.208
X1.906 Y3.449
X1.896 Y3.439 Z-1.209
X1.906 Y3.429
X1.912 Y3.431
X1.916 Y3.439 Z-1.21
X1.906 Y3.449
X1.896 Y3.439 Z-1.211
X1.906 Y3.429
X1.912 Y3.431 Z-1.212
X1.916 Y3.439
X1.906 Y3.449
X1.896 Y3.439 Z-1.213
X1.906 Y3.429 Z-1.214
X1.912 Y3.431
X1.916 Y3.439
X1.906 Y3.449 Z-1.215
X1.896 Y3.439
X1.906 Y3.429 Z-1.216
X1.912 Y3.431
X1.916 Y3.439
X1.906 Y3.449 Z-1.217
X1.896 Y3.439
X1.906 Y3.429 Z-1.218
X1.912 Y3.431
X1.916 Y3.439 Z-1.219
X1.906 Y3.449
X1.896 Y3.439 Z-1.22
X1.906 Y3.429
X1.912 Y3.431
X1.916 Y3.439 Z-1.221
X1.906 Y3.449
X1.896 Y3.439 Z-1.222
X1.906 Y3.429
X1.912 Y3.431 Z-1.223
X1.916 Y3.439
X1.906 Y3.449
X1.896 Y3.439 Z-1.224
X1.906 Y3.429 Z-1.225
X1.912 Y3.431
X1.916 Y3.439
X1.906 Y3.449 Z-1.226
X1.896 Y3.439
X1.906 Y3.429 Z-1.227
X1.912 Y3.431
X1.916 Y3.439
X1.906 Y3.449 Z-1.228
X1.896 Y3.439
X1.906 Y3.429 Z-1.229
X1.912 Y3.431
X1.916 Y3.439 Z-1.23
X1.906 Y3.449
X1.896 Y3.439 Z-1.231
X1.906 Y3.429
X1.912 Y3.431
X1.916 Y3.439 Z-1.232
X1.906 Y3.449
X1.896 Y3.439 Z-1.233
X1.906 Y3.429
X1.912 Y3.431 Z-1.234
X1.916 Y3.439
X1.906 Y3.449
X1.896 Y3.439 Z-1.235
X1.906 Y3.429 Z-1.236
X1.912 Y3.431
X1.916 Y3.439
X1.906 Y3.449 Z-1.237
X1.896 Y3.439
X1.906 Y3.429 Z-1.238
X1.912 Y3.431
X1.916 Y3.439
X1.906 Y3.449 Z-1.239
X1.896 Y3.439
X1.906 Y3.429 Z-1.24
X1.912 Y3.431
X1.916 Y3.439
X1.906 Y3.449 Z-1.241
X1.896 Y3.439 Z-1.242
X1.906 Y3.429
X1.912 Y3.431
X1.916 Y3.439 Z-1.243
X1.906 Y3.449
X1.896 Y3.439 Z-1.244
X1.906 Y3.429
X1.912 Y3.431 Z-1.245
X1.916 Y3.439
X1.906 Y3.449
X1.896 Y3.439 Z-1.246
X1.906 Y3.429 Z-1.247
X1.912 Y3.431
X1.916 Y3.439
X1.906 Y3.449 Z-1.248
X1.896 Y3.439
X1.906 Y3.429 Z-1.249
X1.912 Y3.431
X1.916 Y3.439
X1.906 Y3.449 Z-1.25
X1.896 Y3.439
X1.906 Y3.429 Z-1.251
X1.912 Y3.431
X1.916 Y3.439
X1.906 Y3.449 Z-1.252
X1.896 Y3.439 Z-1.253
X1.906 Y3.429
X1.912 Y3.431
X1.916 Y3.439 Z-1.254
X1.906 Y3.449
X1.896 Y3.439 Z-1.255
X1.906 Y3.429
X1.912 Y3.431 Z-1.256
X1.916 Y3.439
X1.906 Y3.449
X1.896 Y3.439 Z-1.257
X1.906 Y3.429
X1.912 Y3.431 Z-1.258
X1.916 Y3.439
X1.906 Y3.449 Z-1.259
X1.896 Y3.439
X1.906 Y3.429 Z-1.26
X1.912 Y3.431
X1.916 Y3.439
X1.906 Y3.449 Z-1.261
X1.896 Y3.439
X1.906 Y3.429 Z-1.262
X1.912 Y3.431
X1.916 Y3.439
X1.906 Y3.449 Z-1.263
X1.896 Y3.439 Z-1.264
X1.906 Y3.429
X1.912 Y3.431
X1.916 Y3.439 Z-1.265
X1.906 Y3.449
X1.896 Y3.439 Z-1.266
X1.906 Y3.429
X1.912 Y3.431
X1.916 Y3.439 Z-1.267
X1.906 Y3.449
X1.896 Y3.439 Z-1.268
X1.906 Y3.429
X1.912 Y3.431 Z-1.269
X1.916 Y3.439
X1.906 Y3.449 Z-1.27
X1.896 Y3.439
X1.906 Y3.429 Z-1.271
X1.912 Y3.431
X1.916 Y3.439
X1.906 Y3.449 Z-1.272
X1.896 Y3.439
X1.906 Y3.429 Z-1.273
X1.912 Y3.431
X1.916 Y3.439
X1.906 Y3.449 Z-1.274
X1.896 Y3.439
X1.906 Y3.429 Z-1.275
X1.912 Y3.431
X1.916 Y3.439 Z-1.276
X1.906 Y3.449
X1.896 Y3.439 Z-1.277
X1.906 Y3.429
X1.912 Y3.431
X1.916 Y3.439 Z-1.278
X1.906 Y3.449
X1.896 Y3.439 Z-1.279
X1.906 Y3.429
X1.912 Y3.431 Z-1.28
X1.916 Y3.439
X1.906 Y3.449 Z-1.281
X1.896 Y3.439
X1.906 Y3.429 Z-1.282
X1.912 Y3.431
X1.916 Y3.439
X1.906 Y3.449 Z-1.283
X1.896 Y3.439
X1.906 Y3.429 Z-1.284
X1.912 Y3.431
X1.916 Y3.439
X1.906 Y3.449 Z-1.285
X1.896 Y3.439
X1.906 Y3.429 Z-1.286
X1.912 Y3.431
X1.916 Y3.439 Z-1.287
X1.906 Y3.449
X1.896 Y3.439 Z-1.288
X1.906 Y3.429
X1.912 Y3.431
X1.916 Y3.439 Z-1.289
X1.906 Y3.449
X1.896 Y3.439 Z-1.29
X1.906 Y3.429
X1.912 Y3.431 Z-1.291
X1.916 Y3.439
X1.906 Y3.449
X1.896 Y3.439 Z-1.292
X1.906 Y3.429 Z-1.293
X1.912 Y3.431
X1.916 Y3.439
X1.906 Y3.449 Z-1.294
X1.896 Y3.439
X1.906 Y3.429 Z-1.295
X1.912 Y3.431
X1.916 Y3.439
X1.906 Y3.449 Z-1.296
X1.896 Y3.439
X1.906 Y3.429 Z-1.297
X1.912 Y3.431
X1.916 Y3.439 Z-1.298
X1.906 Y3.449
X1.896 Y3.439 Z-1.299
X1.906 Y3.429
X1.912 Y3.431
X1.916 Y3.439 Z-1.3
X1.906 Y3.449
X1.896 Y3.439 Z-1.301
X1.906 Y3.429
X1.912 Y3.431 Z-1.302
X1.916 Y3.439
X1.906 Y3.449
X1.896 Y3.439 Z-1.303
X1.906 Y3.429 Z-1.304
X1.912 Y3.431
X1.916 Y3.439
X1.906 Y3.449 Z-1.305
X1.896 Y3.439
X1.906 Y3.429 Z-1.306
X1.912 Y3.431
X1.916 Y3.439
X1.906 Y3.449 Z-1.307
X1.896 Y3.439
X1.906 Y3.429 Z-1.308
X1.912 Y3.431
X1.916 Y3.439
X1.906 Y3.449 Z-1.309
X1.896 Y3.439 Z-1.31
X1.906 Y3.429
X1.912 Y3.431
X1.916 Y3.439 Z-1.311
X1.906 Y3.449
X1.896 Y3.439 Z-1.312
X1.906 Y3.429
X1.912 Y3.431 Z-1.313
X1.916 Y3.439
X1.906 Y3.449
X1.896 Y3.439 Z-1.314
X1.906 Y3.429 Z-1.315
X1.912 Y3.431
X1.916 Y3.439
X1.906 Y3.449 Z-1.316
X1.896 Y3.439
X1.906 Y3.429 Z-1.317
X1.912 Y3.431
X1.916 Y3.439
X1.906 Y3.449 Z-1.318
X1.896 Y3.439
X1.906 Y3.429 Z-1.319
X1.912 Y3.431
X1.916 Y3.439
X1.906 Y3.449 Z-1.32
X1.896 Y3.439 Z-1.321
X1.906 Y3.429
X1.912 Y3.431
X1.916 Y3.439 Z-1.322
X1.906 Y3.449
X1.896 Y3.439 Z-1.323
X1.906 Y3.429
X1.912 Y3.431 Z-1.324
X1.916 Y3.439
X1.906 Y3.449
X1.896 Y3.439 Z-1.325
X1.906 Y3.429
X1.912 Y3.431 Z-1.326
X1.916 Y3.439
X1.906 Y3.449 Z-1.327
X1.896 Y3.439
X1.906 Y3.429 Z-1.328
X1.912 Y3.431
X1.916 Y3.439
X1.906 Y3.449 Z-1.329
X1.896 Y3.439
X1.906 Y3.429 Z-1.33
X1.912 Y3.431
X1.916 Y3.439
X1.906 Y3.449 Z-1.331
X1.896 Y3.439 Z-1.332
X1.906 Y3.429
X1.912 Y3.431
X1.916 Y3.439 Z-1.333
X1.906 Y3.449
X1.896 Y3.439 Z-1.334
X1.906 Y3.429
X1.912 Y3.431 Z-1.335
X1.916 Y3.439
X1.906 Y3.449
X1.896 Y3.439 Z-1.336
X1.906 Y3.429
X1.912 Y3.431 Z-1.337
X1.916 Y3.439
X1.906 Y3.449 Z-1.338
X1.896 Y3.439
X1.906 Y3.429 Z-1.339
X1.912 Y3.431
X1.916 Y3.439
X1.906 Y3.449 Z-1.34
X1.896 Y3.439
X1.906 Y3.429 Z-1.341
X1.912 Y3.431
X1.916 Y3.439
X1.906 Y3.449 Z-1.342
X1.896 Y3.439 Z-1.343
X1.906 Y3.429
X1.912 Y3.431
X1.916 Y3.439 Z-1.344
X1.906 Y3.449
X1.896 Y3.439 Z-1.345
X1.906 Y3.429
X1.912 Y3.431
X1.916 Y3.439 Z-1.346
X1.906 Y3.449
X1.896 Y3.439 Z-1.347
X1.906 Y3.429
X1.912 Y3.431 Z-1.348
X1.916 Y3.439
X1.906 Y3.449 Z-1.349
X1.896 Y3.439
X1.906 Y3.429 Z-1.35
X1.912 Y3.431
X1.916 Y3.439
X1.906 Y3.449 Z-1.351
X1.896 Y3.439
X1.906 Y3.429 Z-1.352
X1.912 Y3.431
X1.916 Y3.439
X1.906 Y3.449 Z-1.353
X1.896 Y3.439
X1.906 Y3.429 Z-1.354
X1.912 Y3.431
X1.916 Y3.439 Z-1.355
X1.906 Y3.449
X1.896 Y3.439 Z-1.356
X1.906 Y3.429
X1.912 Y3.431
X1.916 Y3.439 Z-1.357
X1.906 Y3.449
X1.896 Y3.439 Z-1.358
X1.906 Y3.429
X1.912 Y3.431 Z-1.359
X1.916 Y3.439
X1.906 Y3.449 Z-1.36
X1.896 Y3.439
X1.906 Y3.429 Z-1.361
X1.912 Y3.431
X1.916 Y3.439
X1.906 Y3.449 Z-1.362
X1.896 Y3.439
X1.906 Y3.429 Z-1.363
X1.912 Y3.431
X1.916 Y3.439
X1.906 Y3.449 Z-1.364
X1.896 Y3.439
X1.906 Y3.429 Z-1.365
X1.912 Y3.431
X1.916 Y3.439 Z-1.366
X1.906 Y3.449
X1.896 Y3.439 Z-1.367
X1.906 Y3.429
X1.912 Y3.431
X1.916 Y3.439 Z-1.368
X1.906 Y3.449
X1.896 Y3.439 Z-1.369
X1.906 Y3.429
X1.912 Y3.431 Z-1.37
X1.916 Y3.439
X1.906 Y3.449
X1.896 Y3.439 Z-1.371
X1.906 Y3.429 Z-1.372
X1.912 Y3.431
X1.916 Y3.439
X1.906 Y3.449 Z-1.373
X1.896 Y3.439
X1.906 Y3.429 Z-1.374
X1.912 Y3.431
X1.916 Y3.439
X1.906 Y3.449 Z-1.375
X1.896 Y3.439
X1.906 Y3.429 Z-1.376
X1.912 Y3.431
X1.916 Y3.439 Z-1.377
X1.906 Y3.449
X1.896 Y3.439 Z-1.378
X1.906 Y3.429
X1.912 Y3.431
X1.916 Y3.439 Z-1.379
X1.906 Y3.449
X1.896 Y3.439 Z-1.38
X1.906 Y3.429
X1.912 Y3.431 Z-1.381
X1.916 Y3.439
X1.906 Y3.449
X1.896 Y3.439 Z-1.382
X1.906 Y3.429 Z-1.383
X1.912 Y3.431
X1.916 Y3.439
X1.906 Y3.449 Z-1.384
X1.896 Y3.439
X1.906 Y3.429 Z-1.385
X1.912 Y3.431
X1.916 Y3.439
X1.906 Y3.449 Z-1.386
X1.896 Y3.439
X1.906 Y3.429 Z-1.387
X1.912 Y3.431
X1.916 Y3.439
X1.906 Y3.449 Z-1.388
X1.896 Y3.439 Z-1.389
X1.906 Y3.429
X1.912 Y3.431
X1.916 Y3.439 Z-1.39
X1.906 Y3.449
X1.896 Y3.439 Z-1.391
X1.906 Y3.429
X1.912 Y3.431 Z-1.392
X1.916 Y3.439
X1.906 Y3.449
X1.896 Y3.439 Z-1.393
X1.906 Y3.429 Z-1.394
X1.912 Y3.431
X1.916 Y3.439
X1.906 Y3.449 Z-1.395
X1.896 Y3.439
X1.906 Y3.429 Z-1.396
X1.912 Y3.431
X1.916 Y3.439
X1.906 Y3.449 Z-1.397
X1.896 Y3.439
X1.906 Y3.429 Z-1.398
X1.912 Y3.431
X1.916 Y3.439
X1.906 Y3.449 Z-1.399
X1.896 Y3.439 Z-1.4
X1.906 Y3.429
X1.912 Y3.431
X1.916 Y3.439 Z-1.401
X1.906 Y3.449
X1.896 Y3.439 Z-1.402
X1.906 Y3.429
X1.912 Y3.431 Z-1.403
X1.916 Y3.439
X1.906 Y3.449
X1.896 Y3.439 Z-1.404
X1.906 Y3.429
X1.912 Y3.431 Z-1.405
X1.916 Y3.439
X1.906 Y3.449 Z-1.406
X1.896 Y3.439
X1.906 Y3.429 Z-1.407
X1.912 Y3.431
X1.916 Y3.439
X1.906 Y3.449 Z-1.408
X1.896 Y3.439
X1.906 Y3.429 Z-1.409
X1.912 Y3.431
X1.916 Y3.439
X1.906 Y3.449 Z-1.41
X1.896 Y3.439 Z-1.411
X1.906 Y3.429
X1.912 Y3.431
X1.916 Y3.439 Z-1.412
X1.906 Y3.449
X1.896 Y3.439 Z-1.413
X1.906 Y3.429
X1.912 Y3.431
X1.916 Y3.439 Z-1.414
X1.906 Y3.449
X1.896 Y3.439 Z-1.415
X1.906 Y3.429
X1.912 Y3.431 Z-1.416
X1.916 Y3.439
X1.906 Y3.449 Z-1.417
X1.896 Y3.439
X1.906 Y3.429 Z-1.418
X1.912 Y3.431
X1.916 Y3.439
X1.906 Y3.449 Z-1.419
X1.896 Y3.439
X1.906 Y3.429 Z-1.42
X1.912 Y3.431
X1.916 Y3.439
X1.906 Y3.449 Z-1.421
X1.896 Y3.439
X1.906 Y3.429 Z-1.422
X1.912 Y3.431
X1.916 Y3.439 Z-1.423
X1.906 Y3.449
X1.896 Y3.439 Z-1.424
X1.906 Y3.429
X1.912 Y3.431
X1.916 Y3.439 Z-1.425
X1.906 Y3.449
X1.896 Y3.439 Z-1.426
X1.906 Y3.429
X1.912 Y3.431 Z-1.427
X1.916 Y3.439
X1.906 Y3.449 Z-1.428
X1.896 Y3.439
X1.906 Y3.429 Z-1.429
X1.912 Y3.431
X1.916 Y3.439
X1.906 Y3.449 Z-1.43
X1.896 Y3.439
X1.906 Y3.429 Z-1.431
X1.912 Y3.431
X1.916 Y3.439
X1.906 Y3.449 Z-1.432
X1.896 Y3.439
X1.906 Y3.429 Z-1.433
X1.912 Y3.431
X1.916 Y3.439 Z-1.434
X1.906 Y3.449
X1.896 Y3.439 Z-1.435
X1.906 Y3.429
X1.912 Y3.431
X1.916 Y3.439 Z-1.436
X1.906 Y3.449
X1.896 Y3.439 Z-1.437
X1.906 Y3.429
X1.912 Y3.431 Z-1.438
X1.916 Y3.439
X1.906 Y3.449
X1.896 Y3.439 Z-1.439
X1.906 Y3.429 Z-1.44
X1.912 Y3.431
X1.916 Y3.439
X1.906 Y3.449 Z-1.441
X1.896 Y3.439
X1.906 Y3.429 Z-1.442
X1.912 Y3.431
X1.916 Y3.439
X1.906 Y3.449 Z-1.443
X1.896 Y3.439
X1.906 Y3.429 Z-1.444
X1.912 Y3.431
X1.916 Y3.439 Z-1.445
X1.906 Y3.449
X1.896 Y3.439 Z-1.446
X1.906 Y3.429
X1.912 Y3.431
X1.916 Y3.439 Z-1.447
X1.906 Y3.449
X1.896 Y3.439 Z-1.448
X1.906 Y3.429
X1.912 Y3.431 Z-1.449
X1.916 Y3.439
X1.906 Y3.449
X1.896 Y3.439 Z-1.45
X1.906 Y3.429 Z-1.451
X1.912 Y3.431
X1.916 Y3.439
X1.906 Y3.449 Z-1.452
X1.896 Y3.439
X1.906 Y3.429 Z-1.453
X1.912 Y3.431
X1.916 Y3.439
X1.906 Y3.449 Z-1.454
X1.896 Y3.439
X1.906 Y3.429 Z-1.455
X1.912 Y3.431
X1.916 Y3.439
X1.906 Y3.449 Z-1.456
X1.896 Y3.439 Z-1.457
X1.906 Y3.429
X1.912 Y3.431
X1.916 Y3.439 Z-1.458
X1.906 Y3.449
X1.896 Y3.439 Z-1.459
X1.906 Y3.429
X1.912 Y3.431 Z-1.46
X1.916 Y3.439
X1.906 Y3.449
X1.896 Y3.439 Z-1.461
X1.906 Y3.429 Z-1.462
X1.912 Y3.431
X1.916 Y3.439
X1.906 Y3.449 Z-1.463
X1.896 Y3.439
X1.906 Y3.429 Z-1.464
X1.912 Y3.431
X1.916 Y3.439
X1.906 Y3.449 Z-1.465
X1.896 Y3.439
X1.906 Y3.429 Z-1.466
X1.912 Y3.431
X1.916 Y3.439
X1.906 Y3.449 Z-1.467
X1.896 Y3.439 Z-1.468
X1.906 Y3.429
X1.912 Y3.431
X1.916 Y3.439 Z-1.469
X1.906 Y3.449
X1.896 Y3.439 Z-1.47
X1.906 Y3.429
X1.912 Y3.431 Z-1.471
X1.916 Y3.439
X1.906 Y3.449
X1.896 Y3.439 Z-1.472
X1.906 Y3.429 Z-1.473
X1.912 Y3.431
X1.916 Y3.439
X1.906 Y3.449 Z-1.474
X1.896 Y3.439
X1.906 Y3.429 Z-1.475
X1.912 Y3.431
X1.916 Y3.439
X1.906 Y3.449 Z-1.476
X1.896 Y3.439
X1.906 Y3.429 Z-1.477
X1.912 Y3.431
X1.916 Y3.439
X1.906 Y3.449 Z-1.478
X1.896 Y3.439 Z-1.479
X1.906 Y3.429
X1.912 Y3.431
X1.916 Y3.439 Z-1.48
X1.906 Y3.449
X1.896 Y3.439 Z-1.481
X1.906 Y3.429
X1.912 Y3.431 Z-1.482
X1.916 Y3.439
X1.906 Y3.449
X1.896 Y3.439 Z-1.483
X1.906 Y3.429
X1.912 Y3.431 Z-1.484
X1.916 Y3.439
X1.906 Y3.449 Z-1.485
X1.896 Y3.439
X1.906 Y3.429 Z-1.486
X1.912 Y3.431
X1.916 Y3.439
X1.906 Y3.449 Z-1.487
X1.896 Y3.439
X1.906 Y3.429 Z-1.488
X1.912 Y3.431
X1.916 Y3.439
X1.906 Y3.449 Z-1.489
X1.896 Y3.439 Z-1.49
X1.906 Y3.429
X1.912 Y3.431
X1.916 Y3.439 Z-1.491
X1.906 Y3.449
X1.896 Y3.439 Z-1.492
X1.906 Y3.429
X1.912 Y3.431
X1.916 Y3.439 Z-1.493
X1.906 Y3.449
X1.896 Y3.439 Z-1.494
X1.906 Y3.429
X1.912 Y3.431 Z-1.495
X1.916 Y3.439
X1.906 Y3.449 Z-1.496
X1.896 Y3.439
X1.906 Y3.429 Z-1.497
X1.912 Y3.431
X1.916 Y3.439
X1.906 Y3.449 Z-1.498
X1.896 Y3.439
X1.906 Y3.429 Z-1.499
X1.912 Y3.431
X1.916 Y3.439
X1.906 Y3.449 Z-1.5
X1.896 Y3.439
X1.906 Y3.429 Z-1.501
X1.912 Y3.431
X1.916 Y3.439 Z-1.502
X1.906 Y3.449
X1.896 Y3.439 Z-1.503
X1.906 Y3.429
X1.912 Y3.431
X1.916 Y3.439 Z-1.504
X1.906 Y3.449
X1.896 Y3.439 Z-1.505
X1.906 Y3.429
X1.912 Y3.431 Z-1.506
X1.916 Y3.439
X1.906 Y3.449 Z-1.507
X1.896 Y3.439
X1.906 Y3.429 Z-1.508
X1.912 Y3.431
X1.916 Y3.439
X1.906 Y3.449 Z-1.509
X1.896 Y3.439
X1.906 Y3.429 Z-1.51
X1.912 Y3.431
X1.916 Y3.439
X1.906 Y3.449 Z-1.511
X1.896 Y3.439
X1.906 Y3.429 Z-1.512
X1.912 Y3.431
X1.916 Y3.439 Z-1.513
X1.906 Y3.449
X1.896 Y3.439 Z-1.514
X1.906 Y3.429
X1.912 Y3.431
X1.916 Y3.439 Z-1.515
X1.906 Y3.449
X1.896 Y3.439 Z-1.516
X1.906 Y3.429
X1.912 Y3.431 Z-1.517
X1.916 Y3.439
X1.906 Y3.449
X1.896 Y3.439 Z-1.518
X1.906 Y3.429 Z-1.519
X1.912 Y3.431
X1.916 Y3.439
X1.906 Y3.449 Z-1.52
X1.896 Y3.439
X1.906 Y3.429 Z-1.521
X1.912 Y3.431
X1.916 Y3.439
X1.906 Y3.449 Z-1.522
X1.896 Y3.439
X1.906 Y3.429 Z-1.523
X1.912 Y3.431
X1.916 Y3.439 Z-1.524
X1.906 Y3.449
X1.896 Y3.439 Z-1.525
X1.906 Y3.429
X1.912 Y3.431
X1.916 Y3.439 Z-1.526
X1.906 Y3.449
X1.896 Y3.439 Z-1.527
X1.906 Y3.429
X1.912 Y3.431 Z-1.528
X1.916 Y3.439
X1.906 Y3.449
X1.896 Y3.439 Z-1.529
X1.906 Y3.429 Z-1.53
X1.912 Y3.431
X1.916 Y3.439
X1.906 Y3.449 Z-1.531
X1.896 Y3.439
X1.906 Y3.429 Z-1.532
X1.912 Y3.431
X1.916 Y3.439
X1.906 Y3.449 Z-1.533
X1.896 Y3.439
X1.906 Y3.429 Z-1.534
X1.912 Y3.431
X1.916 Y3.439
X1.906 Y3.449 Z-1.535
X1.896 Y3.439 Z-1.536
X1.906 Y3.429
X1.912 Y3.431
X1.916 Y3.439 Z-1.537
X1.906 Y3.449
X1.896 Y3.439 Z-1.538
X1.906 Y3.429
X1.912 Y3.431 Z-1.539
X1.916 Y3.439
X1.906 Y3.449
X1.896 Y3.439 Z-1.54
X1.906 Y3.429 Z-1.541
X1.912 Y3.431
X1.916 Y3.439
X1.906 Y3.449 Z-1.542
X1.896 Y3.439
X1.906 Y3.429 Z-1.543
X1.912 Y3.431
X1.916 Y3.439
X1.906 Y3.449 Z-1.544
X1.896 Y3.439
X1.906 Y3.429 Z-1.545
X1.912 Y3.431
X1.916 Y3.439
X1.906 Y3.449 Z-1.546
X1.896 Y3.439 Z-1.547
X1.906 Y3.429
X1.912 Y3.431
X1.916 Y3.439 Z-1.548
X1.906 Y3.449
X1.896 Y3.439 Z-1.549
X1.906 Y3.429
X1.912 Y3.431 Z-1.55
X1.916 Y3.439
X1.906 Y3.449
X1.896 Y3.439 Z-1.551
X1.906 Y3.429
X1.912 Y3.431 Z-1.552
X1.916 Y3.439
X1.906 Y3.449 Z-1.553
X1.896 Y3.439
X1.906 Y3.429 Z-1.554
X1.912 Y3.431
X1.916 Y3.439
X1.906 Y3.449 Z-1.555
X1.896 Y3.439
X1.906 Y3.429 Z-1.556
X1.912 Y3.431
X1.916 Y3.439
X1.906 Y3.449 Z-1.557
X1.896 Y3.439 Z-1.558
X1.906 Y3.429
X1.912 Y3.431
X1.916 Y3.439 Z-1.559
X1.906 Y3.449
X1.896 Y3.439 Z-1.56
X1.906 Y3.429
X1.912 Y3.431 Z-1.561
X1.916 Y3.439
X1.906 Y3.449
X1.896 Y3.439 Z-1.562
X1.906 Y3.429
X1.912 Y3.431 Z-1.563
X1.916 Y3.439
X1.906 Y3.449 Z-1.564
X1.896 Y3.439
X1.906 Y3.429 Z-1.565
X1.912 Y3.431
X1.916 Y3.439
X1.906 Y3.449 Z-1.566
X1.896 Y3.439
X1.906 Y3.429 Z-1.567
X1.912 Y3.431
X1.916 Y3.439
X1.906 Y3.449 Z-1.568
X1.896 Y3.439
X1.906 Y3.429 Z-1.569
X1.912 Y3.431
X1.916 Y3.439 Z-1.57
X1.906 Y3.449
X1.896 Y3.439 Z-1.571
X1.906 Y3.429
X1.912 Y3.431
X1.916 Y3.439 Z-1.572
X1.906 Y3.449
X1.896 Y3.439 Z-1.573
X1.906 Y3.429
X1.912 Y3.431 Z-1.574
X1.916 Y3.439
X1.906 Y3.449 Z-1.575
X1.896 Y3.439
X1.906 Y3.429 Z-1.576
X1.912 Y3.431
X1.916 Y3.439
X1.906 Y3.449 Z-1.577
X1.896 Y3.439
X1.906 Y3.429 Z-1.578
X1.912 Y3.431
X1.916 Y3.439
X1.906 Y3.449 Z-1.579
X1.896 Y3.439
X1.906 Y3.429 Z-1.58
X1.912 Y3.431
X1.916 Y3.439 Z-1.581
X1.906 Y3.449
X1.896 Y3.439 Z-1.582
X1.906 Y3.429
X1.912 Y3.431
X1.916 Y3.439 Z-1.583
X1.906 Y3.449
X1.896 Y3.439 Z-1.584
X1.906 Y3.429
X1.912 Y3.431 Z-1.585
X1.916 Y3.439
X1.906 Y3.449 Z-1.586
X1.896 Y3.439
X1.906 Y3.429 Z-1.587
X1.912 Y3.431
X1.916 Y3.439
X1.906 Y3.449 Z-1.588
X1.896 Y3.439
X1.906 Y3.429 Z-1.589
X1.912 Y3.431
X1.916 Y3.439
X1.906 Y3.449 Z-1.59
X1.896 Y3.439
X1.906 Y3.429 Z-1.591
X1.912 Y3.431
X1.916 Y3.439 Z-1.592
X1.906 Y3.449
X1.896 Y3.439 Z-1.593
X1.906 Y3.429
X1.912 Y3.431
X1.916 Y3.439 Z-1.594
X1.906 Y3.449
X1.896 Y3.439 Z-1.595
X1.906 Y3.429
X1.912 Y3.431 Z-1.596
X1.916 Y3.439
X1.906 Y3.449
X1.896 Y3.439 Z-1.597
X1.906 Y3.429 Z-1.598
X1.912 Y3.431
X1.916 Y3.439
X1.906 Y3.449 Z-1.599
X1.896 Y3.439
X1.906 Y3.429 Z-1.6
X1.912 Y3.431
X1.906 Y3.449
Y3.429
X1.912 Y3.431
X1.916 Y3.439
X1.906 Y3.449 Z-1.601
X1.896 Y3.441
Y3.439
X1.906 Y3.429 Z-1.602
X1.912 Y3.431
X1.916 Y3.439 Z-1.603
X1.906 Y3.449
X1.896 Y3.441 Z-1.604
Y3.439
X1.906 Y3.429
X1.912 Y3.431
X1.916 Y3.439 Z-1.605
X1.906 Y3.449
X1.896 Y3.441 Z-1.606
Y3.439
X1.906 Y3.429
X1.912 Y3.431 Z-1.607
X1.916 Y3.439
X1.906 Y3.449
X1.896 Y3.441 Z-1.608
Y3.439
X1.906 Y3.429 Z-1.609
X1.912 Y3.431
X1.916 Y3.439
X1.906 Y3.449 Z-1.61
X1.896 Y3.441
Y3.439
X1.906 Y3.429 Z-1.611
X1.912 Y3.431
X1.916 Y3.439
X1.906 Y3.449 Z-1.612
X1.896 Y3.441
Y3.439
X1.906 Y3.429 Z-1.613
X1.912 Y3.431
X1.916 Y3.439
X1.906 Y3.449 Z-1.614
X1.896 Y3.441
Y3.439 Z-1.615
X1.906 Y3.429
X1.912 Y3.431
X1.916 Y3.439 Z-1.616
X1.906 Y3.449
X1.896 Y3.441 Z-1.617
Y3.439
X1.906 Y3.429
X1.912 Y3.431 Z-1.618
X1.916 Y3.439
X1.906 Y3.449
X1.896 Y3.441 Z-1.619
Y3.439
X1.906 Y3.429 Z-1.62
X1.912 Y3.431
X1.916 Y3.439
X1.906 Y3.449 Z-1.621
X1.896 Y3.441
Y3.439
X1.906 Y3.429 Z-1.622
X1.912 Y3.431
X1.916 Y3.439
X1.906 Y3.449 Z-1.623
X1.896 Y3.441
Y3.439
X1.906 Y3.429 Z-1.624
X1.912 Y3.431
X1.916 Y3.439
X1.906 Y3.449 Z-1.625
X1.896 Y3.441
Y3.439 Z-1.626
X1.906 Y3.429
X1.912 Y3.431
X1.916 Y3.439 Z-1.627
X1.906 Y3.449
X1.896 Y3.441 Z-1.628
Y3.439
X1.906 Y3.429
X1.912 Y3.431 Z-1.629
X1.916 Y3.439
X1.906 Y3.449
X1.896 Y3.441 Z-1.63
Y3.439
X1.906 Y3.429
X1.912 Y3.431 Z-1.631
X1.916 Y3.439
X1.906 Y3.449 Z-1.632
X1.896 Y3.441
Y3.439
X1.906 Y3.429 Z-1.633
X1.912 Y3.431
X1.916 Y3.439
X1.906 Y3.449 Z-1.634
X1.896 Y3.441
Y3.439
X1.906 Y3.429 Z-1.635
X1.912 Y3.431
X1.916 Y3.439
X1.906 Y3.449 Z-1.636
X1.896 Y3.441
Y3.439 Z-1.637
X1.906 Y3.429
X1.912 Y3.431
X1.916 Y3.439 Z-1.638
X1.906 Y3.449
X1.896 Y3.441 Z-1.639
Y3.439
X1.906 Y3.429
X1.912 Y3.431
X1.916 Y3.439 Z-1.64
X1.906 Y3.449
X1.896 Y3.441 Z-1.641
Y3.439
X1.906 Y3.429
X1.912 Y3.431 Z-1.642
X1.916 Y3.439
X1.906 Y3.449 Z-1.643
X1.896 Y3.441
Y3.439
X1.906 Y3.429 Z-1.644
X1.912 Y3.431
X1.916 Y3.439
X1.906 Y3.449 Z-1.645
X1.896 Y3.441
Y3.439
X1.906 Y3.429 Z-1.646
X1.912 Y3.431
X1.916 Y3.439
X1.906 Y3.449 Z-1.647
X1.896 Y3.441
Y3.439
X1.906 Y3.429 Z-1.648
X1.912 Y3.431
X1.916 Y3.439 Z-1.649
X1.906 Y3.449
X1.896 Y3.441 Z-1.65
Y3.439
X1.906 Y3.429
X1.912 Y3.431
X1.916 Y3.439 Z-1.651
X1.906 Y3.449
X1.896 Y3.441 Z-1.652
Y3.439
X1.906 Y3.429
X1.912 Y3.431 Z-1.653
X1.916 Y3.439
X1.906 Y3.449 Z-1.654
X1.896 Y3.441
Y3.439
X1.906 Y3.429 Z-1.655
X1.912 Y3.431
X1.916 Y3.439
X1.906 Y3.449 Z-1.656
X1.896 Y3.441
Y3.439
X1.906 Y3.429 Z-1.657
X1.912 Y3.431
X1.916 Y3.439
X1.906 Y3.449 Z-1.658
X1.896 Y3.441
Y3.439
X1.906 Y3.429 Z-1.659
X1.912 Y3.431
X1.916 Y3.439 Z-1.66
X1.906 Y3.449
X1.896 Y3.441 Z-1.661
Y3.439
X1.906 Y3.429
X1.912 Y3.431
X1.916 Y3.439 Z-1.662
X1.906 Y3.449
X1.896 Y3.441 Z-1.663
Y3.439
X1.906 Y3.429
X1.912 Y3.431 Z-1.664
X1.916 Y3.439
X1.906 Y3.449
X1.896 Y3.441 Z-1.665
Y3.439
X1.906 Y3.429 Z-1.666
X1.912 Y3.431
X1.916 Y3.439
X1.906 Y3.449 Z-1.667
X1.896 Y3.441
Y3.439
X1.906 Y3.429 Z-1.668
X1.912 Y3.431
X1.916 Y3.439
X1.906 Y3.449 Z-1.669
X1.896 Y3.441
Y3.439
X1.906 Y3.429 Z-1.67
X1.912 Y3.431
X1.916 Y3.439 Z-1.671
X1.906 Y3.449
X1.896 Y3.441 Z-1.672
Y3.439
X1.906 Y3.429
X1.912 Y3.431
X1.916 Y3.439 Z-1.673
X1.906 Y3.449
X1.896 Y3.441 Z-1.674
Y3.439
X1.906 Y3.429
X1.912 Y3.431 Z-1.675
X1.916 Y3.439
X1.906 Y3.449
X1.896 Y3.441 Z-1.676
Y3.439
X1.906 Y3.429 Z-1.677
X1.912 Y3.431
X1.916 Y3.439
X1.906 Y3.449 Z-1.678
X1.896 Y3.441
Y3.439
X1.906 Y3.429 Z-1.679
X1.912 Y3.431
X1.916 Y3.439
X1.906 Y3.449 Z-1.68
X1.896 Y3.441
Y3.439
X1.906 Y3.429 Z-1.681
X1.912 Y3.431
X1.916 Y3.439
X1.906 Y3.449 Z-1.682
X1.896 Y3.441 Z-1.683
Y3.439
X1.906 Y3.429
X1.912 Y3.431
X1.916 Y3.439 Z-1.684
X1.906 Y3.449
X1.896 Y3.441 Z-1.685
Y3.439
X1.906 Y3.429
X1.912 Y3.431 Z-1.686
X1.916 Y3.439
X1.906 Y3.449
X1.896 Y3.441 Z-1.687
Y3.439
X1.906 Y3.429 Z-1.688
X1.912 Y3.431
X1.916 Y3.439
X1.906 Y3.449 Z-1.689
X1.896 Y3.441
Y3.439
X1.906 Y3.429 Z-1.69
X1.912 Y3.431
X1.916 Y3.439
X1.906 Y3.449 Z-1.691
X1.896 Y3.441
Y3.439
X1.906 Y3.429 Z-1.692
X1.912 Y3.431
X1.916 Y3.439
X1.906 Y3.449 Z-1.693
X1.896 Y3.441
Y3.439 Z-1.694
X1.906 Y3.429
X1.912 Y3.431
X1.916 Y3.439 Z-1.695
X1.906 Y3.449
X1.896 Y3.441 Z-1.696
Y3.439
X1.906 Y3.429
X1.912 Y3.431 Z-1.697
X1.916 Y3.439
X1.906 Y3.449
X1.896 Y3.441 Z-1.698
Y3.439
X1.906 Y3.429
X1.912 Y3.431 Z-1.699
X1.916 Y3.439
X1.906 Y3.449 Z-1.7
X1.896 Y3.441
Y3.439
X1.906 Y3.429 Z-1.701
X1.912 Y3.431
X1.916 Y3.439
X1.906 Y3.449 Z-1.702
X1.896 Y3.441
Y3.439
X1.906 Y3.429 Z-1.703
X1.912 Y3.431
X1.916 Y3.439
X1.906 Y3.449 Z-1.704
X1.896 Y3.441
Y3.439 Z-1.705
X1.906 Y3.429
X1.912 Y3.431
X1.916 Y3.439 Z-1.706
X1.906 Y3.449
X1.896 Y3.441 Z-1.707
Y3.439
X1.906 Y3.429
X1.912 Y3.431 Z-1.708
X1.916 Y3.439
X1.906 Y3.449
X1.896 Y3.441 Z-1.709
Y3.439
X1.906 Y3.429
X1.912 Y3.431 Z-1.71
X1.916 Y3.439
X1.906 Y3.449 Z-1.711
X1.896 Y3.441
Y3.439
X1.906 Y3.429 Z-1.712
X1.912 Y3.431
X1.916 Y3.439
X1.906 Y3.449 Z-1.713
X1.896 Y3.441
Y3.439
X1.906 Y3.429 Z-1.714
X1.912 Y3.431
X1.916 Y3.439
X1.906 Y3.449 Z-1.715
X1.896 Y3.441
Y3.439 Z-1.716
X1.906 Y3.429
X1.912 Y3.431
X1.916 Y3.439 Z-1.717
X1.906 Y3.449
X1.896 Y3.441 Z-1.718
Y3.439
X1.906 Y3.429
X1.912 Y3.431
X1.916 Y3.439 Z-1.719
X1.906 Y3.449
X1.896 Y3.441 Z-1.72
Y3.439
X1.906 Y3.429
X1.912 Y3.431 Z-1.721
X1.916 Y3.439
X1.906 Y3.449 Z-1.722
X1.896 Y3.441
Y3.439
X1.906 Y3.429 Z-1.723
X1.912 Y3.431
X1.916 Y3.439
X1.906 Y3.449 Z-1.724
X1.896 Y3.441
Y3.439
X1.906 Y3.429 Z-1.725
X1.912 Y3.431
X1.916 Y3.439
X1.906 Y3.449 Z-1.726
X1.896 Y3.441
Y3.439
X1.906 Y3.429 Z-1.727
X1.912 Y3.431
X1.916 Y3.439 Z-1.728
X1.906 Y3.449
X1.896 Y3.441 Z-1.729
Y3.439
X1.906 Y3.429
X1.912 Y3.431
X1.916 Y3.439 Z-1.73
X1.906 Y3.449
X1.896 Y3.441 Z-1.731
Y3.439
X1.906 Y3.429
X1.912 Y3.431 Z-1.732
X1.916 Y3.439
X1.906 Y3.449 Z-1.733
X1.896 Y3.441
Y3.439
X1.906 Y3.429 Z-1.734
X1.912 Y3.431
X1.916 Y3.439
X1.906 Y3.449 Z-1.735
X1.896 Y3.441
Y3.439
X1.906 Y3.429 Z-1.736
X1.912 Y3.431
X1.916 Y3.439
X1.906 Y3.449 Z-1.737
X1.896 Y3.441
Y3.439
X1.906 Y3.429 Z-1.738
X1.912 Y3.431
X1.916 Y3.439 Z-1.739
X1.906 Y3.449
X1.896 Y3.441 Z-1.74
Y3.439
X1.906 Y3.429
X1.912 Y3.431
X1.916 Y3.439 Z-1.741
X1.906 Y3.449
X1.896 Y3.441 Z-1.742
Y3.439
X1.906 Y3.429
X1.912 Y3.431 Z-1.743
X1.916 Y3.439
X1.906 Y3.449
X1.896 Y3.441 Z-1.744
Y3.439
X1.906 Y3.429 Z-1.745
X1.912 Y3.431
X1.916 Y3.439
X1.906 Y3.449 Z-1.746
X1.896 Y3.441
Y3.439
X1.906 Y3.429 Z-1.747
X1.912 Y3.431
X1.916 Y3.439
X1.906 Y3.449 Z-1.748
X1.896 Y3.441
Y3.439
X1.906 Y3.429 Z-1.749
X1.912 Y3.431
X1.916 Y3.439 Z-1.75
X1.906 Y3.449
X1.896 Y3.441 Z-1.751
Y3.439
X1.906 Y3.429
X1.912 Y3.431
X1.916 Y3.439 Z-1.752
X1.906 Y3.449
X1.896 Y3.441 Z-1.753
Y3.439
X1.906 Y3.429
X1.912 Y3.431 Z-1.754
X1.916 Y3.439
X1.906 Y3.449
X1.896 Y3.441 Z-1.755
Y3.439
X1.906 Y3.429 Z-1.756
X1.912 Y3.431
X1.916 Y3.439
X1.906 Y3.449 Z-1.757
X1.896 Y3.441
Y3.439
X1.906 Y3.429 Z-1.758
X1.912 Y3.431
X1.916 Y3.439
X1.906 Y3.449 Z-1.759
X1.896 Y3.441
Y3.439
X1.906 Y3.429 Z-1.76
X1.912 Y3.431
X1.916 Y3.439
X1.906 Y3.449 Z-1.761
X1.896 Y3.441 Z-1.762
Y3.439
X1.906 Y3.429
X1.912 Y3.431
X1.916 Y3.439 Z-1.763
X1.906 Y3.449
X1.896 Y3.441 Z-1.764
Y3.439
X1.906 Y3.429
X1.912 Y3.431 Z-1.765
X1.916 Y3.439
X1.906 Y3.449
X1.896 Y3.441 Z-1.766
Y3.439
X1.906 Y3.429 Z-1.767
X1.912 Y3.431
X1.916 Y3.439
X1.906 Y3.449 Z-1.768
X1.896 Y3.441
Y3.439
X1.906 Y3.429 Z-1.769
X1.912 Y3.431
X1.916 Y3.439
X1.906 Y3.449 Z-1.77
X1.896 Y3.441
Y3.439
X1.906 Y3.429 Z-1.771
X1.912 Y3.431
X1.916 Y3.439
X1.906 Y3.449 Z-1.772
X1.896 Y3.441
Y3.439 Z-1.773
X1.906 Y3.429
X1.912 Y3.431
X1.916 Y3.439 Z-1.774
X1.906 Y3.449
X1.896 Y3.441 Z-1.775
Y3.439
X1.906 Y3.429
X1.912 Y3.431 Z-1.776
X1.916 Y3.439
X1.906 Y3.449
X1.896 Y3.441 Z-1.777
Y3.439
X1.906 Y3.429
X1.912 Y3.431 Z-1.778
X1.916 Y3.439
X1.906 Y3.449 Z-1.779
X1.896 Y3.441
Y3.439
X1.906 Y3.429 Z-1.78
X1.912 Y3.431
X1.916 Y3.439
X1.906 Y3.449 Z-1.781
X1.896 Y3.441
Y3.439
X1.906 Y3.429 Z-1.782
X1.912 Y3.431
X1.916 Y3.439
X1.906 Y3.449 Z-1.783
X1.896 Y3.441
Y3.439 Z-1.784
X1.906 Y3.429
X1.912 Y3.431
X1.916 Y3.439 Z-1.785
X1.906 Y3.449
X1.896 Y3.441 Z-1.786
Y3.439
X1.906 Y3.429
X1.912 Y3.431 Z-1.787
X1.916 Y3.439
X1.906 Y3.449
X1.896 Y3.441 Z-1.788
Y3.439
X1.906 Y3.429
X1.912 Y3.431 Z-1.789
X1.916 Y3.439
X1.906 Y3.449 Z-1.79
X1.896 Y3.441
Y3.439
X1.906 Y3.429 Z-1.791
X1.912 Y3.431
X1.916 Y3.439
X1.906 Y3.449 Z-1.792
X1.896 Y3.441
Y3.439
X1.906 Y3.429 Z-1.793
X1.912 Y3.431
X1.916 Y3.439
X1.906 Y3.449 Z-1.794
X1.896 Y3.441
Y3.439
X1.906 Y3.429 Z-1.795
X1.912 Y3.431
X1.916 Y3.439 Z-1.796
X1.906 Y3.449
X1.896 Y3.441 Z-1.797
Y3.439
X1.906 Y3.429
X1.912 Y3.431
X1.916 Y3.439 Z-1.798
X1.906 Y3.449
X1.896 Y3.441 Z-1.799
Y3.439
X1.906 Y3.429
X1.912 Y3.431 Z-1.8
X1.916 Y3.439
X1.906 Y3.449 Z-1.801
X1.896 Y3.441
Y3.439
X1.906 Y3.429 Z-1.802
X1.912 Y3.431
X1.916 Y3.439
X1.906 Y3.449 Z-1.803
X1.896 Y3.441
Y3.439
X1.906 Y3.429 Z-1.804
X1.912 Y3.431
X1.916 Y3.439
X1.906 Y3.449 Z-1.805
X1.896 Y3.441
Y3.439
X1.906 Y3.429 Z-1.806
X1.912 Y3.431
X1.916 Y3.439 Z-1.807
X1.906 Y3.449
X1.896 Y3.441 Z-1.808
Y3.439
X1.906 Y3.429
X1.912 Y3.431
X1.916 Y3.439 Z-1.809
X1.906 Y3.449
X1.896 Y3.441 Z-1.81
Y3.439
X1.906 Y3.429
X1.912 Y3.431 Z-1.811
X1.916 Y3.439
X1.906 Y3.449
X1.896 Y3.441 Z-1.812
Y3.439
X1.906 Y3.429 Z-1.813
X1.912 Y3.431
X1.916 Y3.439
X1.906 Y3.449 Z-1.814
X1.896 Y3.441
Y3.439
X1.906 Y3.429 Z-1.815
X1.912 Y3.431
X1.916 Y3.439
X1.906 Y3.449 Z-1.816
X1.896 Y3.441
Y3.439
X1.906 Y3.429 Z-1.817
X1.912 Y3.431
X1.916 Y3.439 Z-1.818
X1.906 Y3.449
X1.896 Y3.441 Z-1.819
Y3.439
X1.906 Y3.429
X1.912 Y3.431
X1.916 Y3.439 Z-1.82
X1.906 Y3.449
X1.896 Y3.441 Z-1.821
Y3.439
X1.906 Y3.429
X1.912 Y3.431 Z-1.822
X1.916 Y3.439
X1.906 Y3.449
X1.896 Y3.441 Z-1.823
Y3.439
X1.906 Y3.429 Z-1.824
X1.912 Y3.431
X1.916 Y3.439
X1.906 Y3.449 Z-1.825
X1.896 Y3.441
Y3.439
X1.906 Y3.429 Z-1.826
X1.912 Y3.431
X1.916 Y3.439
X1.906 Y3.449 Z-1.827
X1.896 Y3.441
Y3.439
X1.906 Y3.429 Z-1.828
X1.912 Y3.431
X1.916 Y3.439 Z-1.829
X1.906 Y3.449
X1.896 Y3.441 Z-1.83
Y3.439
X1.906 Y3.429
X1.912 Y3.431
X1.916 Y3.439 Z-1.831
X1.906 Y3.449
X1.896 Y3.441 Z-1.832
Y3.439
X1.906 Y3.429
X1.912 Y3.431 Z-1.833
X1.916 Y3.439
X1.906 Y3.449
X1.896 Y3.441 Z-1.834
Y3.439
X1.906 Y3.429 Z-1.835
X1.912 Y3.431
X1.916 Y3.439
X1.906 Y3.449 Z-1.836
X1.896 Y3.441
Y3.439
X1.906 Y3.429 Z-1.837
X1.912 Y3.431
X1.916 Y3.439
X1.906 Y3.449 Z-1.838
X1.896 Y3.441
Y3.439
X1.906 Y3.429 Z-1.839
X1.912 Y3.431
X1.916 Y3.439
X1.906 Y3.449 Z-1.84
X1.896 Y3.441
Y3.439 Z-1.841
X1.906 Y3.429
X1.912 Y3.431
X1.916 Y3.439 Z-1.842
X1.906 Y3.449
X1.896 Y3.441 Z-1.843
Y3.439
X1.906 Y3.429
X1.912 Y3.431 Z-1.844
X1.916 Y3.439
X1.906 Y3.449
X1.896 Y3.441 Z-1.845
Y3.439
X1.906 Y3.429 Z-1.846
X1.912 Y3.431
X1.916 Y3.439
X1.906 Y3.449 Z-1.847
X1.896 Y3.441
Y3.439
X1.906 Y3.429 Z-1.848
X1.912 Y3.431
X1.916 Y3.439
X1.906 Y3.449 Z-1.849
X1.896 Y3.441
Y3.439
X1.906 Y3.429 Z-1.85
X1.912 Y3.431
X1.916 Y3.439
X1.906 Y3.449 Z-1.851
X1.896 Y3.441
Y3.439 Z-1.852
X1.906 Y3.429
X1.912 Y3.431
X1.916 Y3.439 Z-1.853
X1.906 Y3.449
X1.896 Y3.441 Z-1.854
Y3.439
X1.906 Y3.429
X1.912 Y3.431 Z-1.855
X1.916 Y3.439
X1.906 Y3.449
X1.896 Y3.441 Z-1.856
Y3.439
X1.906 Y3.429
X1.912 Y3.431 Z-1.857
X1.916 Y3.439
X1.906 Y3.449 Z-1.858
X1.896 Y3.441
Y3.439
X1.906 Y3.429 Z-1.859
X1.912 Y3.431
X1.916 Y3.439
X1.906 Y3.449 Z-1.86
X1.896 Y3.441
Y3.439
X1.906 Y3.429 Z-1.861
X1.912 Y3.431
X1.916 Y3.439
X1.906 Y3.449 Z-1.862
X1.896 Y3.441
Y3.439 Z-1.863
X1.906 Y3.429
X1.912 Y3.431
X1.916 Y3.439 Z-1.864
X1.906 Y3.449
X1.896 Y3.441 Z-1.865
Y3.439
X1.906 Y3.429
X1.912 Y3.431
X1.916 Y3.439 Z-1.866
X1.906 Y3.449
X1.896 Y3.441 Z-1.867
Y3.439
X1.906 Y3.429
X1.912 Y3.431 Z-1.868
X1.916 Y3.439
X1.906 Y3.449 Z-1.869
X1.896 Y3.441
Y3.439
X1.906 Y3.429 Z-1.87
X1.912 Y3.431
X1.916 Y3.439
X1.906 Y3.449 Z-1.871
X1.896 Y3.441
Y3.439
X1.906 Y3.429 Z-1.872
X1.912 Y3.431
X1.916 Y3.439
X1.906 Y3.449 Z-1.873
X1.896 Y3.441
Y3.439
X1.906 Y3.429 Z-1.874
X1.912 Y3.431
X1.916 Y3.439 Z-1.875
X1.906 Y3.449
X1.896 Y3.441 Z-1.876
Y3.439
X1.906 Y3.429
X1.912 Y3.431
X1.916 Y3.439 Z-1.877
X1.906 Y3.449
X1.896 Y3.441 Z-1.878
Y3.439
X1.906 Y3.429
X1.912 Y3.431 Z-1.879
X1.916 Y3.439
X1.906 Y3.449 Z-1.88
X1.896 Y3.441
Y3.439
X1.906 Y3.429 Z-1.881
X1.912 Y3.431
X1.916 Y3.439
X1.906 Y3.449 Z-1.882
X1.896 Y3.441
Y3.439
X1.906 Y3.429 Z-1.883
X1.912 Y3.431
X1.916 Y3.439
X1.906 Y3.449 Z-1.884
X1.896 Y3.441
Y3.439
X1.906 Y3.429 Z-1.885
X1.912 Y3.431
X1.916 Y3.439 Z-1.886
X1.906 Y3.449
X1.896 Y3.441 Z-1.887
Y3.439
X1.906 Y3.429
X1.912 Y3.431
X1.916 Y3.439 Z-1.888
X1.906 Y3.449
X1.896 Y3.441 Z-1.889
Y3.439
X1.906 Y3.429
X1.912 Y3.431 Z-1.89
X1.916 Y3.439
X1.906 Y3.449
X1.896 Y3.441 Z-1.891
Y3.439
X1.906 Y3.429 Z-1.892
X1.912 Y3.431
X1.916 Y3.439
X1.906 Y3.449 Z-1.893
X1.896 Y3.441
Y3.439
X1.906 Y3.429 Z-1.894
X1.912 Y3.431
X1.916 Y3.439
X1.906 Y3.449 Z-1.895
X1.896 Y3.441
Y3.439
X1.906 Y3.429 Z-1.896
X1.912 Y3.431
X1.916 Y3.439 Z-1.897
X1.906 Y3.449
X1.896 Y3.441 Z-1.898
Y3.439
X1.906 Y3.429
X1.912 Y3.431
X1.916 Y3.439 Z-1.899
X1.906 Y3.449
X1.896 Y3.441 Z-1.9
Y3.439
X1.906 Y3.429
X1.912 Y3.431 Z-1.901
X1.916 Y3.439
X1.906 Y3.449
X1.896 Y3.441 Z-1.902
Y3.439
X1.906 Y3.429 Z-1.903
X1.912 Y3.431
X1.916 Y3.439
X1.906 Y3.449 Z-1.904
X1.896 Y3.441
Y3.439
X1.906 Y3.429 Z-1.905
X1.912 Y3.431
X1.916 Y3.439
X1.906 Y3.449 Z-1.906
X1.896 Y3.441
Y3.439
X1.906 Y3.429 Z-1.907
X1.912 Y3.431
X1.916 Y3.439
X1.906 Y3.449 Z-1.908
X1.896 Y3.441 Z-1.909
Y3.439
X1.906 Y3.429
X1.912 Y3.431
X1.916 Y3.439 Z-1.91
X1.906 Y3.449
X1.896 Y3.441 Z-1.911
Y3.439
X1.906 Y3.429
X1.912 Y3.431 Z-1.912
X1.916 Y3.439
X1.906 Y3.449
X1.896 Y3.441 Z-1.913
Y3.439
X1.906 Y3.429 Z-1.914
X1.912 Y3.431
X1.916 Y3.439
X1.906 Y3.449 Z-1.915
X1.896 Y3.441
Y3.439
X1.906 Y3.429 Z-1.916
X1.912 Y3.431
X1.916 Y3.439
X1.906 Y3.449 Z-1.917
X1.896 Y3.441
Y3.439
X1.906 Y3.429 Z-1.918
X1.912 Y3.431
X1.916 Y3.439
X1.906 Y3.449 Z-1.919
X1.896 Y3.441
Y3.439 Z-1.92
X1.906 Y3.429
X1.912 Y3.431
X1.916 Y3.439 Z-1.921
X1.906 Y3.449
X1.896 Y3.441 Z-1.922
Y3.439
X1.906 Y3.429
X1.912 Y3.431 Z-1.923
X1.916 Y3.439
X1.906 Y3.449
X1.896 Y3.441 Z-1.924
Y3.439
X1.906 Y3.429
X1.912 Y3.431 Z-1.925
X1.916 Y3.439
X1.906 Y3.449 Z-1.926
X1.896 Y3.441
Y3.439
X1.906 Y3.429 Z-1.927
X1.912 Y3.431
X1.916 Y3.439
X1.906 Y3.449 Z-1.928
X1.896 Y3.441
Y3.439
X1.906 Y3.429 Z-1.929
X1.912 Y3.431
X1.916 Y3.439
X1.906 Y3.449 Z-1.93
X1.896 Y3.441
Y3.439 Z-1.931
X1.906 Y3.429
X1.912 Y3.431
X1.916 Y3.439 Z-1.932
X1.906 Y3.449
X1.896 Y3.441 Z-1.933
Y3.439
X1.906 Y3.429
X1.912 Y3.431 Z-1.934
X1.916 Y3.439
X1.906 Y3.449
X1.896 Y3.441 Z-1.935
Y3.439
X1.906 Y3.429
X1.912 Y3.431 Z-1.936
X1.916 Y3.439
X1.906 Y3.449 Z-1.937
X1.896 Y3.441
Y3.439
X1.906 Y3.429 Z-1.938
X1.912 Y3.431
X1.916 Y3.439
X1.906 Y3.449 Z-1.939
X1.896 Y3.441
Y3.439
X1.906 Y3.429 Z-1.94
X1.912 Y3.431
X1.916 Y3.439
X1.906 Y3.449 Z-1.941
X1.896 Y3.441
Y3.439
X1.906 Y3.429 Z-1.942
X1.912 Y3.431
X1.916 Y3.439 Z-1.943
X1.906 Y3.449
X1.896 Y3.441 Z-1.944
Y3.439
X1.906 Y3.429
X1.912 Y3.431
X1.916 Y3.439 Z-1.945
X1.906 Y3.449
X1.896 Y3.441 Z-1.946
Y3.439
X1.906 Y3.429
X1.912 Y3.431 Z-1.947
X1.916 Y3.439
X1.906 Y3.449 Z-1.948
X1.896 Y3.441
Y3.439
X1.906 Y3.429 Z-1.949
X1.912 Y3.431
X1.916 Y3.439
X1.906 Y3.449 Z-1.95
X1.896 Y3.441
Y3.439
X1.906 Y3.429 Z-1.951
X1.912 Y3.431
X1.916 Y3.439
X1.906 Y3.449 Z-1.952
X1.896 Y3.441
Y3.439
X1.906 Y3.429 Z-1.953
X1.912 Y3.431
X1.916 Y3.439 Z-1.954
X1.906 Y3.449
X1.896 Y3.441 Z-1.955
Y3.439
X1.906 Y3.429
X1.912 Y3.431
X1.916 Y3.439 Z-1.956
X1.906 Y3.449
X1.896 Y3.441 Z-1.957
Y3.439
X1.906 Y3.429
X1.912 Y3.431 Z-1.958
X1.916 Y3.439
X1.906 Y3.449 Z-1.959
X1.896 Y3.441
Y3.439
X1.906 Y3.429 Z-1.96
X1.912 Y3.431
X1.916 Y3.439
X1.906 Y3.449 Z-1.961
X1.896 Y3.441
Y3.439
X1.906 Y3.429 Z-1.962
X1.912 Y3.431
X1.916 Y3.439
X1.906 Y3.449 Z-1.963
X1.896 Y3.441
Y3.439
X1.906 Y3.429 Z-1.964
X1.912 Y3.431
X1.916 Y3.439 Z-1.965
X1.906 Y3.449
X1.896 Y3.441 Z-1.966
Y3.439
X1.906 Y3.429
X1.912 Y3.431
X1.916 Y3.439 Z-1.967
X1.906 Y3.449
X1.896 Y3.441 Z-1.968
Y3.439
X1.906 Y3.429
X1.912 Y3.431 Z-1.969
X1.916 Y3.439
X1.906 Y3.449
X1.896 Y3.441 Z-1.97
Y3.439
X1.906 Y3.429 Z-1.971
X1.912 Y3.431
X1.916 Y3.439
X1.906 Y3.449 Z-1.972
X1.896 Y3.441
Y3.439
X1.906 Y3.429 Z-1.973
X1.912 Y3.431
X1.916 Y3.439
X1.906 Y3.449 Z-1.974
X1.896 Y3.441
Y3.439
X1.906 Y3.429 Z-1.975
X1.912 Y3.431
X1.916 Y3.439 Z-1.976
X1.906 Y3.449
X1.896 Y3.441 Z-1.977
Y3.439
X1.906 Y3.429
X1.912 Y3.431
X1.916 Y3.439 Z-1.978
X1.906 Y3.449
X1.896 Y3.441 Z-1.979
Y3.439
X1.906 Y3.429
X1.912 Y3.431 Z-1.98
X1.916 Y3.439
X1.906 Y3.449
X1.896 Y3.441 Z-1.981
Y3.439
X1.906 Y3.429 Z-1.982
X1.912 Y3.431
X1.916 Y3.439
X1.906 Y3.449 Z-1.983
X1.896 Y3.441
Y3.439
X1.906 Y3.429 Z-1.984
X1.912 Y3.431
X1.916 Y3.439
X1.906 Y3.449 Z-1.985
X1.896 Y3.441
Y3.439
X1.906 Y3.429 Z-1.986
X1.912 Y3.431
X1.916 Y3.439
X1.906 Y3.449 Z-1.987
X1.896 Y3.441 Z-1.988
Y3.439
X1.906 Y3.429
X1.912 Y3.431
X1.916 Y3.439 Z-1.989
X1.906 Y3.449
X1.896 Y3.441 Z-1.99
Y3.439
X1.906 Y3.429
X1.912 Y3.431 Z-1.991
X1.916 Y3.439
X1.906 Y3.449
X1.896 Y3.441 Z-1.992
Y3.439
X1.906 Y3.429 Z-1.993
X1.912 Y3.431
X1.916 Y3.439
X1.906 Y3.449 Z-1.994
X1.896 Y3.441
Y3.439
X1.906 Y3.429 Z-1.995
X1.912 Y3.431
X1.916 Y3.439
X1.906 Y3.449 Z-1.996
X1.896 Y3.441
Y3.439
X1.906 Y3.429 Z-1.997
X1.912 Y3.431
X1.916 Y3.439
X1.906 Y3.449 Z-1.998
X1.896 Y3.441
Y3.439 Z-1.999
X1.906 Y3.429
X1.912 Y3.431
X1.916 Y3.439 Z-2
X1.906 Y3.449
X1.896 Y3.441 Z-2.001
Y3.439
X1.906 Y3.429
X1.912 Y3.431 Z-2.002
X1.916 Y3.439
X1.906 Y3.449
X1.896 Y3.441 Z-2.003
Y3.439
X1.906 Y3.429
X1.912 Y3.431 Z-2.004
X1.916 Y3.439
X1.906 Y3.449 Z-2.005
X1.896 Y3.441
Y3.439
X1.906 Y3.429 Z-2.006
X1.912 Y3.431
X1.916 Y3.439
X1.906 Y3.449 Z-2.007
X1.896 Y3.441
Y3.439
X1.906 Y3.429 Z-2.008
X1.912 Y3.431
X1.916 Y3.439
X1.906 Y3.449 Z-2.009
X1.896 Y3.441
Y3.439 Z-2.01
X1.906 Y3.429
X1.912 Y3.431
X1.916 Y3.439 Z-2.011
X1.906 Y3.449
X1.896 Y3.441 Z-2.012
Y3.439
X1.906 Y3.429
X1.912 Y3.431
X1.916 Y3.439 Z-2.013
X1.906 Y3.449
X1.896 Y3.441 Z-2.014
Y3.439
X1.906 Y3.429
X1.912 Y3.431 Z-2.015
X1.916 Y3.439
X1.906 Y3.449 Z-2.016
X1.896 Y3.441
Y3.439
X1.906 Y3.429 Z-2.017
X1.912 Y3.431
X1.916 Y3.439
X1.906 Y3.449 Z-2.018
X1.896 Y3.441
Y3.439
X1.906 Y3.429 Z-2.019
X1.912 Y3.431
X1.916 Y3.439
X1.906 Y3.449 Z-2.02
X1.896 Y3.441
Y3.439
X1.906 Y3.429 Z-2.021
X1.912 Y3.431
X1.916 Y3.439 Z-2.022
X1.906 Y3.449
X1.896 Y3.441 Z-2.023
Y3.439
X1.906 Y3.429
X1.912 Y3.431
X1.916 Y3.439 Z-2.024
X1.906 Y3.449
X1.896 Y3.441 Z-2.025
Y3.439
X1.906 Y3.429
X1.912 Y3.431 Z-2.026
X1.916 Y3.439
X1.906 Y3.449 Z-2.027
X1.896 Y3.441
Y3.439
X1.906 Y3.429 Z-2.028
X1.912 Y3.431
X1.916 Y3.439
X1.906 Y3.449 Z-2.029
X1.896 Y3.441
Y3.439
X1.906 Y3.429 Z-2.03
X1.912 Y3.431
X1.916 Y3.439
X1.906 Y3.449 Z-2.031
X1.896 Y3.441
Y3.439
X1.906 Y3.429 Z-2.032
X1.912 Y3.431
X1.916 Y3.439 Z-2.033
X1.906 Y3.449
X1.896 Y3.441 Z-2.034
Y3.439
X1.906 Y3.429
X1.912 Y3.431
X1.916 Y3.439 Z-2.035
X1.906 Y3.449
X1.896 Y3.441 Z-2.036
Y3.439
X1.906 Y3.429
X1.912 Y3.431 Z-2.037
X1.916 Y3.439
X1.906 Y3.449
X1.896 Y3.441 Z-2.038
Y3.439
X1.906 Y3.429 Z-2.039
X1.912 Y3.431
X1.916 Y3.439
X1.906 Y3.449 Z-2.04
X1.896 Y3.441
Y3.439
X1.906 Y3.429 Z-2.041
X1.912 Y3.431
X1.916 Y3.439
X1.906 Y3.449 Z-2.042
X1.896 Y3.441
Y3.439
X1.906 Y3.429 Z-2.043
X1.912 Y3.431
X1.916 Y3.439 Z-2.044
X1.906 Y3.449
X1.896 Y3.441 Z-2.045
Y3.439
X1.906 Y3.429
X1.912 Y3.431
X1.916 Y3.439 Z-2.046
X1.906 Y3.449
X1.896 Y3.441 Z-2.047
Y3.439
X1.906 Y3.429
X1.912 Y3.431 Z-2.048
X1.916 Y3.439
X1.906 Y3.449
X1.896 Y3.441 Z-2.049
Y3.439
X1.906 Y3.429 Z-2.05
X1.912 Y3.431
X1.916 Y3.439
X1.906 Y3.449 Z-2.051
X1.896 Y3.441
Y3.439
X1.906 Y3.429 Z-2.052
X1.912 Y3.431
X1.916 Y3.439
X1.906 Y3.449 Z-2.053
X1.896 Y3.441
Y3.439
X1.906 Y3.429 Z-2.054
X1.912 Y3.431
X1.916 Y3.439
X1.906 Y3.449 Z-2.055
X1.896 Y3.441 Z-2.056
Y3.439
X1.906 Y3.429
X1.912 Y3.431
X1.916 Y3.439 Z-2.057
X1.906 Y3.449
X1.896 Y3.441 Z-2.058
Y3.439
X1.906 Y3.429
X1.912 Y3.431 Z-2.059
X1.916 Y3.439
X1.906 Y3.449
X1.896 Y3.441 Z-2.06
Y3.439
X1.906 Y3.429 Z-2.061
X1.912 Y3.431
X1.916 Y3.439
X1.906 Y3.449 Z-2.062
X1.896 Y3.441
Y3.439
X1.906 Y3.429 Z-2.063
X1.912 Y3.431
X1.916 Y3.439
X1.906 Y3.449 Z-2.064
X1.896 Y3.441
Y3.439
X1.906 Y3.429 Z-2.065
X1.912 Y3.431
X1.916 Y3.439
X1.906 Y3.449 Z-2.066
X1.896 Y3.441
Y3.439 Z-2.067
X1.906 Y3.429
X1.912 Y3.431
X1.916 Y3.439 Z-2.068
X1.906 Y3.449
X1.896 Y3.441 Z-2.069
Y3.439
X1.906 Y3.429
X1.912 Y3.431 Z-2.07
X1.916 Y3.439
X1.906 Y3.449
X1.896 Y3.441 Z-2.071
Y3.439
X1.906 Y3.429 Z-2.072
X1.912 Y3.431
X1.916 Y3.439
X1.906 Y3.449 Z-2.073
X1.896 Y3.441
Y3.439
X1.906 Y3.429 Z-2.074
X1.912 Y3.431
X1.916 Y3.439
X1.906 Y3.449 Z-2.075
X1.896 Y3.441
Y3.439
X1.906 Y3.429 Z-2.076
X1.912 Y3.431
X1.916 Y3.439
X1.906 Y3.449 Z-2.077
X1.896 Y3.441
Y3.439 Z-2.078
X1.906 Y3.429
X1.912 Y3.431
X1.916 Y3.439 Z-2.079
X1.906 Y3.449
X1.896 Y3.441 Z-2.08
Y3.439
X1.906 Y3.429
X1.912 Y3.431 Z-2.081
X1.916 Y3.439
X1.906 Y3.449
X1.896 Y3.441 Z-2.082
Y3.439
X1.906 Y3.429
X1.912 Y3.431 Z-2.083
X1.916 Y3.439
X1.906 Y3.449 Z-2.084
X1.896 Y3.441
Y3.439
X1.906 Y3.429 Z-2.085
X1.912 Y3.431
X1.916 Y3.439
X1.906 Y3.449 Z-2.086
X1.896 Y3.441
Y3.439
X1.906 Y3.429 Z-2.087
X1.912 Y3.431
X1.916 Y3.439
X1.906 Y3.449 Z-2.088
X1.896 Y3.441
Y3.439 Z-2.089
X1.906 Y3.429
X1.912 Y3.431
X1.916 Y3.439 Z-2.09
X1.906 Y3.449
X1.896 Y3.441 Z-2.091
Y3.439
X1.906 Y3.429
X1.912 Y3.431
X1.916 Y3.439 Z-2.092
X1.906 Y3.449
X1.896 Y3.441 Z-2.093
Y3.439
X1.906 Y3.429
X1.912 Y3.431 Z-2.094
X1.916 Y3.439
X1.906 Y3.449 Z-2.095
X1.896 Y3.441
Y3.439
X1.906 Y3.429 Z-2.096
X1.912 Y3.431
X1.916 Y3.439
X1.906 Y3.449 Z-2.097
X1.896 Y3.441
Y3.439
X1.906 Y3.429 Z-2.098
X1.912 Y3.431
X1.916 Y3.439
X1.906 Y3.449 Z-2.099
X1.896 Y3.441
Y3.439
X1.906 Y3.429 Z-2.1
X1.912 Y3.431
X1.916 Y3.439 Z-2.101
X1.906 Y3.449
X1.896 Y3.441 Z-2.102
Y3.439
X1.906 Y3.429
X1.912 Y3.431
X1.916 Y3.439 Z-2.103
X1.906 Y3.449
X1.896 Y3.441 Z-2.104
Y3.439
X1.906 Y3.429
X1.912 Y3.431 Z-2.105
X1.916 Y3.439
X1.906 Y3.449 Z-2.106
X1.896 Y3.441
Y3.439
X1.906 Y3.429 Z-2.107
X1.912 Y3.431
X1.916 Y3.439
X1.906 Y3.449 Z-2.108
X1.896 Y3.441
Y3.439
X1.906 Y3.429 Z-2.109
X1.912 Y3.431
X1.916 Y3.439
X1.906 Y3.449 Z-2.11
X1.896 Y3.441
Y3.439
X1.906 Y3.429 Z-2.111
X1.912 Y3.431
X1.916 Y3.439 Z-2.112
X1.906 Y3.449
X1.896 Y3.441 Z-2.113
Y3.439
X1.906 Y3.429
X1.912 Y3.431
X1.916 Y3.439 Z-2.114
X1.906 Y3.449
X1.896 Y3.441 Z-2.115
Y3.439
X1.906 Y3.429
X1.912 Y3.431 Z-2.116
X1.916 Y3.439
X1.906 Y3.449
X1.896 Y3.441 Z-2.117
Y3.439
X1.906 Y3.429 Z-2.118
X1.912 Y3.431
X1.916 Y3.439
X1.906 Y3.449 Z-2.119
X1.896 Y3.441
Y3.439
X1.906 Y3.429 Z-2.12
X1.912 Y3.431
X1.916 Y3.439
X1.906 Y3.449 Z-2.121
X1.896 Y3.441
Y3.439
X1.906 Y3.429 Z-2.122
X1.912 Y3.431
X1.916 Y3.439 Z-2.123
X1.906 Y3.449
X1.896 Y3.441 Z-2.124
Y3.439
X1.906 Y3.429
X1.912 Y3.431
X1.916 Y3.439 Z-2.125
X1.906 Y3.449
X1.896 Y3.441 Z-2.126
Y3.439
X1.906 Y3.429
X1.912 Y3.431 Z-2.127
X1.916 Y3.439
X1.906 Y3.449
X1.896 Y3.441 Z-2.128
Y3.439
X1.906 Y3.429 Z-2.129
X1.912 Y3.431
X1.916 Y3.439
X1.906 Y3.449 Z-2.13
X1.896 Y3.441
Y3.439
X1.906 Y3.429 Z-2.131
X1.912 Y3.431
X1.916 Y3.439
X1.906 Y3.449 Z-2.132
X1.896 Y3.441
Y3.439
X1.906 Y3.429 Z-2.133
X1.912 Y3.431
X1.916 Y3.439
X1.906 Y3.449 Z-2.134
X1.896 Y3.441 Z-2.135
Y3.439
X1.906 Y3.429
X1.912 Y3.431
X1.916 Y3.439 Z-2.136
X1.906 Y3.449
X1.896 Y3.441 Z-2.137
Y3.439
X1.906 Y3.429
X1.912 Y3.431 Z-2.138
X1.916 Y3.439
X1.906 Y3.449
X1.896 Y3.441 Z-2.139
Y3.439
X1.906 Y3.429 Z-2.14
X1.912 Y3.431
X1.916 Y3.439
X1.906 Y3.449 Z-2.141
X1.896 Y3.441
Y3.439
X1.906 Y3.429 Z-2.142
X1.912 Y3.431
X1.916 Y3.439
X1.906 Y3.449 Z-2.143
X1.896 Y3.441
Y3.439
X1.906 Y3.429 Z-2.144
X1.912 Y3.431
X1.916 Y3.439
X1.906 Y3.449 Z-2.145
X1.896 Y3.441
Y3.439 Z-2.146
X1.906 Y3.429
X1.912 Y3.431
X1.916 Y3.439 Z-2.147
X1.906 Y3.449
X1.896 Y3.441 Z-2.148
Y3.439
X1.906 Y3.429
X1.912 Y3.431 Z-2.149
X1.916 Y3.439
X1.906 Y3.449
X1.896 Y3.441 Z-2.15
Y3.439
X1.906 Y3.429
X1.912 Y3.431 Z-2.151
X1.916 Y3.439
X1.906 Y3.449 Z-2.152
X1.896 Y3.441
Y3.439
X1.906 Y3.429 Z-2.153
X1.912 Y3.431
X1.916 Y3.439
X1.906 Y3.449 Z-2.154
X1.896 Y3.441
Y3.439
X1.906 Y3.429 Z-2.155
X1.912 Y3.431
X1.916 Y3.439
X1.906 Y3.449 Z-2.156
X1.896 Y3.441
Y3.439 Z-2.157
X1.906 Y3.429
X1.912 Y3.431
X1.916 Y3.439 Z-2.158
X1.906 Y3.449
X1.896 Y3.441 Z-2.159
Y3.439
X1.906 Y3.429
X1.912 Y3.431 Z-2.16
X1.916 Y3.439
X1.906 Y3.449
X1.896 Y3.441 Z-2.161
Y3.439
X1.906 Y3.429
X1.912 Y3.431 Z-2.162
X1.916 Y3.439
X1.906 Y3.449 Z-2.163
X1.896 Y3.441
Y3.439
X1.906 Y3.429 Z-2.164
X1.912 Y3.431
X1.916 Y3.439
X1.906 Y3.449 Z-2.165
X1.896 Y3.441
Y3.439
X1.906 Y3.429 Z-2.166
X1.912 Y3.431
X1.916 Y3.439
X1.906 Y3.449 Z-2.167
X1.896 Y3.441
Y3.439
X1.906 Y3.429 Z-2.168
X1.912 Y3.431
X1.916 Y3.439 Z-2.169
X1.906 Y3.449
X1.896 Y3.441 Z-2.17
Y3.439
X1.906 Y3.429
X1.912 Y3.431
X1.916 Y3.439 Z-2.171
X1.906 Y3.449
X1.896 Y3.441 Z-2.172
Y3.439
X1.906 Y3.429
X1.912 Y3.431 Z-2.173
X1.916 Y3.439
X1.906 Y3.449 Z-2.174
X1.896 Y3.441
Y3.439
X1.906 Y3.429 Z-2.175
X1.912 Y3.431
X1.916 Y3.439
X1.906 Y3.449 Z-2.176
X1.896 Y3.441
Y3.439
X1.906 Y3.429 Z-2.177
X1.912 Y3.431
X1.916 Y3.439
X1.906 Y3.449 Z-2.178
X1.896 Y3.441
Y3.439
X1.906 Y3.429 Z-2.179
X1.912 Y3.431
X1.916 Y3.439 Z-2.18
X1.906 Y3.449
X1.896 Y3.441 Z-2.181
Y3.439
X1.906 Y3.429
X1.912 Y3.431
X1.916 Y3.439 Z-2.182
X1.906 Y3.449
X1.896 Y3.441 Z-2.183
Y3.439
X1.906 Y3.429
X1.912 Y3.431 Z-2.184
X1.916 Y3.439
X1.906 Y3.449 Z-2.185
X1.896 Y3.441
Y3.439
X1.906 Y3.429 Z-2.186
X1.912 Y3.431
X1.916 Y3.439
X1.906 Y3.449 Z-2.187
X1.896 Y3.441
Y3.439
X1.906 Y3.429 Z-2.188
X1.912 Y3.431
X1.916 Y3.439
X1.906 Y3.449 Z-2.189
X1.896 Y3.441
Y3.439
X1.906 Y3.429 Z-2.19
X1.912 Y3.431
X1.916 Y3.439 Z-2.191
X1.906 Y3.449
X1.896 Y3.441 Z-2.192
Y3.439
X1.906 Y3.429
X1.912 Y3.431
X1.916 Y3.439 Z-2.193
X1.906 Y3.449
X1.896 Y3.441 Z-2.194
Y3.439
X1.906 Y3.429
X1.912 Y3.431 Z-2.195
X1.916 Y3.439
X1.906 Y3.449
X1.896 Y3.441 Z-2.196
Y3.439
X1.906 Y3.429 Z-2.197
X1.912 Y3.431
X1.916 Y3.439
X1.906 Y3.449 Z-2.198
X1.896 Y3.441
Y3.439
X1.906 Y3.429 Z-2.199
X1.912 Y3.431
X1.916 Y3.439
X1.906 Y3.449 Z-2.2
X1.896 Y3.441
Y3.439
X1.906 Y3.429 Z-2.201
X1.912 Y3.431
X1.916 Y3.439 Z-2.202
X1.906 Y3.449
X1.896 Y3.441 Z-2.203
Y3.439
X1.906 Y3.429
X1.912 Y3.431
X1.916 Y3.439 Z-2.204
X1.906 Y3.449
X1.896 Y3.441 Z-2.205
Y3.439
X1.906 Y3.429
X1.912 Y3.431 Z-2.206
X1.916 Y3.439
X1.906 Y3.449
X1.896 Y3.441 Z-2.207
Y3.439
X1.906 Y3.429 Z-2.208
X1.912 Y3.431
X1.916 Y3.439
X1.906 Y3.449 Z-2.209
X1.896 Y3.441
Y3.439
X1.906 Y3.429 Z-2.21
X1.912 Y3.431
X1.916 Y3.439
X1.906 Y3.449 Z-2.211
X1.896 Y3.441
Y3.439
X1.906 Y3.429 Z-2.212
X1.912 Y3.431
X1.916 Y3.439
X1.906 Y3.449 Z-2.213
X1.896 Y3.441
Y3.439 Z-2.214
X1.906 Y3.429
X1.912 Y3.431
X1.916 Y3.439 Z-2.215
X1.906 Y3.449
X1.896 Y3.441 Z-2.216
Y3.439
X1.906 Y3.429
X1.912 Y3.431 Z-2.217
X1.916 Y3.439
X1.906 Y3.449
X1.896 Y3.441 Z-2.218
Y3.439
X1.906 Y3.429 Z-2.219
X1.912 Y3.431
X1.916 Y3.439
X1.906 Y3.449 Z-2.22
X1.896 Y3.441
Y3.439
X1.906 Y3.429 Z-2.221
X1.912 Y3.431
X1.916 Y3.439
X1.906 Y3.449 Z-2.222
X1.896 Y3.441
Y3.439
X1.906 Y3.429 Z-2.223
X1.912 Y3.431
X1.916 Y3.439
X1.906 Y3.449 Z-2.224
X1.896 Y3.441
Y3.439 Z-2.225
X1.906 Y3.429
X1.912 Y3.431
X1.916 Y3.439 Z-2.226
X1.906 Y3.449
X1.896 Y3.441 Z-2.227
Y3.439
X1.906 Y3.429
X1.912 Y3.431 Z-2.228
X1.916 Y3.439
X1.906 Y3.449
X1.896 Y3.441 Z-2.229
Y3.439
X1.906 Y3.429
X1.912 Y3.431 Z-2.23
X1.916 Y3.439
X1.906 Y3.449 Z-2.231
X1.896 Y3.441
Y3.439
X1.906 Y3.429 Z-2.232
X1.912 Y3.431
X1.916 Y3.439
X1.906 Y3.449 Z-2.233
X1.896 Y3.441
Y3.439
X1.906 Y3.429 Z-2.234
X1.912 Y3.431
X1.916 Y3.439
X1.906 Y3.449 Z-2.235
X1.896 Y3.441
Y3.439 Z-2.236
X1.906 Y3.429
X1.912 Y3.431
X1.916 Y3.439 Z-2.237
X1.906 Y3.449
X1.896 Y3.441 Z-2.238
Y3.439
X1.906 Y3.429
X1.912 Y3.431
X1.916 Y3.439 Z-2.239
X1.906 Y3.449
X1.896 Y3.441 Z-2.24
Y3.439
X1.906 Y3.429
X1.912 Y3.431 Z-2.241
X1.916 Y3.439
X1.906 Y3.449 Z-2.242
X1.896 Y3.441
Y3.439
X1.906 Y3.429 Z-2.243
X1.912 Y3.431
X1.916 Y3.439
X1.906 Y3.449 Z-2.244
X1.896 Y3.441
Y3.439
X1.906 Y3.429 Z-2.245
X1.912 Y3.431
X1.916 Y3.439
X1.906 Y3.449 Z-2.246
X1.896 Y3.441
Y3.439
X1.906 Y3.429 Z-2.247
X1.912 Y3.431
X1.916 Y3.439 Z-2.248
X1.906 Y3.449
X1.896 Y3.441 Z-2.249
Y3.439
X1.906 Y3.429
X1.912 Y3.431
X1.916 Y3.439 Z-2.25
X1.906 Y3.449
X1.896 Y3.441 Z-2.251
Y3.439
X1.906 Y3.429
X1.912 Y3.431 Z-2.252
X1.916 Y3.439
X1.906 Y3.449 Z-2.253
X1.896 Y3.441
Y3.439
X1.906 Y3.429 Z-2.254
X1.912 Y3.431
X1.916 Y3.439
X1.906 Y3.449 Z-2.255
X1.896 Y3.441
Y3.439
X1.906 Y3.429 Z-2.256
X1.912 Y3.431
X1.916 Y3.439
X1.906 Y3.449 Z-2.257
X1.896 Y3.441
Y3.439
X1.906 Y3.429 Z-2.258
X1.912 Y3.431
X1.916 Y3.439 Z-2.259
X1.906 Y3.449
X1.896 Y3.441 Z-2.26
Y3.439
X1.906 Y3.429
X1.912 Y3.431
X1.916 Y3.439 Z-2.261
X1.906 Y3.449
X1.896 Y3.441 Z-2.262
Y3.439
X1.906 Y3.429
X1.912 Y3.431 Z-2.263
X1.916 Y3.439
X1.906 Y3.449
X1.896 Y3.441 Z-2.264
Y3.439
X1.906 Y3.429 Z-2.265
X1.912 Y3.431
X1.916 Y3.439
X1.906 Y3.449 Z-2.266
X1.896 Y3.441
Y3.439
X1.906 Y3.429 Z-2.267
X1.912 Y3.431
X1.916 Y3.439
X1.906 Y3.449 Z-2.268
X1.896 Y3.441
Y3.439
X1.906 Y3.429 Z-2.269
X1.912 Y3.431
X1.916 Y3.439 Z-2.27
X1.906 Y3.449
X1.896 Y3.441 Z-2.271
Y3.439
X1.906 Y3.429
X1.912 Y3.431
X1.916 Y3.439 Z-2.272
X1.906 Y3.449
X1.896 Y3.441 Z-2.273
Y3.439
X1.906 Y3.429
X1.912 Y3.431 Z-2.274
X1.916 Y3.439
X1.906 Y3.449
X1.896 Y3.441 Z-2.275
Y3.439
X1.906 Y3.429 Z-2.276
X1.912 Y3.431
X1.916 Y3.439
X1.906 Y3.449 Z-2.277
X1.896 Y3.441
Y3.439
X1.906 Y3.429 Z-2.278
X1.912 Y3.431
X1.916 Y3.439
X1.906 Y3.449 Z-2.279
X1.896 Y3.441
Y3.439
X1.906 Y3.429 Z-2.28
X1.912 Y3.431
X1.916 Y3.439
X1.906 Y3.449 Z-2.281
X1.896 Y3.441 Z-2.282
Y3.439
X1.906 Y3.429
X1.912 Y3.431
X1.916 Y3.439 Z-2.283
X1.906 Y3.449
X1.896 Y3.441 Z-2.284
Y3.439
X1.906 Y3.429
X1.912 Y3.431 Z-2.285
X1.916 Y3.439
X1.906 Y3.449
X1.896 Y3.441 Z-2.286
Y3.439
X1.906 Y3.429 Z-2.287
X1.912 Y3.431
X1.916 Y3.439
X1.906 Y3.449 Z-2.288
X1.896 Y3.441
Y3.439
X1.906 Y3.429 Z-2.289
X1.912 Y3.431
X1.916 Y3.439
X1.906 Y3.449 Z-2.29
X1.896 Y3.441
Y3.439
X1.906 Y3.429 Z-2.291
X1.912 Y3.431
X1.916 Y3.439
X1.906 Y3.449 Z-2.292
X1.896 Y3.441
Y3.439 Z-2.293
X1.906 Y3.429
X1.912 Y3.431
X1.916 Y3.439 Z-2.294
X1.906 Y3.449
X1.896 Y3.441 Z-2.295
Y3.439
X1.906 Y3.429
X1.912 Y3.431 Z-2.296
X1.916 Y3.439
X1.906 Y3.449
X1.896 Y3.441 Z-2.297
Y3.439
X1.906 Y3.429
X1.912 Y3.431 Z-2.298
X1.916 Y3.439
X1.906 Y3.449 Z-2.299
X1.896 Y3.441
Y3.439
X1.906 Y3.429 Z-2.3
X1.912 Y3.431
X1.916 Y3.439
X1.906 Y3.449 Z-2.301
X1.896 Y3.441
Y3.439
X1.906 Y3.429 Z-2.302
X1.912 Y3.431
X1.916 Y3.439
X1.906 Y3.449 Z-2.303
X1.896 Y3.441
Y3.439 Z-2.304
X1.906 Y3.429
X1.912 Y3.431
X1.916 Y3.439 Z-2.305
X1.906 Y3.449
X1.896 Y3.441 Z-2.306
Y3.439
X1.906 Y3.429
X1.912 Y3.431 Z-2.307
X1.916 Y3.439
X1.906 Y3.449
X1.896 Y3.441 Z-2.308
Y3.439
X1.906 Y3.429
X1.912 Y3.431 Z-2.309
X1.916 Y3.439
X1.906 Y3.449 Z-2.31
X1.896 Y3.441
Y3.439
X1.906 Y3.429 Z-2.311
X1.912 Y3.431
X1.916 Y3.439
X1.906 Y3.449 Z-2.312
X1.896 Y3.441
Y3.439
X1.906 Y3.429 Z-2.313
X1.912 Y3.431
X1.916 Y3.439
X1.906 Y3.449 Z-2.314
X1.896 Y3.441
Y3.439 Z-2.315
X1.906 Y3.429
X1.912 Y3.431
X1.916 Y3.439 Z-2.316
X1.906 Y3.449
X1.896 Y3.441 Z-2.317
Y3.439
X1.906 Y3.429
X1.912 Y3.431
X1.916 Y3.439 Z-2.318
X1.906 Y3.449
X1.896 Y3.441 Z-2.319
Y3.439
X1.906 Y3.429
X1.912 Y3.431 Z-2.32
X1.916 Y3.439
X1.906 Y3.449 Z-2.321
X1.896 Y3.441
Y3.439
X1.906 Y3.429 Z-2.322
X1.912 Y3.431
X1.916 Y3.439
X1.906 Y3.449 Z-2.323
X1.896 Y3.441
Y3.439
X1.906 Y3.429 Z-2.324
X1.912 Y3.431
X1.916 Y3.439
X1.906 Y3.449 Z-2.325
X1.896 Y3.441
Y3.439
X1.906 Y3.429 Z-2.326
X1.912 Y3.431
X1.916 Y3.439 Z-2.327
X1.906 Y3.449
X1.896 Y3.441 Z-2.328
Y3.439
X1.906 Y3.429
X1.912 Y3.431
X1.916 Y3.439 Z-2.329
X1.906 Y3.449
X1.896 Y3.441 Z-2.33
Y3.439
X1.906 Y3.429
X1.912 Y3.431 Z-2.331
X1.916 Y3.439
X1.906 Y3.449 Z-2.332
X1.896 Y3.441
Y3.439
X1.906 Y3.429 Z-2.333
X1.912 Y3.431
X1.916 Y3.439
X1.906 Y3.449 Z-2.334
X1.896 Y3.441
Y3.439
X1.906 Y3.429 Z-2.335
X1.912 Y3.431
X1.916 Y3.439
X1.906 Y3.449 Z-2.336
X1.896 Y3.441
Y3.439
X1.906 Y3.429 Z-2.337
X1.912 Y3.431
X1.916 Y3.439 Z-2.338
X1.906 Y3.449
X1.896 Y3.441 Z-2.339
Y3.439
X1.906 Y3.429
X1.912 Y3.431
X1.916 Y3.439 Z-2.34
X1.906 Y3.449
X1.896 Y3.441 Z-2.341
Y3.439
X1.906 Y3.429
X1.912 Y3.431 Z-2.342
X1.916 Y3.439
X1.906 Y3.449
X1.896 Y3.441 Z-2.343
Y3.439
X1.906 Y3.429 Z-2.344
X1.912 Y3.431
X1.916 Y3.439
X1.906 Y3.449 Z-2.345
X1.896 Y3.441
Y3.439
X1.906 Y3.429 Z-2.346
X1.912 Y3.431
X1.916 Y3.439
X1.906 Y3.449 Z-2.347
X1.896 Y3.441
Y3.439
X1.906 Y3.429 Z-2.348
X1.912 Y3.431
X1.916 Y3.439 Z-2.349
X1.906 Y3.449
X1.896 Y3.441 Z-2.35
Y3.439
X1.906 Y3.429
X1.912 Y3.431
X1.916 Y3.439 Z-2.351
X1.906 Y3.449
X1.896 Y3.441 Z-2.352
Y3.439
X1.906 Y3.429
X1.912 Y3.431 Z-2.353
X1.916 Y3.439
X1.906 Y3.449
X1.896 Y3.441 Z-2.354
Y3.439
X1.906 Y3.429 Z-2.355
X1.912 Y3.431
X1.916 Y3.439
X1.906 Y3.449 Z-2.356
X1.896 Y3.441
Y3.439
X1.906 Y3.429 Z-2.357
X1.912 Y3.431
X1.916 Y3.439
X1.906 Y3.449 Z-2.358
X1.896 Y3.441
Y3.439
X1.906 Y3.429 Z-2.359
X1.912 Y3.431
X1.916 Y3.439
X1.906 Y3.449 Z-2.36
X1.896 Y3.441 Z-2.361
Y3.439
X1.906 Y3.429
X1.912 Y3.431
X1.916 Y3.439 Z-2.362
X1.906 Y3.449
X1.896 Y3.441 Z-2.363
Y3.439
X1.906 Y3.429
X1.912 Y3.431 Z-2.364
X1.916 Y3.439
X1.906 Y3.449
X1.896 Y3.441 Z-2.365
Y3.439
X1.906 Y3.429 Z-2.366
X1.912 Y3.431
X1.916 Y3.439
X1.906 Y3.449 Z-2.367
X1.896 Y3.441
Y3.439
X1.906 Y3.429 Z-2.368
X1.912 Y3.431
X1.916 Y3.439
X1.906 Y3.449 Z-2.369
X1.896 Y3.441
Y3.439
X1.906 Y3.429 Z-2.37
X1.912 Y3.431
X1.916 Y3.439
X1.906 Y3.449 Z-2.371
X1.896 Y3.441
Y3.439 Z-2.372
X1.906 Y3.429
X1.912 Y3.431
X1.916 Y3.439 Z-2.373
X1.906 Y3.449
X1.896 Y3.441 Z-2.374
Y3.439
X1.906 Y3.429
X1.912 Y3.431 Z-2.375
X1.916 Y3.439
X1.906 Y3.449
X1.896 Y3.441 Z-2.376
Y3.439
X1.906 Y3.429
X1.912 Y3.431 Z-2.377
X1.916 Y3.439
X1.906 Y3.449 Z-2.378
X1.896 Y3.441
Y3.439
X1.906 Y3.429 Z-2.379
X1.912 Y3.431
X1.916 Y3.439
X1.906 Y3.449 Z-2.38
X1.896 Y3.441
Y3.439
X1.906 Y3.429 Z-2.381
X1.912 Y3.431
X1.916 Y3.439
X1.906 Y3.449 Z-2.382
X1.896 Y3.441
Y3.439 Z-2.383
X1.906 Y3.429
X1.912 Y3.431
X1.916 Y3.439 Z-2.384
X1.906 Y3.449
X1.896 Y3.441 Z-2.385
Y3.439
X1.906 Y3.429
X1.912 Y3.431 Z-2.386
X1.916 Y3.439
X1.906 Y3.449
X1.896 Y3.441 Z-2.387
Y3.439
X1.906 Y3.429
X1.912 Y3.431 Z-2.388
X1.916 Y3.439
X1.906 Y3.449 Z-2.389
X1.896 Y3.441
Y3.439
X1.906 Y3.429 Z-2.39
X1.912 Y3.431
X1.916 Y3.439
X1.906 Y3.449 Z-2.391
X1.896 Y3.441
Y3.439
X1.906 Y3.429 Z-2.392
X1.912 Y3.431
X1.916 Y3.439
X1.906 Y3.449 Z-2.393
X1.896 Y3.441
Y3.439
X1.906 Y3.429 Z-2.394
X1.912 Y3.431
X1.916 Y3.439 Z-2.395
X1.906 Y3.449
X1.896 Y3.441 Z-2.396
Y3.439
X1.906 Y3.429
X1.912 Y3.431
X1.916 Y3.439 Z-2.397
X1.906 Y3.449
X1.896 Y3.441 Z-2.398
Y3.439
X1.906 Y3.429
X1.912 Y3.431 Z-2.399
X1.916 Y3.439
X1.906 Y3.449 Z-2.4
X1.896 Y3.441
X1.912 Y3.431
X1.906 Y3.449
X1.896 Y3.441
Y3.439
X1.906 Y3.429 Z-2.401
X1.916 Y3.439
X1.915 Y3.444
X1.906 Y3.449 Z-2.402
X1.896 Y3.441
Y3.439
X1.906 Y3.429 Z-2.403
X1.916 Y3.439
X1.915 Y3.444 Z-2.404
X1.906 Y3.449
X1.896 Y3.441
Y3.439
X1.906 Y3.429 Z-2.405
X1.916 Y3.439 Z-2.406
X1.915 Y3.444
X1.906 Y3.449
X1.896 Y3.441 Z-2.407
Y3.439
X1.906 Y3.429
X1.916 Y3.439 Z-2.408
X1.915 Y3.444
X1.906 Y3.449
X1.896 Y3.441 Z-2.409
Y3.439
X1.906 Y3.429
X1.916 Y3.439 Z-2.41
X1.915 Y3.444
X1.906 Y3.449
X1.896 Y3.441 Z-2.411
Y3.439
X1.906 Y3.429 Z-2.412
X1.916 Y3.439
X1.915 Y3.444
X1.906 Y3.449 Z-2.413
X1.896 Y3.441
Y3.439
X1.906 Y3.429 Z-2.414
X1.916 Y3.439
X1.915 Y3.444
X1.906 Y3.449 Z-2.415
X1.896 Y3.441
Y3.439
X1.906 Y3.429 Z-2.416
X1.916 Y3.439 Z-2.417
X1.915 Y3.444
X1.906 Y3.449
X1.896 Y3.441 Z-2.418
Y3.439
X1.906 Y3.429
X1.916 Y3.439 Z-2.419
X1.915 Y3.444
X1.906 Y3.449
X1.896 Y3.441 Z-2.42
Y3.439
X1.906 Y3.429
X1.916 Y3.439 Z-2.421
X1.915 Y3.444
X1.906 Y3.449
X1.896 Y3.441 Z-2.422
Y3.439
X1.906 Y3.429 Z-2.423
X1.916 Y3.439
X1.915 Y3.444
X1.906 Y3.449 Z-2.424
X1.896 Y3.441
Y3.439
X1.906 Y3.429 Z-2.425
X1.916 Y3.439
X1.915 Y3.444
X1.906 Y3.449 Z-2.426
X1.896 Y3.441
Y3.439
X1.906 Y3.429 Z-2.427
X1.916 Y3.439 Z-2.428
X1.915 Y3.444
X1.906 Y3.449
X1.896 Y3.441 Z-2.429
Y3.439
X1.906 Y3.429
X1.916 Y3.439 Z-2.43
X1.915 Y3.444
X1.906 Y3.449
X1.896 Y3.441 Z-2.431
Y3.439
X1.906 Y3.429
X1.916 Y3.439 Z-2.432
X1.915 Y3.444
X1.906 Y3.449
X1.896 Y3.441 Z-2.433
Y3.439
X1.906 Y3.429 Z-2.434
X1.916 Y3.439
X1.915 Y3.444
X1.906 Y3.449 Z-2.435
X1.896 Y3.441
Y3.439
X1.906 Y3.429 Z-2.436
X1.916 Y3.439
X1.915 Y3.444
X1.906 Y3.449 Z-2.437
X1.896 Y3.441
Y3.439
X1.906 Y3.429 Z-2.438
X1.916 Y3.439
X1.915 Y3.444 Z-2.439
X1.906 Y3.449
X1.896 Y3.441
Y3.439 Z-2.44
X1.906 Y3.429
X1.916 Y3.439 Z-2.441
X1.915 Y3.444
X1.906 Y3.449
X1.896 Y3.441 Z-2.442
Y3.439
X1.906 Y3.429
X1.916 Y3.439 Z-2.443
X1.915 Y3.444
X1.906 Y3.449
X1.896 Y3.441 Z-2.444
Y3.439
X1.906 Y3.429 Z-2.445
X1.916 Y3.439
X1.915 Y3.444
X1.906 Y3.449 Z-2.446
X1.896 Y3.441
Y3.439
X1.906 Y3.429 Z-2.447
X1.916 Y3.439
X1.915 Y3.444
X1.906 Y3.449 Z-2.448
X1.896 Y3.441
Y3.439
X1.906 Y3.429 Z-2.449
X1.916 Y3.439
X1.915 Y3.444 Z-2.45
X1.906 Y3.449
X1.896 Y3.441
Y3.439 Z-2.451
X1.906 Y3.429
X1.916 Y3.439 Z-2.452
X1.915 Y3.444
X1.906 Y3.449
X1.896 Y3.441 Z-2.453
Y3.439
X1.906 Y3.429
X1.916 Y3.439 Z-2.454
X1.915 Y3.444
X1.906 Y3.449
X1.896 Y3.441 Z-2.455
Y3.439
X1.906 Y3.429
X1.916 Y3.439 Z-2.456
X1.915 Y3.444
X1.906 Y3.449 Z-2.457
X1.896 Y3.441
Y3.439
X1.906 Y3.429 Z-2.458
X1.916 Y3.439
X1.915 Y3.444
X1.906 Y3.449 Z-2.459
X1.896 Y3.441
Y3.439
X1.906 Y3.429 Z-2.46
X1.916 Y3.439
X1.915 Y3.444 Z-2.461
X1.906 Y3.449
X1.896 Y3.441
Y3.439 Z-2.462
X1.906 Y3.429
X1.916 Y3.439 Z-2.463
X1.915 Y3.444
X1.906 Y3.449
X1.896 Y3.441 Z-2.464
Y3.439
X1.906 Y3.429
X1.916 Y3.439 Z-2.465
X1.915 Y3.444
X1.906 Y3.449
X1.896 Y3.441 Z-2.466
Y3.439
X1.906 Y3.429
X1.916 Y3.439 Z-2.467
X1.915 Y3.444
X1.906 Y3.449 Z-2.468
X1.896 Y3.441
Y3.439
X1.906 Y3.429 Z-2.469
X1.916 Y3.439
X1.915 Y3.444
X1.906 Y3.449 Z-2.47
X1.896 Y3.441
Y3.439
X1.906 Y3.429 Z-2.471
X1.916 Y3.439
X1.915 Y3.444 Z-2.472
X1.906 Y3.449
X1.896 Y3.441
Y3.439
X1.906 Y3.429 Z-2.473
X1.916 Y3.439 Z-2.474
X1.915 Y3.444
X1.906 Y3.449
X1.896 Y3.441 Z-2.475
Y3.439
X1.906 Y3.429
X1.916 Y3.439 Z-2.476
X1.915 Y3.444
X1.906 Y3.449
X1.896 Y3.441 Z-2.477
Y3.439
X1.906 Y3.429
X1.916 Y3.439 Z-2.478
X1.915 Y3.444
X1.906 Y3.449 Z-2.479
X1.896 Y3.441
Y3.439
X1.906 Y3.429 Z-2.48
X1.916 Y3.439
X1.915 Y3.444
X1.906 Y3.449 Z-2.481
X1.896 Y3.441
Y3.439
X1.906 Y3.429 Z-2.482
X1.916 Y3.439
X1.915 Y3.444 Z-2.483
X1.906 Y3.449
X1.896 Y3.441
Y3.439
X1.906 Y3.429 Z-2.484
X1.916 Y3.439 Z-2.485
X1.915 Y3.444
X1.906 Y3.449
X1.896 Y3.441 Z-2.486
Y3.439
X1.906 Y3.429
X1.916 Y3.439 Z-2.487
X1.915 Y3.444
X1.906 Y3.449
X1.896 Y3.441 Z-2.488
Y3.439
X1.906 Y3.429
X1.916 Y3.439 Z-2.489
X1.915 Y3.444
X1.906 Y3.449
X1.896 Y3.441 Z-2.49
Y3.439
X1.906 Y3.429 Z-2.491
X1.916 Y3.439
X1.915 Y3.444
X1.906 Y3.449 Z-2.492
X1.896 Y3.441
Y3.439
X1.906 Y3.429 Z-2.493
X1.916 Y3.439
X1.915 Y3.444
X1.906 Y3.449 Z-2.494
X1.896 Y3.441
Y3.439
X1.906 Y3.429 Z-2.495
X1.916 Y3.439 Z-2.496
X1.915 Y3.444
X1.906 Y3.449
X1.896 Y3.441 Z-2.497
Y3.439
X1.906 Y3.429
X1.916 Y3.439 Z-2.498
X1.915 Y3.444
X1.906 Y3.449
X1.896 Y3.441 Z-2.499
Y3.439
X1.906 Y3.429
X1.916 Y3.439 Z-2.5
X1.915 Y3.444
X1.906 Y3.449
X1.896 Y3.441 Z-2.501
Y3.439
X1.906 Y3.429 Z-2.502
X1.916 Y3.439
X1.915 Y3.444
X1.906 Y3.449 Z-2.503
X1.896 Y3.441
Y3.439
X1.906 Y3.429 Z-2.504
X1.916 Y3.439
X1.915 Y3.444
X1.906 Y3.449 Z-2.505
X1.896 Y3.441
Y3.439
X1.906 Y3.429 Z-2.506
X1.916 Y3.439
X1.915 Y3.444 Z-2.507
X1.906 Y3.449
X1.896 Y3.441 Z-2.508
Y3.439
X1.906 Y3.429
X1.916 Y3.439 Z-2.509
X1.915 Y3.444
X1.906 Y3.449
X1.896 Y3.441 Z-2.51
Y3.439
X1.906 Y3.429
X1.916 Y3.439 Z-2.511
X1.915 Y3.444
X1.906 Y3.449
X1.896 Y3.441 Z-2.512
Y3.439
X1.906 Y3.429 Z-2.513
X1.916 Y3.439
X1.915 Y3.444
X1.906 Y3.449 Z-2.514
X1.896 Y3.441
Y3.439
X1.906 Y3.429 Z-2.515
X1.916 Y3.439
X1.915 Y3.444
X1.906 Y3.449 Z-2.516
X1.896 Y3.441
Y3.439
X1.906 Y3.429 Z-2.517
X1.916 Y3.439
X1.915 Y3.444 Z-2.518
X1.906 Y3.449
X1.896 Y3.441
Y3.439 Z-2.519
X1.906 Y3.429
X1.916 Y3.439 Z-2.52
X1.915 Y3.444
X1.906 Y3.449
X1.896 Y3.441 Z-2.521
Y3.439
X1.906 Y3.429
X1.916 Y3.439 Z-2.522
X1.915 Y3.444
X1.906 Y3.449
X1.896 Y3.441 Z-2.523
Y3.439
X1.906 Y3.429
X1.916 Y3.439 Z-2.524
X1.915 Y3.444
X1.906 Y3.449 Z-2.525
X1.896 Y3.441
Y3.439
X1.906 Y3.429 Z-2.526
X1.916 Y3.439
X1.915 Y3.444
X1.906 Y3.449 Z-2.527
X1.896 Y3.441
Y3.439
X1.906 Y3.429 Z-2.528
X1.916 Y3.439
X1.915 Y3.444 Z-2.529
X1.906 Y3.449
X1.896 Y3.441
Y3.439 Z-2.53
X1.906 Y3.429
X1.916 Y3.439 Z-2.531
X1.915 Y3.444
X1.906 Y3.449
X1.896 Y3.441 Z-2.532
Y3.439
X1.906 Y3.429
X1.916 Y3.439 Z-2.533
X1.915 Y3.444
X1.906 Y3.449
X1.896 Y3.441 Z-2.534
Y3.439
X1.906 Y3.429
X1.916 Y3.439 Z-2.535
X1.915 Y3.444
X1.906 Y3.449 Z-2.536
X1.896 Y3.441
Y3.439
X1.906 Y3.429 Z-2.537
X1.916 Y3.439
X1.915 Y3.444
X1.906 Y3.449 Z-2.538
X1.896 Y3.441
Y3.439
X1.906 Y3.429 Z-2.539
X1.916 Y3.439
X1.915 Y3.444 Z-2.54
X1.906 Y3.449
X1.896 Y3.441
Y3.439
X1.906 Y3.429 Z-2.541
X1.916 Y3.439 Z-2.542
X1.915 Y3.444
X1.906 Y3.449
X1.896 Y3.441 Z-2.543
Y3.439
X1.906 Y3.429
X1.916 Y3.439 Z-2.544
X1.915 Y3.444
X1.906 Y3.449
X1.896 Y3.441 Z-2.545
Y3.439
X1.906 Y3.429
X1.916 Y3.439 Z-2.546
X1.915 Y3.444
X1.906 Y3.449 Z-2.547
X1.896 Y3.441
Y3.439
X1.906 Y3.429 Z-2.548
X1.916 Y3.439
X1.915 Y3.444
X1.906 Y3.449 Z-2.549
X1.896 Y3.441
Y3.439
X1.906 Y3.429 Z-2.55
X1.916 Y3.439
X1.915 Y3.444 Z-2.551
X1.906 Y3.449
X1.896 Y3.441
Y3.439
X1.906 Y3.429 Z-2.552
X1.916 Y3.439 Z-2.553
X1.915 Y3.444
X1.906 Y3.449
X1.896 Y3.441 Z-2.554
Y3.439
X1.906 Y3.429
X1.916 Y3.439 Z-2.555
X1.915 Y3.444
X1.906 Y3.449
X1.896 Y3.441 Z-2.556
Y3.439
X1.906 Y3.429
X1.916 Y3.439 Z-2.557
X1.915 Y3.444
X1.906 Y3.449 Z-2.558
X1.896 Y3.441
Y3.439
X1.906 Y3.429 Z-2.559
X1.916 Y3.439
X1.915 Y3.444
X1.906 Y3.449 Z-2.56
X1.896 Y3.441
Y3.439
X1.906 Y3.429 Z-2.561
X1.916 Y3.439
X1.915 Y3.444 Z-2.562
X1.906 Y3.449
X1.896 Y3.441
Y3.439
X1.906 Y3.429 Z-2.563
X1.916 Y3.439 Z-2.564
X1.915 Y3.444
X1.906 Y3.449
X1.896 Y3.441 Z-2.565
Y3.439
X1.906 Y3.429
X1.916 Y3.439 Z-2.566
X1.915 Y3.444
X1.906 Y3.449
X1.896 Y3.441 Z-2.567
Y3.439
X1.906 Y3.429
X1.916 Y3.439 Z-2.568
X1.915 Y3.444
X1.906 Y3.449
X1.896 Y3.441 Z-2.569
Y3.439
X1.906 Y3.429 Z-2.57
X1.916 Y3.439
X1.915 Y3.444
X1.906 Y3.449 Z-2.571
X1.896 Y3.441
Y3.439
X1.906 Y3.429 Z-2.572
X1.916 Y3.439
X1.915 Y3.444
X1.906 Y3.449 Z-2.573
X1.896 Y3.441
Y3.439
X1.906 Y3.429 Z-2.574
X1.916 Y3.439 Z-2.575
X1.915 Y3.444
X1.906 Y3.449
X1.896 Y3.441 Z-2.576
Y3.439
X1.906 Y3.429
X1.916 Y3.439 Z-2.577
X1.915 Y3.444
X1.906 Y3.449
X1.896 Y3.441 Z-2.578
Y3.439
X1.906 Y3.429
X1.916 Y3.439 Z-2.579
X1.915 Y3.444
X1.906 Y3.449
X1.896 Y3.441 Z-2.58
Y3.439
X1.906 Y3.429 Z-2.581
X1.916 Y3.439
X1.915 Y3.444
X1.906 Y3.449 Z-2.582
X1.896 Y3.441
Y3.439
X1.906 Y3.429 Z-2.583
X1.916 Y3.439
X1.915 Y3.444
X1.906 Y3.449 Z-2.584
X1.896 Y3.441
Y3.439
X1.906 Y3.429 Z-2.585
X1.916 Y3.439
X1.915 Y3.444 Z-2.586
X1.906 Y3.449
X1.896 Y3.441 Z-2.587
Y3.439
X1.906 Y3.429
X1.916 Y3.439 Z-2.588
X1.915 Y3.444
X1.906 Y3.449
X1.896 Y3.441 Z-2.589
Y3.439
X1.906 Y3.429
X1.916 Y3.439 Z-2.59
X1.915 Y3.444
X1.906 Y3.449
X1.896 Y3.441 Z-2.591
Y3.439
X1.906 Y3.429 Z-2.592
X1.916 Y3.439
X1.915 Y3.444
X1.906 Y3.449 Z-2.593
X1.896 Y3.441
Y3.439
X1.906 Y3.429 Z-2.594
X1.916 Y3.439
X1.915 Y3.444
X1.906 Y3.449 Z-2.595
X1.896 Y3.441
Y3.439
X1.906 Y3.429 Z-2.596
X1.916 Y3.439
X1.915 Y3.444 Z-2.597
X1.906 Y3.449
X1.896 Y3.441
Y3.439 Z-2.598
X1.906 Y3.429
X1.916 Y3.439 Z-2.599
X1.915 Y3.444
X1.906 Y3.449
X1.896 Y3.441 Z-2.6
Y3.439
X1.906 Y3.429
X1.916 Y3.439 Z-2.601
X1.915 Y3.444
X1.906 Y3.449
X1.896 Y3.441 Z-2.602
Y3.439
X1.906 Y3.429
X1.916 Y3.439 Z-2.603
X1.915 Y3.444
X1.906 Y3.449 Z-2.604
X1.896 Y3.441
Y3.439
X1.906 Y3.429 Z-2.605
X1.916 Y3.439
X1.915 Y3.444
X1.906 Y3.449 Z-2.606
X1.896 Y3.441
Y3.439
X1.906 Y3.429 Z-2.607
X1.916 Y3.439
X1.915 Y3.444 Z-2.608
X1.906 Y3.449
X1.896 Y3.441
Y3.439 Z-2.609
X1.906 Y3.429
X1.916 Y3.439 Z-2.61
X1.915 Y3.444
X1.906 Y3.449
X1.896 Y3.441 Z-2.611
Y3.439
X1.906 Y3.429
X1.916 Y3.439 Z-2.612
X1.915 Y3.444
X1.906 Y3.449
X1.896 Y3.441 Z-2.613
Y3.439
X1.906 Y3.429
X1.916 Y3.439 Z-2.614
X1.915 Y3.444
X1.906 Y3.449 Z-2.615
X1.896 Y3.441
Y3.439
X1.906 Y3.429 Z-2.616
X1.916 Y3.439
X1.915 Y3.444
X1.906 Y3.449 Z-2.617
X1.896 Y3.441
Y3.439
X1.906 Y3.429 Z-2.618
X1.916 Y3.439
X1.915 Y3.444 Z-2.619
X1.906 Y3.449
X1.896 Y3.441
Y3.439
X1.906 Y3.429 Z-2.62
X1.916 Y3.439 Z-2.621
X1.915 Y3.444
X1.906 Y3.449
X1.896 Y3.441 Z-2.622
Y3.439
X1.906 Y3.429
X1.916 Y3.439 Z-2.623
X1.915 Y3.444
X1.906 Y3.449
X1.896 Y3.441 Z-2.624
Y3.439
X1.906 Y3.429
X1.916 Y3.439 Z-2.625
X1.915 Y3.444
X1.906 Y3.449 Z-2.626
X1.896 Y3.441
Y3.439
X1.906 Y3.429 Z-2.627
X1.916 Y3.439
X1.915 Y3.444
X1.906 Y3.449 Z-2.628
X1.896 Y3.441
Y3.439
X1.906 Y3.429 Z-2.629
X1.916 Y3.439
X1.915 Y3.444 Z-2.63
X1.906 Y3.449
X1.896 Y3.441
Y3.439
X1.906 Y3.429 Z-2.631
X1.916 Y3.439 Z-2.632
X1.915 Y3.444
X1.906 Y3.449
X1.896 Y3.441 Z-2.633
Y3.439
X1.906 Y3.429
X1.916 Y3.439 Z-2.634
X1.915 Y3.444
X1.906 Y3.449
X1.896 Y3.441 Z-2.635
Y3.439
X1.906 Y3.429
X1.916 Y3.439 Z-2.636
X1.915 Y3.444
X1.906 Y3.449
X1.896 Y3.441 Z-2.637
Y3.439
X1.906 Y3.429 Z-2.638
X1.916 Y3.439
X1.915 Y3.444
X1.906 Y3.449 Z-2.639
X1.896 Y3.441
Y3.439
X1.906 Y3.429 Z-2.64
X1.916 Y3.439
X1.915 Y3.444
X1.906 Y3.449 Z-2.641
X1.896 Y3.441
Y3.439
X1.906 Y3.429 Z-2.642
X1.916 Y3.439 Z-2.643
X1.915 Y3.444
X1.906 Y3.449
X1.896 Y3.441 Z-2.644
Y3.439
X1.906 Y3.429
X1.916 Y3.439 Z-2.645
X1.915 Y3.444
X1.906 Y3.449
X1.896 Y3.441 Z-2.646
Y3.439
X1.906 Y3.429
X1.916 Y3.439 Z-2.647
X1.915 Y3.444
X1.906 Y3.449
X1.896 Y3.441 Z-2.648
Y3.439
X1.906 Y3.429 Z-2.649
X1.916 Y3.439
X1.915 Y3.444
X1.906 Y3.449 Z-2.65
X1.896 Y3.441
Y3.439
X1.906 Y3.429 Z-2.651
X1.916 Y3.439
X1.915 Y3.444
X1.906 Y3.449 Z-2.652
X1.896 Y3.441
Y3.439
X1.906 Y3.429 Z-2.653
X1.916 Y3.439
X1.915 Y3.444 Z-2.654
X1.906 Y3.449
X1.896 Y3.441 Z-2.655
Y3.439
X1.906 Y3.429
X1.916 Y3.439 Z-2.656
X1.915 Y3.444
X1.906 Y3.449
X1.896 Y3.441 Z-2.657
Y3.439
X1.906 Y3.429
X1.916 Y3.439 Z-2.658
X1.915 Y3.444
X1.906 Y3.449
X1.896 Y3.441 Z-2.659
Y3.439
X1.906 Y3.429 Z-2.66
X1.916 Y3.439
X1.915 Y3.444
X1.906 Y3.449 Z-2.661
X1.896 Y3.441
Y3.439
X1.906 Y3.429 Z-2.662
X1.916 Y3.439
X1.915 Y3.444
X1.906 Y3.449 Z-2.663
X1.896 Y3.441
Y3.439
X1.906 Y3.429 Z-2.664
X1.916 Y3.439
X1.915 Y3.444 Z-2.665
X1.906 Y3.449
X1.896 Y3.441
Y3.439 Z-2.666
X1.906 Y3.429
X1.916 Y3.439 Z-2.667
X1.915 Y3.444
X1.906 Y3.449
X1.896 Y3.441 Z-2.668
Y3.439
X1.906 Y3.429
X1.916 Y3.439 Z-2.669
X1.915 Y3.444
X1.906 Y3.449
X1.896 Y3.441 Z-2.67
Y3.439
X1.906 Y3.429 Z-2.671
X1.916 Y3.439
X1.915 Y3.444
X1.906 Y3.449 Z-2.672
X1.896 Y3.441
Y3.439
X1.906 Y3.429 Z-2.673
X1.916 Y3.439
X1.915 Y3.444
X1.906 Y3.449 Z-2.674
X1.896 Y3.441
Y3.439
X1.906 Y3.429 Z-2.675
X1.916 Y3.439
X1.915 Y3.444 Z-2.676
X1.906 Y3.449
X1.896 Y3.441
Y3.439 Z-2.677
X1.906 Y3.429
X1.916 Y3.439 Z-2.678
X1.915 Y3.444
X1.906 Y3.449
X1.896 Y3.441 Z-2.679
Y3.439
X1.906 Y3.429
X1.916 Y3.439 Z-2.68
X1.915 Y3.444
X1.906 Y3.449
X1.896 Y3.441 Z-2.681
Y3.439
X1.906 Y3.429
X1.916 Y3.439 Z-2.682
X1.915 Y3.444
X1.906 Y3.449 Z-2.683
X1.896 Y3.441
Y3.439
X1.906 Y3.429 Z-2.684
X1.916 Y3.439
X1.915 Y3.444
X1.906 Y3.449 Z-2.685
X1.896 Y3.441
Y3.439
X1.906 Y3.429 Z-2.686
X1.916 Y3.439
X1.915 Y3.444 Z-2.687
X1.906 Y3.449
X1.896 Y3.441
Y3.439 Z-2.688
X1.906 Y3.429
X1.916 Y3.439 Z-2.689
X1.915 Y3.444
X1.906 Y3.449
X1.896 Y3.441 Z-2.69
Y3.439
X1.906 Y3.429
X1.916 Y3.439 Z-2.691
X1.915 Y3.444
X1.906 Y3.449
X1.896 Y3.441 Z-2.692
Y3.439
X1.906 Y3.429
X1.916 Y3.439 Z-2.693
X1.915 Y3.444
X1.906 Y3.449 Z-2.694
X1.896 Y3.441
Y3.439
X1.906 Y3.429 Z-2.695
X1.916 Y3.439
X1.915 Y3.444
X1.906 Y3.449 Z-2.696
X1.896 Y3.441
Y3.439
X1.906 Y3.429 Z-2.697
X1.916 Y3.439
X1.915 Y3.444 Z-2.698
X1.906 Y3.449
X1.896 Y3.441
Y3.439
X1.906 Y3.429 Z-2.699
X1.916 Y3.439 Z-2.7
X1.915 Y3.444
X1.906 Y3.449
X1.896 Y3.441 Z-2.701
Y3.439
X1.906 Y3.429
X1.916 Y3.439 Z-2.702
X1.915 Y3.444
X1.906 Y3.449
X1.896 Y3.441 Z-2.703
Y3.439
X1.906 Y3.429
X1.916 Y3.439 Z-2.704
X1.915 Y3.444
X1.906 Y3.449 Z-2.705
X1.896 Y3.441
Y3.439
X1.906 Y3.429 Z-2.706
X1.916 Y3.439
X1.915 Y3.444
X1.906 Y3.449 Z-2.707
X1.896 Y3.441
Y3.439
X1.906 Y3.429 Z-2.708
X1.916 Y3.439
X1.915 Y3.444 Z-2.709
X1.906 Y3.449
X1.896 Y3.441
Y3.439
X1.906 Y3.429 Z-2.71
X1.916 Y3.439 Z-2.711
X1.915 Y3.444
X1.906 Y3.449
X1.896 Y3.441 Z-2.712
Y3.439
X1.906 Y3.429
X1.916 Y3.439 Z-2.713
X1.915 Y3.444
X1.906 Y3.449
X1.896 Y3.441 Z-2.714
Y3.439
X1.906 Y3.429
X1.916 Y3.439 Z-2.715
X1.915 Y3.444
X1.906 Y3.449
X1.896 Y3.441 Z-2.716
Y3.439
X1.906 Y3.429 Z-2.717
X1.916 Y3.439
X1.915 Y3.444
X1.906 Y3.449 Z-2.718
X1.896 Y3.441
Y3.439
X1.906 Y3.429 Z-2.719
X1.916 Y3.439
X1.915 Y3.444
X1.906 Y3.449 Z-2.72
X1.896 Y3.441
Y3.439
X1.906 Y3.429 Z-2.721
X1.916 Y3.439 Z-2.722
X1.915 Y3.444
X1.906 Y3.449
X1.896 Y3.441 Z-2.723
Y3.439
X1.906 Y3.429
X1.916 Y3.439 Z-2.724
X1.915 Y3.444
X1.906 Y3.449
X1.896 Y3.441 Z-2.725
Y3.439
X1.906 Y3.429
X1.916 Y3.439 Z-2.726
X1.915 Y3.444
X1.906 Y3.449
X1.896 Y3.441 Z-2.727
Y3.439
X1.906 Y3.429 Z-2.728
X1.916 Y3.439
X1.915 Y3.444
X1.906 Y3.449 Z-2.729
X1.896 Y3.441
Y3.439
X1.906 Y3.429 Z-2.73
X1.916 Y3.439
X1.915 Y3.444
X1.906 Y3.449 Z-2.731
X1.896 Y3.441
Y3.439
X1.906 Y3.429 Z-2.732
X1.916 Y3.439
X1.915 Y3.444 Z-2.733
X1.906 Y3.449
X1.896 Y3.441 Z-2.734
Y3.439
X1.906 Y3.429
X1.916 Y3.439 Z-2.735
X1.915 Y3.444
X1.906 Y3.449
X1.896 Y3.441 Z-2.736
Y3.439
X1.906 Y3.429
X1.916 Y3.439 Z-2.737
X1.915 Y3.444
X1.906 Y3.449
X1.896 Y3.441 Z-2.738
Y3.439
X1.906 Y3.429 Z-2.739
X1.916 Y3.439
X1.915 Y3.444
X1.906 Y3.449 Z-2.74
X1.896 Y3.441
Y3.439
X1.906 Y3.429 Z-2.741
X1.916 Y3.439
X1.915 Y3.444
X1.906 Y3.449 Z-2.742
X1.896 Y3.441
Y3.439
X1.906 Y3.429 Z-2.743
X1.916 Y3.439
X1.915 Y3.444 Z-2.744
X1.906 Y3.449
X1.896 Y3.441
Y3.439 Z-2.745
X1.906 Y3.429
X1.916 Y3.439 Z-2.746
X1.915 Y3.444
X1.906 Y3.449
X1.896 Y3.441 Z-2.747
Y3.439
X1.906 Y3.429
X1.916 Y3.439 Z-2.748
X1.915 Y3.444
X1.906 Y3.449
X1.896 Y3.441 Z-2.749
Y3.439
X1.906 Y3.429
X1.916 Y3.439 Z-2.75
X1.915 Y3.444
X1.906 Y3.449 Z-2.751
X1.896 Y3.441
Y3.439
X1.906 Y3.429 Z-2.752
X1.916 Y3.439
X1.915 Y3.444
X1.906 Y3.449 Z-2.753
X1.896 Y3.441
Y3.439
X1.906 Y3.429 Z-2.754
X1.916 Y3.439
X1.915 Y3.444 Z-2.755
X1.906 Y3.449
X1.896 Y3.441
Y3.439 Z-2.756
X1.906 Y3.429
X1.916 Y3.439 Z-2.757
X1.915 Y3.444
X1.906 Y3.449
X1.896 Y3.441 Z-2.758
Y3.439
X1.906 Y3.429
X1.916 Y3.439 Z-2.759
X1.915 Y3.444
X1.906 Y3.449
X1.896 Y3.441 Z-2.76
Y3.439
X1.906 Y3.429
X1.916 Y3.439 Z-2.761
X1.915 Y3.444
X1.906 Y3.449 Z-2.762
X1.896 Y3.441
Y3.439
X1.906 Y3.429 Z-2.763
X1.916 Y3.439
X1.915 Y3.444
X1.906 Y3.449 Z-2.764
X1.896 Y3.441
Y3.439
X1.906 Y3.429 Z-2.765
X1.916 Y3.439
X1.915 Y3.444 Z-2.766
X1.906 Y3.449
X1.896 Y3.441
Y3.439
X1.906 Y3.429 Z-2.767
X1.916 Y3.439 Z-2.768
X1.915 Y3.444
X1.906 Y3.449
X1.896 Y3.441 Z-2.769
Y3.439
X1.906 Y3.429
X1.916 Y3.439 Z-2.77
X1.915 Y3.444
X1.906 Y3.449
X1.896 Y3.441 Z-2.771
Y3.439
X1.906 Y3.429
X1.916 Y3.439 Z-2.772
X1.915 Y3.444
X1.906 Y3.449 Z-2.773
X1.896 Y3.441
Y3.439
X1.906 Y3.429 Z-2.774
X1.916 Y3.439
X1.915 Y3.444
X1.906 Y3.449 Z-2.775
X1.896 Y3.441
Y3.439
X1.906 Y3.429 Z-2.776
X1.916 Y3.439
X1.915 Y3.444 Z-2.777
X1.906 Y3.449
X1.896 Y3.441
Y3.439
X1.906 Y3.429 Z-2.778
X1.916 Y3.439 Z-2.779
X1.915 Y3.444
X1.906 Y3.449
X1.896 Y3.441 Z-2.78
Y3.439
X1.906 Y3.429
X1.916 Y3.439 Z-2.781
X1.915 Y3.444
X1.906 Y3.449
X1.896 Y3.441 Z-2.782
Y3.439
X1.906 Y3.429
X1.916 Y3.439 Z-2.783
X1.915 Y3.444
X1.906 Y3.449
X1.896 Y3.441 Z-2.784
Y3.439
X1.906 Y3.429 Z-2.785
X1.916 Y3.439
X1.915 Y3.444
X1.906 Y3.449 Z-2.786
X1.896 Y3.441
Y3.439
X1.906 Y3.429 Z-2.787
X1.916 Y3.439
X1.915 Y3.444 Z-2.788
X1.906 Y3.449
X1.896 Y3.441
Y3.439
X1.906 Y3.429 Z-2.789
X1.916 Y3.439 Z-2.79
X1.915 Y3.444
X1.906 Y3.449
X1.896 Y3.441 Z-2.791
Y3.439
X1.906 Y3.429
X1.916 Y3.439 Z-2.792
X1.915 Y3.444
X1.906 Y3.449
X1.896 Y3.441 Z-2.793
Y3.439
X1.906 Y3.429
X1.916 Y3.439 Z-2.794
X1.915 Y3.444
X1.906 Y3.449
X1.896 Y3.441 Z-2.795
Y3.439
X1.906 Y3.429 Z-2.796
X1.916 Y3.439
X1.915 Y3.444
X1.906 Y3.449 Z-2.797
X1.896 Y3.441
Y3.439
X1.906 Y3.429 Z-2.798
X1.916 Y3.439
X1.915 Y3.444
X1.906 Y3.449 Z-2.799
X1.896 Y3.441
Y3.439
X1.906 Y3.429 Z-2.8
X1.916 Y3.439 Z-2.801
X1.915 Y3.444
X1.906 Y3.449
X1.896 Y3.441 Z-2.802
Y3.439
X1.906 Y3.429
X1.916 Y3.439 Z-2.803
X1.915 Y3.444
X1.906 Y3.449
X1.896 Y3.441 Z-2.804
Y3.439
X1.906 Y3.429
X1.916 Y3.439 Z-2.805
X1.915 Y3.444
X1.906 Y3.449
X1.896 Y3.441 Z-2.806
Y3.439
X1.906 Y3.429 Z-2.807
X1.916 Y3.439
X1.915 Y3.444
X1.906 Y3.449 Z-2.808
X1.896 Y3.441
Y3.439
X1.906 Y3.429 Z-2.809
X1.916 Y3.439
X1.915 Y3.444
X1.906 Y3.449 Z-2.81
X1.896 Y3.441
Y3.439
X1.906 Y3.429 Z-2.811
X1.916 Y3.439
X1.915 Y3.444 Z-2.812
X1.906 Y3.449
X1.896 Y3.441
Y3.439 Z-2.813
X1.906 Y3.429
X1.916 Y3.439 Z-2.814
X1.915 Y3.444
X1.906 Y3.449
X1.896 Y3.441 Z-2.815
Y3.439
X1.906 Y3.429
X1.916 Y3.439 Z-2.816
X1.915 Y3.444
X1.906 Y3.449
X1.896 Y3.441 Z-2.817
Y3.439
X1.906 Y3.429 Z-2.818
X1.916 Y3.439
X1.915 Y3.444
X1.906 Y3.449 Z-2.819
X1.896 Y3.441
Y3.439
X1.906 Y3.429 Z-2.82
X1.916 Y3.439
X1.915 Y3.444
X1.906 Y3.449 Z-2.821
X1.896 Y3.441
Y3.439
X1.906 Y3.429 Z-2.822
X1.916 Y3.439
X1.915 Y3.444 Z-2.823
X1.906 Y3.449
X1.896 Y3.441
Y3.439 Z-2.824
X1.906 Y3.429
X1.916 Y3.439 Z-2.825
X1.915 Y3.444
X1.906 Y3.449
X1.896 Y3.441 Z-2.826
Y3.439
X1.906 Y3.429
X1.916 Y3.439 Z-2.827
X1.915 Y3.444
X1.906 Y3.449
X1.896 Y3.441 Z-2.828
Y3.439
X1.906 Y3.429
X1.916 Y3.439 Z-2.829
X1.915 Y3.444
X1.906 Y3.449 Z-2.83
X1.896 Y3.441
Y3.439
X1.906 Y3.429 Z-2.831
X1.916 Y3.439
X1.915 Y3.444
X1.906 Y3.449 Z-2.832
X1.896 Y3.441
Y3.439
X1.906 Y3.429 Z-2.833
X1.916 Y3.439
X1.915 Y3.444 Z-2.834
X1.906 Y3.449
X1.896 Y3.441
Y3.439 Z-2.835
X1.906 Y3.429
X1.916 Y3.439 Z-2.836
X1.915 Y3.444
X1.906 Y3.449
X1.896 Y3.441 Z-2.837
Y3.439
X1.906 Y3.429
X1.916 Y3.439 Z-2.838
X1.915 Y3.444
X1.906 Y3.449
X1.896 Y3.441 Z-2.839
Y3.439
X1.906 Y3.429
X1.916 Y3.439 Z-2.84
X1.915 Y3.444
X1.906 Y3.449 Z-2.841
X1.896 Y3.441
Y3.439
X1.906 Y3.429 Z-2.842
X1.916 Y3.439
X1.915 Y3.444
X1.906 Y3.449 Z-2.843
X1.896 Y3.441
Y3.439
X1.906 Y3.429 Z-2.844
X1.916 Y3.439
X1.915 Y3.444 Z-2.845
X1.906 Y3.449
X1.896 Y3.441
Y3.439
X1.906 Y3.429 Z-2.846
X1.916 Y3.439 Z-2.847
X1.915 Y3.444
X1.906 Y3.449
X1.896 Y3.441 Z-2.848
Y3.439
X1.906 Y3.429
X1.916 Y3.439 Z-2.849
X1.915 Y3.444
X1.906 Y3.449
X1.896 Y3.441 Z-2.85
Y3.439
X1.906 Y3.429
X1.916 Y3.439 Z-2.851
X1.915 Y3.444
X1.906 Y3.449 Z-2.852
X1.896 Y3.441
Y3.439
X1.906 Y3.429 Z-2.853
X1.916 Y3.439
X1.915 Y3.444
X1.906 Y3.449 Z-2.854
X1.896 Y3.441
Y3.439
X1.906 Y3.429 Z-2.855
X1.916 Y3.439
X1.915 Y3.444 Z-2.856
X1.906 Y3.449
X1.896 Y3.441
Y3.439
X1.906 Y3.429 Z-2.857
X1.916 Y3.439 Z-2.858
X1.915 Y3.444
X1.906 Y3.449
X1.896 Y3.441 Z-2.859
Y3.439
X1.906 Y3.429
X1.916 Y3.439 Z-2.86
X1.915 Y3.444
X1.906 Y3.449
X1.896 Y3.441 Z-2.861
Y3.439
X1.906 Y3.429
X1.916 Y3.439 Z-2.862
X1.915 Y3.444
X1.906 Y3.449
X1.896 Y3.441 Z-2.863
Y3.439
X1.906 Y3.429 Z-2.864
X1.916 Y3.439
X1.915 Y3.444
X1.906 Y3.449 Z-2.865
X1.896 Y3.441
Y3.439
X1.906 Y3.429 Z-2.866
X1.916 Y3.439
X1.915 Y3.444
X1.906 Y3.449 Z-2.867
X1.896 Y3.441
Y3.439
X1.906 Y3.429 Z-2.868
X1.916 Y3.439 Z-2.869
X1.915 Y3.444
X1.906 Y3.449
X1.896 Y3.441 Z-2.87
Y3.439
X1.906 Y3.429
X1.916 Y3.439 Z-2.871
X1.915 Y3.444
X1.906 Y3.449
X1.896 Y3.441 Z-2.872
Y3.439
X1.906 Y3.429
X1.916 Y3.439 Z-2.873
X1.915 Y3.444
X1.906 Y3.449
X1.896 Y3.441 Z-2.874
Y3.439
X1.906 Y3.429 Z-2.875
X1.916 Y3.439
X1.915 Y3.444
X1.906 Y3.449 Z-2.876
X1.896 Y3.441
Y3.439
X1.906 Y3.429 Z-2.877
X1.916 Y3.439
X1.915 Y3.444
X1.906 Y3.449 Z-2.878
X1.896 Y3.441
Y3.439
X1.906 Y3.429 Z-2.879
X1.916 Y3.439
X1.915 Y3.444 Z-2.88
X1.906 Y3.449
X1.896 Y3.441 Z-2.881
Y3.439
X1.906 Y3.429
X1.916 Y3.439 Z-2.882
X1.915 Y3.444
X1.906 Y3.449
X1.896 Y3.441 Z-2.883
Y3.439
X1.906 Y3.429
X1.916 Y3.439 Z-2.884
X1.915 Y3.444
X1.906 Y3.449
X1.896 Y3.441 Z-2.885
Y3.439
X1.906 Y3.429 Z-2.886
X1.916 Y3.439
X1.915 Y3.444
X1.906 Y3.449 Z-2.887
X1.896 Y3.441
Y3.439
X1.906 Y3.429 Z-2.888
X1.916 Y3.439
X1.915 Y3.444
X1.906 Y3.449 Z-2.889
X1.896 Y3.441
Y3.439
X1.906 Y3.429 Z-2.89
X1.916 Y3.439
X1.915 Y3.444 Z-2.891
X1.906 Y3.449
X1.896 Y3.441
Y3.439 Z-2.892
X1.906 Y3.429
X1.916 Y3.439 Z-2.893
X1.915 Y3.444
X1.906 Y3.449
X1.896 Y3.441 Z-2.894
Y3.439
X1.906 Y3.429
X1.916 Y3.439 Z-2.895
X1.915 Y3.444
X1.906 Y3.449
X1.896 Y3.441 Z-2.896
Y3.439
X1.906 Y3.429
X1.916 Y3.439 Z-2.897
X1.915 Y3.444
X1.906 Y3.449 Z-2.898
X1.896 Y3.441
Y3.439
X1.906 Y3.429 Z-2.899
X1.916 Y3.439
X1.915 Y3.444
X1.906 Y3.449 Z-2.9
X1.896 Y3.441
Y3.439
X1.906 Y3.429 Z-2.901
X1.916 Y3.439
X1.915 Y3.444 Z-2.902
X1.906 Y3.449
X1.896 Y3.441
Y3.439 Z-2.903
X1.906 Y3.429
X1.916 Y3.439 Z-2.904
X1.915 Y3.444
X1.906 Y3.449
X1.896 Y3.441 Z-2.905
Y3.439
X1.906 Y3.429
X1.916 Y3.439 Z-2.906
X1.915 Y3.444
X1.906 Y3.449
X1.896 Y3.441 Z-2.907
Y3.439
X1.906 Y3.429
X1.916 Y3.439 Z-2.908
X1.915 Y3.444
X1.906 Y3.449 Z-2.909
X1.896 Y3.441
Y3.439
X1.906 Y3.429 Z-2.91
X1.916 Y3.439
X1.915 Y3.444
X1.906 Y3.449 Z-2.911
X1.896 Y3.441
Y3.439
X1.906 Y3.429 Z-2.912
X1.916 Y3.439
X1.915 Y3.444 Z-2.913
X1.906 Y3.449
X1.896 Y3.441
Y3.439 Z-2.914
X1.906 Y3.429
X1.916 Y3.439 Z-2.915
X1.915 Y3.444
X1.906 Y3.449
X1.896 Y3.441 Z-2.916
Y3.439
X1.906 Y3.429
X1.916 Y3.439 Z-2.917
X1.915 Y3.444
X1.906 Y3.449
X1.896 Y3.441 Z-2.918
Y3.439
X1.906 Y3.429
X1.916 Y3.439 Z-2.919
X1.915 Y3.444
X1.906 Y3.449 Z-2.92
X1.896 Y3.441
Y3.439
X1.906 Y3.429 Z-2.921
X1.916 Y3.439
X1.915 Y3.444
X1.906 Y3.449 Z-2.922
X1.896 Y3.441
Y3.439
X1.906 Y3.429 Z-2.923
X1.916 Y3.439
X1.915 Y3.444 Z-2.924
X1.906 Y3.449
X1.896 Y3.441
Y3.439
X1.906 Y3.429 Z-2.925
X1.916 Y3.439 Z-2.926
X1.915 Y3.444
X1.906 Y3.449
X1.896 Y3.441 Z-2.927
Y3.439
X1.906 Y3.429
X1.916 Y3.439 Z-2.928
X1.915 Y3.444
X1.906 Y3.449
X1.896 Y3.441 Z-2.929
Y3.439
X1.906 Y3.429
X1.916 Y3.439 Z-2.93
X1.915 Y3.444
X1.906 Y3.449 Z-2.931
X1.896 Y3.441
Y3.439
X1.906 Y3.429 Z-2.932
X1.916 Y3.439
X1.915 Y3.444
X1.906 Y3.449 Z-2.933
X1.896 Y3.441
Y3.439
X1.906 Y3.429 Z-2.934
X1.916 Y3.439
X1.915 Y3.444 Z-2.935
X1.906 Y3.449
X1.896 Y3.441
Y3.439
X1.906 Y3.429 Z-2.936
X1.916 Y3.439 Z-2.937
X1.915 Y3.444
X1.906 Y3.449
X1.896 Y3.441 Z-2.938
Y3.439
X1.906 Y3.429
X1.916 Y3.439 Z-2.939
X1.915 Y3.444
X1.906 Y3.449
X1.896 Y3.441 Z-2.94
Y3.439
X1.906 Y3.429
X1.916 Y3.439 Z-2.941
X1.915 Y3.444
X1.906 Y3.449
X1.896 Y3.441 Z-2.942
Y3.439
X1.906 Y3.429 Z-2.943
X1.916 Y3.439
X1.915 Y3.444
X1.906 Y3.449 Z-2.944
X1.896 Y3.441
Y3.439
X1.906 Y3.429 Z-2.945
X1.916 Y3.439
X1.915 Y3.444
X1.906 Y3.449 Z-2.946
X1.896 Y3.441
Y3.439
X1.906 Y3.429 Z-2.947
X1.916 Y3.439 Z-2.948
X1.915 Y3.444
X1.906 Y3.449
X1.896 Y3.441 Z-2.949
Y3.439
X1.906 Y3.429
X1.916 Y3.439 Z-2.95
X1.915 Y3.444
X1.906 Y3.449
X1.896 Y3.441 Z-2.951
Y3.439
X1.906 Y3.429
X1.916 Y3.439 Z-2.952
X1.915 Y3.444
X1.906 Y3.449
X1.896 Y3.441 Z-2.953
Y3.439
X1.906 Y3.429 Z-2.954
X1.916 Y3.439
X1.915 Y3.444
X1.906 Y3.449 Z-2.955
X1.896 Y3.441
Y3.439
X1.906 Y3.429 Z-2.956
X1.916 Y3.439
X1.915 Y3.444
X1.906 Y3.449 Z-2.957
X1.896 Y3.441
Y3.439
X1.906 Y3.429 Z-2.958
X1.916 Y3.439
X1.915 Y3.444 Z-2.959
X1.906 Y3.449
X1.896 Y3.441 Z-2.96
Y3.439
X1.906 Y3.429
X1.916 Y3.439 Z-2.961
X1.915 Y3.444
X1.906 Y3.449
X1.896 Y3.441 Z-2.962
Y3.439
X1.906 Y3.429
X1.916 Y3.439 Z-2.963
X1.915 Y3.444
X1.906 Y3.449
X1.896 Y3.441 Z-2.964
Y3.439
X1.906 Y3.429 Z-2.965
X1.916 Y3.439
X1.915 Y3.444
X1.906 Y3.449 Z-2.966
X1.896 Y3.441
Y3.439
X1.906 Y3.429 Z-2.967
X1.916 Y3.439
X1.915 Y3.444
X1.906 Y3.449 Z-2.968
X1.896 Y3.441
Y3.439
X1.906 Y3.429 Z-2.969
X1.916 Y3.439
X1.915 Y3.444 Z-2.97
X1.906 Y3.449
X1.896 Y3.441
Y3.439 Z-2.971
X1.906 Y3.429
X1.916 Y3.439 Z-2.972
X1.915 Y3.444
X1.906 Y3.449
X1.896 Y3.441 Z-2.973
Y3.439
X1.906 Y3.429
X1.916 Y3.439 Z-2.974
X1.915 Y3.444
X1.906 Y3.449
X1.896 Y3.441 Z-2.975
Y3.439
X1.906 Y3.429
X1.916 Y3.439 Z-2.976
X1.915 Y3.444
X1.906 Y3.449 Z-2.977
X1.896 Y3.441
Y3.439
X1.906 Y3.429 Z-2.978
X1.916 Y3.439
X1.915 Y3.444
X1.906 Y3.449 Z-2.979
X1.896 Y3.441
Y3.439
X1.906 Y3.429 Z-2.98
X1.916 Y3.439
X1.915 Y3.444 Z-2.981
X1.906 Y3.449
X1.896 Y3.441
Y3.439 Z-2.982
X1.906 Y3.429
X1.916 Y3.439 Z-2.983
X1.915 Y3.444
X1.906 Y3.449
X1.896 Y3.441 Z-2.984
Y3.439
X1.906 Y3.429
X1.916 Y3.439 Z-2.985
X1.915 Y3.444
X1.906 Y3.449
X1.896 Y3.441 Z-2.986
Y3.439
X1.906 Y3.429
X1.916 Y3.439 Z-2.987
X1.915 Y3.444
X1.906 Y3.449 Z-2.988
X1.896 Y3.441
Y3.439
X1.906 Y3.429 Z-2.989
X1.916 Y3.439
X1.915 Y3.444
X1.906 Y3.449 Z-2.99
X1.896 Y3.441
Y3.439
X1.906 Y3.429 Z-2.991
X1.916 Y3.439
X1.915 Y3.444 Z-2.992
X1.906 Y3.449
X1.896 Y3.441
Y3.439
X1.906 Y3.429 Z-2.993
X1.916 Y3.439 Z-2.994
X1.915 Y3.444
X1.906 Y3.449
X1.896 Y3.441 Z-2.995
Y3.439
X1.906 Y3.429
X1.916 Y3.439 Z-2.996
X1.915 Y3.444
X1.906 Y3.449
X1.896 Y3.441 Z-2.997
Y3.439
X1.906 Y3.429
X1.916 Y3.439 Z-2.998
X1.915 Y3.444
X1.906 Y3.449 Z-2.999
X1.896 Y3.441
Y3.439
X1.906 Y3.429 Z-3
X1.916 Y3.439
X1.915 Y3.444
X1.906 Y3.449 Z-3.001
X1.896 Y3.441
Y3.439
X1.906 Y3.429 Z-3.002
X1.916 Y3.439
X1.915 Y3.444 Z-3.003
X1.906 Y3.449
X1.896 Y3.441
Y3.439
X1.906 Y3.429 Z-3.004
X1.916 Y3.439 Z-3.005
X1.915 Y3.444
X1.906 Y3.449
X1.896 Y3.441 Z-3.006
Y3.439
X1.906 Y3.429
X1.916 Y3.439 Z-3.007
X1.915 Y3.444
X1.906 Y3.449
X1.896 Y3.441 Z-3.008
Y3.439
X1.906 Y3.429
X1.916 Y3.439 Z-3.009
X1.915 Y3.444
X1.906 Y3.449
X1.896 Y3.441 Z-3.01
Y3.439
X1.906 Y3.429 Z-3.011
X1.916 Y3.439
X1.915 Y3.444
X1.906 Y3.449 Z-3.012
X1.896 Y3.441
Y3.439
X1.906 Y3.429 Z-3.013
X1.916 Y3.439
X1.915 Y3.444
X1.906 Y3.449 Z-3.014
X1.896 Y3.441
Y3.439
X1.906 Y3.429 Z-3.015
X1.916 Y3.439 Z-3.016
X1.915 Y3.444
X1.906 Y3.449
X1.896 Y3.441 Z-3.017
Y3.439
X1.906 Y3.429
X1.916 Y3.439 Z-3.018
X1.915 Y3.444
X1.906 Y3.449
X1.896 Y3.441 Z-3.019
Y3.439
X1.906 Y3.429
X1.916 Y3.439 Z-3.02
X1.915 Y3.444
X1.906 Y3.449
X1.896 Y3.441 Z-3.021
Y3.439
X1.906 Y3.429 Z-3.022
X1.916 Y3.439
X1.915 Y3.444
X1.906 Y3.449 Z-3.023
X1.896 Y3.441
Y3.439
X1.906 Y3.429 Z-3.024
X1.916 Y3.439
X1.915 Y3.444
X1.906 Y3.449 Z-3.025
X1.896 Y3.441
Y3.439
X1.906 Y3.429 Z-3.026
X1.916 Y3.439 Z-3.027
X1.915 Y3.444
X1.906 Y3.449
X1.896 Y3.441 Z-3.028
Y3.439
X1.906 Y3.429
X1.916 Y3.439 Z-3.029
X1.915 Y3.444
X1.906 Y3.449
X1.896 Y3.441 Z-3.03
Y3.439
X1.906 Y3.429
X1.916 Y3.439 Z-3.031
X1.915 Y3.444
X1.906 Y3.449
X1.896 Y3.441 Z-3.032
Y3.439
X1.906 Y3.429 Z-3.033
X1.916 Y3.439
X1.915 Y3.444
X1.906 Y3.449 Z-3.034
X1.896 Y3.441
Y3.439
X1.906 Y3.429 Z-3.035
X1.916 Y3.439
X1.915 Y3.444
X1.906 Y3.449 Z-3.036
X1.896 Y3.441
Y3.439
X1.906 Y3.429 Z-3.037
X1.916 Y3.439
X1.915 Y3.444 Z-3.038
X1.906 Y3.449
X1.896 Y3.441
Y3.439 Z-3.039
X1.906 Y3.429
X1.916 Y3.439 Z-3.04
X1.915 Y3.444
X1.906 Y3.449
X1.896 Y3.441 Z-3.041
Y3.439
X1.906 Y3.429
X1.916 Y3.439 Z-3.042
X1.915 Y3.444
X1.906 Y3.449
X1.896 Y3.441 Z-3.043
Y3.439
X1.906 Y3.429 Z-3.044
X1.916 Y3.439
X1.915 Y3.444
X1.906 Y3.449 Z-3.045
X1.896 Y3.441
Y3.439
X1.906 Y3.429 Z-3.046
X1.916 Y3.439
X1.915 Y3.444
X1.906 Y3.449 Z-3.047
X1.896 Y3.441
Y3.439
X1.906 Y3.429 Z-3.048
X1.916 Y3.439
X1.915 Y3.444 Z-3.049
X1.906 Y3.449
X1.896 Y3.441
Y3.439 Z-3.05
X1.906 Y3.429
X1.916 Y3.439 Z-3.051
X1.915 Y3.444
X1.906 Y3.449
X1.896 Y3.441 Z-3.052
Y3.439
X1.906 Y3.429
X1.916 Y3.439 Z-3.053
X1.915 Y3.444
X1.906 Y3.449
X1.896 Y3.441 Z-3.054
Y3.439
X1.906 Y3.429
X1.916 Y3.439 Z-3.055
X1.915 Y3.444
X1.906 Y3.449 Z-3.056
X1.896 Y3.441
Y3.439
X1.906 Y3.429 Z-3.057
X1.916 Y3.439
X1.915 Y3.444
X1.906 Y3.449 Z-3.058
X1.896 Y3.441
Y3.439
X1.906 Y3.429 Z-3.059
X1.916 Y3.439
X1.915 Y3.444 Z-3.06
X1.906 Y3.449
X1.896 Y3.441
Y3.439 Z-3.061
X1.906 Y3.429
X1.916 Y3.439 Z-3.062
X1.915 Y3.444
X1.906 Y3.449
X1.896 Y3.441 Z-3.063
Y3.439
X1.906 Y3.429
X1.916 Y3.439 Z-3.064
X1.915 Y3.444
X1.906 Y3.449
X1.896 Y3.441 Z-3.065
Y3.439
X1.906 Y3.429
X1.916 Y3.439 Z-3.066
X1.915 Y3.444
X1.906 Y3.449 Z-3.067
X1.896 Y3.441
Y3.439
X1.906 Y3.429 Z-3.068
X1.916 Y3.439
X1.915 Y3.444
X1.906 Y3.449 Z-3.069
X1.896 Y3.441
Y3.439
X1.906 Y3.429 Z-3.07
X1.916 Y3.439
X1.915 Y3.444 Z-3.071
X1.906 Y3.449
X1.896 Y3.441
Y3.439
X1.906 Y3.429 Z-3.072
X1.916 Y3.439 Z-3.073
X1.915 Y3.444
X1.906 Y3.449
X1.896 Y3.441 Z-3.074
Y3.439
X1.906 Y3.429
X1.916 Y3.439 Z-3.075
X1.915 Y3.444
X1.906 Y3.449
X1.896 Y3.441 Z-3.076
Y3.439
X1.906 Y3.429
X1.916 Y3.439 Z-3.077
X1.915 Y3.444
X1.906 Y3.449 Z-3.078
X1.896 Y3.441
Y3.439
X1.906 Y3.429 Z-3.079
X1.916 Y3.439
X1.915 Y3.444
X1.906 Y3.449 Z-3.08
X1.896 Y3.441
Y3.439
X1.906 Y3.429 Z-3.081
X1.916 Y3.439
X1.915 Y3.444 Z-3.082
X1.906 Y3.449
X1.896 Y3.441
Y3.439
X1.906 Y3.429 Z-3.083
X1.916 Y3.439 Z-3.084
X1.915 Y3.444
X1.906 Y3.449
X1.896 Y3.441 Z-3.085
Y3.439
X1.906 Y3.429
X1.916 Y3.439 Z-3.086
X1.915 Y3.444
X1.906 Y3.449
X1.896 Y3.441 Z-3.087
Y3.439
X1.906 Y3.429
X1.916 Y3.439 Z-3.088
X1.915 Y3.444
X1.906 Y3.449
X1.896 Y3.441 Z-3.089
Y3.439
X1.906 Y3.429 Z-3.09
X1.916 Y3.439
X1.915 Y3.444
X1.906 Y3.449 Z-3.091
X1.896 Y3.441
Y3.439
X1.906 Y3.429 Z-3.092
X1.916 Y3.439
X1.915 Y3.444
X1.906 Y3.449 Z-3.093
X1.896 Y3.441
Y3.439
X1.906 Y3.429 Z-3.094
X1.916 Y3.439 Z-3.095
X1.915 Y3.444
X1.906 Y3.449
X1.896 Y3.441 Z-3.096
Y3.439
X1.906 Y3.429
X1.916 Y3.439 Z-3.097
X1.915 Y3.444
X1.906 Y3.449
X1.896 Y3.441 Z-3.098
Y3.439
X1.906 Y3.429
X1.916 Y3.439 Z-3.099
X1.915 Y3.444
X1.906 Y3.449
X1.896 Y3.441 Z-3.1
Y3.439
X1.906 Y3.429 Z-3.101
X1.916 Y3.439
X1.915 Y3.444
X1.906 Y3.449 Z-3.102
X1.896 Y3.441
Y3.439
X1.906 Y3.429 Z-3.103
X1.916 Y3.439
X1.915 Y3.444
X1.906 Y3.449 Z-3.104
X1.896 Y3.441
Y3.439
X1.906 Y3.429 Z-3.105
X1.916 Y3.439
X1.915 Y3.444 Z-3.106
X1.906 Y3.449
X1.896 Y3.441 Z-3.107
Y3.439
X1.906 Y3.429
X1.916 Y3.439 Z-3.108
X1.915 Y3.444
X1.906 Y3.449
X1.896 Y3.441 Z-3.109
Y3.439
X1.906 Y3.429
X1.916 Y3.439 Z-3.11
X1.915 Y3.444
X1.906 Y3.449
X1.896 Y3.441 Z-3.111
Y3.439
X1.906 Y3.429 Z-3.112
X1.916 Y3.439
X1.915 Y3.444
X1.906 Y3.449 Z-3.113
X1.896 Y3.441
Y3.439
X1.906 Y3.429 Z-3.114
X1.916 Y3.439
X1.915 Y3.444
X1.906 Y3.449 Z-3.115
X1.896 Y3.441
Y3.439
X1.906 Y3.429 Z-3.116
X1.916 Y3.439
X1.915 Y3.444 Z-3.117
X1.906 Y3.449
X1.896 Y3.441
Y3.439 Z-3.118
X1.906 Y3.429
X1.916 Y3.439 Z-3.119
X1.915 Y3.444
X1.906 Y3.449
X1.896 Y3.441 Z-3.12
Y3.439
X1.906 Y3.429
X1.916 Y3.439 Z-3.121
X1.915 Y3.444
X1.906 Y3.449
X1.896 Y3.441 Z-3.122
Y3.439
X1.906 Y3.429
X1.916 Y3.439 Z-3.123
X1.915 Y3.444
X1.906 Y3.449 Z-3.124
X1.896 Y3.441
Y3.439
X1.906 Y3.429 Z-3.125
X1.916 Y3.439
X1.915 Y3.444
X1.906 Y3.449 Z-3.126
X1.896 Y3.441
Y3.439
X1.906 Y3.429 Z-3.127
X1.916 Y3.439
X1.915 Y3.444 Z-3.128
X1.906 Y3.449
X1.896 Y3.441
Y3.439 Z-3.129
X1.906 Y3.429
X1.916 Y3.439 Z-3.13
X1.915 Y3.444
X1.906 Y3.449
X1.896 Y3.441 Z-3.131
Y3.439
X1.906 Y3.429
X1.916 Y3.439 Z-3.132
X1.915 Y3.444
X1.906 Y3.449
X1.896 Y3.441 Z-3.133
Y3.439
X1.906 Y3.429
X1.916 Y3.439 Z-3.134
X1.915 Y3.444
X1.906 Y3.449 Z-3.135
X1.896 Y3.441
Y3.439
X1.906 Y3.429 Z-3.136
X1.916 Y3.439
X1.915 Y3.444
X1.906 Y3.449 Z-3.137
X1.896 Y3.441
Y3.439
X1.906 Y3.429 Z-3.138
X1.916 Y3.439
X1.915 Y3.444 Z-3.139
X1.906 Y3.449
X1.896 Y3.441
Y3.439
X1.906 Y3.429 Z-3.14
X1.916 Y3.439 Z-3.141
X1.915 Y3.444
X1.906 Y3.449
X1.896 Y3.441 Z-3.142
Y3.439
X1.906 Y3.429
X1.916 Y3.439 Z-3.143
X1.915 Y3.444
X1.906 Y3.449
X1.896 Y3.441 Z-3.144
Y3.439
X1.906 Y3.429
X1.916 Y3.439 Z-3.145
X1.915 Y3.444
X1.906 Y3.449 Z-3.146
X1.896 Y3.441
Y3.439
X1.906 Y3.429 Z-3.147
X1.916 Y3.439
X1.915 Y3.444
X1.906 Y3.449 Z-3.148
X1.896 Y3.441
Y3.439
X1.906 Y3.429 Z-3.149
X1.916 Y3.439
X1.915 Y3.444 Z-3.15
X1.906 Y3.449
X1.896 Y3.441
Y3.439
X1.906 Y3.429 Z-3.151
X1.916 Y3.439 Z-3.152
X1.915 Y3.444
X1.906 Y3.449
X1.896 Y3.441 Z-3.153
Y3.439
X1.906 Y3.429
X1.916 Y3.439 Z-3.154
X1.915 Y3.444
X1.906 Y3.449
X1.896 Y3.441 Z-3.155
Y3.439
X1.906 Y3.429
X1.916 Y3.439 Z-3.156
X1.915 Y3.444
X1.906 Y3.449 Z-3.157
X1.896 Y3.441
Y3.439
X1.906 Y3.429 Z-3.158
X1.916 Y3.439
X1.915 Y3.444
X1.906 Y3.449 Z-3.159
X1.896 Y3.441
Y3.439
X1.906 Y3.429 Z-3.16
X1.916 Y3.439
X1.915 Y3.444 Z-3.161
X1.906 Y3.449
X1.896 Y3.441
Y3.439
X1.906 Y3.429 Z-3.162
X1.916 Y3.439 Z-3.163
X1.915 Y3.444
X1.906 Y3.449
X1.896 Y3.441 Z-3.164
Y3.439
X1.906 Y3.429
X1.916 Y3.439 Z-3.165
X1.915 Y3.444
X1.906 Y3.449
X1.896 Y3.441 Z-3.166
Y3.439
X1.906 Y3.429
X1.916 Y3.439 Z-3.167
X1.915 Y3.444
X1.906 Y3.449
X1.896 Y3.441 Z-3.168
Y3.439
X1.906 Y3.429 Z-3.169
X1.916 Y3.439
X1.915 Y3.444
X1.906 Y3.449 Z-3.17
X1.896 Y3.441
Y3.439
X1.906 Y3.429 Z-3.171
X1.916 Y3.439
X1.915 Y3.444
X1.906 Y3.449 Z-3.172
X1.896 Y3.441
Y3.439
X1.906 Y3.429 Z-3.173
X1.916 Y3.439 Z-3.174
X1.915 Y3.444
X1.906 Y3.449
X1.896 Y3.441 Z-3.175
Y3.439
X1.906 Y3.429
X1.916 Y3.439 Z-3.176
