(1001)
(Machine)
(  vendor: Autodesk)
(  description: Generic 3-axis)
(T5  D=1.5 CR=0 - ZMIN=-17 - flat end mill)
G90 G94
G17
G21

(2D Pocket2)
T5
S5000 M3
G54
M8
G0 X24.99 Y46.912
Z7
Z2
G1 Z1.8 F400
G3 X26.063 Y47.849 Z1.405 I0.537 J0.469 F333.3
X24.99 Y46.912 Z1.011 I-0.537 J-0.469
X26.063 Y47.849 Z0.616 I0.537 J0.469
X24.99 Y46.912 Z0.221 I-0.537 J-0.469
X26.063 Y47.849 Z-0.173 I0.537 J0.469
X24.994 Y47.854 Z-0.387 I-0.537 J-0.469
X25.125 Y46.792 Z-0.6 I0.533 J-0.473
X26.049 Y46.966 I0.375 J0.549
X25.875 Y47.891 I-0.549 J0.375
G1 X25.264 Y48.308 F400
X25.228 Y48.325
X25.188 Y48.329
X25.148 Y48.321
X25.113 Y48.3
X25.087 Y48.27
X25.071 Y48.232
X25.069 Y48.192
X25.079 Y48.153
X25.477 Y47.266
G3 X25.915 Y47.29 I0.215 J0.096
G1 X25.951 Y47.388
X25.993 Y47.482
G3 X25.888 Y47.882 I-0.283 J0.139
G1 X25.875 Y47.891
G0 Z4
X10.003 Y33.966
Z2
G1 Z1.8 F400
G3 X8.624 Y34.323 Z1.405 I-0.69 J0.179 F333.3
X10.003 Y33.966 Z1.011 I0.69 J-0.179
X8.624 Y34.323 Z0.616 I-0.69 J0.179
X10.003 Y33.966 Z0.221 I0.69 J-0.179
X8.624 Y34.323 Z-0.173 I-0.69 J0.179
X9.224 Y33.438 Z-0.387 I0.69 J-0.179
X10.026 Y34.145 Z-0.6 I0.09 J0.707
X9.709 Y34.145 I-0.159 J0 F400
X11.451 Y34.145 I0.871 J0
X8.284 Y34.145 I-1.584 J0
X11.451 Y34.145 I1.584 J0
G2 X11.943 Y34.995 I0.982 J0
G3 X12.136 Y35.959 I-0.326 J0.566
X10.722 Y36.973 I-2.372 J-1.817
X9.907 Y37.099 I-0.768 J-2.269
X6.992 Y34.406 I0.058 J-2.987
X12.687 Y33.526 I2.872 J-0.285
X12.136 Y35.959 I-2.923 J0.617
G2 X12.01 Y37.016 I0.829 J0.635
G3 X11.632 Y38.011 I-0.693 J0.306
X11.151 Y38.196 I-1.764 J-3.867
G2 X10.627 Y38.911 I0.226 J0.715
G1 Y48.986
G2 X11.377 Y49.736 I0.75 J0
G1 X21.774
G2 X22.524 Y48.989 I0 J-0.75
G1 X22.566 Y35.324
G2 X22.828 Y34.757 I-0.488 J-0.569
G3 X23.328 Y34.259 I0.5 J0.002
G2 X24.078 Y33.509 I0 J-0.75
G1 Y28.893
G2 X23.369 Y28.144 I-0.75 J0
G3 X23.424 Y27.145 I0.027 J-0.499
X23.895 Y27.69 I-0.027 J0.499
G2 X24.642 Y28.509 I0.747 J0.069
G1 X25.078
Y34.009
X24.578
G2 X23.828 Y34.759 I0 J0.75
G3 X23.327 Y35.259 I-0.5 J0
G2 X22.574 Y36.006 I-0.002 J0.75
G1 X22.535 Y48.624
G2 X23.969 Y48.933 I0.75 J0.002
G1 X29.922 Y35.664
G2 X29.897 Y35.001 I-0.684 J-0.307
G3 X30.777 Y34.525 I0.44 J-0.238
X30.452 Y35.249 I-0.44 J0.238
G2 X29.94 Y35.672 I0.172 J0.73
G1 X25.565 Y45.425
G2 X26.827 Y46.211 I0.684 J0.307
G1 X35.691 Y35.522
G2 X35.844 Y34.872 I-0.577 J-0.479
G3 X36.818 Y34.644 I0.487 J-0.114
X36.309 Y35.258 I-0.487 J0.114
G2 X35.699 Y35.528 I-0.033 J0.749
G1 X26.711 Y46.366
G2 X27.711 Y47.464 I0.577 J0.479
G1 X45.504 Y35.316
G2 X45.83 Y34.734 I-0.423 J-0.619
G3 X46.829 Y34.784 I0.499 J0.025
X46.171 Y35.233 I-0.499 J-0.025
G2 X45.51 Y35.325 I-0.238 J0.711
G1 X23.282 Y50.5
X23.274 Y50.496
G2 X22.524 Y49.746 I-0.75 J0
G1 X10.617
Y39.145
G2 X9.867 Y38.395 I-0.75 J0
G3 X9.868 Y29.895 I0 J-4.25
X11.632 Y38.011 I0 J4.25
X10.649 Y37.175 Z-0.739 I-0.296 J-0.648 F333.3
G1 X11.426 Y34.333 Z-0.992
G2 X10.834 Y33.438 Z-1.096 I-0.687 J-0.188
X10.026 Y34.145 Z-1.2 I-0.095 J0.706
G3 X9.709 Y34.145 I-0.159 J0 F400
X11.451 Y34.145 I0.871 J0
X8.284 Y34.145 I-1.584 J0
X11.451 Y34.145 I1.584 J0
G2 X11.943 Y34.995 I0.982 J0
G3 X12.136 Y35.959 I-0.326 J0.566
X10.722 Y36.973 I-2.372 J-1.817
X9.907 Y37.099 I-0.768 J-2.269
X6.992 Y34.406 I0.058 J-2.987
X12.687 Y33.526 I2.872 J-0.285
X12.136 Y35.959 I-2.923 J0.617
G1 Z1
X10.001 Y35.007
Z-1.2
X10.449 Y37.907
X10.523 Y38.388
G3 X10.58 Y38.765 I-43.777 J6.767
X10.622 Y39.145 I-5.586 J0.814
G1 Y48.986
G2 X10.634 Y49.353 I5.842 J0
X10.852 Y49.649 I0.339 J-0.021
G1 X10.928 Y49.674
X11.005 Y49.695
X11.097 Y49.716
X11.19 Y49.726
X11.377 Y49.741
X21.774
G2 X22.247 Y49.66 I0 J-1.419
X22.688 Y49.473 I-1.313 J-3.719
G3 X23.31 Y49.53 I0.265 J0.533
G2 X23.932 Y49.574 I0.346 J-0.462
X25.083 Y48.829 I-4.394 J-8.05
X25.686 Y47.598 I-0.922 J-1.215
G1 X25.506 Y47.306
X25.494 Y47.275
X25.495 Y47.241
X25.511 Y47.212
G3 X25.915 Y47.29 I0.181 J0.151
G1 X25.951 Y47.388
X25.993 Y47.482
G3 X25.888 Y47.882 I-0.283 J0.139
G1 X25.264 Y48.308
X25.228 Y48.325
X25.188 Y48.329
X25.148 Y48.321
X25.113 Y48.3
X25.087 Y48.27
X25.071 Y48.232
X25.069 Y48.192
X25.079 Y48.153
X25.477 Y47.266
X25.492 Y47.238
X25.511 Y47.212
G2 X25.505 Y46.475 I-0.437 J-0.365
G3 X25.399 Y45.746 I0.52 J-0.448
G1 X29.922 Y35.664
G2 X29.897 Y35.001 I-0.684 J-0.307
G3 X30.777 Y34.525 I0.44 J-0.238
X30.452 Y35.249 I-0.44 J0.238
G2 X29.94 Y35.672 I0.172 J0.73
G1 X25.565 Y45.425
G2 X26.827 Y46.211 I0.684 J0.307
G1 X35.691 Y35.522
G2 X35.844 Y34.872 I-0.577 J-0.479
G3 X36.818 Y34.644 I0.487 J-0.114
X36.309 Y35.258 I-0.487 J0.114
G2 X35.699 Y35.528 I-0.033 J0.749
G1 X26.711 Y46.366
G2 X27.711 Y47.464 I0.577 J0.479
G1 X45.504 Y35.316
G2 X45.83 Y34.734 I-0.423 J-0.619
G3 X46.829 Y34.784 I0.499 J0.025
X46.171 Y35.233 I-0.499 J-0.025
G2 X45.51 Y35.325 I-0.238 J0.711
G1 X23.282 Y50.5
X23.274 Y50.496
G2 X22.524 Y49.746 I-0.75 J0
G1 X10.617
Y39.145
G2 X9.867 Y38.395 I-0.75 J0
G3 X9.868 Y29.895 I0 J-4.25
X11.151 Y38.196 I0 J4.25
G2 X10.627 Y38.911 I0.226 J0.715
G1 Y48.986
G2 X11.377 Y49.736 I0.75 J0
G1 X21.774
G2 X22.524 Y48.989 I0 J-0.75
G1 X22.566 Y35.324
G2 X22.828 Y34.757 I-0.488 J-0.569
G3 X23.328 Y34.259 I0.5 J0.002
G2 X24.078 Y33.509 I0 J-0.75
G1 Y28.893
G2 X23.369 Y28.144 I-0.75 J0
G3 X23.424 Y27.145 I0.027 J-0.499
X23.895 Y27.69 I-0.027 J0.499
G2 X24.642 Y28.509 I0.747 J0.069
G1 X25.078
Y34.009
X24.578
G2 X23.828 Y34.759 I0 J0.75
G3 X23.327 Y35.259 I-0.5 J0
G2 X22.574 Y36.006 I-0.002 J0.75
G1 X22.535 Y48.624
G2 X23.969 Y48.933 I0.75 J0.002
G1 X25.399 Y45.746
X25.467 Y45.817
X25.908 Y46.894
X25.919 Y46.912
X25.937 Y46.923
X25.958 Y46.926
X26.088 Y46.942
G3 X24.965 Y47.819 Z-1.595 I-0.562 J0.438 F333.3
X25.125 Y46.792 Z-1.8 I0.562 J-0.438
X26.049 Y46.966 I0.375 J0.549
X25.875 Y47.891 I-0.549 J0.375
G1 X25.264 Y48.308 F400
X25.228 Y48.325
X25.188 Y48.329
X25.148 Y48.321
X25.113 Y48.3
X25.087 Y48.27
X25.071 Y48.232
X25.069 Y48.192
X25.079 Y48.153
X25.477 Y47.266
G3 X25.915 Y47.29 I0.215 J0.096
G1 X25.951 Y47.388
X25.993 Y47.482
G3 X25.888 Y47.882 I-0.283 J0.139
G1 X25.875 Y47.891
G0 Z4
X10.003 Y33.966
Z2
G1 Z0.6 F400
G3 X8.624 Y34.323 Z0.205 I-0.69 J0.179 F333.3
X10.003 Y33.966 Z-0.189 I0.69 J-0.179
X8.624 Y34.323 Z-0.584 I-0.69 J0.179
X10.003 Y33.966 Z-0.979 I0.69 J-0.179
X8.624 Y34.323 Z-1.373 I-0.69 J0.179
X9.224 Y33.438 Z-1.587 I0.69 J-0.179
X10.026 Y34.145 Z-1.8 I0.09 J0.707
X9.709 Y34.145 I-0.159 J0 F400
X11.451 Y34.145 I0.871 J0
X8.284 Y34.145 I-1.584 J0
X11.451 Y34.145 I1.584 J0
G2 X11.943 Y34.995 I0.982 J0
G3 X12.136 Y35.959 I-0.326 J0.566
X10.722 Y36.973 I-2.372 J-1.817
X9.907 Y37.099 I-0.768 J-2.269
X6.992 Y34.406 I0.058 J-2.987
X12.687 Y33.526 I2.872 J-0.285
X12.136 Y35.959 I-2.923 J0.617
G2 X12.01 Y37.016 I0.829 J0.635
G3 X11.632 Y38.011 I-0.693 J0.306
X11.151 Y38.196 I-1.764 J-3.867
G2 X10.627 Y38.911 I0.226 J0.715
G1 Y48.986
G2 X11.377 Y49.736 I0.75 J0
G1 X21.774
G2 X22.524 Y48.989 I0 J-0.75
G1 X22.566 Y35.324
G2 X22.828 Y34.757 I-0.488 J-0.569
G3 X23.328 Y34.259 I0.5 J0.002
G2 X24.078 Y33.509 I0 J-0.75
G1 Y28.893
G2 X23.369 Y28.144 I-0.75 J0
G3 X23.424 Y27.145 I0.027 J-0.499
X23.895 Y27.69 I-0.027 J0.499
G2 X24.642 Y28.509 I0.747 J0.069
G1 X25.078
Y34.009
X24.578
G2 X23.828 Y34.759 I0 J0.75
G3 X23.327 Y35.259 I-0.5 J0
G2 X22.574 Y36.006 I-0.002 J0.75
G1 X22.535 Y48.624
G2 X23.969 Y48.933 I0.75 J0.002
G1 X29.922 Y35.664
G2 X29.897 Y35.001 I-0.684 J-0.307
G3 X30.777 Y34.525 I0.44 J-0.238
X30.452 Y35.249 I-0.44 J0.238
G2 X29.94 Y35.672 I0.172 J0.73
G1 X25.565 Y45.425
G2 X26.827 Y46.211 I0.684 J0.307
G1 X35.691 Y35.522
G2 X35.844 Y34.872 I-0.577 J-0.479
G3 X36.818 Y34.644 I0.487 J-0.114
X36.309 Y35.258 I-0.487 J0.114
G2 X35.699 Y35.528 I-0.033 J0.749
G1 X26.711 Y46.366
G2 X27.711 Y47.464 I0.577 J0.479
G1 X45.504 Y35.316
G2 X45.83 Y34.734 I-0.423 J-0.619
G3 X46.829 Y34.784 I0.499 J0.025
X46.171 Y35.233 I-0.499 J-0.025
G2 X45.51 Y35.325 I-0.238 J0.711
G1 X23.282 Y50.5
X23.274 Y50.496
G2 X22.524 Y49.746 I-0.75 J0
G1 X10.617
Y39.145
G2 X9.867 Y38.395 I-0.75 J0
G3 X9.868 Y29.895 I0 J-4.25
X11.632 Y38.011 I0 J4.25
X10.649 Y37.175 Z-1.939 I-0.296 J-0.648 F333.3
G1 X11.426 Y34.333 Z-2.192
G2 X10.834 Y33.438 Z-2.296 I-0.687 J-0.188
X10.026 Y34.145 Z-2.4 I-0.095 J0.706
G3 X9.709 Y34.145 I-0.159 J0 F400
X11.451 Y34.145 I0.871 J0
X8.284 Y34.145 I-1.584 J0
X11.451 Y34.145 I1.584 J0
G2 X11.943 Y34.995 I0.982 J0
G3 X12.136 Y35.959 I-0.326 J0.566
X10.722 Y36.973 I-2.372 J-1.817
X9.907 Y37.099 I-0.768 J-2.269
X6.992 Y34.406 I0.058 J-2.987
X12.687 Y33.526 I2.872 J-0.285
X12.136 Y35.959 I-2.923 J0.617
G1 Z-0.2
X10.001 Y35.007
Z-2.4
X10.449 Y37.907
X10.523 Y38.388
G3 X10.58 Y38.765 I-43.777 J6.767
X10.622 Y39.145 I-5.586 J0.814
G1 Y48.986
G2 X10.634 Y49.353 I5.842 J0
X10.852 Y49.649 I0.339 J-0.021
G1 X10.928 Y49.674
X11.005 Y49.695
X11.097 Y49.716
X11.19 Y49.726
X11.377 Y49.741
X21.774
G2 X22.247 Y49.66 I0 J-1.419
X22.688 Y49.473 I-1.313 J-3.719
G3 X23.31 Y49.53 I0.265 J0.533
G2 X23.932 Y49.574 I0.346 J-0.462
X25.083 Y48.829 I-4.394 J-8.05
X25.686 Y47.598 I-0.922 J-1.215
G1 X25.506 Y47.306
X25.494 Y47.275
X25.495 Y47.241
X25.511 Y47.212
G3 X25.915 Y47.29 I0.181 J0.151
G1 X25.951 Y47.388
X25.993 Y47.482
G3 X25.888 Y47.882 I-0.283 J0.139
G1 X25.264 Y48.308
X25.228 Y48.325
X25.188 Y48.329
X25.148 Y48.321
X25.113 Y48.3
X25.087 Y48.27
X25.071 Y48.232
X25.069 Y48.192
X25.079 Y48.153
X25.477 Y47.266
X25.492 Y47.238
X25.511 Y47.212
G2 X25.505 Y46.475 I-0.437 J-0.365
G3 X25.399 Y45.746 I0.52 J-0.448
G1 X29.922 Y35.664
G2 X29.897 Y35.001 I-0.684 J-0.307
G3 X30.777 Y34.525 I0.44 J-0.238
X30.452 Y35.249 I-0.44 J0.238
G2 X29.94 Y35.672 I0.172 J0.73
G1 X25.565 Y45.425
G2 X26.827 Y46.211 I0.684 J0.307
G1 X35.691 Y35.522
G2 X35.844 Y34.872 I-0.577 J-0.479
G3 X36.818 Y34.644 I0.487 J-0.114
X36.309 Y35.258 I-0.487 J0.114
G2 X35.699 Y35.528 I-0.033 J0.749
G1 X26.711 Y46.366
G2 X27.711 Y47.464 I0.577 J0.479
G1 X45.504 Y35.316
G2 X45.83 Y34.734 I-0.423 J-0.619
G3 X46.829 Y34.784 I0.499 J0.025
X46.171 Y35.233 I-0.499 J-0.025
G2 X45.51 Y35.325 I-0.238 J0.711
G1 X23.282 Y50.5
X23.274 Y50.496
G2 X22.524 Y49.746 I-0.75 J0
G1 X10.617
Y39.145
G2 X9.867 Y38.395 I-0.75 J0
G3 X9.868 Y29.895 I0 J-4.25
X11.151 Y38.196 I0 J4.25
G2 X10.627 Y38.911 I0.226 J0.715
G1 Y48.986
G2 X11.377 Y49.736 I0.75 J0
G1 X21.774
G2 X22.524 Y48.989 I0 J-0.75
G1 X22.566 Y35.324
G2 X22.828 Y34.757 I-0.488 J-0.569
G3 X23.328 Y34.259 I0.5 J0.002
G2 X24.078 Y33.509 I0 J-0.75
G1 Y28.893
G2 X23.369 Y28.144 I-0.75 J0
G3 X23.424 Y27.145 I0.027 J-0.499
X23.895 Y27.69 I-0.027 J0.499
G2 X24.642 Y28.509 I0.747 J0.069
G1 X25.078
Y34.009
X24.578
G2 X23.828 Y34.759 I0 J0.75
G3 X23.327 Y35.259 I-0.5 J0
G2 X22.574 Y36.006 I-0.002 J0.75
G1 X22.535 Y48.624
G2 X23.969 Y48.933 I0.75 J0.002
G1 X25.399 Y45.746
X25.467 Y45.817
X25.908 Y46.894
X25.919 Y46.912
X25.937 Y46.923
X25.958 Y46.926
X26.088 Y46.942
G3 X24.965 Y47.819 Z-2.795 I-0.562 J0.438 F333.3
X25.125 Y46.792 Z-3 I0.562 J-0.438
X26.049 Y46.966 I0.375 J0.549
X25.875 Y47.891 I-0.549 J0.375
G1 X25.264 Y48.308 F400
X25.228 Y48.325
X25.188 Y48.329
X25.148 Y48.321
X25.113 Y48.3
X25.087 Y48.27
X25.071 Y48.232
X25.069 Y48.192
X25.079 Y48.153
X25.477 Y47.266
G3 X25.915 Y47.29 I0.215 J0.096
G1 X25.951 Y47.388
X25.993 Y47.482
G3 X25.888 Y47.882 I-0.283 J0.139
G1 X25.875 Y47.891
G0 Z4
X10.003 Y33.966
Z2
G1 Z-0.6 F400
G3 X8.624 Y34.323 Z-0.995 I-0.69 J0.179 F333.3
X10.003 Y33.966 Z-1.389 I0.69 J-0.179
X8.624 Y34.323 Z-1.784 I-0.69 J0.179
X10.003 Y33.966 Z-2.179 I0.69 J-0.179
X8.624 Y34.323 Z-2.573 I-0.69 J0.179
X9.224 Y33.438 Z-2.787 I0.69 J-0.179
X10.026 Y34.145 Z-3 I0.09 J0.707
X9.709 Y34.145 I-0.159 J0 F400
X11.451 Y34.145 I0.871 J0
X8.284 Y34.145 I-1.584 J0
X11.451 Y34.145 I1.584 J0
G2 X11.943 Y34.995 I0.982 J0
G3 X12.136 Y35.959 I-0.326 J0.566
X10.722 Y36.973 I-2.372 J-1.817
X9.907 Y37.099 I-0.768 J-2.269
X6.992 Y34.406 I0.058 J-2.987
X12.687 Y33.526 I2.872 J-0.285
X12.136 Y35.959 I-2.923 J0.617
G2 X12.01 Y37.016 I0.829 J0.635
G3 X11.632 Y38.011 I-0.693 J0.306
X11.151 Y38.196 I-1.764 J-3.867
G2 X10.627 Y38.911 I0.226 J0.715
G1 Y48.986
G2 X11.377 Y49.736 I0.75 J0
G1 X21.774
G2 X22.524 Y48.989 I0 J-0.75
G1 X22.566 Y35.324
G2 X22.828 Y34.757 I-0.488 J-0.569
G3 X23.328 Y34.259 I0.5 J0.002
G2 X24.078 Y33.509 I0 J-0.75
G1 Y28.893
G2 X23.369 Y28.144 I-0.75 J0
G3 X23.424 Y27.145 I0.027 J-0.499
X23.895 Y27.69 I-0.027 J0.499
G2 X24.642 Y28.509 I0.747 J0.069
G1 X25.078
Y34.009
X24.578
G2 X23.828 Y34.759 I0 J0.75
G3 X23.327 Y35.259 I-0.5 J0
G2 X22.574 Y36.006 I-0.002 J0.75
G1 X22.535 Y48.624
G2 X23.969 Y48.933 I0.75 J0.002
G1 X29.922 Y35.664
G2 X29.897 Y35.001 I-0.684 J-0.307
G3 X30.777 Y34.525 I0.44 J-0.238
X30.452 Y35.249 I-0.44 J0.238
G2 X29.94 Y35.672 I0.172 J0.73
G1 X25.565 Y45.425
G2 X26.827 Y46.211 I0.684 J0.307
G1 X35.691 Y35.522
G2 X35.844 Y34.872 I-0.577 J-0.479
G3 X36.818 Y34.644 I0.487 J-0.114
X36.309 Y35.258 I-0.487 J0.114
G2 X35.699 Y35.528 I-0.033 J0.749
G1 X26.711 Y46.366
G2 X27.711 Y47.464 I0.577 J0.479
G1 X45.504 Y35.316
G2 X45.83 Y34.734 I-0.423 J-0.619
G3 X46.829 Y34.784 I0.499 J0.025
X46.171 Y35.233 I-0.499 J-0.025
G2 X45.51 Y35.325 I-0.238 J0.711
G1 X23.282 Y50.5
X23.274 Y50.496
G2 X22.524 Y49.746 I-0.75 J0
G1 X10.617
Y39.145
G2 X9.867 Y38.395 I-0.75 J0
G3 X9.868 Y29.895 I0 J-4.25
X11.632 Y38.011 I0 J4.25
G0 Z7
X26.439 Y6.635
Z2
G1 Z1.8 F400
G3 X27.206 Y7.836 Z1.405 I0.384 J0.6 F333.3
X26.439 Y6.635 Z1.011 I-0.384 J-0.6
X27.206 Y7.836 Z0.616 I0.384 J0.6
X26.439 Y6.635 Z0.221 I-0.384 J-0.6
X27.206 Y7.836 Z-0.173 I0.384 J0.6
X26.179 Y7.54 Z-0.387 I-0.384 J-0.6
X26.602 Y6.558 Z-0.6 I0.644 J-0.304
X27.012 Y7.816 I0.205 J0.629
G1 X26.962 Y7.833 F400
G3 X26.666 Y7.708 I-0.081 J-0.221
G1 X26.429 Y7.174
G3 X26.616 Y7.005 I0.121 J-0.054
G1 X27.526 Y7.528
X27.556 Y7.552
X27.576 Y7.585
X27.585 Y7.623
X27.581 Y7.662
X27.564 Y7.697
X27.537 Y7.725
X27.503 Y7.743
X27.464 Y7.748
G2 X27.012 Y7.816 I-0.025 J1.38
G0 Z4
X10.003 Y20.966
Z2
G1 Z1.8 F400
G3 X8.624 Y21.323 Z1.405 I-0.69 J0.179 F333.3
X10.003 Y20.966 Z1.011 I0.69 J-0.179
X8.624 Y21.323 Z0.616 I-0.69 J0.179
X10.003 Y20.966 Z0.221 I0.69 J-0.179
X8.624 Y21.323 Z-0.173 I-0.69 J0.179
X9.224 Y20.438 Z-0.387 I0.69 J-0.179
X10.026 Y21.145 Z-0.6 I0.09 J0.707
X9.709 Y21.145 I-0.159 J0 F400
X11.451 Y21.145 I0.871 J0
X8.284 Y21.145 I-1.584 J0
X11.451 Y21.145 I1.584 J0
G2 X11.945 Y21.995 I0.979 J0
G3 X12.132 Y22.961 I-0.321 J0.563
X10.312 Y24.019 I-2.261 J-1.793
X8.976 Y18.33 I-0.448 J-2.896
G1 X8.995 Y18.323
X9.013 Y18.316
G3 X9.828 Y18.19 I0.768 J2.269
X12.743 Y20.883 I-0.058 J2.987
X12.132 Y22.961 I-2.872 J0.285
G2 X11.992 Y24.024 I0.817 J0.648
G3 X11.604 Y25.023 I-0.7 J0.304
X5.896 Y22.657 I-1.737 J-3.879
X8.584 Y17.093 I3.972 J-1.513
G2 X9.107 Y16.378 I-0.227 J-0.715
G1 Y6.054
X24.159
G2 X24.909 Y5.304 I0 J-0.75
G1 X24.916 Y5.3
X45.543 Y17.161
G2 X46.209 Y17.201 I0.374 J-0.65
G3 X46.599 Y18.122 I0.195 J0.46
X45.908 Y17.725 I-0.195 J-0.46
G2 X45.537 Y17.169 I-0.744 J0.095
G1 X29.243 Y7.799
G2 X28.32 Y8.96 I-0.374 J0.65
G1 X35.729 Y16.929
G2 X36.353 Y17.164 I0.549 J-0.511
G3 X36.454 Y18.159 I0.05 J0.497
X35.911 Y17.576 I-0.05 J-0.497
G2 X35.722 Y16.936 I-0.739 J-0.129
G1 X27.988 Y8.618
G2 X26.754 Y9.433 I-0.549 J0.511
G1 X30.004 Y16.749
G2 X30.518 Y17.175 I0.685 J-0.304
G3 X30.289 Y18.149 I-0.114 J0.487
X29.966 Y17.42 I0.114 J-0.487
G2 X29.995 Y16.753 I-0.657 J-0.362
G1 X25.599 Y6.859
G2 X24.164 Y7.164 I-0.685 J0.305
G1 Y17.094
G2 X23.904 Y17.662 I0.49 J0.568
G3 X22.904 Y17.662 I-0.5 J0
X23.404 Y17.162 I0.5 J0
G2 X24.154 Y16.412 I0 J-0.75
G1 Y6.814
G2 X23.404 Y6.064 I-0.75 J0
G1 X9.867
G2 X9.117 Y6.814 I0 J0.75
G1 Y16.145
G2 X9.867 Y16.895 I0.75 J0
G3 X11.604 Y25.023 I0 J4.25
X10.627 Y24.181 Z-0.738 I-0.291 J-0.65 F333.3
G1 X11.425 Y21.337 Z-0.991
G2 X10.836 Y20.439 Z-1.096 I-0.686 J-0.192
X10.026 Y21.145 Z-1.2 I-0.097 J0.706
G3 X9.709 Y21.145 I-0.159 J0 F400
X11.451 Y21.145 I0.871 J0
X8.284 Y21.145 I-1.584 J0
X11.451 Y21.145 I1.584 J0
G2 X11.945 Y21.995 I0.979 J0
G3 X12.132 Y22.961 I-0.321 J0.563
X10.312 Y24.019 I-2.261 J-1.793
X8.976 Y18.33 I-0.448 J-2.896
G1 X8.995 Y18.323
X9.013 Y18.316
G3 X9.828 Y18.19 I0.768 J2.269
X12.743 Y20.883 I-0.058 J2.987
X12.132 Y22.961 I-2.872 J0.285
G0 Z4
X27.709 Y6.98
Z2
G1 Z1.2 F400
G3 X26.594 Y7.867 Z0.805 I-0.558 J0.443 F333.3
X27.709 Y6.98 Z0.411 I0.558 J-0.443
X26.594 Y7.867 Z0.016 I-0.558 J0.443
X27.709 Y6.98 Z-0.379 I0.558 J-0.443
X26.594 Y7.867 Z-0.773 I-0.558 J0.443
X26.782 Y6.815 Z-0.987 I0.558 J-0.443
X27.803 Y7.135 Z-1.2 I0.369 J0.609
X26.641 Y7.651 I-0.581 J0.258
G1 X26.429 Y7.174 F400
G3 X26.616 Y7.005 I0.121 J-0.054
G1 X27.526 Y7.528
X27.556 Y7.552
X27.576 Y7.585
X27.585 Y7.623
X27.581 Y7.662
X27.564 Y7.697
X27.537 Y7.725
X27.503 Y7.743
X27.464 Y7.748
G2 X26.962 Y7.833 I-0.025 J1.38
G3 X26.666 Y7.708 I-0.081 J-0.221
G1 X26.641 Y7.651
G2 X26.161 Y7.347 I-0.468 J0.208
G3 X25.68 Y7.042 I-0.012 J-0.512
G1 X25.599 Y6.859
G2 X24.164 Y7.164 I-0.685 J0.305
G1 Y17.094
G2 X23.904 Y17.662 I0.49 J0.568
G3 X22.904 Y17.662 I-0.5 J0
X23.404 Y17.162 I0.5 J0
G2 X24.154 Y16.412 I0 J-0.75
G1 Y6.814
G2 X23.404 Y6.064 I-0.75 J0
G1 X9.867
G2 X9.117 Y6.814 I0 J0.75
G1 Y16.145
G2 X9.867 Y16.895 I0.75 J0
G3 X9.868 Y25.395 I0 J4.25
X8.584 Y17.093 I0 J-4.25
G2 X9.107 Y16.378 I-0.227 J-0.715
G1 Y6.054
X24.159
G2 X24.909 Y5.304 I0 J-0.75
G1 X24.916 Y5.3
X45.543 Y17.161
G2 X46.209 Y17.201 I0.374 J-0.65
G3 X46.599 Y18.122 I0.195 J0.46
X45.908 Y17.725 I-0.195 J-0.46
G2 X45.537 Y17.169 I-0.744 J0.095
G1 X29.243 Y7.799
G2 X28.32 Y8.96 I-0.374 J0.65
G1 X35.729 Y16.929
G2 X36.353 Y17.164 I0.549 J-0.511
G3 X36.454 Y18.159 I0.05 J0.497
X35.911 Y17.576 I-0.05 J-0.497
G2 X35.722 Y16.936 I-0.739 J-0.129
G1 X27.988 Y8.618
G2 X26.754 Y9.433 I-0.549 J0.511
G1 X30.004 Y16.749
G2 X30.518 Y17.175 I0.685 J-0.304
G3 X30.289 Y18.149 I-0.114 J0.487
X29.966 Y17.42 I0.114 J-0.487
G2 X29.995 Y16.753 I-0.657 J-0.362
G1 X25.68 Y7.042
G3 X26.62 Y6.299 Z-1.465 I0.565 J-0.251 F333.3
G1 X27.194 Y6.736 Z-1.582
G3 X27.012 Y7.816 Z-1.8 I-0.374 J0.492
G1 X26.962 Y7.833 F400
G3 X26.666 Y7.708 I-0.081 J-0.221
G1 X26.429 Y7.174
G3 X26.616 Y7.005 I0.121 J-0.054
G1 X27.526 Y7.528
X27.556 Y7.552
X27.576 Y7.585
X27.585 Y7.623
X27.581 Y7.662
X27.564 Y7.697
X27.537 Y7.725
X27.503 Y7.743
X27.464 Y7.748
G2 X27.012 Y7.816 I-0.025 J1.38
G0 Z4
X10.003 Y20.966
Z2
G1 Z0.6 F400
G3 X8.624 Y21.323 Z0.205 I-0.69 J0.179 F333.3
X10.003 Y20.966 Z-0.189 I0.69 J-0.179
X8.624 Y21.323 Z-0.584 I-0.69 J0.179
X10.003 Y20.966 Z-0.979 I0.69 J-0.179
X8.624 Y21.323 Z-1.373 I-0.69 J0.179
X9.224 Y20.438 Z-1.587 I0.69 J-0.179
X10.026 Y21.145 Z-1.8 I0.09 J0.707
X9.709 Y21.145 I-0.159 J0 F400
X11.451 Y21.145 I0.871 J0
X8.284 Y21.145 I-1.584 J0
X11.451 Y21.145 I1.584 J0
G2 X11.945 Y21.995 I0.979 J0
G3 X12.132 Y22.961 I-0.321 J0.563
X10.312 Y24.019 I-2.261 J-1.793
X8.976 Y18.33 I-0.448 J-2.896
G1 X8.995 Y18.323
X9.013 Y18.316
G3 X9.828 Y18.19 I0.768 J2.269
X12.743 Y20.883 I-0.058 J2.987
X12.132 Y22.961 I-2.872 J0.285
G2 X11.992 Y24.024 I0.817 J0.648
G3 X11.604 Y25.023 I-0.7 J0.304
X5.896 Y22.657 I-1.737 J-3.879
X8.584 Y17.093 I3.972 J-1.513
G2 X9.107 Y16.378 I-0.227 J-0.715
G1 Y6.054
X24.159
G2 X24.909 Y5.304 I0 J-0.75
G1 X24.916 Y5.3
X45.543 Y17.161
G2 X46.209 Y17.201 I0.374 J-0.65
G3 X46.599 Y18.122 I0.195 J0.46
X45.908 Y17.725 I-0.195 J-0.46
G2 X45.537 Y17.169 I-0.744 J0.095
G1 X29.243 Y7.799
G2 X28.32 Y8.96 I-0.374 J0.65
G1 X35.729 Y16.929
G2 X36.353 Y17.164 I0.549 J-0.511
G3 X36.454 Y18.159 I0.05 J0.497
X35.911 Y17.576 I-0.05 J-0.497
G2 X35.722 Y16.936 I-0.739 J-0.129
G1 X27.988 Y8.618
G2 X26.754 Y9.433 I-0.549 J0.511
G1 X30.004 Y16.749
G2 X30.518 Y17.175 I0.685 J-0.304
G3 X30.289 Y18.149 I-0.114 J0.487
X29.966 Y17.42 I0.114 J-0.487
G2 X29.995 Y16.753 I-0.657 J-0.362
G1 X25.599 Y6.859
G2 X24.164 Y7.164 I-0.685 J0.305
G1 Y17.094
G2 X23.904 Y17.662 I0.49 J0.568
G3 X22.904 Y17.662 I-0.5 J0
X23.404 Y17.162 I0.5 J0
G2 X24.154 Y16.412 I0 J-0.75
G1 Y6.814
G2 X23.404 Y6.064 I-0.75 J0
G1 X9.867
G2 X9.117 Y6.814 I0 J0.75
G1 Y16.145
G2 X9.867 Y16.895 I0.75 J0
G3 X11.604 Y25.023 I0 J4.25
X10.627 Y24.181 Z-1.938 I-0.291 J-0.65 F333.3
G1 X11.425 Y21.337 Z-2.191
G2 X10.836 Y20.439 Z-2.296 I-0.686 J-0.192
X10.026 Y21.145 Z-2.4 I-0.097 J0.706
G3 X9.709 Y21.145 I-0.159 J0 F400
X11.451 Y21.145 I0.871 J0
X8.284 Y21.145 I-1.584 J0
X11.451 Y21.145 I1.584 J0
G2 X11.945 Y21.995 I0.979 J0
G3 X12.132 Y22.961 I-0.321 J0.563
X10.312 Y24.019 I-2.261 J-1.793
X8.976 Y18.33 I-0.448 J-2.896
G1 X8.995 Y18.323
X9.013 Y18.316
G3 X9.828 Y18.19 I0.768 J2.269
X12.743 Y20.883 I-0.058 J2.987
X12.132 Y22.961 I-2.872 J0.285
G0 Z4
X27.709 Y6.98
Z2
G1 Z0 F400
G3 X26.594 Y7.867 Z-0.395 I-0.558 J0.443 F333.3
X27.709 Y6.98 Z-0.789 I0.558 J-0.443
X26.594 Y7.867 Z-1.184 I-0.558 J0.443
X27.709 Y6.98 Z-1.579 I0.558 J-0.443
X26.594 Y7.867 Z-1.973 I-0.558 J0.443
X26.782 Y6.815 Z-2.187 I0.558 J-0.443
X27.803 Y7.135 Z-2.4 I0.369 J0.609
X26.641 Y7.651 I-0.581 J0.258
G1 X26.429 Y7.174 F400
G3 X26.616 Y7.005 I0.121 J-0.054
G1 X27.526 Y7.528
X27.556 Y7.552
X27.576 Y7.585
X27.585 Y7.623
X27.581 Y7.662
X27.564 Y7.697
X27.537 Y7.725
X27.503 Y7.743
X27.464 Y7.748
G2 X26.962 Y7.833 I-0.025 J1.38
G3 X26.666 Y7.708 I-0.081 J-0.221
G1 X26.641 Y7.651
G2 X26.161 Y7.347 I-0.468 J0.208
G3 X25.68 Y7.042 I-0.012 J-0.512
G1 X25.599 Y6.859
G2 X24.164 Y7.164 I-0.685 J0.305
G1 Y17.094
G2 X23.904 Y17.662 I0.49 J0.568
G3 X22.904 Y17.662 I-0.5 J0
X23.404 Y17.162 I0.5 J0
G2 X24.154 Y16.412 I0 J-0.75
G1 Y6.814
G2 X23.404 Y6.064 I-0.75 J0
G1 X9.867
G2 X9.117 Y6.814 I0 J0.75
G1 Y16.145
G2 X9.867 Y16.895 I0.75 J0
G3 X9.868 Y25.395 I0 J4.25
X8.584 Y17.093 I0 J-4.25
G2 X9.107 Y16.378 I-0.227 J-0.715
G1 Y6.054
X24.159
G2 X24.909 Y5.304 I0 J-0.75
G1 X24.916 Y5.3
X45.543 Y17.161
G2 X46.209 Y17.201 I0.374 J-0.65
G3 X46.599 Y18.122 I0.195 J0.46
X45.908 Y17.725 I-0.195 J-0.46
G2 X45.537 Y17.169 I-0.744 J0.095
G1 X29.243 Y7.799
G2 X28.32 Y8.96 I-0.374 J0.65
G1 X35.729 Y16.929
G2 X36.353 Y17.164 I0.549 J-0.511
G3 X36.454 Y18.159 I0.05 J0.497
X35.911 Y17.576 I-0.05 J-0.497
G2 X35.722 Y16.936 I-0.739 J-0.129
G1 X27.988 Y8.618
G2 X26.754 Y9.433 I-0.549 J0.511
G1 X30.004 Y16.749
G2 X30.518 Y17.175 I0.685 J-0.304
G3 X30.289 Y18.149 I-0.114 J0.487
X29.966 Y17.42 I0.114 J-0.487
G2 X29.995 Y16.753 I-0.657 J-0.362
G1 X25.68 Y7.042
G3 X26.62 Y6.299 Z-2.665 I0.565 J-0.251 F333.3
G1 X27.194 Y6.736 Z-2.782
G3 X27.012 Y7.816 Z-3 I-0.374 J0.492
G1 X26.962 Y7.833 F400
G3 X26.666 Y7.708 I-0.081 J-0.221
G1 X26.429 Y7.174
G3 X26.616 Y7.005 I0.121 J-0.054
G1 X27.526 Y7.528
X27.556 Y7.552
X27.576 Y7.585
X27.585 Y7.623
X27.581 Y7.662
X27.564 Y7.697
X27.537 Y7.725
X27.503 Y7.743
X27.464 Y7.748
G2 X27.012 Y7.816 I-0.025 J1.38
G0 Z4
X10.003 Y20.966
Z2
G1 Z-0.6 F400
G3 X8.624 Y21.323 Z-0.995 I-0.69 J0.179 F333.3
X10.003 Y20.966 Z-1.389 I0.69 J-0.179
X8.624 Y21.323 Z-1.784 I-0.69 J0.179
X10.003 Y20.966 Z-2.179 I0.69 J-0.179
X8.624 Y21.323 Z-2.573 I-0.69 J0.179
X9.224 Y20.438 Z-2.787 I0.69 J-0.179
X10.026 Y21.145 Z-3 I0.09 J0.707
X9.709 Y21.145 I-0.159 J0 F400
X11.451 Y21.145 I0.871 J0
X8.284 Y21.145 I-1.584 J0
X11.451 Y21.145 I1.584 J0
G2 X11.945 Y21.995 I0.979 J0
G3 X12.132 Y22.961 I-0.321 J0.563
X10.312 Y24.019 I-2.261 J-1.793
X8.976 Y18.33 I-0.448 J-2.896
G1 X8.995 Y18.323
X9.013 Y18.316
G3 X9.828 Y18.19 I0.768 J2.269
X12.743 Y20.883 I-0.058 J2.987
X12.132 Y22.961 I-2.872 J0.285
G2 X11.992 Y24.024 I0.817 J0.648
G3 X11.604 Y25.023 I-0.7 J0.304
X5.896 Y22.657 I-1.737 J-3.879
X8.584 Y17.093 I3.972 J-1.513
G2 X9.107 Y16.378 I-0.227 J-0.715
G1 Y6.054
X24.159
G2 X24.909 Y5.304 I0 J-0.75
G1 X24.916 Y5.3
X45.543 Y17.161
G2 X46.209 Y17.201 I0.374 J-0.65
G3 X46.599 Y18.122 I0.195 J0.46
X45.908 Y17.725 I-0.195 J-0.46
G2 X45.537 Y17.169 I-0.744 J0.095
G1 X29.243 Y7.799
G2 X28.32 Y8.96 I-0.374 J0.65
G1 X35.729 Y16.929
G2 X36.353 Y17.164 I0.549 J-0.511
G3 X36.454 Y18.159 I0.05 J0.497
X35.911 Y17.576 I-0.05 J-0.497
G2 X35.722 Y16.936 I-0.739 J-0.129
G1 X27.988 Y8.618
G2 X26.754 Y9.433 I-0.549 J0.511
G1 X30.004 Y16.749
G2 X30.518 Y17.175 I0.685 J-0.304
G3 X30.289 Y18.149 I-0.114 J0.487
X29.966 Y17.42 I0.114 J-0.487
G2 X29.995 Y16.753 I-0.657 J-0.362
G1 X25.599 Y6.859
G2 X24.164 Y7.164 I-0.685 J0.305
G1 Y17.094
G2 X23.904 Y17.662 I0.49 J0.568
G3 X22.904 Y17.662 I-0.5 J0
X23.404 Y17.162 I0.5 J0
G2 X24.154 Y16.412 I0 J-0.75
G1 Y6.814
G2 X23.404 Y6.064 I-0.75 J0
G1 X9.867
G2 X9.117 Y6.814 I0 J0.75
G1 Y16.145
G2 X9.867 Y16.895 I0.75 J0
G3 X11.604 Y25.023 I0 J4.25
G0 Z7
X52.812 Y33.793
Z2
G1 Z1.8 F400
X52.815 Y47.261 Z-0.575 F333.3
Y47.119 Z-0.6
X52.805 Y5.68 F400
X52.815 Y47.261
Y47.119
X52.814 Y40.882 Z-1.2 F333.3
X52.815 Y47.261 F400
X52.805 Y5.68
X52.814 Y40.882
X52.812 Y34.644 Z-1.8 F333.3
X52.815 Y47.261 F400
X52.805 Y5.68
X52.812 Y34.644
X52.811 Y28.407 Z-2.4 F333.3
X52.815 Y47.261 F400
X52.805 Y5.68
X52.811 Y28.407
X52.809 Y22.17 Z-3 F333.3
X52.815 Y47.261 F400
X52.805 Y5.68
X52.809 Y22.17
G0 Z7
X55.956 Y34.264
Z2
G1 Z1.8 F400
Y47.261 Z-0.492 F333.3
G3 X55.655 Y47.261 Z-0.575 I-0.15 J0
G1 Y47.119 Z-0.6
Y5.68 F400
G3 X55.956 Y5.68 I0.15 J0
G1 Y47.261
G3 X55.655 Y47.261 I-0.15 J0
G1 Y47.119
Y40.811 Z-1.2 F333.3
Y5.68 F400
G3 X55.956 Y5.68 I0.15 J0
G1 Y47.261
G3 X55.655 Y47.261 I-0.15 J0
G1 Y40.811
Y34.503 Z-1.8 F333.3
Y5.68 F400
G3 X55.956 Y5.68 I0.15 J0
G1 Y47.261
G3 X55.655 Y47.261 I-0.15 J0
G1 Y40.811
Y34.503
Y28.195 Z-2.4 F333.3
Y5.68 F400
G3 X55.956 Y5.68 I0.15 J0
G1 Y47.261
G3 X55.655 Y47.261 I-0.15 J0
G1 Y34.503
Y28.195
Y21.887 Z-3 F333.3
Y5.68 F400
G3 X55.956 Y5.68 I0.15 J0
G1 Y47.261
G3 X55.655 Y47.261 I-0.15 J0
G1 Y28.195
Y21.887
G0 Z7
X59.667 Y33.793
Z2
G1 Z1.8 F400
Y47.261 Z-0.575 F333.3
X59.663 Y47.308 Z-0.583
X59.65 Y47.354 Z-0.592
X59.628 Y47.396 Z-0.6
G3 X59.167 Y47.261 I-0.21 J-0.135 F400
G1 Y5.68
G3 X59.667 Y5.68 I0.25 J0
G1 Y47.261
X59.663 Y47.308
X59.65 Y47.354
X59.628 Y47.396
G3 X59.167 Y47.261 Z-0.661 I-0.21 J-0.135 F333.3
G1 Y41.549 Z-1.2
Y5.68 F400
G3 X59.667 Y5.68 I0.25 J0
G1 Y47.261
G3 X59.167 Y47.261 I-0.25 J0
G1 Y41.549
Y35.194 Z-1.8 F333.3
Y5.68 F400
G3 X59.667 Y5.68 I0.25 J0
G1 Y47.261
G3 X59.167 Y47.261 I-0.25 J0
G1 Y35.194
Y28.839 Z-2.4 F333.3
Y5.68 F400
G3 X59.667 Y5.68 I0.25 J0
G1 Y47.261
G3 X59.167 Y47.261 I-0.25 J0
G1 Y35.194
Y28.839
Y22.484 Z-3 F333.3
Y5.68 F400
G3 X59.667 Y5.68 I0.25 J0
G1 Y47.261
G3 X59.167 Y47.261 I-0.25 J0
G1 Y28.839
Y22.484
G0 Z7
X64.586 Y35.363
Z2
G1 Z1.8 F400
Y47.261 Z-0.298 F333.3
G3 X63.586 Y47.261 Z-0.575 I-0.5 J0
G1 Y47.119 Z-0.6
Y5.68 F400
G3 X64.586 Y5.68 I0.5 J0
G1 Y47.261
G3 X63.586 Y47.261 I-0.5 J0
G1 Y47.119
Y40.646 Z-1.2 F333.3
Y5.68 F400
G3 X64.586 Y5.68 I0.5 J0
G1 Y47.261
G3 X63.586 Y47.261 I-0.5 J0
G1 Y40.646
Y34.173 Z-1.8 F333.3
Y5.68 F400
G3 X64.586 Y5.68 I0.5 J0
G1 Y47.261
G3 X63.586 Y47.261 I-0.5 J0
G1 Y40.646
Y34.173
Y27.7 Z-2.4 F333.3
Y5.68 F400
G3 X64.586 Y5.68 I0.5 J0
G1 Y47.261
G3 X63.586 Y47.261 I-0.5 J0
G1 Y34.173
Y27.7
Y21.228 Z-3 F333.3
Y5.68 F400
G3 X64.586 Y5.68 I0.5 J0
G1 Y47.261
G3 X63.586 Y47.261 I-0.5 J0
G1 Y27.7
Y21.228
G0 Z7
X68.594 Y47.44
Z2
G1 Z1.8 F400
G3 X69.974 Y47.082 Z1.405 I0.69 J-0.179 F333.3
X68.594 Y47.44 Z1.011 I-0.69 J0.179
X69.974 Y47.082 Z0.616 I0.69 J-0.179
X68.594 Y47.44 Z0.221 I-0.69 J0.179
X69.974 Y47.082 Z-0.173 I0.69 J-0.179
X69.374 Y47.968 Z-0.387 I-0.69 J0.179
X68.572 Y47.261 Z-0.6 I-0.09 J-0.707
X69.526 Y47.261 I0.478 J0
X69.041 Y47.261 I-0.243 J0 F400
G1 Y5.68
G3 X69.526 Y5.68 I0.243 J0
G1 Y47.261
G2 X69.686 Y47.56 I0.36 J0
G3 X69.68 Y47.898 I-0.112 J0.167
X68.534 Y47.261 I-0.396 J-0.637
G1 Y5.68
G3 X70.034 Y5.68 I0.75 J0
G1 Y47.261
G3 X69.68 Y47.898 I-0.75 J0
G1 X69.645 Y47.913
X69.607 Y47.916
X69.569 Y47.907
X69.537 Y47.886
X69.513 Y47.857
X69.499 Y47.821
X69.376 Y47.251
X69.137 Y46.719
X69.127 Y46.682
X69.129 Y46.644
X69.144 Y46.608
X69.169 Y46.579
X69.201 Y46.559
X69.239 Y46.55
G3 X69.329 Y47.972 Z-0.995 I0.045 J0.711 F333.3
X68.572 Y47.261 Z-1.2 I-0.045 J-0.711
X69.526 Y47.261 I0.478 J0
X69.041 Y47.261 I-0.243 J0 F400
G1 Y5.68
G3 X69.526 Y5.68 I0.243 J0
G1 Y47.261
G2 X69.686 Y47.56 I0.36 J0
G3 X69.68 Y47.898 I-0.112 J0.167
X68.534 Y47.261 I-0.396 J-0.637
G1 Y5.68
G3 X70.034 Y5.68 I0.75 J0
G1 Y47.261
G3 X69.68 Y47.898 I-0.75 J0
G1 X69.645 Y47.913
X69.607 Y47.916
X69.569 Y47.907
X69.537 Y47.886
X69.513 Y47.857
X69.499 Y47.821
X69.376 Y47.251
X69.137 Y46.719
X69.127 Y46.682
X69.129 Y46.644
X69.144 Y46.608
X69.169 Y46.579
X69.201 Y46.559
X69.239 Y46.55
G3 X69.329 Y47.972 Z-1.595 I0.045 J0.711 F333.3
X68.572 Y47.261 Z-1.8 I-0.045 J-0.711
X69.526 Y47.261 I0.478 J0
X69.041 Y47.261 I-0.243 J0 F400
G1 Y5.68
G3 X69.526 Y5.68 I0.243 J0
G1 Y47.261
G2 X69.686 Y47.56 I0.36 J0
G3 X69.68 Y47.898 I-0.112 J0.167
X68.534 Y47.261 I-0.396 J-0.637
G1 Y5.68
G3 X70.034 Y5.68 I0.75 J0
G1 Y47.261
G3 X69.68 Y47.898 I-0.75 J0
G1 X69.645 Y47.913
X69.607 Y47.916
X69.569 Y47.907
X69.537 Y47.886
X69.513 Y47.857
X69.499 Y47.821
X69.376 Y47.251
X69.137 Y46.719
X69.127 Y46.682
X69.129 Y46.644
X69.144 Y46.608
X69.169 Y46.579
X69.201 Y46.559
X69.239 Y46.55
G3 X69.329 Y47.972 Z-2.195 I0.045 J0.711 F333.3
X68.572 Y47.261 Z-2.4 I-0.045 J-0.711
X69.526 Y47.261 I0.478 J0
X69.041 Y47.261 I-0.243 J0 F400
G1 Y5.68
G3 X69.526 Y5.68 I0.243 J0
G1 Y47.261
G2 X69.686 Y47.56 I0.36 J0
G3 X69.68 Y47.898 I-0.112 J0.167
X68.534 Y47.261 I-0.396 J-0.637
G1 Y5.68
G3 X70.034 Y5.68 I0.75 J0
G1 Y47.261
G3 X69.68 Y47.898 I-0.75 J0
G1 X69.645 Y47.913
X69.607 Y47.916
X69.569 Y47.907
X69.537 Y47.886
X69.513 Y47.857
X69.499 Y47.821
X69.376 Y47.251
X69.137 Y46.719
X69.127 Y46.682
X69.129 Y46.644
X69.144 Y46.608
X69.169 Y46.579
X69.201 Y46.559
X69.239 Y46.55
G3 X69.329 Y47.972 Z-2.795 I0.045 J0.711 F333.3
X68.572 Y47.261 Z-3 I-0.045 J-0.711
X69.526 Y47.261 I0.478 J0
X69.041 Y47.261 I-0.243 J0 F400
G1 Y5.68
G3 X69.526 Y5.68 I0.243 J0
G1 Y47.261
G2 X69.686 Y47.56 I0.36 J0
G3 X69.68 Y47.898 I-0.112 J0.167
X68.534 Y47.261 I-0.396 J-0.637
G1 Y5.68
G3 X70.034 Y5.68 I0.75 J0
G1 Y47.261
G3 X69.68 Y47.898 I-0.75 J0
G0 Z7

(2D Contour1)
Z15
X-0.15 Y55.566
Z5
G1 Z1.3 F333.3
Z-0.15
Y55.559 Z-0.196 F400
Y55.537 Z-0.238
Y55.504 Z-0.271
Y55.462 Z-0.293
Y55.416 Z-0.3
Y55.266
X-0.143 Y55.22
X-0.121 Y55.178
X-0.088 Y55.145
X-0.046 Y55.123
X0 Y55.116
X102.854
G2 X103.604 Y54.366 I0 J-0.75
G1 Y0
G2 X102.854 Y-0.75 I-0.75 J0
G1 X0
G2 X-0.75 Y0 I0 J0.75
G1 Y54.366
G2 X0 Y55.116 I0.75 J0
G1 X0.046 Y55.123
X0.088 Y55.145
X0.121 Y55.178
X0.143 Y55.22
X0.15 Y55.266
Y55.416
Y55.462 Z-0.293
Y55.504 Z-0.271
Y55.537 Z-0.238
Y55.559 Z-0.196
Y55.566 Z-0.15
G0 Z5
X-0.15
G1 Z1 F333.3
Z-0.45
Y55.559 Z-0.496 F400
Y55.537 Z-0.538
Y55.504 Z-0.571
Y55.462 Z-0.593
Y55.416 Z-0.6
Y55.266
X-0.143 Y55.22
X-0.121 Y55.178
X-0.088 Y55.145
X-0.046 Y55.123
X0 Y55.116
X102.854
G2 X103.604 Y54.366 I0 J-0.75
G1 Y0
G2 X102.854 Y-0.75 I-0.75 J0
G1 X0
G2 X-0.75 Y0 I0 J0.75
G1 Y54.366
G2 X0 Y55.116 I0.75 J0
G1 X0.046 Y55.123
X0.088 Y55.145
X0.121 Y55.178
X0.143 Y55.22
X0.15 Y55.266
Y55.416
Y55.462 Z-0.593
Y55.504 Z-0.571
Y55.537 Z-0.538
Y55.559 Z-0.496
Y55.566 Z-0.45
G0 Z5
X-0.15
G1 Z0.7 F333.3
Z-0.75
Y55.559 Z-0.796 F400
Y55.537 Z-0.838
Y55.504 Z-0.871
Y55.462 Z-0.893
Y55.416 Z-0.9
Y55.266
X-0.143 Y55.22
X-0.121 Y55.178
X-0.088 Y55.145
X-0.046 Y55.123
X0 Y55.116
X102.854
G2 X103.604 Y54.366 I0 J-0.75
G1 Y0
G2 X102.854 Y-0.75 I-0.75 J0
G1 X0
G2 X-0.75 Y0 I0 J0.75
G1 Y54.366
G2 X0 Y55.116 I0.75 J0
G1 X0.046 Y55.123
X0.088 Y55.145
X0.121 Y55.178
X0.143 Y55.22
X0.15 Y55.266
Y55.416
Y55.462 Z-0.893
Y55.504 Z-0.871
Y55.537 Z-0.838
Y55.559 Z-0.796
Y55.566 Z-0.75
G0 Z5
X-0.15
G1 Z0.4 F333.3
Z-1.05
Y55.559 Z-1.096 F400
Y55.537 Z-1.138
Y55.504 Z-1.171
Y55.462 Z-1.193
Y55.416 Z-1.2
Y55.266
X-0.143 Y55.22
X-0.121 Y55.178
X-0.088 Y55.145
X-0.046 Y55.123
X0 Y55.116
X102.854
G2 X103.604 Y54.366 I0 J-0.75
G1 Y0
G2 X102.854 Y-0.75 I-0.75 J0
G1 X0
G2 X-0.75 Y0 I0 J0.75
G1 Y54.366
G2 X0 Y55.116 I0.75 J0
G1 X0.046 Y55.123
X0.088 Y55.145
X0.121 Y55.178
X0.143 Y55.22
X0.15 Y55.266
Y55.416
Y55.462 Z-1.193
Y55.504 Z-1.171
Y55.537 Z-1.138
Y55.559 Z-1.096
Y55.566 Z-1.05
G0 Z5
X-0.15
G1 Z0.1 F333.3
Z-1.35
Y55.559 Z-1.396 F400
Y55.537 Z-1.438
Y55.504 Z-1.471
Y55.462 Z-1.493
Y55.416 Z-1.5
Y55.266
X-0.143 Y55.22
X-0.121 Y55.178
X-0.088 Y55.145
X-0.046 Y55.123
X0 Y55.116
X102.854
G2 X103.604 Y54.366 I0 J-0.75
G1 Y0
G2 X102.854 Y-0.75 I-0.75 J0
G1 X0
G2 X-0.75 Y0 I0 J0.75
G1 Y54.366
G2 X0 Y55.116 I0.75 J0
G1 X0.046 Y55.123
X0.088 Y55.145
X0.121 Y55.178
X0.143 Y55.22
X0.15 Y55.266
Y55.416
Y55.462 Z-1.493
Y55.504 Z-1.471
Y55.537 Z-1.438
Y55.559 Z-1.396
Y55.566 Z-1.35
G0 Z5
X-0.15
G1 Z-0.2 F333.3
Z-1.65
Y55.559 Z-1.696 F400
Y55.537 Z-1.738
Y55.504 Z-1.771
Y55.462 Z-1.793
Y55.416 Z-1.8
Y55.266
X-0.143 Y55.22
X-0.121 Y55.178
X-0.088 Y55.145
X-0.046 Y55.123
X0 Y55.116
X102.854
G2 X103.604 Y54.366 I0 J-0.75
G1 Y0
G2 X102.854 Y-0.75 I-0.75 J0
G1 X0
G2 X-0.75 Y0 I0 J0.75
G1 Y54.366
G2 X0 Y55.116 I0.75 J0
G1 X0.046 Y55.123
X0.088 Y55.145
X0.121 Y55.178
X0.143 Y55.22
X0.15 Y55.266
Y55.416
Y55.462 Z-1.793
Y55.504 Z-1.771
Y55.537 Z-1.738
Y55.559 Z-1.696
Y55.566 Z-1.65
G0 Z5
X-0.15
G1 Z-0.5 F333.3
Z-1.95
Y55.559 Z-1.996 F400
Y55.537 Z-2.038
Y55.504 Z-2.071
Y55.462 Z-2.093
Y55.416 Z-2.1
Y55.266
X-0.143 Y55.22
X-0.121 Y55.178
X-0.088 Y55.145
X-0.046 Y55.123
X0 Y55.116
X102.854
G2 X103.604 Y54.366 I0 J-0.75
G1 Y0
G2 X102.854 Y-0.75 I-0.75 J0
G1 X0
G2 X-0.75 Y0 I0 J0.75
G1 Y54.366
G2 X0 Y55.116 I0.75 J0
G1 X0.046 Y55.123
X0.088 Y55.145
X0.121 Y55.178
X0.143 Y55.22
X0.15 Y55.266
Y55.416
Y55.462 Z-2.093
Y55.504 Z-2.071
Y55.537 Z-2.038
Y55.559 Z-1.996
Y55.566 Z-1.95
G0 Z5
X-0.15
G1 Z-0.8 F333.3
Z-2.25
Y55.559 Z-2.296 F400
Y55.537 Z-2.338
Y55.504 Z-2.371
Y55.462 Z-2.393
Y55.416 Z-2.4
Y55.266
X-0.143 Y55.22
X-0.121 Y55.178
X-0.088 Y55.145
X-0.046 Y55.123
X0 Y55.116
X102.854
G2 X103.604 Y54.366 I0 J-0.75
G1 Y0
G2 X102.854 Y-0.75 I-0.75 J0
G1 X0
G2 X-0.75 Y0 I0 J0.75
G1 Y54.366
G2 X0 Y55.116 I0.75 J0
G1 X0.046 Y55.123
X0.088 Y55.145
X0.121 Y55.178
X0.143 Y55.22
X0.15 Y55.266
Y55.416
Y55.462 Z-2.393
Y55.504 Z-2.371
Y55.537 Z-2.338
Y55.559 Z-2.296
Y55.566 Z-2.25
G0 Z5
X-0.15
G1 Z-1.1 F333.3
Z-2.55
Y55.559 Z-2.596 F400
Y55.537 Z-2.638
Y55.504 Z-2.671
Y55.462 Z-2.693
Y55.416 Z-2.7
Y55.266
X-0.143 Y55.22
X-0.121 Y55.178
X-0.088 Y55.145
X-0.046 Y55.123
X0 Y55.116
X102.854
G2 X103.604 Y54.366 I0 J-0.75
G1 Y0
G2 X102.854 Y-0.75 I-0.75 J0
G1 X0
G2 X-0.75 Y0 I0 J0.75
G1 Y54.366
G2 X0 Y55.116 I0.75 J0
G1 X0.046 Y55.123
X0.088 Y55.145
X0.121 Y55.178
X0.143 Y55.22
X0.15 Y55.266
Y55.416
Y55.462 Z-2.693
Y55.504 Z-2.671
Y55.537 Z-2.638
Y55.559 Z-2.596
Y55.566 Z-2.55
G0 Z5
X-0.15
G1 Z-1.4 F333.3
Z-2.85
Y55.559 Z-2.896 F400
Y55.537 Z-2.938
Y55.504 Z-2.971
Y55.462 Z-2.993
Y55.416 Z-3
Y55.266
X-0.143 Y55.22
X-0.121 Y55.178
X-0.088 Y55.145
X-0.046 Y55.123
X0 Y55.116
X102.854
G2 X103.604 Y54.366 I0 J-0.75
G1 Y0
G2 X102.854 Y-0.75 I-0.75 J0
G1 X0
G2 X-0.75 Y0 I0 J0.75
G1 Y54.366
G2 X0 Y55.116 I0.75 J0
G1 X0.046 Y55.123
X0.088 Y55.145
X0.121 Y55.178
X0.143 Y55.22
X0.15 Y55.266
Y55.416
Y55.462 Z-2.993
Y55.504 Z-2.971
Y55.537 Z-2.938
Y55.559 Z-2.896
Y55.566 Z-2.85
G0 Z5
X-0.15
G1 Z-1.7 F333.3
Z-3.15
Y55.559 Z-3.196 F400
Y55.537 Z-3.238
Y55.504 Z-3.271
Y55.462 Z-3.293
Y55.416 Z-3.3
Y55.266
X-0.143 Y55.22
X-0.121 Y55.178
X-0.088 Y55.145
X-0.046 Y55.123
X0 Y55.116
X102.854
G2 X103.604 Y54.366 I0 J-0.75
G1 Y0
G2 X102.854 Y-0.75 I-0.75 J0
G1 X0
G2 X-0.75 Y0 I0 J0.75
G1 Y54.366
G2 X0 Y55.116 I0.75 J0
G1 X0.046 Y55.123
X0.088 Y55.145
X0.121 Y55.178
X0.143 Y55.22
X0.15 Y55.266
Y55.416
Y55.462 Z-3.293
Y55.504 Z-3.271
Y55.537 Z-3.238
Y55.559 Z-3.196
Y55.566 Z-3.15
G0 Z5
X-0.15
G1 Z-2 F333.3
Z-3.45
Y55.559 Z-3.496 F400
Y55.537 Z-3.538
Y55.504 Z-3.571
Y55.462 Z-3.593
Y55.416 Z-3.6
Y55.266
X-0.143 Y55.22
X-0.121 Y55.178
X-0.088 Y55.145
X-0.046 Y55.123
X0 Y55.116
X102.854
G2 X103.604 Y54.366 I0 J-0.75
G1 Y0
G2 X102.854 Y-0.75 I-0.75 J0
G1 X0
G2 X-0.75 Y0 I0 J0.75
G1 Y54.366
G2 X0 Y55.116 I0.75 J0
G1 X0.046 Y55.123
X0.088 Y55.145
X0.121 Y55.178
X0.143 Y55.22
X0.15 Y55.266
Y55.416
Y55.462 Z-3.593
Y55.504 Z-3.571
Y55.537 Z-3.538
Y55.559 Z-3.496
Y55.566 Z-3.45
G0 Z5
X-0.15
G1 Z-2.3 F333.3
Z-3.75
Y55.559 Z-3.796 F400
Y55.537 Z-3.838
Y55.504 Z-3.871
Y55.462 Z-3.893
Y55.416 Z-3.9
Y55.266
X-0.143 Y55.22
X-0.121 Y55.178
X-0.088 Y55.145
X-0.046 Y55.123
X0 Y55.116
X102.854
G2 X103.604 Y54.366 I0 J-0.75
G1 Y0
G2 X102.854 Y-0.75 I-0.75 J0
G1 X0
G2 X-0.75 Y0 I0 J0.75
G1 Y54.366
G2 X0 Y55.116 I0.75 J0
G1 X0.046 Y55.123
X0.088 Y55.145
X0.121 Y55.178
X0.143 Y55.22
X0.15 Y55.266
Y55.416
Y55.462 Z-3.893
Y55.504 Z-3.871
Y55.537 Z-3.838
Y55.559 Z-3.796
Y55.566 Z-3.75
G0 Z5
X-0.15
G1 Z-2.6 F333.3
Z-4.05
Y55.559 Z-4.096 F400
Y55.537 Z-4.138
Y55.504 Z-4.171
Y55.462 Z-4.193
Y55.416 Z-4.2
Y55.266
X-0.143 Y55.22
X-0.121 Y55.178
X-0.088 Y55.145
X-0.046 Y55.123
X0 Y55.116
X102.854
G2 X103.604 Y54.366 I0 J-0.75
G1 Y0
G2 X102.854 Y-0.75 I-0.75 J0
G1 X0
G2 X-0.75 Y0 I0 J0.75
G1 Y54.366
G2 X0 Y55.116 I0.75 J0
G1 X0.046 Y55.123
X0.088 Y55.145
X0.121 Y55.178
X0.143 Y55.22
X0.15 Y55.266
Y55.416
Y55.462 Z-4.193
Y55.504 Z-4.171
Y55.537 Z-4.138
Y55.559 Z-4.096
Y55.566 Z-4.05
G0 Z5
X-0.15
G1 Z-2.9 F333.3
Z-4.35
Y55.559 Z-4.396 F400
Y55.537 Z-4.438
Y55.504 Z-4.471
Y55.462 Z-4.493
Y55.416 Z-4.5
Y55.266
X-0.143 Y55.22
X-0.121 Y55.178
X-0.088 Y55.145
X-0.046 Y55.123
X0 Y55.116
X102.854
G2 X103.604 Y54.366 I0 J-0.75
G1 Y0
G2 X102.854 Y-0.75 I-0.75 J0
G1 X0
G2 X-0.75 Y0 I0 J0.75
G1 Y54.366
G2 X0 Y55.116 I0.75 J0
G1 X0.046 Y55.123
X0.088 Y55.145
X0.121 Y55.178
X0.143 Y55.22
X0.15 Y55.266
Y55.416
Y55.462 Z-4.493
Y55.504 Z-4.471
Y55.537 Z-4.438
Y55.559 Z-4.396
Y55.566 Z-4.35
G0 Z5
X-0.15
G1 Z-3.2 F333.3
Z-4.65
Y55.559 Z-4.696 F400
Y55.537 Z-4.738
Y55.504 Z-4.771
Y55.462 Z-4.793
Y55.416 Z-4.8
Y55.266
X-0.143 Y55.22
X-0.121 Y55.178
X-0.088 Y55.145
X-0.046 Y55.123
X0 Y55.116
X102.854
G2 X103.604 Y54.366 I0 J-0.75
G1 Y0
G2 X102.854 Y-0.75 I-0.75 J0
G1 X0
G2 X-0.75 Y0 I0 J0.75
G1 Y54.366
G2 X0 Y55.116 I0.75 J0
G1 X0.046 Y55.123
X0.088 Y55.145
X0.121 Y55.178
X0.143 Y55.22
X0.15 Y55.266
Y55.416
Y55.462 Z-4.793
Y55.504 Z-4.771
Y55.537 Z-4.738
Y55.559 Z-4.696
Y55.566 Z-4.65
G0 Z5
X-0.15
G1 Z-3.5 F333.3
Z-4.95
Y55.559 Z-4.996 F400
Y55.537 Z-5.038
Y55.504 Z-5.071
Y55.462 Z-5.093
Y55.416 Z-5.1
Y55.266
X-0.143 Y55.22
X-0.121 Y55.178
X-0.088 Y55.145
X-0.046 Y55.123
X0 Y55.116
X102.854
G2 X103.604 Y54.366 I0 J-0.75
G1 Y0
G2 X102.854 Y-0.75 I-0.75 J0
G1 X0
G2 X-0.75 Y0 I0 J0.75
G1 Y54.366
G2 X0 Y55.116 I0.75 J0
G1 X0.046 Y55.123
X0.088 Y55.145
X0.121 Y55.178
X0.143 Y55.22
X0.15 Y55.266
Y55.416
Y55.462 Z-5.093
Y55.504 Z-5.071
Y55.537 Z-5.038
Y55.559 Z-4.996
Y55.566 Z-4.95
G0 Z5
X-0.15
G1 Z-3.8 F333.3
Z-5.25
Y55.559 Z-5.296 F400
Y55.537 Z-5.338
Y55.504 Z-5.371
Y55.462 Z-5.393
Y55.416 Z-5.4
Y55.266
X-0.143 Y55.22
X-0.121 Y55.178
X-0.088 Y55.145
X-0.046 Y55.123
X0 Y55.116
X102.854
G2 X103.604 Y54.366 I0 J-0.75
G1 Y0
G2 X102.854 Y-0.75 I-0.75 J0
G1 X0
G2 X-0.75 Y0 I0 J0.75
G1 Y54.366
G2 X0 Y55.116 I0.75 J0
G1 X0.046 Y55.123
X0.088 Y55.145
X0.121 Y55.178
X0.143 Y55.22
X0.15 Y55.266
Y55.416
Y55.462 Z-5.393
Y55.504 Z-5.371
Y55.537 Z-5.338
Y55.559 Z-5.296
Y55.566 Z-5.25
G0 Z5
X-0.15
G1 Z-4.1 F333.3
Z-5.55
Y55.559 Z-5.596 F400
Y55.537 Z-5.638
Y55.504 Z-5.671
Y55.462 Z-5.693
Y55.416 Z-5.7
Y55.266
X-0.143 Y55.22
X-0.121 Y55.178
X-0.088 Y55.145
X-0.046 Y55.123
X0 Y55.116
X102.854
G2 X103.604 Y54.366 I0 J-0.75
G1 Y0
G2 X102.854 Y-0.75 I-0.75 J0
G1 X0
G2 X-0.75 Y0 I0 J0.75
G1 Y54.366
G2 X0 Y55.116 I0.75 J0
G1 X0.046 Y55.123
X0.088 Y55.145
X0.121 Y55.178
X0.143 Y55.22
X0.15 Y55.266
Y55.416
Y55.462 Z-5.693
Y55.504 Z-5.671
Y55.537 Z-5.638
Y55.559 Z-5.596
Y55.566 Z-5.55
G0 Z5
X-0.15
G1 Z-4.4 F333.3
Z-5.85
Y55.559 Z-5.896 F400
Y55.537 Z-5.938
Y55.504 Z-5.971
Y55.462 Z-5.993
Y55.416 Z-6
Y55.266
X-0.143 Y55.22
X-0.121 Y55.178
X-0.088 Y55.145
X-0.046 Y55.123
X0 Y55.116
X102.854
G2 X103.604 Y54.366 I0 J-0.75
G1 Y0
G2 X102.854 Y-0.75 I-0.75 J0
G1 X0
G2 X-0.75 Y0 I0 J0.75
G1 Y54.366
G2 X0 Y55.116 I0.75 J0
G1 X0.046 Y55.123
X0.088 Y55.145
X0.121 Y55.178
X0.143 Y55.22
X0.15 Y55.266
Y55.416
Y55.462 Z-5.993
Y55.504 Z-5.971
Y55.537 Z-5.938
Y55.559 Z-5.896
Y55.566 Z-5.85
G0 Z5
X-0.15
G1 Z-4.7 F333.3
Z-6.15
Y55.559 Z-6.196 F400
Y55.537 Z-6.238
Y55.504 Z-6.271
Y55.462 Z-6.293
Y55.416 Z-6.3
Y55.266
X-0.143 Y55.22
X-0.121 Y55.178
X-0.088 Y55.145
X-0.046 Y55.123
X0 Y55.116
X102.854
G2 X103.604 Y54.366 I0 J-0.75
G1 Y0
G2 X102.854 Y-0.75 I-0.75 J0
G1 X0
G2 X-0.75 Y0 I0 J0.75
G1 Y54.366
G2 X0 Y55.116 I0.75 J0
G1 X0.046 Y55.123
X0.088 Y55.145
X0.121 Y55.178
X0.143 Y55.22
X0.15 Y55.266
Y55.416
Y55.462 Z-6.293
Y55.504 Z-6.271
Y55.537 Z-6.238
Y55.559 Z-6.196
Y55.566 Z-6.15
G0 Z5
X-0.15
G1 Z-5 F333.3
Z-6.45
Y55.559 Z-6.496 F400
Y55.537 Z-6.538
Y55.504 Z-6.571
Y55.462 Z-6.593
Y55.416 Z-6.6
Y55.266
X-0.143 Y55.22
X-0.121 Y55.178
X-0.088 Y55.145
X-0.046 Y55.123
X0 Y55.116
X102.854
G2 X103.604 Y54.366 I0 J-0.75
G1 Y0
G2 X102.854 Y-0.75 I-0.75 J0
G1 X0
G2 X-0.75 Y0 I0 J0.75
G1 Y54.366
G2 X0 Y55.116 I0.75 J0
G1 X0.046 Y55.123
X0.088 Y55.145
X0.121 Y55.178
X0.143 Y55.22
X0.15 Y55.266
Y55.416
Y55.462 Z-6.593
Y55.504 Z-6.571
Y55.537 Z-6.538
Y55.559 Z-6.496
Y55.566 Z-6.45
G0 Z5
X-0.15
G1 Z-5.3 F333.3
Z-6.75
Y55.559 Z-6.796 F400
Y55.537 Z-6.838
Y55.504 Z-6.871
Y55.462 Z-6.893
Y55.416 Z-6.9
Y55.266
X-0.143 Y55.22
X-0.121 Y55.178
X-0.088 Y55.145
X-0.046 Y55.123
X0 Y55.116
X102.854
G2 X103.604 Y54.366 I0 J-0.75
G1 Y0
G2 X102.854 Y-0.75 I-0.75 J0
G1 X0
G2 X-0.75 Y0 I0 J0.75
G1 Y54.366
G2 X0 Y55.116 I0.75 J0
G1 X0.046 Y55.123
X0.088 Y55.145
X0.121 Y55.178
X0.143 Y55.22
X0.15 Y55.266
Y55.416
Y55.462 Z-6.893
Y55.504 Z-6.871
Y55.537 Z-6.838
Y55.559 Z-6.796
Y55.566 Z-6.75
G0 Z5
X-0.15
G1 Z-5.6 F333.3
Z-7.05
Y55.559 Z-7.096 F400
Y55.537 Z-7.138
Y55.504 Z-7.171
Y55.462 Z-7.193
Y55.416 Z-7.2
Y55.266
X-0.143 Y55.22
X-0.121 Y55.178
X-0.088 Y55.145
X-0.046 Y55.123
X0 Y55.116
X102.854
G2 X103.604 Y54.366 I0 J-0.75
G1 Y0
G2 X102.854 Y-0.75 I-0.75 J0
G1 X0
G2 X-0.75 Y0 I0 J0.75
G1 Y54.366
G2 X0 Y55.116 I0.75 J0
G1 X0.046 Y55.123
X0.088 Y55.145
X0.121 Y55.178
X0.143 Y55.22
X0.15 Y55.266
Y55.416
Y55.462 Z-7.193
Y55.504 Z-7.171
Y55.537 Z-7.138
Y55.559 Z-7.096
Y55.566 Z-7.05
G0 Z5
X-0.15
G1 Z-5.9 F333.3
Z-7.35
Y55.559 Z-7.396 F400
Y55.537 Z-7.438
Y55.504 Z-7.471
Y55.462 Z-7.493
Y55.416 Z-7.5
Y55.266
X-0.143 Y55.22
X-0.121 Y55.178
X-0.088 Y55.145
X-0.046 Y55.123
X0 Y55.116
X102.854
G2 X103.604 Y54.366 I0 J-0.75
G1 Y0
G2 X102.854 Y-0.75 I-0.75 J0
G1 X0
G2 X-0.75 Y0 I0 J0.75
G1 Y54.366
G2 X0 Y55.116 I0.75 J0
G1 X0.046 Y55.123
X0.088 Y55.145
X0.121 Y55.178
X0.143 Y55.22
X0.15 Y55.266
Y55.416
Y55.462 Z-7.493
Y55.504 Z-7.471
Y55.537 Z-7.438
Y55.559 Z-7.396
Y55.566 Z-7.35
G0 Z5
X-0.15
G1 Z-6.2 F333.3
Z-7.65
Y55.559 Z-7.696 F400
Y55.537 Z-7.738
Y55.504 Z-7.771
Y55.462 Z-7.793
Y55.416 Z-7.8
Y55.266
X-0.143 Y55.22
X-0.121 Y55.178
X-0.088 Y55.145
X-0.046 Y55.123
X0 Y55.116
X102.854
G2 X103.604 Y54.366 I0 J-0.75
G1 Y0
G2 X102.854 Y-0.75 I-0.75 J0
G1 X0
G2 X-0.75 Y0 I0 J0.75
G1 Y54.366
G2 X0 Y55.116 I0.75 J0
G1 X0.046 Y55.123
X0.088 Y55.145
X0.121 Y55.178
X0.143 Y55.22
X0.15 Y55.266
Y55.416
Y55.462 Z-7.793
Y55.504 Z-7.771
Y55.537 Z-7.738
Y55.559 Z-7.696
Y55.566 Z-7.65
G0 Z5
X-0.15
G1 Z-6.5 F333.3
Z-7.95
Y55.559 Z-7.996 F400
Y55.537 Z-8.038
Y55.504 Z-8.071
Y55.462 Z-8.093
Y55.416 Z-8.1
Y55.266
X-0.143 Y55.22
X-0.121 Y55.178
X-0.088 Y55.145
X-0.046 Y55.123
X0 Y55.116
X102.854
G2 X103.604 Y54.366 I0 J-0.75
G1 Y0
G2 X102.854 Y-0.75 I-0.75 J0
G1 X0
G2 X-0.75 Y0 I0 J0.75
G1 Y54.366
G2 X0 Y55.116 I0.75 J0
G1 X0.046 Y55.123
X0.088 Y55.145
X0.121 Y55.178
X0.143 Y55.22
X0.15 Y55.266
Y55.416
Y55.462 Z-8.093
Y55.504 Z-8.071
Y55.537 Z-8.038
Y55.559 Z-7.996
Y55.566 Z-7.95
G0 Z5
X-0.15
G1 Z-6.8 F333.3
Z-8.25
Y55.559 Z-8.296 F400
Y55.537 Z-8.338
Y55.504 Z-8.371
Y55.462 Z-8.393
Y55.416 Z-8.4
Y55.266
X-0.143 Y55.22
X-0.121 Y55.178
X-0.088 Y55.145
X-0.046 Y55.123
X0 Y55.116
X102.854
G2 X103.604 Y54.366 I0 J-0.75
G1 Y0
G2 X102.854 Y-0.75 I-0.75 J0
G1 X0
G2 X-0.75 Y0 I0 J0.75
G1 Y54.366
G2 X0 Y55.116 I0.75 J0
G1 X0.046 Y55.123
X0.088 Y55.145
X0.121 Y55.178
X0.143 Y55.22
X0.15 Y55.266
Y55.416
Y55.462 Z-8.393
Y55.504 Z-8.371
Y55.537 Z-8.338
Y55.559 Z-8.296
Y55.566 Z-8.25
G0 Z5
X-0.15
G1 Z-7.1 F333.3
Z-8.55
Y55.559 Z-8.596 F400
Y55.537 Z-8.638
Y55.504 Z-8.671
Y55.462 Z-8.693
Y55.416 Z-8.7
Y55.266
X-0.143 Y55.22
X-0.121 Y55.178
X-0.088 Y55.145
X-0.046 Y55.123
X0 Y55.116
X102.854
G2 X103.604 Y54.366 I0 J-0.75
G1 Y0
G2 X102.854 Y-0.75 I-0.75 J0
G1 X0
G2 X-0.75 Y0 I0 J0.75
G1 Y54.366
G2 X0 Y55.116 I0.75 J0
G1 X0.046 Y55.123
X0.088 Y55.145
X0.121 Y55.178
X0.143 Y55.22
X0.15 Y55.266
Y55.416
Y55.462 Z-8.693
Y55.504 Z-8.671
Y55.537 Z-8.638
Y55.559 Z-8.596
Y55.566 Z-8.55
G0 Z5
X-0.15
G1 Z-7.4 F333.3
Z-8.85
Y55.559 Z-8.896 F400
Y55.537 Z-8.938
Y55.504 Z-8.971
Y55.462 Z-8.993
Y55.416 Z-9
Y55.266
X-0.143 Y55.22
X-0.121 Y55.178
X-0.088 Y55.145
X-0.046 Y55.123
X0 Y55.116
X102.854
G2 X103.604 Y54.366 I0 J-0.75
G1 Y0
G2 X102.854 Y-0.75 I-0.75 J0
G1 X0
G2 X-0.75 Y0 I0 J0.75
G1 Y54.366
G2 X0 Y55.116 I0.75 J0
G1 X0.046 Y55.123
X0.088 Y55.145
X0.121 Y55.178
X0.143 Y55.22
X0.15 Y55.266
Y55.416
Y55.462 Z-8.993
Y55.504 Z-8.971
Y55.537 Z-8.938
Y55.559 Z-8.896
Y55.566 Z-8.85
G0 Z5
X-0.15
G1 Z-7.7 F333.3
Z-9.15
Y55.559 Z-9.196 F400
Y55.537 Z-9.238
Y55.504 Z-9.271
Y55.462 Z-9.293
Y55.416 Z-9.3
Y55.266
X-0.143 Y55.22
X-0.121 Y55.178
X-0.088 Y55.145
X-0.046 Y55.123
X0 Y55.116
X102.854
G2 X103.604 Y54.366 I0 J-0.75
G1 Y0
G2 X102.854 Y-0.75 I-0.75 J0
G1 X0
G2 X-0.75 Y0 I0 J0.75
G1 Y54.366
G2 X0 Y55.116 I0.75 J0
G1 X0.046 Y55.123
X0.088 Y55.145
X0.121 Y55.178
X0.143 Y55.22
X0.15 Y55.266
Y55.416
Y55.462 Z-9.293
Y55.504 Z-9.271
Y55.537 Z-9.238
Y55.559 Z-9.196
Y55.566 Z-9.15
G0 Z5
X-0.15
G1 Z-8 F333.3
Z-9.45
Y55.559 Z-9.496 F400
Y55.537 Z-9.538
Y55.504 Z-9.571
Y55.462 Z-9.593
Y55.416 Z-9.6
Y55.266
X-0.143 Y55.22
X-0.121 Y55.178
X-0.088 Y55.145
X-0.046 Y55.123
X0 Y55.116
X102.854
G2 X103.604 Y54.366 I0 J-0.75
G1 Y0
G2 X102.854 Y-0.75 I-0.75 J0
G1 X0
G2 X-0.75 Y0 I0 J0.75
G1 Y54.366
G2 X0 Y55.116 I0.75 J0
G1 X0.046 Y55.123
X0.088 Y55.145
X0.121 Y55.178
X0.143 Y55.22
X0.15 Y55.266
Y55.416
Y55.462 Z-9.593
Y55.504 Z-9.571
Y55.537 Z-9.538
Y55.559 Z-9.496
Y55.566 Z-9.45
G0 Z5
X-0.15
G1 Z-8.3 F333.3
Z-9.75
Y55.559 Z-9.796 F400
Y55.537 Z-9.838
Y55.504 Z-9.871
Y55.462 Z-9.893
Y55.416 Z-9.9
Y55.266
X-0.143 Y55.22
X-0.121 Y55.178
X-0.088 Y55.145
X-0.046 Y55.123
X0 Y55.116
X102.854
G2 X103.604 Y54.366 I0 J-0.75
G1 Y0
G2 X102.854 Y-0.75 I-0.75 J0
G1 X0
G2 X-0.75 Y0 I0 J0.75
G1 Y54.366
G2 X0 Y55.116 I0.75 J0
G1 X0.046 Y55.123
X0.088 Y55.145
X0.121 Y55.178
X0.143 Y55.22
X0.15 Y55.266
Y55.416
Y55.462 Z-9.893
Y55.504 Z-9.871
Y55.537 Z-9.838
Y55.559 Z-9.796
Y55.566 Z-9.75
G0 Z5
X-0.15
G1 Z-8.6 F333.3
Z-10.05
Y55.559 Z-10.096 F400
Y55.537 Z-10.138
Y55.504 Z-10.171
Y55.462 Z-10.193
Y55.416 Z-10.2
Y55.266
X-0.143 Y55.22
X-0.121 Y55.178
X-0.088 Y55.145
X-0.046 Y55.123
X0 Y55.116
X102.854
G2 X103.604 Y54.366 I0 J-0.75
G1 Y0
G2 X102.854 Y-0.75 I-0.75 J0
G1 X0
G2 X-0.75 Y0 I0 J0.75
G1 Y54.366
G2 X0 Y55.116 I0.75 J0
G1 X0.046 Y55.123
X0.088 Y55.145
X0.121 Y55.178
X0.143 Y55.22
X0.15 Y55.266
Y55.416
Y55.462 Z-10.193
Y55.504 Z-10.171
Y55.537 Z-10.138
Y55.559 Z-10.096
Y55.566 Z-10.05
G0 Z5
X-0.15
G1 Z-8.9 F333.3
Z-10.35
Y55.559 Z-10.396 F400
Y55.537 Z-10.438
Y55.504 Z-10.471
Y55.462 Z-10.493
Y55.416 Z-10.5
Y55.266
X-0.143 Y55.22
X-0.121 Y55.178
X-0.088 Y55.145
X-0.046 Y55.123
X0 Y55.116
X102.854
G2 X103.604 Y54.366 I0 J-0.75
G1 Y0
G2 X102.854 Y-0.75 I-0.75 J0
G1 X0
G2 X-0.75 Y0 I0 J0.75
G1 Y54.366
G2 X0 Y55.116 I0.75 J0
G1 X0.046 Y55.123
X0.088 Y55.145
X0.121 Y55.178
X0.143 Y55.22
X0.15 Y55.266
Y55.416
Y55.462 Z-10.493
Y55.504 Z-10.471
Y55.537 Z-10.438
Y55.559 Z-10.396
Y55.566 Z-10.35
G0 Z5
X-0.15
G1 Z-9.2 F333.3
Z-10.65
Y55.559 Z-10.696 F400
Y55.537 Z-10.738
Y55.504 Z-10.771
Y55.462 Z-10.793
Y55.416 Z-10.8
Y55.266
X-0.143 Y55.22
X-0.121 Y55.178
X-0.088 Y55.145
X-0.046 Y55.123
X0 Y55.116
X102.854
G2 X103.604 Y54.366 I0 J-0.75
G1 Y0
G2 X102.854 Y-0.75 I-0.75 J0
G1 X0
G2 X-0.75 Y0 I0 J0.75
G1 Y54.366
G2 X0 Y55.116 I0.75 J0
G1 X0.046 Y55.123
X0.088 Y55.145
X0.121 Y55.178
X0.143 Y55.22
X0.15 Y55.266
Y55.416
Y55.462 Z-10.793
Y55.504 Z-10.771
Y55.537 Z-10.738
Y55.559 Z-10.696
Y55.566 Z-10.65
G0 Z5
X-0.15
G1 Z-9.5 F333.3
Z-10.95
Y55.559 Z-10.996 F400
Y55.537 Z-11.038
Y55.504 Z-11.071
Y55.462 Z-11.093
Y55.416 Z-11.1
Y55.266
X-0.143 Y55.22
X-0.121 Y55.178
X-0.088 Y55.145
X-0.046 Y55.123
X0 Y55.116
X102.854
G2 X103.604 Y54.366 I0 J-0.75
G1 Y0
G2 X102.854 Y-0.75 I-0.75 J0
G1 X0
G2 X-0.75 Y0 I0 J0.75
G1 Y54.366
G2 X0 Y55.116 I0.75 J0
G1 X0.046 Y55.123
X0.088 Y55.145
X0.121 Y55.178
X0.143 Y55.22
X0.15 Y55.266
Y55.416
Y55.462 Z-11.093
Y55.504 Z-11.071
Y55.537 Z-11.038
Y55.559 Z-10.996
Y55.566 Z-10.95
G0 Z5
X-0.15
G1 Z-9.8 F333.3
Z-11.25
Y55.559 Z-11.296 F400
Y55.537 Z-11.338
Y55.504 Z-11.371
Y55.462 Z-11.393
Y55.416 Z-11.4
Y55.266
X-0.143 Y55.22
X-0.121 Y55.178
X-0.088 Y55.145
X-0.046 Y55.123
X0 Y55.116
X102.854
G2 X103.604 Y54.366 I0 J-0.75
G1 Y0
G2 X102.854 Y-0.75 I-0.75 J0
G1 X0
G2 X-0.75 Y0 I0 J0.75
G1 Y54.366
G2 X0 Y55.116 I0.75 J0
G1 X0.046 Y55.123
X0.088 Y55.145
X0.121 Y55.178
X0.143 Y55.22
X0.15 Y55.266
Y55.416
Y55.462 Z-11.393
Y55.504 Z-11.371
Y55.537 Z-11.338
Y55.559 Z-11.296
Y55.566 Z-11.25
G0 Z5
X-0.15
G1 Z-10.1 F333.3
Z-11.55
Y55.559 Z-11.596 F400
Y55.537 Z-11.638
Y55.504 Z-11.671
Y55.462 Z-11.693
Y55.416 Z-11.7
Y55.266
X-0.143 Y55.22
X-0.121 Y55.178
X-0.088 Y55.145
X-0.046 Y55.123
X0 Y55.116
X102.854
G2 X103.604 Y54.366 I0 J-0.75
G1 Y0
G2 X102.854 Y-0.75 I-0.75 J0
G1 X0
G2 X-0.75 Y0 I0 J0.75
G1 Y54.366
G2 X0 Y55.116 I0.75 J0
G1 X0.046 Y55.123
X0.088 Y55.145
X0.121 Y55.178
X0.143 Y55.22
X0.15 Y55.266
Y55.416
Y55.462 Z-11.693
Y55.504 Z-11.671
Y55.537 Z-11.638
Y55.559 Z-11.596
Y55.566 Z-11.55
G0 Z5
X-0.15
G1 Z-10.4 F333.3
Z-11.85
Y55.559 Z-11.896 F400
Y55.537 Z-11.938
Y55.504 Z-11.971
Y55.462 Z-11.993
Y55.416 Z-12
Y55.266
X-0.143 Y55.22
X-0.121 Y55.178
X-0.088 Y55.145
X-0.046 Y55.123
X0 Y55.116
X102.854
G2 X103.604 Y54.366 I0 J-0.75
G1 Y0
G2 X102.854 Y-0.75 I-0.75 J0
G1 X0
G2 X-0.75 Y0 I0 J0.75
G1 Y54.366
G2 X0 Y55.116 I0.75 J0
G1 X0.046 Y55.123
X0.088 Y55.145
X0.121 Y55.178
X0.143 Y55.22
X0.15 Y55.266
Y55.416
Y55.462 Z-11.993
Y55.504 Z-11.971
Y55.537 Z-11.938
Y55.559 Z-11.896
Y55.566 Z-11.85
G0 Z5
X-0.15
G1 Z-10.7 F333.3
Z-12.15
Y55.559 Z-12.196 F400
Y55.537 Z-12.238
Y55.504 Z-12.271
Y55.462 Z-12.293
Y55.416 Z-12.3
Y55.266
X-0.143 Y55.22
X-0.121 Y55.178
X-0.088 Y55.145
X-0.046 Y55.123
X0 Y55.116
X102.854
G2 X103.604 Y54.366 I0 J-0.75
G1 Y0
G2 X102.854 Y-0.75 I-0.75 J0
G1 X0
G2 X-0.75 Y0 I0 J0.75
G1 Y54.366
G2 X0 Y55.116 I0.75 J0
G1 X0.046 Y55.123
X0.088 Y55.145
X0.121 Y55.178
X0.143 Y55.22
X0.15 Y55.266
Y55.416
Y55.462 Z-12.293
Y55.504 Z-12.271
Y55.537 Z-12.238
Y55.559 Z-12.196
Y55.566 Z-12.15
G0 Z5
X-0.15
G1 Z-11 F333.3
Z-12.45
Y55.559 Z-12.496 F400
Y55.537 Z-12.538
Y55.504 Z-12.571
Y55.462 Z-12.593
Y55.416 Z-12.6
Y55.266
X-0.143 Y55.22
X-0.121 Y55.178
X-0.088 Y55.145
X-0.046 Y55.123
X0 Y55.116
X102.854
G2 X103.604 Y54.366 I0 J-0.75
G1 Y0
G2 X102.854 Y-0.75 I-0.75 J0
G1 X0
G2 X-0.75 Y0 I0 J0.75
G1 Y54.366
G2 X0 Y55.116 I0.75 J0
G1 X0.046 Y55.123
X0.088 Y55.145
X0.121 Y55.178
X0.143 Y55.22
X0.15 Y55.266
Y55.416
Y55.462 Z-12.593
Y55.504 Z-12.571
Y55.537 Z-12.538
Y55.559 Z-12.496
Y55.566 Z-12.45
G0 Z5
X-0.15
G1 Z-11.3 F333.3
Z-12.75
Y55.559 Z-12.796 F400
Y55.537 Z-12.838
Y55.504 Z-12.871
Y55.462 Z-12.893
Y55.416 Z-12.9
Y55.266
X-0.143 Y55.22
X-0.121 Y55.178
X-0.088 Y55.145
X-0.046 Y55.123
X0 Y55.116
X102.854
G2 X103.604 Y54.366 I0 J-0.75
G1 Y0
G2 X102.854 Y-0.75 I-0.75 J0
G1 X0
G2 X-0.75 Y0 I0 J0.75
G1 Y54.366
G2 X0 Y55.116 I0.75 J0
G1 X0.046 Y55.123
X0.088 Y55.145
X0.121 Y55.178
X0.143 Y55.22
X0.15 Y55.266
Y55.416
Y55.462 Z-12.893
Y55.504 Z-12.871
Y55.537 Z-12.838
Y55.559 Z-12.796
Y55.566 Z-12.75
G0 Z5
X-0.15
G1 Z-11.6 F333.3
Z-13.05
Y55.559 Z-13.096 F400
Y55.537 Z-13.138
Y55.504 Z-13.171
Y55.462 Z-13.193
Y55.416 Z-13.2
Y55.266
X-0.143 Y55.22
X-0.121 Y55.178
X-0.088 Y55.145
X-0.046 Y55.123
X0 Y55.116
X102.854
G2 X103.604 Y54.366 I0 J-0.75
G1 Y0
G2 X102.854 Y-0.75 I-0.75 J0
G1 X0
G2 X-0.75 Y0 I0 J0.75
G1 Y54.366
G2 X0 Y55.116 I0.75 J0
G1 X0.046 Y55.123
X0.088 Y55.145
X0.121 Y55.178
X0.143 Y55.22
X0.15 Y55.266
Y55.416
Y55.462 Z-13.193
Y55.504 Z-13.171
Y55.537 Z-13.138
Y55.559 Z-13.096
Y55.566 Z-13.05
G0 Z5
X-0.15
G1 Z-11.9 F333.3
Z-13.35
Y55.559 Z-13.396 F400
Y55.537 Z-13.438
Y55.504 Z-13.471
Y55.462 Z-13.493
Y55.416 Z-13.5
Y55.266
X-0.143 Y55.22
X-0.121 Y55.178
X-0.088 Y55.145
X-0.046 Y55.123
X0 Y55.116
X102.854
G2 X103.604 Y54.366 I0 J-0.75
G1 Y0
G2 X102.854 Y-0.75 I-0.75 J0
G1 X0
G2 X-0.75 Y0 I0 J0.75
G1 Y54.366
G2 X0 Y55.116 I0.75 J0
G1 X0.046 Y55.123
X0.088 Y55.145
X0.121 Y55.178
X0.143 Y55.22
X0.15 Y55.266
Y55.416
Y55.462 Z-13.493
Y55.504 Z-13.471
Y55.537 Z-13.438
Y55.559 Z-13.396
Y55.566 Z-13.35
G0 Z5
X-0.15
G1 Z-12.2 F333.3
Z-13.65
Y55.559 Z-13.696 F400
Y55.537 Z-13.738
Y55.504 Z-13.771
Y55.462 Z-13.793
Y55.416 Z-13.8
Y55.266
X-0.143 Y55.22
X-0.121 Y55.178
X-0.088 Y55.145
X-0.046 Y55.123
X0 Y55.116
X102.854
G2 X103.604 Y54.366 I0 J-0.75
G1 Y0
G2 X102.854 Y-0.75 I-0.75 J0
G1 X0
G2 X-0.75 Y0 I0 J0.75
G1 Y54.366
G2 X0 Y55.116 I0.75 J0
G1 X0.046 Y55.123
X0.088 Y55.145
X0.121 Y55.178
X0.143 Y55.22
X0.15 Y55.266
Y55.416
Y55.462 Z-13.793
Y55.504 Z-13.771
Y55.537 Z-13.738
Y55.559 Z-13.696
Y55.566 Z-13.65
G0 Z5
X-0.15
G1 Z-12.5 F333.3
Z-13.95
Y55.559 Z-13.996 F400
Y55.537 Z-14.038
Y55.504 Z-14.071
Y55.462 Z-14.093
Y55.416 Z-14.1
Y55.266
X-0.143 Y55.22
X-0.121 Y55.178
X-0.088 Y55.145
X-0.046 Y55.123
X0 Y55.116
X102.854
G2 X103.604 Y54.366 I0 J-0.75
G1 Y0
G2 X102.854 Y-0.75 I-0.75 J0
G1 X0
G2 X-0.75 Y0 I0 J0.75
G1 Y54.366
G2 X0 Y55.116 I0.75 J0
G1 X0.046 Y55.123
X0.088 Y55.145
X0.121 Y55.178
X0.143 Y55.22
X0.15 Y55.266
Y55.416
Y55.462 Z-14.093
Y55.504 Z-14.071
Y55.537 Z-14.038
Y55.559 Z-13.996
Y55.566 Z-13.95
G0 Z5
X-0.15
G1 Z-12.8 F333.3
Z-14.25
Y55.559 Z-14.296 F400
Y55.537 Z-14.338
Y55.504 Z-14.371
Y55.462 Z-14.393
Y55.416 Z-14.4
Y55.266
X-0.143 Y55.22
X-0.121 Y55.178
X-0.088 Y55.145
X-0.046 Y55.123
X0 Y55.116
X102.854
G2 X103.604 Y54.366 I0 J-0.75
G1 Y0
G2 X102.854 Y-0.75 I-0.75 J0
G1 X0
G2 X-0.75 Y0 I0 J0.75
G1 Y54.366
G2 X0 Y55.116 I0.75 J0
G1 X0.046 Y55.123
X0.088 Y55.145
X0.121 Y55.178
X0.143 Y55.22
X0.15 Y55.266
Y55.416
Y55.462 Z-14.393
Y55.504 Z-14.371
Y55.537 Z-14.338
Y55.559 Z-14.296
Y55.566 Z-14.25
G0 Z5
X-0.15
G1 Z-13.1 F333.3
Z-14.55
Y55.559 Z-14.596 F400
Y55.537 Z-14.638
Y55.504 Z-14.671
Y55.462 Z-14.693
Y55.416 Z-14.7
Y55.266
X-0.143 Y55.22
X-0.121 Y55.178
X-0.088 Y55.145
X-0.046 Y55.123
X0 Y55.116
X102.854
G2 X103.604 Y54.366 I0 J-0.75
G1 Y0
G2 X102.854 Y-0.75 I-0.75 J0
G1 X0
G2 X-0.75 Y0 I0 J0.75
G1 Y54.366
G2 X0 Y55.116 I0.75 J0
G1 X0.046 Y55.123
X0.088 Y55.145
X0.121 Y55.178
X0.143 Y55.22
X0.15 Y55.266
Y55.416
Y55.462 Z-14.693
Y55.504 Z-14.671
Y55.537 Z-14.638
Y55.559 Z-14.596
Y55.566 Z-14.55
G0 Z5
X-0.15
G1 Z-13.4 F333.3
Z-14.85
Y55.559 Z-14.896 F400
Y55.537 Z-14.938
Y55.504 Z-14.971
Y55.462 Z-14.993
Y55.416 Z-15
Y55.266
X-0.143 Y55.22
X-0.121 Y55.178
X-0.088 Y55.145
X-0.046 Y55.123
X0 Y55.116
X102.854
G2 X103.604 Y54.366 I0 J-0.75
G1 Y0
G2 X102.854 Y-0.75 I-0.75 J0
G1 X0
G2 X-0.75 Y0 I0 J0.75
G1 Y54.366
G2 X0 Y55.116 I0.75 J0
G1 X0.046 Y55.123
X0.088 Y55.145
X0.121 Y55.178
X0.143 Y55.22
X0.15 Y55.266
Y55.416
Y55.462 Z-14.993
Y55.504 Z-14.971
Y55.537 Z-14.938
Y55.559 Z-14.896
Y55.566 Z-14.85
G0 Z5
X-0.15
G1 Z-13.7 F333.3
Z-15.15
Y55.559 Z-15.196 F400
Y55.537 Z-15.238
Y55.504 Z-15.271
Y55.462 Z-15.293
Y55.416 Z-15.3
Y55.266
X-0.143 Y55.22
X-0.121 Y55.178
X-0.088 Y55.145
X-0.046 Y55.123
X0 Y55.116
X102.854
G2 X103.604 Y54.366 I0 J-0.75
G1 Y0
G2 X102.854 Y-0.75 I-0.75 J0
G1 X0
G2 X-0.75 Y0 I0 J0.75
G1 Y54.366
G2 X0 Y55.116 I0.75 J0
G1 X0.046 Y55.123
X0.088 Y55.145
X0.121 Y55.178
X0.143 Y55.22
X0.15 Y55.266
Y55.416
Y55.462 Z-15.293
Y55.504 Z-15.271
Y55.537 Z-15.238
Y55.559 Z-15.196
Y55.566 Z-15.15
G0 Z5
X-0.15
G1 Z-14 F333.3
Z-15.45
Y55.559 Z-15.496 F400
Y55.537 Z-15.538
Y55.504 Z-15.571
Y55.462 Z-15.593
Y55.416 Z-15.6
Y55.266
X-0.143 Y55.22
X-0.121 Y55.178
X-0.088 Y55.145
X-0.046 Y55.123
X0 Y55.116
X102.854
G2 X103.604 Y54.366 I0 J-0.75
G1 Y0
G2 X102.854 Y-0.75 I-0.75 J0
G1 X0
G2 X-0.75 Y0 I0 J0.75
G1 Y54.366
G2 X0 Y55.116 I0.75 J0
G1 X0.046 Y55.123
X0.088 Y55.145
X0.121 Y55.178
X0.143 Y55.22
X0.15 Y55.266
Y55.416
Y55.462 Z-15.593
Y55.504 Z-15.571
Y55.537 Z-15.538
Y55.559 Z-15.496
Y55.566 Z-15.45
G0 Z5
X-0.15
G1 Z-14.3 F333.3
Z-15.75
Y55.559 Z-15.796 F400
Y55.537 Z-15.838
Y55.504 Z-15.871
Y55.462 Z-15.893
Y55.416 Z-15.9
Y55.266
X-0.143 Y55.22
X-0.121 Y55.178
X-0.088 Y55.145
X-0.046 Y55.123
X0 Y55.116
X102.854
G2 X103.604 Y54.366 I0 J-0.75
G1 Y0
G2 X102.854 Y-0.75 I-0.75 J0
G1 X0
G2 X-0.75 Y0 I0 J0.75
G1 Y54.366
G2 X0 Y55.116 I0.75 J0
G1 X0.046 Y55.123
X0.088 Y55.145
X0.121 Y55.178
X0.143 Y55.22
X0.15 Y55.266
Y55.416
Y55.462 Z-15.893
Y55.504 Z-15.871
Y55.537 Z-15.838
Y55.559 Z-15.796
Y55.566 Z-15.75
G0 Z5
X-0.15
G1 Z-14.6 F333.3
Z-16.05
Y55.559 Z-16.096 F400
Y55.537 Z-16.138
Y55.504 Z-16.171
Y55.462 Z-16.193
Y55.416 Z-16.2
Y55.266
X-0.143 Y55.22
X-0.121 Y55.178
X-0.088 Y55.145
X-0.046 Y55.123
X0 Y55.116
X102.854
G2 X103.604 Y54.366 I0 J-0.75
G1 Y0
G2 X102.854 Y-0.75 I-0.75 J0
G1 X0
G2 X-0.75 Y0 I0 J0.75
G1 Y54.366
G2 X0 Y55.116 I0.75 J0
G1 X0.046 Y55.123
X0.088 Y55.145
X0.121 Y55.178
X0.143 Y55.22
X0.15 Y55.266
Y55.416
Y55.462 Z-16.193
Y55.504 Z-16.171
Y55.537 Z-16.138
Y55.559 Z-16.096
Y55.566 Z-16.05
G0 Z5
X-0.15
G1 Z-14.9 F333.3
Z-16.35
Y55.559 Z-16.396 F400
Y55.537 Z-16.438
Y55.504 Z-16.471
Y55.462 Z-16.493
Y55.416 Z-16.5
Y55.266
X-0.143 Y55.22
X-0.121 Y55.178
X-0.088 Y55.145
X-0.046 Y55.123
X0 Y55.116
X102.854
G2 X103.604 Y54.366 I0 J-0.75
G1 Y0
G2 X102.854 Y-0.75 I-0.75 J0
G1 X0
G2 X-0.75 Y0 I0 J0.75
G1 Y54.366
G2 X0 Y55.116 I0.75 J0
G1 X0.046 Y55.123
X0.088 Y55.145
X0.121 Y55.178
X0.143 Y55.22
X0.15 Y55.266
Y55.416
Y55.462 Z-16.493
Y55.504 Z-16.471
Y55.537 Z-16.438
Y55.559 Z-16.396
Y55.566 Z-16.35
G0 Z5
X-0.15
G1 Z-15.2 F333.3
Z-16.65
Y55.559 Z-16.696 F400
Y55.537 Z-16.738
Y55.504 Z-16.771
Y55.462 Z-16.793
Y55.416 Z-16.8
Y55.266
X-0.143 Y55.22
X-0.121 Y55.178
X-0.088 Y55.145
X-0.046 Y55.123
X0 Y55.116
X4.928
Z-16.625
X7.928
Z-16.8 F333.3
X17.785 F400
Z-16.625
X20.785
Z-16.8 F333.3
X30.642 F400
Z-16.625
X33.642
Z-16.8 F333.3
X43.499 F400
Z-16.625
X46.499
Z-16.8 F333.3
X56.355 F400
Z-16.625
X59.355
Z-16.8 F333.3
X69.212 F400
Z-16.625
X72.212
Z-16.8 F333.3
X82.069 F400
Z-16.625
X85.069
Z-16.8 F333.3
X94.926 F400
Z-16.625
X97.926
Z-16.8 F333.3
X102.854 F400
G2 X103.604 Y54.366 I0 J-0.75
G1 Y49.07
Z-16.625
Y46.07
Z-16.8 F333.3
Y35.479 F400
Z-16.625
Y32.479
Z-16.8 F333.3
Y21.887 F400
Z-16.625
Y18.887
Z-16.8 F333.3
Y8.296 F400
Z-16.625
Y5.296
Z-16.8 F333.3
Y0 F400
G2 X102.854 Y-0.75 I-0.75 J0
G1 X97.926
Z-16.625
X94.926
Z-16.8 F333.3
X85.069 F400
Z-16.625
X82.069
Z-16.8 F333.3
X72.212 F400
Z-16.625
X69.212
Z-16.8 F333.3
X59.355 F400
Z-16.625
X56.355
Z-16.8 F333.3
X46.499 F400
Z-16.625
X43.499
Z-16.8 F333.3
X33.642 F400
Z-16.625
X30.642
Z-16.8 F333.3
X20.785 F400
Z-16.625
X17.785
Z-16.8 F333.3
X7.928 F400
Z-16.625
X4.928
Z-16.8 F333.3
X0 F400
G2 X-0.75 Y0 I0 J0.75
G1 Y5.296
Z-16.625
Y8.296
Z-16.8 F333.3
Y18.887 F400
Z-16.625
Y21.887
Z-16.8 F333.3
Y32.479 F400
Z-16.625
Y35.479
Z-16.8 F333.3
Y46.07 F400
Z-16.625
Y49.07
Z-16.8 F333.3
Y54.366 F400
G2 X0 Y55.116 I0.75 J0
G1 X0.046 Y55.123
X0.088 Y55.145
X0.121 Y55.178
X0.143 Y55.22
X0.15 Y55.266
Y55.416
Y55.462 Z-16.793
Y55.504 Z-16.771
Y55.537 Z-16.738
Y55.559 Z-16.696
Y55.566 Z-16.65
G0 Z5
X-0.15
G1 Z-15.5 F333.3
Z-16.85
Y55.559 Z-16.896 F400
Y55.537 Z-16.938
Y55.504 Z-16.971
Y55.462 Z-16.993
Y55.416 Z-17
Y55.266
X-0.143 Y55.22
X-0.121 Y55.178
X-0.088 Y55.145
X-0.046 Y55.123
X0 Y55.116
X4.928
Z-16.625
X7.928
Z-17 F333.3
X17.785 F400
Z-16.625
X20.785
Z-17 F333.3
X30.642 F400
Z-16.625
X33.642
Z-17 F333.3
X43.499 F400
Z-16.625
X46.499
Z-17 F333.3
X56.355 F400
Z-16.625
X59.355
Z-17 F333.3
X69.212 F400
Z-16.625
X72.212
Z-17 F333.3
X82.069 F400
Z-16.625
X85.069
Z-17 F333.3
X94.926 F400
Z-16.625
X97.926
Z-17 F333.3
X102.854 F400
G2 X103.604 Y54.366 I0 J-0.75
G1 Y49.07
Z-16.625
Y46.07
Z-17 F333.3
Y35.479 F400
Z-16.625
Y32.479
Z-17 F333.3
Y21.887 F400
Z-16.625
Y18.887
Z-17 F333.3
Y8.296 F400
Z-16.625
Y5.296
Z-17 F333.3
Y0 F400
G2 X102.854 Y-0.75 I-0.75 J0
G1 X97.926
Z-16.625
X94.926
Z-17 F333.3
X85.069 F400
Z-16.625
X82.069
Z-17 F333.3
X72.212 F400
Z-16.625
X69.212
Z-17 F333.3
X59.355 F400
Z-16.625
X56.355
Z-17 F333.3
X46.499 F400
Z-16.625
X43.499
Z-17 F333.3
X33.642 F400
Z-16.625
X30.642
Z-17 F333.3
X20.785 F400
Z-16.625
X17.785
Z-17 F333.3
X7.928 F400
Z-16.625
X4.928
Z-17 F333.3
X0 F400
G2 X-0.75 Y0 I0 J0.75
G1 Y5.296
Z-16.625
Y8.296
Z-17 F333.3
Y18.887 F400
Z-16.625
Y21.887
Z-17 F333.3
Y32.479 F400
Z-16.625
Y35.479
Z-17 F333.3
Y46.07 F400
Z-16.625
Y49.07
Z-17 F333.3
Y54.366 F400
G2 X0 Y55.116 I0.75 J0
G1 X0.046 Y55.123
X0.088 Y55.145
X0.121 Y55.178
X0.143 Y55.22
X0.15 Y55.266
Y55.416
Y55.462 Z-16.993
Y55.504 Z-16.971
Y55.537 Z-16.938
Y55.559 Z-16.896
Y55.566 Z-16.85
G0 Z15
M9
M5
M30
