(1001)
(Machine)
(  vendor: Autodesk)
(  description: Generic 3-axis)
(T4  D=5 CR=0 - ZMIN=-19 - flat end mill)
G90 G94
G17
G21
(When using Fusion 360 for Personal Use, the feedrate of rapid moves is reduced to match the feedrate of cutting moves, which can increase machining time. Unrestricted rapid moves are available with a Fusion 360 Subscription.)

(2D Pocket1)
T4
S5000 M3
G54
M8
G0 X-1.029 Y-1.099
Z5
G1 Z3 F1000
Z2.8
G3 X3.451 Y0 Z0.5 I2.106 J1.099 F333.3
X1.25 Y0 I-1.101 J0
X3.5 Y0 I1.125 J0 F1000
X-3.5 Y0 I-3.5 J0
X3.5 Y0 I3.5 J0
X3.173 Y0.096 I-0.178 J0
G1 X2.793 Y-0.504
X2.739 Y-1.189
G3 X3.065 Y-1.298 I0.177 J-0.012
X3.451 Y0 Z0 I-1.989 J1.298 F333.3
X1.25 Y0 I-1.101 J0
X3.5 Y0 I1.125 J0 F1000
X-3.5 Y0 I-3.5 J0
X3.5 Y0 I3.5 J0
X3.173 Y0.096 I-0.178 J0
G1 X2.793 Y-0.504
X2.739 Y-1.189
G3 X3.065 Y-1.298 I0.177 J-0.012
X3.451 Y0 Z-0.5 I-1.989 J1.298 F333.3
X1.25 Y0 I-1.101 J0
X3.5 Y0 I1.125 J0 F1000
X-3.5 Y0 I-3.5 J0
X3.5 Y0 I3.5 J0
X3.173 Y0.096 I-0.178 J0
G1 X2.793 Y-0.504
X2.739 Y-1.189
G3 X3.065 Y-1.298 I0.177 J-0.012
X3.451 Y0 Z-1 I-1.989 J1.298 F333.3
X1.25 Y0 I-1.101 J0
X3.5 Y0 I1.125 J0 F1000
X-3.5 Y0 I-3.5 J0
X3.5 Y0 I3.5 J0
X3.173 Y0.096 I-0.178 J0
G1 X2.793 Y-0.504
X2.739 Y-1.189
G3 X3.065 Y-1.298 I0.177 J-0.012
X3.451 Y0 Z-1.5 I-1.989 J1.298 F333.3
X1.25 Y0 I-1.101 J0
X3.5 Y0 I1.125 J0 F1000
X-3.5 Y0 I-3.5 J0
X3.5 Y0 I3.5 J0
X3.173 Y0.096 I-0.178 J0
G1 X2.793 Y-0.504
X2.739 Y-1.189
G3 X3.065 Y-1.298 I0.177 J-0.012
X3.451 Y0 Z-2 I-1.989 J1.298 F333.3
X1.25 Y0 I-1.101 J0
X3.5 Y0 I1.125 J0 F1000
X-3.5 Y0 I-3.5 J0
X3.5 Y0 I3.5 J0
X3.173 Y0.096 I-0.178 J0
G1 X2.793 Y-0.504
X2.739 Y-1.189
G3 X3.065 Y-1.298 I0.177 J-0.012
X3.451 Y0 Z-2.5 I-1.989 J1.298 F333.3
X1.25 Y0 I-1.101 J0
X3.5 Y0 I1.125 J0 F1000
X-3.5 Y0 I-3.5 J0
X3.5 Y0 I3.5 J0
X3.173 Y0.096 I-0.178 J0
G1 X2.793 Y-0.504
X2.739 Y-1.189
G3 X3.065 Y-1.298 I0.177 J-0.012
X3.451 Y0 Z-3 I-1.989 J1.298 F333.3
X1.25 Y0 I-1.101 J0
X3.5 Y0 I1.125 J0 F1000
X-3.5 Y0 I-3.5 J0
X3.5 Y0 I3.5 J0
X3.173 Y0.096 I-0.178 J0
G1 X2.793 Y-0.504
X2.739 Y-1.189
G3 X3.065 Y-1.298 I0.177 J-0.012
X3.451 Y0 Z-3.5 I-1.989 J1.298 F333.3
X1.25 Y0 I-1.101 J0
X3.5 Y0 I1.125 J0 F1000
X-3.5 Y0 I-3.5 J0
X3.5 Y0 I3.5 J0
X3.173 Y0.096 I-0.178 J0
G1 X2.793 Y-0.504
X2.739 Y-1.189
G3 X3.065 Y-1.298 I0.177 J-0.012
X3.451 Y0 Z-4 I-1.989 J1.298 F333.3
X1.25 Y0 I-1.101 J0
X3.5 Y0 I1.125 J0 F1000
X-3.5 Y0 I-3.5 J0
X3.5 Y0 I3.5 J0
X3.173 Y0.096 I-0.178 J0
G1 X2.793 Y-0.504
X2.739 Y-1.189
G3 X3.065 Y-1.298 I0.177 J-0.012
X3.451 Y0 Z-4.5 I-1.989 J1.298 F333.3
X1.25 Y0 I-1.101 J0
X3.5 Y0 I1.125 J0 F1000
X-3.5 Y0 I-3.5 J0
X3.5 Y0 I3.5 J0
X3.173 Y0.096 I-0.178 J0
G1 X2.793 Y-0.504
X2.739 Y-1.189
G3 X3.065 Y-1.298 I0.177 J-0.012
X3.451 Y0 Z-5 I-1.989 J1.298 F333.3
X1.25 Y0 I-1.101 J0
X3.5 Y0 I1.125 J0 F1000
X-3.5 Y0 I-3.5 J0
X3.5 Y0 I3.5 J0
X3.173 Y0.096 I-0.178 J0
G1 X2.793 Y-0.504
X2.739 Y-1.189
G3 X3.065 Y-1.298 I0.177 J-0.012
X3.451 Y0 Z-5.5 I-1.989 J1.298 F333.3
X1.25 Y0 I-1.101 J0
X3.5 Y0 I1.125 J0 F1000
X-3.5 Y0 I-3.5 J0
X3.5 Y0 I3.5 J0
X3.173 Y0.096 I-0.178 J0
G1 X2.793 Y-0.504
X2.739 Y-1.189
G3 X3.065 Y-1.298 I0.177 J-0.012
X3.451 Y0 Z-6 I-1.989 J1.298 F333.3
X1.25 Y0 I-1.101 J0
X3.5 Y0 I1.125 J0 F1000
X-3.5 Y0 I-3.5 J0
X3.5 Y0 I3.5 J0
X3.173 Y0.096 I-0.178 J0
G1 X2.793 Y-0.504
X2.739 Y-1.189
G3 X3.065 Y-1.298 I0.177 J-0.012
X3.451 Y0 Z-6.5 I-1.989 J1.298 F333.3
X1.25 Y0 I-1.101 J0
X3.5 Y0 I1.125 J0 F1000
X-3.5 Y0 I-3.5 J0
X3.5 Y0 I3.5 J0
X3.173 Y0.096 I-0.178 J0
G1 X2.793 Y-0.504
X2.739 Y-1.189
G3 X3.065 Y-1.298 I0.177 J-0.012
X3.451 Y0 Z-7 I-1.989 J1.298 F333.3
X1.25 Y0 I-1.101 J0
X3.5 Y0 I1.125 J0 F1000
X-3.5 Y0 I-3.5 J0
X3.5 Y0 I3.5 J0
X3.173 Y0.096 I-0.178 J0
G1 X2.793 Y-0.504
X2.739 Y-1.189
G3 X3.065 Y-1.298 I0.177 J-0.012
X3.451 Y0 Z-7.5 I-1.989 J1.298 F333.3
X1.25 Y0 I-1.101 J0
X3.5 Y0 I1.125 J0 F1000
X-3.5 Y0 I-3.5 J0
X3.5 Y0 I3.5 J0
X3.173 Y0.096 I-0.178 J0
G1 X2.793 Y-0.504
X2.739 Y-1.189
G3 X3.065 Y-1.298 I0.177 J-0.012
X3.451 Y0 Z-8 I-1.989 J1.298 F333.3
X1.25 Y0 I-1.101 J0
X3.5 Y0 I1.125 J0 F1000
X-3.5 Y0 I-3.5 J0
X3.5 Y0 I3.5 J0
X3.173 Y0.096 I-0.178 J0
G1 X2.793 Y-0.504
X2.739 Y-1.189
G3 X3.065 Y-1.298 I0.177 J-0.012
X3.451 Y0 Z-8.5 I-1.989 J1.298 F333.3
X1.25 Y0 I-1.101 J0
X3.5 Y0 I1.125 J0 F1000
X-3.5 Y0 I-3.5 J0
X3.5 Y0 I3.5 J0
X3.173 Y0.096 I-0.178 J0
G1 X2.793 Y-0.504
X2.739 Y-1.189
G3 X3.065 Y-1.298 I0.177 J-0.012
X3.451 Y0 Z-9 I-1.989 J1.298 F333.3
X1.25 Y0 I-1.101 J0
X3.5 Y0 I1.125 J0 F1000
X-3.5 Y0 I-3.5 J0
X3.5 Y0 I3.5 J0
X3.173 Y0.096 I-0.178 J0
G1 X2.793 Y-0.504
X2.739 Y-1.189
G3 X3.065 Y-1.298 I0.177 J-0.012
X3.451 Y0 Z-9.5 I-1.989 J1.298 F333.3
X1.25 Y0 I-1.101 J0
X3.5 Y0 I1.125 J0 F1000
X-3.5 Y0 I-3.5 J0
X3.5 Y0 I3.5 J0
X3.173 Y0.096 I-0.178 J0
G1 X2.793 Y-0.504
X2.739 Y-1.189
G3 X3.065 Y-1.298 I0.177 J-0.012
X3.451 Y0 Z-10 I-1.989 J1.298 F333.3
X1.25 Y0 I-1.101 J0
X3.5 Y0 I1.125 J0 F1000
X-3.5 Y0 I-3.5 J0
X3.5 Y0 I3.5 J0
X3.173 Y0.096 I-0.178 J0
G1 X2.793 Y-0.504
X2.739 Y-1.189
G3 X3.065 Y-1.298 I0.177 J-0.012
X3.451 Y0 Z-10.5 I-1.989 J1.298 F333.3
X1.25 Y0 I-1.101 J0
X3.5 Y0 I1.125 J0 F1000
X-3.5 Y0 I-3.5 J0
X3.5 Y0 I3.5 J0
X3.173 Y0.096 I-0.178 J0
G1 X2.793 Y-0.504
X2.739 Y-1.189
G3 X3.065 Y-1.298 I0.177 J-0.012
X3.451 Y0 Z-11 I-1.989 J1.298 F333.3
X1.25 Y0 I-1.101 J0
X3.5 Y0 I1.125 J0 F1000
X-3.5 Y0 I-3.5 J0
X3.5 Y0 I3.5 J0
X3.173 Y0.096 I-0.178 J0
G1 X2.793 Y-0.504
X2.739 Y-1.189
G3 X3.065 Y-1.298 I0.177 J-0.012
X3.451 Y0 Z-11.5 I-1.989 J1.298 F333.3
X1.25 Y0 I-1.101 J0
X3.5 Y0 I1.125 J0 F1000
X-3.5 Y0 I-3.5 J0
X3.5 Y0 I3.5 J0
X3.173 Y0.096 I-0.178 J0
G1 X2.793 Y-0.504
X2.739 Y-1.189
G3 X3.065 Y-1.298 I0.177 J-0.012
X3.451 Y0 Z-12 I-1.989 J1.298 F333.3
X1.25 Y0 I-1.101 J0
X3.5 Y0 I1.125 J0 F1000
X-3.5 Y0 I-3.5 J0
X3.5 Y0 I3.5 J0
X3.173 Y0.096 I-0.178 J0
G1 X2.793 Y-0.504
X2.739 Y-1.189
G3 X3.065 Y-1.298 I0.177 J-0.012
X3.451 Y0 Z-12.5 I-1.989 J1.298 F333.3
X1.25 Y0 I-1.101 J0
X3.5 Y0 I1.125 J0 F1000
X-3.5 Y0 I-3.5 J0
X3.5 Y0 I3.5 J0
X3.173 Y0.096 I-0.178 J0
G1 X2.793 Y-0.504
X2.739 Y-1.189
G3 X3.065 Y-1.298 I0.177 J-0.012
X3.451 Y0 Z-13 I-1.989 J1.298 F333.3
X1.25 Y0 I-1.101 J0
X3.5 Y0 I1.125 J0 F1000
X-3.5 Y0 I-3.5 J0
X3.5 Y0 I3.5 J0
X3.173 Y0.096 I-0.178 J0
G1 X2.793 Y-0.504
X2.739 Y-1.189
G3 X3.065 Y-1.298 I0.177 J-0.012
X3.451 Y0 Z-13.5 I-1.989 J1.298 F333.3
X1.25 Y0 I-1.101 J0
X3.5 Y0 I1.125 J0 F1000
X-3.5 Y0 I-3.5 J0
X3.5 Y0 I3.5 J0
X3.173 Y0.096 I-0.178 J0
G1 X2.793 Y-0.504
X2.739 Y-1.189
G3 X3.065 Y-1.298 I0.177 J-0.012
X3.451 Y0 Z-14 I-1.989 J1.298 F333.3
X1.25 Y0 I-1.101 J0
X3.5 Y0 I1.125 J0 F1000
X-3.5 Y0 I-3.5 J0
X3.5 Y0 I3.5 J0
X3.173 Y0.096 I-0.178 J0
G1 X2.793 Y-0.504
X2.739 Y-1.189
G3 X3.065 Y-1.298 I0.177 J-0.012
X3.451 Y0 Z-14.5 I-1.989 J1.298 F333.3
X1.25 Y0 I-1.101 J0
X3.5 Y0 I1.125 J0 F1000
X-3.5 Y0 I-3.5 J0
X3.5 Y0 I3.5 J0
X3.173 Y0.096 I-0.178 J0
G1 X2.793 Y-0.504
X2.739 Y-1.189
G3 X3.065 Y-1.298 I0.177 J-0.012
X3.451 Y0 Z-15 I-1.989 J1.298 F333.3
X1.25 Y0 I-1.101 J0
X3.5 Y0 I1.125 J0 F1000
X-3.5 Y0 I-3.5 J0
X3.5 Y0 I3.5 J0
X3.173 Y0.096 I-0.178 J0
G1 X2.793 Y-0.504
X2.739 Y-1.189
G3 X3.065 Y-1.298 I0.177 J-0.012
X3.451 Y0 Z-15.5 I-1.989 J1.298 F333.3
X1.25 Y0 I-1.101 J0
X3.5 Y0 I1.125 J0 F1000
X-3.5 Y0 I-3.5 J0
X3.5 Y0 I3.5 J0
X3.173 Y0.096 I-0.178 J0
G1 X2.793 Y-0.504
X2.739 Y-1.189
G3 X3.065 Y-1.298 I0.177 J-0.012
X3.451 Y0 Z-16 I-1.989 J1.298 F333.3
X1.25 Y0 I-1.101 J0
X3.5 Y0 I1.125 J0 F1000
X-3.5 Y0 I-3.5 J0
X3.5 Y0 I3.5 J0
X3.173 Y0.096 I-0.178 J0
G1 X2.793 Y-0.504
X2.739 Y-1.189
G3 X3.065 Y-1.298 I0.177 J-0.012
X3.451 Y0 Z-16.5 I-1.989 J1.298 F333.3
X1.25 Y0 I-1.101 J0
X3.5 Y0 I1.125 J0 F1000
X-3.5 Y0 I-3.5 J0
X3.5 Y0 I3.5 J0
X3.173 Y0.096 I-0.178 J0
G1 X2.793 Y-0.504
X2.739 Y-1.189
G3 X3.065 Y-1.298 I0.177 J-0.012
X3.451 Y0 Z-17 I-1.989 J1.298 F333.3
X1.25 Y0 I-1.101 J0
X3.5 Y0 I1.125 J0 F1000
X-3.5 Y0 I-3.5 J0
X3.5 Y0 I3.5 J0
X3.173 Y0.096 I-0.178 J0
G1 X2.793 Y-0.504
X2.739 Y-1.189
G3 X3.065 Y-1.298 I0.177 J-0.012
X3.451 Y0 Z-17.5 I-1.989 J1.298 F333.3
X1.25 Y0 I-1.101 J0
X3.5 Y0 I1.125 J0 F1000
X-3.5 Y0 I-3.5 J0
X3.5 Y0 I3.5 J0
X3.173 Y0.096 I-0.178 J0
G1 X2.793 Y-0.504
X2.739 Y-1.189
G3 X3.065 Y-1.298 I0.177 J-0.012
X3.451 Y0 Z-18 I-1.989 J1.298 F333.3
X1.25 Y0 I-1.101 J0
X3.5 Y0 I1.125 J0 F1000
X-3.5 Y0 I-3.5 J0
X3.5 Y0 I3.5 J0
X3.173 Y0.096 I-0.178 J0
G1 X2.793 Y-0.504
X2.739 Y-1.189
G3 X3.065 Y-1.298 I0.177 J-0.012
X3.451 Y0 Z-18.5 I-1.989 J1.298 F333.3
X1.25 Y0 I-1.101 J0
X3.5 Y0 I1.125 J0 F1000
X-3.5 Y0 I-3.5 J0
X3.5 Y0 I3.5 J0
X3.173 Y0.096 I-0.178 J0
G1 X2.793 Y-0.504
X2.739 Y-1.189
G3 X3.065 Y-1.298 I0.177 J-0.012
X3.451 Y0 Z-19 I-1.989 J1.298 F333.3
X1.25 Y0 I-1.101 J0
X3.5 Y0 I1.125 J0 F1000
X-3.5 Y0 I-3.5 J0
X3.5 Y0 I3.5 J0
G1 Z5
M9
M5
M30
