(1001)
(T3  D=3 CR=0 - ZMIN=-19 - flat end mill)
G90 G94
G17
G21
(When using Fusion 360 for Personal Use, the feedrate of )
(rapid moves is reduced to match the feedrate of cutting )
(moves, which can increase machining time. Unrestricted )
(rapid moves are available with a Fusion 360 Subscription. )

(2D Pocket1)
T3
S1000 M3
G54
M8
G0 X2.872 Y1.403
Z7
G1 Z3 F1000
Z2.8 F400
G3 X2.378 Y-1.403 Z1.9 I-0.247 J-1.403 F333.3
X2.872 Y1.403 Z1 I0.247 J1.403
X1.2 Y0 Z0.5 I-0.247 J-1.403
X1.65 Y0 I0.225 J0 F1000
X-1.65 Y0 I-1.65 J0
X4.5 Y0 I3.075 J0
X-4.5 Y0 I-4.5 J0
X4.5 Y0 I4.5 J0
G1 X4.495 Y0.046
X4.479 Y0.09
X4.453 Y0.129
X4.419 Y0.161
X4.378 Y0.184
X2.005 Y1.19
X1.956 Y1.204
X1.906 Y1.205
X1.857 Y1.194
X1.812 Y1.171
G3 X1.2 Y0 Z0 I0.813 J-1.171 F333.3
X1.65 Y0 I0.225 J0 F1000
X-1.65 Y0 I-1.65 J0
X4.5 Y0 I3.075 J0
X-4.5 Y0 I-4.5 J0
X4.5 Y0 I4.5 J0
G1 X4.495 Y0.046
X4.479 Y0.09
X4.453 Y0.129
X4.419 Y0.161
X4.378 Y0.184
X2.005 Y1.19
X1.956 Y1.204
X1.906 Y1.205
X1.857 Y1.194
X1.812 Y1.171
G3 X1.2 Y0 Z-0.5 I0.813 J-1.171 F333.3
X1.65 Y0 I0.225 J0 F1000
X-1.65 Y0 I-1.65 J0
X4.5 Y0 I3.075 J0
X-4.5 Y0 I-4.5 J0
X4.5 Y0 I4.5 J0
G1 X4.495 Y0.046
X4.479 Y0.09
X4.453 Y0.129
X4.419 Y0.161
X4.378 Y0.184
X2.005 Y1.19
X1.956 Y1.204
X1.906 Y1.205
X1.857 Y1.194
X1.812 Y1.171
G3 X1.2 Y0 Z-1 I0.813 J-1.171 F333.3
X1.65 Y0 I0.225 J0 F1000
X-1.65 Y0 I-1.65 J0
X4.5 Y0 I3.075 J0
X-4.5 Y0 I-4.5 J0
X4.5 Y0 I4.5 J0
G1 X4.495 Y0.046
X4.479 Y0.09
X4.453 Y0.129
X4.419 Y0.161
X4.378 Y0.184
X2.005 Y1.19
X1.956 Y1.204
X1.906 Y1.205
X1.857 Y1.194
X1.812 Y1.171
G3 X1.2 Y0 Z-1.5 I0.813 J-1.171 F333.3
X1.65 Y0 I0.225 J0 F1000
X-1.65 Y0 I-1.65 J0
X4.5 Y0 I3.075 J0
X-4.5 Y0 I-4.5 J0
X4.5 Y0 I4.5 J0
G1 X4.495 Y0.046
X4.479 Y0.09
X4.453 Y0.129
X4.419 Y0.161
X4.378 Y0.184
X2.005 Y1.19
X1.956 Y1.204
X1.906 Y1.205
X1.857 Y1.194
X1.812 Y1.171
G3 X1.2 Y0 Z-2 I0.813 J-1.171 F333.3
X1.65 Y0 I0.225 J0 F1000
X-1.65 Y0 I-1.65 J0
X4.5 Y0 I3.075 J0
X-4.5 Y0 I-4.5 J0
X4.5 Y0 I4.5 J0
G1 X4.495 Y0.046
X4.479 Y0.09
X4.453 Y0.129
X4.419 Y0.161
X4.378 Y0.184
X2.005 Y1.19
X1.956 Y1.204
X1.906 Y1.205
X1.857 Y1.194
X1.812 Y1.171
G3 X1.2 Y0 Z-2.5 I0.813 J-1.171 F333.3
X1.65 Y0 I0.225 J0 F1000
X-1.65 Y0 I-1.65 J0
X4.5 Y0 I3.075 J0
X-4.5 Y0 I-4.5 J0
X4.5 Y0 I4.5 J0
G1 X4.495 Y0.046
X4.479 Y0.09
X4.453 Y0.129
X4.419 Y0.161
X4.378 Y0.184
X2.005 Y1.19
X1.956 Y1.204
X1.906 Y1.205
X1.857 Y1.194
X1.812 Y1.171
G3 X1.2 Y0 Z-3 I0.813 J-1.171 F333.3
X1.65 Y0 I0.225 J0 F1000
X-1.65 Y0 I-1.65 J0
X4.5 Y0 I3.075 J0
X-4.5 Y0 I-4.5 J0
X4.5 Y0 I4.5 J0
G1 X4.495 Y0.046
X4.479 Y0.09
X4.453 Y0.129
X4.419 Y0.161
X4.378 Y0.184
X2.005 Y1.19
X1.956 Y1.204
X1.906 Y1.205
X1.857 Y1.194
X1.812 Y1.171
G3 X1.2 Y0 Z-3.5 I0.813 J-1.171 F333.3
X1.65 Y0 I0.225 J0 F1000
X-1.65 Y0 I-1.65 J0
X4.5 Y0 I3.075 J0
X-4.5 Y0 I-4.5 J0
X4.5 Y0 I4.5 J0
G1 X4.495 Y0.046
X4.479 Y0.09
X4.453 Y0.129
X4.419 Y0.161
X4.378 Y0.184
X2.005 Y1.19
X1.956 Y1.204
X1.906 Y1.205
X1.857 Y1.194
X1.812 Y1.171
G3 X1.2 Y0 Z-4 I0.813 J-1.171 F333.3
X1.65 Y0 I0.225 J0 F1000
X-1.65 Y0 I-1.65 J0
X4.5 Y0 I3.075 J0
X-4.5 Y0 I-4.5 J0
X4.5 Y0 I4.5 J0
G1 X4.495 Y0.046
X4.479 Y0.09
X4.453 Y0.129
X4.419 Y0.161
X4.378 Y0.184
X2.005 Y1.19
X1.956 Y1.204
X1.906 Y1.205
X1.857 Y1.194
X1.812 Y1.171
G3 X1.2 Y0 Z-4.5 I0.813 J-1.171 F333.3
X1.65 Y0 I0.225 J0 F1000
X-1.65 Y0 I-1.65 J0
X4.5 Y0 I3.075 J0
X-4.5 Y0 I-4.5 J0
X4.5 Y0 I4.5 J0
G1 X4.495 Y0.046
X4.479 Y0.09
X4.453 Y0.129
X4.419 Y0.161
X4.378 Y0.184
X2.005 Y1.19
X1.956 Y1.204
X1.906 Y1.205
X1.857 Y1.194
X1.812 Y1.171
G3 X1.2 Y0 Z-5 I0.813 J-1.171 F333.3
X1.65 Y0 I0.225 J0 F1000
X-1.65 Y0 I-1.65 J0
X4.5 Y0 I3.075 J0
X-4.5 Y0 I-4.5 J0
X4.5 Y0 I4.5 J0
G1 X4.495 Y0.046
X4.479 Y0.09
X4.453 Y0.129
X4.419 Y0.161
X4.378 Y0.184
X2.005 Y1.19
X1.956 Y1.204
X1.906 Y1.205
X1.857 Y1.194
X1.812 Y1.171
G3 X1.2 Y0 Z-5.5 I0.813 J-1.171 F333.3
X1.65 Y0 I0.225 J0 F1000
X-1.65 Y0 I-1.65 J0
X4.5 Y0 I3.075 J0
X-4.5 Y0 I-4.5 J0
X4.5 Y0 I4.5 J0
G1 X4.495 Y0.046
X4.479 Y0.09
X4.453 Y0.129
X4.419 Y0.161
X4.378 Y0.184
X2.005 Y1.19
X1.956 Y1.204
X1.906 Y1.205
X1.857 Y1.194
X1.812 Y1.171
G3 X1.2 Y0 Z-6 I0.813 J-1.171 F333.3
X1.65 Y0 I0.225 J0 F1000
X-1.65 Y0 I-1.65 J0
X4.5 Y0 I3.075 J0
X-4.5 Y0 I-4.5 J0
X4.5 Y0 I4.5 J0
G1 X4.495 Y0.046
X4.479 Y0.09
X4.453 Y0.129
X4.419 Y0.161
X4.378 Y0.184
X2.005 Y1.19
X1.956 Y1.204
X1.906 Y1.205
X1.857 Y1.194
X1.812 Y1.171
G3 X1.2 Y0 Z-6.5 I0.813 J-1.171 F333.3
X1.65 Y0 I0.225 J0 F1000
X-1.65 Y0 I-1.65 J0
X4.5 Y0 I3.075 J0
X-4.5 Y0 I-4.5 J0
X4.5 Y0 I4.5 J0
G1 X4.495 Y0.046
X4.479 Y0.09
X4.453 Y0.129
X4.419 Y0.161
X4.378 Y0.184
X2.005 Y1.19
X1.956 Y1.204
X1.906 Y1.205
X1.857 Y1.194
X1.812 Y1.171
G3 X1.2 Y0 Z-7 I0.813 J-1.171 F333.3
X1.65 Y0 I0.225 J0 F1000
X-1.65 Y0 I-1.65 J0
X4.5 Y0 I3.075 J0
X-4.5 Y0 I-4.5 J0
X4.5 Y0 I4.5 J0
G1 X4.495 Y0.046
X4.479 Y0.09
X4.453 Y0.129
X4.419 Y0.161
X4.378 Y0.184
X2.005 Y1.19
X1.956 Y1.204
X1.906 Y1.205
X1.857 Y1.194
X1.812 Y1.171
G3 X1.2 Y0 Z-7.5 I0.813 J-1.171 F333.3
X1.65 Y0 I0.225 J0 F1000
X-1.65 Y0 I-1.65 J0
X4.5 Y0 I3.075 J0
X-4.5 Y0 I-4.5 J0
X4.5 Y0 I4.5 J0
G1 X4.495 Y0.046
X4.479 Y0.09
X4.453 Y0.129
X4.419 Y0.161
X4.378 Y0.184
X2.005 Y1.19
X1.956 Y1.204
X1.906 Y1.205
X1.857 Y1.194
X1.812 Y1.171
G3 X1.2 Y0 Z-8 I0.813 J-1.171 F333.3
X1.65 Y0 I0.225 J0 F1000
X-1.65 Y0 I-1.65 J0
X4.5 Y0 I3.075 J0
X-4.5 Y0 I-4.5 J0
X4.5 Y0 I4.5 J0
G1 X4.495 Y0.046
X4.479 Y0.09
X4.453 Y0.129
X4.419 Y0.161
X4.378 Y0.184
X2.005 Y1.19
X1.956 Y1.204
X1.906 Y1.205
X1.857 Y1.194
X1.812 Y1.171
G3 X1.2 Y0 Z-8.5 I0.813 J-1.171 F333.3
X1.65 Y0 I0.225 J0 F1000
X-1.65 Y0 I-1.65 J0
X4.5 Y0 I3.075 J0
X-4.5 Y0 I-4.5 J0
X4.5 Y0 I4.5 J0
G1 X4.495 Y0.046
X4.479 Y0.09
X4.453 Y0.129
X4.419 Y0.161
X4.378 Y0.184
X2.005 Y1.19
X1.956 Y1.204
X1.906 Y1.205
X1.857 Y1.194
X1.812 Y1.171
G3 X1.2 Y0 Z-9 I0.813 J-1.171 F333.3
X1.65 Y0 I0.225 J0 F1000
X-1.65 Y0 I-1.65 J0
X4.5 Y0 I3.075 J0
X-4.5 Y0 I-4.5 J0
X4.5 Y0 I4.5 J0
G1 X4.495 Y0.046
X4.479 Y0.09
X4.453 Y0.129
X4.419 Y0.161
X4.378 Y0.184
X2.005 Y1.19
X1.956 Y1.204
X1.906 Y1.205
X1.857 Y1.194
X1.812 Y1.171
G3 X1.2 Y0 Z-9.5 I0.813 J-1.171 F333.3
X1.65 Y0 I0.225 J0 F1000
X-1.65 Y0 I-1.65 J0
X4.5 Y0 I3.075 J0
X-4.5 Y0 I-4.5 J0
X4.5 Y0 I4.5 J0
G1 X4.495 Y0.046
X4.479 Y0.09
X4.453 Y0.129
X4.419 Y0.161
X4.378 Y0.184
X2.005 Y1.19
X1.956 Y1.204
X1.906 Y1.205
X1.857 Y1.194
X1.812 Y1.171
G3 X1.2 Y0 Z-10 I0.813 J-1.171 F333.3
X1.65 Y0 I0.225 J0 F1000
X-1.65 Y0 I-1.65 J0
X4.5 Y0 I3.075 J0
X-4.5 Y0 I-4.5 J0
X4.5 Y0 I4.5 J0
G1 X4.495 Y0.046
X4.479 Y0.09
X4.453 Y0.129
X4.419 Y0.161
X4.378 Y0.184
X2.005 Y1.19
X1.956 Y1.204
X1.906 Y1.205
X1.857 Y1.194
X1.812 Y1.171
G3 X1.2 Y0 Z-10.5 I0.813 J-1.171 F333.3
X1.65 Y0 I0.225 J0 F1000
X-1.65 Y0 I-1.65 J0
X4.5 Y0 I3.075 J0
X-4.5 Y0 I-4.5 J0
X4.5 Y0 I4.5 J0
G1 X4.495 Y0.046
X4.479 Y0.09
X4.453 Y0.129
X4.419 Y0.161
X4.378 Y0.184
X2.005 Y1.19
X1.956 Y1.204
X1.906 Y1.205
X1.857 Y1.194
X1.812 Y1.171
G3 X1.2 Y0 Z-11 I0.813 J-1.171 F333.3
X1.65 Y0 I0.225 J0 F1000
X-1.65 Y0 I-1.65 J0
X4.5 Y0 I3.075 J0
X-4.5 Y0 I-4.5 J0
X4.5 Y0 I4.5 J0
G1 X4.495 Y0.046
X4.479 Y0.09
X4.453 Y0.129
X4.419 Y0.161
X4.378 Y0.184
X2.005 Y1.19
X1.956 Y1.204
X1.906 Y1.205
X1.857 Y1.194
X1.812 Y1.171
G3 X1.2 Y0 Z-11.5 I0.813 J-1.171 F333.3
X1.65 Y0 I0.225 J0 F1000
X-1.65 Y0 I-1.65 J0
X4.5 Y0 I3.075 J0
X-4.5 Y0 I-4.5 J0
X4.5 Y0 I4.5 J0
G1 X4.495 Y0.046
X4.479 Y0.09
X4.453 Y0.129
X4.419 Y0.161
X4.378 Y0.184
X2.005 Y1.19
X1.956 Y1.204
X1.906 Y1.205
X1.857 Y1.194
X1.812 Y1.171
G3 X1.2 Y0 Z-12 I0.813 J-1.171 F333.3
X1.65 Y0 I0.225 J0 F1000
X-1.65 Y0 I-1.65 J0
X4.5 Y0 I3.075 J0
X-4.5 Y0 I-4.5 J0
X4.5 Y0 I4.5 J0
G1 X4.495 Y0.046
X4.479 Y0.09
X4.453 Y0.129
X4.419 Y0.161
X4.378 Y0.184
X2.005 Y1.19
X1.956 Y1.204
X1.906 Y1.205
X1.857 Y1.194
X1.812 Y1.171
G3 X1.2 Y0 Z-12.5 I0.813 J-1.171 F333.3
X1.65 Y0 I0.225 J0 F1000
X-1.65 Y0 I-1.65 J0
X4.5 Y0 I3.075 J0
X-4.5 Y0 I-4.5 J0
X4.5 Y0 I4.5 J0
G1 X4.495 Y0.046
X4.479 Y0.09
X4.453 Y0.129
X4.419 Y0.161
X4.378 Y0.184
X2.005 Y1.19
X1.956 Y1.204
X1.906 Y1.205
X1.857 Y1.194
X1.812 Y1.171
G3 X1.2 Y0 Z-13 I0.813 J-1.171 F333.3
X1.65 Y0 I0.225 J0 F1000
X-1.65 Y0 I-1.65 J0
X4.5 Y0 I3.075 J0
X-4.5 Y0 I-4.5 J0
X4.5 Y0 I4.5 J0
G1 X4.495 Y0.046
X4.479 Y0.09
X4.453 Y0.129
X4.419 Y0.161
X4.378 Y0.184
X2.005 Y1.19
X1.956 Y1.204
X1.906 Y1.205
X1.857 Y1.194
X1.812 Y1.171
G3 X1.2 Y0 Z-13.5 I0.813 J-1.171 F333.3
X1.65 Y0 I0.225 J0 F1000
X-1.65 Y0 I-1.65 J0
X4.5 Y0 I3.075 J0
X-4.5 Y0 I-4.5 J0
X4.5 Y0 I4.5 J0
G1 X4.495 Y0.046
X4.479 Y0.09
X4.453 Y0.129
X4.419 Y0.161
X4.378 Y0.184
X2.005 Y1.19
X1.956 Y1.204
X1.906 Y1.205
X1.857 Y1.194
X1.812 Y1.171
G3 X1.2 Y0 Z-14 I0.813 J-1.171 F333.3
X1.65 Y0 I0.225 J0 F1000
X-1.65 Y0 I-1.65 J0
X4.5 Y0 I3.075 J0
X-4.5 Y0 I-4.5 J0
X4.5 Y0 I4.5 J0
G1 X4.495 Y0.046
X4.479 Y0.09
X4.453 Y0.129
X4.419 Y0.161
X4.378 Y0.184
X2.005 Y1.19
X1.956 Y1.204
X1.906 Y1.205
X1.857 Y1.194
X1.812 Y1.171
G3 X1.2 Y0 Z-14.5 I0.813 J-1.171 F333.3
X1.65 Y0 I0.225 J0 F1000
X-1.65 Y0 I-1.65 J0
X4.5 Y0 I3.075 J0
X-4.5 Y0 I-4.5 J0
X4.5 Y0 I4.5 J0
G1 X4.495 Y0.046
X4.479 Y0.09
X4.453 Y0.129
X4.419 Y0.161
X4.378 Y0.184
X2.005 Y1.19
X1.956 Y1.204
X1.906 Y1.205
X1.857 Y1.194
X1.812 Y1.171
G3 X1.2 Y0 Z-15 I0.813 J-1.171 F333.3
X1.65 Y0 I0.225 J0 F1000
X-1.65 Y0 I-1.65 J0
X4.5 Y0 I3.075 J0
X-4.5 Y0 I-4.5 J0
X4.5 Y0 I4.5 J0
G1 X4.495 Y0.046
X4.479 Y0.09
X4.453 Y0.129
X4.419 Y0.161
X4.378 Y0.184
X2.005 Y1.19
X1.956 Y1.204
X1.906 Y1.205
X1.857 Y1.194
X1.812 Y1.171
G3 X1.2 Y0 Z-15.5 I0.813 J-1.171 F333.3
X1.65 Y0 I0.225 J0 F1000
X-1.65 Y0 I-1.65 J0
X4.5 Y0 I3.075 J0
X-4.5 Y0 I-4.5 J0
X4.5 Y0 I4.5 J0
G1 X4.495 Y0.046
X4.479 Y0.09
X4.453 Y0.129
X4.419 Y0.161
X4.378 Y0.184
X2.005 Y1.19
X1.956 Y1.204
X1.906 Y1.205
X1.857 Y1.194
X1.812 Y1.171
G3 X1.2 Y0 Z-16 I0.813 J-1.171 F333.3
X1.65 Y0 I0.225 J0 F1000
X-1.65 Y0 I-1.65 J0
X4.5 Y0 I3.075 J0
X-4.5 Y0 I-4.5 J0
X4.5 Y0 I4.5 J0
G1 X4.495 Y0.046
X4.479 Y0.09
X4.453 Y0.129
X4.419 Y0.161
X4.378 Y0.184
X2.005 Y1.19
X1.956 Y1.204
X1.906 Y1.205
X1.857 Y1.194
X1.812 Y1.171
G3 X1.2 Y0 Z-16.5 I0.813 J-1.171 F333.3
X1.65 Y0 I0.225 J0 F1000
X-1.65 Y0 I-1.65 J0
X4.5 Y0 I3.075 J0
X-4.5 Y0 I-4.5 J0
X4.5 Y0 I4.5 J0
G1 X4.495 Y0.046
X4.479 Y0.09
X4.453 Y0.129
X4.419 Y0.161
X4.378 Y0.184
X2.005 Y1.19
X1.956 Y1.204
X1.906 Y1.205
X1.857 Y1.194
X1.812 Y1.171
G3 X1.2 Y0 Z-17 I0.813 J-1.171 F333.3
X1.65 Y0 I0.225 J0 F1000
X-1.65 Y0 I-1.65 J0
X4.5 Y0 I3.075 J0
X-4.5 Y0 I-4.5 J0
X4.5 Y0 I4.5 J0
G1 X4.495 Y0.046
X4.479 Y0.09
X4.453 Y0.129
X4.419 Y0.161
X4.378 Y0.184
X2.005 Y1.19
X1.956 Y1.204
X1.906 Y1.205
X1.857 Y1.194
X1.812 Y1.171
G3 X1.2 Y0 Z-17.5 I0.813 J-1.171 F333.3
X1.65 Y0 I0.225 J0 F1000
X-1.65 Y0 I-1.65 J0
X4.5 Y0 I3.075 J0
X-4.5 Y0 I-4.5 J0
X4.5 Y0 I4.5 J0
G1 X4.495 Y0.046
X4.479 Y0.09
X4.453 Y0.129
X4.419 Y0.161
X4.378 Y0.184
X2.005 Y1.19
X1.956 Y1.204
X1.906 Y1.205
X1.857 Y1.194
X1.812 Y1.171
G3 X1.2 Y0 Z-18 I0.813 J-1.171 F333.3
X1.65 Y0 I0.225 J0 F1000
X-1.65 Y0 I-1.65 J0
X4.5 Y0 I3.075 J0
X-4.5 Y0 I-4.5 J0
X4.5 Y0 I4.5 J0
G1 X4.495 Y0.046
X4.479 Y0.09
X4.453 Y0.129
X4.419 Y0.161
X4.378 Y0.184
X2.005 Y1.19
X1.956 Y1.204
X1.906 Y1.205
X1.857 Y1.194
X1.812 Y1.171
G3 X1.2 Y0 Z-18.5 I0.813 J-1.171 F333.3
X1.65 Y0 I0.225 J0 F1000
X-1.65 Y0 I-1.65 J0
X4.5 Y0 I3.075 J0
X-4.5 Y0 I-4.5 J0
X4.5 Y0 I4.5 J0
G1 X4.495 Y0.046
X4.479 Y0.09
X4.453 Y0.129
X4.419 Y0.161
X4.378 Y0.184
X2.005 Y1.19
X1.956 Y1.204
X1.906 Y1.205
X1.857 Y1.194
X1.812 Y1.171
G3 X1.2 Y0 Z-19 I0.813 J-1.171 F333.3
X1.65 Y0 I0.225 J0 F1000
X-1.65 Y0 I-1.65 J0
X4.5 Y0 I3.075 J0
X-4.5 Y0 I-4.5 J0
X4.5 Y0 I4.5 J0
G1 Z7
M9
M5
M30
