(1001)
(T3  D=3 CR=0 - ZMIN=-19 - flat end mill)
G90 G94
G17
G21
(When using Fusion 360 for Personal Use, the feedrate of )
(rapid moves is reduced to match the feedrate of cutting )
(moves, which can increase machining time. Unrestricted )
(rapid moves are available with a Fusion 360 Subscription. )

(2D Contour1)
T3
S1000 M3
G54
M8
G0 X13.5 Y0
Z7
G1 Z3 F1000
Z2.5 F333.3
Z0.5
G3 X-13.5 Y0 I-13.5 J0 F1000
X13.5 Y0 I13.5 J0
G1 Z0 F333.3
G3 X-13.5 Y0 I-13.5 J0 F1000
X13.5 Y0 I13.5 J0
G1 Z-0.5 F333.3
G3 X-13.5 Y0 I-13.5 J0 F1000
X13.5 Y0 I13.5 J0
G1 Z-1 F333.3
G3 X-13.5 Y0 I-13.5 J0 F1000
X13.5 Y0 I13.5 J0
G1 Z-1.5 F333.3
G3 X-13.5 Y0 I-13.5 J0 F1000
X13.5 Y0 I13.5 J0
G1 Z-2 F333.3
G3 X-13.5 Y0 I-13.5 J0 F1000
X13.5 Y0 I13.5 J0
G1 Z-2.5 F333.3
G3 X-13.5 Y0 I-13.5 J0 F1000
X13.5 Y0 I13.5 J0
G1 Z-3 F333.3
G3 X-13.5 Y0 I-13.5 J0 F1000
X13.5 Y0 I13.5 J0
G1 Z-3.5 F333.3
G3 X-13.5 Y0 I-13.5 J0 F1000
X13.5 Y0 I13.5 J0
G1 Z-4 F333.3
G3 X-13.5 Y0 I-13.5 J0 F1000
X13.5 Y0 I13.5 J0
G1 Z-4.5 F333.3
G3 X-13.5 Y0 I-13.5 J0 F1000
X13.5 Y0 I13.5 J0
G1 Z-5 F333.3
G3 X-13.5 Y0 I-13.5 J0 F1000
X13.5 Y0 I13.5 J0
G1 Z-5.5 F333.3
G3 X-13.5 Y0 I-13.5 J0 F1000
X13.5 Y0 I13.5 J0
G1 Z-6 F333.3
G3 X-13.5 Y0 I-13.5 J0 F1000
X13.5 Y0 I13.5 J0
G1 Z-6.5 F333.3
G3 X-13.5 Y0 I-13.5 J0 F1000
X13.5 Y0 I13.5 J0
G1 Z-7 F333.3
G3 X-13.5 Y0 I-13.5 J0 F1000
X13.5 Y0 I13.5 J0
G1 Z-7.5 F333.3
G3 X-13.5 Y0 I-13.5 J0 F1000
X13.5 Y0 I13.5 J0
G1 Z-8 F333.3
G3 X-13.5 Y0 I-13.5 J0 F1000
X13.5 Y0 I13.5 J0
G1 Z-8.5 F333.3
G3 X-13.5 Y0 I-13.5 J0 F1000
X13.5 Y0 I13.5 J0
G1 Z-9 F333.3
G3 X-13.5 Y0 I-13.5 J0 F1000
X13.5 Y0 I13.5 J0
G1 Z-9.5 F333.3
G3 X-13.5 Y0 I-13.5 J0 F1000
X13.5 Y0 I13.5 J0
G1 Z-10 F333.3
G3 X-13.5 Y0 I-13.5 J0 F1000
X13.5 Y0 I13.5 J0
G1 Z-10.5 F333.3
G3 X-13.5 Y0 I-13.5 J0 F1000
X13.5 Y0 I13.5 J0
G1 Z-11 F333.3
G3 X-13.5 Y0 I-13.5 J0 F1000
X13.5 Y0 I13.5 J0
G1 Z-11.5 F333.3
G3 X-13.5 Y0 I-13.5 J0 F1000
X13.5 Y0 I13.5 J0
G1 Z-12 F333.3
G3 X-13.5 Y0 I-13.5 J0 F1000
X13.5 Y0 I13.5 J0
G1 Z-12.5 F333.3
G3 X-13.5 Y0 I-13.5 J0 F1000
X13.5 Y0 I13.5 J0
G1 Z-13 F333.3
G3 X-13.5 Y0 I-13.5 J0 F1000
X13.5 Y0 I13.5 J0
G1 Z-13.5 F333.3
G3 X-13.5 Y0 I-13.5 J0 F1000
X13.5 Y0 I13.5 J0
G1 Z-14 F333.3
G3 X-13.5 Y0 I-13.5 J0 F1000
X13.5 Y0 I13.5 J0
G1 Z-14.5 F333.3
G3 X-13.5 Y0 I-13.5 J0 F1000
X13.5 Y0 I13.5 J0
G1 Z-15 F333.3
G3 X-13.5 Y0 I-13.5 J0 F1000
X13.5 Y0 I13.5 J0
G1 Z-15.5 F333.3
G3 X-13.5 Y0 I-13.5 J0 F1000
X13.5 Y0 I13.5 J0
G1 Z-16 F333.3
G3 X-13.5 Y0 I-13.5 J0 F1000
X13.5 Y0 I13.5 J0
G1 Z-16.5 F333.3
G3 X-13.5 Y0 I-13.5 J0 F1000
X13.5 Y0 I13.5 J0
G1 Z-17 F333.3
G3 X-13.5 Y0 I-13.5 J0 F1000
X13.5 Y0 I13.5 J0
G1 Z-17.5 F333.3
G3 X-13.5 Y0 I-13.5 J0 F1000
X13.5 Y0 I13.5 J0
G1 Z-18 F333.3
G3 X-13.5 Y0 I-13.5 J0 F1000
X13.5 Y0 I13.5 J0
G1 Z-18.5 F333.3
G3 X-13.5 Y0 I-13.5 J0 F1000
X13.5 Y0 I13.5 J0
G1 Z-19 F333.3
G3 X-13.5 Y0 I-13.5 J0 F1000
X13.5 Y0 I13.5 J0
G1 Z7
M9
M5
M30
