(1001)
(Machine)
(  vendor: Autodesk)
(  description: Generic 3-axis)
(T4  D=5 CR=0 - ZMIN=-19 - flat end mill)
G90 G94
G17
G21
(When using Fusion 360 for Personal Use, the feedrate of rapid moves is reduced to match the feedrate of cutting moves, which can increase machining time. Unrestricted rapid moves are available with a Fusion 360 Subscription.)

(2D Pocket1 2)
T4
S5000 M3
G54
M8
G0 X6.231 Y1.099
Z5
G1 Z3 F1000
Z2.8
G3 X1.75 Y0 Z0.5 I-2.106 J-1.099 F333.3
X3 Y0 I0.625 J0 F1000
X-3 Y0 I-3 J0
X7.75 Y0 I5.375 J0
X-7.75 Y0 I-7.75 J0
X12.5 Y0 I10.125 J0
X-12.5 Y0 I-12.5 J0
X12.5 Y0 I12.5 J0
X11.399 Y0.878 I-0.901 J0
G1 X7.27 Y-0.067
G2 X6.681 Y-0.002 I-0.201 J0.878
G1 X3.278 Y1.619
G3 X2.136 Y1.298 I-0.387 J-0.813
X1.75 Y0 Z0 I1.989 J-1.298 F333.3
X3 Y0 I0.625 J0 F1000
X-3 Y0 I-3 J0
X7.75 Y0 I5.375 J0
X-7.75 Y0 I-7.75 J0
X12.5 Y0 I10.125 J0
X-12.5 Y0 I-12.5 J0
X12.5 Y0 I12.5 J0
X11.399 Y0.878 I-0.901 J0
G1 X7.27 Y-0.067
G2 X6.681 Y-0.002 I-0.201 J0.878
G1 X3.278 Y1.619
G3 X2.136 Y1.298 I-0.387 J-0.813
X1.75 Y0 Z-0.5 I1.989 J-1.298 F333.3
X3 Y0 I0.625 J0 F1000
X-3 Y0 I-3 J0
X7.75 Y0 I5.375 J0
X-7.75 Y0 I-7.75 J0
X12.5 Y0 I10.125 J0
X-12.5 Y0 I-12.5 J0
X12.5 Y0 I12.5 J0
X11.399 Y0.878 I-0.901 J0
G1 X7.27 Y-0.067
G2 X6.681 Y-0.002 I-0.201 J0.878
G1 X3.278 Y1.619
G3 X2.136 Y1.298 I-0.387 J-0.813
X1.75 Y0 Z-1 I1.989 J-1.298 F333.3
X3 Y0 I0.625 J0 F1000
X-3 Y0 I-3 J0
X7.75 Y0 I5.375 J0
X-7.75 Y0 I-7.75 J0
X12.5 Y0 I10.125 J0
X-12.5 Y0 I-12.5 J0
X12.5 Y0 I12.5 J0
X11.399 Y0.878 I-0.901 J0
G1 X7.27 Y-0.067
G2 X6.681 Y-0.002 I-0.201 J0.878
G1 X3.278 Y1.619
G3 X2.136 Y1.298 I-0.387 J-0.813
X1.75 Y0 Z-1.5 I1.989 J-1.298 F333.3
X3 Y0 I0.625 J0 F1000
X-3 Y0 I-3 J0
X7.75 Y0 I5.375 J0
X-7.75 Y0 I-7.75 J0
X12.5 Y0 I10.125 J0
X-12.5 Y0 I-12.5 J0
X12.5 Y0 I12.5 J0
X11.399 Y0.878 I-0.901 J0
G1 X7.27 Y-0.067
G2 X6.681 Y-0.002 I-0.201 J0.878
G1 X3.278 Y1.619
G3 X2.136 Y1.298 I-0.387 J-0.813
X1.75 Y0 Z-2 I1.989 J-1.298 F333.3
X3 Y0 I0.625 J0 F1000
X-3 Y0 I-3 J0
X7.75 Y0 I5.375 J0
X-7.75 Y0 I-7.75 J0
X12.5 Y0 I10.125 J0
X-12.5 Y0 I-12.5 J0
X12.5 Y0 I12.5 J0
X11.399 Y0.878 I-0.901 J0
G1 X7.27 Y-0.067
G2 X6.681 Y-0.002 I-0.201 J0.878
G1 X3.278 Y1.619
G3 X2.136 Y1.298 I-0.387 J-0.813
X1.75 Y0 Z-2.5 I1.989 J-1.298 F333.3
X3 Y0 I0.625 J0 F1000
X-3 Y0 I-3 J0
X7.75 Y0 I5.375 J0
X-7.75 Y0 I-7.75 J0
X12.5 Y0 I10.125 J0
X-12.5 Y0 I-12.5 J0
X12.5 Y0 I12.5 J0
X11.399 Y0.878 I-0.901 J0
G1 X7.27 Y-0.067
G2 X6.681 Y-0.002 I-0.201 J0.878
G1 X3.278 Y1.619
G3 X2.136 Y1.298 I-0.387 J-0.813
X1.75 Y0 Z-3 I1.989 J-1.298 F333.3
X3 Y0 I0.625 J0 F1000
X-3 Y0 I-3 J0
X7.75 Y0 I5.375 J0
X-7.75 Y0 I-7.75 J0
X12.5 Y0 I10.125 J0
X-12.5 Y0 I-12.5 J0
X12.5 Y0 I12.5 J0
X11.399 Y0.878 I-0.901 J0
G1 X7.27 Y-0.067
G2 X6.681 Y-0.002 I-0.201 J0.878
G1 X3.278 Y1.619
G3 X2.136 Y1.298 I-0.387 J-0.813
X1.75 Y0 Z-3.5 I1.989 J-1.298 F333.3
X3 Y0 I0.625 J0 F1000
X-3 Y0 I-3 J0
X7.75 Y0 I5.375 J0
X-7.75 Y0 I-7.75 J0
X12.5 Y0 I10.125 J0
X-12.5 Y0 I-12.5 J0
X12.5 Y0 I12.5 J0
X11.399 Y0.878 I-0.901 J0
G1 X7.27 Y-0.067
G2 X6.681 Y-0.002 I-0.201 J0.878
G1 X3.278 Y1.619
G3 X2.136 Y1.298 I-0.387 J-0.813
X1.75 Y0 Z-4 I1.989 J-1.298 F333.3
X3 Y0 I0.625 J0 F1000
X-3 Y0 I-3 J0
X7.75 Y0 I5.375 J0
X-7.75 Y0 I-7.75 J0
X12.5 Y0 I10.125 J0
X-12.5 Y0 I-12.5 J0
X12.5 Y0 I12.5 J0
X11.399 Y0.878 I-0.901 J0
G1 X7.27 Y-0.067
G2 X6.681 Y-0.002 I-0.201 J0.878
G1 X3.278 Y1.619
G3 X2.136 Y1.298 I-0.387 J-0.813
X1.75 Y0 Z-4.5 I1.989 J-1.298 F333.3
X3 Y0 I0.625 J0 F1000
X-3 Y0 I-3 J0
X7.75 Y0 I5.375 J0
X-7.75 Y0 I-7.75 J0
X12.5 Y0 I10.125 J0
X-12.5 Y0 I-12.5 J0
X12.5 Y0 I12.5 J0
X11.399 Y0.878 I-0.901 J0
G1 X7.27 Y-0.067
G2 X6.681 Y-0.002 I-0.201 J0.878
G1 X3.278 Y1.619
G3 X2.136 Y1.298 I-0.387 J-0.813
X1.75 Y0 Z-5 I1.989 J-1.298 F333.3
X3 Y0 I0.625 J0 F1000
X-3 Y0 I-3 J0
X7.75 Y0 I5.375 J0
X-7.75 Y0 I-7.75 J0
X12.5 Y0 I10.125 J0
X-12.5 Y0 I-12.5 J0
X12.5 Y0 I12.5 J0
X11.399 Y0.878 I-0.901 J0
G1 X7.27 Y-0.067
G2 X6.681 Y-0.002 I-0.201 J0.878
G1 X3.278 Y1.619
G3 X2.136 Y1.298 I-0.387 J-0.813
X1.75 Y0 Z-5.5 I1.989 J-1.298 F333.3
X3 Y0 I0.625 J0 F1000
X-3 Y0 I-3 J0
X7.75 Y0 I5.375 J0
X-7.75 Y0 I-7.75 J0
X12.5 Y0 I10.125 J0
X-12.5 Y0 I-12.5 J0
X12.5 Y0 I12.5 J0
X11.399 Y0.878 I-0.901 J0
G1 X7.27 Y-0.067
G2 X6.681 Y-0.002 I-0.201 J0.878
G1 X3.278 Y1.619
G3 X2.136 Y1.298 I-0.387 J-0.813
X1.75 Y0 Z-6 I1.989 J-1.298 F333.3
X3 Y0 I0.625 J0 F1000
X-3 Y0 I-3 J0
X7.75 Y0 I5.375 J0
X-7.75 Y0 I-7.75 J0
X12.5 Y0 I10.125 J0
X-12.5 Y0 I-12.5 J0
X12.5 Y0 I12.5 J0
X11.399 Y0.878 I-0.901 J0
G1 X7.27 Y-0.067
G2 X6.681 Y-0.002 I-0.201 J0.878
G1 X3.278 Y1.619
G3 X2.136 Y1.298 I-0.387 J-0.813
X1.75 Y0 Z-6.5 I1.989 J-1.298 F333.3
X3 Y0 I0.625 J0 F1000
X-3 Y0 I-3 J0
X7.75 Y0 I5.375 J0
X-7.75 Y0 I-7.75 J0
X12.5 Y0 I10.125 J0
X-12.5 Y0 I-12.5 J0
X12.5 Y0 I12.5 J0
X11.399 Y0.878 I-0.901 J0
G1 X7.27 Y-0.067
G2 X6.681 Y-0.002 I-0.201 J0.878
G1 X3.278 Y1.619
G3 X2.136 Y1.298 I-0.387 J-0.813
X1.75 Y0 Z-7 I1.989 J-1.298 F333.3
X3 Y0 I0.625 J0 F1000
X-3 Y0 I-3 J0
X7.75 Y0 I5.375 J0
X-7.75 Y0 I-7.75 J0
X12.5 Y0 I10.125 J0
X-12.5 Y0 I-12.5 J0
X12.5 Y0 I12.5 J0
X11.399 Y0.878 I-0.901 J0
G1 X7.27 Y-0.067
G2 X6.681 Y-0.002 I-0.201 J0.878
G1 X3.278 Y1.619
G3 X2.136 Y1.298 I-0.387 J-0.813
X1.75 Y0 Z-7.5 I1.989 J-1.298 F333.3
X3 Y0 I0.625 J0 F1000
X-3 Y0 I-3 J0
X7.75 Y0 I5.375 J0
X-7.75 Y0 I-7.75 J0
X12.5 Y0 I10.125 J0
X-12.5 Y0 I-12.5 J0
X12.5 Y0 I12.5 J0
X11.399 Y0.878 I-0.901 J0
G1 X7.27 Y-0.067
G2 X6.681 Y-0.002 I-0.201 J0.878
G1 X3.278 Y1.619
G3 X2.136 Y1.298 I-0.387 J-0.813
X1.75 Y0 Z-8 I1.989 J-1.298 F333.3
X3 Y0 I0.625 J0 F1000
X-3 Y0 I-3 J0
X7.75 Y0 I5.375 J0
X-7.75 Y0 I-7.75 J0
X12.5 Y0 I10.125 J0
X-12.5 Y0 I-12.5 J0
X12.5 Y0 I12.5 J0
X11.399 Y0.878 I-0.901 J0
G1 X7.27 Y-0.067
G2 X6.681 Y-0.002 I-0.201 J0.878
G1 X3.278 Y1.619
G3 X2.136 Y1.298 I-0.387 J-0.813
X1.75 Y0 Z-8.5 I1.989 J-1.298 F333.3
X3 Y0 I0.625 J0 F1000
X-3 Y0 I-3 J0
X7.75 Y0 I5.375 J0
X-7.75 Y0 I-7.75 J0
X12.5 Y0 I10.125 J0
X-12.5 Y0 I-12.5 J0
X12.5 Y0 I12.5 J0
X11.399 Y0.878 I-0.901 J0
G1 X7.27 Y-0.067
G2 X6.681 Y-0.002 I-0.201 J0.878
G1 X3.278 Y1.619
G3 X2.136 Y1.298 I-0.387 J-0.813
X1.75 Y0 Z-9 I1.989 J-1.298 F333.3
X3 Y0 I0.625 J0 F1000
X-3 Y0 I-3 J0
X7.75 Y0 I5.375 J0
X-7.75 Y0 I-7.75 J0
X12.5 Y0 I10.125 J0
X-12.5 Y0 I-12.5 J0
X12.5 Y0 I12.5 J0
X11.399 Y0.878 I-0.901 J0
G1 X7.27 Y-0.067
G2 X6.681 Y-0.002 I-0.201 J0.878
G1 X3.278 Y1.619
G3 X2.136 Y1.298 I-0.387 J-0.813
X1.75 Y0 Z-9.5 I1.989 J-1.298 F333.3
X3 Y0 I0.625 J0 F1000
X-3 Y0 I-3 J0
X7.75 Y0 I5.375 J0
X-7.75 Y0 I-7.75 J0
X12.5 Y0 I10.125 J0
X-12.5 Y0 I-12.5 J0
X12.5 Y0 I12.5 J0
X11.399 Y0.878 I-0.901 J0
G1 X7.27 Y-0.067
G2 X6.681 Y-0.002 I-0.201 J0.878
G1 X3.278 Y1.619
G3 X2.136 Y1.298 I-0.387 J-0.813
X1.75 Y0 Z-10 I1.989 J-1.298 F333.3
X3 Y0 I0.625 J0 F1000
X-3 Y0 I-3 J0
X7.75 Y0 I5.375 J0
X-7.75 Y0 I-7.75 J0
X12.5 Y0 I10.125 J0
X-12.5 Y0 I-12.5 J0
X12.5 Y0 I12.5 J0
X11.399 Y0.878 I-0.901 J0
G1 X7.27 Y-0.067
G2 X6.681 Y-0.002 I-0.201 J0.878
G1 X3.278 Y1.619
G3 X2.136 Y1.298 I-0.387 J-0.813
X1.75 Y0 Z-10.5 I1.989 J-1.298 F333.3
X3 Y0 I0.625 J0 F1000
X-3 Y0 I-3 J0
X7.75 Y0 I5.375 J0
X-7.75 Y0 I-7.75 J0
X12.5 Y0 I10.125 J0
X-12.5 Y0 I-12.5 J0
X12.5 Y0 I12.5 J0
X11.399 Y0.878 I-0.901 J0
G1 X7.27 Y-0.067
G2 X6.681 Y-0.002 I-0.201 J0.878
G1 X3.278 Y1.619
G3 X2.136 Y1.298 I-0.387 J-0.813
X1.75 Y0 Z-11 I1.989 J-1.298 F333.3
X3 Y0 I0.625 J0 F1000
X-3 Y0 I-3 J0
X7.75 Y0 I5.375 J0
X-7.75 Y0 I-7.75 J0
X12.5 Y0 I10.125 J0
X-12.5 Y0 I-12.5 J0
X12.5 Y0 I12.5 J0
X11.399 Y0.878 I-0.901 J0
G1 X7.27 Y-0.067
G2 X6.681 Y-0.002 I-0.201 J0.878
G1 X3.278 Y1.619
G3 X2.136 Y1.298 I-0.387 J-0.813
X1.75 Y0 Z-11.5 I1.989 J-1.298 F333.3
X3 Y0 I0.625 J0 F1000
X-3 Y0 I-3 J0
X7.75 Y0 I5.375 J0
X-7.75 Y0 I-7.75 J0
X12.5 Y0 I10.125 J0
X-12.5 Y0 I-12.5 J0
X12.5 Y0 I12.5 J0
X11.399 Y0.878 I-0.901 J0
G1 X7.27 Y-0.067
G2 X6.681 Y-0.002 I-0.201 J0.878
G1 X3.278 Y1.619
G3 X2.136 Y1.298 I-0.387 J-0.813
X1.75 Y0 Z-12 I1.989 J-1.298 F333.3
X3 Y0 I0.625 J0 F1000
X-3 Y0 I-3 J0
X7.75 Y0 I5.375 J0
X-7.75 Y0 I-7.75 J0
X12.5 Y0 I10.125 J0
X-12.5 Y0 I-12.5 J0
X12.5 Y0 I12.5 J0
X11.399 Y0.878 I-0.901 J0
G1 X7.27 Y-0.067
G2 X6.681 Y-0.002 I-0.201 J0.878
G1 X3.278 Y1.619
G3 X2.136 Y1.298 I-0.387 J-0.813
X1.75 Y0 Z-12.5 I1.989 J-1.298 F333.3
X3 Y0 I0.625 J0 F1000
X-3 Y0 I-3 J0
X7.75 Y0 I5.375 J0
X-7.75 Y0 I-7.75 J0
X12.5 Y0 I10.125 J0
X-12.5 Y0 I-12.5 J0
X12.5 Y0 I12.5 J0
X11.399 Y0.878 I-0.901 J0
G1 X7.27 Y-0.067
G2 X6.681 Y-0.002 I-0.201 J0.878
G1 X3.278 Y1.619
G3 X2.136 Y1.298 I-0.387 J-0.813
X1.75 Y0 Z-13 I1.989 J-1.298 F333.3
X3 Y0 I0.625 J0 F1000
X-3 Y0 I-3 J0
X7.75 Y0 I5.375 J0
X-7.75 Y0 I-7.75 J0
X12.5 Y0 I10.125 J0
X-12.5 Y0 I-12.5 J0
X12.5 Y0 I12.5 J0
X11.399 Y0.878 I-0.901 J0
G1 X7.27 Y-0.067
G2 X6.681 Y-0.002 I-0.201 J0.878
G1 X3.278 Y1.619
G3 X2.136 Y1.298 I-0.387 J-0.813
X1.75 Y0 Z-13.5 I1.989 J-1.298 F333.3
X3 Y0 I0.625 J0 F1000
X-3 Y0 I-3 J0
X7.75 Y0 I5.375 J0
X-7.75 Y0 I-7.75 J0
X12.5 Y0 I10.125 J0
X-12.5 Y0 I-12.5 J0
X12.5 Y0 I12.5 J0
X11.399 Y0.878 I-0.901 J0
G1 X7.27 Y-0.067
G2 X6.681 Y-0.002 I-0.201 J0.878
G1 X3.278 Y1.619
G3 X2.136 Y1.298 I-0.387 J-0.813
X1.75 Y0 Z-14 I1.989 J-1.298 F333.3
X3 Y0 I0.625 J0 F1000
X-3 Y0 I-3 J0
X7.75 Y0 I5.375 J0
X-7.75 Y0 I-7.75 J0
X12.5 Y0 I10.125 J0
X-12.5 Y0 I-12.5 J0
X12.5 Y0 I12.5 J0
X11.399 Y0.878 I-0.901 J0
G1 X7.27 Y-0.067
G2 X6.681 Y-0.002 I-0.201 J0.878
G1 X3.278 Y1.619
G3 X2.136 Y1.298 I-0.387 J-0.813
X1.75 Y0 Z-14.5 I1.989 J-1.298 F333.3
X3 Y0 I0.625 J0 F1000
X-3 Y0 I-3 J0
X7.75 Y0 I5.375 J0
X-7.75 Y0 I-7.75 J0
X12.5 Y0 I10.125 J0
X-12.5 Y0 I-12.5 J0
X12.5 Y0 I12.5 J0
X11.399 Y0.878 I-0.901 J0
G1 X7.27 Y-0.067
G2 X6.681 Y-0.002 I-0.201 J0.878
G1 X3.278 Y1.619
G3 X2.136 Y1.298 I-0.387 J-0.813
X1.75 Y0 Z-15 I1.989 J-1.298 F333.3
X3 Y0 I0.625 J0 F1000
X-3 Y0 I-3 J0
X7.75 Y0 I5.375 J0
X-7.75 Y0 I-7.75 J0
X12.5 Y0 I10.125 J0
X-12.5 Y0 I-12.5 J0
X12.5 Y0 I12.5 J0
X11.399 Y0.878 I-0.901 J0
G1 X7.27 Y-0.067
G2 X6.681 Y-0.002 I-0.201 J0.878
G1 X3.278 Y1.619
G3 X2.136 Y1.298 I-0.387 J-0.813
X1.75 Y0 Z-15.5 I1.989 J-1.298 F333.3
X3 Y0 I0.625 J0 F1000
X-3 Y0 I-3 J0
X7.75 Y0 I5.375 J0
X-7.75 Y0 I-7.75 J0
X12.5 Y0 I10.125 J0
X-12.5 Y0 I-12.5 J0
X12.5 Y0 I12.5 J0
X11.399 Y0.878 I-0.901 J0
G1 X7.27 Y-0.067
G2 X6.681 Y-0.002 I-0.201 J0.878
G1 X3.278 Y1.619
G3 X2.136 Y1.298 I-0.387 J-0.813
X1.75 Y0 Z-16 I1.989 J-1.298 F333.3
X3 Y0 I0.625 J0 F1000
X-3 Y0 I-3 J0
X7.75 Y0 I5.375 J0
X-7.75 Y0 I-7.75 J0
X12.5 Y0 I10.125 J0
X-12.5 Y0 I-12.5 J0
X12.5 Y0 I12.5 J0
X11.399 Y0.878 I-0.901 J0
G1 X7.27 Y-0.067
G2 X6.681 Y-0.002 I-0.201 J0.878
G1 X3.278 Y1.619
G3 X2.136 Y1.298 I-0.387 J-0.813
X1.75 Y0 Z-16.5 I1.989 J-1.298 F333.3
X3 Y0 I0.625 J0 F1000
X-3 Y0 I-3 J0
X7.75 Y0 I5.375 J0
X-7.75 Y0 I-7.75 J0
X12.5 Y0 I10.125 J0
X-12.5 Y0 I-12.5 J0
X12.5 Y0 I12.5 J0
X11.399 Y0.878 I-0.901 J0
G1 X7.27 Y-0.067
G2 X6.681 Y-0.002 I-0.201 J0.878
G1 X3.278 Y1.619
G3 X2.136 Y1.298 I-0.387 J-0.813
X1.75 Y0 Z-17 I1.989 J-1.298 F333.3
X3 Y0 I0.625 J0 F1000
X-3 Y0 I-3 J0
X7.75 Y0 I5.375 J0
X-7.75 Y0 I-7.75 J0
X12.5 Y0 I10.125 J0
X-12.5 Y0 I-12.5 J0
X12.5 Y0 I12.5 J0
X11.399 Y0.878 I-0.901 J0
G1 X7.27 Y-0.067
G2 X6.681 Y-0.002 I-0.201 J0.878
G1 X3.278 Y1.619
G3 X2.136 Y1.298 I-0.387 J-0.813
X1.75 Y0 Z-17.5 I1.989 J-1.298 F333.3
X3 Y0 I0.625 J0 F1000
X-3 Y0 I-3 J0
X7.75 Y0 I5.375 J0
X-7.75 Y0 I-7.75 J0
X12.5 Y0 I10.125 J0
X-12.5 Y0 I-12.5 J0
X12.5 Y0 I12.5 J0
X11.399 Y0.878 I-0.901 J0
G1 X7.27 Y-0.067
G2 X6.681 Y-0.002 I-0.201 J0.878
G1 X3.278 Y1.619
G3 X2.136 Y1.298 I-0.387 J-0.813
X1.75 Y0 Z-18 I1.989 J-1.298 F333.3
X3 Y0 I0.625 J0 F1000
X-3 Y0 I-3 J0
X7.75 Y0 I5.375 J0
X-7.75 Y0 I-7.75 J0
X12.5 Y0 I10.125 J0
X-12.5 Y0 I-12.5 J0
X12.5 Y0 I12.5 J0
X11.399 Y0.878 I-0.901 J0
G1 X7.27 Y-0.067
G2 X6.681 Y-0.002 I-0.201 J0.878
G1 X3.278 Y1.619
G3 X2.136 Y1.298 I-0.387 J-0.813
X1.75 Y0 Z-18.5 I1.989 J-1.298 F333.3
X3 Y0 I0.625 J0 F1000
X-3 Y0 I-3 J0
X7.75 Y0 I5.375 J0
X-7.75 Y0 I-7.75 J0
X12.5 Y0 I10.125 J0
X-12.5 Y0 I-12.5 J0
X12.5 Y0 I12.5 J0
X11.399 Y0.878 I-0.901 J0
G1 X7.27 Y-0.067
G2 X6.681 Y-0.002 I-0.201 J0.878
G1 X3.278 Y1.619
G3 X2.136 Y1.298 I-0.387 J-0.813
X1.75 Y0 Z-19 I1.989 J-1.298 F333.3
X3 Y0 I0.625 J0 F1000
X-3 Y0 I-3 J0
X7.75 Y0 I5.375 J0
X-7.75 Y0 I-7.75 J0
X12.5 Y0 I10.125 J0
X-12.5 Y0 I-12.5 J0
X12.5 Y0 I12.5 J0
G1 Z5
M9
M5
M30
