(1001)
(T1  D=1.5 CR=0 - ZMIN=-7.7 - flat end mill)
G90 G94
G17
G21

(Drill2)
T1
S500 M3
G54
M8
G0 X34.971 Y53.448
Z6
Z4
Z2
G1 Z-7.7 F90
G0 Z4
X35.132 Y3.41
Z2
G1 Z-7.7 F90
G0 Z4
Z6

(Drill2 2)
X33.616 Y45.955
Z6
Z4
Z2
G1 Z-7.7 F90
G0 Z4
Y43.455
Z2
G1 Z-7.7 F90
G0 Z4
Y40.955
Z2
G1 Z-7.7 F90
G0 Z4
Y38.455
Z2
G1 Z-7.7 F90
G0 Z4
Y35.955
Z2
G1 Z-7.7 F90
G0 Z4
Y33.455
Z2
G1 Z-7.7 F90
G0 Z4
Y30.955
Z2
G1 Z-7.7 F90
G0 Z4
Y28.455
Z2
G1 Z-7.7 F90
G0 Z4
Y25.955
Z2
G1 Z-7.7 F90
G0 Z4
Y23.455
Z2
G1 Z-7.7 F90
G0 Z4
Y20.955
Z2
G1 Z-7.7 F90
G0 Z4
Y18.455
Z2
G1 Z-7.7 F90
G0 Z4
Y15.955
Z2
G1 Z-7.7 F90
G0 Z4
Y13.455
Z2
G1 Z-7.7 F90
G0 Z4
Y10.955
Z2
G1 Z-7.7 F90
G0 Z4
X23.869 Y7.795
Z2
G1 Z-7.7 F90
G0 Z4
X25.869 Y7.797
Z2
G1 Z-7.7 F90
G0 Z4
X27.858 Y7.799
Z2
G1 Z-7.7 F90
G0 Z4
X27.867 Y9.799
Z2
G1 Z-7.7 F90
G0 Z4
X25.869
Z2
G1 Z-7.7 F90
G0 Z4
X23.869 Y9.801
Z2
G1 Z-7.7 F90
G0 Z4
X18.122 Y10.955
Z2
G1 Z-7.7 F90
G0 Z4
Y13.455
Z2
G1 Z-7.7 F90
G0 Z4
Y15.955
Z2
G1 Z-7.7 F90
G0 Z4
Y18.455
Z2
G1 Z-7.7 F90
G0 Z4
Y20.955
Z2
G1 Z-7.7 F90
G0 Z4
Y23.455
Z2
G1 Z-7.7 F90
G0 Z4
Y25.955
Z2
G1 Z-7.7 F90
G0 Z4
Y28.455
Z2
G1 Z-7.7 F90
G0 Z4
Y30.955
Z2
G1 Z-7.7 F90
G0 Z4
Y33.455
Z2
G1 Z-7.7 F90
G0 Z4
Y35.955
Z2
G1 Z-7.7 F90
G0 Z4
Y38.455
Z2
G1 Z-7.7 F90
G0 Z4
Y40.955
Z2
G1 Z-7.7 F90
G0 Z4
Y43.455
Z2
G1 Z-7.7 F90
G0 Z4
Y45.955
Z2
G1 Z-7.7 F90
G0 Z4
X13.977
Z2
G1 Z-7.7 F90
G0 Z4
Y43.405
Z2
G1 Z-7.7 F90
G0 Z4
Y38.305
Z2
G1 Z-7.7 F90
G0 Z4
Y35.755
Z2
G1 Z-7.7 F90
G0 Z4
Y33.205
Z2
G1 Z-7.7 F90
G0 Z4
Y30.655
Z2
G1 Z-7.7 F90
G0 Z4
Y28.105
Z2
G1 Z-7.7 F90
G0 Z4
Y25.555
Z2
G1 Z-7.7 F90
G0 Z4
Y20.455
Z2
G1 Z-7.7 F90
G0 Z4
Z6
M9
M5
M30
