(1001)
(T1  D=1.5 CR=0 - ZMIN=-3 - flat end mill)
G90 G94
G17
G21

(Pocket1)
T1
S500 M3
G54
M8
G0 X16.336 Y33.53
Z6
Z1.3
G1 Z0.315 F80
X14.944 Z0.197
X14.912 Y33.523
X14.886 Y33.502
X14.871 Y33.472
Y33.438
X14.886 Y33.408
X14.912 Y33.388
X14.944 Y33.38
X16.484 Z0.067
X16.517 Y33.388
X16.543 Y33.408
X16.557 Y33.438
Y33.472
X16.543 Y33.502
X16.517 Y33.523
X16.484 Y33.53
X14.944 Z-0.063
X14.912 Y33.523
X14.886 Y33.502
X14.871 Y33.472
Y33.438
X14.886 Y33.408
X14.912 Y33.388
X14.944 Y33.38
X16.484 Z-0.193
X16.517 Y33.388
X16.543 Y33.408
X16.557 Y33.438
Y33.472
X16.543 Y33.502
X16.517 Y33.523
X16.484 Y33.53
X15.216 Z-0.3
X15.196 Y33.523
X15.185 Y33.505
X15.187 Y33.484
X15.202 Y33.469
X15.223 Y33.467
X15.241 Y33.478
X15.248 Y33.498
Y33.562
X15.244 Y33.578
X15.232 Y33.59
X15.216 Y33.594
X15.207 F150
X14.929 Y33.559
X14.881 Y33.556
X14.718
X14.728 Y33.521
X14.766 Y33.355
X14.882
X14.929 Y33.352
X15.207 Y33.316
X33.495
X33.675 Y33.374
X33.71 Y33.422
Y33.485
X33.674 Y33.537
X33.495 Y33.594
X15.216
X15.207 F80
X15.163 Y33.589 Z-0.29
X15.124 Y33.584 Z-0.268
X15.094 Y33.58 Z-0.235
X15.074 Y33.577 Z-0.195
X15.067 Y33.576 Z-0.15
G0 Z4
X32.353 Y33.38
Z0.015
G1 X33.513 Z-0.083 F80
X33.546 Y33.388
X33.572 Y33.408
X33.587 Y33.438
Y33.472
X33.572 Y33.502
X33.546 Y33.523
X33.513 Y33.53
X31.974 Z-0.213
X31.941 Y33.523
X31.915 Y33.502
X31.901 Y33.472
Y33.438
X31.915 Y33.408
X31.941 Y33.388
X31.974 Y33.38
X33.513 Z-0.343
X33.546 Y33.388
X33.572 Y33.408
X33.587 Y33.438
Y33.472
X33.572 Y33.502
X33.546 Y33.523
X33.513 Y33.53
X31.974 Z-0.473
X31.941 Y33.523
X31.915 Y33.502
X31.901 Y33.472
Y33.438
X31.915 Y33.408
X31.941 Y33.388
X31.974 Y33.38
X33.473 Z-0.6
X33.493 Y33.387
X33.504 Y33.405
X33.502 Y33.426
X33.487 Y33.441
X33.466 Y33.443
X33.448 Y33.432
X33.441 Y33.412
Y33.348
X33.445 Y33.332
X33.457 Y33.32
X33.473 Y33.316
X33.495 F150
X33.675 Y33.374
X33.71 Y33.422
Y33.485
X33.674 Y33.537
X33.495 Y33.594
X15.207
X14.929 Y33.559
X14.881 Y33.556
X14.718
X14.728 Y33.521
X14.766 Y33.355
X14.882
X14.929 Y33.352
X15.207 Y33.316
X33.473
X33.495 Z-0.598 F80
X33.534 Y33.329 Z-0.586
X33.568 Y33.34 Z-0.563
X33.594 Y33.348 Z-0.531
X33.611 Y33.354 Z-0.492
X33.617 Y33.355 Z-0.45
G0 Z4
X16.336 Y33.53
Z1.3
G1 Z-0.285 F80
X14.944 Z-0.403
X14.912 Y33.523
X14.886 Y33.502
X14.871 Y33.472
Y33.438
X14.886 Y33.408
X14.912 Y33.388
X14.944 Y33.38
X16.484 Z-0.533
X16.517 Y33.388
X16.543 Y33.408
X16.557 Y33.438
Y33.472
X16.543 Y33.502
X16.517 Y33.523
X16.484 Y33.53
X14.944 Z-0.663
X14.912 Y33.523
X14.886 Y33.502
X14.871 Y33.472
Y33.438
X14.886 Y33.408
X14.912 Y33.388
X14.944 Y33.38
X16.484 Z-0.793
X16.517 Y33.388
X16.543 Y33.408
X16.557 Y33.438
Y33.472
X16.543 Y33.502
X16.517 Y33.523
X16.484 Y33.53
X15.216 Z-0.9
X15.196 Y33.523
X15.185 Y33.505
X15.187 Y33.484
X15.202 Y33.469
X15.223 Y33.467
X15.241 Y33.478
X15.248 Y33.498
Y33.562
X15.244 Y33.578
X15.232 Y33.59
X15.216 Y33.594
X15.207 F150
X14.929 Y33.559
X14.881 Y33.556
X14.718
X14.728 Y33.521
X14.766 Y33.355
X14.882
X14.929 Y33.352
X15.207 Y33.316
X33.495
X33.675 Y33.374
X33.71 Y33.422
Y33.485
X33.674 Y33.537
X33.495 Y33.594
X15.216
X15.207 F80
X15.163 Y33.589 Z-0.89
X15.124 Y33.584 Z-0.868
X15.094 Y33.58 Z-0.835
X15.074 Y33.577 Z-0.795
X15.067 Y33.576 Z-0.75
G0 Z4
X32.353 Y33.38
G1 Z-0.585 F80
X33.513 Z-0.683
X33.546 Y33.388
X33.572 Y33.408
X33.587 Y33.438
Y33.472
X33.572 Y33.502
X33.546 Y33.523
X33.513 Y33.53
X31.974 Z-0.813
X31.941 Y33.523
X31.915 Y33.502
X31.901 Y33.472
Y33.438
X31.915 Y33.408
X31.941 Y33.388
X31.974 Y33.38
X33.513 Z-0.943
X33.546 Y33.388
X33.572 Y33.408
X33.587 Y33.438
Y33.472
X33.572 Y33.502
X33.546 Y33.523
X33.513 Y33.53
X31.974 Z-1.073
X31.941 Y33.523
X31.915 Y33.502
X31.901 Y33.472
Y33.438
X31.915 Y33.408
X31.941 Y33.388
X31.974 Y33.38
X33.473 Z-1.2
X33.493 Y33.387
X33.504 Y33.405
X33.502 Y33.426
X33.487 Y33.441
X33.466 Y33.443
X33.448 Y33.432
X33.441 Y33.412
Y33.348
X33.445 Y33.332
X33.457 Y33.32
X33.473 Y33.316
X33.495 F150
X33.675 Y33.374
X33.71 Y33.422
Y33.485
X33.674 Y33.537
X33.495 Y33.594
X15.207
X14.929 Y33.559
X14.881 Y33.556
X14.718
X14.728 Y33.521
X14.766 Y33.355
X14.882
X14.929 Y33.352
X15.207 Y33.316
X33.473
X33.498 Y33.323
X33.515 Y33.343
X33.519 Y33.368
X33.509 Y33.392
X33.488 Y33.406
X33.334 Y33.455
X32.724
X32.641 Y33.429
X32.627 Y33.418
X32.624 Y33.401
X32.632 Y33.386
X32.649 Y33.38
X33.473 Z-1.5 F80
X33.493 Y33.387
X33.504 Y33.405
X33.502 Y33.426
X33.487 Y33.441
X33.466 Y33.443
X33.448 Y33.432
X33.441 Y33.412
Y33.348
X33.445 Y33.332
X33.457 Y33.32
X33.473 Y33.316
X33.495 F150
X33.675 Y33.374
X33.71 Y33.422
Y33.485
X33.674 Y33.537
X33.495 Y33.594
X15.207
X14.929 Y33.559
X14.881 Y33.556
X14.718
X14.728 Y33.521
X14.766 Y33.355
X14.882
X14.929 Y33.352
X15.207 Y33.316
X33.473
X33.495 Z-1.498 F80
X33.534 Y33.329 Z-1.486
X33.568 Y33.34 Z-1.463
X33.594 Y33.348 Z-1.431
X33.611 Y33.354 Z-1.392
X33.617 Y33.355 Z-1.35
G0 Z4
X16.336 Y33.53
G1 Z-1.185 F80
X14.944 Z-1.303
X14.912 Y33.523
X14.886 Y33.502
X14.871 Y33.472
Y33.438
X14.886 Y33.408
X14.912 Y33.388
X14.944 Y33.38
X16.484 Z-1.433
X16.517 Y33.388
X16.543 Y33.408
X16.557 Y33.438
Y33.472
X16.543 Y33.502
X16.517 Y33.523
X16.484 Y33.53
X14.944 Z-1.563
X14.912 Y33.523
X14.886 Y33.502
X14.871 Y33.472
Y33.438
X14.886 Y33.408
X14.912 Y33.388
X14.944 Y33.38
X16.484 Z-1.693
X16.517 Y33.388
X16.543 Y33.408
X16.557 Y33.438
Y33.472
X16.543 Y33.502
X16.517 Y33.523
X16.484 Y33.53
X15.216 Z-1.8
X15.196 Y33.523
X15.185 Y33.505
X15.187 Y33.484
X15.202 Y33.469
X15.223 Y33.467
X15.241 Y33.478
X15.248 Y33.498
Y33.562
X15.244 Y33.578
X15.232 Y33.59
X15.216 Y33.594
X15.207 F150
X14.929 Y33.559
X14.881 Y33.556
X14.718
X14.728 Y33.521
X14.766 Y33.355
X14.882
X14.929 Y33.352
X15.207 Y33.316
X33.495
X33.675 Y33.374
X33.71 Y33.422
Y33.485
X33.674 Y33.537
X33.495 Y33.594
X15.216
X15.207 F80
X15.163 Y33.589 Z-1.79
X15.124 Y33.584 Z-1.768
X15.094 Y33.58 Z-1.735
X15.074 Y33.577 Z-1.695
X15.067 Y33.576 Z-1.65
G0 Z4
X32.353 Y33.38
G1 Z-1.485 F80
X33.513 Z-1.583
X33.546 Y33.388
X33.572 Y33.408
X33.587 Y33.438
Y33.472
X33.572 Y33.502
X33.546 Y33.523
X33.513 Y33.53
X31.974 Z-1.713
X31.941 Y33.523
X31.915 Y33.502
X31.901 Y33.472
Y33.438
X31.915 Y33.408
X31.941 Y33.388
X31.974 Y33.38
X33.513 Z-1.843
X33.546 Y33.388
X33.572 Y33.408
X33.587 Y33.438
Y33.472
X33.572 Y33.502
X33.546 Y33.523
X33.513 Y33.53
X31.974 Z-1.973
X31.941 Y33.523
X31.915 Y33.502
X31.901 Y33.472
Y33.438
X31.915 Y33.408
X31.941 Y33.388
X31.974 Y33.38
X33.473 Z-2.1
X33.493 Y33.387
X33.504 Y33.405
X33.502 Y33.426
X33.487 Y33.441
X33.466 Y33.443
X33.448 Y33.432
X33.441 Y33.412
Y33.348
X33.445 Y33.332
X33.457 Y33.32
X33.473 Y33.316
X33.495 F150
X33.675 Y33.374
X33.71 Y33.422
Y33.485
X33.674 Y33.537
X33.495 Y33.594
X15.207
X14.929 Y33.559
X14.881 Y33.556
X14.718
X14.728 Y33.521
X14.766 Y33.355
X14.882
X14.929 Y33.352
X15.207 Y33.316
X33.473
X33.495 Z-2.098 F80
X33.534 Y33.329 Z-2.086
X33.568 Y33.34 Z-2.063
X33.594 Y33.348 Z-2.031
X33.611 Y33.354 Z-1.992
X33.617 Y33.355 Z-1.95
G0 Z4
X16.336 Y33.53
G1 Z-1.785 F80
X14.944 Z-1.903
X14.912 Y33.523
X14.886 Y33.502
X14.871 Y33.472
Y33.438
X14.886 Y33.408
X14.912 Y33.388
X14.944 Y33.38
X16.484 Z-2.033
X16.517 Y33.388
X16.543 Y33.408
X16.557 Y33.438
Y33.472
X16.543 Y33.502
X16.517 Y33.523
X16.484 Y33.53
X14.944 Z-2.163
X14.912 Y33.523
X14.886 Y33.502
X14.871 Y33.472
Y33.438
X14.886 Y33.408
X14.912 Y33.388
X14.944 Y33.38
X16.484 Z-2.293
X16.517 Y33.388
X16.543 Y33.408
X16.557 Y33.438
Y33.472
X16.543 Y33.502
X16.517 Y33.523
X16.484 Y33.53
X15.216 Z-2.4
X15.202 Y33.535
X15.193 Y33.547
X15.199 Y33.593
X14.929 Y33.559 F150
X14.881 Y33.556
X14.718
X14.728 Y33.521
X14.766 Y33.355
X14.882
X14.929 Y33.352
X15.207 Y33.316
X33.495
X33.675 Y33.374
X33.71 Y33.422
Y33.485
X33.674 Y33.537
X33.495 Y33.594
X15.207
X15.199 Y33.593
X15.153 Y33.587 Z-2.393 F80
X15.111 Y33.582 Z-2.371
X15.078 Y33.578 Z-2.338
X15.057 Y33.575 Z-2.296
X15.05 Y33.574 Z-2.25
G0 Z4
X32.353 Y33.38
G1 Z-2.085 F80
X33.513 Z-2.183
X33.546 Y33.388
X33.572 Y33.408
X33.587 Y33.438
Y33.472
X33.572 Y33.502
X33.546 Y33.523
X33.513 Y33.53
X31.974 Z-2.313
X31.941 Y33.523
X31.915 Y33.502
X31.901 Y33.472
Y33.438
X31.915 Y33.408
X31.941 Y33.388
X31.974 Y33.38
X33.513 Z-2.443
X33.546 Y33.388
X33.572 Y33.408
X33.587 Y33.438
Y33.472
X33.572 Y33.502
X33.546 Y33.523
X33.513 Y33.53
X31.974 Z-2.573
X31.941 Y33.523
X31.915 Y33.502
X31.901 Y33.472
Y33.438
X31.915 Y33.408
X31.941 Y33.388
X31.974 Y33.38
X33.473 Z-2.7
X33.493 Y33.387
X33.504 Y33.405
X33.502 Y33.426
X33.487 Y33.441
X33.466 Y33.443
X33.448 Y33.432
X33.441 Y33.412
Y33.348
X33.445 Y33.332
X33.457 Y33.32
X33.473 Y33.316
X33.495 F150
X33.675 Y33.374
X33.71 Y33.422
Y33.485
X33.674 Y33.537
X33.495 Y33.594
X15.207
X14.929 Y33.559
X14.881 Y33.556
X14.718
X14.728 Y33.521
X14.766 Y33.355
X14.882
X14.929 Y33.352
X15.207 Y33.316
X33.473
X33.495 Z-2.698 F80
X33.534 Y33.329 Z-2.686
X33.568 Y33.34 Z-2.663
X33.594 Y33.348 Z-2.631
X33.611 Y33.354 Z-2.592
X33.617 Y33.355 Z-2.55
G0 Z4
X16.336 Y33.53
G1 Z-2.385 F80
X14.944 Z-2.503
X14.912 Y33.523
X14.886 Y33.502
X14.871 Y33.472
Y33.438
X14.886 Y33.408
X14.912 Y33.388
X14.944 Y33.38
X16.484 Z-2.633
X16.517 Y33.388
X16.543 Y33.408
X16.557 Y33.438
Y33.472
X16.543 Y33.502
X16.517 Y33.523
X16.484 Y33.53
X14.944 Z-2.763
X14.912 Y33.523
X14.886 Y33.502
X14.871 Y33.472
Y33.438
X14.886 Y33.408
X14.912 Y33.388
X14.944 Y33.38
X16.484 Z-2.893
X16.517 Y33.388
X16.543 Y33.408
X16.557 Y33.438
Y33.472
X16.543 Y33.502
X16.517 Y33.523
X16.484 Y33.53
X15.216 Z-3
X15.18 Y33.524
X15.147 Y33.505
X15.123 Y33.477
X15.111 Y33.442
Y33.405
X15.123 Y33.37
X15.147 Y33.341
X15.18 Y33.323
X15.216 Y33.316
X33.495 F150
X33.675 Y33.374
X33.71 Y33.422
Y33.485
X33.674 Y33.537
X33.495 Y33.594
X15.207
X14.929 Y33.559
X14.881 Y33.556
X14.718
X14.728 Y33.521
X14.766 Y33.355
X14.882
X14.929 Y33.352
X15.207 Y33.316
X15.216
X15.262 Z-2.993 F80
X15.304 Z-2.971
X15.337 Z-2.938
X15.359 Z-2.896
X15.366 Z-2.85
G0 Z4
X32.434 Y30.88
Z0.315
G1 X33.513 Z0.224 F80
X33.546 Y30.888
X33.572 Y30.908
X33.587 Y30.938
Y30.972
X33.572 Y31.002
X33.546 Y31.023
X33.513 Y31.03
X31.974 Z0.094
X31.941 Y31.023
X31.915 Y31.002
X31.901 Y30.972
Y30.938
X31.915 Y30.908
X31.941 Y30.888
X31.974 Y30.88
X33.513 Z-0.036
X33.546 Y30.888
X33.572 Y30.908
X33.587 Y30.938
Y30.972
X33.572 Y31.002
X33.546 Y31.023
X33.513 Y31.03
X31.974 Z-0.166
X31.941 Y31.023
X31.915 Y31.002
X31.901 Y30.972
Y30.938
X31.915 Y30.908
X31.941 Y30.888
X31.974 Y30.88
X33.513 Z-0.297
X33.546 Y30.888
X33.572 Y30.908
X33.587 Y30.938
Y30.972
X33.572 Y31.002
X33.546 Y31.023
X33.513 Y31.03
X33.473 Z-0.3
X33.456 Y31.037
X33.449 Y31.054
X33.473 Y31.094
X15.125 Y31.092 F150
X15.107 Y31.09
X15.044 Y31.07
X14.904 Y31.016
X14.847 Y30.998
X14.725 Y30.972
X14.745 Y30.939
X14.769 Y30.889
X14.785 Y30.836
X14.794 Y30.781
X14.916 Y30.808
X14.955 Y30.814
X14.995 Y30.816
X33.495
X33.675 Y30.874
X33.711 Y30.924
Y30.986
X33.675 Y31.036
X33.495 Y31.094
X33.473
X33.451 Y31.088
X33.434 Y31.073
X33.373 Y30.977
X33.356 Y30.961
X33.334 Y30.955
X32.805
X32.722 Y30.929
X32.708 Y30.918
X32.705 Y30.901
X32.714 Y30.886
X32.73 Y30.88
X33.513 Z-0.585 F80
X33.546 Y30.888
X33.572 Y30.908
X33.587 Y30.938
Y30.972
X33.572 Y31.002
X33.546 Y31.023
X33.513 Y31.03
X33.473 Z-0.6
X33.456 Y31.037
X33.449 Y31.054
X33.473 Y31.094
X15.125 Y31.092 F150
X15.107 Y31.09
X15.044 Y31.07
X14.904 Y31.016
X14.847 Y30.998
X14.725 Y30.972
X14.745 Y30.939
X14.769 Y30.889
X14.785 Y30.836
X14.794 Y30.781
X14.916 Y30.808
X14.955 Y30.814
X14.995 Y30.816
X33.495
X33.675 Y30.874
X33.711 Y30.924
Y30.986
X33.675 Y31.036
X33.495 Y31.094
X33.473
X33.451 Y31.088
X33.434 Y31.073
X33.373 Y30.977
X33.356 Y30.961
X33.334 Y30.955
X32.805
X32.722 Y30.929
X32.708 Y30.918
X32.705 Y30.901
X32.714 Y30.886
X32.73 Y30.88
X33.513 Z-0.885 F80
X33.546 Y30.888
X33.572 Y30.908
X33.587 Y30.938
Y30.972
X33.572 Y31.002
X33.546 Y31.023
X33.513 Y31.03
X33.473 Z-0.9
X33.456 Y31.037
X33.449 Y31.054
X33.473 Y31.094
X15.125 Y31.092 F150
X15.107 Y31.09
X15.044 Y31.07
X14.904 Y31.016
X14.847 Y30.998
X14.725 Y30.972
X14.745 Y30.939
X14.769 Y30.889
X14.785 Y30.836
X14.794 Y30.781
X14.916 Y30.808
X14.955 Y30.814
X14.995 Y30.816
X33.495
X33.675 Y30.874
X33.711 Y30.924
Y30.986
X33.675 Y31.036
X33.495 Y31.094
X33.473
X33.451 Y31.088
X33.434 Y31.073
X33.373 Y30.977
X33.356 Y30.961
X33.334 Y30.955
X32.805
X32.722 Y30.929
X32.708 Y30.918
X32.705 Y30.901
X32.714 Y30.886
X32.73 Y30.88
X33.513 Z-1.185 F80
X33.546 Y30.888
X33.572 Y30.908
X33.587 Y30.938
Y30.972
X33.572 Y31.002
X33.546 Y31.023
X33.513 Y31.03
X33.473 Z-1.2
X33.456 Y31.037
X33.449 Y31.054
X33.473 Y31.094
X15.125 Y31.092 F150
X15.107 Y31.09
X15.044 Y31.07
X14.904 Y31.016
X14.847 Y30.998
X14.725 Y30.972
X14.745 Y30.939
X14.769 Y30.889
X14.785 Y30.836
X14.794 Y30.781
X14.916 Y30.808
X14.955 Y30.814
X14.995 Y30.816
X33.495
X33.675 Y30.874
X33.711 Y30.924
Y30.986
X33.675 Y31.036
X33.495 Y31.094
X33.473
X33.451 Y31.088
X33.434 Y31.073
X33.373 Y30.977
X33.356 Y30.961
X33.334 Y30.955
X32.805
X32.722 Y30.929
X32.708 Y30.918
X32.705 Y30.901
X32.714 Y30.886
X32.73 Y30.88
X33.513 Z-1.485 F80
X33.546 Y30.888
X33.572 Y30.908
X33.587 Y30.938
Y30.972
X33.572 Y31.002
X33.546 Y31.023
X33.513 Y31.03
X33.473 Z-1.5
X33.456 Y31.037
X33.449 Y31.054
X33.473 Y31.094
X15.125 Y31.092 F150
X15.107 Y31.09
X15.044 Y31.07
X14.904 Y31.016
X14.847 Y30.998
X14.725 Y30.972
X14.745 Y30.939
X14.769 Y30.889
X14.785 Y30.836
X14.794 Y30.781
X14.916 Y30.808
X14.955 Y30.814
X14.995 Y30.816
X33.495
X33.675 Y30.874
X33.711 Y30.924
Y30.986
X33.675 Y31.036
X33.495 Y31.094
X33.473
X33.451 Y31.088
X33.434 Y31.073
X33.373 Y30.977
X33.356 Y30.961
X33.334 Y30.955
X32.805
X32.722 Y30.929
X32.708 Y30.918
X32.705 Y30.901
X32.714 Y30.886
X32.73 Y30.88
X33.513 Z-1.785 F80
X33.546 Y30.888
X33.572 Y30.908
X33.587 Y30.938
Y30.972
X33.572 Y31.002
X33.546 Y31.023
X33.513 Y31.03
X33.473 Z-1.8
X33.456 Y31.037
X33.449 Y31.054
X33.473 Y31.094
X15.125 Y31.092 F150
X15.107 Y31.09
X15.044 Y31.07
X14.904 Y31.016
X14.847 Y30.998
X14.725 Y30.972
X14.745 Y30.939
X14.769 Y30.889
X14.785 Y30.836
X14.794 Y30.781
X14.916 Y30.808
X14.955 Y30.814
X14.995 Y30.816
X33.495
X33.675 Y30.874
X33.711 Y30.924
Y30.986
X33.675 Y31.036
X33.495 Y31.094
X33.473
X33.451 Y31.088
X33.434 Y31.073
X33.373 Y30.977
X33.356 Y30.961
X33.334 Y30.955
X32.805
X32.722 Y30.929
X32.708 Y30.918
X32.705 Y30.901
X32.714 Y30.886
X32.73 Y30.88
X33.513 Z-2.085 F80
X33.546 Y30.888
X33.572 Y30.908
X33.587 Y30.938
Y30.972
X33.572 Y31.002
X33.546 Y31.023
X33.513 Y31.03
X33.473 Z-2.1
X33.456 Y31.037
X33.449 Y31.054
X33.473 Y31.094
X15.125 Y31.092 F150
X15.107 Y31.09
X15.044 Y31.07
X14.904 Y31.016
X14.847 Y30.998
X14.725 Y30.972
X14.745 Y30.939
X14.769 Y30.889
X14.785 Y30.836
X14.794 Y30.781
X14.916 Y30.808
X14.955 Y30.814
X14.995 Y30.816
X33.495
X33.675 Y30.874
X33.711 Y30.924
Y30.986
X33.675 Y31.036
X33.495 Y31.094
X33.473
X33.451 Y31.088
X33.434 Y31.073
X33.373 Y30.977
X33.356 Y30.961
X33.334 Y30.955
X32.724
X32.641 Y30.929
X32.627 Y30.918
X32.624 Y30.901
X32.632 Y30.886
X32.649 Y30.88
X33.473 Z-2.4 F80
X33.49 Y30.873
X33.497 Y30.856
X33.473 Y30.816
X33.495 F150
X33.675 Y30.874
X33.711 Y30.924
Y30.986
X33.675 Y31.036
X33.495 Y31.094
X15.125 Y31.092
X15.107 Y31.09
X15.044 Y31.07
X14.904 Y31.016
X14.847 Y30.998
X14.725 Y30.972
X14.745 Y30.939
X14.769 Y30.889
X14.785 Y30.836
X14.794 Y30.781
X14.916 Y30.808
X14.955 Y30.814
X14.995 Y30.816
X33.473
X33.498 Y30.823
X33.515 Y30.843
X33.519 Y30.868
X33.509 Y30.892
X33.488 Y30.906
X33.334 Y30.955
X32.805
X32.722 Y30.929
X32.708 Y30.918
X32.705 Y30.901
X32.714 Y30.886
X32.73 Y30.88
X33.513 Z-2.685 F80
X33.546 Y30.888
X33.572 Y30.908
X33.587 Y30.938
Y30.972
X33.572 Y31.002
X33.546 Y31.023
X33.513 Y31.03
X33.473 Z-2.7
X33.456 Y31.037
X33.449 Y31.054
X33.473 Y31.094
X15.125 Y31.092 F150
X15.107 Y31.09
X15.044 Y31.07
X14.904 Y31.016
X14.847 Y30.998
X14.725 Y30.972
X14.745 Y30.939
X14.769 Y30.889
X14.785 Y30.836
X14.794 Y30.781
X14.916 Y30.808
X14.955 Y30.814
X14.995 Y30.816
X33.495
X33.675 Y30.874
X33.711 Y30.924
Y30.986
X33.675 Y31.036
X33.495 Y31.094
X33.473
X33.451 Y31.088
X33.434 Y31.073
X33.373 Y30.977
X33.356 Y30.961
X33.334 Y30.955
X32.805
X32.722 Y30.929
X32.708 Y30.918
X32.705 Y30.901
X32.714 Y30.886
X32.73 Y30.88
X33.513 Z-2.985 F80
X33.546 Y30.888
X33.572 Y30.908
X33.587 Y30.938
Y30.972
X33.572 Y31.002
X33.546 Y31.023
X33.513 Y31.03
X33.473 Z-3
X33.456 Y31.037
X33.449 Y31.054
X33.473 Y31.094
X15.125 Y31.092 F150
X15.107 Y31.09
X15.044 Y31.07
X14.904 Y31.016
X14.847 Y30.998
X14.725 Y30.972
X14.745 Y30.939
X14.769 Y30.889
X14.785 Y30.836
X14.794 Y30.781
X14.916 Y30.808
X14.955 Y30.814
X14.995 Y30.816
X33.495
X33.675 Y30.874
X33.711 Y30.924
Y30.986
X33.675 Y31.036
X33.495 Y31.094
X33.473
X33.426 Z-2.993 F80
X33.385 Z-2.971
X33.351 Z-2.938
X33.33 Z-2.896
X33.323 Z-2.85
G0 Z4
X16.178 Y28.52
Z0.315
G1 X15.098 Z0.224 F80
X15.066 Y28.512
X15.039 Y28.492
X15.025 Y28.462
Y28.428
X15.039 Y28.398
X15.066 Y28.377
X15.098 Y28.37
X16.638 Z0.094
X16.67 Y28.377
X16.696 Y28.398
X16.711 Y28.428
Y28.462
X16.696 Y28.492
X16.67 Y28.512
X16.638 Y28.52
X15.098 Z-0.036
X15.066 Y28.512
X15.039 Y28.492
X15.025 Y28.462
Y28.428
X15.039 Y28.398
X15.066 Y28.377
X15.098 Y28.37
X16.638 Z-0.166
X16.67 Y28.377
X16.696 Y28.398
X16.711 Y28.428
Y28.462
X16.696 Y28.492
X16.67 Y28.512
X16.638 Y28.52
X15.098 Z-0.297
X15.066 Y28.512
X15.039 Y28.492
X15.025 Y28.462
Y28.428
X15.039 Y28.398
X15.066 Y28.377
X15.098 Y28.37
X15.139 Z-0.3
X15.156 Y28.365
X15.169 Y28.352
Y28.305
X15.177 Y28.307 F150
X15.217 Y28.313
X15.257 Y28.315
X33.495 Y28.316
X33.675 Y28.374
X33.71 Y28.422
X33.709 Y28.49
X33.678 Y28.532
X33.493 Y28.594
X15.171
X15.099 Y28.584
X15.038 Y28.557
X14.895 Y28.445
X14.846 Y28.412
X14.741 Y28.354
X14.788 Y28.193
X14.798 Y28.149
X14.959 Y28.241
X15.011 Y28.266
X15.065 Y28.282
X15.169 Y28.305
X15.19 Y28.315
X15.203 Y28.333
X15.238 Y28.418
X15.256 Y28.439
X15.282 Y28.447
X15.817 Y28.454
X15.889 Y28.478
X15.901 Y28.487
X15.903 Y28.502
X15.896 Y28.515
X15.882 Y28.52
X15.098 Z-0.585 F80
X15.066 Y28.512
X15.039 Y28.492
X15.025 Y28.462
Y28.428
X15.039 Y28.398
X15.066 Y28.377
X15.098 Y28.37
X15.139 Z-0.6
X15.156 Y28.365
X15.169 Y28.352
Y28.305
X15.177 Y28.307 F150
X15.217 Y28.313
X15.257 Y28.315
X33.495 Y28.316
X33.675 Y28.374
X33.71 Y28.422
X33.709 Y28.49
X33.678 Y28.532
X33.493 Y28.594
X15.171
X15.099 Y28.584
X15.038 Y28.557
X14.895 Y28.445
X14.846 Y28.412
X14.741 Y28.354
X14.788 Y28.193
X14.798 Y28.149
X14.959 Y28.241
X15.011 Y28.266
X15.065 Y28.282
X15.169 Y28.305
X15.19 Y28.315
X15.203 Y28.333
X15.238 Y28.418
X15.256 Y28.439
X15.282 Y28.447
X15.817 Y28.454
X15.889 Y28.478
X15.901 Y28.487
X15.903 Y28.502
X15.896 Y28.515
X15.882 Y28.52
X15.098 Z-0.885 F80
X15.066 Y28.512
X15.039 Y28.492
X15.025 Y28.462
Y28.428
X15.039 Y28.398
X15.066 Y28.377
X15.098 Y28.37
X15.139 Z-0.9
X15.156 Y28.365
X15.169 Y28.352
Y28.305
X15.177 Y28.307 F150
X15.217 Y28.313
X15.257 Y28.315
X33.495 Y28.316
X33.675 Y28.374
X33.71 Y28.422
X33.709 Y28.49
X33.678 Y28.532
X33.493 Y28.594
X15.171
X15.099 Y28.584
X15.038 Y28.557
X14.895 Y28.445
X14.846 Y28.412
X14.741 Y28.354
X14.788 Y28.193
X14.798 Y28.149
X14.959 Y28.241
X15.011 Y28.266
X15.065 Y28.282
X15.169 Y28.305
X15.19 Y28.315
X15.203 Y28.333
X15.238 Y28.418
X15.256 Y28.439
X15.282 Y28.447
X15.817 Y28.454
X15.889 Y28.478
X15.901 Y28.487
X15.903 Y28.502
X15.896 Y28.515
X15.882 Y28.52
X15.098 Z-1.185 F80
X15.066 Y28.512
X15.039 Y28.492
X15.025 Y28.462
Y28.428
X15.039 Y28.398
X15.066 Y28.377
X15.098 Y28.37
X15.139 Z-1.2
X15.156 Y28.365
X15.169 Y28.352
Y28.305
X15.177 Y28.307 F150
X15.217 Y28.313
X15.257 Y28.315
X33.495 Y28.316
X33.675 Y28.374
X33.71 Y28.422
X33.709 Y28.49
X33.678 Y28.532
X33.493 Y28.594
X15.171
X15.099 Y28.584
X15.038 Y28.557
X14.895 Y28.445
X14.846 Y28.412
X14.741 Y28.354
X14.788 Y28.193
X14.798 Y28.149
X14.959 Y28.241
X15.011 Y28.266
X15.065 Y28.282
X15.169 Y28.305
X15.19 Y28.315
X15.203 Y28.333
X15.238 Y28.418
X15.256 Y28.439
X15.282 Y28.447
X15.817 Y28.454
X15.889 Y28.478
X15.901 Y28.487
X15.903 Y28.502
X15.896 Y28.515
X15.882 Y28.52
X15.098 Z-1.485 F80
X15.066 Y28.512
X15.039 Y28.492
X15.025 Y28.462
Y28.428
X15.039 Y28.398
X15.066 Y28.377
X15.098 Y28.37
X15.139 Z-1.5
X15.156 Y28.365
X15.169 Y28.352
Y28.305
X15.177 Y28.307 F150
X15.217 Y28.313
X15.257 Y28.315
X33.495 Y28.316
X33.675 Y28.374
X33.71 Y28.422
X33.709 Y28.49
X33.678 Y28.532
X33.493 Y28.594
X15.171
X15.099 Y28.584
X15.038 Y28.557
X14.895 Y28.445
X14.846 Y28.412
X14.741 Y28.354
X14.788 Y28.193
X14.798 Y28.149
X14.959 Y28.241
X15.011 Y28.266
X15.065 Y28.282
X15.169 Y28.305
X15.19 Y28.315
X15.203 Y28.333
X15.238 Y28.418
X15.256 Y28.439
X15.282 Y28.447
X15.817 Y28.454
X15.889 Y28.478
X15.901 Y28.487
X15.903 Y28.502
X15.896 Y28.515
X15.882 Y28.52
X15.098 Z-1.785 F80
X15.066 Y28.512
X15.039 Y28.492
X15.025 Y28.462
Y28.428
X15.039 Y28.398
X15.066 Y28.377
X15.098 Y28.37
X15.139 Z-1.8
X15.156 Y28.365
X15.169 Y28.352
Y28.305
X15.177 Y28.307 F150
X15.217 Y28.313
X15.257 Y28.315
X33.495 Y28.316
X33.675 Y28.374
X33.71 Y28.422
X33.709 Y28.49
X33.678 Y28.532
X33.493 Y28.594
X15.171
X15.099 Y28.584
X15.038 Y28.557
X14.895 Y28.445
X14.846 Y28.412
X14.741 Y28.354
X14.788 Y28.193
X14.798 Y28.149
X14.959 Y28.241
X15.011 Y28.266
X15.065 Y28.282
X15.169 Y28.305
X15.19 Y28.315
X15.203 Y28.333
X15.238 Y28.418
X15.256 Y28.439
X15.282 Y28.447
X15.817 Y28.454
X15.889 Y28.478
X15.901 Y28.487
X15.903 Y28.502
X15.896 Y28.515
X15.882 Y28.52
X15.098 Z-2.085 F80
X15.066 Y28.512
X15.039 Y28.492
X15.025 Y28.462
Y28.428
X15.039 Y28.398
X15.066 Y28.377
X15.098 Y28.37
X15.139 Z-2.1
X15.156 Y28.365
X15.169 Y28.352
Y28.305
X15.177 Y28.307 F150
X15.217 Y28.313
X15.257 Y28.315
X33.495 Y28.316
X33.675 Y28.374
X33.71 Y28.422
X33.709 Y28.49
X33.678 Y28.532
X33.493 Y28.594
X15.171
X15.099 Y28.584
X15.038 Y28.557
X14.895 Y28.445
X14.846 Y28.412
X14.741 Y28.354
X14.788 Y28.193
X14.798 Y28.149
X14.959 Y28.241
X15.011 Y28.266
X15.065 Y28.282
X15.169 Y28.305
X15.19 Y28.315
X15.203 Y28.333
X15.238 Y28.418
X15.256 Y28.439
X15.282 Y28.447
X15.817 Y28.454
X15.889 Y28.478
X15.901 Y28.487
X15.903 Y28.502
X15.896 Y28.515
X15.882 Y28.52
X15.098 Z-2.385 F80
X15.066 Y28.512
X15.039 Y28.492
X15.025 Y28.462
Y28.428
X15.039 Y28.398
X15.066 Y28.377
X15.098 Y28.37
X15.139 Z-2.4
X15.156 Y28.365
X15.169 Y28.352
Y28.305
X15.177 Y28.307 F150
X15.217 Y28.313
X15.257 Y28.315
X33.495 Y28.316
X33.675 Y28.374
X33.71 Y28.422
X33.709 Y28.49
X33.678 Y28.532
X33.493 Y28.594
X15.171
X15.099 Y28.584
X15.038 Y28.557
X14.895 Y28.445
X14.846 Y28.412
X14.741 Y28.354
X14.788 Y28.193
X14.798 Y28.149
X14.959 Y28.241
X15.011 Y28.266
X15.065 Y28.282
X15.169 Y28.305
X15.19 Y28.315
X15.203 Y28.333
X15.238 Y28.418
X15.256 Y28.439
X15.282 Y28.447
X15.817 Y28.454
X15.889 Y28.478
X15.901 Y28.487
X15.903 Y28.502
X15.896 Y28.515
X15.882 Y28.52
X15.098 Z-2.685 F80
X15.066 Y28.512
X15.039 Y28.492
X15.025 Y28.462
Y28.428
X15.039 Y28.398
X15.066 Y28.377
X15.098 Y28.37
X15.139 Z-2.7
X15.156 Y28.365
X15.169 Y28.352
Y28.305
X15.177 Y28.307 F150
X15.217 Y28.313
X15.257 Y28.315
X33.495 Y28.316
X33.675 Y28.374
X33.71 Y28.422
X33.709 Y28.49
X33.678 Y28.532
X33.493 Y28.594
X15.171
X15.099 Y28.584
X15.038 Y28.557
X14.895 Y28.445
X14.846 Y28.412
X14.741 Y28.354
X14.788 Y28.193
X14.798 Y28.149
X14.959 Y28.241
X15.011 Y28.266
X15.065 Y28.282
X15.169 Y28.305
X15.19 Y28.315
X15.203 Y28.333
X15.238 Y28.418
X15.256 Y28.439
X15.282 Y28.447
X15.817 Y28.454
X15.889 Y28.478
X15.901 Y28.487
X15.903 Y28.502
X15.896 Y28.515
X15.882 Y28.52
X15.098 Z-2.985 F80
X15.066 Y28.512
X15.039 Y28.492
X15.025 Y28.462
Y28.428
X15.039 Y28.398
X15.066 Y28.377
X15.098 Y28.37
X15.139 Z-3
X15.156 Y28.365
X15.169 Y28.352
Y28.305
X15.177 Y28.307 F150
X15.217 Y28.313
X15.257 Y28.315
X33.495 Y28.316
X33.675 Y28.374
X33.71 Y28.422
X33.709 Y28.49
X33.678 Y28.532
X33.493 Y28.594
X15.171
X15.099 Y28.584
X15.038 Y28.557
X14.895 Y28.445
X14.846 Y28.412
X14.741 Y28.354
X14.788 Y28.193
X14.798 Y28.149
X14.952 Y28.237
X14.959 Y28.241
X15.011 Y28.266
X15.065 Y28.282
X15.169 Y28.305
X15.177 Y28.307 F80
X15.219 Y28.313 Z-2.991
X15.257 Y28.315 Z-2.971
X15.29 Z-2.938
X15.311 Z-2.896
X15.319 Z-2.85
G0 Z4
X16.319 Y26.013
Z0.315
G1 X15.159 Z0.217 F80
X15.126 Y26.005
X15.1 Y25.984
X15.085 Y25.954
Y25.921
X15.1 Y25.891
X15.126 Y25.87
X15.159 Y25.863
X16.698 Z0.087
X16.731 Y25.87
X16.757 Y25.891
X16.771 Y25.921
Y25.954
X16.757 Y25.984
X16.731 Y26.005
X16.698 Y26.013
X15.159 Z-0.043
X15.126 Y26.005
X15.1 Y25.984
X15.085 Y25.954
Y25.921
X15.1 Y25.891
X15.126 Y25.87
X15.159 Y25.863
X16.698 Z-0.173
X16.731 Y25.87
X16.757 Y25.891
X16.771 Y25.921
Y25.954
X16.757 Y25.984
X16.731 Y26.005
X16.698 Y26.013
X15.199 Z-0.3
X15.185 Y26.019
X15.179 Y26.033
X15.185 Y26.047
X15.199 Y26.053
X15.213 Y26.059
X15.219 Y26.073
X15.213 Y26.087
X15.199 Y26.093
X15.185 F150
X15.084 Y26.074
X15.034 Y26.046
X14.871 Y25.842
X14.844 Y25.812
X14.813 Y25.784
X14.761 Y25.743
X14.795 Y25.578
X14.802 Y25.526
X14.801 Y25.473
X14.952 Y25.629
X14.999 Y25.67
X15.053 Y25.703
X15.166 Y25.76
X15.222 Y25.782
X15.281 Y25.796
X15.395 Y25.812
X15.448 Y25.816
X33.494
X33.675 Y25.875
X33.71 Y25.926
Y25.988
X33.674 Y26.036
X33.495 Y26.094
X15.199 Y26.093
X15.176 Y26.087
X15.157 Y26.072
X15.148 Y26.049
X15.15 Y26.025
X15.163 Y26.004
X15.184 Y25.992
X15.355 Y25.941
X15.965 Y25.953
X16.03 Y25.975
X16.04 Y25.983
X16.042 Y25.997
X16.036 Y26.008
X16.023 Y26.013
X15.199 Z-0.6 F80
X15.185 Y26.019
X15.179 Y26.033
X15.185 Y26.047
X15.199 Y26.053
X15.213 Y26.059
X15.219 Y26.073
X15.213 Y26.087
X15.199 Y26.093
X15.185 F150
X15.084 Y26.074
X15.034 Y26.046
X14.871 Y25.842
X14.844 Y25.812
X14.813 Y25.784
X14.761 Y25.743
X14.795 Y25.578
X14.802 Y25.526
X14.801 Y25.473
X14.952 Y25.629
X14.999 Y25.67
X15.053 Y25.703
X15.166 Y25.76
X15.222 Y25.782
X15.281 Y25.796
X15.395 Y25.812
X15.448 Y25.816
X33.494
X33.675 Y25.875
X33.71 Y25.926
Y25.988
X33.674 Y26.036
X33.495 Y26.094
X15.199 Y26.093
X15.176 Y26.087
X15.157 Y26.072
X15.148 Y26.049
X15.15 Y26.025
X15.163 Y26.004
X15.184 Y25.992
X15.355 Y25.941
X15.965 Y25.953
X16.03 Y25.975
X16.04 Y25.983
X16.042 Y25.997
X16.036 Y26.008
X16.023 Y26.013
X15.199 Z-0.9 F80
X15.182 Y26.018
X15.171 Y26.031
Y26.09
X15.084 Y26.074 F150
X15.034 Y26.046
X14.871 Y25.842
X14.844 Y25.812
X14.813 Y25.784
X14.761 Y25.743
X14.795 Y25.578
X14.802 Y25.526
X14.801 Y25.473
X14.952 Y25.629
X14.999 Y25.67
X15.053 Y25.703
X15.166 Y25.76
X15.222 Y25.782
X15.281 Y25.796
X15.395 Y25.812
X15.448 Y25.816
X33.494
X33.675 Y25.875
X33.71 Y25.926
Y25.988
X33.674 Y26.036
X33.495 Y26.094
X15.185 Y26.093
X15.171 Y26.09
X15.146 Y26.078
X15.131 Y26.055
X15.13 Y26.028
X15.143 Y26.004
X15.167 Y25.99
X15.355 Y25.941
X15.965 Y25.953
X16.03 Y25.975
X16.04 Y25.983
X16.042 Y25.997
X16.036 Y26.008
X16.023 Y26.013
X15.199 Z-1.2 F80
X15.185 Y26.019
X15.179 Y26.033
X15.185 Y26.047
X15.199 Y26.053
X15.213 Y26.059
X15.219 Y26.073
X15.213 Y26.087
X15.199 Y26.093
X15.185 F150
X15.084 Y26.074
X15.034 Y26.046
X14.871 Y25.842
X14.844 Y25.812
X14.813 Y25.784
X14.761 Y25.743
X14.795 Y25.578
X14.802 Y25.526
X14.801 Y25.473
X14.952 Y25.629
X14.999 Y25.67
X15.053 Y25.703
X15.166 Y25.76
X15.222 Y25.782
X15.281 Y25.796
X15.395 Y25.812
X15.448 Y25.816
X33.494
X33.675 Y25.875
X33.71 Y25.926
Y25.988
X33.674 Y26.036
X33.495 Y26.094
X15.199 Y26.093
X15.176 Y26.087
X15.157 Y26.072
X15.148 Y26.049
X15.15 Y26.025
X15.163 Y26.004
X15.184 Y25.992
X15.355 Y25.941
X15.965 Y25.953
X16.03 Y25.975
X16.04 Y25.983
X16.042 Y25.997
X16.036 Y26.008
X16.023 Y26.013
X15.199 Z-1.5 F80
X15.185 Y26.019
X15.179 Y26.033
X15.185 Y26.047
X15.199 Y26.053
X15.213 Y26.059
X15.219 Y26.073
X15.213 Y26.087
X15.199 Y26.093
X15.185 F150
X15.084 Y26.074
X15.034 Y26.046
X14.871 Y25.842
X14.844 Y25.812
X14.813 Y25.784
X14.761 Y25.743
X14.795 Y25.578
X14.802 Y25.526
X14.801 Y25.473
X14.952 Y25.629
X14.999 Y25.67
X15.053 Y25.703
X15.166 Y25.76
X15.222 Y25.782
X15.281 Y25.796
X15.395 Y25.812
X15.448 Y25.816
X33.494
X33.675 Y25.875
X33.71 Y25.926
Y25.988
X33.674 Y26.036
X33.495 Y26.094
X15.199 Y26.093
X15.176 Y26.087
X15.157 Y26.072
X15.148 Y26.049
X15.15 Y26.025
X15.163 Y26.004
X15.184 Y25.992
X15.355 Y25.941
X15.965 Y25.953
X16.03 Y25.975
X16.04 Y25.983
X16.042 Y25.997
X16.036 Y26.008
X16.023 Y26.013
X15.199 Z-1.8 F80
X15.185 Y26.019
X15.179 Y26.033
X15.185 Y26.047
X15.199 Y26.053
X15.213 Y26.059
X15.219 Y26.073
X15.213 Y26.087
X15.199 Y26.093
X15.185 F150
X15.084 Y26.074
X15.034 Y26.046
X14.871 Y25.842
X14.844 Y25.812
X14.813 Y25.784
X14.761 Y25.743
X14.795 Y25.578
X14.802 Y25.526
X14.801 Y25.473
X14.952 Y25.629
X14.999 Y25.67
X15.053 Y25.703
X15.166 Y25.76
X15.222 Y25.782
X15.281 Y25.796
X15.395 Y25.812
X15.448 Y25.816
X33.494
X33.675 Y25.875
X33.71 Y25.926
Y25.988
X33.674 Y26.036
X33.495 Y26.094
X15.199 Y26.093
X15.176 Y26.087
X15.157 Y26.072
X15.148 Y26.049
X15.15 Y26.025
X15.163 Y26.004
X15.184 Y25.992
X15.355 Y25.941
X15.965 Y25.953
X16.03 Y25.975
X16.04 Y25.983
X16.042 Y25.997
X16.036 Y26.008
X16.023 Y26.013
X15.199 Z-2.1 F80
X15.182 Y26.018
X15.171 Y26.031
Y26.09
X15.084 Y26.074 F150
X15.034 Y26.046
X14.871 Y25.842
X14.844 Y25.812
X14.813 Y25.784
X14.761 Y25.743
X14.795 Y25.578
X14.802 Y25.526
X14.801 Y25.473
X14.952 Y25.629
X14.999 Y25.67
X15.053 Y25.703
X15.166 Y25.76
X15.222 Y25.782
X15.281 Y25.796
X15.395 Y25.812
X15.448 Y25.816
X33.494
X33.675 Y25.875
X33.71 Y25.926
Y25.988
X33.674 Y26.036
X33.495 Y26.094
X15.185 Y26.093
X15.171 Y26.09
X15.146 Y26.078
X15.131 Y26.055
X15.13 Y26.028
X15.143 Y26.004
X15.167 Y25.99
X15.355 Y25.941
X15.965 Y25.953
X16.03 Y25.975
X16.04 Y25.983
X16.042 Y25.997
X16.036 Y26.008
X16.023 Y26.013
X15.199 Z-2.4 F80
X15.182 Y26.018
X15.171 Y26.031
Y26.09
X15.084 Y26.074 F150
X15.034 Y26.046
X14.871 Y25.842
X14.844 Y25.812
X14.813 Y25.784
X14.761 Y25.743
X14.795 Y25.578
X14.802 Y25.526
X14.801 Y25.473
X14.952 Y25.629
X14.999 Y25.67
X15.053 Y25.703
X15.166 Y25.76
X15.222 Y25.782
X15.281 Y25.796
X15.395 Y25.812
X15.448 Y25.816
X33.494
X33.675 Y25.875
X33.71 Y25.926
Y25.988
X33.674 Y26.036
X33.495 Y26.094
X15.448 Y26.093
X15.185
X15.171 Y26.09
X15.146 Y26.078
X15.131 Y26.055
X15.13 Y26.028
X15.143 Y26.004
X15.167 Y25.99
X15.355 Y25.941
X15.965 Y25.953
X16.03 Y25.975
X16.04 Y25.983
X16.042 Y25.997
X16.036 Y26.008
X16.023 Y26.013
X15.199 Z-2.7 F80
X15.182 Y26.018
X15.171 Y26.031
Y26.09
X15.084 Y26.074 F150
X15.034 Y26.046
X14.871 Y25.842
X14.844 Y25.812
X14.813 Y25.784
X14.761 Y25.743
X14.795 Y25.578
X14.802 Y25.526
X14.801 Y25.473
X14.952 Y25.629
X14.999 Y25.67
X15.053 Y25.703
X15.166 Y25.76
X15.222 Y25.782
X15.281 Y25.796
X15.395 Y25.812
X15.448 Y25.816
X33.494
X33.675 Y25.875
X33.71 Y25.926
Y25.988
X33.674 Y26.036
X33.495 Y26.094
X15.185 Y26.093
X15.171 Y26.09
X15.146 Y26.078
X15.131 Y26.055
X15.13 Y26.028
X15.143 Y26.004
X15.167 Y25.99
X15.355 Y25.941
X15.965 Y25.953
X16.03 Y25.975
X16.04 Y25.983
X16.042 Y25.997
X16.036 Y26.008
X16.023 Y26.013
X15.199 Z-3 F80
X15.182 Y26.018
X15.171 Y26.031
Y26.09
X15.084 Y26.074 F150
X15.034 Y26.046
X14.871 Y25.842
X14.844 Y25.812
X14.813 Y25.784
X14.761 Y25.743
X14.795 Y25.578
X14.802 Y25.526
X14.801 Y25.473
X14.952 Y25.629
X14.999 Y25.67
X15.053 Y25.703
X15.166 Y25.76
X15.222 Y25.782
X15.281 Y25.796
X15.395 Y25.812
X15.448 Y25.816
X33.494
X33.675 Y25.875
X33.71 Y25.926
Y25.988
X33.674 Y26.036
X33.495 Y26.094
X15.448 Y26.093
X15.185
X15.171 Y26.09
X15.125 Y26.082 Z-2.993 F80
X15.084 Y26.074 Z-2.971
X15.062 Y26.061 Z-2.947
X15.045 Y26.052 Z-2.918
X15.034 Y26.046 Z-2.885
X15.032 Y26.042 Z-2.85
G0 Z4
X16.277 Y20.979
Z0.315
G1 X15.116 Z0.217 F80
X15.083 Y20.972
X15.057 Y20.951
X15.043 Y20.921
Y20.887
X15.057 Y20.857
X15.083 Y20.836
X15.116 Y20.829
X16.656 Z0.087
X16.688 Y20.836
X16.714 Y20.857
X16.729 Y20.887
Y20.921
X16.714 Y20.951
X16.688 Y20.972
X16.656 Y20.979
X15.116 Z-0.043
X15.083 Y20.972
X15.057 Y20.951
X15.043 Y20.921
Y20.887
X15.057 Y20.857
X15.083 Y20.836
X15.116 Y20.829
X16.656 Z-0.173
X16.688 Y20.836
X16.714 Y20.857
X16.729 Y20.887
Y20.921
X16.714 Y20.951
X16.688 Y20.972
X16.656 Y20.979
X15.157 Z-0.3
X15.139 Y20.986
X15.13 Y21.003
X15.135 Y21.021
X15.147 Y21.036
X15.152 Y21.051
X15.148 Y21.066
X15.136 Y21.076
X15.12 Y21.077
X15.077 Y21.068 F150
X15.027 Y21.031
X14.898 Y20.822
X14.87 Y20.782
X14.837 Y20.746
X14.76 Y20.673
X14.784 Y20.596
X14.798 Y20.533
X14.803 Y20.495
X14.806 Y20.442
X14.802 Y20.389
X14.79 Y20.337
X14.765 Y20.254
X14.941 Y20.512
X14.966 Y20.544
X14.995 Y20.574
X15.075 Y20.649
X15.119 Y20.684
X15.168 Y20.713
X15.271 Y20.763
X15.319 Y20.782
X15.369 Y20.794
X15.459 Y20.81
X15.524 Y20.816
X31.012
X31.18 Y20.859
X31.219 Y20.898
X31.221 Y20.905
X31.261 Y21.063
X31.259 Y23.359
X31.215 Y23.513
X31.173 Y23.553
X31.012 Y23.594
X18.23 Y23.59
X18.064 Y23.535
X18.028 Y23.484
Y23.421
X18.063 Y23.374
X18.229 Y23.32
X30.265 Y23.315
X30.307 Y23.312
X30.348 Y23.306
X30.448 Y23.283
X30.498 Y23.268
X30.545 Y23.246
X30.638 Y23.195
X30.68 Y23.169
X30.717 Y23.137
X30.783 Y23.073
X30.814 Y23.04
X30.841 Y23.003
X30.889 Y22.927
X30.914 Y22.88
X30.932 Y22.831
X30.966 Y22.715
X30.977 Y22.663
X30.98 Y22.611
Y21.8
X30.977 Y21.753
X30.969 Y21.707
X30.945 Y21.613
X30.929 Y21.564
X30.906 Y21.518
X30.852 Y21.424
X30.824 Y21.383
X30.791 Y21.345
X30.728 Y21.283
X30.694 Y21.252
X30.656 Y21.227
X30.576 Y21.179
X30.527 Y21.154
X30.476 Y21.137
X30.358 Y21.107
X30.312 Y21.098
X30.265 Y21.096
X15.185 Y21.091
X15.12 Y21.077
X15.096 Y21.066
X15.079 Y21.046
X15.073 Y21.02
X15.079 Y20.995
X15.095 Y20.974
X15.119 Y20.962
X15.333 Y20.915
X15.955 Y20.952
X15.981 Y20.979
X15.157 Z-0.6 F80
X15.139 Y20.986
X15.13 Y21.003
X15.135 Y21.021
X15.147 Y21.036
X15.152 Y21.051
X15.148 Y21.066
X15.136 Y21.076
X15.12 Y21.077
X15.077 Y21.068 F150
X15.027 Y21.031
X14.898 Y20.822
X14.87 Y20.782
X14.837 Y20.746
X14.76 Y20.673
X14.784 Y20.596
X14.798 Y20.533
X14.803 Y20.495
X14.806 Y20.442
X14.802 Y20.389
X14.79 Y20.337
X14.765 Y20.254
X14.941 Y20.512
X14.966 Y20.544
X14.995 Y20.574
X15.075 Y20.649
X15.119 Y20.684
X15.168 Y20.713
X15.271 Y20.763
X15.319 Y20.782
X15.369 Y20.794
X15.459 Y20.81
X15.524 Y20.816
X31.012
X31.18 Y20.859
X31.219 Y20.898
X31.221 Y20.905
X31.261 Y21.063
X31.259 Y23.359
X31.215 Y23.513
X31.173 Y23.553
X31.012 Y23.594
X18.23 Y23.59
X18.064 Y23.535
X18.028 Y23.484
Y23.421
X18.063 Y23.374
X18.229 Y23.32
X30.265 Y23.315
X30.307 Y23.312
X30.348 Y23.306
X30.448 Y23.283
X30.498 Y23.268
X30.545 Y23.246
X30.638 Y23.195
X30.68 Y23.169
X30.717 Y23.137
X30.783 Y23.073
X30.814 Y23.04
X30.841 Y23.003
X30.889 Y22.927
X30.914 Y22.88
X30.932 Y22.831
X30.966 Y22.715
X30.977 Y22.663
X30.98 Y22.611
Y21.8
X30.977 Y21.753
X30.969 Y21.707
X30.945 Y21.613
X30.929 Y21.564
X30.906 Y21.518
X30.852 Y21.424
X30.824 Y21.383
X30.791 Y21.345
X30.728 Y21.283
X30.694 Y21.252
X30.656 Y21.227
X30.576 Y21.179
X30.527 Y21.154
X30.476 Y21.137
X30.358 Y21.107
X30.312 Y21.098
X30.265 Y21.096
X15.185 Y21.091
X15.12 Y21.077
X15.096 Y21.066
X15.079 Y21.046
X15.073 Y21.02
X15.079 Y20.995
X15.095 Y20.974
X15.119 Y20.962
X15.333 Y20.915
X15.955 Y20.952
X15.981 Y20.979
X15.157 Z-0.9 F80
X15.139 Y20.986
X15.13 Y21.003
X15.135 Y21.021
X15.147 Y21.036
X15.152 Y21.051
X15.148 Y21.066
X15.136 Y21.076
X15.12 Y21.077
X15.077 Y21.068 F150
X15.027 Y21.031
X14.898 Y20.822
X14.87 Y20.782
X14.837 Y20.746
X14.76 Y20.673
X14.784 Y20.596
X14.798 Y20.533
X14.803 Y20.495
X14.806 Y20.442
X14.802 Y20.389
X14.79 Y20.337
X14.765 Y20.254
X14.941 Y20.512
X14.966 Y20.544
X14.995 Y20.574
X15.075 Y20.649
X15.119 Y20.684
X15.168 Y20.713
X15.271 Y20.763
X15.319 Y20.782
X15.369 Y20.794
X15.459 Y20.81
X15.524 Y20.816
X31.012
X31.18 Y20.859
X31.219 Y20.898
X31.221 Y20.905
X31.261 Y21.063
X31.259 Y23.359
X31.215 Y23.513
X31.173 Y23.553
X31.012 Y23.594
X18.23 Y23.59
X18.064 Y23.535
X18.028 Y23.484
Y23.421
X18.063 Y23.374
X18.229 Y23.32
X30.265 Y23.315
X30.307 Y23.312
X30.348 Y23.306
X30.448 Y23.283
X30.498 Y23.268
X30.545 Y23.246
X30.638 Y23.195
X30.68 Y23.169
X30.717 Y23.137
X30.783 Y23.073
X30.814 Y23.04
X30.841 Y23.003
X30.889 Y22.927
X30.914 Y22.88
X30.932 Y22.831
X30.966 Y22.715
X30.977 Y22.663
X30.98 Y22.611
Y21.8
X30.977 Y21.753
X30.969 Y21.707
X30.945 Y21.613
X30.929 Y21.564
X30.906 Y21.518
X30.852 Y21.424
X30.824 Y21.383
X30.791 Y21.345
X30.728 Y21.283
X30.694 Y21.252
X30.656 Y21.227
X30.576 Y21.179
X30.527 Y21.154
X30.476 Y21.137
X30.358 Y21.107
X30.312 Y21.098
X30.265 Y21.096
X15.185 Y21.091
X15.12 Y21.077
X15.096 Y21.066
X15.079 Y21.046
X15.073 Y21.02
X15.079 Y20.995
X15.095 Y20.974
X15.119 Y20.962
X15.333 Y20.915
X15.955 Y20.952
X15.981 Y20.979
X15.157 Z-1.2 F80
X15.139 Y20.986
X15.13 Y21.003
X15.135 Y21.021
X15.147 Y21.036
X15.152 Y21.051
X15.148 Y21.066
X15.136 Y21.076
X15.12 Y21.077
X15.077 Y21.068 F150
X15.027 Y21.031
X14.898 Y20.822
X14.87 Y20.782
X14.837 Y20.746
X14.76 Y20.673
X14.784 Y20.596
X14.798 Y20.533
X14.803 Y20.495
X14.806 Y20.442
X14.802 Y20.389
X14.79 Y20.337
X14.765 Y20.254
X14.941 Y20.512
X14.966 Y20.544
X14.995 Y20.574
X15.075 Y20.649
X15.119 Y20.684
X15.168 Y20.713
X15.271 Y20.763
X15.319 Y20.782
X15.369 Y20.794
X15.459 Y20.81
X15.524 Y20.816
X31.012
X31.18 Y20.859
X31.219 Y20.898
X31.221 Y20.905
X31.261 Y21.063
X31.259 Y23.359
X31.215 Y23.513
X31.173 Y23.553
X31.012 Y23.594
X18.23 Y23.59
X18.064 Y23.535
X18.028 Y23.484
Y23.421
X18.063 Y23.374
X18.229 Y23.32
X30.265 Y23.315
X30.307 Y23.312
X30.348 Y23.306
X30.448 Y23.283
X30.498 Y23.268
X30.545 Y23.246
X30.638 Y23.195
X30.68 Y23.169
X30.717 Y23.137
X30.783 Y23.073
X30.814 Y23.04
X30.841 Y23.003
X30.889 Y22.927
X30.914 Y22.88
X30.932 Y22.831
X30.966 Y22.715
X30.977 Y22.663
X30.98 Y22.611
Y21.8
X30.977 Y21.753
X30.969 Y21.707
X30.945 Y21.613
X30.929 Y21.564
X30.906 Y21.518
X30.852 Y21.424
X30.824 Y21.383
X30.791 Y21.345
X30.728 Y21.283
X30.694 Y21.252
X30.656 Y21.227
X30.576 Y21.179
X30.527 Y21.154
X30.476 Y21.137
X30.358 Y21.107
X30.312 Y21.098
X30.265 Y21.096
X15.185 Y21.091
X15.12 Y21.077
X15.096 Y21.066
X15.079 Y21.046
X15.073 Y21.02
X15.079 Y20.995
X15.095 Y20.974
X15.119 Y20.962
X15.333 Y20.915
X15.955 Y20.952
X15.981 Y20.979
X15.157 Z-1.5 F80
X15.139 Y20.986
X15.13 Y21.003
X15.135 Y21.021
X15.147 Y21.036
X15.152 Y21.051
X15.148 Y21.066
X15.136 Y21.076
X15.12 Y21.077
X15.077 Y21.068 F150
X15.027 Y21.031
X14.898 Y20.822
X14.87 Y20.782
X14.837 Y20.746
X14.76 Y20.673
X14.784 Y20.596
X14.798 Y20.533
X14.803 Y20.495
X14.806 Y20.442
X14.802 Y20.389
X14.79 Y20.337
X14.765 Y20.254
X14.941 Y20.512
X14.966 Y20.544
X14.995 Y20.574
X15.075 Y20.649
X15.119 Y20.684
X15.168 Y20.713
X15.271 Y20.763
X15.319 Y20.782
X15.369 Y20.794
X15.459 Y20.81
X15.524 Y20.816
X31.012
X31.18 Y20.859
X31.219 Y20.898
X31.221 Y20.905
X31.261 Y21.063
X31.259 Y23.359
X31.215 Y23.513
X31.173 Y23.553
X31.012 Y23.594
X18.23 Y23.59
X18.064 Y23.535
X18.028 Y23.484
Y23.421
X18.063 Y23.374
X18.229 Y23.32
X30.265 Y23.315
X30.307 Y23.312
X30.348 Y23.306
X30.448 Y23.283
X30.498 Y23.268
X30.545 Y23.246
X30.638 Y23.195
X30.68 Y23.169
X30.717 Y23.137
X30.783 Y23.073
X30.814 Y23.04
X30.841 Y23.003
X30.889 Y22.927
X30.914 Y22.88
X30.932 Y22.831
X30.966 Y22.715
X30.977 Y22.663
X30.98 Y22.611
Y21.8
X30.977 Y21.753
X30.969 Y21.707
X30.945 Y21.613
X30.929 Y21.564
X30.906 Y21.518
X30.852 Y21.424
X30.824 Y21.383
X30.791 Y21.345
X30.728 Y21.283
X30.694 Y21.252
X30.656 Y21.227
X30.576 Y21.179
X30.527 Y21.154
X30.476 Y21.137
X30.358 Y21.107
X30.312 Y21.098
X30.265 Y21.096
X15.185 Y21.091
X15.12 Y21.077
X15.096 Y21.066
X15.079 Y21.046
X15.073 Y21.02
X15.079 Y20.995
X15.095 Y20.974
X15.119 Y20.962
X15.333 Y20.915
X15.955 Y20.952
X15.981 Y20.979
X15.157 Z-1.8 F80
X15.139 Y20.986
X15.13 Y21.003
X15.135 Y21.021
X15.147 Y21.036
X15.152 Y21.051
X15.148 Y21.066
X15.136 Y21.076
X15.12 Y21.077
X15.077 Y21.068 F150
X15.027 Y21.031
X14.898 Y20.822
X14.87 Y20.782
X14.837 Y20.746
X14.76 Y20.673
X14.784 Y20.596
X14.798 Y20.533
X14.803 Y20.495
X14.806 Y20.442
X14.802 Y20.389
X14.79 Y20.337
X14.765 Y20.254
X14.941 Y20.512
X14.966 Y20.544
X14.995 Y20.574
X15.075 Y20.649
X15.119 Y20.684
X15.168 Y20.713
X15.271 Y20.763
X15.319 Y20.782
X15.369 Y20.794
X15.459 Y20.81
X15.524 Y20.816
X31.012
X31.18 Y20.859
X31.219 Y20.898
X31.221 Y20.905
X31.261 Y21.063
X31.259 Y23.359
X31.215 Y23.513
X31.173 Y23.553
X31.012 Y23.594
X18.23 Y23.59
X18.064 Y23.535
X18.028 Y23.484
Y23.421
X18.063 Y23.374
X18.229 Y23.32
X30.265 Y23.315
X30.307 Y23.312
X30.348 Y23.306
X30.448 Y23.283
X30.498 Y23.268
X30.545 Y23.246
X30.638 Y23.195
X30.68 Y23.169
X30.717 Y23.137
X30.783 Y23.073
X30.814 Y23.04
X30.841 Y23.003
X30.889 Y22.927
X30.914 Y22.88
X30.932 Y22.831
X30.966 Y22.715
X30.977 Y22.663
X30.98 Y22.611
Y21.8
X30.977 Y21.753
X30.969 Y21.707
X30.945 Y21.613
X30.929 Y21.564
X30.906 Y21.518
X30.852 Y21.424
X30.824 Y21.383
X30.791 Y21.345
X30.728 Y21.283
X30.694 Y21.252
X30.656 Y21.227
X30.576 Y21.179
X30.527 Y21.154
X30.476 Y21.137
X30.358 Y21.107
X30.312 Y21.098
X30.265 Y21.096
X15.185 Y21.091
X15.12 Y21.077
X15.096 Y21.066
X15.079 Y21.046
X15.073 Y21.02
X15.079 Y20.995
X15.095 Y20.974
X15.119 Y20.962
X15.333 Y20.915
X15.955 Y20.952
X15.981 Y20.979
X15.157 Z-2.1 F80
X15.139 Y20.986
X15.13 Y21.003
X15.135 Y21.021
X15.147 Y21.036
X15.152 Y21.051
X15.148 Y21.066
X15.136 Y21.076
X15.12 Y21.077
X15.077 Y21.068 F150
X15.027 Y21.031
X14.898 Y20.822
X14.87 Y20.782
X14.837 Y20.746
X14.76 Y20.673
X14.784 Y20.596
X14.798 Y20.533
X14.803 Y20.495
X14.806 Y20.442
X14.802 Y20.389
X14.79 Y20.337
X14.765 Y20.254
X14.941 Y20.512
X14.966 Y20.544
X14.995 Y20.574
X15.075 Y20.649
X15.119 Y20.684
X15.168 Y20.713
X15.271 Y20.763
X15.319 Y20.782
X15.369 Y20.794
X15.459 Y20.81
X15.524 Y20.816
X31.012
X31.18 Y20.859
X31.219 Y20.898
X31.221 Y20.905
X31.261 Y21.063
X31.259 Y23.359
X31.215 Y23.513
X31.173 Y23.553
X31.012 Y23.594
X18.23 Y23.59
X18.064 Y23.535
X18.028 Y23.484
Y23.421
X18.063 Y23.374
X18.229 Y23.32
X30.265 Y23.315
X30.307 Y23.312
X30.348 Y23.306
X30.448 Y23.283
X30.498 Y23.268
X30.545 Y23.246
X30.638 Y23.195
X30.68 Y23.169
X30.717 Y23.137
X30.783 Y23.073
X30.814 Y23.04
X30.841 Y23.003
X30.889 Y22.927
X30.914 Y22.88
X30.932 Y22.831
X30.966 Y22.715
X30.977 Y22.663
X30.98 Y22.611
Y21.8
X30.977 Y21.753
X30.969 Y21.707
X30.945 Y21.613
X30.929 Y21.564
X30.906 Y21.518
X30.852 Y21.424
X30.824 Y21.383
X30.791 Y21.345
X30.728 Y21.283
X30.694 Y21.252
X30.656 Y21.227
X30.576 Y21.179
X30.527 Y21.154
X30.476 Y21.137
X30.358 Y21.107
X30.312 Y21.098
X30.265 Y21.096
X15.185 Y21.091
X15.12 Y21.077
X15.096 Y21.066
X15.079 Y21.046
X15.073 Y21.02
X15.079 Y20.995
X15.095 Y20.974
X15.119 Y20.962
X15.333 Y20.915
X15.955 Y20.952
X15.981 Y20.979
X15.157 Z-2.4 F80
X15.139 Y20.986
X15.13 Y21.003
X15.135 Y21.021
X15.147 Y21.036
X15.152 Y21.051
X15.148 Y21.066
X15.136 Y21.076
X15.12 Y21.077
X15.077 Y21.068 F150
X15.027 Y21.031
X14.898 Y20.822
X14.87 Y20.782
X14.837 Y20.746
X14.76 Y20.673
X14.784 Y20.596
X14.798 Y20.533
X14.803 Y20.495
X14.806 Y20.442
X14.802 Y20.389
X14.79 Y20.337
X14.765 Y20.254
X14.941 Y20.512
X14.966 Y20.544
X14.995 Y20.574
X15.075 Y20.649
X15.119 Y20.684
X15.168 Y20.713
X15.271 Y20.763
X15.319 Y20.782
X15.369 Y20.794
X15.459 Y20.81
X15.524 Y20.816
X31.012
X31.18 Y20.859
X31.219 Y20.898
X31.221 Y20.905
X31.261 Y21.063
X31.259 Y23.359
X31.215 Y23.513
X31.173 Y23.553
X31.012 Y23.594
X18.23 Y23.59
X18.064 Y23.535
X18.028 Y23.484
Y23.421
X18.063 Y23.374
X18.229 Y23.32
X30.265 Y23.315
X30.307 Y23.312
X30.348 Y23.306
X30.448 Y23.283
X30.498 Y23.268
X30.545 Y23.246
X30.638 Y23.195
X30.68 Y23.169
X30.717 Y23.137
X30.783 Y23.073
X30.814 Y23.04
X30.841 Y23.003
X30.889 Y22.927
X30.914 Y22.88
X30.932 Y22.831
X30.966 Y22.715
X30.977 Y22.663
X30.98 Y22.611
Y21.8
X30.977 Y21.753
X30.969 Y21.707
X30.945 Y21.613
X30.929 Y21.564
X30.906 Y21.518
X30.852 Y21.424
X30.824 Y21.383
X30.791 Y21.345
X30.728 Y21.283
X30.694 Y21.252
X30.656 Y21.227
X30.576 Y21.179
X30.527 Y21.154
X30.476 Y21.137
X30.358 Y21.107
X30.312 Y21.098
X30.265 Y21.096
X15.185 Y21.091
X15.12 Y21.077
X15.096 Y21.066
X15.079 Y21.046
X15.073 Y21.02
X15.079 Y20.995
X15.095 Y20.974
X15.119 Y20.962
X15.333 Y20.915
X15.955 Y20.952
X15.981 Y20.979
X15.157 Z-2.7 F80
X15.139 Y20.986
X15.13 Y21.003
X15.135 Y21.021
X15.147 Y21.036
X15.152 Y21.051
X15.148 Y21.066
X15.136 Y21.076
X15.12 Y21.077
X15.077 Y21.068 F150
X15.027 Y21.031
X14.898 Y20.822
X14.87 Y20.782
X14.837 Y20.746
X14.76 Y20.673
X14.784 Y20.596
X14.798 Y20.533
X14.803 Y20.495
X14.806 Y20.442
X14.802 Y20.389
X14.79 Y20.337
X14.765 Y20.254
X14.941 Y20.512
X14.966 Y20.544
X14.995 Y20.574
X15.075 Y20.649
X15.119 Y20.684
X15.168 Y20.713
X15.271 Y20.763
X15.319 Y20.782
X15.369 Y20.794
X15.459 Y20.81
X15.524 Y20.816
X31.012
X31.18 Y20.859
X31.219 Y20.898
X31.221 Y20.905
X31.261 Y21.063
X31.259 Y23.359
X31.215 Y23.513
X31.173 Y23.553
X31.012 Y23.594
X18.23 Y23.59
X18.064 Y23.535
X18.028 Y23.484
Y23.421
X18.063 Y23.374
X18.229 Y23.32
X30.265 Y23.315
X30.307 Y23.312
X30.348 Y23.306
X30.448 Y23.283
X30.498 Y23.268
X30.545 Y23.246
X30.638 Y23.195
X30.68 Y23.169
X30.717 Y23.137
X30.783 Y23.073
X30.814 Y23.04
X30.841 Y23.003
X30.889 Y22.927
X30.914 Y22.88
X30.932 Y22.831
X30.966 Y22.715
X30.977 Y22.663
X30.98 Y22.611
Y21.8
X30.977 Y21.753
X30.969 Y21.707
X30.945 Y21.613
X30.929 Y21.564
X30.906 Y21.518
X30.852 Y21.424
X30.824 Y21.383
X30.791 Y21.345
X30.728 Y21.283
X30.694 Y21.252
X30.656 Y21.227
X30.576 Y21.179
X30.527 Y21.154
X30.476 Y21.137
X30.358 Y21.107
X30.312 Y21.098
X30.265 Y21.096
X15.185 Y21.091
X15.12 Y21.077
X15.096 Y21.066
X15.079 Y21.046
X15.073 Y21.02
X15.079 Y20.995
X15.095 Y20.974
X15.119 Y20.962
X15.333 Y20.915
X15.955 Y20.952
X15.981 Y20.979
X15.157 Z-3 F80
X15.139 Y20.986
X15.13 Y21.003
X15.135 Y21.021
X15.147 Y21.036
X15.152 Y21.051
X15.148 Y21.066
X15.136 Y21.076
X15.12 Y21.077
X15.077 Y21.068 F150
X15.027 Y21.031
X14.898 Y20.822
X14.87 Y20.782
X14.837 Y20.746
X14.76 Y20.673
X14.784 Y20.596
X14.798 Y20.533
X14.803 Y20.495
X14.806 Y20.442
X14.802 Y20.389
X14.79 Y20.337
X14.765 Y20.254
X14.941 Y20.512
X14.966 Y20.544
X14.995 Y20.574
X15.075 Y20.649
X15.119 Y20.684
X15.168 Y20.713
X15.271 Y20.763
X15.319 Y20.782
X15.369 Y20.794
X15.459 Y20.81
X15.524 Y20.816
X31.012
X31.18 Y20.859
X31.219 Y20.898
X31.221 Y20.905
X31.261 Y21.063
X31.259 Y23.359
X31.215 Y23.513
X31.173 Y23.553
X31.012 Y23.594
X18.23 Y23.59
X18.064 Y23.535
X18.028 Y23.484
Y23.421
X18.063 Y23.374
X18.229 Y23.32
X30.265 Y23.315
X30.307 Y23.312
X30.348 Y23.306
X30.448 Y23.283
X30.498 Y23.268
X30.545 Y23.246
X30.638 Y23.195
X30.68 Y23.169
X30.717 Y23.137
X30.783 Y23.073
X30.814 Y23.04
X30.841 Y23.003
X30.889 Y22.927
X30.914 Y22.88
X30.932 Y22.831
X30.966 Y22.715
X30.977 Y22.663
X30.98 Y22.611
Y21.8
X30.977 Y21.753
X30.969 Y21.707
X30.945 Y21.613
X30.929 Y21.564
X30.906 Y21.518
X30.852 Y21.424
X30.824 Y21.383
X30.791 Y21.345
X30.728 Y21.283
X30.694 Y21.252
X30.656 Y21.227
X30.576 Y21.179
X30.527 Y21.154
X30.476 Y21.137
X30.358 Y21.107
X30.312 Y21.098
X30.265 Y21.096
X15.185 Y21.091
X15.12 Y21.077
X15.093 Y21.069 Z-2.994 F80
X15.068 Y21.055 Z-2.989
X15.032 Y21.022 Z-2.956
X15.015 Y20.995 Z-2.907
X15.011 Y20.984 Z-2.85
G0 Z4
X14.044 Y19.584
Z1.3
G1 Z-0.3 F80
X14.009 Y19.517 F150
X13.808 Y19.213
X13.804 Y19.207
X12.824 Y17.777
X12.994 Y17.663
X14.45 Y19.794
X14.393 Y19.748
X14.337 Y19.71
X14.274 Y19.684
X14.235 Y19.671
X14.192 Y19.66
X14.148 Y19.654
X14.064 Y19.647
X14.058 Y19.626
X14.044 Y19.584
X14.028 Y19.548 Z-0.295 F80
X14.009 Y19.517 Z-0.279
X13.992 Y19.491 Z-0.255
X13.979 Y19.472 Z-0.224
X13.971 Y19.459 Z-0.188
X13.968 Y19.455 Z-0.15
G0 Z4
X14.044 Y19.584
Z1
G1 Z-0.6 F80
X14.009 Y19.517 F150
X13.808 Y19.213
X13.804 Y19.207
X12.824 Y17.777
X12.994 Y17.663
X14.45 Y19.794
X14.393 Y19.748
X14.337 Y19.71
X14.274 Y19.684
X14.235 Y19.671
X14.192 Y19.66
X14.148 Y19.654
X14.064 Y19.647
X14.058 Y19.626
X14.044 Y19.584
X14.028 Y19.548 Z-0.595 F80
X14.009 Y19.517 Z-0.579
X13.992 Y19.491 Z-0.555
X13.979 Y19.472 Z-0.524
X13.971 Y19.459 Z-0.488
X13.968 Y19.455 Z-0.45
G0 Z4
X14.044 Y19.584
Z0.7
G1 Z-0.9 F80
X14.009 Y19.517 F150
X13.808 Y19.213
X13.804 Y19.207
X12.824 Y17.777
X12.994 Y17.663
X14.45 Y19.794
X14.393 Y19.748
X14.337 Y19.71
X14.274 Y19.684
X14.235 Y19.671
X14.192 Y19.66
X14.148 Y19.654
X14.064 Y19.647
X14.058 Y19.626
X14.044 Y19.584
X14.028 Y19.548 Z-0.895 F80
X14.009 Y19.517 Z-0.879
X13.992 Y19.491 Z-0.855
X13.979 Y19.472 Z-0.824
X13.971 Y19.459 Z-0.788
X13.968 Y19.455 Z-0.75
G0 Z4
X14.044 Y19.584
Z0.4
G1 Z-1.2 F80
X14.009 Y19.517 F150
X13.808 Y19.213
X13.804 Y19.207
X12.824 Y17.777
X12.994 Y17.663
X14.45 Y19.794
X14.393 Y19.748
X14.337 Y19.71
X14.274 Y19.684
X14.235 Y19.671
X14.192 Y19.66
X14.148 Y19.654
X14.064 Y19.647
X14.058 Y19.626
X14.044 Y19.584
X14.028 Y19.548 Z-1.195 F80
X14.009 Y19.517 Z-1.179
X13.992 Y19.491 Z-1.155
X13.979 Y19.472 Z-1.124
X13.971 Y19.459 Z-1.088
X13.968 Y19.455 Z-1.05
G0 Z4
X14.044 Y19.584
Z0.1
G1 Z-1.5 F80
X14.009 Y19.517 F150
X13.808 Y19.213
X13.804 Y19.207
X12.824 Y17.777
X12.994 Y17.663
X14.45 Y19.794
X14.393 Y19.748
X14.337 Y19.71
X14.274 Y19.684
X14.235 Y19.671
X14.192 Y19.66
X14.148 Y19.654
X14.064 Y19.647
X14.058 Y19.626
X14.044 Y19.584
X14.028 Y19.548 Z-1.495 F80
X14.009 Y19.517 Z-1.479
X13.992 Y19.491 Z-1.455
X13.979 Y19.472 Z-1.424
X13.971 Y19.459 Z-1.388
X13.968 Y19.455 Z-1.35
G0 Z4
X14.044 Y19.584
Z1.3
G1 Z-0.2 F80
Z-1.8
X14.009 Y19.517 F150
X13.808 Y19.213
X13.804 Y19.207
X12.824 Y17.777
X12.994 Y17.663
X14.45 Y19.794
X14.393 Y19.748
X14.337 Y19.71
X14.274 Y19.684
X14.235 Y19.671
X14.192 Y19.66
X14.148 Y19.654
X14.064 Y19.647
X14.058 Y19.626
X14.044 Y19.584
X14.028 Y19.548 Z-1.795 F80
X14.009 Y19.517 Z-1.779
X13.992 Y19.491 Z-1.755
X13.979 Y19.472 Z-1.724
X13.971 Y19.459 Z-1.688
X13.968 Y19.455 Z-1.65
G0 Z4
X14.044 Y19.584
G1 Z-0.5 F80
Z-2.1
X14.009 Y19.517 F150
X13.808 Y19.213
X13.804 Y19.207
X12.824 Y17.777
X12.994 Y17.663
X14.45 Y19.794
X14.393 Y19.748
X14.337 Y19.71
X14.274 Y19.684
X14.235 Y19.671
X14.192 Y19.66
X14.148 Y19.654
X14.064 Y19.647
X14.058 Y19.626
X14.044 Y19.584
X14.028 Y19.548 Z-2.095 F80
X14.009 Y19.517 Z-2.079
X13.992 Y19.491 Z-2.055
X13.979 Y19.472 Z-2.024
X13.971 Y19.459 Z-1.988
X13.968 Y19.455 Z-1.95
G0 Z4
X14.044 Y19.584
G1 Z-0.8 F80
Z-2.4
X14.009 Y19.517 F150
X13.808 Y19.213
X13.804 Y19.207
X12.824 Y17.777
X12.994 Y17.663
X14.45 Y19.794
X14.393 Y19.748
X14.337 Y19.71
X14.274 Y19.684
X14.235 Y19.671
X14.192 Y19.66
X14.148 Y19.654
X14.064 Y19.647
X14.058 Y19.626
X14.044 Y19.584
X14.028 Y19.548 Z-2.395 F80
X14.009 Y19.517 Z-2.379
X13.992 Y19.491 Z-2.355
X13.979 Y19.472 Z-2.324
X13.971 Y19.459 Z-2.288
X13.968 Y19.455 Z-2.25
G0 Z4
X14.044 Y19.584
G1 Z-1.1 F80
Z-2.7
X14.009 Y19.517 F150
X13.808 Y19.213
X13.804 Y19.207
X12.824 Y17.777
X12.994 Y17.663
X14.45 Y19.794
X14.393 Y19.748
X14.337 Y19.71
X14.274 Y19.684
X14.235 Y19.671
X14.192 Y19.66
X14.148 Y19.654
X14.064 Y19.647
X14.058 Y19.626
X14.044 Y19.584
X14.028 Y19.548 Z-2.695 F80
X14.009 Y19.517 Z-2.679
X13.992 Y19.491 Z-2.655
X13.979 Y19.472 Z-2.624
X13.971 Y19.459 Z-2.588
X13.968 Y19.455 Z-2.55
G0 Z4
X14.044 Y19.584
G1 Z-1.4 F80
Z-3
X14.009 Y19.517 F150
X13.808 Y19.213
X13.804 Y19.207
X12.824 Y17.777
X12.994 Y17.663
X14.45 Y19.794
X14.393 Y19.748
X14.337 Y19.71
X14.274 Y19.684
X14.235 Y19.671
X14.192 Y19.66
X14.148 Y19.654
X14.064 Y19.647
X14.058 Y19.626
X14.044 Y19.584
X14.028 Y19.548 Z-2.995 F80
X14.009 Y19.517 Z-2.979
X13.992 Y19.491 Z-2.955
X13.979 Y19.472 Z-2.924
X13.971 Y19.459 Z-2.888
X13.968 Y19.455 Z-2.85
G0 Z4
X13.878 Y24.754
Z1.3
G1 Z-0.3 F80
X13.817 Y24.765 F150
X13.773 Y24.71
X11.034 Y21.882
X11.183 Y21.738
X11.586 Y22.16
X14.086 Y24.736
X14.03 Y24.733
X13.974 Y24.738
X13.878 Y24.754
X13.847 Y24.76 Z-0.297 F80
X13.817 Y24.765 Z-0.287
X13.793 Y24.732 Z-0.26
X13.773 Y24.71 Z-0.221
X13.764 Y24.7 Z-0.187
X13.761 Y24.697 Z-0.15
G0 Z4
X13.878 Y24.754
Z1
G1 Z-0.6 F80
X13.817 Y24.765 F150
X13.773 Y24.71
X11.034 Y21.882
X11.183 Y21.738
X11.586 Y22.16
X14.086 Y24.736
X14.03 Y24.733
X13.974 Y24.738
X13.878 Y24.754
X13.847 Y24.76 Z-0.597 F80
X13.817 Y24.765 Z-0.587
X13.793 Y24.732 Z-0.56
X13.773 Y24.71 Z-0.521
X13.764 Y24.7 Z-0.487
X13.761 Y24.697 Z-0.45
G0 Z4
X13.878 Y24.754
Z0.7
G1 Z-0.9 F80
X13.817 Y24.765 F150
X13.773 Y24.71
X11.034 Y21.882
X11.183 Y21.738
X11.586 Y22.16
X14.086 Y24.736
X14.03 Y24.733
X13.974 Y24.738
X13.878 Y24.754
X13.847 Y24.76 Z-0.897 F80
X13.817 Y24.765 Z-0.887
X13.793 Y24.732 Z-0.86
X13.773 Y24.71 Z-0.821
X13.764 Y24.7 Z-0.787
X13.761 Y24.697 Z-0.75
G0 Z4
X13.878 Y24.754
Z0.4
G1 Z-1.2 F80
X13.817 Y24.765 F150
X13.773 Y24.71
X11.034 Y21.882
X11.183 Y21.738
X11.586 Y22.16
X14.086 Y24.736
X14.03 Y24.733
X13.974 Y24.738
X13.878 Y24.754
X13.847 Y24.76 Z-1.197 F80
X13.817 Y24.765 Z-1.187
X13.793 Y24.732 Z-1.16
X13.773 Y24.71 Z-1.121
X13.764 Y24.7 Z-1.087
X13.761 Y24.697 Z-1.05
G0 Z4
X13.878 Y24.754
Z0.1
G1 Z-1.5 F80
X13.817 Y24.765 F150
X13.773 Y24.71
X11.034 Y21.882
X11.183 Y21.738
X11.586 Y22.16
X14.086 Y24.736
X14.03 Y24.733
X13.974 Y24.738
X13.878 Y24.754
X13.847 Y24.76 Z-1.497 F80
X13.817 Y24.765 Z-1.487
X13.793 Y24.732 Z-1.46
X13.773 Y24.71 Z-1.421
X13.764 Y24.7 Z-1.387
X13.761 Y24.697 Z-1.35
G0 Z4
X13.878 Y24.754
Z1.3
G1 Z-0.2 F80
Z-1.8
X13.817 Y24.765 F150
X13.773 Y24.71
X11.034 Y21.882
X11.183 Y21.738
X11.586 Y22.16
X14.086 Y24.736
X14.03 Y24.733
X13.974 Y24.738
X13.878 Y24.754
X13.847 Y24.76 Z-1.797 F80
X13.817 Y24.765 Z-1.787
X13.793 Y24.732 Z-1.76
X13.773 Y24.71 Z-1.721
X13.764 Y24.7 Z-1.687
X13.761 Y24.697 Z-1.65
G0 Z4
X13.878 Y24.754
G1 Z-0.5 F80
Z-2.1
X13.817 Y24.765 F150
X13.773 Y24.71
X11.034 Y21.882
X11.183 Y21.738
X11.586 Y22.16
X14.086 Y24.736
X14.03 Y24.733
X13.974 Y24.738
X13.878 Y24.754
X13.847 Y24.76 Z-2.097 F80
X13.817 Y24.765 Z-2.087
X13.793 Y24.732 Z-2.06
X13.773 Y24.71 Z-2.021
X13.764 Y24.7 Z-1.987
X13.761 Y24.697 Z-1.95
G0 Z4
X13.878 Y24.754
G1 Z-0.8 F80
Z-2.4
X13.817 Y24.765 F150
X13.773 Y24.71
X11.442 Y22.303
X11.034 Y21.882
X11.183 Y21.738
X11.586 Y22.16
X14.086 Y24.736
X14.03 Y24.733
X13.974 Y24.738
X13.878 Y24.754
X13.847 Y24.76 Z-2.397 F80
X13.817 Y24.765 Z-2.387
X13.793 Y24.732 Z-2.36
X13.773 Y24.71 Z-2.321
X13.764 Y24.7 Z-2.287
X13.761 Y24.697 Z-2.25
G0 Z4
X13.878 Y24.754
G1 Z-1.1 F80
Z-2.7
X13.817 Y24.765 F150
X13.773 Y24.71
X11.034 Y21.882
X11.183 Y21.738
X11.586 Y22.16
X14.086 Y24.736
X14.03 Y24.733
X13.974 Y24.738
X13.878 Y24.754
X13.847 Y24.76 Z-2.697 F80
X13.817 Y24.765 Z-2.687
X13.793 Y24.732 Z-2.66
X13.773 Y24.71 Z-2.621
X13.764 Y24.7 Z-2.587
X13.761 Y24.697 Z-2.55
G0 Z4
X13.878 Y24.754
G1 Z-1.4 F80
Z-3
X13.817 Y24.765 F150
X13.773 Y24.71
X11.034 Y21.882
X11.183 Y21.738
X11.586 Y22.16
X14.086 Y24.736
X14.03 Y24.733
X13.974 Y24.738
X13.878 Y24.754
X13.847 Y24.76 Z-2.997 F80
X13.817 Y24.765 Z-2.987
X13.793 Y24.732 Z-2.96
X13.773 Y24.71 Z-2.921
X13.764 Y24.7 Z-2.887
X13.761 Y24.697 Z-2.85
G0 Z4
X13.409 Y27.353
Z1.3
G1 Z-0.3 F80
X13.528 Y27.421 F150
X13.476 Y27.466
X13.377 Y27.57
X10.315 Y25.812
X10.418 Y25.638
X13.409 Y27.353
Z-0.15 F80
Z1
Z-0.6
X13.528 Y27.421 F150
X13.476 Y27.466
X13.377 Y27.57
X10.315 Y25.812
X10.418 Y25.638
X13.409 Y27.353
Z-0.45 F80
Z0.7
Z-0.9
X13.528 Y27.421 F150
X13.476 Y27.466
X13.377 Y27.57
X10.315 Y25.812
X10.418 Y25.638
X13.409 Y27.353
Z-0.75 F80
Z0.4
Z-1.2
X13.528 Y27.421 F150
X13.476 Y27.466
X13.377 Y27.57
X10.315 Y25.812
X10.418 Y25.638
X13.409 Y27.353
Z-1.05 F80
Z0.1
Z-1.5
X13.528 Y27.421 F150
X13.476 Y27.466
X13.377 Y27.57
X10.315 Y25.812
X10.418 Y25.638
X13.409 Y27.353
Z-1.35 F80
Z-0.2
Z-1.8
X13.528 Y27.421 F150
X13.476 Y27.466
X13.377 Y27.57
X10.315 Y25.812
X10.418 Y25.638
X13.409 Y27.353
Z-1.65 F80
Z-0.5
Z-2.1
X13.528 Y27.421 F150
X13.476 Y27.466
X13.377 Y27.57
X10.315 Y25.812
X10.418 Y25.638
X13.409 Y27.353
Z-1.95 F80
Z-0.8
Z-2.4
X13.528 Y27.421 F150
X13.476 Y27.466
X13.377 Y27.57
X10.315 Y25.812
X10.418 Y25.638
X13.409 Y27.353
Z-2.25 F80
Z-1.1
Z-2.7
X13.528 Y27.421 F150
X13.476 Y27.466
X13.377 Y27.57
X10.315 Y25.812
X10.418 Y25.638
X13.409 Y27.353
Z-2.55 F80
G0 Z4
X13.307 Y27.53
G1 Z-1.4 F80
Z-3
X10.315 Y25.812 F150
X10.418 Y25.638
X13.528 Y27.421
X13.476 Y27.466
X13.377 Y27.57
X13.307 Y27.53
X13.267 Y27.507 Z-2.993 F80
X13.231 Y27.486 Z-2.971
X13.202 Y27.47 Z-2.938
X13.183 Y27.459 Z-2.896
X13.177 Y27.456 Z-2.85
G0 Z4
X13.081 Y30.411
Z1.3
G1 Z-0.3 F80
X13.181 Y30.433 F150
X13.166 Y30.486
X13.159 Y30.542
X13.16 Y30.598
X13.164 Y30.637
X8.512 Y29.638
X8.555 Y29.439
X13.081 Y30.411
Z-0.15 F80
Z1
Z-0.6
X13.181 Y30.433 F150
X13.166 Y30.486
X13.159 Y30.542
X13.16 Y30.598
X13.164 Y30.637
X8.512 Y29.638
X8.555 Y29.439
X13.081 Y30.411
Z-0.45 F80
Z0.7
Z-0.9
X13.181 Y30.433 F150
X13.166 Y30.486
X13.159 Y30.542
X13.16 Y30.598
X13.164 Y30.637
X8.512 Y29.638
X8.555 Y29.439
X13.081 Y30.411
Z-0.75 F80
Z0.4
Z-1.2
X13.181 Y30.433 F150
X13.166 Y30.486
X13.159 Y30.542
X13.16 Y30.598
X13.164 Y30.637
X8.512 Y29.638
X8.555 Y29.439
X13.081 Y30.411
Z-1.05 F80
Z0.1
Z-1.5
X13.181 Y30.433 F150
X13.166 Y30.486
X13.159 Y30.542
X13.16 Y30.598
X13.164 Y30.637
X8.512 Y29.638
X8.555 Y29.439
X13.081 Y30.411
Z-1.35 F80
Z-0.2
Z-1.8
X13.181 Y30.433 F150
X13.166 Y30.486
X13.159 Y30.542
X13.16 Y30.598
X13.164 Y30.637
X8.512 Y29.638
X8.555 Y29.439
X13.081 Y30.411
Z-1.65 F80
G0 Z4
X8.654 Y29.46
G1 Z-0.5 F80
Z-2.1
X13.18 Y30.434 F150
X13.166 Y30.488
X13.159 Y30.542
X13.16 Y30.598
X13.164 Y30.637
X8.512 Y29.638
X8.555 Y29.439
X8.654 Y29.46
X8.699 Y29.47 Z-2.093 F80
X8.74 Y29.479 Z-2.071
X8.772 Y29.486 Z-2.038
X8.793 Y29.49 Z-1.996
X8.8 Y29.492 Z-1.95
G0 Z4
X8.654 Y29.46
G1 Z-0.8 F80
Z-2.4
X13.181 Y30.433 F150
X13.166 Y30.486
X13.159 Y30.542
X13.16 Y30.598
X13.164 Y30.637
X8.512 Y29.638
X8.555 Y29.439
X8.654 Y29.46
X8.699 Y29.47 Z-2.393 F80
X8.74 Y29.479 Z-2.371
X8.772 Y29.486 Z-2.338
X8.793 Y29.49 Z-2.296
X8.8 Y29.492 Z-2.25
G0 Z4
X8.654 Y29.461
G1 Z-1.1 F80
Z-2.7
X13.179 Y30.439 F150
X13.165 Y30.491
X13.159 Y30.544
X13.16 Y30.598
X13.164 Y30.637
X8.512 Y29.638
X8.554 Y29.439
X8.654 Y29.461
X8.699 Y29.471 Z-2.693 F80
X8.74 Y29.479 Z-2.671
X8.772 Y29.486 Z-2.638
X8.793 Y29.491 Z-2.596
X8.8 Y29.492 Z-2.55
G0 Z4
X8.611 Y29.659
G1 Z-1.4 F80
Z-3
X8.512 Y29.638 F150
X8.555 Y29.439
X13.18 Y30.435
X13.166 Y30.488
X13.159 Y30.543
X13.16 Y30.598
X13.164 Y30.637
X8.611 Y29.659
Z-2.85 F80
G0 Z4
X13.107 Y33.556
Z1.3
G1 Z-0.3 F80
X10.571 Y33.557 F150
X10.567 Y33.355
X13.188 Y33.353
X13.226 Y33.52
X13.236 Y33.556
X13.107
X13.061 Z-0.293 F80
X13.019 Z-0.271
X12.986 Z-0.238
X12.964 Z-0.196
X12.957 Z-0.15
G0 Z4
X13.107
Z1
G1 Z-0.6 F80
X10.571 Y33.557 F150
X10.567 Y33.355
X13.188 Y33.353
X13.226 Y33.52
X13.236 Y33.556
X13.107
X13.061 Z-0.593 F80
X13.019 Z-0.571
X12.986 Z-0.538
X12.964 Z-0.496
X12.957 Z-0.45
G0 Z4
X13.107
Z0.7
G1 Z-0.9 F80
X10.571 Y33.557 F150
X10.567 Y33.355
X13.188 Y33.353
X13.226 Y33.52
X13.236 Y33.556
X13.107
X13.061 Z-0.893 F80
X13.019 Z-0.871
X12.986 Z-0.838
X12.964 Z-0.796
X12.957 Z-0.75
G0 Z4
X13.107
Z0.4
G1 Z-1.2 F80
X10.571 Y33.557 F150
X10.567 Y33.355
X13.188 Y33.353
X13.226 Y33.52
X13.236 Y33.556
X13.107
X13.061 Z-1.193 F80
X13.019 Z-1.171
X12.986 Z-1.138
X12.964 Z-1.096
X12.957 Z-1.05
G0 Z4
X13.107
Z0.1
G1 Z-1.5 F80
X10.571 Y33.557 F150
X10.567 Y33.355
X13.188 Y33.353
X13.226 Y33.52
X13.236 Y33.556
X13.107
X13.061 Z-1.493 F80
X13.019 Z-1.471
X12.986 Z-1.438
X12.964 Z-1.396
X12.957 Z-1.35
G0 Z4
X13.107
Z1.3
G1 Z-0.2 F80
Z-1.8
X10.571 Y33.557 F150
X10.567 Y33.355
X13.188 Y33.353
X13.226 Y33.52
X13.236 Y33.556
X13.107
X13.061 Z-1.793 F80
X13.019 Z-1.771
X12.986 Z-1.738
X12.964 Z-1.696
X12.957 Z-1.65
G0 Z4
X13.107
G1 Z-0.5 F80
Z-2.1
X10.571 Y33.557 F150
X10.567 Y33.355
X13.188 Y33.353
X13.226 Y33.52
X13.236 Y33.556
X13.107
X13.061 Z-2.093 F80
X13.019 Z-2.071
X12.986 Z-2.038
X12.964 Z-1.996
X12.957 Z-1.95
G0 Z4
X13.107
G1 Z-0.8 F80
Z-2.4
X10.571 Y33.557 F150
X10.567 Y33.355
X13.188 Y33.353
X13.226 Y33.52
X13.236 Y33.556
X13.107
X13.061 Z-2.393 F80
X13.019 Z-2.371
X12.986 Z-2.338
X12.964 Z-2.296
X12.957 Z-2.25
G0 Z4
X13.107
G1 Z-1.1 F80
Z-2.7
X10.571 Y33.557 F150
X10.567 Y33.355
X13.188 Y33.353
X13.226 Y33.52
X13.236 Y33.556
X13.107
X13.061 Z-2.693 F80
X13.019 Z-2.671
X12.986 Z-2.638
X12.964 Z-2.596
X12.957 Z-2.55
G0 Z4
X13.107
G1 Z-1.4 F80
Z-3
X10.571 Y33.557 F150
X10.567 Y33.355
X13.188 Y33.353
X13.226 Y33.52
X13.236 Y33.556
X13.107
X13.061 Z-2.993 F80
X13.019 Z-2.971
X12.986 Z-2.938
X12.964 Z-2.896
X12.957 Z-2.85
G0 Z4
X13.261 Y36.254
Z1.3
G1 Z-0.3 F80
X13.327 Y36.24 F150
X13.395 Y36.335
X13.433 Y36.38
X13.477 Y36.418
X8.558 Y37.494
X8.515 Y37.295
X13.261 Y36.254
X13.295 Y36.247 Z-0.296 F80
X13.327 Y36.24 Z-0.284
X13.347 Y36.267 Z-0.26
X13.362 Y36.288 Z-0.228
X13.372 Y36.302 Z-0.191
X13.375 Y36.306 Z-0.15
G0 Z4
X13.261 Y36.254
Z1
G1 Z-0.6 F80
X13.327 Y36.24 F150
X13.395 Y36.335
X13.433 Y36.38
X13.477 Y36.418
X8.558 Y37.494
X8.515 Y37.295
X13.261 Y36.254
X13.295 Y36.247 Z-0.596 F80
X13.327 Y36.24 Z-0.584
X13.347 Y36.267 Z-0.56
X13.362 Y36.288 Z-0.528
X13.372 Y36.302 Z-0.491
X13.375 Y36.306 Z-0.45
G0 Z4
X13.261 Y36.254
Z0.7
G1 Z-0.9 F80
X13.327 Y36.24 F150
X13.395 Y36.335
X13.433 Y36.38
X13.477 Y36.418
X8.558 Y37.494
X8.515 Y37.295
X13.261 Y36.254
X13.295 Y36.247 Z-0.896 F80
X13.327 Y36.24 Z-0.884
X13.347 Y36.267 Z-0.86
X13.362 Y36.288 Z-0.828
X13.372 Y36.302 Z-0.791
X13.375 Y36.306 Z-0.75
G0 Z4
X13.261 Y36.254
Z0.4
G1 Z-1.2 F80
X13.327 Y36.24 F150
X13.395 Y36.335
X13.433 Y36.38
X13.477 Y36.418
X8.558 Y37.494
X8.515 Y37.295
X13.261 Y36.254
X13.295 Y36.247 Z-1.196 F80
X13.327 Y36.24 Z-1.184
X13.347 Y36.267 Z-1.16
X13.362 Y36.288 Z-1.128
X13.372 Y36.302 Z-1.091
X13.375 Y36.306 Z-1.05
G0 Z4
X13.261 Y36.254
Z0.1
G1 Z-1.5 F80
X13.327 Y36.24 F150
X13.395 Y36.335
X13.433 Y36.38
X13.477 Y36.418
X8.558 Y37.494
X8.515 Y37.295
X13.261 Y36.254
X13.295 Y36.247 Z-1.496 F80
X13.327 Y36.24 Z-1.484
X13.347 Y36.267 Z-1.46
X13.362 Y36.288 Z-1.428
X13.372 Y36.302 Z-1.391
X13.375 Y36.306 Z-1.35
G0 Z4
X13.261 Y36.254
Z1.3
G1 Z-0.2 F80
Z-1.8
X13.327 Y36.24 F150
X13.395 Y36.335
X13.433 Y36.38
X13.477 Y36.418
X8.558 Y37.494
X8.515 Y37.295
X13.261 Y36.254
X13.295 Y36.247 Z-1.796 F80
X13.327 Y36.24 Z-1.784
X13.347 Y36.267 Z-1.76
X13.362 Y36.288 Z-1.728
X13.372 Y36.302 Z-1.691
X13.375 Y36.306 Z-1.65
G0 Z4
X13.261 Y36.254
G1 Z-0.5 F80
Z-2.1
X13.327 Y36.24 F150
X13.395 Y36.335
X13.433 Y36.38
X13.477 Y36.418
X8.558 Y37.494
X8.515 Y37.295
X13.261 Y36.254
X13.295 Y36.247 Z-2.096 F80
X13.327 Y36.24 Z-2.084
X13.347 Y36.267 Z-2.06
X13.362 Y36.288 Z-2.028
X13.372 Y36.302 Z-1.991
X13.375 Y36.306 Z-1.95
G0 Z4
X13.367 Y36.295
G1 Z-0.8 F80
Z-2.4
X13.395 Y36.335 F150
X13.433 Y36.38
X13.477 Y36.418
X8.558 Y37.494
X8.515 Y37.295
X13.327 Y36.24
X13.367 Y36.295
X13.381 Y36.315 Z-2.398 F80
X13.395 Y36.335 Z-2.392
X13.429 Y36.375 Z-2.36
X13.455 Y36.4 Z-2.31
X13.464 Y36.408 Z-2.25
G0 Z4
X13.261 Y36.254
G1 Z-1.1 F80
Z-2.7
X13.327 Y36.24 F150
X13.395 Y36.335
X13.433 Y36.38
X13.477 Y36.418
X8.558 Y37.494
X8.515 Y37.295
X13.261 Y36.254
X13.295 Y36.247 Z-2.696 F80
X13.327 Y36.24 Z-2.684
X13.347 Y36.267 Z-2.66
X13.362 Y36.288 Z-2.628
X13.372 Y36.302 Z-2.591
X13.375 Y36.306 Z-2.55
G0 Z4
X13.367 Y36.295
G1 Z-1.4 F80
Z-3
X13.395 Y36.335 F150
X13.433 Y36.38
X13.477 Y36.418
X8.558 Y37.494
X8.515 Y37.295
X13.327 Y36.24
X13.367 Y36.295
X13.381 Y36.315 Z-2.998 F80
X13.395 Y36.335 Z-2.992
X13.429 Y36.375 Z-2.96
X13.455 Y36.4 Z-2.91
X13.464 Y36.408 Z-2.85
G0 Z4
X13.835 Y39.32
Z1.3
G1 Z-0.3 F80
X10.416 Y41.296 F150
X10.316 Y41.119
X13.604 Y39.213
X13.649 Y39.181
X13.69 Y39.144
X13.744 Y39.086
X13.812 Y39.109
X13.858 Y39.122
X13.906 Y39.129
X13.943 Y39.132
X14.006
X14.067 Y39.122
X14.265 Y39.071
X13.835 Y39.32
X13.795 Y39.343 Z-0.293 F80
X13.759 Y39.364 Z-0.271
X13.73 Y39.38 Z-0.238
X13.711 Y39.391 Z-0.196
X13.705 Y39.395 Z-0.15
G0 Z4
X13.835 Y39.32
Z1
G1 Z-0.6 F80
X10.416 Y41.296 F150
X10.316 Y41.119
X13.604 Y39.213
X13.649 Y39.181
X13.69 Y39.144
X13.744 Y39.086
X13.812 Y39.109
X13.858 Y39.122
X13.906 Y39.129
X13.943 Y39.132
X14.006
X14.067 Y39.122
X14.265 Y39.071
X13.835 Y39.32
X13.795 Y39.343 Z-0.593 F80
X13.759 Y39.364 Z-0.571
X13.73 Y39.38 Z-0.538
X13.711 Y39.391 Z-0.496
X13.705 Y39.395 Z-0.45
G0 Z4
X13.835 Y39.32
Z0.7
G1 Z-0.9 F80
X10.416 Y41.296 F150
X10.316 Y41.119
X13.604 Y39.213
X13.649 Y39.181
X13.69 Y39.144
X13.744 Y39.086
X13.812 Y39.109
X13.858 Y39.122
X13.906 Y39.129
X13.943 Y39.132
X14.006
X14.067 Y39.122
X14.265 Y39.071
X13.835 Y39.32
X13.795 Y39.343 Z-0.893 F80
X13.759 Y39.364 Z-0.871
X13.73 Y39.38 Z-0.838
X13.711 Y39.391 Z-0.796
X13.705 Y39.395 Z-0.75
G0 Z4
X13.835 Y39.32
Z0.4
G1 Z-1.2 F80
X10.416 Y41.296 F150
X10.316 Y41.119
X13.604 Y39.213
X13.649 Y39.181
X13.69 Y39.144
X13.744 Y39.086
X13.812 Y39.109
X13.858 Y39.122
X13.906 Y39.129
X13.943 Y39.132
X14.006
X14.067 Y39.122
X14.265 Y39.071
X13.835 Y39.32
X13.795 Y39.343 Z-1.193 F80
X13.759 Y39.364 Z-1.171
X13.73 Y39.38 Z-1.138
X13.711 Y39.391 Z-1.096
X13.705 Y39.395 Z-1.05
G0 Z4
X13.835 Y39.32
Z0.1
G1 Z-1.5 F80
X10.416 Y41.296 F150
X10.316 Y41.119
X13.604 Y39.213
X13.649 Y39.181
X13.69 Y39.144
X13.744 Y39.086
X13.812 Y39.109
X13.858 Y39.122
X13.906 Y39.129
X13.943 Y39.132
X14.006
X14.067 Y39.122
X14.265 Y39.071
X13.835 Y39.32
X13.795 Y39.343 Z-1.493 F80
X13.759 Y39.364 Z-1.471
X13.73 Y39.38 Z-1.438
X13.711 Y39.391 Z-1.396
X13.705 Y39.395 Z-1.35
G0 Z4
X13.835 Y39.32
Z1.3
G1 Z-0.2 F80
Z-1.8
X10.416 Y41.296 F150
X10.316 Y41.119
X13.604 Y39.213
X13.649 Y39.181
X13.69 Y39.144
X13.744 Y39.086
X13.812 Y39.109
X13.858 Y39.122
X13.906 Y39.129
X13.943 Y39.132
X14.006
X14.067 Y39.122
X14.265 Y39.071
X13.835 Y39.32
X13.795 Y39.343 Z-1.793 F80
X13.759 Y39.364 Z-1.771
X13.73 Y39.38 Z-1.738
X13.711 Y39.391 Z-1.696
X13.705 Y39.395 Z-1.65
G0 Z4
X13.835 Y39.32
G1 Z-0.5 F80
Z-2.1
X10.416 Y41.296 F150
X10.316 Y41.119
X13.604 Y39.213
X13.649 Y39.181
X13.69 Y39.144
X13.744 Y39.086
X13.812 Y39.109
X13.858 Y39.122
X13.906 Y39.129
X13.943 Y39.132
X14.006
X14.067 Y39.122
X14.265 Y39.071
X13.835 Y39.32
X13.795 Y39.343 Z-2.093 F80
X13.759 Y39.364 Z-2.071
X13.73 Y39.38 Z-2.038
X13.711 Y39.391 Z-1.996
X13.705 Y39.395 Z-1.95
G0 Z4
X13.835 Y39.32
G1 Z-0.8 F80
Z-2.4
X10.416 Y41.296 F150
X10.316 Y41.119
X13.604 Y39.213
X13.649 Y39.181
X13.69 Y39.144
X13.744 Y39.086
X13.812 Y39.109
X13.858 Y39.122
X13.906 Y39.129
X13.943 Y39.132
X14.006
X14.067 Y39.122
X14.265 Y39.071
X13.835 Y39.32
X13.795 Y39.343 Z-2.393 F80
X13.759 Y39.364 Z-2.371
X13.73 Y39.38 Z-2.338
X13.711 Y39.391 Z-2.296
X13.705 Y39.395 Z-2.25
G0 Z4
X13.835 Y39.32
G1 Z-1.1 F80
Z-2.7
X10.416 Y41.296 F150
X10.316 Y41.119
X13.604 Y39.213
X13.649 Y39.181
X13.69 Y39.144
X13.744 Y39.086
X13.812 Y39.109
X13.858 Y39.122
X13.906 Y39.129
X13.943 Y39.132
X14.006
X14.067 Y39.122
X14.265 Y39.071
X13.835 Y39.32
X13.795 Y39.343 Z-2.693 F80
X13.759 Y39.364 Z-2.671
X13.73 Y39.38 Z-2.638
X13.711 Y39.391 Z-2.596
X13.705 Y39.395 Z-2.55
G0 Z4
X13.835 Y39.32
G1 Z-1.4 F80
Z-3
X10.416 Y41.296 F150
X10.316 Y41.119
X13.604 Y39.213
X13.649 Y39.181
X13.69 Y39.144
X13.744 Y39.086
X13.812 Y39.109
X13.858 Y39.122
X13.906 Y39.129
X13.943 Y39.132
X14.006
X14.067 Y39.122
X14.265 Y39.071
X13.835 Y39.32
X13.795 Y39.343 Z-2.993 F80
X13.759 Y39.364 Z-2.971
X13.73 Y39.38 Z-2.938
X13.711 Y39.391 Z-2.896
X13.705 Y39.395 Z-2.85
G0 Z4
X8.489 Y45.726
Z1.3
G1 Z-0.3 F80
X8.456 Y45.628 F150
X13.374 Y43.947
X13.45 Y44.036
X13.488 Y44.074
X13.531 Y44.106
X8.521 Y45.824
X8.506 Y45.774
X8.502 Y45.763
X8.489 Y45.726
Z-0.15 F80
Z1
Z-0.6
X8.456 Y45.628 F150
X13.374 Y43.947
X13.45 Y44.036
X13.488 Y44.074
X13.531 Y44.106
X8.521 Y45.824
X8.506 Y45.774
X8.502 Y45.763
X8.489 Y45.726
Z-0.45 F80
Z0.7
Z-0.9
X8.456 Y45.628 F150
X13.374 Y43.947
X13.45 Y44.036
X13.488 Y44.074
X13.531 Y44.106
X8.521 Y45.824
X8.506 Y45.774
X8.502 Y45.763
X8.489 Y45.726
Z-0.75 F80
Z0.4
Z-1.2
X8.456 Y45.628 F150
X13.374 Y43.947
X13.45 Y44.036
X13.488 Y44.074
X13.531 Y44.106
X8.521 Y45.824
X8.506 Y45.774
X8.502 Y45.763
X8.489 Y45.726
Z-1.05 F80
Z0.1
Z-1.5
X8.456 Y45.628 F150
X13.374 Y43.947
X13.45 Y44.036
X13.488 Y44.074
X13.531 Y44.106
X8.521 Y45.824
X8.506 Y45.774
X8.502 Y45.763
X8.489 Y45.726
Z-1.35 F80
Z-0.2
Z-1.8
X8.456 Y45.628 F150
X13.374 Y43.947
X13.45 Y44.036
X13.488 Y44.074
X13.531 Y44.106
X8.521 Y45.824
X8.506 Y45.774
X8.502 Y45.763
X8.489 Y45.726
Z-1.65 F80
Z-0.5
Z-2.1
X8.456 Y45.628 F150
X13.374 Y43.947
X13.45 Y44.036
X13.488 Y44.074
X13.531 Y44.106
X8.521 Y45.824
X8.506 Y45.774
X8.502 Y45.763
X8.489 Y45.726
Z-1.95 F80
Z-0.8
Z-2.4
X8.456 Y45.628 F150
X13.374 Y43.947
X13.45 Y44.036
X13.488 Y44.074
X13.531 Y44.106
X8.521 Y45.824
X8.506 Y45.774
X8.502 Y45.763
X8.489 Y45.726
Z-2.25 F80
Z-1.1
Z-2.7
X8.456 Y45.628 F150
X13.374 Y43.947
X13.45 Y44.036
X13.488 Y44.074
X13.531 Y44.106
X8.521 Y45.824
X8.506 Y45.774
X8.502 Y45.763
X8.489 Y45.726
Z-2.55 F80
Z-1.4
Z-3
X8.456 Y45.628 F150
X13.374 Y43.947
X13.45 Y44.036
X13.488 Y44.074
X13.531 Y44.106
X8.521 Y45.824
X8.506 Y45.774
X8.502 Y45.763
X8.489 Y45.726
Z-2.85 F80
G0 Z4
X13.931 Y46.965
Z1.3
G1 Z-0.3 F80
X10.331 Y49.642 F150
X10.32 Y49.627
X10.312 Y49.616
X10.209 Y49.477
X13.701 Y46.88
X13.744 Y46.843
X13.781 Y46.8
X13.817 Y46.75
X13.929 Y46.776
X14.002 Y46.785
X14.074 Y46.779
X14.144 Y46.76
X14.271 Y46.713
X13.931 Y46.965
X13.894 Y46.993 Z-0.293 F80
X13.86 Y47.018 Z-0.271
X13.833 Y47.038 Z-0.238
X13.816 Y47.051 Z-0.196
X13.81 Y47.055 Z-0.15
G0 Z4
X13.931 Y46.965
Z1
G1 Z-0.6 F80
X10.331 Y49.642 F150
X10.32 Y49.627
X10.312 Y49.616
X10.209 Y49.477
X13.701 Y46.88
X13.744 Y46.843
X13.781 Y46.8
X13.817 Y46.75
X13.929 Y46.776
X14.002 Y46.785
X14.074 Y46.779
X14.144 Y46.76
X14.271 Y46.713
X13.931 Y46.965
X13.894 Y46.993 Z-0.593 F80
X13.86 Y47.018 Z-0.571
X13.833 Y47.038 Z-0.538
X13.816 Y47.051 Z-0.496
X13.81 Y47.055 Z-0.45
G0 Z4
X13.931 Y46.965
Z0.7
G1 Z-0.9 F80
X10.331 Y49.642 F150
X10.32 Y49.627
X10.312 Y49.616
X10.209 Y49.477
X13.701 Y46.88
X13.744 Y46.843
X13.781 Y46.8
X13.817 Y46.75
X13.929 Y46.776
X14.002 Y46.785
X14.074 Y46.779
X14.144 Y46.76
X14.271 Y46.713
X13.931 Y46.965
X13.894 Y46.993 Z-0.893 F80
X13.86 Y47.018 Z-0.871
X13.833 Y47.038 Z-0.838
X13.816 Y47.051 Z-0.796
X13.81 Y47.055 Z-0.75
G0 Z4
X13.931 Y46.965
Z0.4
G1 Z-1.2 F80
X10.331 Y49.642 F150
X10.32 Y49.627
X10.312 Y49.616
X10.209 Y49.477
X13.701 Y46.88
X13.744 Y46.843
X13.781 Y46.8
X13.817 Y46.75
X13.929 Y46.776
X14.002 Y46.785
X14.074 Y46.779
X14.144 Y46.76
X14.271 Y46.713
X13.931 Y46.965
X13.894 Y46.993 Z-1.193 F80
X13.86 Y47.018 Z-1.171
X13.833 Y47.038 Z-1.138
X13.816 Y47.051 Z-1.096
X13.81 Y47.055 Z-1.05
G0 Z4
X13.931 Y46.965
Z0.1
G1 Z-1.5 F80
X10.331 Y49.642 F150
X10.32 Y49.627
X10.312 Y49.616
X10.209 Y49.477
X13.701 Y46.88
X13.744 Y46.843
X13.781 Y46.8
X13.817 Y46.75
X13.929 Y46.776
X14.002 Y46.785
X14.074 Y46.779
X14.144 Y46.76
X14.271 Y46.713
X13.931 Y46.965
X13.894 Y46.993 Z-1.493 F80
X13.86 Y47.018 Z-1.471
X13.833 Y47.038 Z-1.438
X13.816 Y47.051 Z-1.396
X13.81 Y47.055 Z-1.35
G0 Z4
X13.931 Y46.965
Z1.3
G1 Z-0.2 F80
Z-1.8
X10.331 Y49.642 F150
X10.32 Y49.627
X10.312 Y49.616
X10.209 Y49.477
X13.701 Y46.88
X13.744 Y46.843
X13.781 Y46.8
X13.817 Y46.75
X13.929 Y46.776
X14.002 Y46.785
X14.074 Y46.779
X14.144 Y46.76
X14.271 Y46.713
X13.931 Y46.965
X13.894 Y46.993 Z-1.793 F80
X13.86 Y47.018 Z-1.771
X13.833 Y47.038 Z-1.738
X13.816 Y47.051 Z-1.696
X13.81 Y47.055 Z-1.65
G0 Z4
X13.931 Y46.965
G1 Z-0.5 F80
Z-2.1
X10.331 Y49.642 F150
X10.32 Y49.627
X10.312 Y49.616
X10.209 Y49.477
X13.701 Y46.88
X13.744 Y46.843
X13.781 Y46.8
X13.817 Y46.75
X13.929 Y46.776
X14.002 Y46.785
X14.074 Y46.779
X14.144 Y46.76
X14.271 Y46.713
X13.931 Y46.965
X13.894 Y46.993 Z-2.093 F80
X13.86 Y47.018 Z-2.071
X13.833 Y47.038 Z-2.038
X13.816 Y47.051 Z-1.996
X13.81 Y47.055 Z-1.95
G0 Z4
X13.931 Y46.965
G1 Z-0.8 F80
Z-2.4
X10.331 Y49.642 F150
X10.32 Y49.627
X10.312 Y49.616
X10.209 Y49.477
X13.701 Y46.88
X13.744 Y46.843
X13.781 Y46.8
X13.817 Y46.75
X13.929 Y46.776
X14.002 Y46.785
X14.074 Y46.779
X14.144 Y46.76
X14.271 Y46.713
X13.931 Y46.965
X13.894 Y46.993 Z-2.393 F80
X13.86 Y47.018 Z-2.371
X13.833 Y47.038 Z-2.338
X13.816 Y47.051 Z-2.296
X13.81 Y47.055 Z-2.25
G0 Z4
X13.931 Y46.965
G1 Z-1.1 F80
Z-2.7
X10.331 Y49.642 F150
X10.32 Y49.627
X10.312 Y49.616
X10.209 Y49.477
X13.701 Y46.88
X13.744 Y46.843
X13.781 Y46.8
X13.817 Y46.75
X13.929 Y46.776
X14.002 Y46.785
X14.074 Y46.779
X14.144 Y46.76
X14.271 Y46.713
X13.931 Y46.965
X13.894 Y46.993 Z-2.693 F80
X13.86 Y47.018 Z-2.671
X13.833 Y47.038 Z-2.638
X13.816 Y47.051 Z-2.596
X13.81 Y47.055 Z-2.55
G0 Z4
X13.931 Y46.965
G1 Z-1.4 F80
Z-3
X10.331 Y49.642 F150
X10.32 Y49.627
X10.312 Y49.616
X10.209 Y49.477
X13.701 Y46.88
X13.744 Y46.843
X13.781 Y46.8
X13.817 Y46.75
X13.929 Y46.776
X14.002 Y46.785
X14.074 Y46.779
X14.144 Y46.76
X14.271 Y46.713
X13.931 Y46.965
X13.894 Y46.993 Z-2.993 F80
X13.86 Y47.018 Z-2.971
X13.833 Y47.038 Z-2.938
X13.816 Y47.051 Z-2.896
X13.81 Y47.055 Z-2.85
G0 Z4
X16.246 Y46.05
Z0.315
G1 X15.085 Z0.217 F80
X15.053 Y46.043
X15.027 Y46.022
X15.012 Y45.992
Y45.959
X15.027 Y45.929
X15.053 Y45.908
X15.085 Y45.9
X16.625 Z0.087
X16.658 Y45.908
X16.684 Y45.929
X16.698 Y45.959
Y45.992
X16.684 Y46.022
X16.658 Y46.043
X16.625 Y46.05
X15.085 Z-0.043
X15.053 Y46.043
X15.027 Y46.022
X15.012 Y45.992
Y45.959
X15.027 Y45.929
X15.053 Y45.908
X15.085 Y45.9
X16.625 Z-0.173
X16.658 Y45.908
X16.684 Y45.929
X16.698 Y45.959
Y45.992
X16.684 Y46.022
X16.658 Y46.043
X16.625 Y46.05
X15.126 Z-0.3
X15.094 Y46.049
X15.058 Y46.04
X15.026 Y46.018
X15.004 Y45.988
X14.994 Y45.951
X14.997 Y45.914
X15.012 Y45.879
X15.039 Y45.852
X15.06 Y45.837 F150
X15.083 Y45.828
X15.203 Y45.816
X33.495
X33.673 Y45.874
X33.71 Y45.927
X33.709 Y45.989
X33.675 Y46.036
X33.495 Y46.094
X15.319 Y46.096
X15.277 Y46.098
X15.236 Y46.105
X15.136 Y46.127
X15.082 Y46.144
X15.031 Y46.169
X14.92 Y46.233
X14.884 Y46.256
X14.62 Y46.453
X14.708 Y46.329
X14.738 Y46.278
X14.759 Y46.223
X14.771 Y46.185
X14.783 Y46.134
X14.787 Y46.081
X14.789 Y46.001
X14.822 Y45.987
X14.895 Y45.949
X14.941 Y45.921
X15.039 Y45.852
X15.058 Y45.844
X15.079
X15.098 Y45.853
X15.245 Y45.962
X15.26 Y45.969
X15.276 Y45.972
X15.856 Y45.958
X15.959 Y45.989
X15.977 Y46.002
X15.981 Y46.024
X15.971 Y46.043
X15.95 Y46.05
X15.126 Z-0.6 F80
X15.094 Y46.049
X15.058 Y46.04
X15.026 Y46.018
X15.004 Y45.988
X14.994 Y45.951
X14.997 Y45.914
X15.012 Y45.879
X15.039 Y45.852
X15.06 Y45.837 F150
X15.083 Y45.828
X15.203 Y45.816
X33.495
X33.673 Y45.874
X33.71 Y45.927
X33.709 Y45.989
X33.675 Y46.036
X33.495 Y46.094
X15.319 Y46.096
X15.277 Y46.098
X15.236 Y46.105
X15.136 Y46.127
X15.082 Y46.144
X15.031 Y46.169
X14.92 Y46.233
X14.884 Y46.256
X14.62 Y46.453
X14.708 Y46.329
X14.738 Y46.278
X14.759 Y46.223
X14.771 Y46.185
X14.783 Y46.134
X14.787 Y46.081
X14.789 Y46.001
X14.822 Y45.987
X14.895 Y45.949
X14.941 Y45.921
X15.039 Y45.852
X15.058 Y45.844
X15.079
X15.098 Y45.853
X15.245 Y45.962
X15.26 Y45.969
X15.276 Y45.972
X15.856 Y45.958
X15.959 Y45.989
X15.977 Y46.002
X15.981 Y46.024
X15.971 Y46.043
X15.95 Y46.05
X15.126 Z-0.9 F80
X15.094 Y46.049
X15.058 Y46.04
X15.026 Y46.018
X15.004 Y45.988
X14.994 Y45.951
X14.997 Y45.914
X15.012 Y45.879
X15.039 Y45.852
X15.06 Y45.837 F150
X15.083 Y45.828
X15.203 Y45.816
X33.495
X33.673 Y45.874
X33.71 Y45.927
X33.709 Y45.989
X33.675 Y46.036
X33.495 Y46.094
X15.319 Y46.096
X15.277 Y46.098
X15.236 Y46.105
X15.136 Y46.127
X15.082 Y46.144
X15.031 Y46.169
X14.92 Y46.233
X14.884 Y46.256
X14.62 Y46.453
X14.708 Y46.329
X14.738 Y46.278
X14.759 Y46.223
X14.771 Y46.185
X14.783 Y46.134
X14.787 Y46.081
X14.789 Y46.001
X14.822 Y45.987
X14.895 Y45.949
X14.941 Y45.921
X15.039 Y45.852
X15.058 Y45.844
X15.079
X15.098 Y45.853
X15.245 Y45.962
X15.26 Y45.969
X15.276 Y45.972
X15.856 Y45.958
X15.959 Y45.989
X15.977 Y46.002
X15.981 Y46.024
X15.971 Y46.043
X15.95 Y46.05
X15.126 Z-1.2 F80
X15.094 Y46.049
X15.058 Y46.04
X15.026 Y46.018
X15.004 Y45.988
X14.994 Y45.951
X14.997 Y45.914
X15.012 Y45.879
X15.039 Y45.852
X15.06 Y45.837 F150
X15.083 Y45.828
X15.203 Y45.816
X33.495
X33.673 Y45.874
X33.71 Y45.927
X33.709 Y45.989
X33.675 Y46.036
X33.495 Y46.094
X15.319 Y46.096
X15.277 Y46.098
X15.236 Y46.105
X15.136 Y46.127
X15.082 Y46.144
X15.031 Y46.169
X14.92 Y46.233
X14.884 Y46.256
X14.62 Y46.453
X14.708 Y46.329
X14.738 Y46.278
X14.759 Y46.223
X14.771 Y46.185
X14.783 Y46.134
X14.787 Y46.081
X14.789 Y46.001
X14.822 Y45.987
X14.895 Y45.949
X14.941 Y45.921
X15.039 Y45.852
X15.058 Y45.844
X15.079
X15.098 Y45.853
X15.245 Y45.962
X15.26 Y45.969
X15.276 Y45.972
X15.856 Y45.958
X15.959 Y45.989
X15.977 Y46.002
X15.981 Y46.024
X15.971 Y46.043
X15.95 Y46.05
X15.126 Z-1.5 F80
X15.094 Y46.049
X15.058 Y46.04
X15.026 Y46.018
X15.004 Y45.988
X14.994 Y45.951
X14.997 Y45.914
X15.012 Y45.879
X15.039 Y45.852
X15.06 Y45.837 F150
X15.083 Y45.828
X15.203 Y45.816
X33.495
X33.673 Y45.874
X33.71 Y45.927
X33.709 Y45.989
X33.675 Y46.036
X33.495 Y46.094
X15.319 Y46.096
X15.277 Y46.098
X15.236 Y46.105
X15.136 Y46.127
X15.082 Y46.144
X15.031 Y46.169
X14.92 Y46.233
X14.884 Y46.256
X14.62 Y46.453
X14.708 Y46.329
X14.738 Y46.278
X14.759 Y46.223
X14.771 Y46.185
X14.783 Y46.134
X14.787 Y46.081
X14.789 Y46.001
X14.822 Y45.987
X14.895 Y45.949
X14.941 Y45.921
X15.039 Y45.852
X15.058 Y45.844
X15.079
X15.098 Y45.853
X15.245 Y45.962
X15.26 Y45.969
X15.276 Y45.972
X15.856 Y45.958
X15.959 Y45.989
X15.977 Y46.002
X15.981 Y46.024
X15.971 Y46.043
X15.95 Y46.05
X15.126 Z-1.8 F80
X15.094 Y46.049
X15.058 Y46.04
X15.026 Y46.018
X15.004 Y45.988
X14.994 Y45.951
X14.997 Y45.914
X15.012 Y45.879
X15.039 Y45.852
X15.06 Y45.837 F150
X15.083 Y45.828
X15.203 Y45.816
X33.495
X33.673 Y45.874
X33.71 Y45.927
X33.709 Y45.989
X33.675 Y46.036
X33.495 Y46.094
X15.319 Y46.096
X15.277 Y46.098
X15.236 Y46.105
X15.136 Y46.127
X15.082 Y46.144
X15.031 Y46.169
X14.92 Y46.233
X14.884 Y46.256
X14.62 Y46.453
X14.708 Y46.329
X14.738 Y46.278
X14.759 Y46.223
X14.771 Y46.185
X14.783 Y46.134
X14.787 Y46.081
X14.789 Y46.001
X14.822 Y45.987
X14.895 Y45.949
X14.941 Y45.921
X15.039 Y45.852
X15.058 Y45.844
X15.079
X15.098 Y45.853
X15.245 Y45.962
X15.26 Y45.969
X15.276 Y45.972
X15.856 Y45.958
X15.959 Y45.989
X15.977 Y46.002
X15.981 Y46.024
X15.971 Y46.043
X15.95 Y46.05
X15.126 Z-2.1 F80
X15.094 Y46.049
X15.058 Y46.04
X15.026 Y46.018
X15.004 Y45.988
X14.994 Y45.951
X14.997 Y45.914
X15.012 Y45.879
X15.039 Y45.852
X15.06 Y45.837 F150
X15.083 Y45.828
X15.203 Y45.816
X33.495
X33.673 Y45.874
X33.71 Y45.927
X33.709 Y45.989
X33.675 Y46.036
X33.495 Y46.094
X15.319 Y46.096
X15.277 Y46.098
X15.236 Y46.105
X15.136 Y46.127
X15.082 Y46.144
X15.031 Y46.169
X14.92 Y46.233
X14.884 Y46.256
X14.62 Y46.453
X14.708 Y46.329
X14.738 Y46.278
X14.759 Y46.223
X14.771 Y46.185
X14.783 Y46.134
X14.787 Y46.081
X14.789 Y46.001
X14.822 Y45.987
X14.895 Y45.949
X14.941 Y45.921
X15.039 Y45.852
X15.058 Y45.844
X15.079
X15.098 Y45.853
X15.245 Y45.962
X15.26 Y45.969
X15.276 Y45.972
X15.856 Y45.958
X15.959 Y45.989
X15.977 Y46.002
X15.981 Y46.024
X15.971 Y46.043
X15.95 Y46.05
X15.126 Z-2.4 F80
X15.094 Y46.049
X15.058 Y46.04
X15.026 Y46.018
X15.004 Y45.988
X14.994 Y45.951
X14.997 Y45.914
X15.012 Y45.879
X15.039 Y45.852
X15.06 Y45.837 F150
X15.083 Y45.828
X15.203 Y45.816
X33.495
X33.673 Y45.874
X33.71 Y45.927
X33.709 Y45.989
X33.675 Y46.036
X33.495 Y46.094
X15.319 Y46.096
X15.277 Y46.098
X15.236 Y46.105
X15.136 Y46.127
X15.082 Y46.144
X15.031 Y46.169
X14.92 Y46.233
X14.884 Y46.256
X14.62 Y46.453
X14.708 Y46.329
X14.738 Y46.278
X14.759 Y46.223
X14.771 Y46.185
X14.783 Y46.134
X14.787 Y46.081
X14.789 Y46.001
X14.822 Y45.987
X14.895 Y45.949
X14.941 Y45.921
X15.039 Y45.852
X15.058 Y45.844
X15.079
X15.098 Y45.853
X15.245 Y45.962
X15.26 Y45.969
X15.276 Y45.972
X15.856 Y45.958
X15.959 Y45.989
X15.977 Y46.002
X15.981 Y46.024
X15.971 Y46.043
X15.95 Y46.05
X15.126 Z-2.7 F80
X15.094 Y46.049
X15.058 Y46.04
X15.026 Y46.018
X15.004 Y45.988
X14.994 Y45.951
X14.997 Y45.914
X15.012 Y45.879
X15.039 Y45.852
X15.06 Y45.837 F150
X15.083 Y45.828
X15.203 Y45.816
X33.495
X33.673 Y45.874
X33.71 Y45.927
X33.709 Y45.989
X33.675 Y46.036
X33.495 Y46.094
X15.319 Y46.096
X15.277 Y46.098
X15.236 Y46.105
X15.136 Y46.127
X15.082 Y46.144
X15.031 Y46.169
X14.92 Y46.233
X14.884 Y46.256
X14.62 Y46.453
X14.708 Y46.329
X14.738 Y46.278
X14.759 Y46.223
X14.771 Y46.185
X14.783 Y46.134
X14.787 Y46.081
X14.789 Y46.001
X14.822 Y45.987
X14.895 Y45.949
X14.941 Y45.921
X15.039 Y45.852
X15.058 Y45.844
X15.079
X15.098 Y45.853
X15.245 Y45.962
X15.26 Y45.969
X15.276 Y45.972
X15.856 Y45.958
X15.959 Y45.989
X15.977 Y46.002
X15.981 Y46.024
X15.971 Y46.043
X15.95 Y46.05
X15.126 Z-3 F80
X15.094 Y46.049
X15.058 Y46.04
X15.026 Y46.018
X15.004 Y45.988
X14.994 Y45.951
X14.997 Y45.914
X15.012 Y45.879
X15.039 Y45.852
X15.06 Y45.837 F150
X15.083 Y45.828
X15.203 Y45.816
X33.495
X33.673 Y45.874
X33.71 Y45.927
X33.709 Y45.989
X33.675 Y46.036
X33.495 Y46.094
X15.319 Y46.096
X15.277 Y46.098
X15.236 Y46.105
X15.136 Y46.127
X15.082 Y46.144
X15.031 Y46.169
X14.92 Y46.233
X14.884 Y46.256
X14.62 Y46.453
X14.708 Y46.329
X14.738 Y46.278
X14.759 Y46.223
X14.771 Y46.185
X14.783 Y46.134
X14.787 Y46.081
X14.789 Y46.001
X14.822 Y45.987
X14.895 Y45.949
X14.941 Y45.921
X15.039 Y45.852
X15.06 Y45.837 Z-2.998 F80
X15.083 Y45.828 Z-2.991
X15.123 Y45.824 Z-2.969
X15.155 Y45.821 Z-2.936
X15.175 Y45.819 Z-2.895
X15.182 Y45.818 Z-2.85
G0 Z4
X29.819 Y41.009
Z0.315
G1 X31.095 Z0.207 F80
X31.128 Y41.016
X31.154 Y41.037
X31.168 Y41.067
Y41.101
X31.154 Y41.131
X31.128 Y41.151
X31.095 Y41.159
X29.555 Z0.077
X29.523 Y41.151
X29.497 Y41.131
X29.482 Y41.101
Y41.067
X29.497 Y41.037
X29.523 Y41.016
X29.555 Y41.009
X31.095 Z-0.053
X31.128 Y41.016
X31.154 Y41.037
X31.168 Y41.067
Y41.101
X31.154 Y41.131
X31.128 Y41.151
X31.095 Y41.159
X29.555 Z-0.183
X29.523 Y41.151
X29.497 Y41.131
X29.482 Y41.101
Y41.067
X29.497 Y41.037
X29.523 Y41.016
X29.555 Y41.009
X30.939 Z-0.3
X31.127 Y40.98
X31.171
X31.212 Y40.994
X31.248 Y41.019
X31.273 Y41.055
X31.287 Y41.096
Y41.14
X31.267 Y41.262 F150
X31.262 Y41.321
X31.259 Y43.361
X31.215 Y43.515
X31.18 Y43.551
X31.012 Y43.594
X15.108 Y43.596
X15.068 Y43.599
X15.028 Y43.605
X14.953 Y43.621
X14.911 Y43.633
X14.761 Y43.684
X14.776 Y43.629
X14.783 Y43.572
X14.787 Y43.464
X14.899 Y43.422
X14.952 Y43.398
X15.065 Y43.334
X15.1 Y43.324
X15.198 Y43.316
X30.265 Y43.315
X30.309 Y43.312
X30.351 Y43.305
X30.458 Y43.28
X30.509 Y43.263
X30.558 Y43.24
X30.65 Y43.188
X30.694 Y43.158
X30.734 Y43.122
X30.808 Y43.045
X30.841 Y43.005
X30.868 Y42.961
X30.915 Y42.874
X30.934 Y42.832
X30.948 Y42.787
X30.97 Y42.7
X30.978 Y42.655
X30.98 Y42.611
Y41.884
X30.977 Y41.837
X30.968 Y41.79
X30.943 Y41.694
X30.926 Y41.643
X30.902 Y41.595
X30.845 Y41.498
X30.815 Y41.456
X30.78 Y41.418
X30.711 Y41.353
X30.669 Y41.318
X30.621 Y41.29
X30.508 Y41.234
X30.451 Y41.211
X30.393 Y41.198
X30.279 Y41.182
X30.227 Y41.179
X18.231 Y41.175
X18.01 Y41.1
X17.948 Y41.015
X17.947 Y40.897
X18.013 Y40.806
X18.243 Y40.731
X31.014
X31.216 Y40.78
X31.284 Y40.842
X31.319 Y40.94
X31.287 Y41.14
X31.275 Y41.17
X31.251 Y41.192
X31.221 Y41.203
X30.852 Y41.242
X30.833 Y41.247
X30.815 Y41.257
X30.735 Y41.318
X30.105 Y41.054
X30.094 Y41.043
X30.091 Y41.028
X30.1 Y41.014
X30.115 Y41.009
X30.939 Z-0.6 F80
X31.127 Y40.98
X31.171
X31.212 Y40.994
X31.248 Y41.019
X31.273 Y41.055
X31.287 Y41.096
Y41.14
X31.267 Y41.262 F150
X31.262 Y41.321
X31.259 Y43.361
X31.215 Y43.515
X31.18 Y43.551
X31.012 Y43.594
X15.108 Y43.596
X15.068 Y43.599
X15.028 Y43.605
X14.953 Y43.621
X14.911 Y43.633
X14.761 Y43.684
X14.776 Y43.629
X14.783 Y43.572
X14.787 Y43.464
X14.899 Y43.422
X14.952 Y43.398
X15.065 Y43.334
X15.1 Y43.324
X15.198 Y43.316
X30.265 Y43.315
X30.309 Y43.312
X30.351 Y43.305
X30.458 Y43.28
X30.509 Y43.263
X30.558 Y43.24
X30.65 Y43.188
X30.694 Y43.158
X30.734 Y43.122
X30.808 Y43.045
X30.841 Y43.005
X30.868 Y42.961
X30.915 Y42.874
X30.934 Y42.832
X30.948 Y42.787
X30.97 Y42.7
X30.978 Y42.655
X30.98 Y42.611
Y41.884
X30.977 Y41.837
X30.968 Y41.79
X30.943 Y41.694
X30.926 Y41.643
X30.902 Y41.595
X30.845 Y41.498
X30.815 Y41.456
X30.78 Y41.418
X30.711 Y41.353
X30.669 Y41.318
X30.621 Y41.29
X30.508 Y41.234
X30.451 Y41.211
X30.393 Y41.198
X30.279 Y41.182
X30.227 Y41.179
X18.231 Y41.175
X18.01 Y41.1
X17.948 Y41.015
X17.947 Y40.897
X18.013 Y40.806
X18.243 Y40.731
X31.014
X31.216 Y40.78
X31.284 Y40.842
X31.319 Y40.94
X31.287 Y41.14
X31.275 Y41.17
X31.251 Y41.192
X31.221 Y41.203
X30.852 Y41.242
X30.833 Y41.247
X30.815 Y41.257
X30.735 Y41.318
X30.105 Y41.054
X30.094 Y41.043
X30.091 Y41.028
X30.1 Y41.014
X30.115 Y41.009
X30.939 Z-0.9 F80
X31.127 Y40.98
X31.171
X31.212 Y40.994
X31.248 Y41.019
X31.273 Y41.055
X31.287 Y41.096
Y41.14
X31.267 Y41.262 F150
X31.262 Y41.321
X31.259 Y43.361
X31.215 Y43.515
X31.18 Y43.551
X31.012 Y43.594
X15.108 Y43.596
X15.068 Y43.599
X15.028 Y43.605
X14.953 Y43.621
X14.911 Y43.633
X14.761 Y43.684
X14.776 Y43.629
X14.783 Y43.572
X14.787 Y43.464
X14.899 Y43.422
X14.952 Y43.398
X15.065 Y43.334
X15.1 Y43.324
X15.198 Y43.316
X30.265 Y43.315
X30.309 Y43.312
X30.351 Y43.305
X30.458 Y43.28
X30.509 Y43.263
X30.558 Y43.24
X30.65 Y43.188
X30.694 Y43.158
X30.734 Y43.122
X30.808 Y43.045
X30.841 Y43.005
X30.868 Y42.961
X30.915 Y42.874
X30.934 Y42.832
X30.948 Y42.787
X30.97 Y42.7
X30.978 Y42.655
X30.98 Y42.611
Y41.884
X30.977 Y41.837
X30.968 Y41.79
X30.943 Y41.694
X30.926 Y41.643
X30.902 Y41.595
X30.845 Y41.498
X30.815 Y41.456
X30.78 Y41.418
X30.711 Y41.353
X30.669 Y41.318
X30.621 Y41.29
X30.508 Y41.234
X30.451 Y41.211
X30.393 Y41.198
X30.279 Y41.182
X30.227 Y41.179
X18.231 Y41.175
X18.01 Y41.1
X17.948 Y41.015
X17.947 Y40.897
X18.013 Y40.806
X18.243 Y40.731
X31.014
X31.216 Y40.78
X31.284 Y40.842
X31.319 Y40.94
X31.287 Y41.14
X31.275 Y41.17
X31.251 Y41.192
X31.221 Y41.203
X30.852 Y41.242
X30.833 Y41.247
X30.815 Y41.257
X30.735 Y41.318
X30.105 Y41.054
X30.094 Y41.043
X30.091 Y41.028
X30.1 Y41.014
X30.115 Y41.009
X30.939 Z-1.2 F80
X31.127 Y40.98
X31.171
X31.212 Y40.994
X31.248 Y41.019
X31.273 Y41.055
X31.287 Y41.096
Y41.14
X31.267 Y41.262 F150
X31.262 Y41.321
X31.259 Y43.361
X31.215 Y43.515
X31.18 Y43.551
X31.012 Y43.594
X15.108 Y43.596
X15.068 Y43.599
X15.028 Y43.605
X14.953 Y43.621
X14.911 Y43.633
X14.761 Y43.684
X14.776 Y43.629
X14.783 Y43.572
X14.787 Y43.464
X14.899 Y43.422
X14.952 Y43.398
X15.065 Y43.334
X15.1 Y43.324
X15.198 Y43.316
X30.265 Y43.315
X30.309 Y43.312
X30.351 Y43.305
X30.458 Y43.28
X30.509 Y43.263
X30.558 Y43.24
X30.65 Y43.188
X30.694 Y43.158
X30.734 Y43.122
X30.808 Y43.045
X30.841 Y43.005
X30.868 Y42.961
X30.915 Y42.874
X30.934 Y42.832
X30.948 Y42.787
X30.97 Y42.7
X30.978 Y42.655
X30.98 Y42.611
Y41.884
X30.977 Y41.837
X30.968 Y41.79
X30.943 Y41.694
X30.926 Y41.643
X30.902 Y41.595
X30.845 Y41.498
X30.815 Y41.456
X30.78 Y41.418
X30.711 Y41.353
X30.669 Y41.318
X30.621 Y41.29
X30.508 Y41.234
X30.451 Y41.211
X30.393 Y41.198
X30.279 Y41.182
X30.227 Y41.179
X18.231 Y41.175
X18.01 Y41.1
X17.948 Y41.015
X17.947 Y40.897
X18.013 Y40.806
X18.243 Y40.731
X31.014
X31.216 Y40.78
X31.284 Y40.842
X31.319 Y40.94
X31.287 Y41.14
X31.275 Y41.17
X31.251 Y41.192
X31.221 Y41.203
X30.852 Y41.242
X30.833 Y41.247
X30.815 Y41.257
X30.735 Y41.318
X30.105 Y41.054
X30.094 Y41.043
X30.091 Y41.028
X30.1 Y41.014
X30.115 Y41.009
X30.939 Z-1.5 F80
X31.127 Y40.98
X31.171
X31.212 Y40.994
X31.248 Y41.019
X31.273 Y41.055
X31.287 Y41.096
Y41.14
X31.267 Y41.262 F150
X31.262 Y41.321
X31.259 Y43.361
X31.215 Y43.515
X31.18 Y43.551
X31.012 Y43.594
X15.108 Y43.596
X15.068 Y43.599
X15.028 Y43.605
X14.953 Y43.621
X14.911 Y43.633
X14.761 Y43.684
X14.776 Y43.629
X14.783 Y43.572
X14.787 Y43.464
X14.899 Y43.422
X14.952 Y43.398
X15.065 Y43.334
X15.1 Y43.324
X15.198 Y43.316
X30.265 Y43.315
X30.309 Y43.312
X30.351 Y43.305
X30.458 Y43.28
X30.509 Y43.263
X30.558 Y43.24
X30.65 Y43.188
X30.694 Y43.158
X30.734 Y43.122
X30.808 Y43.045
X30.841 Y43.005
X30.868 Y42.961
X30.915 Y42.874
X30.934 Y42.832
X30.948 Y42.787
X30.97 Y42.7
X30.978 Y42.655
X30.98 Y42.611
Y41.884
X30.977 Y41.837
X30.968 Y41.79
X30.943 Y41.694
X30.926 Y41.643
X30.902 Y41.595
X30.845 Y41.498
X30.815 Y41.456
X30.78 Y41.418
X30.711 Y41.353
X30.669 Y41.318
X30.621 Y41.29
X30.508 Y41.234
X30.451 Y41.211
X30.393 Y41.198
X30.279 Y41.182
X30.227 Y41.179
X18.231 Y41.175
X18.01 Y41.1
X17.948 Y41.015
X17.947 Y40.897
X18.013 Y40.806
X18.243 Y40.731
X31.014
X31.216 Y40.78
X31.284 Y40.842
X31.319 Y40.94
X31.287 Y41.14
X31.275 Y41.17
X31.251 Y41.192
X31.221 Y41.203
X30.852 Y41.242
X30.833 Y41.247
X30.815 Y41.257
X30.735 Y41.318
X30.105 Y41.054
X30.094 Y41.043
X30.091 Y41.028
X30.1 Y41.014
X30.115 Y41.009
X30.939 Z-1.8 F80
X31.127 Y40.98
X31.171
X31.212 Y40.994
X31.248 Y41.019
X31.273 Y41.055
X31.287 Y41.096
Y41.14
X31.267 Y41.262 F150
X31.262 Y41.321
X31.259 Y43.361
X31.215 Y43.515
X31.18 Y43.551
X31.012 Y43.594
X15.108 Y43.596
X15.068 Y43.599
X15.028 Y43.605
X14.953 Y43.621
X14.911 Y43.633
X14.761 Y43.684
X14.776 Y43.629
X14.783 Y43.572
X14.787 Y43.464
X14.899 Y43.422
X14.952 Y43.398
X15.065 Y43.334
X15.1 Y43.324
X15.198 Y43.316
X30.265 Y43.315
X30.309 Y43.312
X30.351 Y43.305
X30.458 Y43.28
X30.509 Y43.263
X30.558 Y43.24
X30.65 Y43.188
X30.694 Y43.158
X30.734 Y43.122
X30.808 Y43.045
X30.841 Y43.005
X30.868 Y42.961
X30.915 Y42.874
X30.934 Y42.832
X30.948 Y42.787
X30.97 Y42.7
X30.978 Y42.655
X30.98 Y42.611
Y41.884
X30.977 Y41.837
X30.968 Y41.79
X30.943 Y41.694
X30.926 Y41.643
X30.902 Y41.595
X30.845 Y41.498
X30.815 Y41.456
X30.78 Y41.418
X30.711 Y41.353
X30.669 Y41.318
X30.621 Y41.29
X30.508 Y41.234
X30.451 Y41.211
X30.393 Y41.198
X30.279 Y41.182
X30.227 Y41.179
X18.231 Y41.175
X18.01 Y41.1
X17.948 Y41.015
X17.947 Y40.897
X18.013 Y40.806
X18.243 Y40.731
X31.014
X31.216 Y40.78
X31.284 Y40.842
X31.319 Y40.94
X31.287 Y41.14
X31.275 Y41.17
X31.251 Y41.192
X31.221 Y41.203
X30.852 Y41.242
X30.833 Y41.247
X30.815 Y41.257
X30.735 Y41.318
X30.105 Y41.054
X30.094 Y41.043
X30.091 Y41.028
X30.1 Y41.014
X30.115 Y41.009
X30.939 Z-2.1 F80
X31.127 Y40.98
X31.171
X31.212 Y40.994
X31.248 Y41.019
X31.273 Y41.055
X31.287 Y41.096
Y41.14
X31.267 Y41.262 F150
X31.262 Y41.321
X31.259 Y43.361
X31.215 Y43.515
X31.18 Y43.551
X31.012 Y43.594
X15.108 Y43.596
X15.068 Y43.599
X15.028 Y43.605
X14.953 Y43.621
X14.911 Y43.633
X14.761 Y43.684
X14.776 Y43.629
X14.783 Y43.572
X14.787 Y43.464
X14.899 Y43.422
X14.952 Y43.398
X15.065 Y43.334
X15.1 Y43.324
X15.198 Y43.316
X30.265 Y43.315
X30.309 Y43.312
X30.351 Y43.305
X30.458 Y43.28
X30.509 Y43.263
X30.558 Y43.24
X30.65 Y43.188
X30.694 Y43.158
X30.734 Y43.122
X30.808 Y43.045
X30.841 Y43.005
X30.868 Y42.961
X30.915 Y42.874
X30.934 Y42.832
X30.948 Y42.787
X30.97 Y42.7
X30.978 Y42.655
X30.98 Y42.611
Y41.884
X30.977 Y41.837
X30.968 Y41.79
X30.943 Y41.694
X30.926 Y41.643
X30.902 Y41.595
X30.845 Y41.498
X30.815 Y41.456
X30.78 Y41.418
X30.711 Y41.353
X30.669 Y41.318
X30.621 Y41.29
X30.508 Y41.234
X30.451 Y41.211
X30.393 Y41.198
X30.279 Y41.182
X30.227 Y41.179
X18.231 Y41.175
X18.01 Y41.1
X17.948 Y41.015
X17.947 Y40.897
X18.013 Y40.806
X18.243 Y40.731
X31.014
X31.216 Y40.78
X31.284 Y40.842
X31.319 Y40.94
X31.287 Y41.14
X31.275 Y41.17
X31.251 Y41.192
X31.221 Y41.203
X30.852 Y41.242
X30.833 Y41.247
X30.815 Y41.257
X30.735 Y41.318
X30.105 Y41.054
X30.094 Y41.043
X30.091 Y41.028
X30.1 Y41.014
X30.115 Y41.009
X30.939 Z-2.4 F80
X31.127 Y40.98
X31.171
X31.212 Y40.994
X31.248 Y41.019
X31.273 Y41.055
X31.287 Y41.096
Y41.14
X31.267 Y41.262 F150
X31.262 Y41.321
X31.259 Y43.361
X31.215 Y43.515
X31.18 Y43.551
X31.012 Y43.594
X15.108 Y43.596
X15.068 Y43.599
X15.028 Y43.605
X14.953 Y43.621
X14.911 Y43.633
X14.761 Y43.684
X14.776 Y43.629
X14.783 Y43.572
X14.787 Y43.464
X14.899 Y43.422
X14.952 Y43.398
X15.065 Y43.334
X15.1 Y43.324
X15.198 Y43.316
X30.265 Y43.315
X30.309 Y43.312
X30.351 Y43.305
X30.458 Y43.28
X30.509 Y43.263
X30.558 Y43.24
X30.65 Y43.188
X30.694 Y43.158
X30.734 Y43.122
X30.808 Y43.045
X30.841 Y43.005
X30.868 Y42.961
X30.915 Y42.874
X30.934 Y42.832
X30.948 Y42.787
X30.97 Y42.7
X30.978 Y42.655
X30.98 Y42.611
Y41.884
X30.977 Y41.837
X30.968 Y41.79
X30.943 Y41.694
X30.926 Y41.643
X30.902 Y41.595
X30.845 Y41.498
X30.815 Y41.456
X30.78 Y41.418
X30.711 Y41.353
X30.669 Y41.318
X30.621 Y41.29
X30.508 Y41.234
X30.451 Y41.211
X30.393 Y41.198
X30.279 Y41.182
X30.227 Y41.179
X18.231 Y41.175
X18.01 Y41.1
X17.948 Y41.015
X17.947 Y40.897
X18.013 Y40.806
X18.243 Y40.731
X31.014
X31.216 Y40.78
X31.284 Y40.842
X31.319 Y40.94
X31.287 Y41.14
X31.275 Y41.17
X31.251 Y41.192
X31.221 Y41.203
X30.852 Y41.242
X30.833 Y41.247
X30.815 Y41.257
X30.735 Y41.318
X30.105 Y41.054
X30.094 Y41.043
X30.091 Y41.028
X30.1 Y41.014
X30.115 Y41.009
X30.939 Z-2.7 F80
X31.127 Y40.98
X31.171
X31.212 Y40.994
X31.248 Y41.019
X31.273 Y41.055
X31.287 Y41.096
Y41.14
X31.267 Y41.262 F150
X31.262 Y41.321
X31.259 Y43.361
X31.215 Y43.515
X31.18 Y43.551
X31.012 Y43.594
X15.108 Y43.596
X15.068 Y43.599
X15.028 Y43.605
X14.953 Y43.621
X14.911 Y43.633
X14.761 Y43.684
X14.776 Y43.629
X14.783 Y43.572
X14.787 Y43.464
X14.899 Y43.422
X14.952 Y43.398
X15.065 Y43.334
X15.1 Y43.324
X15.198 Y43.316
X30.265 Y43.315
X30.309 Y43.312
X30.351 Y43.305
X30.458 Y43.28
X30.509 Y43.263
X30.558 Y43.24
X30.65 Y43.188
X30.694 Y43.158
X30.734 Y43.122
X30.808 Y43.045
X30.841 Y43.005
X30.868 Y42.961
X30.915 Y42.874
X30.934 Y42.832
X30.948 Y42.787
X30.97 Y42.7
X30.978 Y42.655
X30.98 Y42.611
Y41.884
X30.977 Y41.837
X30.968 Y41.79
X30.943 Y41.694
X30.926 Y41.643
X30.902 Y41.595
X30.845 Y41.498
X30.815 Y41.456
X30.78 Y41.418
X30.711 Y41.353
X30.669 Y41.318
X30.621 Y41.29
X30.508 Y41.234
X30.451 Y41.211
X30.393 Y41.198
X30.279 Y41.182
X30.227 Y41.179
X18.231 Y41.175
X18.01 Y41.1
X17.948 Y41.015
X17.947 Y40.897
X18.013 Y40.806
X18.243 Y40.731
X31.014
X31.216 Y40.78
X31.284 Y40.842
X31.319 Y40.94
X31.287 Y41.14
X31.275 Y41.17
X31.251 Y41.192
X31.221 Y41.203
X30.852 Y41.242
X30.833 Y41.247
X30.815 Y41.257
X30.735 Y41.318
X30.105 Y41.054
X30.094 Y41.043
X30.091 Y41.028
X30.1 Y41.014
X30.115 Y41.009
X30.939 Z-3 F80
X31.127 Y40.98
X31.171
X31.212 Y40.994
X31.248 Y41.019
X31.273 Y41.055
X31.287 Y41.096
Y41.14
X31.267 Y41.262 F150
X31.262 Y41.321
X31.259 Y43.361
X31.215 Y43.515
X31.18 Y43.551
X31.012 Y43.594
X15.108 Y43.596
X15.068 Y43.599
X15.028 Y43.605
X14.953 Y43.621
X14.911 Y43.633
X14.761 Y43.684
X14.776 Y43.629
X14.783 Y43.572
X14.787 Y43.464
X14.899 Y43.422
X14.952 Y43.398
X15.065 Y43.334
X15.1 Y43.324
X15.198 Y43.316
X30.265 Y43.315
X30.309 Y43.312
X30.351 Y43.305
X30.458 Y43.28
X30.509 Y43.263
X30.558 Y43.24
X30.65 Y43.188
X30.694 Y43.158
X30.734 Y43.122
X30.808 Y43.045
X30.841 Y43.005
X30.868 Y42.961
X30.915 Y42.874
X30.934 Y42.832
X30.948 Y42.787
X30.97 Y42.7
X30.978 Y42.655
X30.98 Y42.611
Y41.884
X30.977 Y41.837
X30.968 Y41.79
X30.943 Y41.694
X30.926 Y41.643
X30.902 Y41.595
X30.845 Y41.498
X30.815 Y41.456
X30.78 Y41.418
X30.711 Y41.353
X30.669 Y41.318
X30.621 Y41.29
X30.508 Y41.234
X30.451 Y41.211
X30.393 Y41.198
X30.279 Y41.182
X30.227 Y41.179
X18.231 Y41.175
X18.01 Y41.1
X17.948 Y41.015
X17.947 Y40.897
X18.013 Y40.806
X18.243 Y40.731
X31.014
X31.216 Y40.78
X31.284 Y40.842
X31.319 Y40.94
X31.287 Y41.14
X31.279 Y41.168 Z-2.994 F80
X31.267 Y41.194 Z-2.989
X31.236 Y41.231 Z-2.956
X31.209 Y41.249 Z-2.907
X31.199 Y41.254 Z-2.85
G0 Z4
X16.168 Y38.541
Z0.315
G1 X15.088 Z0.224 F80
X15.056 Y38.534
X15.03 Y38.513
X15.015 Y38.483
Y38.45
X15.03 Y38.42
X15.056 Y38.399
X15.088 Y38.391
X16.628 Z0.094
X16.661 Y38.399
X16.687 Y38.42
X16.701 Y38.45
Y38.483
X16.687 Y38.513
X16.661 Y38.534
X16.628 Y38.541
X15.088 Z-0.036
X15.056 Y38.534
X15.03 Y38.513
X15.015 Y38.483
Y38.45
X15.03 Y38.42
X15.056 Y38.399
X15.088 Y38.391
X16.628 Z-0.166
X16.661 Y38.399
X16.687 Y38.42
X16.701 Y38.45
Y38.483
X16.687 Y38.513
X16.661 Y38.534
X16.628 Y38.541
X15.088 Z-0.297
X15.056 Y38.534
X15.03 Y38.513
X15.015 Y38.483
Y38.45
X15.03 Y38.42
X15.056 Y38.399
X15.088 Y38.391
X15.129 Z-0.3
X15.141 Y38.392
X15.179 Y38.401
X15.212 Y38.422
X15.235 Y38.454
X15.245 Y38.491
X15.242 Y38.53
X15.225 Y38.566
X15.196 Y38.593
X15.16 Y38.608
X15.065 Y38.629 F150
X15.01 Y38.646
X14.958 Y38.67
X14.495 Y38.938
X14.536 Y38.899
X14.556 Y38.878
X14.663 Y38.758
X14.701 Y38.708
X14.73 Y38.652
X14.749 Y38.593
X14.767 Y38.516
X14.773 Y38.485
X14.777 Y38.458
X14.799 Y38.454
X14.854 Y38.439
X14.906 Y38.417
X15.057 Y38.336
X15.103 Y38.323
X15.197 Y38.316
X33.495
X33.67 Y38.373
X33.71 Y38.425
X33.709 Y38.487
X33.671 Y38.537
X33.495 Y38.594
X15.259 Y38.595
X15.218 Y38.597
X15.178 Y38.604
X15.16 Y38.608
X15.124 Y38.609
X15.09 Y38.598
X15.062 Y38.575
X15.044 Y38.543
X15.039 Y38.508
X15.046 Y38.472
X15.065 Y38.442
X15.094 Y38.42
X15.129 Y38.411
X15.863 Y38.342
X15.898 Y38.345
X15.93 Y38.36
X15.955 Y38.386
X15.969 Y38.419
X15.971 Y38.455
X15.96 Y38.489
X15.938 Y38.517
X15.907 Y38.535
X15.872 Y38.541
X15.088 Z-0.585 F80
X15.056 Y38.534
X15.03 Y38.513
X15.015 Y38.483
Y38.45
X15.03 Y38.42
X15.056 Y38.399
X15.088 Y38.391
X15.129 Z-0.6
X15.141 Y38.392
X15.179 Y38.401
X15.212 Y38.422
X15.235 Y38.454
X15.245 Y38.491
X15.242 Y38.53
X15.225 Y38.566
X15.196 Y38.593
X15.16 Y38.608
X15.065 Y38.629 F150
X15.01 Y38.646
X14.958 Y38.67
X14.495 Y38.938
X14.536 Y38.899
X14.556 Y38.878
X14.663 Y38.758
X14.701 Y38.708
X14.73 Y38.652
X14.749 Y38.593
X14.767 Y38.516
X14.773 Y38.485
X14.777 Y38.458
X14.799 Y38.454
X14.854 Y38.439
X14.906 Y38.417
X15.057 Y38.336
X15.103 Y38.323
X15.197 Y38.316
X33.495
X33.67 Y38.373
X33.71 Y38.425
X33.709 Y38.487
X33.671 Y38.537
X33.495 Y38.594
X15.259 Y38.595
X15.218 Y38.597
X15.178 Y38.604
X15.16 Y38.608
X15.124 Y38.609
X15.09 Y38.598
X15.062 Y38.575
X15.044 Y38.543
X15.039 Y38.508
X15.046 Y38.472
X15.065 Y38.442
X15.094 Y38.42
X15.129 Y38.411
X15.863 Y38.342
X15.898 Y38.345
X15.93 Y38.36
X15.955 Y38.386
X15.969 Y38.419
X15.971 Y38.455
X15.96 Y38.489
X15.938 Y38.517
X15.907 Y38.535
X15.872 Y38.541
X15.088 Z-0.885 F80
X15.056 Y38.534
X15.03 Y38.513
X15.015 Y38.483
Y38.45
X15.03 Y38.42
X15.056 Y38.399
X15.088 Y38.391
X15.129 Z-0.9
X15.141 Y38.392
X15.179 Y38.401
X15.212 Y38.422
X15.235 Y38.454
X15.245 Y38.491
X15.242 Y38.53
X15.225 Y38.566
X15.196 Y38.593
X15.16 Y38.608
X15.065 Y38.629 F150
X15.01 Y38.646
X14.958 Y38.67
X14.495 Y38.938
X14.536 Y38.899
X14.556 Y38.878
X14.663 Y38.758
X14.701 Y38.708
X14.73 Y38.652
X14.749 Y38.593
X14.767 Y38.516
X14.773 Y38.485
X14.777 Y38.458
X14.799 Y38.454
X14.854 Y38.439
X14.906 Y38.417
X15.057 Y38.336
X15.103 Y38.323
X15.197 Y38.316
X33.495
X33.67 Y38.373
X33.71 Y38.425
X33.709 Y38.487
X33.671 Y38.537
X33.495 Y38.594
X15.259 Y38.595
X15.218 Y38.597
X15.178 Y38.604
X15.16 Y38.608
X15.124 Y38.609
X15.09 Y38.598
X15.062 Y38.575
X15.044 Y38.543
X15.039 Y38.508
X15.046 Y38.472
X15.065 Y38.442
X15.094 Y38.42
X15.129 Y38.411
X15.863 Y38.342
X15.898 Y38.345
X15.93 Y38.36
X15.955 Y38.386
X15.969 Y38.419
X15.971 Y38.455
X15.96 Y38.489
X15.938 Y38.517
X15.907 Y38.535
X15.872 Y38.541
X15.088 Z-1.185 F80
X15.056 Y38.534
X15.03 Y38.513
X15.015 Y38.483
Y38.45
X15.03 Y38.42
X15.056 Y38.399
X15.088 Y38.391
X15.129 Z-1.2
X15.141 Y38.392
X15.179 Y38.401
X15.212 Y38.422
X15.235 Y38.454
X15.245 Y38.491
X15.242 Y38.53
X15.225 Y38.566
X15.196 Y38.593
X15.16 Y38.608
X15.065 Y38.629 F150
X15.01 Y38.646
X14.958 Y38.67
X14.495 Y38.938
X14.536 Y38.899
X14.556 Y38.878
X14.663 Y38.758
X14.701 Y38.708
X14.73 Y38.652
X14.749 Y38.593
X14.767 Y38.516
X14.773 Y38.485
X14.777 Y38.458
X14.799 Y38.454
X14.854 Y38.439
X14.906 Y38.417
X15.057 Y38.336
X15.103 Y38.323
X15.197 Y38.316
X33.495
X33.67 Y38.373
X33.71 Y38.425
X33.709 Y38.487
X33.671 Y38.537
X33.495 Y38.594
X15.259 Y38.595
X15.218 Y38.597
X15.178 Y38.604
X15.16 Y38.608
X15.124 Y38.609
X15.09 Y38.598
X15.062 Y38.575
X15.044 Y38.543
X15.039 Y38.508
X15.046 Y38.472
X15.065 Y38.442
X15.094 Y38.42
X15.129 Y38.411
X15.863 Y38.342
X15.898 Y38.345
X15.93 Y38.36
X15.955 Y38.386
X15.969 Y38.419
X15.971 Y38.455
X15.96 Y38.489
X15.938 Y38.517
X15.907 Y38.535
X15.872 Y38.541
X15.088 Z-1.485 F80
X15.056 Y38.534
X15.03 Y38.513
X15.015 Y38.483
Y38.45
X15.03 Y38.42
X15.056 Y38.399
X15.088 Y38.391
X15.129 Z-1.5
X15.141 Y38.392
X15.179 Y38.401
X15.212 Y38.422
X15.235 Y38.454
X15.245 Y38.491
X15.242 Y38.53
X15.225 Y38.566
X15.196 Y38.593
X15.16 Y38.608
X15.065 Y38.629 F150
X15.01 Y38.646
X14.958 Y38.67
X14.495 Y38.938
X14.536 Y38.899
X14.556 Y38.878
X14.663 Y38.758
X14.701 Y38.708
X14.73 Y38.652
X14.749 Y38.593
X14.767 Y38.516
X14.773 Y38.485
X14.777 Y38.458
X14.799 Y38.454
X14.854 Y38.439
X14.906 Y38.417
X15.057 Y38.336
X15.103 Y38.323
X15.197 Y38.316
X33.495
X33.67 Y38.373
X33.71 Y38.425
X33.709 Y38.487
X33.671 Y38.537
X33.495 Y38.594
X15.259 Y38.595
X15.218 Y38.597
X15.178 Y38.604
X15.16 Y38.608
X15.124 Y38.609
X15.09 Y38.598
X15.062 Y38.575
X15.044 Y38.543
X15.039 Y38.508
X15.046 Y38.472
X15.065 Y38.442
X15.094 Y38.42
X15.129 Y38.411
X15.863 Y38.342
X15.898 Y38.345
X15.93 Y38.36
X15.955 Y38.386
X15.969 Y38.419
X15.971 Y38.455
X15.96 Y38.489
X15.938 Y38.517
X15.907 Y38.535
X15.872 Y38.541
X15.088 Z-1.785 F80
X15.056 Y38.534
X15.03 Y38.513
X15.015 Y38.483
Y38.45
X15.03 Y38.42
X15.056 Y38.399
X15.088 Y38.391
X15.129 Z-1.8
X15.141 Y38.392
X15.179 Y38.401
X15.212 Y38.422
X15.235 Y38.454
X15.245 Y38.491
X15.242 Y38.53
X15.225 Y38.566
X15.196 Y38.593
X15.16 Y38.608
X15.065 Y38.629 F150
X15.01 Y38.646
X14.958 Y38.67
X14.495 Y38.938
X14.536 Y38.899
X14.556 Y38.878
X14.663 Y38.758
X14.701 Y38.708
X14.73 Y38.652
X14.749 Y38.593
X14.767 Y38.516
X14.773 Y38.485
X14.777 Y38.458
X14.799 Y38.454
X14.854 Y38.439
X14.906 Y38.417
