(1001)
(T1  D=3 CR=0 - ZMIN=-7.7 - flat end mill)
G90 G94
G17
G21

(Pocket2)
T1
S500 M3
G54
M8
G0 X2.181 Y33.719
Z6
Z1.3
G1 Z0 F300
X2.169 Y33.711 Z-0.093
X2.136 Y33.684 Z-0.176
X2.093 Y33.633 Z-0.243
X2.072 Y33.597 Z-0.264
X2.057 Y33.558 Z-0.285
X2.046 Y33.513 Z-0.293
X2.042 Y33.467 Z-0.3
X2.04 Y33.145 F1000
X2.045 Y33.111
X2.047 Y33.106
X2.106 Y32.982
X2.17 Y32.852
X2.885 Y33.259
X2.962 Y33.297
X3.042 Y33.327
X3.204 Y33.375
X3.283 Y33.393
X3.363 Y33.404
X3.524 Y33.416
X3.578 Y33.417
X8.94 Y33.42
X9.054 Y33.439
X9.077 Y33.451
X9.091 Y33.466
X9.069 Y33.49
X8.932 Y33.515
X3.471 Y33.522
X3.39 Y33.526
X3.311 Y33.539
X3.15 Y33.574
X3.069 Y33.597
X2.99 Y33.628
X2.829 Y33.704
X2.775 Y33.733
X2.172 Y34.08
X2.044 Y33.813
X2.042 Y33.467
X2.045 Y33.421 Z-0.293 F300
X2.056 Y33.376 Z-0.285
X2.071 Y33.337 Z-0.264
X2.091 Y33.301 Z-0.243
X2.134 Y33.25 Z-0.176
X2.166 Y33.222 Z-0.093
X2.178 Y33.214 Z0
G0 Z4
X2.181 Y33.719
Z1
G1 Z-0.3 F300
X2.169 Y33.711 Z-0.393
X2.136 Y33.684 Z-0.476
X2.093 Y33.633 Z-0.543
X2.072 Y33.597 Z-0.564
X2.057 Y33.558 Z-0.585
X2.046 Y33.513 Z-0.593
X2.042 Y33.467 Z-0.6
X2.04 Y33.145 F1000
X2.045 Y33.111
X2.047 Y33.106
X2.106 Y32.982
X2.17 Y32.852
X2.885 Y33.259
X2.962 Y33.297
X3.042 Y33.327
X3.204 Y33.375
X3.283 Y33.393
X3.363 Y33.404
X3.524 Y33.416
X3.578 Y33.417
X8.94 Y33.42
X9.054 Y33.439
X9.077 Y33.451
X9.091 Y33.466
X9.069 Y33.49
X8.932 Y33.515
X3.471 Y33.522
X3.39 Y33.526
X3.311 Y33.539
X3.15 Y33.574
X3.069 Y33.597
X2.99 Y33.628
X2.829 Y33.704
X2.775 Y33.733
X2.172 Y34.08
X2.044 Y33.813
X2.042 Y33.467
X2.045 Y33.421 Z-0.593 F300
X2.056 Y33.376 Z-0.585
X2.071 Y33.337 Z-0.564
X2.091 Y33.301 Z-0.543
X2.134 Y33.25 Z-0.476
X2.166 Y33.222 Z-0.393
X2.178 Y33.214 Z-0.3
G0 Z4
X2.181 Y33.719
Z0.7
G1 Z-0.6 F300
X2.169 Y33.711 Z-0.693
X2.136 Y33.684 Z-0.776
X2.093 Y33.633 Z-0.843
X2.072 Y33.597 Z-0.864
X2.057 Y33.558 Z-0.885
X2.046 Y33.513 Z-0.893
X2.042 Y33.467 Z-0.9
X2.04 Y33.145 F1000
X2.045 Y33.111
X2.047 Y33.106
X2.106 Y32.982
X2.17 Y32.852
X2.885 Y33.259
X2.962 Y33.297
X3.042 Y33.327
X3.204 Y33.375
X3.283 Y33.393
X3.363 Y33.404
X3.524 Y33.416
X3.578 Y33.417
X8.94 Y33.42
X9.054 Y33.438
X9.077 Y33.451
X9.091 Y33.466
X9.069 Y33.489
X8.932 Y33.515
X3.471 Y33.522
X3.39 Y33.526
X3.311 Y33.539
X3.15 Y33.574
X3.069 Y33.597
X2.99 Y33.628
X2.829 Y33.704
X2.775 Y33.733
X2.172 Y34.08
X2.044 Y33.813
X2.042 Y33.467
X2.045 Y33.421 Z-0.893 F300
X2.056 Y33.376 Z-0.885
X2.071 Y33.337 Z-0.864
X2.091 Y33.301 Z-0.843
X2.134 Y33.25 Z-0.776
X2.166 Y33.222 Z-0.693
X2.178 Y33.214 Z-0.6
G0 Z4
X2.181 Y33.719
Z0.4
G1 Z-0.9 F300
X2.169 Y33.711 Z-0.993
X2.136 Y33.684 Z-1.076
X2.093 Y33.633 Z-1.143
X2.072 Y33.597 Z-1.164
X2.057 Y33.558 Z-1.185
X2.046 Y33.513 Z-1.193
X2.042 Y33.467 Z-1.2
X2.04 Y33.145 F1000
X2.045 Y33.111
X2.047 Y33.106
X2.106 Y32.982
X2.17 Y32.852
X2.885 Y33.259
X2.962 Y33.297
X3.042 Y33.327
X3.204 Y33.375
X3.283 Y33.393
X3.363 Y33.404
X3.524 Y33.416
X3.578 Y33.417
X8.94 Y33.42
X9.053 Y33.438
X9.076 Y33.452
X9.09 Y33.466
X9.068 Y33.489
X8.932 Y33.515
X3.471 Y33.522
X3.39 Y33.526
X3.311 Y33.539
X3.15 Y33.574
X3.069 Y33.597
X2.99 Y33.628
X2.829 Y33.704
X2.775 Y33.733
X2.172 Y34.08
X2.044 Y33.813
X2.042 Y33.467
X2.045 Y33.421 Z-1.193 F300
X2.056 Y33.376 Z-1.185
X2.071 Y33.337 Z-1.164
X2.091 Y33.301 Z-1.143
X2.134 Y33.25 Z-1.076
X2.166 Y33.222 Z-0.993
X2.178 Y33.214 Z-0.9
G0 Z4
X2.181 Y33.719
Z0.1
G1 Z-1.2 F300
X2.169 Y33.711 Z-1.293
X2.136 Y33.684 Z-1.376
X2.093 Y33.633 Z-1.443
X2.072 Y33.597 Z-1.464
X2.057 Y33.558 Z-1.485
X2.046 Y33.513 Z-1.493
X2.042 Y33.467 Z-1.5
X2.04 Y33.145 F1000
X2.045 Y33.111
X2.047 Y33.106
X2.106 Y32.982
X2.17 Y32.852
X2.885 Y33.259
X2.962 Y33.297
X3.042 Y33.327
X3.204 Y33.375
X3.283 Y33.393
X3.363 Y33.404
X3.524 Y33.416
X3.578 Y33.417
X8.94 Y33.42
X9.05 Y33.438
X9.073 Y33.449
X9.089 Y33.465
X9.068 Y33.488
X9.057 Y33.494
X9.035 Y33.499
X8.896 Y33.518
X3.471 Y33.522
X3.391 Y33.526
X3.311 Y33.539
X3.15 Y33.574
X3.069 Y33.597
X2.99 Y33.628
X2.829 Y33.704
X2.775 Y33.733
X2.172 Y34.08
X2.044 Y33.813
X2.042 Y33.467
X2.045 Y33.421 Z-1.493 F300
X2.056 Y33.376 Z-1.485
X2.071 Y33.337 Z-1.464
X2.091 Y33.301 Z-1.443
X2.134 Y33.25 Z-1.376
X2.166 Y33.222 Z-1.293
X2.178 Y33.214 Z-1.2
G0 Z4
X2.181 Y33.719
Z1.3
G1 Z-0.2 F300
Z-1.5
X2.169 Y33.711 Z-1.593
X2.136 Y33.684 Z-1.676
X2.093 Y33.633 Z-1.743
X2.072 Y33.597 Z-1.764
X2.057 Y33.558 Z-1.785
X2.046 Y33.513 Z-1.793
X2.042 Y33.467 Z-1.8
X2.04 Y33.145 F1000
X2.045 Y33.111
X2.047 Y33.106
X2.106 Y32.982
X2.17 Y32.852
X2.885 Y33.259
X2.962 Y33.297
X3.042 Y33.327
X3.204 Y33.375
X3.283 Y33.393
X3.363 Y33.404
X3.524 Y33.416
X3.578 Y33.417
X8.936 Y33.42
X9.06 Y33.441
X9.071 Y33.447
X9.088 Y33.466
X9.071 Y33.484
X9.048 Y33.497
X8.938 Y33.515
X3.471 Y33.522
X3.39 Y33.526
X3.311 Y33.539
X3.15 Y33.574
X3.069 Y33.597
X2.99 Y33.628
X2.829 Y33.704
X2.775 Y33.733
X2.172 Y34.08
X2.044 Y33.813
X2.042 Y33.467
X2.045 Y33.421 Z-1.793 F300
X2.056 Y33.376 Z-1.785
X2.071 Y33.337 Z-1.764
X2.091 Y33.301 Z-1.743
X2.134 Y33.25 Z-1.676
X2.166 Y33.222 Z-1.593
X2.178 Y33.214 Z-1.5
G0 Z4
X2.181 Y33.719
G1 Z-0.5 F300
Z-1.8
X2.169 Y33.711 Z-1.893
X2.136 Y33.684 Z-1.976
X2.093 Y33.633 Z-2.043
X2.072 Y33.597 Z-2.064
X2.057 Y33.558 Z-2.085
X2.046 Y33.513 Z-2.093
X2.042 Y33.467 Z-2.1
X2.04 Y33.145 F1000
X2.045 Y33.111
X2.047 Y33.106
X2.106 Y32.982
X2.17 Y32.852
X2.885 Y33.259
X2.962 Y33.297
X3.042 Y33.327
X3.204 Y33.375
X3.283 Y33.393
X3.363 Y33.404
X3.524 Y33.416
X3.578 Y33.417
X8.933 Y33.42
X9.063 Y33.443
X9.07 Y33.447
X9.087 Y33.465
X9.065 Y33.489
X9.053 Y33.496
X8.938 Y33.515
X3.471 Y33.522
X3.39 Y33.526
X3.311 Y33.539
X3.15 Y33.574
X3.069 Y33.597
X2.99 Y33.628
X2.829 Y33.704
X2.775 Y33.733
X2.172 Y34.08
X2.044 Y33.813
X2.042 Y33.467
X2.045 Y33.421 Z-2.093 F300
X2.056 Y33.376 Z-2.085
X2.071 Y33.337 Z-2.064
X2.091 Y33.301 Z-2.043
X2.134 Y33.25 Z-1.976
X2.166 Y33.222 Z-1.893
X2.178 Y33.214 Z-1.8
G0 Z4
X2.181 Y33.719
G1 Z-0.8 F300
Z-2.1
X2.169 Y33.711 Z-2.193
X2.136 Y33.684 Z-2.276
X2.093 Y33.633 Z-2.343
X2.072 Y33.597 Z-2.364
X2.057 Y33.558 Z-2.385
X2.046 Y33.513 Z-2.393
X2.042 Y33.467 Z-2.4
X2.04 Y33.145 F1000
X2.045 Y33.111
X2.047 Y33.106
X2.106 Y32.982
X2.17 Y32.852
X2.885 Y33.259
X2.962 Y33.297
X3.042 Y33.327
X3.204 Y33.375
X3.283 Y33.393
X3.363 Y33.404
X3.524 Y33.416
X3.578 Y33.417
X8.94 Y33.42
X9.042 Y33.436
X9.068 Y33.447
X9.087 Y33.465
X9.064 Y33.489
X9.042 Y33.498
X8.938 Y33.515
X3.471 Y33.522
X3.39 Y33.526
X3.311 Y33.539
X3.15 Y33.574
X3.069 Y33.597
X2.99 Y33.628
X2.829 Y33.704
X2.775 Y33.733
X2.172 Y34.08
X2.044 Y33.813
X2.042 Y33.467
X2.045 Y33.421 Z-2.393 F300
X2.056 Y33.376 Z-2.385
X2.071 Y33.337 Z-2.364
X2.091 Y33.301 Z-2.343
X2.134 Y33.25 Z-2.276
X2.166 Y33.222 Z-2.193
X2.178 Y33.214 Z-2.1
G0 Z4
X2.181 Y33.719
G1 Z-1.1 F300
Z-2.4
X2.169 Y33.711 Z-2.493
X2.136 Y33.684 Z-2.576
X2.093 Y33.633 Z-2.643
X2.072 Y33.597 Z-2.664
X2.057 Y33.558 Z-2.685
X2.046 Y33.513 Z-2.693
X2.042 Y33.467 Z-2.7
X2.04 Y33.145 F1000
X2.045 Y33.111
X2.047 Y33.106
X2.106 Y32.982
X2.17 Y32.852
X2.885 Y33.259
X2.962 Y33.297
X3.042 Y33.327
X3.204 Y33.375
X3.283 Y33.393
X3.363 Y33.404
X3.524 Y33.416
X3.578 Y33.417
X8.936 Y33.42
X9.043 Y33.438
X9.068 Y33.448
X9.086 Y33.465
X9.063 Y33.489
X9.042 Y33.497
X8.937 Y33.515
X3.471 Y33.522
X3.39 Y33.526
X3.311 Y33.539
X3.15 Y33.574
X3.069 Y33.597
X2.99 Y33.628
X2.829 Y33.704
X2.775 Y33.733
X2.172 Y34.08
X2.044 Y33.813
X2.042 Y33.467
X2.045 Y33.421 Z-2.693 F300
X2.056 Y33.376 Z-2.685
X2.071 Y33.337 Z-2.664
X2.091 Y33.301 Z-2.643
X2.134 Y33.25 Z-2.576
X2.166 Y33.222 Z-2.493
X2.178 Y33.214 Z-2.4
G0 Z4
X2.181 Y33.719
G1 Z-1.4 F300
Z-2.7
X2.169 Y33.711 Z-2.793
X2.136 Y33.684 Z-2.876
X2.093 Y33.633 Z-2.943
X2.072 Y33.597 Z-2.964
X2.057 Y33.558 Z-2.985
X2.046 Y33.513 Z-2.993
X2.042 Y33.467 Z-3
X2.04 Y33.145 F1000
X2.045 Y33.111
X2.047 Y33.106
X2.106 Y32.982
X2.17 Y32.852
X2.885 Y33.259
X2.962 Y33.297
X3.042 Y33.327
X3.204 Y33.375
X3.283 Y33.393
X3.363 Y33.404
X3.524 Y33.416
X3.578 Y33.417
X8.932 Y33.42
X9.034 Y33.438
X9.074 Y33.454
X9.085 Y33.465
X9.072 Y33.479
X9.005 Y33.504
X8.938 Y33.515
X3.471 Y33.522
X3.39 Y33.526
X3.311 Y33.539
X3.15 Y33.574
X3.069 Y33.597
X2.99 Y33.628
X2.829 Y33.704
X2.775 Y33.733
X2.172 Y34.08
X2.044 Y33.813
X2.042 Y33.467
X2.045 Y33.421 Z-2.993 F300
X2.056 Y33.376 Z-2.985
X2.071 Y33.337 Z-2.964
X2.091 Y33.301 Z-2.943
X2.134 Y33.25 Z-2.876
X2.166 Y33.222 Z-2.793
X2.178 Y33.214 Z-2.7
G0 Z4
X2.181 Y33.719
G1 Z-1.7 F300
Z-3
X2.169 Y33.711 Z-3.093
X2.136 Y33.684 Z-3.176
X2.093 Y33.633 Z-3.243
X2.072 Y33.597 Z-3.264
X2.057 Y33.558 Z-3.285
X2.046 Y33.513 Z-3.293
X2.042 Y33.467 Z-3.3
X2.04 Y33.145 F1000
X2.045 Y33.111
X2.047 Y33.106
X2.106 Y32.982
X2.17 Y32.852
X2.885 Y33.259
X2.949 Y33.292
X3.016 Y33.318
X3.124 Y33.355
X3.197 Y33.375
X3.555 Y33.457
X3.56 Y33.467
X3.555 Y33.478
X3.139 Y33.577
X3.063 Y33.599
X2.99 Y33.628
X2.829 Y33.704
X2.775 Y33.733
X2.172 Y34.08
X2.044 Y33.813
X2.042 Y33.467
X2.045 Y33.421 Z-3.293 F300
X2.056 Y33.376 Z-3.285
X2.071 Y33.337 Z-3.264
X2.091 Y33.301 Z-3.243
X2.134 Y33.25 Z-3.176
X2.166 Y33.222 Z-3.093
X2.178 Y33.214 Z-3
G0 Z4
X2.181 Y33.719
G1 Z-2 F300
Z-3.3
X2.169 Y33.711 Z-3.393
X2.136 Y33.684 Z-3.476
X2.093 Y33.633 Z-3.543
X2.072 Y33.597 Z-3.564
X2.057 Y33.558 Z-3.585
X2.046 Y33.513 Z-3.593
X2.042 Y33.467 Z-3.6
X2.04 Y33.145 F1000
X2.045 Y33.111
X2.047 Y33.106
X2.106 Y32.982
X2.17 Y32.852
X2.885 Y33.259
X2.949 Y33.292
X3.016 Y33.318
X3.124 Y33.355
X3.197 Y33.375
X3.555 Y33.457
X3.56 Y33.467
X3.555 Y33.478
X3.139 Y33.577
X3.063 Y33.599
X2.99 Y33.628
X2.829 Y33.704
X2.775 Y33.733
X2.172 Y34.08
X2.044 Y33.813
X2.042 Y33.467
X2.045 Y33.421 Z-3.593 F300
X2.056 Y33.376 Z-3.585
X2.071 Y33.337 Z-3.564
X2.091 Y33.301 Z-3.543
X2.134 Y33.25 Z-3.476
X2.166 Y33.222 Z-3.393
X2.178 Y33.214 Z-3.3
G0 Z4
X2.181 Y33.719
G1 Z-2.3 F300
Z-3.6
X2.169 Y33.711 Z-3.693
X2.136 Y33.684 Z-3.776
X2.093 Y33.633 Z-3.843
X2.072 Y33.597 Z-3.864
X2.057 Y33.558 Z-3.885
X2.046 Y33.513 Z-3.893
X2.042 Y33.467 Z-3.9
X2.04 Y33.145 F1000
X2.045 Y33.111
X2.047 Y33.106
X2.106 Y32.982
X2.17 Y32.852
X2.885 Y33.259
X2.949 Y33.292
X3.016 Y33.318
X3.124 Y33.355
X3.197 Y33.375
X3.555 Y33.457
X3.56 Y33.467
X3.555 Y33.478
X3.139 Y33.577
X3.063 Y33.599
X2.99 Y33.628
X2.829 Y33.704
X2.775 Y33.733
X2.172 Y34.08
X2.044 Y33.813
X2.042 Y33.467
X2.045 Y33.421 Z-3.893 F300
X2.056 Y33.376 Z-3.885
X2.071 Y33.337 Z-3.864
X2.091 Y33.301 Z-3.843
X2.134 Y33.25 Z-3.776
X2.166 Y33.222 Z-3.693
X2.178 Y33.214 Z-3.6
G0 Z4
X2.181 Y33.719
G1 Z-2.6 F300
Z-3.9
X2.169 Y33.711 Z-3.993
X2.136 Y33.684 Z-4.076
X2.093 Y33.633 Z-4.143
X2.072 Y33.597 Z-4.164
X2.057 Y33.558 Z-4.185
X2.046 Y33.513 Z-4.193
X2.042 Y33.467 Z-4.2
X2.04 Y33.145 F1000
X2.045 Y33.111
X2.047 Y33.106
X2.106 Y32.982
X2.17 Y32.852
X2.885 Y33.259
X2.949 Y33.292
X3.016 Y33.318
X3.124 Y33.355
X3.197 Y33.375
X3.555 Y33.457
X3.56 Y33.467
X3.555 Y33.478
X3.139 Y33.577
X3.063 Y33.599
X2.99 Y33.628
X2.829 Y33.704
X2.775 Y33.733
X2.172 Y34.08
X2.044 Y33.813
X2.042 Y33.467
X2.045 Y33.421 Z-4.193 F300
X2.056 Y33.376 Z-4.185
X2.071 Y33.337 Z-4.164
X2.091 Y33.301 Z-4.143
X2.134 Y33.25 Z-4.076
X2.166 Y33.222 Z-3.993
X2.178 Y33.214 Z-3.9
G0 Z4
X2.181 Y33.719
G1 Z-2.9 F300
Z-4.2
X2.169 Y33.711 Z-4.293
X2.136 Y33.684 Z-4.376
X2.093 Y33.633 Z-4.443
X2.072 Y33.597 Z-4.464
X2.057 Y33.558 Z-4.485
X2.046 Y33.513 Z-4.493
X2.042 Y33.467 Z-4.5
X2.04 Y33.145 F1000
X2.045 Y33.111
X2.047 Y33.106
X2.106 Y32.982
X2.17 Y32.852
X2.885 Y33.259
X2.949 Y33.292
X3.016 Y33.318
X3.124 Y33.355
X3.197 Y33.375
X3.555 Y33.457
X3.56 Y33.467
X3.555 Y33.478
X3.139 Y33.577
X3.063 Y33.599
X2.99 Y33.628
X2.829 Y33.704
X2.775 Y33.733
X2.172 Y34.08
X2.044 Y33.813
X2.042 Y33.467
X2.045 Y33.421 Z-4.493 F300
X2.056 Y33.376 Z-4.485
X2.071 Y33.337 Z-4.464
X2.091 Y33.301 Z-4.443
X2.134 Y33.25 Z-4.376
X2.166 Y33.222 Z-4.293
X2.178 Y33.214 Z-4.2
G0 Z4
X2.181 Y33.719
G1 Z-3.2 F300
Z-4.5
X2.169 Y33.711 Z-4.593
X2.136 Y33.684 Z-4.676
X2.093 Y33.633 Z-4.743
X2.072 Y33.597 Z-4.764
X2.057 Y33.558 Z-4.785
X2.046 Y33.513 Z-4.793
X2.042 Y33.467 Z-4.8
X2.04 Y33.145 F1000
X2.045 Y33.111
X2.047 Y33.106
X2.106 Y32.982
X2.17 Y32.852
X2.885 Y33.259
X2.949 Y33.292
X3.016 Y33.318
X3.124 Y33.355
X3.197 Y33.375
X3.555 Y33.457
X3.56 Y33.467
X3.555 Y33.478
X3.139 Y33.577
X3.063 Y33.599
X2.99 Y33.628
X2.829 Y33.704
X2.775 Y33.733
X2.172 Y34.08
X2.044 Y33.813
X2.042 Y33.467
X2.045 Y33.421 Z-4.793 F300
X2.056 Y33.376 Z-4.785
X2.071 Y33.337 Z-4.764
X2.091 Y33.301 Z-4.743
X2.134 Y33.25 Z-4.676
X2.166 Y33.222 Z-4.593
X2.178 Y33.214 Z-4.5
G0 Z4
X2.181 Y33.719
G1 Z-3.5 F300
Z-4.7
X2.169 Y33.711 Z-4.793
X2.136 Y33.684 Z-4.876
X2.093 Y33.633 Z-4.943
X2.072 Y33.597 Z-4.964
X2.057 Y33.558 Z-4.985
X2.046 Y33.513 Z-4.993
X2.042 Y33.467 Z-5
X2.04 Y33.145 F1000
X2.045 Y33.111
X2.047 Y33.106
X2.106 Y32.982
X2.17 Y32.852
X2.885 Y33.259
X2.949 Y33.292
X3.016 Y33.318
X3.124 Y33.355
X3.197 Y33.375
X3.555 Y33.457
X3.56 Y33.467
X3.555 Y33.478
X3.139 Y33.577
X3.063 Y33.599
X2.99 Y33.628
X2.829 Y33.704
X2.775 Y33.733
X2.172 Y34.08
X2.044 Y33.813
X2.042 Y33.467
X2.045 Y33.421 Z-4.993 F300
X2.056 Y33.376 Z-4.985
X2.071 Y33.337 Z-4.964
X2.091 Y33.301 Z-4.943
X2.134 Y33.25 Z-4.876
X2.166 Y33.222 Z-4.793
X2.178 Y33.214 Z-4.7
G0 Z4
X9.056 Y33.479
G1 Z-1.7 F300
Z-3.3
X9.045 Y33.478 F1000
X9.041 Y33.475
X9.04 Y33.463
X9.045 Y33.457
X9.057 Y33.455
X9.065 Y33.453
X9.07 Y33.461
Y33.473
X9.067 Y33.48
X9.056 Y33.479
X9.045 Y33.478 Z-3.299 F300
X9.041 Y33.475 Z-3.297
X9.04 Y33.463 Z-3.291
X9.045 Y33.457 Z-3.284
X9.054 Y33.455 Z-3.269
X9.057 Y33.454 Z-3.252
G0 Z4
X9.061 Y33.479
G1 Z-2 F300
Z-3.6
X9.057 Y33.481 F1000
X9.045 Y33.478
X9.041 Y33.475
Y33.461
X9.045 Y33.457
X9.061 Y33.454
X9.068 Y33.456
X9.07 Y33.461
Y33.469
X9.067 Y33.477
X9.061 Y33.479
X9.057 Y33.481 F300
X9.045 Y33.478 Z-3.597
X9.041 Y33.475 Z-3.595
Y33.461 Z-3.584
X9.045 Y33.457 Z-3.575
X9.05 Y33.456 Z-3.553
G0 Z4
X9.044 Y33.464
G1 Z-2.3 F300
Z-3.9
X9.046 Y33.458 F1000
X9.054 Y33.456
X9.065 Y33.46
X9.07 Y33.472
X9.052 Y33.478
X9.046 Y33.477
X9.042 Y33.469
X9.044 Y33.464
X9.046 Y33.458 F300
X9.054 Y33.456 Z-3.897
X9.065 Y33.46 Z-3.89
X9.068 Y33.468 Z-3.879
X9.07 Y33.472 Z-3.867
Z-3.86
G0 Z4
X9.049 Y33.462
G1 Z-2.6 F300
Z-4.2
X9.058 Y33.458 F1000
X9.067 Y33.461
X9.06 Y33.476
X9.051 Y33.479
X9.043 Y33.471
Y33.464
X9.049 Y33.462
Z-3.9 F300
G0 Z4
X9.048 Y33.464
G1 Z-2.9 F300
Z-4.5
X9.052 Y33.458 F1000
X9.058 Y33.46
X9.063 Y33.466
X9.058 Y33.475
X9.052 Y33.477
X9.043 Y33.47
X9.048 Y33.464
Z-4.2 F300
G0 Z4
X9.05 Y33.467
G1 Z-3.2 F300
Z-4.8
X9.049 Y33.461 F1000
X9.057 Y33.464
X9.051 Y33.473
X9.05 Y33.467
Z-4.5 F300
G0 Z4
X9.049 Y33.465
G1 Z-3.5 F300
Z-5
X9.045 Y33.469 F1000
X9.05 Y33.464
X9.049 Y33.465
X9.045 Y33.469 Z-4.998 F300
X9.046 Y33.468 Z-4.993
G0 Z4
X0.807 Y29.291
Z1.3
G1 Z0 F300
X0.808 Y29.306 Z-0.093
X0.805 Y29.348 Z-0.176
X0.788 Y29.413 Z-0.243
X0.771 Y29.451 Z-0.264
X0.748 Y29.486 Z-0.285
X0.718 Y29.521 Z-0.293
X0.682 Y29.55 Z-0.3
X0.606 Y29.605 F1000
X0.536 Y29.662
X0.473 Y29.728
X0.354 Y29.867
X0.301 Y29.936
X0.257 Y30.012
X0.047 Y29.575
X0.04 Y29.547
X0.039 Y29.537
X0.042 Y28.882
X0.044 Y28.869
X0.078 Y28.792
X0.256 Y28.423
X0.292 Y28.485
X0.334 Y28.543
X0.412 Y28.643
X0.456 Y28.694
X0.505 Y28.741
X0.612 Y28.836
X0.665 Y28.878
X0.721 Y28.916
X0.828 Y28.981
X0.893 Y29.016
X0.962 Y29.045
X1.123 Y29.103
X1.203 Y29.127
X1.285 Y29.142
X1.446 Y29.162
X1.539 Y29.167
X6.885
X7.058 Y29.203
X7.069 Y29.21
X7.086 Y29.236
X7.077 Y29.243
X7.05 Y29.253
X6.919 Y29.268
X1.485 Y29.27
X1.414 Y29.274
X1.344 Y29.284
X1.193 Y29.313
X1.118 Y29.331
X1.044 Y29.358
X0.899 Y29.419
X0.823 Y29.456
X0.752 Y29.501
X0.682 Y29.55
X0.643 Y29.574 Z-0.293 F300
X0.6 Y29.592 Z-0.285
X0.559 Y29.602 Z-0.264
X0.518 Y29.606 Z-0.243
X0.452 Y29.601 Z-0.176
X0.411 Y29.591 Z-0.093
X0.397 Y29.585 Z0
G0 Z4
X0.807 Y29.291
Z1
G1 Z-0.3 F300
X0.808 Y29.306 Z-0.393
X0.805 Y29.348 Z-0.476
X0.788 Y29.413 Z-0.543
X0.771 Y29.451 Z-0.564
X0.748 Y29.486 Z-0.585
X0.718 Y29.521 Z-0.593
X0.682 Y29.55 Z-0.6
X0.606 Y29.605 F1000
X0.536 Y29.662
X0.473 Y29.728
X0.354 Y29.867
X0.301 Y29.936
X0.257 Y30.012
X0.047 Y29.575
X0.04 Y29.547
X0.039 Y29.537
X0.042 Y28.882
X0.044 Y28.869
X0.078 Y28.792
X0.256 Y28.423
X0.292 Y28.485
X0.334 Y28.543
X0.412 Y28.643
X0.456 Y28.694
X0.505 Y28.741
X0.612 Y28.836
X0.665 Y28.878
X0.721 Y28.916
X0.828 Y28.981
X0.893 Y29.016
X0.962 Y29.045
X1.123 Y29.103
X1.203 Y29.127
X1.285 Y29.142
X1.446 Y29.162
X1.539 Y29.167
X6.885
X7.058 Y29.203
X7.069 Y29.21
X7.086 Y29.236
X7.078 Y29.242
X7.048 Y29.253
X6.919 Y29.268
X1.485 Y29.27
X1.414 Y29.274
X1.344 Y29.284
X1.193 Y29.313
X1.118 Y29.331
X1.044 Y29.358
X0.899 Y29.419
X0.823 Y29.456
X0.752 Y29.501
X0.682 Y29.55
X0.643 Y29.574 Z-0.593 F300
X0.6 Y29.592 Z-0.585
X0.559 Y29.602 Z-0.564
X0.518 Y29.606 Z-0.543
X0.452 Y29.601 Z-0.476
X0.411 Y29.591 Z-0.393
X0.397 Y29.585 Z-0.3
G0 Z4
X0.807 Y29.291
Z0.7
G1 Z-0.6 F300
X0.808 Y29.306 Z-0.693
X0.805 Y29.348 Z-0.776
X0.788 Y29.413 Z-0.843
X0.771 Y29.451 Z-0.864
X0.748 Y29.486 Z-0.885
X0.718 Y29.521 Z-0.893
X0.682 Y29.55 Z-0.9
X0.606 Y29.605 F1000
X0.536 Y29.662
X0.473 Y29.728
X0.354 Y29.867
X0.301 Y29.936
X0.257 Y30.012
X0.047 Y29.575
X0.04 Y29.547
X0.039 Y29.537
X0.042 Y28.882
X0.044 Y28.869
X0.078 Y28.792
X0.256 Y28.423
X0.292 Y28.485
X0.334 Y28.543
X0.412 Y28.643
X0.456 Y28.694
X0.505 Y28.741
X0.612 Y28.836
X0.665 Y28.878
X0.721 Y28.916
X0.828 Y28.981
X0.893 Y29.016
X0.962 Y29.045
X1.123 Y29.103
X1.203 Y29.127
X1.285 Y29.142
X1.446 Y29.162
X1.539 Y29.167
X6.885
X7.058 Y29.203
X7.069 Y29.21
X7.085 Y29.235
X7.078 Y29.241
X7.046 Y29.254
X6.919 Y29.268
X1.485 Y29.27
X1.414 Y29.274
X1.344 Y29.284
X1.193 Y29.313
X1.118 Y29.331
X1.044 Y29.358
X0.899 Y29.419
X0.823 Y29.456
X0.752 Y29.501
X0.682 Y29.55
X0.643 Y29.574 Z-0.893 F300
X0.6 Y29.592 Z-0.885
X0.559 Y29.602 Z-0.864
X0.518 Y29.606 Z-0.843
X0.452 Y29.601 Z-0.776
X0.411 Y29.591 Z-0.693
X0.397 Y29.585 Z-0.6
G0 Z4
X0.807 Y29.291
Z0.4
G1 Z-0.9 F300
X0.808 Y29.306 Z-0.993
X0.805 Y29.348 Z-1.076
X0.788 Y29.413 Z-1.143
X0.771 Y29.451 Z-1.164
X0.748 Y29.486 Z-1.185
X0.718 Y29.521 Z-1.193
X0.682 Y29.55 Z-1.2
X0.606 Y29.605 F1000
X0.536 Y29.662
X0.473 Y29.728
X0.354 Y29.867
X0.301 Y29.936
X0.257 Y30.012
X0.047 Y29.575
X0.04 Y29.547
X0.039 Y29.537
X0.042 Y28.882
X0.044 Y28.869
X0.078 Y28.792
X0.256 Y28.423
X0.292 Y28.485
X0.334 Y28.543
X0.412 Y28.643
X0.456 Y28.694
X0.505 Y28.741
X0.612 Y28.836
X0.665 Y28.878
X0.721 Y28.916
X0.828 Y28.981
X0.893 Y29.016
X0.962 Y29.045
X1.123 Y29.103
X1.203 Y29.127
X1.285 Y29.142
X1.446 Y29.162
X1.539 Y29.167
X6.885
X7.058 Y29.203
X7.069 Y29.21
X7.085 Y29.235
X7.079 Y29.239
X7.044 Y29.253
X6.918 Y29.268
X1.485 Y29.27
X1.414 Y29.274
X1.344 Y29.284
X1.193 Y29.313
X1.118 Y29.331
X1.044 Y29.358
X0.899 Y29.419
X0.823 Y29.456
X0.752 Y29.501
X0.682 Y29.55
X0.643 Y29.574 Z-1.193 F300
X0.6 Y29.592 Z-1.185
X0.559 Y29.602 Z-1.164
X0.518 Y29.606 Z-1.143
X0.452 Y29.601 Z-1.076
X0.411 Y29.591 Z-0.993
X0.397 Y29.585 Z-0.9
G0 Z4
X0.807 Y29.291
Z0.1
G1 Z-1.2 F300
X0.808 Y29.306 Z-1.293
X0.805 Y29.348 Z-1.376
X0.788 Y29.413 Z-1.443
X0.771 Y29.451 Z-1.464
X0.748 Y29.486 Z-1.485
X0.718 Y29.521 Z-1.493
X0.682 Y29.55 Z-1.5
X0.606 Y29.605 F1000
X0.536 Y29.662
X0.473 Y29.728
X0.354 Y29.867
X0.301 Y29.936
X0.257 Y30.012
X0.047 Y29.575
X0.04 Y29.547
X0.039 Y29.537
X0.042 Y28.882
X0.044 Y28.869
X0.078 Y28.792
X0.256 Y28.423
X0.292 Y28.485
X0.334 Y28.543
X0.412 Y28.643
X0.456 Y28.694
X0.505 Y28.741
X0.612 Y28.836
X0.665 Y28.878
X0.721 Y28.916
X0.828 Y28.981
X0.893 Y29.016
X0.962 Y29.045
X1.123 Y29.103
X1.203 Y29.127
X1.285 Y29.142
X1.446 Y29.162
X1.539 Y29.167
X6.885
X7.058 Y29.203
X7.069 Y29.21
X7.085 Y29.234
X7.042 Y29.252
X6.915 Y29.268
X1.485 Y29.27
X1.414 Y29.274
X1.344 Y29.284
X1.193 Y29.313
X1.118 Y29.331
X1.044 Y29.358
X0.899 Y29.419
X0.823 Y29.456
X0.752 Y29.501
X0.682 Y29.55
X0.643 Y29.574 Z-1.493 F300
X0.6 Y29.592 Z-1.485
X0.559 Y29.602 Z-1.464
X0.518 Y29.606 Z-1.443
X0.452 Y29.601 Z-1.376
X0.411 Y29.591 Z-1.293
X0.397 Y29.585 Z-1.2
G0 Z4
X0.807 Y29.291
Z1.3
G1 Z-0.2 F300
Z-1.5
X0.808 Y29.306 Z-1.593
X0.805 Y29.348 Z-1.676
X0.788 Y29.413 Z-1.743
X0.771 Y29.451 Z-1.764
X0.748 Y29.486 Z-1.785
X0.718 Y29.521 Z-1.793
X0.682 Y29.55 Z-1.8
X0.606 Y29.605 F1000
X0.536 Y29.662
X0.473 Y29.728
X0.354 Y29.867
X0.301 Y29.936
X0.257 Y30.012
X0.047 Y29.575
X0.04 Y29.547
X0.039 Y29.537
X0.042 Y28.882
X0.044 Y28.869
X0.078 Y28.792
X0.256 Y28.423
X0.292 Y28.485
X0.334 Y28.543
X0.412 Y28.643
X0.456 Y28.694
X0.505 Y28.741
X0.612 Y28.836
X0.665 Y28.878
X0.721 Y28.916
X0.828 Y28.981
X0.893 Y29.016
X0.962 Y29.045
X1.123 Y29.103
X1.203 Y29.127
X1.285 Y29.142
X1.446 Y29.162
X1.539 Y29.167
X6.885
X7.058 Y29.203
X7.069 Y29.21
X7.084 Y29.233
X7.032 Y29.254
X6.956 Y29.266
X1.484 Y29.27
X1.414 Y29.274
X1.344 Y29.284
X1.193 Y29.313
X1.118 Y29.331
X1.044 Y29.358
X0.899 Y29.419
X0.823 Y29.456
X0.752 Y29.501
X0.682 Y29.55
X0.643 Y29.574 Z-1.793 F300
X0.6 Y29.592 Z-1.785
X0.559 Y29.602 Z-1.764
X0.518 Y29.606 Z-1.743
X0.452 Y29.601 Z-1.676
X0.411 Y29.591 Z-1.593
X0.397 Y29.585 Z-1.5
G0 Z4
X0.807 Y29.291
G1 Z-0.5 F300
Z-1.8
X0.808 Y29.306 Z-1.893
X0.805 Y29.348 Z-1.976
X0.788 Y29.413 Z-2.043
X0.771 Y29.451 Z-2.064
X0.748 Y29.486 Z-2.085
X0.718 Y29.521 Z-2.093
X0.682 Y29.55 Z-2.1
X0.606 Y29.605 F1000
X0.536 Y29.662
X0.473 Y29.728
X0.354 Y29.867
X0.301 Y29.936
X0.257 Y30.012
X0.047 Y29.575
X0.04 Y29.547
X0.039 Y29.537
X0.042 Y28.882
X0.044 Y28.869
X0.078 Y28.792
X0.256 Y28.423
X0.292 Y28.485
X0.334 Y28.543
X0.412 Y28.643
X0.456 Y28.694
X0.505 Y28.741
X0.612 Y28.836
X0.665 Y28.878
X0.721 Y28.916
X0.828 Y28.981
X0.893 Y29.016
X0.962 Y29.045
X1.123 Y29.103
X1.203 Y29.127
X1.285 Y29.142
X1.446 Y29.162
X1.539 Y29.167
X6.884
X7.064 Y29.205
X7.08 Y29.23
X7.01 Y29.259
X6.924 Y29.268
X1.485 Y29.27
X1.414 Y29.274
X1.344 Y29.284
X1.193 Y29.313
X1.118 Y29.331
X1.044 Y29.358
X0.899 Y29.419
X0.823 Y29.456
X0.752 Y29.501
X0.682 Y29.55
X0.643 Y29.574 Z-2.093 F300
X0.6 Y29.592 Z-2.085
X0.559 Y29.602 Z-2.064
X0.518 Y29.606 Z-2.043
X0.452 Y29.601 Z-1.976
X0.411 Y29.591 Z-1.893
X0.397 Y29.585 Z-1.8
G0 Z4
X0.807 Y29.291
G1 Z-0.8 F300
Z-2.1
X0.808 Y29.306 Z-2.193
X0.805 Y29.348 Z-2.276
X0.788 Y29.413 Z-2.343
X0.771 Y29.451 Z-2.364
X0.748 Y29.486 Z-2.385
X0.718 Y29.521 Z-2.393
X0.682 Y29.55 Z-2.4
X0.606 Y29.605 F1000
X0.536 Y29.662
X0.473 Y29.728
X0.354 Y29.867
X0.301 Y29.936
X0.257 Y30.012
X0.047 Y29.575
X0.04 Y29.547
X0.039 Y29.537
X0.042 Y28.882
X0.044 Y28.869
X0.078 Y28.792
X0.256 Y28.423
X0.292 Y28.485
X0.334 Y28.543
X0.412 Y28.643
X0.456 Y28.694
X0.505 Y28.741
X0.612 Y28.836
X0.665 Y28.878
X0.721 Y28.916
X0.828 Y28.981
X0.893 Y29.016
X0.962 Y29.045
X1.123 Y29.103
X1.203 Y29.127
X1.285 Y29.142
X1.446 Y29.162
X1.539 Y29.167
X6.888
X7.06 Y29.202
X7.065 Y29.205
X7.08 Y29.228
X6.998 Y29.259
X6.921 Y29.268
X1.485 Y29.27
X1.414 Y29.274
X1.344 Y29.284
X1.193 Y29.313
X1.118 Y29.331
X1.044 Y29.358
X0.899 Y29.419
X0.823 Y29.456
X0.752 Y29.501
X0.682 Y29.55
X0.643 Y29.574 Z-2.393 F300
X0.6 Y29.592 Z-2.385
X0.559 Y29.602 Z-2.364
X0.518 Y29.606 Z-2.343
X0.452 Y29.601 Z-2.276
X0.411 Y29.591 Z-2.193
X0.397 Y29.585 Z-2.1
G0 Z4
X0.807 Y29.291
G1 Z-1.1 F300
Z-2.4
X0.808 Y29.306 Z-2.493
X0.805 Y29.348 Z-2.576
X0.788 Y29.413 Z-2.643
X0.771 Y29.451 Z-2.664
X0.748 Y29.486 Z-2.685
X0.718 Y29.521 Z-2.693
X0.682 Y29.55 Z-2.7
X0.606 Y29.605 F1000
X0.536 Y29.662
X0.473 Y29.728
X0.354 Y29.867
X0.301 Y29.936
X0.257 Y30.012
X0.047 Y29.575
X0.04 Y29.547
X0.039 Y29.537
X0.042 Y28.882
X0.044 Y28.869
X0.078 Y28.792
X0.256 Y28.423
X0.292 Y28.485
X0.334 Y28.543
X0.412 Y28.643
X0.456 Y28.694
X0.505 Y28.741
X0.612 Y28.836
X0.665 Y28.878
X0.721 Y28.916
X0.828 Y28.981
X0.893 Y29.016
X0.962 Y29.045
X1.123 Y29.103
X1.203 Y29.127
X1.285 Y29.142
X1.446 Y29.162
X1.539 Y29.167
X6.885
X7.064 Y29.204
X7.08 Y29.228
X6.998 Y29.259
X6.921 Y29.268
X1.485 Y29.27
X1.414 Y29.274
X1.344 Y29.284
X1.193 Y29.313
X1.118 Y29.331
X1.044 Y29.358
X0.899 Y29.419
X0.823 Y29.456
X0.752 Y29.501
X0.682 Y29.55
X0.643 Y29.574 Z-2.693 F300
X0.6 Y29.592 Z-2.685
X0.559 Y29.602 Z-2.664
X0.518 Y29.606 Z-2.643
X0.452 Y29.601 Z-2.576
X0.411 Y29.591 Z-2.493
X0.397 Y29.585 Z-2.4
G0 Z4
X0.807 Y29.291
G1 Z-1.4 F300
Z-2.7
X0.808 Y29.306 Z-2.793
X0.805 Y29.348 Z-2.876
X0.788 Y29.413 Z-2.943
X0.771 Y29.451 Z-2.964
X0.748 Y29.486 Z-2.985
X0.718 Y29.521 Z-2.993
X0.682 Y29.55 Z-3
X0.606 Y29.605 F1000
X0.536 Y29.662
X0.473 Y29.728
X0.354 Y29.867
X0.301 Y29.936
X0.257 Y30.012
X0.047 Y29.575
X0.04 Y29.547
X0.039 Y29.537
X0.042 Y28.882
X0.044 Y28.869
X0.078 Y28.792
X0.256 Y28.423
X0.292 Y28.485
X0.334 Y28.543
X0.412 Y28.643
X0.456 Y28.694
X0.505 Y28.741
X0.612 Y28.836
X0.665 Y28.878
X0.721 Y28.916
X0.828 Y28.981
X0.893 Y29.016
X0.962 Y29.045
X1.123 Y29.103
X1.203 Y29.127
X1.285 Y29.142
X1.446 Y29.162
X1.539 Y29.167
X6.889
X7.059 Y29.201
X7.064 Y29.204
X7.08 Y29.227
X6.997 Y29.259
X6.918 Y29.268
X1.485 Y29.27
X1.414 Y29.274
X1.344 Y29.284
X1.193 Y29.313
X1.118 Y29.331
X1.044 Y29.358
X0.899 Y29.419
X0.823 Y29.456
X0.752 Y29.501
X0.682 Y29.55
X0.643 Y29.574 Z-2.993 F300
X0.6 Y29.592 Z-2.985
X0.559 Y29.602 Z-2.964
X0.518 Y29.606 Z-2.943
X0.452 Y29.601 Z-2.876
X0.411 Y29.591 Z-2.793
X0.397 Y29.585 Z-2.7
G0 Z4
X0.807 Y29.291
G1 Z-1.7 F300
Z-3
X0.808 Y29.306 Z-3.093
X0.805 Y29.348 Z-3.176
X0.788 Y29.413 Z-3.243
X0.771 Y29.451 Z-3.264
X0.748 Y29.486 Z-3.285
X0.718 Y29.521 Z-3.293
X0.682 Y29.55 Z-3.3
X0.606 Y29.605 F1000
X0.536 Y29.662
X0.473 Y29.728
X0.354 Y29.867
X0.301 Y29.936
X0.257 Y30.012
X0.047 Y29.575
X0.04 Y29.547
X0.039 Y29.537
X0.042 Y28.882
X0.044 Y28.869
X0.078 Y28.792
X0.256 Y28.423
X0.292 Y28.485
X0.334 Y28.543
X0.412 Y28.643
X0.456 Y28.694
X0.505 Y28.741
X0.612 Y28.836
X0.665 Y28.878
X0.721 Y28.916
X0.828 Y28.981
X0.881 Y29.01
X0.936 Y29.035
X1.043 Y29.078
X1.096 Y29.097
X1.15 Y29.112
X1.558 Y29.21
X1.561 Y29.215
X1.549 Y29.23
X1.165 Y29.319
X1.104 Y29.335
X1.044 Y29.358
X0.899 Y29.419
X0.823 Y29.456
X0.752 Y29.501
X0.682 Y29.55
X0.643 Y29.574 Z-3.293 F300
X0.6 Y29.592 Z-3.285
X0.559 Y29.602 Z-3.264
X0.518 Y29.606 Z-3.243
X0.452 Y29.601 Z-3.176
X0.411 Y29.591 Z-3.093
X0.397 Y29.585 Z-3
G0 Z4
X0.807 Y29.291
G1 Z-2 F300
Z-3.3
X0.808 Y29.306 Z-3.393
X0.805 Y29.348 Z-3.476
X0.788 Y29.413 Z-3.543
X0.771 Y29.451 Z-3.564
X0.748 Y29.486 Z-3.585
X0.718 Y29.521 Z-3.593
X0.682 Y29.55 Z-3.6
X0.606 Y29.605 F1000
X0.536 Y29.662
X0.473 Y29.728
X0.354 Y29.867
X0.301 Y29.936
X0.257 Y30.012
X0.047 Y29.575
X0.04 Y29.547
X0.039 Y29.537
X0.042 Y28.882
X0.044 Y28.869
X0.078 Y28.792
X0.256 Y28.423
X0.292 Y28.485
X0.334 Y28.543
X0.412 Y28.643
X0.456 Y28.694
X0.505 Y28.741
X0.612 Y28.836
X0.665 Y28.878
X0.721 Y28.916
X0.828 Y28.981
X0.881 Y29.01
X0.936 Y29.035
X1.043 Y29.078
X1.096 Y29.097
X1.15 Y29.112
X1.558 Y29.21
X1.561 Y29.215
X1.549 Y29.23
X1.165 Y29.319
X1.104 Y29.335
X1.044 Y29.358
X0.899 Y29.419
X0.823 Y29.456
X0.752 Y29.501
X0.682 Y29.55
X0.643 Y29.574 Z-3.593 F300
X0.6 Y29.592 Z-3.585
X0.559 Y29.602 Z-3.564
X0.518 Y29.606 Z-3.543
X0.452 Y29.601 Z-3.476
X0.411 Y29.591 Z-3.393
X0.397 Y29.585 Z-3.3
G0 Z4
X0.807 Y29.291
G1 Z-2.3 F300
Z-3.6
X0.808 Y29.306 Z-3.693
X0.805 Y29.348 Z-3.776
X0.788 Y29.413 Z-3.843
X0.771 Y29.451 Z-3.864
X0.748 Y29.486 Z-3.885
X0.718 Y29.521 Z-3.893
X0.682 Y29.55 Z-3.9
X0.606 Y29.605 F1000
X0.536 Y29.662
X0.473 Y29.728
X0.354 Y29.867
X0.301 Y29.936
X0.257 Y30.012
X0.047 Y29.575
X0.04 Y29.547
X0.039 Y29.537
X0.042 Y28.882
X0.044 Y28.869
X0.078 Y28.792
X0.256 Y28.423
X0.292 Y28.485
X0.334 Y28.543
X0.412 Y28.643
X0.456 Y28.694
X0.505 Y28.741
X0.612 Y28.836
X0.665 Y28.878
X0.721 Y28.916
X0.828 Y28.981
X0.881 Y29.01
X0.936 Y29.035
X1.043 Y29.078
X1.096 Y29.097
X1.15 Y29.112
X1.558 Y29.21
X1.561 Y29.215
X1.549 Y29.23
X1.165 Y29.319
X1.104 Y29.335
X1.044 Y29.358
X0.899 Y29.419
X0.823 Y29.456
X0.752 Y29.501
X0.682 Y29.55
X0.643 Y29.574 Z-3.893 F300
X0.6 Y29.592 Z-3.885
X0.559 Y29.602 Z-3.864
X0.518 Y29.606 Z-3.843
X0.452 Y29.601 Z-3.776
X0.411 Y29.591 Z-3.693
X0.397 Y29.585 Z-3.6
G0 Z4
X0.807 Y29.291
G1 Z-2.6 F300
Z-3.9
X0.808 Y29.306 Z-3.993
X0.805 Y29.348 Z-4.076
X0.788 Y29.413 Z-4.143
X0.771 Y29.451 Z-4.164
X0.748 Y29.486 Z-4.185
X0.718 Y29.521 Z-4.193
X0.682 Y29.55 Z-4.2
X0.606 Y29.605 F1000
X0.536 Y29.662
X0.473 Y29.728
X0.354 Y29.867
X0.301 Y29.936
X0.257 Y30.012
X0.047 Y29.575
X0.04 Y29.547
X0.039 Y29.537
X0.042 Y28.882
X0.044 Y28.869
X0.078 Y28.792
X0.256 Y28.423
X0.292 Y28.485
X0.334 Y28.543
X0.412 Y28.643
X0.456 Y28.694
X0.505 Y28.741
X0.612 Y28.836
X0.665 Y28.878
X0.721 Y28.916
X0.828 Y28.981
X0.881 Y29.01
X0.936 Y29.035
X1.043 Y29.078
X1.096 Y29.097
X1.15 Y29.112
X1.558 Y29.21
X1.561 Y29.215
X1.549 Y29.23
X1.165 Y29.319
X1.104 Y29.335
X1.044 Y29.358
X0.899 Y29.419
X0.823 Y29.456
X0.752 Y29.501
X0.682 Y29.55
X0.643 Y29.574 Z-4.193 F300
X0.6 Y29.592 Z-4.185
X0.559 Y29.602 Z-4.164
X0.518 Y29.606 Z-4.143
X0.452 Y29.601 Z-4.076
X0.411 Y29.591 Z-3.993
X0.397 Y29.585 Z-3.9
G0 Z4
X0.807 Y29.291
G1 Z-2.9 F300
Z-4.2
X0.808 Y29.306 Z-4.293
X0.805 Y29.348 Z-4.376
X0.788 Y29.413 Z-4.443
X0.771 Y29.451 Z-4.464
X0.748 Y29.486 Z-4.485
X0.718 Y29.521 Z-4.493
X0.682 Y29.55 Z-4.5
X0.606 Y29.605 F1000
X0.536 Y29.662
X0.473 Y29.728
X0.354 Y29.867
X0.301 Y29.936
X0.257 Y30.012
X0.047 Y29.575
X0.04 Y29.547
X0.039 Y29.537
X0.042 Y28.882
X0.044 Y28.869
X0.078 Y28.792
X0.256 Y28.423
X0.292 Y28.485
X0.334 Y28.543
X0.412 Y28.643
X0.456 Y28.694
X0.505 Y28.741
X0.612 Y28.836
X0.665 Y28.878
X0.721 Y28.916
X0.828 Y28.981
X0.881 Y29.01
X0.936 Y29.035
X1.043 Y29.078
X1.096 Y29.097
X1.15 Y29.112
X1.558 Y29.21
X1.561 Y29.215
X1.549 Y29.23
X1.165 Y29.319
X1.104 Y29.335
X1.044 Y29.358
X0.899 Y29.419
X0.823 Y29.456
X0.752 Y29.501
X0.682 Y29.55
X0.643 Y29.574 Z-4.493 F300
X0.6 Y29.592 Z-4.485
X0.559 Y29.602 Z-4.464
X0.518 Y29.606 Z-4.443
X0.452 Y29.601 Z-4.376
X0.411 Y29.591 Z-4.293
X0.397 Y29.585 Z-4.2
G0 Z4
X0.807 Y29.291
G1 Z-3.2 F300
Z-4.5
X0.808 Y29.306 Z-4.593
X0.805 Y29.348 Z-4.676
X0.788 Y29.413 Z-4.743
X0.771 Y29.451 Z-4.764
X0.748 Y29.486 Z-4.785
X0.718 Y29.521 Z-4.793
X0.682 Y29.55 Z-4.8
X0.606 Y29.605 F1000
X0.536 Y29.662
X0.473 Y29.728
X0.354 Y29.867
X0.301 Y29.936
X0.257 Y30.012
X0.047 Y29.575
X0.04 Y29.547
X0.039 Y29.537
X0.042 Y28.882
X0.044 Y28.869
X0.078 Y28.792
X0.256 Y28.423
X0.292 Y28.485
X0.334 Y28.543
X0.412 Y28.643
X0.456 Y28.694
X0.505 Y28.741
X0.612 Y28.836
X0.665 Y28.878
X0.721 Y28.916
X0.828 Y28.981
X0.881 Y29.01
X0.936 Y29.035
X1.043 Y29.078
X1.096 Y29.097
X1.15 Y29.112
X1.558 Y29.21
X1.561 Y29.215
X1.549 Y29.23
X1.165 Y29.319
X1.104 Y29.335
X1.044 Y29.358
X0.899 Y29.419
X0.823 Y29.456
X0.752 Y29.501
X0.682 Y29.55
X0.643 Y29.574 Z-4.793 F300
X0.6 Y29.592 Z-4.785
X0.559 Y29.602 Z-4.764
X0.518 Y29.606 Z-4.743
X0.452 Y29.601 Z-4.676
X0.411 Y29.591 Z-4.593
X0.397 Y29.585 Z-4.5
G0 Z4
X0.807 Y29.291
G1 Z-3.5 F300
Z-4.7
X0.808 Y29.306 Z-4.793
X0.805 Y29.348 Z-4.876
X0.788 Y29.413 Z-4.943
X0.771 Y29.451 Z-4.964
X0.748 Y29.486 Z-4.985
X0.718 Y29.521 Z-4.993
X0.682 Y29.55 Z-5
X0.606 Y29.605 F1000
X0.536 Y29.662
X0.473 Y29.728
X0.354 Y29.867
X0.301 Y29.936
X0.257 Y30.012
X0.047 Y29.575
X0.04 Y29.547
X0.039 Y29.537
X0.042 Y28.882
X0.044 Y28.869
X0.078 Y28.792
X0.256 Y28.423
X0.292 Y28.485
X0.334 Y28.543
X0.412 Y28.643
X0.456 Y28.694
X0.505 Y28.741
X0.612 Y28.836
X0.665 Y28.878
X0.721 Y28.916
X0.828 Y28.981
X0.881 Y29.01
X0.936 Y29.035
X1.043 Y29.078
X1.096 Y29.097
X1.15 Y29.112
X1.558 Y29.21
X1.561 Y29.215
X1.549 Y29.23
X1.165 Y29.319
X1.104 Y29.335
X1.044 Y29.358
X0.899 Y29.419
X0.823 Y29.456
X0.752 Y29.501
X0.682 Y29.55
X0.643 Y29.574 Z-4.993 F300
X0.6 Y29.592 Z-4.985
X0.559 Y29.602 Z-4.964
X0.518 Y29.606 Z-4.943
X0.452 Y29.601 Z-4.876
X0.411 Y29.591 Z-4.793
X0.397 Y29.585 Z-4.7
G0 Z4
X7.053 Y29.205
G1 Z-1.7 F300
Z-3.3
X7.061 Y29.203 F1000
X7.07 Y29.216
X7.068 Y29.228
X7.062 Y29.232
X7.045 Y29.228
X7.041 Y29.212
X7.05 Y29.206
X7.053 Y29.205
X7.061 Y29.203 Z-3.299 F300
X7.07 Y29.216 Z-3.293
X7.068 Y29.228 Z-3.283
X7.062 Y29.232 Z-3.268
X7.06 Y29.231 Z-3.255
G0 Z4
X7.044 Y29.22
G1 Z-2 F300
Z-3.6
X7.042 Y29.212 F1000
X7.05 Y29.206
X7.057 Y29.204
X7.069 Y29.218
X7.067 Y29.227
X7.058 Y29.231
X7.045 Y29.228
X7.044 Y29.22
X7.042 Y29.212 Z-3.599 F300
X7.05 Y29.206 Z-3.596
X7.057 Y29.204 Z-3.592
X7.065 Y29.214 Z-3.577
X7.068 Y29.217 Z-3.558
G0 Z4
X7.046 Y29.211
G1 Z-2.3 F300
Z-3.9
X7.049 Y29.207 F1000
X7.054 Y29.206
X7.06 Y29.208
X7.067 Y29.216
X7.065 Y29.224
X7.051 Y29.229
X7.043 Y29.225
Y29.214
X7.046 Y29.211
Z-3.6 F300
G0 Z4
X7.047
G1 Z-2.6 F300
Z-4.2
X7.053 Y29.207 F1000
X7.062 Y29.217
X7.06 Y29.223
X7.048 Y29.227
X7.043 Y29.224
Y29.214
X7.047 Y29.211
Z-3.9 F300
G0 Z4
X7.055 Y29.223
G1 Z-2.9 F300
Z-4.5
X7.051 Y29.226 F1000
X7.044 Y29.221
Y29.214
X7.049 Y29.209
X7.055 Y29.211
X7.061 Y29.218
X7.055 Y29.223
Z-4.2 F300
G0 Z4
X7.051 Y29.217
G1 Z-3.2 F300
Z-4.8
X7.053 Y29.211 F1000
X7.057 Y29.22
X7.05 Y29.222
X7.051 Y29.217
Z-4.5 F300
G0 Z4
Y29.218
G1 Z-3.5 F300
Z-5
X7.047 Y29.219 F1000
X7.054 Y29.217
X7.051 Y29.218
Z-4.7 F300
G0 Z4
X0.398 Y37.35
Z1.3
G1 Z0 F300
X0.412 Y37.345 Z-0.093
X0.453 Y37.334 Z-0.176
X0.519 Y37.329 Z-0.243
X0.561 Y37.334 Z-0.264
X0.601 Y37.344 Z-0.285
X0.644 Y37.361 Z-0.293
X0.684 Y37.385 Z-0.3
X0.752 Y37.434 F1000
X0.823 Y37.479
X0.899 Y37.516
X1.044 Y37.577
X1.118 Y37.604
X1.193 Y37.622
X1.344 Y37.651
X1.414 Y37.661
X1.484 Y37.665
X6.966 Y37.669
X7.044 Y37.679
X7.08 Y37.693
X7.085 Y37.697
X7.067 Y37.727
X7.058 Y37.732
X6.885 Y37.768
X1.485 Y37.77
X1.411 Y37.774
X1.339 Y37.785
X1.178 Y37.817
X1.095 Y37.838
X1.015 Y37.869
X0.854 Y37.942
X0.785 Y37.977
X0.72 Y38.02
X0.613 Y38.098
X0.556 Y38.144
X0.503 Y38.196
X0.394 Y38.315
X0.346 Y38.373
X0.304 Y38.436
X0.257 Y38.514
X0.049 Y38.081
X0.042 Y38.058
X0.039 Y38
X0.041 Y37.387
X0.043 Y37.376
X0.097 Y37.251
X0.256 Y36.925
X0.27 Y36.947
X0.335 Y37.045
X0.37 Y37.094
X0.409 Y37.14
X0.493 Y37.23
X0.547 Y37.283
X0.606 Y37.33
X0.684 Y37.385
X0.719 Y37.415 Z-0.293 F300
X0.749 Y37.45 Z-0.285
X0.772 Y37.485 Z-0.264
X0.789 Y37.523 Z-0.243
X0.806 Y37.587 Z-0.176
X0.809 Y37.63 Z-0.093
X0.808 Y37.645 Z0
G0 Z4
X0.398 Y37.35
Z1
G1 Z-0.3 F300
X0.412 Y37.345 Z-0.393
X0.453 Y37.334 Z-0.476
X0.519 Y37.329 Z-0.543
X0.561 Y37.334 Z-0.564
X0.601 Y37.344 Z-0.585
X0.644 Y37.361 Z-0.593
X0.684 Y37.385 Z-0.6
X0.752 Y37.434 F1000
X0.823 Y37.479
X0.899 Y37.516
X1.044 Y37.577
X1.118 Y37.604
X1.193 Y37.622
X1.344 Y37.651
X1.414 Y37.661
X1.484 Y37.665
X6.966 Y37.669
X7.041 Y37.679
X7.08 Y37.694
X7.085 Y37.698
X7.067 Y37.727
X7.058 Y37.732
X6.885 Y37.768
X1.485 Y37.77
X1.411 Y37.774
X1.339 Y37.785
X1.178 Y37.817
X1.095 Y37.838
X1.015 Y37.869
X0.854 Y37.942
X0.785 Y37.977
X0.72 Y38.02
X0.613 Y38.098
X0.556 Y38.144
X0.503 Y38.196
X0.394 Y38.315
X0.346 Y38.373
X0.304 Y38.436
X0.257 Y38.514
X0.049 Y38.081
X0.042 Y38.058
X0.039 Y38
X0.041 Y37.387
X0.043 Y37.376
X0.097 Y37.251
X0.256 Y36.925
X0.27 Y36.947
X0.335 Y37.045
X0.37 Y37.094
X0.409 Y37.14
X0.493 Y37.23
X0.547 Y37.283
X0.606 Y37.33
X0.684 Y37.385
X0.719 Y37.415 Z-0.593 F300
X0.749 Y37.45 Z-0.585
X0.772 Y37.485 Z-0.564
X0.789 Y37.523 Z-0.543
X0.806 Y37.587 Z-0.476
X0.809 Y37.63 Z-0.393
X0.808 Y37.645 Z-0.3
G0 Z4
X0.398 Y37.35
Z0.7
G1 Z-0.6 F300
X0.412 Y37.345 Z-0.693
X0.453 Y37.334 Z-0.776
X0.519 Y37.329 Z-0.843
X0.561 Y37.334 Z-0.864
X0.601 Y37.344 Z-0.885
X0.644 Y37.361 Z-0.893
X0.684 Y37.385 Z-0.9
X0.752 Y37.434 F1000
X0.823 Y37.479
X0.899 Y37.516
X1.044 Y37.577
X1.118 Y37.604
X1.193 Y37.622
X1.344 Y37.651
X1.414 Y37.661
X1.484 Y37.665
X6.966 Y37.669
X7.039 Y37.679
X7.079 Y37.695
X7.084 Y37.699
X7.067 Y37.727
X7.058 Y37.732
X6.885 Y37.768
X1.485 Y37.77
X1.411 Y37.774
X1.339 Y37.785
X1.178 Y37.817
X1.095 Y37.838
X1.015 Y37.869
X0.854 Y37.942
X0.785 Y37.977
X0.72 Y38.02
X0.613 Y38.098
X0.556 Y38.144
X0.503 Y38.196
X0.394 Y38.315
X0.346 Y38.373
X0.304 Y38.436
X0.257 Y38.514
X0.049 Y38.081
X0.042 Y38.058
X0.039 Y38
X0.041 Y37.387
X0.043 Y37.376
X0.097 Y37.251
X0.256 Y36.925
X0.27 Y36.947
X0.335 Y37.045
X0.37 Y37.094
X0.409 Y37.14
X0.493 Y37.23
X0.547 Y37.283
X0.606 Y37.33
X0.684 Y37.385
X0.719 Y37.415 Z-0.893 F300
X0.749 Y37.45 Z-0.885
X0.772 Y37.485 Z-0.864
X0.789 Y37.523 Z-0.843
X0.806 Y37.587 Z-0.776
X0.809 Y37.63 Z-0.693
X0.808 Y37.645 Z-0.6
G0 Z4
X0.398 Y37.35
Z0.4
G1 Z-0.9 F300
X0.412 Y37.345 Z-0.993
X0.453 Y37.334 Z-1.076
X0.519 Y37.329 Z-1.143
X0.561 Y37.334 Z-1.164
X0.601 Y37.344 Z-1.185
X0.644 Y37.361 Z-1.193
X0.684 Y37.385 Z-1.2
X0.752 Y37.434 F1000
X0.823 Y37.479
X0.899 Y37.516
X1.044 Y37.577
X1.118 Y37.604
X1.193 Y37.622
X1.344 Y37.651
X1.414 Y37.661
X1.484 Y37.665
X6.964 Y37.669
X7.037 Y37.679
X7.083 Y37.698
X7.067 Y37.727
X7.058 Y37.732
X6.885 Y37.768
X1.485 Y37.77
X1.411 Y37.774
X1.339 Y37.785
X1.178 Y37.817
X1.095 Y37.838
X1.015 Y37.869
X0.854 Y37.942
X0.785 Y37.977
X0.72 Y38.02
X0.613 Y38.098
X0.556 Y38.144
X0.503 Y38.196
X0.394 Y38.315
X0.346 Y38.373
X0.304 Y38.436
X0.257 Y38.514
X0.049 Y38.081
X0.042 Y38.058
X0.039 Y38
X0.041 Y37.387
X0.043 Y37.376
X0.097 Y37.251
X0.256 Y36.925
X0.27 Y36.947
X0.335 Y37.045
X0.37 Y37.094
X0.409 Y37.14
X0.493 Y37.23
X0.547 Y37.283
X0.606 Y37.33
X0.684 Y37.385
X0.719 Y37.415 Z-1.193 F300
X0.749 Y37.45 Z-1.185
X0.772 Y37.485 Z-1.164
X0.789 Y37.523 Z-1.143
X0.806 Y37.587 Z-1.076
X0.809 Y37.63 Z-0.993
X0.808 Y37.645 Z-0.9
G0 Z4
X0.398 Y37.35
Z0.1
G1 Z-1.2 F300
X0.412 Y37.345 Z-1.293
X0.453 Y37.334 Z-1.376
X0.519 Y37.329 Z-1.443
X0.561 Y37.334 Z-1.464
X0.601 Y37.344 Z-1.485
X0.644 Y37.361 Z-1.493
X0.684 Y37.385 Z-1.5
X0.752 Y37.434 F1000
X0.823 Y37.479
X0.899 Y37.516
X1.044 Y37.577
X1.118 Y37.604
X1.193 Y37.622
X1.344 Y37.651
X1.414 Y37.661
X1.484 Y37.665
X6.96 Y37.669
X7.034 Y37.68
X7.084 Y37.7
X7.067 Y37.727
X7.058 Y37.732
X6.885 Y37.768
X1.485 Y37.77
X1.411 Y37.774
X1.339 Y37.785
X1.178 Y37.817
X1.095 Y37.838
X1.015 Y37.869
X0.854 Y37.942
X0.785 Y37.977
X0.72 Y38.02
X0.613 Y38.098
X0.556 Y38.144
X0.503 Y38.196
X0.394 Y38.315
X0.346 Y38.373
X0.304 Y38.436
X0.257 Y38.514
X0.049 Y38.081
X0.042 Y38.058
X0.039 Y38
X0.041 Y37.387
X0.043 Y37.376
X0.097 Y37.251
X0.256 Y36.925
X0.27 Y36.947
X0.335 Y37.045
X0.37 Y37.094
X0.409 Y37.14
X0.493 Y37.23
X0.547 Y37.283
X0.606 Y37.33
X0.684 Y37.385
X0.719 Y37.415 Z-1.493 F300
X0.749 Y37.45 Z-1.485
X0.772 Y37.485 Z-1.464
X0.789 Y37.523 Z-1.443
X0.806 Y37.587 Z-1.376
X0.809 Y37.63 Z-1.293
X0.808 Y37.645 Z-1.2
G0 Z4
X0.398 Y37.35
Z1.3
G1 Z-0.2 F300
Z-1.5
X0.412 Y37.345 Z-1.593
X0.453 Y37.334 Z-1.676
X0.519 Y37.329 Z-1.743
X0.561 Y37.334 Z-1.764
X0.601 Y37.344 Z-1.785
X0.644 Y37.361 Z-1.793
X0.684 Y37.385 Z-1.8
X0.752 Y37.434 F1000
X0.823 Y37.479
X0.899 Y37.516
X1.044 Y37.577
X1.118 Y37.604
X1.193 Y37.622
X1.344 Y37.651
X1.414 Y37.661
X1.484 Y37.665
X6.956 Y37.669
X7.032 Y37.681
X7.083 Y37.701
X7.067 Y37.727
X7.058 Y37.732
X6.885 Y37.768
X1.485 Y37.77
X1.411 Y37.774
X1.339 Y37.785
X1.178 Y37.817
X1.095 Y37.838
X1.015 Y37.869
X0.854 Y37.942
X0.785 Y37.977
X0.72 Y38.02
X0.613 Y38.098
X0.556 Y38.144
X0.503 Y38.196
X0.394 Y38.315
X0.346 Y38.373
X0.304 Y38.436
X0.257 Y38.514
X0.049 Y38.081
X0.042 Y38.058
X0.039 Y38
X0.041 Y37.387
X0.043 Y37.376
X0.097 Y37.251
X0.256 Y36.925
X0.27 Y36.947
X0.335 Y37.045
X0.37 Y37.094
X0.409 Y37.14
X0.493 Y37.23
X0.547 Y37.283
X0.606 Y37.33
X0.684 Y37.385
X0.719 Y37.415 Z-1.793 F300
X0.749 Y37.45 Z-1.785
X0.772 Y37.485 Z-1.764
X0.789 Y37.523 Z-1.743
X0.806 Y37.587 Z-1.676
X0.809 Y37.63 Z-1.593
X0.808 Y37.645 Z-1.5
G0 Z4
X0.398 Y37.35
G1 Z-0.5 F300
Z-1.8
X0.412 Y37.345 Z-1.893
X0.453 Y37.334 Z-1.976
X0.519 Y37.329 Z-2.043
X0.561 Y37.334 Z-2.064
X0.601 Y37.344 Z-2.085
X0.644 Y37.361 Z-2.093
X0.684 Y37.385 Z-2.1
X0.752 Y37.434 F1000
X0.823 Y37.479
X0.899 Y37.516
X1.044 Y37.577
X1.118 Y37.604
X1.193 Y37.622
X1.344 Y37.651
X1.414 Y37.661
X1.484 Y37.665
X6.966 Y37.669
X6.996 Y37.673
X7.079 Y37.704
X7.066 Y37.725
X7.057 Y37.731
X6.883 Y37.768
X1.485 Y37.77
X1.411 Y37.774
X1.339 Y37.785
X1.178 Y37.817
X1.095 Y37.838
X1.015 Y37.869
X0.854 Y37.942
X0.785 Y37.977
X0.72 Y38.02
X0.613 Y38.098
X0.556 Y38.144
X0.503 Y38.196
X0.394 Y38.315
X0.346 Y38.373
X0.304 Y38.436
X0.257 Y38.514
X0.049 Y38.081
X0.042 Y38.058
X0.039 Y38
X0.041 Y37.387
X0.043 Y37.376
X0.097 Y37.251
X0.256 Y36.925
X0.27 Y36.947
X0.335 Y37.045
X0.37 Y37.094
X0.409 Y37.14
X0.493 Y37.23
X0.547 Y37.283
X0.606 Y37.33
X0.684 Y37.385
X0.719 Y37.415 Z-2.093 F300
X0.749 Y37.45 Z-2.085
X0.772 Y37.485 Z-2.064
X0.789 Y37.523 Z-2.043
X0.806 Y37.587 Z-1.976
X0.809 Y37.63 Z-1.893
X0.808 Y37.645 Z-1.8
G0 Z4
X0.398 Y37.35
G1 Z-0.8 F300
Z-2.1
X0.412 Y37.345 Z-2.193
X0.453 Y37.334 Z-2.276
X0.519 Y37.329 Z-2.343
X0.561 Y37.334 Z-2.364
X0.601 Y37.344 Z-2.385
X0.644 Y37.361 Z-2.393
X0.684 Y37.385 Z-2.4
X0.752 Y37.434 F1000
X0.823 Y37.479
X0.899 Y37.516
X1.044 Y37.577
X1.118 Y37.604
X1.193 Y37.622
X1.344 Y37.651
X1.414 Y37.661
X1.484 Y37.665
X6.966 Y37.669
X6.989 Y37.672
X7.076 Y37.706
X7.058 Y37.733
X6.888 Y37.768
X1.485 Y37.77
X1.411 Y37.774
X1.339 Y37.785
X1.178 Y37.817
X1.095 Y37.838
X1.015 Y37.869
X0.854 Y37.942
X0.785 Y37.977
X0.72 Y38.02
X0.613 Y38.098
X0.556 Y38.144
X0.503 Y38.196
X0.394 Y38.315
X0.346 Y38.373
X0.304 Y38.436
X0.257 Y38.514
X0.049 Y38.081
X0.042 Y38.058
X0.039 Y38
X0.041 Y37.387
X0.043 Y37.376
X0.097 Y37.251
X0.256 Y36.925
X0.27 Y36.947
X0.335 Y37.045
X0.37 Y37.094
X0.409 Y37.14
X0.493 Y37.23
X0.547 Y37.283
X0.606 Y37.33
X0.684 Y37.385
X0.719 Y37.415 Z-2.393 F300
X0.749 Y37.45 Z-2.385
X0.772 Y37.485 Z-2.364
X0.789 Y37.523 Z-2.343
X0.806 Y37.587 Z-2.276
X0.809 Y37.63 Z-2.193
X0.808 Y37.645 Z-2.1
G0 Z4
X0.398 Y37.35
G1 Z-1.1 F300
Z-2.4
X0.412 Y37.345 Z-2.493
X0.453 Y37.334 Z-2.576
X0.519 Y37.329 Z-2.643
X0.561 Y37.334 Z-2.664
X0.601 Y37.344 Z-2.685
X0.644 Y37.361 Z-2.693
X0.684 Y37.385 Z-2.7
X0.752 Y37.434 F1000
X0.823 Y37.479
X0.899 Y37.516
X1.044 Y37.577
X1.118 Y37.604
X1.193 Y37.622
X1.344 Y37.651
X1.414 Y37.661
X1.484 Y37.665
X6.966 Y37.669
X6.989 Y37.672
X7.079 Y37.707
X7.064 Y37.731
X7.059 Y37.734
X6.888 Y37.768
X1.485 Y37.77
X1.411 Y37.774
X1.339 Y37.785
X1.178 Y37.817
X1.095 Y37.838
X1.015 Y37.869
X0.854 Y37.942
X0.785 Y37.977
X0.72 Y38.02
X0.613 Y38.098
X0.556 Y38.144
X0.503 Y38.196
X0.394 Y38.315
X0.346 Y38.373
X0.304 Y38.436
X0.257 Y38.514
X0.049 Y38.081
X0.042 Y38.058
X0.039 Y38
X0.041 Y37.387
X0.043 Y37.376
X0.097 Y37.251
X0.256 Y36.925
X0.27 Y36.947
X0.335 Y37.045
X0.37 Y37.094
X0.409 Y37.14
X0.493 Y37.23
X0.547 Y37.283
X0.606 Y37.33
X0.684 Y37.385
X0.719 Y37.415 Z-2.693 F300
X0.749 Y37.45 Z-2.685
X0.772 Y37.485 Z-2.664
X0.789 Y37.523 Z-2.643
X0.806 Y37.587 Z-2.576
X0.809 Y37.63 Z-2.493
X0.808 Y37.645 Z-2.4
G0 Z4
X0.398 Y37.35
G1 Z-1.4 F300
Z-2.7
X0.412 Y37.345 Z-2.793
X0.453 Y37.334 Z-2.876
X0.519 Y37.329 Z-2.943
X0.561 Y37.334 Z-2.964
X0.601 Y37.344 Z-2.985
X0.644 Y37.361 Z-2.993
X0.684 Y37.385 Z-3
X0.752 Y37.434 F1000
X0.823 Y37.479
X0.899 Y37.516
X1.044 Y37.577
X1.118 Y37.604
X1.193 Y37.622
X1.344 Y37.651
X1.414 Y37.661
X1.484 Y37.665
X6.962 Y37.669
X6.987 Y37.673
X7.079 Y37.708
X7.064 Y37.731
X7.059 Y37.734
X6.888 Y37.768
X1.485 Y37.77
X1.411 Y37.774
X1.339 Y37.785
X1.178 Y37.817
X1.095 Y37.838
X1.015 Y37.869
X0.854 Y37.942
X0.785 Y37.977
X0.72 Y38.02
X0.613 Y38.098
X0.556 Y38.144
X0.503 Y38.196
X0.394 Y38.315
X0.346 Y38.373
X0.304 Y38.436
X0.257 Y38.514
X0.049 Y38.081
X0.042 Y38.058
X0.039 Y38
X0.041 Y37.387
X0.043 Y37.376
X0.097 Y37.251
X0.256 Y36.925
X0.27 Y36.947
X0.335 Y37.045
X0.37 Y37.094
X0.409 Y37.14
X0.493 Y37.23
X0.547 Y37.283
X0.606 Y37.33
X0.684 Y37.385
X0.719 Y37.415 Z-2.993 F300
X0.749 Y37.45 Z-2.985
X0.772 Y37.485 Z-2.964
X0.789 Y37.523 Z-2.943
X0.806 Y37.587 Z-2.876
X0.809 Y37.63 Z-2.793
X0.808 Y37.645 Z-2.7
G0 Z4
X0.398 Y37.35
G1 Z-1.7 F300
Z-3
X0.412 Y37.345 Z-3.093
X0.453 Y37.334 Z-3.176
X0.519 Y37.329 Z-3.243
X0.561 Y37.334 Z-3.264
X0.601 Y37.344 Z-3.285
X0.644 Y37.361 Z-3.293
X0.684 Y37.385 Z-3.3
X0.752 Y37.434 F1000
X0.823 Y37.479
X0.899 Y37.516
X1.044 Y37.577
X1.104 Y37.6
X1.165 Y37.616
X1.549 Y37.705
X1.561 Y37.715
X1.559 Y37.725
X1.15 Y37.823
X1.081 Y37.843
X1.015 Y37.869
X0.854 Y37.942
X0.785 Y37.977
X0.72 Y38.02
X0.613 Y38.098
X0.556 Y38.144
X0.503 Y38.196
X0.394 Y38.315
X0.346 Y38.373
X0.304 Y38.436
X0.257 Y38.514
X0.049 Y38.081
X0.042 Y38.058
X0.039 Y38
X0.041 Y37.387
X0.043 Y37.376
X0.097 Y37.251
X0.256 Y36.925
X0.27 Y36.947
X0.335 Y37.045
X0.37 Y37.094
X0.409 Y37.14
X0.493 Y37.23
X0.547 Y37.283
X0.606 Y37.33
X0.684 Y37.385
X0.719 Y37.415 Z-3.293 F300
X0.749 Y37.45 Z-3.285
X0.772 Y37.485 Z-3.264
X0.789 Y37.523 Z-3.243
X0.806 Y37.587 Z-3.176
X0.809 Y37.63 Z-3.093
X0.808 Y37.645 Z-3
G0 Z4
X0.398 Y37.35
G1 Z-2 F300
Z-3.3
X0.412 Y37.345 Z-3.393
X0.453 Y37.334 Z-3.476
X0.519 Y37.329 Z-3.543
X0.561 Y37.334 Z-3.564
X0.601 Y37.344 Z-3.585
X0.644 Y37.361 Z-3.593
X0.684 Y37.385 Z-3.6
X0.752 Y37.434 F1000
X0.823 Y37.479
X0.899 Y37.516
X1.044 Y37.577
X1.104 Y37.6
X1.165 Y37.616
X1.549 Y37.705
X1.561 Y37.715
X1.559 Y37.725
X1.15 Y37.823
X1.081 Y37.843
X1.015 Y37.869
X0.854 Y37.942
X0.785 Y37.977
X0.72 Y38.02
X0.613 Y38.098
X0.556 Y38.144
X0.503 Y38.196
X0.394 Y38.315
X0.346 Y38.373
X0.304 Y38.436
X0.257 Y38.514
X0.049 Y38.081
X0.042 Y38.058
X0.039 Y38
X0.041 Y37.387
X0.043 Y37.376
X0.097 Y37.251
X0.256 Y36.925
X0.27 Y36.947
X0.335 Y37.045
X0.37 Y37.094
X0.409 Y37.14
X0.493 Y37.23
X0.547 Y37.283
X0.606 Y37.33
X0.684 Y37.385
X0.719 Y37.415 Z-3.593 F300
X0.749 Y37.45 Z-3.585
X0.772 Y37.485 Z-3.564
X0.789 Y37.523 Z-3.543
X0.806 Y37.587 Z-3.476
X0.809 Y37.63 Z-3.393
X0.808 Y37.645 Z-3.3
G0 Z4
X0.398 Y37.35
G1 Z-2.3 F300
Z-3.6
X0.412 Y37.345 Z-3.693
X0.453 Y37.334 Z-3.776
X0.519 Y37.329 Z-3.843
X0.561 Y37.334 Z-3.864
X0.601 Y37.344 Z-3.885
X0.644 Y37.361 Z-3.893
X0.684 Y37.385 Z-3.9
X0.752 Y37.434 F1000
X0.823 Y37.479
X0.899 Y37.516
X1.044 Y37.577
X1.104 Y37.6
X1.165 Y37.616
X1.549 Y37.705
X1.561 Y37.715
X1.559 Y37.725
X1.15 Y37.823
X1.081 Y37.843
X1.015 Y37.869
X0.854 Y37.942
X0.785 Y37.977
X0.72 Y38.02
X0.613 Y38.098
X0.556 Y38.144
X0.503 Y38.196
X0.394 Y38.315
X0.346 Y38.373
X0.304 Y38.436
X0.257 Y38.514
X0.049 Y38.081
X0.042 Y38.058
X0.039 Y38
X0.041 Y37.387
X0.043 Y37.376
X0.097 Y37.251
X0.256 Y36.925
X0.27 Y36.947
X0.335 Y37.045
X0.37 Y37.094
X0.409 Y37.14
X0.493 Y37.23
X0.547 Y37.283
X0.606 Y37.33
X0.684 Y37.385
X0.719 Y37.415 Z-3.893 F300
X0.749 Y37.45 Z-3.885
X0.772 Y37.485 Z-3.864
X0.789 Y37.523 Z-3.843
X0.806 Y37.587 Z-3.776
X0.809 Y37.63 Z-3.693
X0.808 Y37.645 Z-3.6
G0 Z4
X0.398 Y37.35
G1 Z-2.6 F300
Z-3.9
X0.412 Y37.345 Z-3.993
X0.453 Y37.334 Z-4.076
X0.519 Y37.329 Z-4.143
X0.561 Y37.334 Z-4.164
X0.601 Y37.344 Z-4.185
X0.644 Y37.361 Z-4.193
X0.684 Y37.385 Z-4.2
X0.752 Y37.434 F1000
X0.823 Y37.479
X0.899 Y37.516
X1.044 Y37.577
X1.104 Y37.6
X1.165 Y37.616
X1.549 Y37.705
X1.561 Y37.715
X1.559 Y37.725
X1.15 Y37.823
X1.081 Y37.843
X1.015 Y37.869
X0.854 Y37.942
X0.785 Y37.977
X0.72 Y38.02
X0.613 Y38.098
X0.556 Y38.144
X0.503 Y38.196
X0.394 Y38.315
X0.346 Y38.373
X0.304 Y38.436
X0.257 Y38.514
X0.049 Y38.081
X0.042 Y38.058
X0.039 Y38
X0.041 Y37.387
X0.043 Y37.376
X0.097 Y37.251
X0.256 Y36.925
X0.27 Y36.947
X0.335 Y37.045
X0.37 Y37.094
X0.409 Y37.14
X0.493 Y37.23
X0.547 Y37.283
X0.606 Y37.33
X0.684 Y37.385
X0.719 Y37.415 Z-4.193 F300
X0.749 Y37.45 Z-4.185
X0.772 Y37.485 Z-4.164
X0.789 Y37.523 Z-4.143
X0.806 Y37.587 Z-4.076
X0.809 Y37.63 Z-3.993
X0.808 Y37.645 Z-3.9
G0 Z4
X0.398 Y37.35
G1 Z-2.9 F300
Z-4.2
X0.412 Y37.345 Z-4.293
X0.453 Y37.334 Z-4.376
X0.519 Y37.329 Z-4.443
X0.561 Y37.334 Z-4.464
X0.601 Y37.344 Z-4.485
X0.644 Y37.361 Z-4.493
X0.684 Y37.385 Z-4.5
X0.752 Y37.434 F1000
X0.823 Y37.479
X0.899 Y37.516
X1.044 Y37.577
X1.104 Y37.6
X1.165 Y37.616
X1.549 Y37.705
X1.561 Y37.715
X1.559 Y37.725
X1.15 Y37.823
X1.081 Y37.843
X1.015 Y37.869
X0.854 Y37.942
X0.785 Y37.977
X0.72 Y38.02
X0.613 Y38.098
X0.556 Y38.144
X0.503 Y38.196
X0.394 Y38.315
X0.346 Y38.373
X0.304 Y38.436
X0.257 Y38.514
X0.049 Y38.081
X0.042 Y38.058
X0.039 Y38
X0.041 Y37.387
X0.043 Y37.376
X0.097 Y37.251
X0.256 Y36.925
X0.27 Y36.947
X0.335 Y37.045
X0.37 Y37.094
X0.409 Y37.14
X0.493 Y37.23
X0.547 Y37.283
X0.606 Y37.33
X0.684 Y37.385
X0.719 Y37.415 Z-4.493 F300
X0.749 Y37.45 Z-4.485
X0.772 Y37.485 Z-4.464
X0.789 Y37.523 Z-4.443
X0.806 Y37.587 Z-4.376
X0.809 Y37.63 Z-4.293
X0.808 Y37.645 Z-4.2
G0 Z4
X0.398 Y37.35
G1 Z-3.2 F300
Z-4.5
X0.412 Y37.345 Z-4.593
X0.453 Y37.334 Z-4.676
X0.519 Y37.329 Z-4.743
X0.561 Y37.334 Z-4.764
X0.601 Y37.344 Z-4.785
X0.644 Y37.361 Z-4.793
X0.684 Y37.385 Z-4.8
X0.752 Y37.434 F1000
X0.823 Y37.479
X0.899 Y37.516
X1.044 Y37.577
X1.104 Y37.6
X1.165 Y37.616
X1.549 Y37.705
X1.561 Y37.715
X1.559 Y37.725
X1.15 Y37.823
X1.081 Y37.843
X1.015 Y37.869
X0.854 Y37.942
X0.785 Y37.977
X0.72 Y38.02
X0.613 Y38.098
X0.556 Y38.144
X0.503 Y38.196
X0.394 Y38.315
X0.346 Y38.373
X0.304 Y38.436
X0.257 Y38.514
X0.049 Y38.081
X0.042 Y38.058
X0.039 Y38
X0.041 Y37.387
X0.043 Y37.376
X0.097 Y37.251
X0.256 Y36.925
X0.27 Y36.947
X0.335 Y37.045
X0.37 Y37.094
X0.409 Y37.14
X0.493 Y37.23
X0.547 Y37.283
X0.606 Y37.33
X0.684 Y37.385
X0.719 Y37.415 Z-4.793 F300
X0.749 Y37.45 Z-4.785
X0.772 Y37.485 Z-4.764
X0.789 Y37.523 Z-4.743
X0.806 Y37.587 Z-4.676
X0.809 Y37.63 Z-4.593
X0.808 Y37.645 Z-4.5
G0 Z4
X0.398 Y37.35
G1 Z-3.5 F300
Z-4.7
X0.412 Y37.345 Z-4.793
X0.453 Y37.334 Z-4.876
X0.519 Y37.329 Z-4.943
X0.561 Y37.334 Z-4.964
X0.601 Y37.344 Z-4.985
X0.644 Y37.361 Z-4.993
X0.684 Y37.385 Z-5
X0.752 Y37.434 F1000
X0.823 Y37.479
X0.899 Y37.516
X1.044 Y37.577
X1.104 Y37.6
X1.165 Y37.616
X1.549 Y37.705
X1.561 Y37.715
X1.559 Y37.725
X1.15 Y37.823
X1.081 Y37.843
X1.015 Y37.869
X0.854 Y37.942
X0.785 Y37.977
X0.72 Y38.02
X0.613 Y38.098
X0.556 Y38.144
X0.503 Y38.196
X0.394 Y38.315
X0.346 Y38.373
X0.304 Y38.436
X0.257 Y38.514
X0.049 Y38.081
X0.042 Y38.058
X0.039 Y38
X0.041 Y37.387
X0.043 Y37.376
X0.097 Y37.251
X0.256 Y36.925
X0.27 Y36.947
X0.335 Y37.045
X0.37 Y37.094
X0.409 Y37.14
X0.493 Y37.23
X0.547 Y37.283
X0.606 Y37.33
X0.684 Y37.385
X0.719 Y37.415 Z-4.993 F300
X0.749 Y37.45 Z-4.985
X0.772 Y37.485 Z-4.964
X0.789 Y37.523 Z-4.943
X0.806 Y37.587 Z-4.876
X0.809 Y37.63 Z-4.793
X0.808 Y37.645 Z-4.7
G0 Z4
X7.052 Y37.707
G1 Z-1.7 F300
Z-3.3
X7.062 Y37.703 F1000
X7.067 Y37.705
X7.07 Y37.716
X7.061 Y37.731
X7.051 Y37.729
X7.041 Y37.721
Y37.71
X7.052 Y37.707
X7.062 Y37.703 Z-3.299 F300
X7.067 Y37.705 Z-3.297
X7.07 Y37.716 Z-3.291
X7.064 Y37.727 Z-3.278
X7.061 Y37.731 Z-3.261
Z-3.255
G0 Z4
X7.051 Y37.707
G1 Z-2 F300
Z-3.6
X7.058 Y37.704 F1000
X7.067 Y37.708
X7.069 Y37.717
X7.059 Y37.731
X7.051 Y37.729
X7.042 Y37.722
Y37.71
X7.051 Y37.707
X7.058 Y37.704 Z-3.599 F300
X7.067 Y37.708 Z-3.596
X7.069 Y37.717 Z-3.591
X7.062 Y37.727 Z-3.576
X7.06 Y37.73 Z-3.557
G0 Z4
X7.048 Y37.726
G1 Z-2.3 F300
Z-3.9
X7.044 Y37.724 F1000
X7.042 Y37.71
X7.049 Y37.708
X7.067 Y37.715
X7.06 Y37.726
X7.052 Y37.729
X7.048 Y37.726
X7.044 Y37.724 F300
X7.042 Y37.71 Z-3.895
X7.049 Y37.708 Z-3.89
X7.056 Y37.711 Z-3.878
X7.059 Y37.712 Z-3.864
G0 Z4
X7.045 Y37.719
G1 Z-2.6 F300
Z-4.2
X7.043 Y37.711 F1000
X7.047 Y37.708
X7.061 Y37.712
X7.063 Y37.721
X7.048 Y37.727
X7.045 Y37.719
Z-3.9 F300
G0 Z4
X7.048
G1 Z-2.9 F300
Z-4.5
X7.046 Y37.712 F1000
X7.06 Y37.715
X7.055 Y37.724
X7.049 Y37.726
X7.048 Y37.719
Z-4.2 F300
G0 Z4
X7.051 Y37.717
G1 Z-3.2 F300
Z-4.8
X7.057 Y37.715 F1000
X7.055 Y37.722
X7.047 Y37.72
X7.051 Y37.717
Z-4.5 F300
G0 Z4
X7.053
G1 Z-3.5 F300
Z-5
Y37.722 F1000
X7.052 Y37.713
X7.053 Y37.717
Z-4.7 F300
G0 Z4
X2.788 Y42.066
Z1.3
G1 Z0 F300
X2.787 Y42.081 Z-0.093
X2.78 Y42.123 Z-0.176
X2.757 Y42.185 Z-0.243
X2.736 Y42.221 Z-0.264
X2.71 Y42.254 Z-0.285
X2.676 Y42.286 Z-0.293
X2.638 Y42.312 Z-0.3
X2.172 Y42.579 F1000
X2.045 Y42.316
X2.04 Y41.646
X2.043 Y41.619
X2.048 Y41.605
X2.107 Y41.481
X2.169 Y41.353
X2.838 Y41.737
X2.893 Y41.766
X2.95 Y41.79
X3.107 Y41.848
X3.185 Y41.873
X3.266 Y41.888
X3.423 Y41.91
X3.526 Y41.917
X9.013 Y41.92
X9.061 Y41.935
X9.052 Y41.965
X8.851 Y42.018
X3.468 Y42.022
X3.385 Y42.027
X3.304 Y42.04
X3.141 Y42.077
X3.061 Y42.099
X2.983 Y42.131
X2.827 Y42.205
X2.775 Y42.233
X2.638 Y42.312
X2.596 Y42.332 Z-0.293 F300
X2.552 Y42.345 Z-0.285
X2.51 Y42.351 Z-0.264
X2.469 Z-0.243
X2.403 Y42.339 Z-0.176
X2.363 Y42.324 Z-0.093
X2.35 Y42.318 Z0
G0 Z4
X2.788 Y42.066
Z1
G1 Z-0.3 F300
X2.787 Y42.081 Z-0.393
X2.78 Y42.123 Z-0.476
X2.757 Y42.185 Z-0.543
X2.736 Y42.221 Z-0.564
X2.71 Y42.254 Z-0.585
X2.676 Y42.286 Z-0.593
X2.638 Y42.312 Z-0.6
X2.172 Y42.579 F1000
X2.045 Y42.316
X2.04 Y41.646
X2.043 Y41.619
X2.048 Y41.605
X2.107 Y41.481
X2.169 Y41.353
X2.838 Y41.737
X2.893 Y41.766
X2.95 Y41.79
X3.107 Y41.848
X3.185 Y41.873
X3.266 Y41.888
X3.423 Y41.91
X3.526 Y41.917
X9.01 Y41.92
X9.018 Y41.921
X9.062 Y41.933
X9.052 Y41.965
X8.851 Y42.018
X3.468 Y42.022
X3.385 Y42.027
X3.304 Y42.04
X3.141 Y42.077
X3.061 Y42.099
X2.983 Y42.131
X2.827 Y42.205
X2.775 Y42.233
X2.638 Y42.312
X2.596 Y42.332 Z-0.593 F300
X2.552 Y42.345 Z-0.585
X2.51 Y42.351 Z-0.564
X2.469 Z-0.543
X2.403 Y42.339 Z-0.476
X2.363 Y42.324 Z-0.393
X2.35 Y42.318 Z-0.3
G0 Z4
X2.788 Y42.066
Z0.7
G1 Z-0.6 F300
X2.787 Y42.081 Z-0.693
X2.78 Y42.123 Z-0.776
X2.757 Y42.185 Z-0.843
X2.736 Y42.221 Z-0.864
X2.71 Y42.254 Z-0.885
X2.676 Y42.286 Z-0.893
X2.638 Y42.312 Z-0.9
X2.172 Y42.579 F1000
X2.045 Y42.316
X2.04 Y41.646
X2.043 Y41.619
X2.048 Y41.605
X2.107 Y41.481
X2.169 Y41.353
X2.838 Y41.737
X2.893 Y41.766
X2.95 Y41.79
X3.107 Y41.848
X3.185 Y41.873
X3.266 Y41.888
X3.423 Y41.91
X3.526 Y41.917
X9.009 Y41.92
X9.017 Y41.921
X9.062 Y41.933
X9.052 Y41.965
X8.851 Y42.018
X3.468 Y42.022
X3.385 Y42.027
X3.304 Y42.04
X3.141 Y42.077
X3.061 Y42.099
X2.983 Y42.131
X2.827 Y42.205
X2.775 Y42.233
X2.638 Y42.312
X2.596 Y42.332 Z-0.893 F300
X2.552 Y42.345 Z-0.885
X2.51 Y42.351 Z-0.864
X2.469 Z-0.843
X2.403 Y42.339 Z-0.776
X2.363 Y42.324 Z-0.693
X2.35 Y42.318 Z-0.6
G0 Z4
X2.788 Y42.066
Z0.4
G1 Z-0.9 F300
X2.787 Y42.081 Z-0.993
X2.78 Y42.123 Z-1.076
X2.757 Y42.185 Z-1.143
X2.736 Y42.221 Z-1.164
X2.71 Y42.254 Z-1.185
X2.676 Y42.286 Z-1.193
X2.638 Y42.312 Z-1.2
X2.172 Y42.579 F1000
X2.045 Y42.316
X2.04 Y41.646
X2.043 Y41.619
X2.048 Y41.605
X2.107 Y41.481
X2.169 Y41.353
X2.838 Y41.737
X2.893 Y41.766
X2.95 Y41.79
X3.107 Y41.848
X3.185 Y41.873
X3.266 Y41.888
X3.423 Y41.91
X3.526 Y41.917
X9.007 Y41.92
X9.014 Y41.921
X9.062 Y41.934
X9.052 Y41.965
X8.851 Y42.018
X3.468 Y42.022
X3.385 Y42.027
X3.304 Y42.04
X3.141 Y42.077
X3.061 Y42.099
X2.983 Y42.131
X2.827 Y42.205
X2.775 Y42.233
X2.638 Y42.312
X2.596 Y42.332 Z-1.193 F300
X2.552 Y42.345 Z-1.185
X2.51 Y42.351 Z-1.164
X2.469 Z-1.143
X2.403 Y42.339 Z-1.076
X2.363 Y42.324 Z-0.993
X2.35 Y42.318 Z-0.9
G0 Z4
Y41.616
Z0.1
G1 Z-1.2 F300
X2.363 Y41.61 Z-1.293
X2.403 Y41.595 Z-1.376
X2.468 Y41.583 Z-1.443
X2.51 Z-1.464
X2.551 Y41.589 Z-1.485
X2.596 Y41.602 Z-1.493
X2.638 Y41.622 Z-1.5
X2.838 Y41.737 F1000
X2.893 Y41.766
X2.95 Y41.79
X3.107 Y41.848
X3.185 Y41.873
X3.266 Y41.888
X3.423 Y41.91
X3.526 Y41.917
X9.003 Y41.92
X9.061 Y41.938
X9.052 Y41.965
X8.851 Y42.018
X3.468 Y42.022
X3.385 Y42.027
X3.304 Y42.04
X3.141 Y42.077
X3.061 Y42.099
X2.983 Y42.131
X2.827 Y42.205
X2.775 Y42.233
X2.172 Y42.579
X2.045 Y42.316
X2.04 Y41.646
X2.043 Y41.619
X2.048 Y41.605
X2.107 Y41.481
X2.169 Y41.353
X2.638 Y41.622
X2.676 Y41.648 Z-1.493 F300
X2.71 Y41.68 Z-1.485
X2.736 Y41.713 Z-1.464
X2.757 Y41.749 Z-1.443
X2.78 Y41.811 Z-1.376
X2.787 Y41.853 Z-1.293
X2.788 Y41.867 Z-1.2
G0 Z4
Y42.066
Z1.3
G1 Z-0.2 F300
Z-1.5
X2.787 Y42.081 Z-1.593
X2.78 Y42.123 Z-1.676
X2.757 Y42.185 Z-1.743
X2.736 Y42.221 Z-1.764
X2.71 Y42.254 Z-1.785
X2.676 Y42.286 Z-1.793
X2.638 Y42.312 Z-1.8
X2.172 Y42.579 F1000
X2.045 Y42.316
X2.04 Y41.646
X2.043 Y41.619
X2.048 Y41.605
X2.107 Y41.481
X2.169 Y41.353
X2.838 Y41.737
X2.893 Y41.766
X2.95 Y41.79
X3.107 Y41.848
X3.185 Y41.873
X3.266 Y41.888
X3.423 Y41.91
X3.526 Y41.917
X9.001 Y41.92
X9.061 Y41.938
X9.052 Y41.965
X8.851 Y42.018
X3.468 Y42.022
X3.385 Y42.027
X3.304 Y42.04
X3.141 Y42.077
X3.061 Y42.099
X2.983 Y42.131
X2.827 Y42.205
X2.775 Y42.233
X2.638 Y42.312
X2.596 Y42.332 Z-1.793 F300
X2.552 Y42.345 Z-1.785
X2.51 Y42.351 Z-1.764
X2.469 Z-1.743
X2.403 Y42.339 Z-1.676
X2.363 Y42.324 Z-1.593
X2.35 Y42.318 Z-1.5
G0 Z4
X2.788 Y42.066
G1 Z-0.5 F300
Z-1.8
X2.787 Y42.081 Z-1.893
X2.78 Y42.123 Z-1.976
X2.757 Y42.185 Z-2.043
X2.736 Y42.221 Z-2.064
X2.71 Y42.254 Z-2.085
X2.676 Y42.286 Z-2.093
X2.638 Y42.312 Z-2.1
X2.172 Y42.579 F1000
X2.045 Y42.316
X2.04 Y41.646
X2.043 Y41.619
X2.048 Y41.605
X2.107 Y41.481
X2.169 Y41.353
X2.838 Y41.737
X2.893 Y41.766
X2.95 Y41.79
X3.107 Y41.848
X3.185 Y41.873
X3.266 Y41.888
X3.423 Y41.91
X3.526 Y41.917
X9 Y41.92
X9.06 Y41.939
X9.052 Y41.965
X8.851 Y42.018
X3.468 Y42.022
X3.385 Y42.027
X3.304 Y42.04
X3.141 Y42.077
X3.061 Y42.099
X2.983 Y42.131
X2.827 Y42.205
X2.775 Y42.233
X2.638 Y42.312
X2.596 Y42.332 Z-2.093 F300
X2.552 Y42.345 Z-2.085
X2.51 Y42.351 Z-2.064
X2.469 Z-2.043
X2.403 Y42.339 Z-1.976
X2.363 Y42.324 Z-1.893
X2.35 Y42.318 Z-1.8
G0 Z4
X2.788 Y42.066
G1 Z-0.8 F300
Z-2.1
X2.787 Y42.081 Z-2.193
X2.78 Y42.123 Z-2.276
X2.757 Y42.185 Z-2.343
X2.736 Y42.221 Z-2.364
X2.71 Y42.254 Z-2.385
X2.676 Y42.286 Z-2.393
X2.638 Y42.312 Z-2.4
X2.172 Y42.579 F1000
X2.045 Y42.316
X2.04 Y41.646
X2.043 Y41.619
X2.048 Y41.605
X2.107 Y41.481
X2.169 Y41.353
X2.838 Y41.737
X2.893 Y41.766
X2.95 Y41.79
X3.107 Y41.848
X3.185 Y41.873
X3.266 Y41.888
X3.423 Y41.91
X3.526 Y41.917
X8.998 Y41.92
X9.06 Y41.939
X9.052 Y41.965
X8.851 Y42.018
X3.468 Y42.022
X3.385 Y42.027
X3.304 Y42.04
X3.141 Y42.077
X3.061 Y42.099
X2.983 Y42.131
X2.827 Y42.205
X2.775 Y42.233
X2.638 Y42.312
X2.596 Y42.332 Z-2.393 F300
X2.552 Y42.345 Z-2.385
X2.51 Y42.351 Z-2.364
X2.469 Z-2.343
X2.403 Y42.339 Z-2.276
X2.363 Y42.324 Z-2.193
X2.35 Y42.318 Z-2.1
G0 Z4
Y41.616
G1 Z-1.1 F300
Z-2.4
X2.363 Y41.61 Z-2.493
X2.403 Y41.595 Z-2.576
X2.468 Y41.583 Z-2.643
X2.51 Z-2.664
X2.551 Y41.589 Z-2.685
X2.596 Y41.602 Z-2.693
X2.638 Y41.622 Z-2.7
X2.838 Y41.737 F1000
X2.893 Y41.766
X2.95 Y41.79
X3.107 Y41.848
X3.185 Y41.873
X3.266 Y41.888
X3.423 Y41.91
X3.526 Y41.917
X8.997 Y41.92
X9.06 Y41.939
X9.052 Y41.965
X8.851 Y42.018
X3.468 Y42.022
X3.385 Y42.027
X3.304 Y42.04
X3.141 Y42.077
X3.061 Y42.099
X2.983 Y42.131
X2.827 Y42.205
X2.775 Y42.233
X2.172 Y42.579
X2.045 Y42.316
X2.04 Y41.646
X2.043 Y41.619
X2.048 Y41.605
X2.107 Y41.481
X2.169 Y41.353
X2.638 Y41.622
X2.676 Y41.648 Z-2.693 F300
X2.71 Y41.68 Z-2.685
X2.736 Y41.713 Z-2.664
X2.757 Y41.749 Z-2.643
X2.78 Y41.811 Z-2.576
X2.787 Y41.853 Z-2.493
X2.788 Y41.867 Z-2.4
G0 Z4
X2.35 Y41.616
G1 Z-1.4 F300
Z-2.7
X2.363 Y41.61 Z-2.793
X2.403 Y41.595 Z-2.876
X2.468 Y41.583 Z-2.943
X2.51 Z-2.964
X2.551 Y41.589 Z-2.985
X2.596 Y41.602 Z-2.993
X2.638 Y41.622 Z-3
X2.838 Y41.737 F1000
X2.893 Y41.766
X2.95 Y41.79
X3.107 Y41.848
X3.185 Y41.873
X3.266 Y41.888
X3.423 Y41.91
X3.526 Y41.917
X8.995 Y41.92
X9.06 Y41.94
X9.052 Y41.965
X8.851 Y42.018
X3.468 Y42.022
X3.385 Y42.027
X3.304 Y42.04
X3.141 Y42.077
X3.061 Y42.099
X2.983 Y42.131
X2.827 Y42.205
X2.775 Y42.233
X2.172 Y42.579
X2.045 Y42.316
X2.04 Y41.646
X2.043 Y41.619
X2.048 Y41.605
X2.107 Y41.481
X2.169 Y41.353
X2.638 Y41.622
X2.676 Y41.648 Z-2.993 F300
X2.71 Y41.68 Z-2.985
X2.736 Y41.713 Z-2.964
X2.757 Y41.749 Z-2.943
X2.78 Y41.811 Z-2.876
X2.787 Y41.853 Z-2.793
X2.788 Y41.867 Z-2.7
G0 Z4
X2.35 Y41.616
G1 Z-1.7 F300
Z-3
X2.363 Y41.61 Z-3.093
X2.403 Y41.595 Z-3.176
X2.468 Y41.583 Z-3.243
X2.51 Z-3.264
X2.551 Y41.589 Z-3.285
X2.596 Y41.602 Z-3.293
X2.638 Y41.622 Z-3.3
X2.838 Y41.737 F1000
X2.893 Y41.766
X2.95 Y41.79
X3.107 Y41.848
X3.202 Y41.876
X3.55 Y41.956
X3.561 Y41.965
Y41.97
X3.554 Y41.979
X3.132 Y42.079
X3.056 Y42.101
X2.983 Y42.131
X2.827 Y42.205
X2.775 Y42.233
X2.172 Y42.579
X2.045 Y42.316
X2.04 Y41.646
X2.043 Y41.619
X2.048 Y41.605
X2.107 Y41.481
X2.169 Y41.353
X2.638 Y41.622
X2.676 Y41.648 Z-3.293 F300
X2.71 Y41.68 Z-3.285
X2.736 Y41.713 Z-3.264
X2.757 Y41.749 Z-3.243
X2.78 Y41.811 Z-3.176
X2.787 Y41.853 Z-3.093
X2.788 Y41.867 Z-3
G0 Z4
X2.35 Y41.616
G1 Z-2 F300
Z-3.3
X2.363 Y41.61 Z-3.393
X2.403 Y41.595 Z-3.476
X2.468 Y41.583 Z-3.543
X2.51 Z-3.564
X2.551 Y41.589 Z-3.585
X2.596 Y41.602 Z-3.593
X2.638 Y41.622 Z-3.6
X2.838 Y41.737 F1000
X2.893 Y41.766
X2.95 Y41.79
X3.107 Y41.848
X3.202 Y41.876
X3.55 Y41.956
X3.561 Y41.965
Y41.97
X3.554 Y41.979
X3.132 Y42.079
X3.056 Y42.101
X2.983 Y42.131
X2.827 Y42.205
X2.775 Y42.233
X2.172 Y42.579
X2.045 Y42.316
X2.04 Y41.646
X2.043 Y41.619
X2.048 Y41.605
X2.107 Y41.481
X2.169 Y41.353
X2.638 Y41.622
X2.676 Y41.648 Z-3.593 F300
X2.71 Y41.68 Z-3.585
X2.736 Y41.713 Z-3.564
X2.757 Y41.749 Z-3.543
X2.78 Y41.811 Z-3.476
X2.787 Y41.853 Z-3.393
X2.788 Y41.867 Z-3.3
G0 Z4
X2.35 Y41.616
G1 Z-2.3 F300
Z-3.6
X2.363 Y41.61 Z-3.693
X2.403 Y41.595 Z-3.776
X2.468 Y41.583 Z-3.843
X2.51 Z-3.864
X2.551 Y41.589 Z-3.885
X2.596 Y41.602 Z-3.893
X2.638 Y41.622 Z-3.9
X2.838 Y41.737 F1000
X2.893 Y41.766
X2.95 Y41.79
X3.107 Y41.848
X3.202 Y41.876
X3.55 Y41.956
X3.561 Y41.965
Y41.97
X3.554 Y41.979
X3.132 Y42.079
X3.056 Y42.101
X2.983 Y42.131
X2.827 Y42.205
X2.775 Y42.233
X2.172 Y42.579
X2.045 Y42.316
X2.04 Y41.646
X2.043 Y41.619
X2.048 Y41.605
X2.107 Y41.481
X2.169 Y41.353
X2.638 Y41.622
X2.676 Y41.648 Z-3.893 F300
X2.71 Y41.68 Z-3.885
X2.736 Y41.713 Z-3.864
X2.757 Y41.749 Z-3.843
X2.78 Y41.811 Z-3.776
X2.787 Y41.853 Z-3.693
X2.788 Y41.867 Z-3.6
G0 Z4
X2.35 Y41.616
G1 Z-2.6 F300
Z-3.9
X2.363 Y41.61 Z-3.993
X2.403 Y41.595 Z-4.076
X2.468 Y41.583 Z-4.143
X2.51 Z-4.164
X2.551 Y41.589 Z-4.185
X2.596 Y41.602 Z-4.193
X2.638 Y41.622 Z-4.2
X2.838 Y41.737 F1000
X2.893 Y41.766
X2.95 Y41.79
X3.107 Y41.848
X3.202 Y41.876
X3.55 Y41.956
X3.561 Y41.965
Y41.97
X3.554 Y41.979
X3.132 Y42.079
X3.056 Y42.101
X2.983 Y42.131
X2.827 Y42.205
X2.775 Y42.233
X2.172 Y42.579
X2.045 Y42.316
X2.04 Y41.646
X2.043 Y41.619
X2.048 Y41.605
X2.107 Y41.481
X2.169 Y41.353
X2.638 Y41.622
X2.676 Y41.648 Z-4.193 F300
X2.71 Y41.68 Z-4.185
X2.736 Y41.713 Z-4.164
X2.757 Y41.749 Z-4.143
X2.78 Y41.811 Z-4.076
X2.787 Y41.853 Z-3.993
X2.788 Y41.867 Z-3.9
G0 Z4
X2.35 Y41.616
G1 Z-2.9 F300
Z-4.2
X2.363 Y41.61 Z-4.293
X2.403 Y41.595 Z-4.376
X2.468 Y41.583 Z-4.443
X2.51 Z-4.464
X2.551 Y41.589 Z-4.485
X2.596 Y41.602 Z-4.493
X2.638 Y41.622 Z-4.5
X2.838 Y41.737 F1000
X2.893 Y41.766
X2.95 Y41.79
X3.107 Y41.848
X3.202 Y41.876
X3.55 Y41.956
X3.561 Y41.965
Y41.97
X3.554 Y41.979
X3.132 Y42.079
X3.056 Y42.101
X2.983 Y42.131
X2.827 Y42.205
X2.775 Y42.233
X2.172 Y42.579
X2.045 Y42.316
X2.04 Y41.646
X2.043 Y41.619
X2.048 Y41.605
X2.107 Y41.481
X2.169 Y41.353
X2.638 Y41.622
X2.676 Y41.648 Z-4.493 F300
X2.71 Y41.68 Z-4.485
X2.736 Y41.713 Z-4.464
X2.757 Y41.749 Z-4.443
X2.78 Y41.811 Z-4.376
X2.787 Y41.853 Z-4.293
X2.788 Y41.867 Z-4.2
G0 Z4
X2.35 Y41.616
G1 Z-3.2 F300
Z-4.5
X2.363 Y41.61 Z-4.593
X2.403 Y41.595 Z-4.676
X2.468 Y41.583 Z-4.743
X2.51 Z-4.764
X2.551 Y41.589 Z-4.785
X2.596 Y41.602 Z-4.793
X2.638 Y41.622 Z-4.8
X2.838 Y41.737 F1000
X2.893 Y41.766
X2.95 Y41.79
X3.107 Y41.848
X3.202 Y41.876
X3.55 Y41.956
X3.561 Y41.965
Y41.97
X3.554 Y41.979
X3.132 Y42.079
X3.056 Y42.101
X2.983 Y42.131
X2.827 Y42.205
X2.775 Y42.233
X2.172 Y42.579
X2.045 Y42.316
X2.04 Y41.646
X2.043 Y41.619
X2.048 Y41.605
X2.107 Y41.481
X2.169 Y41.353
X2.638 Y41.622
X2.676 Y41.648 Z-4.793 F300
X2.71 Y41.68 Z-4.785
X2.736 Y41.713 Z-4.764
X2.757 Y41.749 Z-4.743
X2.78 Y41.811 Z-4.676
X2.787 Y41.853 Z-4.593
X2.788 Y41.867 Z-4.5
G0 Z4
X2.35 Y41.616
G1 Z-3.5 F300
Z-4.7
X2.363 Y41.61 Z-4.793
X2.403 Y41.595 Z-4.876
X2.468 Y41.583 Z-4.943
X2.51 Z-4.964
X2.551 Y41.589 Z-4.985
X2.596 Y41.602 Z-4.993
X2.638 Y41.622 Z-5
X2.838 Y41.737 F1000
X2.893 Y41.766
X2.95 Y41.79
X3.107 Y41.848
X3.202 Y41.876
X3.55 Y41.956
X3.561 Y41.965
Y41.97
X3.554 Y41.979
X3.132 Y42.079
X3.056 Y42.101
X2.983 Y42.131
X2.827 Y42.205
X2.775 Y42.233
X2.172 Y42.579
X2.045 Y42.316
X2.04 Y41.646
X2.043 Y41.619
X2.048 Y41.605
X2.107 Y41.481
X2.169 Y41.353
X2.638 Y41.622
X2.676 Y41.648 Z-4.993 F300
X2.71 Y41.68 Z-4.985
X2.736 Y41.713 Z-4.964
X2.757 Y41.749 Z-4.943
X2.78 Y41.811 Z-4.876
X2.787 Y41.853 Z-4.793
X2.788 Y41.867 Z-4.7
G0 Z4
X9.045 Y41.963
G1 Z-1.7 F300
Z-3.3
X9.05 Y41.957 F1000
X9.049 Y41.967
X9.04 Y41.969
X9.045 Y41.963
Z-3 F300
G0 Z4
Y41.962
G1 Z-2 F300
Z-3.6
X9.048 Y41.958 F1000
X9.05 Y41.966
X9.041 Y41.968
X9.045 Y41.962
Z-3.3 F300
G0 Z4
Y41.96
G1 Z-2.3 F300
Z-3.9
X9.052 Y41.956 F1000
X9.049 Y41.966
X9.042 Y41.968
Y41.961
X9.045 Y41.96
Z-3.6 F300
G0 Z4
X9.046 Y41.965
G1 Z-2.6 F300
Z-4.2
X9.043 Y41.962 F1000
X9.052 Y41.959
X9.049 Y41.968
X9.046 Y41.965
Z-3.9 F300
G0 Z4
X9.049 Y41.966
G1 Z-2.9 F300
Z-4.5
Y41.968 F1000
X9.052 Y41.957
X9.049 Y41.966
Z-4.2 F300
G0 Z4
X9.047 Y41.968
G1 Z-3.2 F300
Z-4.8
X9.049 Y41.963 F1000
X9.047 Y41.969
Y41.968
Z-4.5 F300
G0 Z4
Y41.969
G1 Z-3.5 F300
Z-5
X9.046 F1000
X9.048 Y41.967
X9.047 Y41.969
Z-4.7 F300
G0 Z4
X0.18 Y46.472
Z1.3
G1 Z0 F300
X0.168 Y46.464 Z-0.093
X0.135 Y46.437 Z-0.176
X0.093 Y46.386 Z-0.243
X0.072 Y46.35 Z-0.264
X0.056 Y46.311 Z-0.285
X0.045 Y46.266 Z-0.293
X0.042 Y46.22 Z-0.3
X0.04 Y45.891 F1000
X0.043 Y45.873
X0.069 Y45.809
X0.256 Y45.425
X0.288 Y45.479
X0.324 Y45.53
X0.409 Y45.639
X0.461 Y45.699
X0.519 Y45.753
X0.656 Y45.869
X0.723 Y45.919
X0.795 Y45.961
X0.932 Y46.032
X1.004 Y46.064
X1.079 Y46.089
X1.234 Y46.132
X1.315 Y46.149
X1.398 Y46.157
X1.613 Y46.167
X1.646
X6.968 Y46.168
X7.06 Y46.18
X7.073 Y46.184
X7.08 Y46.188
X7.062 Y46.224
X6.876 Y46.268
X1.485 Y46.27
X1.412 Y46.274
X1.341 Y46.284
X1.183 Y46.315
X1.108 Y46.334
X1.035 Y46.361
X0.897 Y46.419
X0.833 Y46.45
X0.772 Y46.487
X0.661 Y46.561
X0.603 Y46.604
X0.549 Y46.653
X0.439 Y46.763
X0.389 Y46.818
X0.345 Y46.877
X0.268 Y46.992
X0.257 Y47.008
X0.043 Y46.559
X0.042 Y46.22
X0.045 Y46.174 Z-0.293 F300
X0.055 Y46.128 Z-0.285
X0.071 Y46.09 Z-0.264
X0.091 Y46.053 Z-0.243
X0.134 Y46.002 Z-0.176
X0.166 Y45.975 Z-0.093
X0.179 Y45.967 Z0
G0 Z4
X0.18 Y46.472
Z1
G1 Z-0.3 F300
X0.168 Y46.464 Z-0.393
X0.135 Y46.437 Z-0.476
X0.093 Y46.386 Z-0.543
X0.072 Y46.35 Z-0.564
X0.056 Y46.311 Z-0.585
X0.045 Y46.266 Z-0.593
X0.042 Y46.22 Z-0.6
X0.04 Y45.891 F1000
X0.043 Y45.873
X0.069 Y45.809
X0.256 Y45.425
X0.288 Y45.479
X0.324 Y45.53
X0.409 Y45.639
X0.461 Y45.699
X0.519 Y45.753
X0.656 Y45.869
X0.723 Y45.919
X0.795 Y45.961
X0.932 Y46.032
X1.004 Y46.064
X1.079 Y46.089
X1.234 Y46.132
X1.315 Y46.149
X1.398 Y46.157
X1.613 Y46.167
X1.646
X6.966 Y46.168
X7.057 Y46.18
X7.074 Y46.186
X7.08 Y46.189
X7.062 Y46.224
X6.876 Y46.268
X1.485 Y46.27
X1.412 Y46.274
X1.341 Y46.284
X1.183 Y46.315
X1.108 Y46.334
X1.035 Y46.361
X0.897 Y46.419
X0.833 Y46.45
X0.772 Y46.487
X0.661 Y46.561
X0.603 Y46.604
X0.549 Y46.653
X0.439 Y46.763
X0.389 Y46.818
X0.345 Y46.877
X0.268 Y46.992
X0.257 Y47.008
X0.043 Y46.559
X0.042 Y46.22
X0.045 Y46.174 Z-0.593 F300
X0.055 Y46.128 Z-0.585
X0.071 Y46.09 Z-0.564
X0.091 Y46.053 Z-0.543
X0.134 Y46.002 Z-0.476
X0.166 Y45.975 Z-0.393
X0.179 Y45.967 Z-0.3
G0 Z4
X0.18 Y46.472
Z0.7
G1 Z-0.6 F300
X0.168 Y46.464 Z-0.693
X0.135 Y46.437 Z-0.776
X0.093 Y46.386 Z-0.843
X0.072 Y46.35 Z-0.864
X0.056 Y46.311 Z-0.885
X0.045 Y46.266 Z-0.893
X0.042 Y46.22 Z-0.9
X0.04 Y45.891 F1000
X0.043 Y45.873
X0.069 Y45.809
X0.256 Y45.425
X0.288 Y45.479
X0.324 Y45.53
X0.409 Y45.639
X0.461 Y45.699
X0.519 Y45.753
X0.656 Y45.869
X0.723 Y45.919
X0.795 Y45.961
X0.932 Y46.032
X1.004 Y46.064
X1.079 Y46.089
X1.234 Y46.132
X1.315 Y46.149
X1.398 Y46.157
X1.613 Y46.167
X1.646
X6.963 Y46.168
X7.053 Y46.181
X7.08 Y46.19
X7.062 Y46.224
X6.876 Y46.268
X1.485 Y46.27
X1.412 Y46.274
X1.341 Y46.284
X1.183 Y46.315
X1.108 Y46.334
X1.035 Y46.361
X0.897 Y46.419
X0.833 Y46.45
X0.772 Y46.487
X0.661 Y46.561
X0.603 Y46.604
X0.549 Y46.653
X0.439 Y46.763
X0.389 Y46.818
X0.345 Y46.877
X0.268 Y46.992
X0.257 Y47.008
X0.043 Y46.559
X0.042 Y46.22
X0.045 Y46.174 Z-0.893 F300
X0.055 Y46.128 Z-0.885
X0.071 Y46.09 Z-0.864
X0.091 Y46.053 Z-0.843
X0.134 Y46.002 Z-0.776
X0.166 Y45.975 Z-0.693
X0.179 Y45.967 Z-0.6
G0 Z4
X0.18 Y46.472
Z0.4
G1 Z-0.9 F300
X0.168 Y46.464 Z-0.993
X0.135 Y46.437 Z-1.076
X0.093 Y46.386 Z-1.143
X0.072 Y46.35 Z-1.164
X0.056 Y46.311 Z-1.185
X0.045 Y46.266 Z-1.193
X0.042 Y46.22 Z-1.2
X0.04 Y45.891 F1000
X0.043 Y45.873
X0.069 Y45.809
X0.256 Y45.425
X0.288 Y45.479
X0.324 Y45.53
X0.409 Y45.639
X0.461 Y45.699
X0.519 Y45.753
X0.656 Y45.869
X0.723 Y45.919
X0.795 Y45.961
X0.932 Y46.032
X1.004 Y46.064
X1.079 Y46.089
X1.234 Y46.132
X1.315 Y46.149
X1.398 Y46.157
X1.613 Y46.167
X1.646
X6.973 Y46.168
X7.016 Y46.173
X7.078 Y46.193
X7.062 Y46.224
X6.876 Y46.268
X1.485 Y46.27
X1.412 Y46.274
X1.341 Y46.284
X1.183 Y46.315
X1.108 Y46.334
X1.035 Y46.361
X0.897 Y46.419
X0.833 Y46.45
X0.772 Y46.487
X0.661 Y46.561
X0.603 Y46.604
X0.549 Y46.653
X0.439 Y46.763
X0.389 Y46.818
X0.345 Y46.877
X0.268 Y46.992
X0.257 Y47.008
X0.043 Y46.559
X0.042 Y46.22
X0.045 Y46.174 Z-1.193 F300
X0.055 Y46.128 Z-1.185
X0.071 Y46.09 Z-1.164
X0.091 Y46.053 Z-1.143
X0.134 Y46.002 Z-1.076
X0.166 Y45.975 Z-0.993
X0.179 Y45.967 Z-0.9
G0 Z4
X0.18 Y46.472
Z0.1
G1 Z-1.2 F300
X0.168 Y46.464 Z-1.293
X0.135 Y46.437 Z-1.376
X0.093 Y46.386 Z-1.443
X0.072 Y46.35 Z-1.464
X0.056 Y46.311 Z-1.485
X0.045 Y46.266 Z-1.493
X0.042 Y46.22 Z-1.5
X0.04 Y45.891 F1000
X0.043 Y45.873
X0.069 Y45.809
X0.256 Y45.425
X0.288 Y45.479
X0.324 Y45.53
X0.409 Y45.639
X0.461 Y45.699
X0.519 Y45.753
X0.656 Y45.869
X0.723 Y45.919
X0.795 Y45.961
X0.932 Y46.032
X1.004 Y46.064
X1.079 Y46.089
X1.234 Y46.132
X1.315 Y46.149
X1.398 Y46.157
X1.613 Y46.167
X1.646
X6.973 Y46.168
X7.006 Y46.172
X7.076 Y46.197
X7.062 Y46.224
X6.876 Y46.268
X1.485 Y46.27
X1.412 Y46.274
X1.341 Y46.284
X1.183 Y46.315
X1.108 Y46.334
X1.035 Y46.361
X0.897 Y46.419
X0.833 Y46.45
X0.772 Y46.487
X0.661 Y46.561
X0.603 Y46.604
X0.549 Y46.653
X0.439 Y46.763
X0.389 Y46.818
X0.345 Y46.877
X0.268 Y46.992
X0.257 Y47.008
X0.043 Y46.559
X0.042 Y46.22
X0.045 Y46.174 Z-1.493 F300
X0.055 Y46.128 Z-1.485
X0.071 Y46.09 Z-1.464
X0.091 Y46.053 Z-1.443
X0.134 Y46.002 Z-1.376
X0.166 Y45.975 Z-1.293
X0.179 Y45.967 Z-1.2
G0 Z4
X0.18 Y46.472
Z1.3
G1 Z-0.2 F300
Z-1.5
X0.168 Y46.464 Z-1.593
X0.135 Y46.437 Z-1.676
X0.093 Y46.386 Z-1.743
X0.072 Y46.35 Z-1.764
X0.056 Y46.311 Z-1.785
X0.045 Y46.266 Z-1.793
X0.042 Y46.22 Z-1.8
X0.04 Y45.891 F1000
X0.043 Y45.873
X0.069 Y45.809
X0.256 Y45.425
X0.288 Y45.479
X0.324 Y45.53
X0.409 Y45.639
X0.461 Y45.699
X0.519 Y45.753
X0.656 Y45.869
X0.723 Y45.919
X0.795 Y45.961
X0.932 Y46.032
X1.004 Y46.064
X1.079 Y46.089
X1.234 Y46.132
X1.315 Y46.149
X1.398 Y46.157
X1.613 Y46.167
X1.646
X6.973 Y46.168
X7.006 Y46.172
X7.076 Y46.197
X7.062 Y46.224
X6.876 Y46.268
X1.485 Y46.27
X1.412 Y46.274
X1.341 Y46.284
X1.183 Y46.315
X1.108 Y46.334
X1.035 Y46.361
X0.897 Y46.419
X0.833 Y46.45
X0.772 Y46.487
X0.661 Y46.561
X0.603 Y46.604
X0.549 Y46.653
X0.439 Y46.763
X0.389 Y46.818
X0.345 Y46.877
X0.268 Y46.992
X0.257 Y47.008
X0.043 Y46.559
X0.042 Y46.22
X0.045 Y46.174 Z-1.793 F300
X0.055 Y46.128 Z-1.785
X0.071 Y46.09 Z-1.764
X0.091 Y46.053 Z-1.743
X0.134 Y46.002 Z-1.676
X0.166 Y45.975 Z-1.593
X0.179 Y45.967 Z-1.5
G0 Z4
X0.18 Y46.472
G1 Z-0.5 F300
Z-1.8
X0.168 Y46.464 Z-1.893
X0.135 Y46.437 Z-1.976
X0.093 Y46.386 Z-2.043
X0.072 Y46.35 Z-2.064
X0.056 Y46.311 Z-2.085
X0.045 Y46.266 Z-2.093
X0.042 Y46.22 Z-2.1
X0.04 Y45.891 F1000
X0.043 Y45.873
X0.069 Y45.809
X0.256 Y45.425
X0.288 Y45.479
X0.324 Y45.53
X0.409 Y45.639
X0.461 Y45.699
X0.519 Y45.753
X0.656 Y45.869
X0.723 Y45.919
X0.795 Y45.961
X0.932 Y46.032
X1.004 Y46.064
X1.079 Y46.089
X1.234 Y46.132
X1.315 Y46.149
X1.398 Y46.157
X1.613 Y46.167
X1.646
X6.973 Y46.168
X7.003 Y46.171
X7.075 Y46.198
X7.062 Y46.224
X6.876 Y46.268
X1.485 Y46.27
X1.412 Y46.274
X1.341 Y46.284
X1.183 Y46.315
X1.108 Y46.334
X1.035 Y46.361
X0.897 Y46.419
X0.833 Y46.45
X0.772 Y46.487
X0.661 Y46.561
X0.603 Y46.604
X0.549 Y46.653
X0.439 Y46.763
X0.389 Y46.818
X0.345 Y46.877
X0.268 Y46.992
X0.257 Y47.008
X0.043 Y46.559
X0.042 Y46.22
X0.045 Y46.174 Z-2.093 F300
X0.055 Y46.128 Z-2.085
X0.071 Y46.09 Z-2.064
X0.091 Y46.053 Z-2.043
X0.134 Y46.002 Z-1.976
X0.166 Y45.975 Z-1.893
X0.179 Y45.967 Z-1.8
G0 Z4
X0.18 Y46.472
G1 Z-0.8 F300
Z-2.1
X0.168 Y46.464 Z-2.193
X0.135 Y46.437 Z-2.276
X0.093 Y46.386 Z-2.343
X0.072 Y46.35 Z-2.364
X0.056 Y46.311 Z-2.385
X0.045 Y46.266 Z-2.393
X0.042 Y46.22 Z-2.4
X0.04 Y45.891 F1000
X0.043 Y45.873
X0.069 Y45.809
X0.256 Y45.425
X0.288 Y45.479
X0.324 Y45.53
X0.409 Y45.639
X0.461 Y45.699
X0.519 Y45.753
X0.656 Y45.869
X0.723 Y45.919
X0.795 Y45.961
X0.932 Y46.032
X1.004 Y46.064
X1.079 Y46.089
X1.234 Y46.132
X1.315 Y46.149
X1.398 Y46.157
X1.613 Y46.167
X1.646
X6.97 Y46.168
X6.998 Y46.171
X7.074 Y46.2
X7.062 Y46.224
X6.875 Y46.268
X1.485 Y46.27
X1.412 Y46.274
X1.341 Y46.284
X1.183 Y46.315
X1.108 Y46.334
X1.035 Y46.361
X0.897 Y46.419
X0.833 Y46.45
X0.772 Y46.487
X0.661 Y46.561
X0.603 Y46.604
X0.549 Y46.653
X0.439 Y46.763
X0.389 Y46.818
X0.345 Y46.877
X0.268 Y46.992
X0.257 Y47.008
X0.043 Y46.559
X0.042 Y46.22
X0.045 Y46.174 Z-2.393 F300
X0.055 Y46.128 Z-2.385
X0.071 Y46.09 Z-2.364
X0.091 Y46.053 Z-2.343
X0.134 Y46.002 Z-2.276
X0.166 Y45.975 Z-2.193
X0.179 Y45.967 Z-2.1
G0 Z4
X0.18 Y46.472
G1 Z-1.1 F300
Z-2.4
X0.168 Y46.464 Z-2.493
X0.135 Y46.437 Z-2.576
X0.093 Y46.386 Z-2.643
X0.072 Y46.35 Z-2.664
X0.056 Y46.311 Z-2.685
X0.045 Y46.266 Z-2.693
X0.042 Y46.22 Z-2.7
X0.04 Y45.891 F1000
X0.043 Y45.873
X0.069 Y45.809
X0.256 Y45.425
X0.288 Y45.479
X0.324 Y45.53
X0.409 Y45.639
X0.461 Y45.699
X0.519 Y45.753
X0.656 Y45.869
X0.723 Y45.919
X0.795 Y45.961
X0.932 Y46.032
X1.004 Y46.064
X1.079 Y46.089
X1.234 Y46.132
X1.315 Y46.149
X1.398 Y46.157
X1.613 Y46.167
X1.646
X6.967 Y46.168
X6.989 Y46.171
X7.072 Y46.204
X7.062 Y46.224
X7.054 Y46.229
X6.88 Y46.268
X1.485 Y46.27
X1.412 Y46.274
X1.341 Y46.284
X1.183 Y46.315
X1.108 Y46.334
X1.035 Y46.361
X0.897 Y46.419
X0.833 Y46.45
X0.772 Y46.487
X0.661 Y46.561
X0.603 Y46.604
X0.549 Y46.653
X0.439 Y46.763
X0.389 Y46.818
X0.345 Y46.877
X0.268 Y46.992
X0.257 Y47.008
X0.043 Y46.559
X0.042 Y46.22
X0.045 Y46.174 Z-2.693 F300
X0.055 Y46.128 Z-2.685
X0.071 Y46.09 Z-2.664
X0.091 Y46.053 Z-2.643
X0.134 Y46.002 Z-2.576
X0.166 Y45.975 Z-2.493
X0.179 Y45.967 Z-2.4
G0 Z4
X0.18 Y46.472
G1 Z-1.4 F300
Z-2.7
X0.168 Y46.464 Z-2.793
X0.135 Y46.437 Z-2.876
X0.093 Y46.386 Z-2.943
X0.072 Y46.35 Z-2.964
X0.056 Y46.311 Z-2.985
X0.045 Y46.266 Z-2.993
X0.042 Y46.22 Z-3
X0.04 Y45.891 F1000
X0.043 Y45.873
X0.069 Y45.809
X0.256 Y45.425
X0.288 Y45.479
X0.324 Y45.53
X0.409 Y45.639
X0.461 Y45.699
X0.519 Y45.753
X0.656 Y45.869
X0.723 Y45.919
X0.795 Y45.961
X0.932 Y46.032
X1.004 Y46.064
X1.079 Y46.089
X1.234 Y46.132
X1.315 Y46.149
X1.398 Y46.157
X1.613 Y46.167
X1.646
X6.963 Y46.168
X6.987 Y46.171
X7.07 Y46.203
X7.059 Y46.224
X7.052 Y46.23
X7.047 Y46.231
X6.88 Y46.268
X1.485 Y46.27
X1.412 Y46.274
X1.341 Y46.284
X1.183 Y46.315
X1.108 Y46.334
X1.035 Y46.361
X0.897 Y46.419
X0.833 Y46.45
X0.772 Y46.487
X0.661 Y46.561
X0.603 Y46.604
X0.549 Y46.653
X0.439 Y46.763
X0.389 Y46.818
X0.345 Y46.877
X0.268 Y46.992
X0.257 Y47.008
X0.043 Y46.559
X0.042 Y46.22
X0.045 Y46.174 Z-2.993 F300
X0.055 Y46.128 Z-2.985
X0.071 Y46.09 Z-2.964
X0.091 Y46.053 Z-2.943
X0.134 Y46.002 Z-2.876
X0.166 Y45.975 Z-2.793
X0.179 Y45.967 Z-2.7
G0 Z4
X0.18 Y46.472
G1 Z-1.7 F300
Z-3
X0.168 Y46.464 Z-3.093
X0.135 Y46.437 Z-3.176
X0.093 Y46.386 Z-3.243
X0.072 Y46.35 Z-3.264
X0.056 Y46.311 Z-3.285
X0.045 Y46.266 Z-3.293
X0.042 Y46.22 Z-3.3
X0.04 Y45.891 F1000
X0.043 Y45.873
X0.069 Y45.809
X0.256 Y45.425
X0.288 Y45.479
X0.324 Y45.53
X0.409 Y45.639
X0.461 Y45.699
X0.519 Y45.753
X0.656 Y45.869
X0.723 Y45.919
X0.795 Y45.961
X0.932 Y46.032
X1 Y46.063
X1.071 Y46.087
X1.227 Y46.131
X1.264 Y46.141
X1.555 Y46.207
X1.559 Y46.222
X1.548 Y46.231
X1.119 Y46.333
X1.041 Y46.357
X0.966 Y46.388
X0.828 Y46.455
X0.762 Y46.491
X0.701 Y46.533
X0.586 Y46.621
X0.529 Y46.669
X0.477 Y46.722
X0.376 Y46.838
X0.331 Y46.894
X0.292 Y46.954
X0.258 Y47.011
X0.043 Y46.559
X0.042 Y46.22
X0.045 Y46.174 Z-3.293 F300
X0.055 Y46.129 Z-3.285
X0.071 Y46.09 Z-3.264
X0.091 Y46.053 Z-3.243
X0.134 Y46.003 Z-3.176
X0.166 Y45.975 Z-3.093
X0.179 Y45.967 Z-3
G0 Z4
X0.18 Y46.472
G1 Z-2 F300
Z-3.3
X0.168 Y46.464 Z-3.393
X0.135 Y46.437 Z-3.476
X0.093 Y46.386 Z-3.543
X0.072 Y46.35 Z-3.564
X0.056 Y46.311 Z-3.585
X0.045 Y46.266 Z-3.593
X0.042 Y46.22 Z-3.6
X0.04 Y45.891 F1000
X0.043 Y45.873
X0.069 Y45.809
X0.256 Y45.425
X0.288 Y45.479
X0.324 Y45.53
X0.409 Y45.639
X0.461 Y45.699
X0.519 Y45.753
X0.656 Y45.869
X0.723 Y45.919
X0.795 Y45.961
X0.932 Y46.032
X1 Y46.063
X1.071 Y46.087
X1.227 Y46.131
X1.264 Y46.141
X1.555 Y46.207
X1.559 Y46.222
X1.548 Y46.231
X1.119 Y46.333
X1.041 Y46.357
X0.966 Y46.388
X0.828 Y46.455
X0.762 Y46.491
X0.701 Y46.533
X0.586 Y46.621
X0.529 Y46.669
X0.477 Y46.722
X0.376 Y46.838
X0.331 Y46.894
X0.292 Y46.954
X0.258 Y47.011
X0.043 Y46.559
X0.042 Y46.22
X0.045 Y46.174 Z-3.593 F300
X0.055 Y46.129 Z-3.585
X0.071 Y46.09 Z-3.564
X0.091 Y46.053 Z-3.543
X0.134 Y46.003 Z-3.476
X0.166 Y45.975 Z-3.393
X0.179 Y45.967 Z-3.3
G0 Z4
X0.18 Y46.472
G1 Z-2.3 F300
Z-3.6
X0.168 Y46.464 Z-3.693
X0.135 Y46.437 Z-3.776
X0.093 Y46.386 Z-3.843
X0.072 Y46.35 Z-3.864
X0.056 Y46.311 Z-3.885
X0.045 Y46.266 Z-3.893
X0.042 Y46.22 Z-3.9
X0.04 Y45.891 F1000
X0.043 Y45.873
X0.069 Y45.809
X0.256 Y45.425
X0.288 Y45.479
X0.324 Y45.53
X0.409 Y45.639
X0.461 Y45.699
X0.519 Y45.753
X0.656 Y45.869
X0.723 Y45.919
X0.795 Y45.961
X0.932 Y46.032
X1 Y46.063
X1.071 Y46.087
X1.227 Y46.131
X1.264 Y46.141
X1.555 Y46.207
X1.559 Y46.222
X1.548 Y46.231
X1.119 Y46.333
X1.041 Y46.357
X0.966 Y46.388
X0.828 Y46.455
X0.762 Y46.491
X0.701 Y46.533
X0.586 Y46.621
X0.529 Y46.669
X0.477 Y46.722
X0.376 Y46.838
X0.331 Y46.894
X0.292 Y46.954
X0.258 Y47.011
X0.043 Y46.559
X0.042 Y46.22
X0.045 Y46.174 Z-3.893 F300
X0.055 Y46.129 Z-3.885
X0.071 Y46.09 Z-3.864
X0.091 Y46.053 Z-3.843
X0.134 Y46.003 Z-3.776
X0.166 Y45.975 Z-3.693
X0.179 Y45.967 Z-3.6
G0 Z4
X0.18 Y46.472
G1 Z-2.6 F300
Z-3.9
X0.168 Y46.464 Z-3.993
X0.135 Y46.437 Z-4.076
X0.093 Y46.386 Z-4.143
X0.072 Y46.35 Z-4.164
X0.056 Y46.311 Z-4.185
X0.045 Y46.266 Z-4.193
X0.042 Y46.22 Z-4.2
X0.04 Y45.891 F1000
X0.043 Y45.873
X0.069 Y45.809
X0.256 Y45.425
X0.288 Y45.479
X0.324 Y45.53
X0.409 Y45.639
X0.461 Y45.699
X0.519 Y45.753
X0.656 Y45.869
X0.723 Y45.919
X0.795 Y45.961
X0.932 Y46.032
X1 Y46.063
X1.071 Y46.087
X1.227 Y46.131
X1.264 Y46.141
X1.555 Y46.207
X1.559 Y46.222
X1.548 Y46.231
X1.119 Y46.333
X1.041 Y46.357
X0.966 Y46.388
X0.828 Y46.455
X0.762 Y46.491
X0.701 Y46.533
X0.586 Y46.621
X0.529 Y46.669
X0.477 Y46.722
X0.376 Y46.838
X0.331 Y46.894
X0.292 Y46.954
X0.258 Y47.011
X0.043 Y46.559
X0.042 Y46.22
X0.045 Y46.174 Z-4.193 F300
X0.055 Y46.129 Z-4.185
X0.071 Y46.09 Z-4.164
X0.091 Y46.053 Z-4.143
X0.134 Y46.003 Z-4.076
X0.166 Y45.975 Z-3.993
X0.179 Y45.967 Z-3.9
G0 Z4
X0.18 Y46.472
G1 Z-2.9 F300
Z-4.2
X0.168 Y46.464 Z-4.293
X0.135 Y46.437 Z-4.376
X0.093 Y46.386 Z-4.443
X0.072 Y46.35 Z-4.464
X0.056 Y46.311 Z-4.485
X0.045 Y46.266 Z-4.493
X0.042 Y46.22 Z-4.5
X0.04 Y45.891 F1000
X0.043 Y45.873
X0.069 Y45.809
X0.256 Y45.425
X0.288 Y45.479
X0.324 Y45.53
X0.409 Y45.639
X0.461 Y45.699
X0.519 Y45.753
X0.656 Y45.869
X0.723 Y45.919
X0.795 Y45.961
X0.932 Y46.032
X1 Y46.063
X1.071 Y46.087
X1.227 Y46.131
X1.264 Y46.141
X1.555 Y46.207
X1.559 Y46.222
X1.548 Y46.231
X1.119 Y46.333
X1.041 Y46.357
X0.966 Y46.388
X0.828 Y46.455
X0.762 Y46.491
X0.701 Y46.533
X0.586 Y46.621
X0.529 Y46.669
X0.477 Y46.722
X0.376 Y46.838
X0.331 Y46.894
X0.292 Y46.954
X0.258 Y47.011
X0.043 Y46.559
X0.042 Y46.22
X0.045 Y46.174 Z-4.493 F300
X0.055 Y46.129 Z-4.485
X0.071 Y46.09 Z-4.464
X0.091 Y46.053 Z-4.443
X0.134 Y46.003 Z-4.376
X0.166 Y45.975 Z-4.293
X0.179 Y45.967 Z-4.2
G0 Z4
X0.18 Y46.472
G1 Z-3.2 F300
Z-4.5
X0.168 Y46.464 Z-4.593
X0.135 Y46.437 Z-4.676
X0.093 Y46.386 Z-4.743
X0.072 Y46.35 Z-4.764
X0.056 Y46.311 Z-4.785
X0.045 Y46.266 Z-4.793
X0.042 Y46.22 Z-4.8
X0.04 Y45.891 F1000
X0.043 Y45.873
X0.069 Y45.809
X0.256 Y45.425
X0.288 Y45.479
X0.324 Y45.53
X0.409 Y45.639
X0.461 Y45.699
X0.519 Y45.753
X0.656 Y45.869
X0.723 Y45.919
X0.795 Y45.961
X0.932 Y46.032
X1 Y46.063
X1.071 Y46.087
X1.227 Y46.131
X1.264 Y46.141
X1.555 Y46.207
X1.559 Y46.222
X1.548 Y46.231
X1.119 Y46.333
X1.041 Y46.357
X0.966 Y46.388
X0.828 Y46.455
X0.762 Y46.491
X0.701 Y46.533
X0.586 Y46.621
X0.529 Y46.669
X0.477 Y46.722
X0.376 Y46.838
X0.331 Y46.894
X0.292 Y46.954
X0.258 Y47.011
X0.043 Y46.559
X0.042 Y46.22
X0.045 Y46.174 Z-4.793 F300
X0.055 Y46.129 Z-4.785
X0.071 Y46.09 Z-4.764
X0.091 Y46.053 Z-4.743
X0.134 Y46.003 Z-4.676
X0.166 Y45.975 Z-4.593
X0.179 Y45.967 Z-4.5
G0 Z4
X0.18 Y46.472
G1 Z-3.5 F300
Z-4.7
X0.168 Y46.464 Z-4.793
X0.135 Y46.437 Z-4.876
X0.093 Y46.386 Z-4.943
X0.072 Y46.35 Z-4.964
X0.056 Y46.311 Z-4.985
X0.045 Y46.266 Z-4.993
X0.042 Y46.22 Z-5
X0.04 Y45.891 F1000
X0.043 Y45.873
X0.069 Y45.809
X0.256 Y45.425
X0.288 Y45.479
X0.324 Y45.53
X0.409 Y45.639
X0.461 Y45.699
X0.519 Y45.753
X0.656 Y45.869
X0.723 Y45.919
X0.795 Y45.961
X0.932 Y46.032
X1 Y46.063
X1.071 Y46.087
X1.227 Y46.131
X1.264 Y46.141
X1.555 Y46.207
X1.559 Y46.222
X1.548 Y46.231
X1.119 Y46.333
X1.041 Y46.357
X0.966 Y46.388
X0.828 Y46.455
X0.762 Y46.491
X0.701 Y46.533
X0.586 Y46.621
X0.529 Y46.669
X0.477 Y46.722
X0.376 Y46.838
X0.331 Y46.894
X0.292 Y46.954
X0.258 Y47.011
X0.043 Y46.559
X0.042 Y46.22
X0.045 Y46.174 Z-4.993 F300
X0.055 Y46.129 Z-4.985
X0.071 Y46.09 Z-4.964
X0.091 Y46.053 Z-4.943
X0.134 Y46.003 Z-4.876
X0.166 Y45.975 Z-4.793
X0.179 Y45.967 Z-4.7
G0 Z4
X7.048 Y46.208
G1 Z-1.7 F300
Z-3.3
X7.063 Y46.203 F1000
X7.068 Y46.209
X7.063 Y46.22
X7.051 Y46.229
X7.045 Y46.228
X7.041 Y46.225
X7.04 Y46.215
X7.042 Y46.209
X7.048 Y46.208
X7.063 Y46.203 Z-3.297 F300
X7.068 Y46.209 Z-3.292
X7.063 Y46.22 Z-3.279
X7.058 Y46.223 Z-3.258
G0 Z4
X7.048 Y46.207
G1 Z-2 F300
Z-3.6
X7.056 Y46.205 F1000
X7.063 Y46.207
X7.067 Y46.212
X7.061 Y46.224
X7.047 Y46.228
X7.041 Y46.225
Y46.214
X7.043 Y46.209
X7.048 Y46.207
X7.056 Y46.205 Z-3.599 F300
X7.063 Y46.207 Z-3.597
X7.067 Y46.212 Z-3.593
X7.061 Y46.224 Z-3.577
X7.057 Y46.225 Z-3.56
G0 Z4
X7.048 Y46.21
G1 Z-2.3 F300
Z-3.9
X7.057 Y46.206 F1000
X7.066 Y46.214
X7.063 Y46.219
X7.051 Y46.229
X7.045 Y46.228
X7.042 Y46.213
X7.048 Y46.21
Z-3.6 F300
G0 Z4
X7.047 Y46.215
G1 Z-2.6 F300
Z-4.2
X7.048 Y46.208 F1000
X7.061 Y46.211
X7.056 Y46.222
X7.046 Y46.226
X7.047 Y46.215
Z-3.9 F300
G0 Z4
Y46.214
G1 Z-2.9 F300
Z-4.5
X7.05 Y46.21 F1000
X7.061 Y46.216
X7.055 Y46.223
X7.05 Y46.225
X7.043 Y46.22
X7.047 Y46.214
Z-4.2 F300
G0 Z4
X7.053 Y46.215
G1 Z-3.2 F300
Z-4.8
X7.056 Y46.219 F1000
X7.053 Y46.223
X7.044 Y46.219
X7.05 Y46.21
X7.053 Y46.215
Z-4.5 F300
G0 Z4
X2.177 Y50.723
Z1.3
G1 Z0 F300
X2.165 Y50.715 Z-0.093
X2.132 Y50.687 Z-0.176
X2.09 Y50.637 Z-0.243
X2.069 Y50.6 Z-0.264
X2.054 Y50.561 Z-0.285
X2.044 Y50.516 Z-0.293
X2.04 Y50.47 Z-0.3
X2.041 Y50.133 F1000
X2.043 Y50.125
X2.111 Y49.974
X2.17 Y49.852
X2.885 Y50.259
X2.962 Y50.297
X3.042 Y50.327
X3.204 Y50.375
X3.283 Y50.393
X3.363 Y50.404
X3.524 Y50.416
X3.578 Y50.417
X9.042 Y50.422
X9.075 Y50.428
X9.068 Y50.473
X9.063 Y50.48
X8.911 Y50.514
X8.724 Y50.518
X3.471 Y50.522
X3.391 Y50.526
X3.311 Y50.539
X3.15 Y50.574
X3.067 Y50.597
X2.988 Y50.63
X2.827 Y50.706
X2.757 Y50.744
X2.692 Y50.789
X2.584 Y50.872
X2.53 Y50.918
X2.48 Y50.969
X2.384 Y51.077
X2.341 Y51.13
X2.303 Y51.186
X2.257 Y51.262
X2.049 Y50.831
X2.039 Y50.795
Y50.789
X2.04 Y50.47
X2.044 Y50.424 Z-0.293 F300
X2.055 Y50.379 Z-0.285
X2.07 Y50.34 Z-0.264
X2.091 Y50.304 Z-0.243
X2.134 Y50.253 Z-0.176
X2.167 Y50.226 Z-0.093
X2.179 Y50.218 Z0
G0 Z4
X2.177 Y50.723
Z1
G1 Z-0.3 F300
X2.165 Y50.715 Z-0.393
X2.132 Y50.687 Z-0.476
X2.09 Y50.637 Z-0.543
X2.069 Y50.6 Z-0.564
X2.054 Y50.561 Z-0.585
X2.044 Y50.516 Z-0.593
X2.04 Y50.47 Z-0.6
X2.041 Y50.133 F1000
X2.043 Y50.125
X2.111 Y49.974
X2.17 Y49.852
X2.885 Y50.259
X2.962 Y50.297
X3.042 Y50.327
X3.204 Y50.375
X3.283 Y50.393
X3.363 Y50.404
X3.524 Y50.416
X3.578 Y50.417
X9.042 Y50.422
X9.075 Y50.428
X9.068 Y50.473
X9.063 Y50.48
X8.911 Y50.514
X8.724 Y50.518
X3.471 Y50.522
X3.391 Y50.526
X3.311 Y50.539
X3.15 Y50.574
X3.067 Y50.597
X2.988 Y50.63
X2.827 Y50.706
X2.757 Y50.744
X2.692 Y50.789
X2.584 Y50.872
X2.53 Y50.918
X2.48 Y50.969
X2.384 Y51.077
X2.341 Y51.13
X2.303 Y51.186
X2.257 Y51.262
X2.049 Y50.831
X2.039 Y50.795
Y50.789
X2.04 Y50.47
X2.044 Y50.424 Z-0.593 F300
X2.055 Y50.379 Z-0.585
X2.07 Y50.34 Z-0.564
X2.091 Y50.304 Z-0.543
X2.134 Y50.253 Z-0.476
X2.167 Y50.226 Z-0.393
X2.179 Y50.218 Z-0.3
G0 Z4
X2.177 Y50.723
Z0.7
G1 Z-0.6 F300
X2.165 Y50.715 Z-0.693
X2.132 Y50.687 Z-0.776
X2.09 Y50.637 Z-0.843
X2.069 Y50.6 Z-0.864
X2.054 Y50.561 Z-0.885
X2.044 Y50.516 Z-0.893
X2.04 Y50.47 Z-0.9
X2.041 Y50.133 F1000
X2.043 Y50.125
X2.111 Y49.974
X2.17 Y49.852
X2.885 Y50.259
X2.962 Y50.297
X3.042 Y50.327
X3.204 Y50.375
X3.283 Y50.393
X3.363 Y50.404
X3.524 Y50.416
X3.578 Y50.417
X9.042 Y50.422
X9.075 Y50.428
X9.068 Y50.473
X9.063 Y50.48
X8.911 Y50.514
X8.724 Y50.518
X3.471 Y50.522
X3.391 Y50.526
X3.311 Y50.539
X3.15 Y50.574
X3.067 Y50.597
X2.988 Y50.63
X2.827 Y50.706
X2.757 Y50.744
X2.692 Y50.789
X2.584 Y50.872
X2.53 Y50.918
X2.48 Y50.969
X2.384 Y51.077
X2.341 Y51.13
X2.303 Y51.186
X2.257 Y51.262
X2.049 Y50.831
X2.039 Y50.795
Y50.789
X2.04 Y50.47
X2.044 Y50.424 Z-0.893 F300
X2.055 Y50.379 Z-0.885
X2.07 Y50.34 Z-0.864
X2.091 Y50.304 Z-0.843
X2.134 Y50.253 Z-0.776
X2.167 Y50.226 Z-0.693
X2.179 Y50.218 Z-0.6
G0 Z4
X2.177 Y50.723
Z0.4
G1 Z-0.9 F300
X2.165 Y50.715 Z-0.993
X2.132 Y50.687 Z-1.076
X2.09 Y50.637 Z-1.143
X2.069 Y50.6 Z-1.164
X2.054 Y50.561 Z-1.185
X2.044 Y50.516 Z-1.193
X2.04 Y50.47 Z-1.2
X2.041 Y50.133 F1000
X2.043 Y50.125
X2.111 Y49.974
X2.17 Y49.852
X2.885 Y50.259
X2.962 Y50.297
X3.042 Y50.327
X3.204 Y50.375
X3.283 Y50.393
X3.363 Y50.404
X3.524 Y50.416
X3.578 Y50.417
X9.041 Y50.422
X9.074 Y50.428
X9.068 Y50.473
X9.063 Y50.48
X8.911 Y50.514
X8.724 Y50.518
X3.471 Y50.522
X3.391 Y50.526
X3.311 Y50.539
X3.15 Y50.574
X3.067 Y50.597
X2.988 Y50.63
X2.827 Y50.706
X2.757 Y50.744
X2.692 Y50.789
X2.584 Y50.872
X2.53 Y50.918
X2.48 Y50.969
X2.384 Y51.077
X2.341 Y51.13
X2.303 Y51.186
X2.257 Y51.262
X2.049 Y50.831
X2.039 Y50.795
Y50.789
X2.04 Y50.47
X2.044 Y50.424 Z-1.193 F300
X2.055 Y50.379 Z-1.185
X2.07 Y50.34 Z-1.164
X2.091 Y50.304 Z-1.143
X2.134 Y50.253 Z-1.076
X2.167 Y50.226 Z-0.993
X2.179 Y50.218 Z-0.9
G0 Z4
X2.177 Y50.723
Z0.1
G1 Z-1.2 F300
X2.165 Y50.715 Z-1.293
X2.132 Y50.687 Z-1.376
X2.09 Y50.637 Z-1.443
X2.069 Y50.6 Z-1.464
X2.054 Y50.561 Z-1.485
X2.044 Y50.516 Z-1.493
X2.04 Y50.47 Z-1.5
X2.041 Y50.133 F1000
X2.043 Y50.125
X2.111 Y49.974
X2.17 Y49.852
X2.885 Y50.259
X2.962 Y50.297
X3.042 Y50.327
X3.204 Y50.375
X3.283 Y50.393
X3.363 Y50.404
X3.524 Y50.416
X3.578 Y50.417
X9.04 Y50.422
X9.074 Y50.429
X9.068 Y50.473
X9.063 Y50.48
X8.911 Y50.514
X8.724 Y50.518
X3.471 Y50.522
X3.391 Y50.526
X3.311 Y50.539
X3.15 Y50.574
X3.067 Y50.597
X2.988 Y50.63
X2.827 Y50.706
X2.757 Y50.744
X2.692 Y50.789
X2.584 Y50.872
X2.53 Y50.918
X2.48 Y50.969
X2.384 Y51.077
X2.341 Y51.13
X2.303 Y51.186
X2.257 Y51.262
X2.049 Y50.831
X2.039 Y50.795
Y50.789
X2.04 Y50.47
X2.044 Y50.424 Z-1.493 F300
X2.055 Y50.379 Z-1.485
X2.07 Y50.34 Z-1.464
X2.091 Y50.304 Z-1.443
X2.134 Y50.253 Z-1.376
X2.167 Y50.226 Z-1.293
X2.179 Y50.218 Z-1.2
G0 Z4
X2.177 Y50.723
Z1.3
G1 Z-0.2 F300
Z-1.5
X2.165 Y50.715 Z-1.593
X2.132 Y50.687 Z-1.676
X2.09 Y50.637 Z-1.743
X2.069 Y50.6 Z-1.764
X2.054 Y50.561 Z-1.785
X2.044 Y50.516 Z-1.793
X2.04 Y50.47 Z-1.8
X2.041 Y50.133 F1000
X2.043 Y50.125
X2.111 Y49.974
X2.17 Y49.852
X2.885 Y50.259
X2.962 Y50.297
X3.042 Y50.327
X3.204 Y50.375
X3.283 Y50.393
X3.363 Y50.404
X3.524 Y50.416
X3.578 Y50.417
X9.038 Y50.422
X9.074 Y50.429
X9.068 Y50.473
X9.063 Y50.48
X8.911 Y50.514
X8.724 Y50.518
X3.471 Y50.522
X3.391 Y50.526
X3.311 Y50.539
X3.15 Y50.574
X3.067 Y50.597
X2.988 Y50.63
X2.827 Y50.706
X2.757 Y50.744
X2.692 Y50.789
X2.584 Y50.872
X2.53 Y50.918
X2.48 Y50.969
X2.384 Y51.077
X2.341 Y51.13
X2.303 Y51.186
X2.257 Y51.262
X2.049 Y50.831
X2.039 Y50.795
Y50.789
X2.04 Y50.47
X2.044 Y50.424 Z-1.793 F300
X2.055 Y50.379 Z-1.785
X2.07 Y50.34 Z-1.764
X2.091 Y50.304 Z-1.743
X2.134 Y50.253 Z-1.676
X2.167 Y50.226 Z-1.593
X2.179 Y50.218 Z-1.5
G0 Z4
X2.177 Y50.723
G1 Z-0.5 F300
Z-1.8
X2.165 Y50.715 Z-1.893
X2.132 Y50.687 Z-1.976
X2.09 Y50.637 Z-2.043
X2.069 Y50.6 Z-2.064
X2.054 Y50.561 Z-2.085
X2.044 Y50.516 Z-2.093
X2.04 Y50.47 Z-2.1
X2.041 Y50.133 F1000
X2.043 Y50.125
X2.111 Y49.974
X2.17 Y49.852
X2.885 Y50.259
X2.962 Y50.297
X3.042 Y50.327
X3.204 Y50.375
X3.283 Y50.393
X3.363 Y50.404
X3.524 Y50.416
X3.578 Y50.417
X9.036 Y50.422
X9.074 Y50.43
X9.067 Y50.474
X9.063 Y50.48
X8.911 Y50.514
X8.724 Y50.518
X3.471 Y50.522
X3.391 Y50.526
X3.311 Y50.539
X3.15 Y50.574
X3.067 Y50.597
X2.988 Y50.63
X2.827 Y50.706
X2.757 Y50.744
X2.692 Y50.789
X2.584 Y50.872
X2.53 Y50.918
X2.48 Y50.969
X2.384 Y51.077
X2.341 Y51.13
X2.303 Y51.186
X2.257 Y51.262
X2.049 Y50.831
X2.039 Y50.795
Y50.789
X2.04 Y50.47
X2.044 Y50.424 Z-2.093 F300
X2.055 Y50.379 Z-2.085
X2.07 Y50.34 Z-2.064
X2.091 Y50.304 Z-2.043
X2.134 Y50.253 Z-1.976
X2.167 Y50.226 Z-1.893
X2.179 Y50.218 Z-1.8
G0 Z4
X2.177 Y50.723
G1 Z-0.8 F300
Z-2.1
X2.165 Y50.715 Z-2.193
X2.132 Y50.687 Z-2.276
X2.09 Y50.637 Z-2.343
X2.069 Y50.6 Z-2.364
X2.054 Y50.561 Z-2.385
X2.044 Y50.516 Z-2.393
X2.04 Y50.47 Z-2.4
X2.041 Y50.133 F1000
X2.043 Y50.125
X2.111 Y49.974
X2.17 Y49.852
X2.885 Y50.259
X2.962 Y50.297
X3.042 Y50.327
X3.204 Y50.375
X3.283 Y50.393
X3.363 Y50.404
X3.524 Y50.416
X3.578 Y50.417
X9.05 Y50.422
X9.072 Y50.428
X9.065 Y50.478
X9.057 Y50.483
X8.877 Y50.518
X3.471 Y50.522
X3.391 Y50.526
X3.311 Y50.539
X3.15 Y50.574
X3.067 Y50.597
X2.988 Y50.63
X2.827 Y50.706
X2.757 Y50.744
X2.692 Y50.789
X2.584 Y50.872
X2.53 Y50.918
X2.48 Y50.969
X2.384 Y51.077
X2.341 Y51.13
X2.303 Y51.186
X2.257 Y51.262
X2.049 Y50.831
X2.039 Y50.795
Y50.789
X2.04 Y50.47
X2.044 Y50.424 Z-2.393 F300
X2.055 Y50.379 Z-2.385
X2.07 Y50.34 Z-2.364
X2.091 Y50.304 Z-2.343
X2.134 Y50.253 Z-2.276
X2.167 Y50.226 Z-2.193
X2.179 Y50.218 Z-2.1
G0 Z4
X2.177 Y50.723
G1 Z-1.1 F300
Z-2.4
X2.165 Y50.715 Z-2.493
X2.132 Y50.687 Z-2.576
X2.09 Y50.637 Z-2.643
X2.069 Y50.6 Z-2.664
X2.054 Y50.561 Z-2.685
X2.044 Y50.516 Z-2.693
X2.04 Y50.47 Z-2.7
X2.041 Y50.133 F1000
X2.043 Y50.125
X2.111 Y49.974
X2.17 Y49.852
X2.885 Y50.259
X2.962 Y50.297
X3.042 Y50.327
X3.204 Y50.375
X3.283 Y50.393
X3.363 Y50.404
X3.524 Y50.416
X3.578 Y50.417
X9.05 Y50.422
X9.071 Y50.427
X9.063 Y50.478
X9.054 Y50.484
X8.877 Y50.518
X3.471 Y50.522
X3.391 Y50.526
X3.311 Y50.539
X3.15 Y50.574
X3.067 Y50.597
X2.988 Y50.63
X2.827 Y50.706
X2.757 Y50.744
X2.692 Y50.789
X2.584 Y50.872
X2.53 Y50.918
X2.48 Y50.969
X2.384 Y51.077
X2.341 Y51.13
X2.303 Y51.186
X2.257 Y51.262
X2.049 Y50.831
X2.039 Y50.795
Y50.789
X2.04 Y50.47
X2.044 Y50.424 Z-2.693 F300
X2.055 Y50.379 Z-2.685
X2.07 Y50.34 Z-2.664
X2.091 Y50.304 Z-2.643
X2.134 Y50.253 Z-2.576
X2.167 Y50.226 Z-2.493
X2.179 Y50.218 Z-2.4
G0 Z4
X2.177 Y50.723
G1 Z-1.4 F300
Z-2.7
X2.165 Y50.715 Z-2.793
X2.132 Y50.687 Z-2.876
X2.09 Y50.637 Z-2.943
X2.069 Y50.6 Z-2.964
X2.054 Y50.561 Z-2.985
X2.044 Y50.516 Z-2.993
X2.04 Y50.47 Z-3
X2.041 Y50.133 F1000
X2.043 Y50.125
X2.111 Y49.974
X2.17 Y49.852
X2.885 Y50.259
X2.962 Y50.297
X3.042 Y50.327
X3.204 Y50.375
X3.283 Y50.393
X3.363 Y50.404
X3.524 Y50.416
X3.578 Y50.417
X9.047 Y50.422
X9.073 Y50.428
X9.066 Y50.469
X9.059 Y50.481
X8.911 Y50.514
X8.724 Y50.518
X3.471 Y50.522
X3.391 Y50.526
X3.311 Y50.539
X3.15 Y50.574
X3.067 Y50.597
X2.988 Y50.63
X2.827 Y50.706
X2.757 Y50.744
X2.692 Y50.789
X2.584 Y50.872
X2.53 Y50.918
X2.48 Y50.969
X2.384 Y51.077
X2.341 Y51.13
X2.303 Y51.186
X2.257 Y51.262
X2.049 Y50.831
X2.039 Y50.795
Y50.789
X2.04 Y50.47
X2.044 Y50.424 Z-2.993 F300
X2.055 Y50.379 Z-2.985
X2.07 Y50.34 Z-2.964
X2.091 Y50.304 Z-2.943
X2.134 Y50.253 Z-2.876
X2.167 Y50.226 Z-2.793
X2.179 Y50.218 Z-2.7
G0 Z4
X2.177 Y50.723
G1 Z-1.7 F300
Z-3
X2.165 Y50.715 Z-3.093
X2.132 Y50.687 Z-3.176
X2.09 Y50.637 Z-3.243
X2.069 Y50.6 Z-3.264
X2.054 Y50.561 Z-3.285
X2.044 Y50.516 Z-3.293
X2.04 Y50.47 Z-3.3
X2.041 Y50.133 F1000
X2.043 Y50.125
X2.111 Y49.974
X2.17 Y49.852
X2.885 Y50.259
X2.949 Y50.292
X3.016 Y50.318
X3.124 Y50.355
X3.197 Y50.375
X3.55 Y50.456
X3.559 Y50.463
Y50.473
X3.138 Y50.577
X3.061 Y50.599
X2.988 Y50.63
X2.827 Y50.706
X2.757 Y50.744
X2.692 Y50.789
X2.584 Y50.872
X2.53 Y50.918
X2.48 Y50.969
X2.384 Y51.077
X2.341 Y51.13
X2.303 Y51.186
X2.257 Y51.262
X2.049 Y50.831
X2.039 Y50.795
Y50.789
X2.04 Y50.47
X2.044 Y50.424 Z-3.293 F300
X2.055 Y50.379 Z-3.285
X2.07 Y50.34 Z-3.264
X2.091 Y50.304 Z-3.243
X2.134 Y50.253 Z-3.176
X2.167 Y50.226 Z-3.093
X2.179 Y50.218 Z-3
G0 Z4
X2.177 Y50.723
G1 Z-2 F300
Z-3.3
X2.165 Y50.715 Z-3.393
X2.132 Y50.687 Z-3.476
X2.09 Y50.637 Z-3.543
X2.069 Y50.6 Z-3.564
X2.054 Y50.561 Z-3.585
X2.044 Y50.516 Z-3.593
X2.04 Y50.47 Z-3.6
X2.041 Y50.133 F1000
X2.043 Y50.125
X2.111 Y49.974
X2.17 Y49.852
X2.885 Y50.259
X2.949 Y50.292
X3.016 Y50.318
X3.124 Y50.355
X3.197 Y50.375
X3.55 Y50.456
X3.559 Y50.463
Y50.473
X3.138 Y50.577
X3.061 Y50.599
X2.988 Y50.63
X2.827 Y50.706
X2.757 Y50.744
X2.692 Y50.789
X2.584 Y50.872
X2.53 Y50.918
X2.48 Y50.969
X2.384 Y51.077
X2.341 Y51.13
X2.303 Y51.186
X2.257 Y51.262
X2.049 Y50.831
X2.039 Y50.795
Y50.789
X2.04 Y50.47
X2.044 Y50.424 Z-3.593 F300
X2.055 Y50.379 Z-3.585
X2.07 Y50.34 Z-3.564
X2.091 Y50.304 Z-3.543
X2.134 Y50.253 Z-3.476
X2.167 Y50.226 Z-3.393
X2.179 Y50.218 Z-3.3
G0 Z4
X2.177 Y50.723
G1 Z-2.3 F300
Z-3.6
X2.165 Y50.715 Z-3.693
X2.132 Y50.687 Z-3.776
X2.09 Y50.637 Z-3.843
X2.069 Y50.6 Z-3.864
X2.054 Y50.561 Z-3.885
X2.044 Y50.516 Z-3.893
X2.04 Y50.47 Z-3.9
X2.041 Y50.133 F1000
X2.043 Y50.125
X2.111 Y49.974
X2.17 Y49.852
X2.885 Y50.259
X2.949 Y50.292
X3.016 Y50.318
X3.124 Y50.355
X3.197 Y50.375
X3.55 Y50.456
X3.559 Y50.463
Y50.473
X3.138 Y50.577
X3.061 Y50.599
X2.988 Y50.63
X2.827 Y50.706
X2.757 Y50.744
X2.692 Y50.789
X2.584 Y50.872
X2.53 Y50.918
X2.48 Y50.969
X2.384 Y51.077
X2.341 Y51.13
X2.303 Y51.186
X2.257 Y51.262
X2.049 Y50.831
X2.039 Y50.795
Y50.789
X2.04 Y50.47
X2.044 Y50.424 Z-3.893 F300
X2.055 Y50.379 Z-3.885
X2.07 Y50.34 Z-3.864
X2.091 Y50.304 Z-3.843
X2.134 Y50.253 Z-3.776
X2.167 Y50.226 Z-3.693
X2.179 Y50.218 Z-3.6
G0 Z4
X2.177 Y50.723
G1 Z-2.6 F300
Z-3.9
X2.165 Y50.715 Z-3.993
X2.132 Y50.687 Z-4.076
X2.09 Y50.637 Z-4.143
X2.069 Y50.6 Z-4.164
X2.054 Y50.561 Z-4.185
X2.044 Y50.516 Z-4.193
X2.04 Y50.47 Z-4.2
X2.041 Y50.133 F1000
X2.043 Y50.125
X2.111 Y49.974
X2.17 Y49.852
X2.885 Y50.259
X2.949 Y50.292
X3.016 Y50.318
X3.124 Y50.355
X3.197 Y50.375
X3.55 Y50.456
X3.559 Y50.463
Y50.473
X3.138 Y50.577
X3.061 Y50.599
X2.988 Y50.63
X2.827 Y50.706
X2.757 Y50.744
X2.692 Y50.789
X2.584 Y50.872
X2.53 Y50.918
X2.48 Y50.969
X2.384 Y51.077
X2.341 Y51.13
X2.303 Y51.186
X2.257 Y51.262
X2.049 Y50.831
X2.039 Y50.795
Y50.789
X2.04 Y50.47
X2.044 Y50.424 Z-4.193 F300
X2.055 Y50.379 Z-4.185
X2.07 Y50.34 Z-4.164
X2.091 Y50.304 Z-4.143
X2.134 Y50.253 Z-4.076
X2.167 Y50.226 Z-3.993
X2.179 Y50.218 Z-3.9
G0 Z4
X2.177 Y50.723
G1 Z-2.9 F300
Z-4.2
X2.165 Y50.715 Z-4.293
X2.132 Y50.687 Z-4.376
X2.09 Y50.637 Z-4.443
X2.069 Y50.6 Z-4.464
X2.054 Y50.561 Z-4.485
X2.044 Y50.516 Z-4.493
X2.04 Y50.47 Z-4.5
X2.041 Y50.133 F1000
X2.043 Y50.125
X2.111 Y49.974
X2.17 Y49.852
X2.885 Y50.259
X2.949 Y50.292
X3.016 Y50.318
X3.124 Y50.355
X3.197 Y50.375
X3.55 Y50.456
X3.559 Y50.463
Y50.473
X3.138 Y50.577
X3.061 Y50.599
X2.988 Y50.63
X2.827 Y50.706
X2.757 Y50.744
X2.692 Y50.789
X2.584 Y50.872
X2.53 Y50.918
X2.48 Y50.969
X2.384 Y51.077
X2.341 Y51.13
X2.303 Y51.186
X2.257 Y51.262
X2.049 Y50.831
X2.039 Y50.795
Y50.789
X2.04 Y50.47
X2.044 Y50.424 Z-4.493 F300
X2.055 Y50.379 Z-4.485
X2.07 Y50.34 Z-4.464
X2.091 Y50.304 Z-4.443
X2.134 Y50.253 Z-4.376
X2.167 Y50.226 Z-4.293
X2.179 Y50.218 Z-4.2
G0 Z4
X2.177 Y50.723
G1 Z-3.2 F300
Z-4.5
X2.165 Y50.715 Z-4.593
X2.132 Y50.687 Z-4.676
X2.09 Y50.637 Z-4.743
X2.069 Y50.6 Z-4.764
X2.054 Y50.561 Z-4.785
X2.044 Y50.516 Z-4.793
X2.04 Y50.47 Z-4.8
X2.041 Y50.133 F1000
X2.043 Y50.125
X2.111 Y49.974
X2.17 Y49.852
X2.885 Y50.259
X2.949 Y50.292
X3.016 Y50.318
X3.124 Y50.355
X3.197 Y50.375
X3.55 Y50.456
X3.559 Y50.463
Y50.473
X3.138 Y50.577
X3.061 Y50.599
X2.988 Y50.63
X2.827 Y50.706
X2.757 Y50.744
X2.692 Y50.789
X2.584 Y50.872
X2.53 Y50.918
X2.48 Y50.969
X2.384 Y51.077
X2.341 Y51.13
X2.303 Y51.186
X2.257 Y51.262
X2.049 Y50.831
X2.039 Y50.795
Y50.789
X2.04 Y50.47
X2.044 Y50.424 Z-4.793 F300
X2.055 Y50.379 Z-4.785
X2.07 Y50.34 Z-4.764
X2.091 Y50.304 Z-4.743
X2.134 Y50.253 Z-4.676
X2.167 Y50.226 Z-4.593
X2.179 Y50.218 Z-4.5
G0 Z4
X2.177 Y50.723
G1 Z-3.5 F300
Z-4.7
X2.165 Y50.715 Z-4.793
X2.132 Y50.687 Z-4.876
X2.09 Y50.637 Z-4.943
X2.069 Y50.6 Z-4.964
X2.054 Y50.561 Z-4.985
X2.044 Y50.516 Z-4.993
X2.04 Y50.47 Z-5
X2.041 Y50.133 F1000
X2.043 Y50.125
X2.111 Y49.974
X2.17 Y49.852
X2.885 Y50.259
X2.949 Y50.292
X3.016 Y50.318
X3.124 Y50.355
X3.197 Y50.375
X3.55 Y50.456
X3.559 Y50.463
Y50.473
X3.138 Y50.577
X3.061 Y50.599
X2.988 Y50.63
X2.827 Y50.706
X2.757 Y50.744
X2.692 Y50.789
X2.584 Y50.872
X2.53 Y50.918
X2.48 Y50.969
X2.384 Y51.077
X2.341 Y51.13
X2.303 Y51.186
X2.257 Y51.262
X2.049 Y50.831
X2.039 Y50.795
Y50.789
X2.04 Y50.47
X2.044 Y50.424 Z-4.993 F300
X2.055 Y50.379 Z-4.985
X2.07 Y50.34 Z-4.964
X2.091 Y50.304 Z-4.943
X2.134 Y50.253 Z-4.876
X2.167 Y50.226 Z-4.793
X2.179 Y50.218 Z-4.7
G0 Z4
X9.051 Y50.459
G1 Z-1.7 F300
Z-3.3
X9.064 Y50.454 F1000
X9.066 Y50.463
X9.064 Y50.477
X9.05 Y50.479
X9.041 Y50.472
X9.04 Y50.463
X9.051 Y50.459
X9.064 Y50.454 Z-3.298 F300
X9.066 Y50.463 Z-3.293
X9.064 Y50.477 Z-3.277
X9.059 Y50.478 Z-3.259
G0 Z4
X9.057 Y50.477
G1 Z-2 F300
Z-3.6
X9.05 Y50.479 F1000
X9.042 Y50.472
X9.041 Y50.461
X9.063 Y50.455
X9.066 Y50.467
X9.064 Y50.475
X9.057 Y50.477
Z-3.3 F300
G0 Z4
X9.051 Y50.458
G1 Z-2.3 F300
Z-3.9
X9.062 Y50.456 F1000
X9.064 Y50.464
X9.061 Y50.476
X9.054 Y50.479
X9.046 Y50.477
X9.042 Y50.468
Y50.46
X9.051 Y50.458
X9.062 Y50.456 Z-3.898 F300
X9.064 Y50.464 Z-3.894
X9.061 Y50.476 Z-3.881
X9.057 Y50.478 Z-3.862
G0 Z4
X9.043 Y50.466
G1 Z-2.6 F300
Z-4.2
Y50.462 F1000
X9.048 Y50.458
X9.057 Y50.456
X9.06 Y50.466
X9.057 Y50.477
X9.052 Y50.479
X9.043 Y50.473
Y50.466
Y50.462 F300
X9.048 Y50.458 Z-4.198
X9.057 Y50.456 Z-4.193
X9.06 Y50.466 Z-4.177
Y50.467 Z-4.167
G0 Z4
X9.045 Y50.465
G1 Z-2.9 F300
Z-4.5
X9.046 Y50.463 F1000
X9.053 Y50.458
X9.059 Y50.464
X9.057 Y50.47
X9.051 Y50.476
X9.043 Y50.471
X9.045 Y50.465
Z-4.2 F300
G0 Z4
X9.049 Y50.471
G1 Z-3.2 F300
Z-4.8
X9.044 Y50.469 F1000
X9.052 Y50.461
X9.057 Y50.466
X9.052 Y50.472
X9.049 Y50.471
Z-4.5 F300
G0 Z4
X9.051 Y50.469
G1 Z-3.5 F300
Z-5
X9.055 Y50.467 F1000
X9.048 Y50.471
X9.051 Y50.469
X9.055 Y50.467 Z-4.998 F300
X9.053 Y50.468 Z-4.992
G0 Z4
X2.386 Y24.598
Z1.3
G1 Z0 F300
X2.4 Y24.593 Z-0.093
X2.441 Y24.581 Z-0.176
X2.507 Y24.575 Z-0.243
X2.548 Y24.579 Z-0.264
X2.589 Y24.588 Z-0.285
X2.632 Y24.605 Z-0.293
X2.672 Y24.628 Z-0.3
X2.776 Y24.699 F1000
X2.85 Y24.744
X2.929 Y24.78
X3.085 Y24.841
X3.165 Y24.867
X3.247 Y24.884
X3.413 Y24.909
X3.468 Y24.915
X3.523 Y24.917
X8.851
X9.053 Y24.971
X9.065 Y25.007
X8.723 Y25.018
X3.473 Y25.021
X3.395 Y25.026
X3.318 Y25.038
X3.16 Y25.071
X3.078 Y25.094
X2.999 Y25.125
X2.832 Y25.203
X2.775 Y25.233
X2.171 Y25.58
X2.041 Y25.308
X2.04 Y25.299
X2.045 Y24.617
X2.108 Y24.478
X2.258 Y24.174
X2.325 Y24.28
X2.367 Y24.34
X2.414 Y24.395
X2.509 Y24.495
X2.567 Y24.55
X2.629 Y24.598
X2.672 Y24.628
X2.708 Y24.657 Z-0.293 F300
X2.739 Y24.691 Z-0.285
X2.763 Y24.726 Z-0.264
X2.781 Y24.764 Z-0.243
X2.798 Y24.827 Z-0.176
X2.802 Y24.87 Z-0.093
Y24.885 Z0
G0 Z4
X2.795 Y25.062
Z1
G1 Z-0.3 F300
X2.794 Y25.077 Z-0.393
X2.787 Y25.119 Z-0.476
X2.764 Y25.181 Z-0.543
X2.743 Y25.217 Z-0.564
X2.717 Y25.25 Z-0.585
X2.683 Y25.282 Z-0.593
X2.645 Y25.308 Z-0.6
X2.171 Y25.58 F1000
X2.041 Y25.308
X2.04 Y25.299
X2.045 Y24.617
X2.108 Y24.478
X2.258 Y24.174
X2.325 Y24.28
X2.367 Y24.34
X2.414 Y24.395
X2.509 Y24.495
X2.567 Y24.55
X2.629 Y24.598
X2.776 Y24.699
X2.85 Y24.744
X2.929 Y24.78
X3.085 Y24.841
X3.165 Y24.867
X3.247 Y24.884
X3.413 Y24.909
X3.468 Y24.915
X3.523 Y24.917
X8.851
X9.053 Y24.971
X9.065 Y25.007
X9.06 Y25.009
X8.723 Y25.018
X3.473 Y25.021
X3.395 Y25.026
X3.318 Y25.038
X3.16 Y25.071
X3.078 Y25.094
X2.999 Y25.125
X2.832 Y25.203
X2.775 Y25.233
X2.645 Y25.308
X2.603 Y25.328 Z-0.593 F300
X2.559 Y25.341 Z-0.585
X2.517 Y25.347 Z-0.564
X2.475 Z-0.543
X2.41 Y25.335 Z-0.476
X2.37 Y25.32 Z-0.393
X2.357 Y25.314 Z-0.3
G0 Z4
X2.795 Y25.062
Z0.7
G1 Z-0.6 F300
X2.794 Y25.077 Z-0.693
X2.787 Y25.119 Z-0.776
X2.764 Y25.181 Z-0.843
X2.743 Y25.217 Z-0.864
X2.717 Y25.25 Z-0.885
X2.683 Y25.282 Z-0.893
X2.645 Y25.308 Z-0.9
X2.171 Y25.58 F1000
X2.041 Y25.308
X2.04 Y25.299
X2.045 Y24.617
X2.108 Y24.478
X2.258 Y24.174
X2.325 Y24.28
X2.367 Y24.34
X2.414 Y24.395
X2.509 Y24.495
X2.567 Y24.55
X2.629 Y24.598
X2.776 Y24.699
X2.85 Y24.744
X2.929 Y24.78
X3.085 Y24.841
X3.165 Y24.867
X3.247 Y24.884
X3.413 Y24.909
X3.468 Y24.915
X3.523 Y24.917
X8.851
X9.053 Y24.971
X9.065 Y25.007
X9.06 Y25.009
X8.723 Y25.018
X3.473 Y25.021
X3.395 Y25.026
X3.318 Y25.038
X3.16 Y25.071
X3.078 Y25.094
X2.999 Y25.125
X2.832 Y25.203
X2.775 Y25.233
X2.645 Y25.308
X2.603 Y25.328 Z-0.893 F300
X2.559 Y25.341 Z-0.885
X2.517 Y25.347 Z-0.864
X2.475 Z-0.843
X2.41 Y25.335 Z-0.776
X2.37 Y25.32 Z-0.693
X2.357 Y25.314 Z-0.6
G0 Z4
X2.386 Y24.598
Z0.4
G1 Z-0.9 F300
X2.4 Y24.593 Z-0.993
X2.441 Y24.581 Z-1.076
X2.507 Y24.575 Z-1.143
X2.548 Y24.579 Z-1.164
X2.589 Y24.588 Z-1.185
X2.632 Y24.605 Z-1.193
X2.672 Y24.628 Z-1.2
X2.776 Y24.699 F1000
