(1001)
(T1  D=3 CR=0 - ZMIN=-3.2 - flat end mill)
G90 G94
G17
G21

(Pocket3)
T1
S500 M3
G54
M8
G0 X21.034 Y44.106
Z6
Z1.3
G1 Z-0.3 F300
Y16.923 F1000
X21.276
Y44.227
X21.034
Y44.106
G19 G2 Y43.806 Z0 J0 K0.3 F300
G0 Z4
Y44.106
Z1
G1 Z-0.6 F300
Y16.923 F1000
X21.276
Y44.227
X21.034
Y44.106
G2 Y43.806 Z-0.3 J0 K0.3 F300
G0 Z4
Y44.106
Z0.7
G1 Z-0.7 F300
Y16.923 F1000
X21.276
Y44.227
X21.034
Y44.106
G2 Y43.806 Z-0.4 J0 K0.3 F300
G0 Z4
Y44.106
Z0.6
G1 Z-1 F300
Y16.923 F1000
X21.276
Y44.227
X21.034
Y44.106
G2 Y43.806 Z-0.7 J0 K0.3 F300
G0 Z4
Y44.106
Z0.3
G1 Z-1.2 F300
Y16.923 F1000
X21.276
Y44.227
X21.034
Y44.106
G2 Y43.806 Z-0.9 J0 K0.3 F300
G0 Z4
Y44.106
Z0.1
G1 Z-1.5 F300
Y16.923 F1000
X21.276
Y44.227
X21.034
Y44.106
G2 Y43.806 Z-1.2 J0 K0.3 F300
G0 Z4
Y44.106
Z1.3
G1 Z-0.2 F300
Z-1.8
Y16.923 F1000
X21.276
Y44.227
X21.034
Y44.106
G2 Y43.806 Z-1.5 J0 K0.3 F300
G0 Z4
Y44.106
G1 Z-0.5 F300
Z-2
Y16.923 F1000
X21.276
Y44.227
X21.034
Y44.106
G2 Y43.806 Z-1.7 J0 K0.3 F300
G0 Z4
X26.252 Y30.009
Z1.3
G1 Z-0.3 F300
X26.258 Y30.008 F1000
X31.409
X31.589 Y30.05
X31.592 Y30.063
X31.414 Y30.108
X26.255
X26.077 Y30.068
X26.072 Y30.053
X26.252 Y30.009
X26.258 Y30.008 F300
G18 G2 X26.552 Z0 I-0.006 K0.3
G0 Z4
X26.252 Y30.009
Z1
G1 Z-0.6 F300
X26.258 Y30.008 F1000
X31.409
X31.589 Y30.05
X31.592 Y30.063
X31.414 Y30.108
X26.255
X26.077 Y30.068
X26.072 Y30.053
X26.252 Y30.009
X26.258 Y30.008 F300
G2 X26.552 Z-0.3 I-0.006 K0.3
G0 Z4
X26.252 Y30.009
Z0.7
G1 Z-0.7 F300
X26.258 Y30.008 F1000
X31.409
X31.589 Y30.05
X31.592 Y30.063
X31.414 Y30.108
X26.255
X26.077 Y30.068
X26.072 Y30.053
X26.252 Y30.009
X26.258 Y30.008 F300
G2 X26.552 Z-0.4 I-0.006 K0.3
G0 Z4
X33.395 Y25.758
Z1.3
G1 Z-0.3 F300
X33.4 F1000
X33.583 Y25.798
X33.591 Y25.804
X33.587 Y25.817
X33.4 Y25.858
X28.255
X28.08 Y25.818
X28.072 Y25.812
X28.071 Y25.805
X28.176 Y25.775
X28.248 Y25.759
X33.395 Y25.758
X33.4 F300
X33.466 Y25.772 Z-0.291
X33.528 Y25.786 Z-0.267
X33.583 Y25.798 Z-0.23
X33.591 Y25.804 Z-0.221
X33.587 Y25.817 Z-0.208
X33.552 Y25.824 Z-0.163
X33.527 Y25.83 Z-0.112
X33.511 Y25.834 Z-0.057
X33.505 Y25.835 Z0
G0 Z4
X33.395 Y25.758
Z1
G1 Z-0.6 F300
X33.4 F1000
X33.583 Y25.798
X33.591 Y25.804
X33.587 Y25.817
X33.4 Y25.858
X28.255
X28.08 Y25.818
X28.072 Y25.812
X28.071 Y25.805
X28.176 Y25.775
X28.248 Y25.759
X33.395 Y25.758
X33.4 F300
X33.466 Y25.772 Z-0.591
X33.528 Y25.786 Z-0.567
X33.583 Y25.798 Z-0.53
X33.591 Y25.804 Z-0.521
X33.587 Y25.817 Z-0.508
X33.552 Y25.824 Z-0.463
X33.527 Y25.83 Z-0.412
X33.511 Y25.834 Z-0.357
X33.505 Y25.835 Z-0.3
G0 Z4
X33.395 Y25.758
Z0.7
G1 Z-0.7 F300
X33.4 F1000
X33.583 Y25.798
X33.591 Y25.804
X33.587 Y25.817
X33.4 Y25.858
X28.255
X28.08 Y25.818
X28.072 Y25.812
X28.071 Y25.805
X28.176 Y25.775
X28.248 Y25.759
X33.395 Y25.758
X33.4 F300
X33.466 Y25.772 Z-0.691
X33.528 Y25.786 Z-0.667
X33.583 Y25.798 Z-0.63
X33.591 Y25.804 Z-0.621
X33.587 Y25.817 Z-0.608
X33.552 Y25.824 Z-0.563
X33.527 Y25.83 Z-0.512
X33.511 Y25.834 Z-0.457
X33.505 Y25.835 Z-0.4
G0 Z4
X26.264 Y21.508
Z1.3
G1 Z-0.3 F300
X31.407 F1000
X31.586 Y21.55
X31.591 Y21.554
Y21.563
X31.407 Y21.608
X26.258
X26.076 Y21.567
X26.072 Y21.553
X26.08 Y21.548
X26.258 Y21.508
X26.264
G2 X26.564 Z0 I0 K0.3 F300
G0 Z4
X26.264
Z1
G1 Z-0.6 F300
X31.407 F1000
X31.586 Y21.55
X31.591 Y21.554
Y21.563
X31.407 Y21.608
X26.258
X26.076 Y21.567
X26.072 Y21.553
X26.08 Y21.548
X26.258 Y21.508
X26.264
G2 X26.564 Z-0.3 I0 K0.3 F300
G0 Z4
X26.264
Z0.7
G1 Z-0.7 F300
X31.407 F1000
X31.586 Y21.55
X31.591 Y21.554
Y21.563
X31.407 Y21.608
X26.258
X26.076 Y21.567
X26.072 Y21.553
X26.08 Y21.548
X26.258 Y21.508
X26.264
G2 X26.564 Z-0.4 I0 K0.3 F300
G0 Z4
X30.386 Y17.258
Z1.3
G1 Z-0.3 F300
X30.393 F1000
X30.59 Y17.301
X30.593 Y17.306
X30.59 Y17.314
X30.391 Y17.358
X25.241 Y17.355
X25.074 Y17.316
X25.073 Y17.302
X25.239 Y17.261
X30.386 Y17.258
X30.393 F300
X30.447 Y17.27 Z-0.293
X30.499 Y17.281 Z-0.277
X30.548 Y17.291 Z-0.25
X30.59 Y17.301 Z-0.215
X30.593 Y17.306 Z-0.21
X30.59 Y17.314 Z-0.2
X30.558 Y17.321 Z-0.156
X30.534 Y17.326 Z-0.107
X30.52 Y17.33 Z-0.054
X30.515 Y17.331 Z0
G0 Z4
X30.386 Y17.258
Z1
G1 Z-0.6 F300
X30.393 F1000
X30.59 Y17.301
X30.593 Y17.306
X30.59 Y17.314
X30.391 Y17.358
X25.241 Y17.355
X25.074 Y17.316
X25.073 Y17.302
X25.239 Y17.261
X30.386 Y17.258
X30.393 F300
X30.447 Y17.27 Z-0.593
X30.499 Y17.281 Z-0.577
X30.548 Y17.291 Z-0.55
X30.59 Y17.301 Z-0.515
X30.593 Y17.306 Z-0.51
X30.59 Y17.314 Z-0.5
X30.558 Y17.321 Z-0.456
X30.534 Y17.326 Z-0.407
X30.52 Y17.33 Z-0.354
X30.515 Y17.331 Z-0.3
G0 Z4
X30.386 Y17.258
Z0.7
G1 Z-0.7 F300
X30.393 F1000
X30.59 Y17.301
X30.593 Y17.306
X30.59 Y17.314
X30.391 Y17.358
X25.241 Y17.355
X25.074 Y17.316
X25.073 Y17.302
X25.239 Y17.261
X30.386 Y17.258
X30.393 F300
X30.447 Y17.27 Z-0.693
X30.499 Y17.281 Z-0.677
X30.548 Y17.291 Z-0.65
X30.59 Y17.301 Z-0.615
X30.593 Y17.306 Z-0.61
X30.59 Y17.314 Z-0.6
X30.558 Y17.321 Z-0.556
X30.534 Y17.326 Z-0.507
X30.52 Y17.33 Z-0.454
X30.515 Y17.331 Z-0.4
G0 Z4
X23.26 Y13.108
Z1.3
G1 Z-0.3 F300
X23.254 F1000
X23.076 Y13.066
X23.071 Y13.055
X23.079 Y13.047
X23.251 Y13.008
X28.401
X28.588 Y13.05
X28.591 Y13.062
X28.366 Y13.105
X23.26 Y13.108
X23.254 F300
X23.19 Y13.093 Z-0.291
X23.13 Y13.079 Z-0.269
X23.076 Y13.066 Z-0.233
X23.071 Y13.055 Z-0.223
X23.079 Y13.047 Z-0.212
X23.116 Y13.039 Z-0.167
X23.143 Y13.033 Z-0.115
X23.16 Y13.029 Z-0.059
X23.165 Y13.028 Z0
G0 Z4
X23.26 Y13.108
Z1
G1 Z-0.6 F300
X23.254 F1000
X23.076 Y13.066
X23.071 Y13.055
X23.079 Y13.047
X23.251 Y13.008
X28.401
X28.588 Y13.05
X28.591 Y13.062
X28.366 Y13.105
X23.26 Y13.108
X23.254 F300
X23.19 Y13.093 Z-0.591
X23.13 Y13.079 Z-0.569
X23.076 Y13.066 Z-0.533
X23.071 Y13.055 Z-0.523
X23.079 Y13.047 Z-0.512
X23.116 Y13.039 Z-0.467
X23.143 Y13.033 Z-0.415
X23.16 Y13.029 Z-0.359
X23.165 Y13.028 Z-0.3
G0 Z4
X23.26 Y13.108
Z0.7
G1 Z-0.7 F300
X23.254 F1000
X23.076 Y13.066
X23.071 Y13.055
X23.079 Y13.047
X23.251 Y13.008
X28.401
X28.588 Y13.05
X28.591 Y13.062
X28.366 Y13.105
X23.26 Y13.108
X23.254 F300
X23.19 Y13.093 Z-0.691
X23.13 Y13.079 Z-0.669
X23.076 Y13.066 Z-0.633
X23.071 Y13.055 Z-0.623
X23.079 Y13.047 Z-0.612
X23.116 Y13.039 Z-0.567
X23.143 Y13.033 Z-0.515
X23.16 Y13.029 Z-0.459
X23.165 Y13.028 Z-0.4
G0 Z4
X15.698 Y5.255
Z0.315
S15000
G1 X15.165 Z0.289 F300
G17 G3 X15.165 Y4.955 I0 J-0.15
G1 X17.715 Z0.162
G3 X17.715 Y5.255 I0 J0.15
G1 X15.165 Z0.035
G3 X15.165 Y4.955 I0 J-0.15
G1 X17.715 Z-0.091
G3 X17.715 Y5.255 I0 J0.15
G1 X15.165 Z-0.218
G3 X15.165 Y4.955 I0 J-0.15
G1 X16.818 Z-0.3
G2 X17.063 Y4.885 I0 J-0.459
G1 X17.33 Y4.717
G3 X18.034 Y5.105 I0.245 J0.389
S500
G1 Y46.07 F1000
X17.229
X17.228 Y7.51
X17.224 Y7.429
X17.211 Y7.349
X17.175 Y7.187
X17.152 Y7.104
X17.119 Y7.024
X17.041 Y6.862
X16.998 Y6.785
X16.947 Y6.713
X16.837 Y6.578
X16.78 Y6.516
X16.717 Y6.461
X16.592 Y6.363
X16.522 Y6.314
X16.448 Y6.274
X16.287 Y6.199
X16.207 Y6.167
X16.124 Y6.144
X15.963 Y6.11
X15.885 Y6.097
X15.807 Y6.093
X2.645 Y6.092
X2.574 Y6.095
X2.504 Y6.105
X2.343 Y6.136
X2.267 Y6.155
X2.195 Y6.181
X2.061 Y6.237
X1.996 Y6.268
X1.933 Y6.305
X1.813 Y6.386
X1.75 Y6.433
X1.692 Y6.487
X1.572 Y6.611
X1.515 Y6.676
X1.466 Y6.748
X1.377 Y6.898
X1.336 Y6.975
X1.305 Y7.057
X1.253 Y7.223
X1.235 Y7.293
X1.223 Y7.365
X1.21 Y7.48
X1.205 Y7.564
X1.208 Y46.07
X0.492
Y3.89
X18.034
Y5.105
X18.028 Y5.149
X18.009 Y5.188
X17.979 Y5.221
X17.942 Y5.244
X17.899 Y5.255
X16.698 Y5.378
X16.654 Y5.39
X16.608 Y5.402
X16.56 Y5.398
X15.958 Y5.251
G3 X15.994 Y4.955 I0.036 J-0.146
S15000
G1 X16.818 Z-0.6 F300
G2 X17.063 Y4.885 I0 J-0.459
G1 X17.33 Y4.717
G3 X18.034 Y5.105 I0.245 J0.389
S500
G1 Y46.07 F1000
X17.229
X17.228 Y7.51
X17.224 Y7.429
X17.211 Y7.349
X17.175 Y7.187
X17.152 Y7.104
X17.119 Y7.024
X17.041 Y6.862
X16.998 Y6.785
X16.947 Y6.713
X16.837 Y6.578
X16.78 Y6.516
X16.717 Y6.461
X16.592 Y6.363
X16.522 Y6.314
X16.448 Y6.274
X16.287 Y6.199
X16.207 Y6.167
X16.124 Y6.144
X15.963 Y6.11
X15.885 Y6.097
X15.807 Y6.093
X2.645 Y6.092
X2.574 Y6.095
X2.504 Y6.105
X2.343 Y6.136
X2.267 Y6.155
X2.195 Y6.181
X2.061 Y6.237
X1.996 Y6.268
X1.933 Y6.305
X1.813 Y6.386
X1.75 Y6.433
X1.692 Y6.487
X1.572 Y6.611
X1.515 Y6.676
X1.466 Y6.748
X1.377 Y6.898
X1.336 Y6.975
X1.305 Y7.057
X1.253 Y7.223
X1.235 Y7.293
X1.223 Y7.365
X1.21 Y7.48
X1.205 Y7.564
X1.208 Y46.07
X0.492
Y3.89
X18.034
Y5.105
X18.027 Y5.151
X18.006 Y5.192
X17.974 Y5.225
X17.934 Y5.247
X17.889 Y5.255
X17.078 Y5.28
X17.053 Y5.283
X17.029 Y5.29
X16.995 Y5.299
X16.96
X16.528 Y5.255
G3 X16.544 Y4.955 I0.015 J-0.149
S15000
G1 X16.818 Z-0.7 F300
G2 X17.063 Y4.885 I0 J-0.459
G1 X17.33 Y4.717
G3 X18.034 Y5.105 I0.245 J0.389
S500
G1 Y46.07 F1000
X17.229
X17.228 Y7.51
X17.224 Y7.429
X17.211 Y7.349
X17.175 Y7.187
X17.152 Y7.104
X17.119 Y7.024
X17.041 Y6.862
X16.998 Y6.785
X16.947 Y6.713
X16.837 Y6.578
X16.78 Y6.516
X16.717 Y6.461
X16.592 Y6.363
X16.522 Y6.314
X16.448 Y6.274
X16.287 Y6.199
X16.207 Y6.167
X16.124 Y6.144
X15.963 Y6.11
X15.885 Y6.097
X15.807 Y6.093
X2.645 Y6.092
X2.574 Y6.095
X2.504 Y6.105
X2.343 Y6.136
X2.267 Y6.155
X2.195 Y6.181
X2.061 Y6.237
X1.996 Y6.268
X1.933 Y6.305
X1.813 Y6.386
X1.75 Y6.433
X1.692 Y6.487
X1.572 Y6.611
X1.515 Y6.676
X1.466 Y6.748
X1.377 Y6.898
X1.336 Y6.975
X1.305 Y7.057
X1.253 Y7.223
X1.235 Y7.293
X1.223 Y7.365
X1.21 Y7.48
X1.205 Y7.564
X1.208 Y46.07
X0.492
Y3.89
X18.034
Y5.105
X18.028 Y5.149
X18.009 Y5.188
X17.979 Y5.221
X17.942 Y5.244
X17.899 Y5.255
X16.698 Y5.378
X16.654 Y5.39
X16.608 Y5.402
X16.56 Y5.398
X15.958 Y5.251
G3 X15.994 Y4.955 I0.036 J-0.146
S15000
G1 X16.818 Z-1 F300
G2 X17.063 Y4.885 I0 J-0.459
G1 X17.33 Y4.717
G3 X18.034 Y5.105 I0.245 J0.389
S500
G1 Y46.07 F1000
X17.229
X17.228 Y7.51
X17.224 Y7.429
X17.211 Y7.349
X17.175 Y7.187
X17.152 Y7.104
X17.119 Y7.024
X17.041 Y6.862
X16.998 Y6.785
X16.947 Y6.713
X16.837 Y6.578
X16.78 Y6.516
X16.717 Y6.461
X16.592 Y6.363
X16.522 Y6.314
X16.448 Y6.274
X16.287 Y6.199
X16.207 Y6.167
X16.124 Y6.144
X15.963 Y6.11
X15.885 Y6.097
X15.807 Y6.093
X2.645 Y6.092
X2.574 Y6.095
X2.504 Y6.105
X2.343 Y6.136
X2.267 Y6.155
X2.195 Y6.181
X2.061 Y6.237
X1.996 Y6.268
X1.933 Y6.305
X1.813 Y6.386
X1.75 Y6.433
X1.692 Y6.487
X1.572 Y6.611
X1.515 Y6.676
X1.466 Y6.748
X1.377 Y6.898
X1.336 Y6.975
X1.305 Y7.057
X1.253 Y7.223
X1.235 Y7.293
X1.223 Y7.365
X1.21 Y7.48
X1.205 Y7.564
X1.208 Y46.07
X0.492
Y3.89
X18.034
Y5.105
X18.027 Y5.15
X18.008 Y5.19
X17.977 Y5.223
X17.939 Y5.245
X17.895 Y5.255
X16.888 Y5.329
X16.842 Y5.34
X16.8 Y5.35
X16.758 Y5.349
X16.241 Y5.253
G3 X16.269 Y4.955 I0.027 J-0.147
S15000
G1 X16.818 Z-1.2 F300
G2 X17.063 Y4.885 I0 J-0.459
G1 X17.33 Y4.717
G3 X18.034 Y5.105 I0.245 J0.389
S500
G1 Y46.07 F1000
X17.229
X17.228 Y7.51
X17.224 Y7.429
X17.211 Y7.349
X17.175 Y7.187
X17.152 Y7.104
X17.119 Y7.024
X17.041 Y6.862
X16.998 Y6.785
X16.947 Y6.713
X16.837 Y6.578
X16.78 Y6.516
X16.717 Y6.461
X16.592 Y6.363
X16.522 Y6.314
X16.448 Y6.274
X16.287 Y6.199
X16.207 Y6.167
X16.124 Y6.144
X15.963 Y6.11
X15.885 Y6.097
X15.807 Y6.093
X2.645 Y6.092
X2.574 Y6.095
X2.504 Y6.105
X2.343 Y6.136
X2.267 Y6.155
X2.195 Y6.181
X2.061 Y6.237
X1.996 Y6.268
X1.933 Y6.305
X1.813 Y6.386
X1.75 Y6.433
X1.692 Y6.487
X1.572 Y6.611
X1.515 Y6.676
X1.466 Y6.748
X1.377 Y6.898
X1.336 Y6.975
X1.305 Y7.057
X1.253 Y7.223
X1.235 Y7.293
X1.223 Y7.365
X1.21 Y7.48
X1.205 Y7.564
X1.208 Y46.07
X0.492
Y3.89
X18.034
Y5.105
X18.03 Y5.151 Z-1.193 F300
X18.02 Y5.197 Z-1.185
X18.004 Y5.235 Z-1.164
X17.984 Y5.272 Z-1.143
X17.941 Y5.322 Z-1.076
X17.908 Y5.35 Z-0.993
X17.896 Y5.358 Z-0.9
G0 Z4
X9.582 Y42.445
Z0.315
S15000
G1 X10.494 Z0.27 F300
G3 X10.494 Y42.745 I0 J0.15
G1 X7.944 Z0.143
G3 X7.944 Y42.445 I0 J-0.15
G1 X10.494 Z0.017
G3 X10.494 Y42.745 I0 J0.15
G1 X7.944 Z-0.11
G3 X7.944 Y42.445 I0 J-0.15
G1 X10.494 Z-0.237
G3 X10.494 Y42.745 I0 J0.15
G1 X9.219 Z-0.3
X9.131 Y42.751
X9.046 Y42.769
X7.452 Y43.213
G2 X7.798 Y44.454 I0.173 J0.62
X8.133 Y43.438 I-0.173 J-0.62
S500
G1 X8.102 Y43.398 F1000
G3 X7.844 Y42.654 I0.945 J-0.745
G1 Y13.639
G3 X8.754 Y12.729 I0.91 J0
G1 X9.683
G3 X10.593 Y13.639 I0 J0.91
G1 Y43.466
G3 X10.468 Y43.924 I-0.899 J0
G2 X10.079 Y44.667 I7.082 J4.184
X9.806 Y45.46 I3.816 J1.757
X9.709 Y46.525 I3.695 J0.871
G3 X9.734 Y47.594 I-19.209 J0.98
X9.197 Y47.592 I-0.269 J-0.001
G1 Y46.23
G2 X8.94 Y44.813 I-4.039 J0.001
X8.576 Y44.074 I-3.922 J1.47
X8.133 Y43.438 I-6.274 J3.896
X7.19 Y43.029 I-0.845 J0.657
G3 X6.431 Y42.336 I-0.064 J-0.693
G1 Y12.226
G3 X7.341 Y11.316 I0.91 J0
G1 X11.096
G3 X12.007 Y12.226 I0 J0.91
G1 Y43.511
G3 X11.698 Y44.621 I-2.15 J0
G2 X11.147 Y46.603 I3.29 J1.982
G1 Y48.635
G3 X10.237 Y49.545 I-0.91 J0
G1 X8.694
G3 X7.784 Y48.635 I0 J-0.91
X7.809 Y46.622 I80.094 J-0.012
G2 X7.286 Y44.678 I-3.547 J-0.089
X7.119 Y44.433 I-2.56 J1.571
X6.934 Y44.202 I-4.765 J3.614
G3 X6.431 Y42.819 I1.647 J-1.382
G1 Y42.336
G2 X5.318 Y40.667 I-1.809 J0
G3 X4.205 Y38.997 I0.696 J-1.669
G1 Y9.09
X14.233
Y45.219
X14.133 Y45.268
X14.064 Y45.307
X13.999 Y45.353
X13.89 Y45.438
X13.832 Y45.489
X13.78 Y45.546
X13.672 Y45.675
X13.62 Y45.745
X13.576 Y45.821
X13.496 Y45.983
X13.461 Y46.062
X13.437 Y46.146
X13.398 Y46.307
X13.384 Y46.391
X13.378 Y46.476
X13.373 Y47.662
Y51.771
X5.558
X5.557 Y46.533
X5.555 Y46.474
X5.548 Y46.415
X5.522 Y46.254
X5.507 Y46.18
X5.484 Y46.108
X5.436 Y45.98
X5.408 Y45.914
X5.373 Y45.851
X5.294 Y45.723
X5.257 Y45.668
X5.215 Y45.617
X5.139 Y45.531
X5.094 Y45.485
X5.046 Y45.443
X4.933 Y45.353
X4.877 Y45.312
X4.817 Y45.277
X4.698 Y45.214
X4.63 Y45.183
X4.559 Y45.158
X4.4 Y45.111
X4.324 Y45.093
X4.247 Y45.083
X4.205 Y45.08
Y38.997
X4.212 Y38.952
X4.232 Y38.911
X4.263 Y38.878
X4.303 Y38.856
X4.348 Y38.847
X4.393 Y38.852
X8.157 Y39.838
X8.189 Y39.858
X8.216 Y39.886
X10.163 Y42.505
G3 X10.043 Y42.745 I-0.12 J0.089
S15000
G1 X9.219 Z-0.6 F300
X9.131 Y42.751
X9.046 Y42.769
X7.452 Y43.213
G2 X7.798 Y44.454 I0.173 J0.62
X8.133 Y43.438 I-0.173 J-0.62
S500
G1 X8.102 Y43.398 F1000
G3 X7.844 Y42.654 I0.945 J-0.745
G1 Y13.639
G3 X8.754 Y12.729 I0.91 J0
G1 X9.683
G3 X10.593 Y13.639 I0 J0.91
G1 Y43.466
G3 X10.468 Y43.924 I-0.899 J0
G2 X10.079 Y44.667 I7.082 J4.184
X9.806 Y45.46 I3.816 J1.757
X9.709 Y46.525 I3.695 J0.871
G3 X9.734 Y47.594 I-19.209 J0.98
X9.197 Y47.592 I-0.269 J-0.001
G1 Y46.23
G2 X8.94 Y44.813 I-4.039 J0.001
X8.576 Y44.074 I-3.922 J1.47
X8.133 Y43.438 I-6.274 J3.896
X7.19 Y43.029 I-0.845 J0.657
G3 X6.431 Y42.336 I-0.064 J-0.693
G1 Y12.226
G3 X7.341 Y11.316 I0.91 J0
G1 X11.096
G3 X12.007 Y12.226 I0 J0.91
G1 Y43.511
G3 X11.698 Y44.621 I-2.15 J0
G2 X11.147 Y46.603 I3.29 J1.982
G1 Y48.635
G3 X10.237 Y49.545 I-0.91 J0
G1 X8.694
G3 X7.784 Y48.635 I0 J-0.91
X7.809 Y46.622 I80.094 J-0.012
G2 X7.286 Y44.678 I-3.547 J-0.089
X7.119 Y44.433 I-2.56 J1.571
X6.934 Y44.202 I-4.765 J3.614
G3 X6.431 Y42.819 I1.647 J-1.382
G1 Y42.336
G2 X5.318 Y40.667 I-1.809 J0
G3 X4.205 Y38.997 I0.696 J-1.669
G1 Y9.09
X14.233
Y45.219
X14.133 Y45.268
X14.064 Y45.307
X13.999 Y45.353
X13.89 Y45.438
X13.832 Y45.489
X13.78 Y45.546
X13.672 Y45.675
X13.62 Y45.745
X13.576 Y45.821
X13.496 Y45.983
X13.461 Y46.062
X13.437 Y46.146
X13.398 Y46.307
X13.384 Y46.391
X13.378 Y46.476
X13.373 Y47.662
Y51.771
X5.558
X5.557 Y46.533
X5.555 Y46.474
X5.548 Y46.415
X5.522 Y46.254
X5.507 Y46.18
X5.484 Y46.108
X5.436 Y45.98
X5.408 Y45.914
X5.373 Y45.851
X5.294 Y45.723
X5.257 Y45.668
X5.215 Y45.617
X5.139 Y45.531
X5.094 Y45.485
X5.046 Y45.443
X4.933 Y45.353
X4.877 Y45.312
X4.817 Y45.277
X4.698 Y45.214
X4.63 Y45.183
X4.559 Y45.158
X4.4 Y45.111
X4.324 Y45.093
X4.247 Y45.083
X4.205 Y45.08
Y38.997
X4.212 Y38.951
X4.233 Y38.91
X4.266 Y38.876
X4.307 Y38.855
X4.353 Y38.847
X4.399 Y38.854
X7.781 Y39.901
X7.811 Y39.914
X7.838 Y39.934
X7.86 Y39.959
X9.617 Y42.51
G3 X9.493 Y42.745 I-0.124 J0.085
S15000
G1 X9.219 Z-0.7 F300
X9.131 Y42.751
X9.046 Y42.769
X7.452 Y43.213
G2 X7.798 Y44.454 I0.173 J0.62
X8.133 Y43.438 I-0.173 J-0.62
S500
G1 X8.102 Y43.398 F1000
G3 X7.844 Y42.654 I0.945 J-0.745
G1 Y13.639
G3 X8.754 Y12.729 I0.91 J0
G1 X9.683
G3 X10.593 Y13.639 I0 J0.91
G1 Y43.466
G3 X10.468 Y43.924 I-0.899 J0
G2 X10.079 Y44.667 I7.082 J4.184
X9.806 Y45.46 I3.816 J1.757
X9.709 Y46.525 I3.695 J0.871
G3 X9.734 Y47.594 I-19.209 J0.98
X9.197 Y47.592 I-0.269 J-0.001
G1 Y46.23
G2 X8.94 Y44.813 I-4.039 J0.001
X8.576 Y44.074 I-3.922 J1.47
X8.133 Y43.438 I-6.274 J3.896
X7.19 Y43.029 I-0.845 J0.657
G3 X6.431 Y42.336 I-0.064 J-0.693
G1 Y12.226
G3 X7.341 Y11.316 I0.91 J0
G1 X11.096
G3 X12.007 Y12.226 I0 J0.91
G1 Y43.511
G3 X11.698 Y44.621 I-2.15 J0
G2 X11.147 Y46.603 I3.29 J1.982
G1 Y48.635
G3 X10.237 Y49.545 I-0.91 J0
G1 X8.694
G3 X7.784 Y48.635 I0 J-0.91
X7.809 Y46.622 I80.094 J-0.012
G2 X7.286 Y44.678 I-3.547 J-0.089
X7.119 Y44.433 I-2.56 J1.571
X6.934 Y44.202 I-4.765 J3.614
G3 X6.431 Y42.819 I1.647 J-1.382
G1 Y42.336
G2 X5.318 Y40.667 I-1.809 J0
G3 X4.205 Y38.997 I0.696 J-1.669
G1 Y9.09
X14.233
Y45.219
X14.133 Y45.268
X14.064 Y45.307
X13.999 Y45.353
X13.89 Y45.438
X13.832 Y45.489
X13.78 Y45.546
X13.672 Y45.675
X13.62 Y45.745
X13.576 Y45.821
X13.496 Y45.983
X13.461 Y46.062
X13.437 Y46.146
X13.398 Y46.307
X13.384 Y46.391
X13.378 Y46.476
X13.373 Y47.662
Y51.771
X5.558
X5.557 Y46.533
X5.555 Y46.474
X5.548 Y46.415
X5.522 Y46.254
X5.507 Y46.18
X5.484 Y46.108
X5.436 Y45.98
X5.408 Y45.914
X5.373 Y45.851
X5.294 Y45.723
X5.257 Y45.668
X5.215 Y45.617
X5.139 Y45.531
X5.094 Y45.485
X5.046 Y45.443
X4.933 Y45.353
X4.877 Y45.312
X4.817 Y45.277
X4.698 Y45.214
X4.63 Y45.183
X4.559 Y45.158
X4.4 Y45.111
X4.324 Y45.093
X4.247 Y45.083
X4.205 Y45.08
Y38.997
X4.212 Y38.952
X4.232 Y38.911
X4.263 Y38.878
X4.303 Y38.856
X4.348 Y38.847
X4.393 Y38.852
X8.157 Y39.838
X8.189 Y39.858
X8.216 Y39.886
X10.163 Y42.505
G3 X10.043 Y42.745 I-0.12 J0.089
S15000
G1 X9.219 Z-1 F300
X9.131 Y42.751
X9.046 Y42.769
X7.452 Y43.213
G2 X7.798 Y44.454 I0.173 J0.62
X8.133 Y43.438 I-0.173 J-0.62
S500
G1 X8.102 Y43.398 F1000
G3 X7.844 Y42.654 I0.945 J-0.745
G1 Y13.639
G3 X8.754 Y12.729 I0.91 J0
G1 X9.683
G3 X10.593 Y13.639 I0 J0.91
G1 Y43.466
G3 X10.468 Y43.924 I-0.899 J0
G2 X10.079 Y44.667 I7.082 J4.184
X9.806 Y45.46 I3.816 J1.757
X9.709 Y46.525 I3.695 J0.871
G3 X9.734 Y47.594 I-19.209 J0.98
X9.197 Y47.592 I-0.269 J-0.001
G1 Y46.23
G2 X8.94 Y44.813 I-4.039 J0.001
X8.576 Y44.074 I-3.922 J1.47
X8.133 Y43.438 I-6.274 J3.896
X7.19 Y43.029 I-0.845 J0.657
G3 X6.431 Y42.336 I-0.064 J-0.693
G1 Y12.226
G3 X7.341 Y11.316 I0.91 J0
G1 X11.096
G3 X12.007 Y12.226 I0 J0.91
G1 Y43.511
G3 X11.698 Y44.621 I-2.15 J0
G2 X11.147 Y46.603 I3.29 J1.982
G1 Y48.635
G3 X10.237 Y49.545 I-0.91 J0
G1 X8.694
G3 X7.784 Y48.635 I0 J-0.91
X7.809 Y46.622 I80.094 J-0.012
G2 X7.286 Y44.678 I-3.547 J-0.089
X7.119 Y44.433 I-2.56 J1.571
X6.934 Y44.202 I-4.765 J3.614
G3 X6.431 Y42.819 I1.647 J-1.382
G1 Y42.336
G2 X5.318 Y40.667 I-1.809 J0
G3 X4.205 Y38.997 I0.696 J-1.669
G1 Y9.09
X14.233
Y45.219
X14.133 Y45.268
X14.064 Y45.307
X13.999 Y45.353
X13.89 Y45.438
X13.832 Y45.489
X13.78 Y45.546
X13.672 Y45.675
X13.62 Y45.745
X13.576 Y45.821
X13.496 Y45.983
X13.461 Y46.062
X13.437 Y46.146
X13.398 Y46.307
X13.384 Y46.391
X13.378 Y46.476
X13.373 Y47.662
Y51.771
X5.558
X5.557 Y46.533
X5.555 Y46.474
X5.548 Y46.415
X5.522 Y46.254
X5.507 Y46.18
X5.484 Y46.108
X5.436 Y45.98
X5.408 Y45.914
X5.373 Y45.851
X5.294 Y45.723
X5.257 Y45.668
X5.215 Y45.617
X5.139 Y45.531
X5.094 Y45.485
X5.046 Y45.443
X4.933 Y45.353
X4.877 Y45.312
X4.817 Y45.277
X4.698 Y45.214
X4.63 Y45.183
X4.559 Y45.158
X4.4 Y45.111
X4.324 Y45.093
X4.247 Y45.083
X4.205 Y45.08
Y38.997
X4.212 Y38.952
X4.233 Y38.911
X4.265 Y38.877
X4.305 Y38.856
X4.35 Y38.847
X4.396 Y38.853
X7.957 Y39.866
X7.988 Y39.879
X8.015 Y39.898
X8.038 Y39.923
X9.89 Y42.507
G3 X9.768 Y42.745 I-0.122 J0.087
S15000
G1 X9.219 Z-1.2 F300
X9.131 Y42.751
X9.046 Y42.769
X7.452 Y43.213
G2 X7.798 Y44.454 I0.173 J0.62
X8.133 Y43.438 I-0.173 J-0.62
S500
G1 X8.102 Y43.398 F1000
G3 X7.844 Y42.654 I0.945 J-0.745
G1 Y13.639
G3 X8.754 Y12.729 I0.91 J0
G1 X9.683
G3 X10.593 Y13.639 I0 J0.91
G1 Y43.466
G3 X10.468 Y43.924 I-0.899 J0
G2 X10.079 Y44.667 I7.082 J4.184
X9.806 Y45.46 I3.816 J1.757
X9.709 Y46.525 I3.695 J0.871
G3 X9.734 Y47.594 I-19.209 J0.98
X9.197 Y47.592 I-0.269 J-0.001
G1 Y46.23
G2 X8.94 Y44.813 I-4.039 J0.001
X8.576 Y44.074 I-3.922 J1.47
X8.133 Y43.438 I-6.274 J3.896
X7.19 Y43.029 I-0.845 J0.657
G3 X6.431 Y42.336 I-0.064 J-0.693
G1 Y12.226
G3 X7.341 Y11.316 I0.91 J0
G1 X11.096
G3 X12.007 Y12.226 I0 J0.91
G1 Y43.511
G3 X11.698 Y44.621 I-2.15 J0
G2 X11.147 Y46.603 I3.29 J1.982
G1 Y48.635
G3 X10.237 Y49.545 I-0.91 J0
G1 X8.694
G3 X7.784 Y48.635 I0 J-0.91
X7.809 Y46.622 I80.094 J-0.012
G2 X7.286 Y44.678 I-3.547 J-0.089
X7.119 Y44.433 I-2.56 J1.571
X6.934 Y44.202 I-4.765 J3.614
G3 X6.431 Y42.819 I1.647 J-1.382
G1 Y42.336
G2 X5.318 Y40.667 I-1.809 J0
G3 X4.205 Y38.997 I0.696 J-1.669
G1 Y9.09
X14.233
Y45.219
X14.133 Y45.268
X14.064 Y45.307
X13.999 Y45.353
X13.89 Y45.438
X13.832 Y45.489
X13.78 Y45.546
X13.672 Y45.675
X13.62 Y45.745
X13.576 Y45.821
X13.496 Y45.983
X13.461 Y46.062
X13.437 Y46.146
X13.398 Y46.307
X13.384 Y46.391
X13.378 Y46.476
X13.373 Y47.662
Y51.771
X5.558
X5.557 Y46.533
X5.555 Y46.474
X5.548 Y46.415
X5.522 Y46.254
X5.507 Y46.18
X5.484 Y46.108
X5.436 Y45.98
X5.408 Y45.914
X5.373 Y45.851
X5.294 Y45.723
X5.257 Y45.668
X5.215 Y45.617
X5.139 Y45.531
X5.094 Y45.485
X5.046 Y45.443
X4.933 Y45.353
X4.877 Y45.312
X4.817 Y45.277
X4.698 Y45.214
X4.63 Y45.183
X4.559 Y45.158
X4.4 Y45.111
X4.324 Y45.093
X4.247 Y45.083
X4.205 Y45.08
Y38.997
X4.209 Y38.951 Z-1.193 F300
X4.219 Y38.906 Z-1.185
X4.235 Y38.867 Z-1.164
X4.255 Y38.831 Z-1.143
X4.298 Y38.78 Z-1.076
X4.331 Y38.753 Z-0.993
X4.343 Y38.745 Z-0.9
G0 Z4
X8.856 Y14.253
Z-0.885
S15000
G1 X7.944 Z-0.93 F300
G3 X7.944 Y13.953 I0 J-0.15
G1 X10.494 Z-1.057
G3 X10.494 Y14.253 I0 J0.15
G1 X7.944 Z-1.183
G3 X7.944 Y13.953 I0 J-0.15
G1 X10.494 Z-1.31
G3 X10.494 Y14.253 I0 J0.15
G1 X7.944 Z-1.437
G3 X7.944 Y13.953 I0 J-0.15
G1 X9.219 Z-1.5
G3 X9.518 Y14.022 I0 J0.691
G1 X10.985 Y14.727
G2 X11.584 Y13.48 I0.299 J-0.623
X10.593 Y14.103 I-0.299 J0.623
S500
G1 Y43.466 F1000
G3 X10.468 Y43.924 I-0.899 J0
G2 X10.079 Y44.667 I7.082 J4.185
X9.806 Y45.46 I3.816 J1.757
X9.709 Y46.525 I3.695 J0.871
G3 X9.734 Y47.594 I-19.221 J0.98
X9.197 Y47.592 I-0.269 J-0.001
G1 Y46.23
G2 X8.94 Y44.813 I-4.039 J0.001
X8.576 Y44.074 I-3.922 J1.47
X8.102 Y43.398 I-6.274 J3.896
G3 X7.844 Y42.654 I0.945 J-0.745
G1 Y13.639
G3 X8.754 Y12.729 I0.91 J0
G1 X9.683
G3 X10.593 Y13.639 I0 J0.91
G1 Y14.103
G2 X11.3 Y15.163 I1.148 J0
G3 X12.007 Y16.223 I-0.442 J1.06
G1 Y43.511
G3 X11.698 Y44.621 I-2.15 J0
G2 X11.147 Y46.603 I3.29 J1.982
G1 Y48.635
G3 X10.237 Y49.545 I-0.91 J0
G1 X8.694
G3 X7.784 Y48.635 I0 J-0.91
X7.809 Y46.622 I80.094 J-0.012
G2 X7.286 Y44.678 I-3.547 J-0.089
X7.119 Y44.433 I-2.56 J1.571
X6.934 Y44.202 I-4.765 J3.614
G3 X6.431 Y42.819 I1.647 J-1.382
G1 Y12.226
G3 X7.341 Y11.316 I0.91 J0
G1 X11.096
G3 X12.007 Y12.226 I0 J0.91
G1 Y16.223
G2 X13.12 Y17.893 I1.809 J0
G3 X14.233 Y19.562 I-0.696 J1.669
G1 Y45.219
X14.133 Y45.268
X14.064 Y45.307
X13.999 Y45.353
X13.89 Y45.438
X13.832 Y45.489
X13.78 Y45.546
X13.672 Y45.675
X13.62 Y45.745
X13.576 Y45.821
X13.496 Y45.983
X13.461 Y46.062
X13.437 Y46.146
X13.398 Y46.307
X13.384 Y46.391
X13.378 Y46.476
X13.373 Y47.662
Y51.771
X5.558
X5.557 Y46.533
X5.555 Y46.474
X5.548 Y46.415
X5.522 Y46.254
X5.507 Y46.18
X5.484 Y46.108
X5.436 Y45.98
X5.408 Y45.914
X5.373 Y45.851
X5.294 Y45.723
X5.257 Y45.668
X5.215 Y45.617
X5.139 Y45.531
X5.094 Y45.485
X5.046 Y45.443
X4.933 Y45.353
X4.877 Y45.312
X4.817 Y45.277
X4.698 Y45.214
X4.63 Y45.183
X4.559 Y45.158
X4.4 Y45.111
X4.324 Y45.093
X4.247 Y45.083
X4.205 Y45.08
Y9.09
X14.233
Y19.562
G3 X14.021 Y19.699 I-0.15 J0
G1 X10.169 Y17.971
X10.139 Y17.953
X10.114 Y17.929
X10.096 Y17.9
X8.26 Y14.17
G3 X8.394 Y13.953 I0.135 J-0.066
S15000
G1 X9.219 Z-1.8 F300
G3 X9.518 Y14.022 I0 J0.691
G1 X10.985 Y14.727
G2 X11.584 Y13.48 I0.299 J-0.623
X10.593 Y14.103 I-0.299 J0.623
S500
G1 Y43.466 F1000
G3 X10.468 Y43.924 I-0.899 J0
G2 X10.079 Y44.667 I7.082 J4.185
X9.806 Y45.46 I3.816 J1.757
X9.709 Y46.525 I3.695 J0.871
G3 X9.734 Y47.594 I-19.221 J0.98
X9.197 Y47.592 I-0.269 J-0.001
G1 Y46.23
G2 X8.94 Y44.813 I-4.039 J0.001
X8.576 Y44.074 I-3.922 J1.47
X8.102 Y43.398 I-6.274 J3.896
G3 X7.844 Y42.654 I0.945 J-0.745
G1 Y13.639
G3 X8.754 Y12.729 I0.91 J0
G1 X9.683
G3 X10.593 Y13.639 I0 J0.91
G1 Y14.103
G2 X11.3 Y15.163 I1.148 J0
G3 X12.007 Y16.223 I-0.442 J1.06
G1 Y43.511
G3 X11.698 Y44.621 I-2.15 J0
G2 X11.147 Y46.603 I3.29 J1.982
G1 Y48.635
G3 X10.237 Y49.545 I-0.91 J0
G1 X8.694
G3 X7.784 Y48.635 I0 J-0.91
X7.809 Y46.622 I80.094 J-0.012
G2 X7.286 Y44.678 I-3.547 J-0.089
X7.119 Y44.433 I-2.56 J1.571
X6.934 Y44.202 I-4.765 J3.614
G3 X6.431 Y42.819 I1.647 J-1.382
G1 Y12.226
G3 X7.341 Y11.316 I0.91 J0
G1 X11.096
G3 X12.007 Y12.226 I0 J0.91
G1 Y16.223
G2 X13.12 Y17.893 I1.809 J0
G3 X14.233 Y19.562 I-0.696 J1.669
G1 Y45.219
X14.133 Y45.268
X14.064 Y45.307
X13.999 Y45.353
X13.89 Y45.438
X13.832 Y45.489
X13.78 Y45.546
X13.672 Y45.675
X13.62 Y45.745
X13.576 Y45.821
X13.496 Y45.983
X13.461 Y46.062
X13.437 Y46.146
X13.398 Y46.307
X13.384 Y46.391
X13.378 Y46.476
X13.373 Y47.662
Y51.771
X5.558
X5.557 Y46.533
X5.555 Y46.474
X5.548 Y46.415
X5.522 Y46.254
X5.507 Y46.18
X5.484 Y46.108
X5.436 Y45.98
X5.408 Y45.914
X5.373 Y45.851
X5.294 Y45.723
X5.257 Y45.668
X5.215 Y45.617
X5.139 Y45.531
X5.094 Y45.485
X5.046 Y45.443
X4.933 Y45.353
X4.877 Y45.312
X4.817 Y45.277
X4.698 Y45.214
X4.63 Y45.183
X4.559 Y45.158
X4.4 Y45.111
X4.324 Y45.093
X4.247 Y45.083
X4.205 Y45.08
Y9.09
X14.233
Y19.562
G3 X14.018 Y19.698 I-0.15 J0
G1 X10.336 Y17.945
X10.307 Y17.927
X10.283 Y17.902
X10.265 Y17.873
X8.533 Y14.167
G3 X8.669 Y13.953 I0.136 J-0.063
S15000
G1 X9.219 Z-2 F300
G3 X9.518 Y14.022 I0 J0.691
G1 X10.985 Y14.727
G2 X11.584 Y13.48 I0.299 J-0.623
X10.593 Y14.103 I-0.299 J0.623
S500
G1 Y43.466 F1000
G3 X10.468 Y43.924 I-0.899 J0
G2 X10.079 Y44.667 I7.082 J4.185
X9.806 Y45.46 I3.816 J1.757
X9.709 Y46.525 I3.695 J0.871
G3 X9.734 Y47.594 I-19.221 J0.98
X9.197 Y47.592 I-0.269 J-0.001
G1 Y46.23
G2 X8.94 Y44.813 I-4.039 J0.001
X8.576 Y44.074 I-3.922 J1.47
X8.102 Y43.398 I-6.274 J3.896
G3 X7.844 Y42.654 I0.945 J-0.745
G1 Y13.639
G3 X8.754 Y12.729 I0.91 J0
G1 X9.683
G3 X10.593 Y13.639 I0 J0.91
G1 Y14.103
G2 X11.3 Y15.163 I1.148 J0
G3 X12.007 Y16.223 I-0.442 J1.06
G1 Y43.511
G3 X11.698 Y44.621 I-2.15 J0
G2 X11.147 Y46.603 I3.29 J1.982
G1 Y48.635
G3 X10.237 Y49.545 I-0.91 J0
G1 X8.694
G3 X7.784 Y48.635 I0 J-0.91
X7.809 Y46.622 I80.094 J-0.012
G2 X7.286 Y44.678 I-3.547 J-0.089
X7.119 Y44.433 I-2.56 J1.571
X6.934 Y44.202 I-4.765 J3.614
G3 X6.431 Y42.819 I1.647 J-1.382
G1 Y12.226
G3 X7.341 Y11.316 I0.91 J0
G1 X11.096
G3 X12.007 Y12.226 I0 J0.91
G1 Y16.223
G2 X13.12 Y17.893 I1.809 J0
G3 X14.233 Y19.562 I-0.696 J1.669
G1 Y45.219
X14.133 Y45.268
X14.064 Y45.307
X13.999 Y45.353
X13.89 Y45.438
X13.832 Y45.489
X13.78 Y45.546
X13.672 Y45.675
X13.62 Y45.745
X13.576 Y45.821
X13.496 Y45.983
X13.461 Y46.062
X13.437 Y46.146
X13.398 Y46.307
X13.384 Y46.391
X13.378 Y46.476
X13.373 Y47.662
Y51.771
X5.558
X5.557 Y46.533
X5.555 Y46.474
X5.548 Y46.415
X5.522 Y46.254
X5.507 Y46.18
X5.484 Y46.108
X5.436 Y45.98
X5.408 Y45.914
X5.373 Y45.851
X5.294 Y45.723
X5.257 Y45.668
X5.215 Y45.617
X5.139 Y45.531
X5.094 Y45.485
X5.046 Y45.443
X4.933 Y45.353
X4.877 Y45.312
X4.817 Y45.277
X4.698 Y45.214
X4.63 Y45.183
X4.559 Y45.158
X4.4 Y45.111
X4.324 Y45.093
X4.247 Y45.083
X4.205 Y45.08
Y9.09
X14.233
Y19.562
G3 X14.021 Y19.699 I-0.15 J0
G1 X10.169 Y17.971
X10.139 Y17.953
X10.114 Y17.929
X10.096 Y17.9
X8.26 Y14.17
G3 X8.394 Y13.953 I0.135 J-0.066
S15000
G1 X9.219 Z-2.3 F300
G3 X9.518 Y14.022 I0 J0.691
G1 X10.985 Y14.727
G2 X11.584 Y13.48 I0.299 J-0.623
X10.593 Y14.103 I-0.299 J0.623
S500
G1 Y43.466 F1000
G3 X10.468 Y43.924 I-0.899 J0
G2 X10.079 Y44.667 I7.082 J4.185
X9.806 Y45.46 I3.816 J1.757
X9.709 Y46.525 I3.695 J0.871
G3 X9.734 Y47.594 I-19.221 J0.98
X9.197 Y47.592 I-0.269 J-0.001
G1 Y46.23
G2 X8.94 Y44.813 I-4.039 J0.001
X8.576 Y44.074 I-3.922 J1.47
X8.102 Y43.398 I-6.274 J3.896
G3 X7.844 Y42.654 I0.945 J-0.745
G1 Y13.639
G3 X8.754 Y12.729 I0.91 J0
G1 X9.683
G3 X10.593 Y13.639 I0 J0.91
G1 Y14.103
G2 X11.3 Y15.163 I1.148 J0
G3 X12.007 Y16.223 I-0.442 J1.06
G1 Y43.511
G3 X11.698 Y44.621 I-2.15 J0
G2 X11.147 Y46.603 I3.29 J1.982
G1 Y48.635
G3 X10.237 Y49.545 I-0.91 J0
G1 X8.694
G3 X7.784 Y48.635 I0 J-0.91
X7.809 Y46.622 I80.094 J-0.012
G2 X7.286 Y44.678 I-3.547 J-0.089
X7.119 Y44.433 I-2.56 J1.571
X6.934 Y44.202 I-4.765 J3.614
G3 X6.431 Y42.819 I1.647 J-1.382
G1 Y12.226
G3 X7.341 Y11.316 I0.91 J0
G1 X11.096
G3 X12.007 Y12.226 I0 J0.91
G1 Y16.223
G2 X13.12 Y17.893 I1.809 J0
G3 X14.233 Y19.562 I-0.696 J1.669
G1 Y45.219
X14.133 Y45.268
X14.064 Y45.307
X13.999 Y45.353
X13.89 Y45.438
X13.832 Y45.489
X13.78 Y45.546
X13.672 Y45.675
X13.62 Y45.745
X13.576 Y45.821
X13.496 Y45.983
X13.461 Y46.062
X13.437 Y46.146
X13.398 Y46.307
X13.384 Y46.391
X13.378 Y46.476
X13.373 Y47.662
Y51.771
X5.558
X5.557 Y46.533
X5.555 Y46.474
X5.548 Y46.415
X5.522 Y46.254
X5.507 Y46.18
X5.484 Y46.108
X5.436 Y45.98
X5.408 Y45.914
X5.373 Y45.851
X5.294 Y45.723
X5.257 Y45.668
X5.215 Y45.617
X5.139 Y45.531
X5.094 Y45.485
X5.046 Y45.443
X4.933 Y45.353
X4.877 Y45.312
X4.817 Y45.277
X4.698 Y45.214
X4.63 Y45.183
X4.559 Y45.158
X4.4 Y45.111
X4.324 Y45.093
X4.247 Y45.083
X4.205 Y45.08
Y9.09
X14.233
Y19.562
G3 X14.021 Y19.699 I-0.15 J0
G1 X10.169 Y17.971
X10.139 Y17.953
X10.114 Y17.929
X10.096 Y17.9
X8.26 Y14.17
G3 X8.394 Y13.953 I0.135 J-0.066
S15000
G1 X9.219 Z-2.6 F300
G3 X9.518 Y14.022 I0 J0.691
G1 X10.985 Y14.727
G2 X11.584 Y13.48 I0.299 J-0.623
X10.593 Y14.103 I-0.299 J0.623
S500
G1 Y43.466 F1000
G3 X10.468 Y43.924 I-0.899 J0
G2 X10.079 Y44.667 I7.082 J4.185
X9.806 Y45.46 I3.816 J1.757
X9.709 Y46.525 I3.695 J0.871
G3 X9.734 Y47.594 I-19.221 J0.98
X9.197 Y47.592 I-0.269 J-0.001
G1 Y46.23
G2 X8.94 Y44.813 I-4.039 J0.001
X8.576 Y44.074 I-3.922 J1.47
X8.102 Y43.398 I-6.274 J3.896
G3 X7.844 Y42.654 I0.945 J-0.745
G1 Y13.639
G3 X8.754 Y12.729 I0.91 J0
G1 X9.683
G3 X10.593 Y13.639 I0 J0.91
G1 Y14.103
G2 X11.3 Y15.163 I1.148 J0
G3 X12.007 Y16.223 I-0.442 J1.06
G1 Y43.511
G3 X11.698 Y44.621 I-2.15 J0
G2 X11.147 Y46.603 I3.29 J1.982
G1 Y48.635
G3 X10.237 Y49.545 I-0.91 J0
G1 X8.694
G3 X7.784 Y48.635 I0 J-0.91
X7.809 Y46.622 I80.094 J-0.012
G2 X7.286 Y44.678 I-3.547 J-0.089
X7.119 Y44.433 I-2.56 J1.571
X6.934 Y44.202 I-4.765 J3.614
G3 X6.431 Y42.819 I1.647 J-1.382
G1 Y12.226
G3 X7.341 Y11.316 I0.91 J0
G1 X11.096
G3 X12.007 Y12.226 I0 J0.91
G1 Y16.223
G2 X13.12 Y17.893 I1.809 J0
G3 X14.233 Y19.562 I-0.696 J1.669
G1 Y45.219
X14.133 Y45.268
X14.064 Y45.307
X13.999 Y45.353
X13.89 Y45.438
X13.832 Y45.489
X13.78 Y45.546
X13.672 Y45.675
X13.62 Y45.745
X13.576 Y45.821
X13.496 Y45.983
X13.461 Y46.062
X13.437 Y46.146
X13.398 Y46.307
X13.384 Y46.391
X13.378 Y46.476
X13.373 Y47.662
Y51.771
X5.558
X5.557 Y46.533
X5.555 Y46.474
X5.548 Y46.415
X5.522 Y46.254
X5.507 Y46.18
X5.484 Y46.108
X5.436 Y45.98
X5.408 Y45.914
X5.373 Y45.851
X5.294 Y45.723
X5.257 Y45.668
X5.215 Y45.617
X5.139 Y45.531
X5.094 Y45.485
X5.046 Y45.443
X4.933 Y45.353
X4.877 Y45.312
X4.817 Y45.277
X4.698 Y45.214
X4.63 Y45.183
X4.559 Y45.158
X4.4 Y45.111
X4.324 Y45.093
X4.247 Y45.083
X4.205 Y45.08
Y9.09
X14.233
Y19.562
G3 X14.021 Y19.699 I-0.15 J0
G1 X10.169 Y17.971
X10.139 Y17.953
X10.114 Y17.929
X10.096 Y17.9
X8.26 Y14.17
G3 X8.394 Y13.953 I0.135 J-0.066
S15000
G1 X9.219 Z-2.9 F300
G3 X9.518 Y14.022 I0 J0.691
G1 X10.985 Y14.727
G2 X11.584 Y13.48 I0.299 J-0.623
X10.593 Y14.103 I-0.299 J0.623
S500
G1 Y43.466 F1000
G3 X10.468 Y43.924 I-0.899 J0
G2 X10.079 Y44.667 I7.082 J4.185
X9.806 Y45.46 I3.816 J1.757
X9.709 Y46.525 I3.695 J0.871
G3 X9.734 Y47.594 I-19.221 J0.98
X9.197 Y47.592 I-0.269 J-0.001
G1 Y46.23
G2 X8.94 Y44.813 I-4.039 J0.001
X8.576 Y44.074 I-3.922 J1.47
X8.102 Y43.398 I-6.274 J3.896
G3 X7.844 Y42.654 I0.945 J-0.745
G1 Y13.639
G3 X8.754 Y12.729 I0.91 J0
G1 X9.683
G3 X10.593 Y13.639 I0 J0.91
G1 Y14.103
G2 X11.3 Y15.163 I1.148 J0
G3 X12.007 Y16.223 I-0.442 J1.06
G1 Y43.511
G3 X11.698 Y44.621 I-2.15 J0
G2 X11.147 Y46.603 I3.29 J1.982
G1 Y48.635
G3 X10.237 Y49.545 I-0.91 J0
G1 X8.694
G3 X7.784 Y48.635 I0 J-0.91
X7.809 Y46.622 I80.094 J-0.012
G2 X7.286 Y44.678 I-3.547 J-0.089
X7.119 Y44.433 I-2.56 J1.571
X6.934 Y44.202 I-4.765 J3.614
G3 X6.431 Y42.819 I1.647 J-1.382
G1 Y12.226
G3 X7.341 Y11.316 I0.91 J0
G1 X11.096
G3 X12.007 Y12.226 I0 J0.91
G1 Y16.223
G2 X13.12 Y17.893 I1.809 J0
G3 X14.233 Y19.562 I-0.696 J1.669
G1 Y45.219
X14.133 Y45.268
X14.064 Y45.307
X13.999 Y45.353
X13.89 Y45.438
X13.832 Y45.489
X13.78 Y45.546
X13.672 Y45.675
X13.62 Y45.745
X13.576 Y45.821
X13.496 Y45.983
X13.461 Y46.062
X13.437 Y46.146
X13.398 Y46.307
X13.384 Y46.391
X13.378 Y46.476
X13.373 Y47.662
Y51.771
X5.558
X5.557 Y46.533
X5.555 Y46.474
X5.548 Y46.415
X5.522 Y46.254
X5.507 Y46.18
X5.484 Y46.108
X5.436 Y45.98
X5.408 Y45.914
X5.373 Y45.851
X5.294 Y45.723
X5.257 Y45.668
X5.215 Y45.617
X5.139 Y45.531
X5.094 Y45.485
X5.046 Y45.443
X4.933 Y45.353
X4.877 Y45.312
X4.817 Y45.277
X4.698 Y45.214
X4.63 Y45.183
X4.559 Y45.158
X4.4 Y45.111
X4.324 Y45.093
X4.247 Y45.083
X4.205 Y45.08
Y9.09
X14.233
Y19.562
G3 X14.021 Y19.699 I-0.15 J0
G1 X10.169 Y17.971
X10.139 Y17.953
X10.114 Y17.929
X10.096 Y17.9
X8.26 Y14.17
G3 X8.394 Y13.953 I0.135 J-0.066
S15000
G1 X9.219 Z-3.2 F300
G3 X9.518 Y14.022 I0 J0.691
G1 X10.985 Y14.727
G2 X11.584 Y13.48 I0.299 J-0.623
X10.593 Y14.103 I-0.299 J0.623
S500
G1 Y43.466 F1000
G3 X10.468 Y43.924 I-0.899 J0
G2 X10.079 Y44.667 I7.082 J4.185
X9.806 Y45.46 I3.816 J1.757
X9.709 Y46.525 I3.695 J0.871
G3 X9.734 Y47.594 I-19.221 J0.98
X9.197 Y47.592 I-0.269 J-0.001
G1 Y46.23
G2 X8.94 Y44.813 I-4.039 J0.001
X8.576 Y44.074 I-3.922 J1.47
X8.102 Y43.398 I-6.274 J3.896
G3 X7.844 Y42.654 I0.945 J-0.745
G1 Y13.639
G3 X8.754 Y12.729 I0.91 J0
G1 X9.683
G3 X10.593 Y13.639 I0 J0.91
G1 Y14.103
G2 X11.3 Y15.163 I1.148 J0
G3 X12.007 Y16.223 I-0.442 J1.06
G1 Y43.511
G3 X11.698 Y44.621 I-2.15 J0
G2 X11.147 Y46.603 I3.29 J1.982
G1 Y48.635
G3 X10.237 Y49.545 I-0.91 J0
G1 X8.694
G3 X7.784 Y48.635 I0 J-0.91
X7.809 Y46.622 I80.094 J-0.012
G2 X7.286 Y44.678 I-3.547 J-0.089
X7.119 Y44.433 I-2.56 J1.571
X6.934 Y44.202 I-4.765 J3.614
G3 X6.431 Y42.819 I1.647 J-1.382
G1 Y12.226
G3 X7.341 Y11.316 I0.91 J0
G1 X11.096
G3 X12.007 Y12.226 I0 J0.91
G1 Y16.223
G2 X13.12 Y17.893 I1.809 J0
G3 X14.233 Y19.562 I-0.696 J1.669
G1 Y45.219
X14.133 Y45.268
X14.064 Y45.307
X13.999 Y45.353
X13.89 Y45.438
X13.832 Y45.489
X13.78 Y45.546
X13.672 Y45.675
X13.62 Y45.745
X13.576 Y45.821
X13.496 Y45.983
X13.461 Y46.062
X13.437 Y46.146
X13.398 Y46.307
X13.384 Y46.391
X13.378 Y46.476
X13.373 Y47.662
Y51.771
X5.558
X5.557 Y46.533
X5.555 Y46.474
X5.548 Y46.415
X5.522 Y46.254
X5.507 Y46.18
X5.484 Y46.108
X5.436 Y45.98
X5.408 Y45.914
X5.373 Y45.851
X5.294 Y45.723
X5.257 Y45.668
X5.215 Y45.617
X5.139 Y45.531
X5.094 Y45.485
X5.046 Y45.443
X4.933 Y45.353
X4.877 Y45.312
X4.817 Y45.277
X4.698 Y45.214
X4.63 Y45.183
X4.559 Y45.158
X4.4 Y45.111
X4.324 Y45.093
X4.247 Y45.083
X4.205 Y45.08
Y9.09
X14.233
Y19.562
X14.229 Y19.608 Z-3.193 F300
X14.218 Y19.653 Z-3.185
X14.203 Y19.692 Z-3.164
X14.182 Y19.728 Z-3.143
X14.14 Y19.779 Z-3.076
X14.107 Y19.806 Z-2.993
X14.095 Y19.815 Z-2.9
G0 Z4
X31.403 Y38.608
Z1.3
G1 Z-0.3 F300
X26.258 F1000
X26.076 Y38.567
Y38.549
X26.258 Y38.508
X31.409
X31.584 Y38.548
X31.59 Y38.553
X31.593 Y38.561
X31.587 Y38.567
X31.409 Y38.608
X31.403
G18 G3 X31.103 Z0 I0 K0.3 F300
G0 Z4
X31.403
Z1
G1 Z-0.6 F300
X26.258 F1000
X26.076 Y38.567
Y38.549
X26.258 Y38.508
X31.409
X31.584 Y38.548
X31.59 Y38.553
X31.593 Y38.561
X31.587 Y38.567
X31.409 Y38.608
X31.403
G3 X31.103 Z-0.3 I0 K0.3 F300
G0 Z4
X31.403
Z0.7
G1 Z-0.7 F300
X26.258 F1000
X26.076 Y38.567
Y38.549
X26.258 Y38.508
X31.409
X31.584 Y38.548
X31.59 Y38.553
X31.593 Y38.561
X31.587 Y38.567
X31.409 Y38.608
X31.403
G3 X31.103 Z-0.4 I0 K0.3 F300
G0 Z4
X28.261 Y42.759
Z1.3
G1 Z-0.3 F300
X28.266 Y42.758 F1000
X33.42 Y42.76
X33.583 Y42.797
X33.593 Y42.805
Y42.811
X33.591 Y42.815
X33.399 Y42.858
X28.248 Y42.857
X28.077 Y42.818
X28.073 Y42.815
Y42.802
X28.261 Y42.759
X28.266 Y42.758 F300
X28.332 Z-0.291
X28.395 Z-0.269
X28.45 Z-0.233
X28.497 Z-0.185
X28.532 Z-0.129
X28.553 Z-0.066
X28.561 Z0
G0 Z4
X28.261 Y42.759
Z1
G1 Z-0.6 F300
X28.266 Y42.758 F1000
X33.42 Y42.76
X33.583 Y42.797
X33.593 Y42.805
Y42.811
X33.591 Y42.815
X33.399 Y42.858
X28.248 Y42.857
X28.077 Y42.818
X28.073 Y42.815
Y42.802
X28.261 Y42.759
X28.266 Y42.758 F300
X28.332 Z-0.591
X28.395 Z-0.569
X28.45 Z-0.533
X28.497 Z-0.485
X28.532 Z-0.429
X28.553 Z-0.366
X28.561 Z-0.3
G0 Z4
X28.261 Y42.759
Z0.7
G1 Z-0.7 F300
X28.266 Y42.758 F1000
X33.42 Y42.76
X33.583 Y42.797
X33.593 Y42.805
Y42.811
X33.591 Y42.815
X33.399 Y42.858
X28.248 Y42.857
X28.077 Y42.818
X28.073 Y42.815
Y42.802
X28.261 Y42.759
X28.266 Y42.758 F300
X28.332 Z-0.691
X28.395 Z-0.669
X28.45 Z-0.633
X28.497 Z-0.585
X28.532 Z-0.529
X28.553 Z-0.466
X28.561 Z-0.4
G0 Z4
X31.404 Y47.108
Z1.3
G1 Z-0.3 F300
X26.258 F1000
X26.077 Y47.067
X26.073 Y47.064
X26.075 Y47.049
X26.258 Y47.008
X31.41
X31.587 Y47.048
X31.593 Y47.059
X31.581 Y47.069
X31.41 Y47.108
X31.404
G3 X31.104 Z0 I0 K0.3 F300
G0 Z4
X31.404
Z1
G1 Z-0.6 F300
X26.258 F1000
X26.077 Y47.067
X26.073 Y47.064
X26.075 Y47.049
X26.258 Y47.008
X31.41
X31.587 Y47.048
X31.593 Y47.059
X31.581 Y47.069
X31.41 Y47.108
X31.404
G3 X31.104 Z-0.3 I0 K0.3 F300
G0 Z4
X31.404
Z0.7
G1 Z-0.7 F300
X26.258 F1000
X26.077 Y47.067
X26.073 Y47.064
X26.075 Y47.049
X26.258 Y47.008
X31.41
X31.587 Y47.048
X31.593 Y47.059
X31.581 Y47.069
X31.41 Y47.108
X31.404
G3 X31.104 Z-0.4 I0 K0.3 F300
G0 Z4
X33.405 Y34.259
Z1.3
G1 Z-0.3 F300
X33.585 Y34.299 F1000
X33.593 Y34.305
X33.581 Y34.318
X33.4 Y34.358
X28.248 Y34.357
X28.077 Y34.318
X28.073 Y34.315
Y34.302
X28.078 Y34.298
X28.248 Y34.259
X33.4 Y34.258
X33.405 Y34.259
X33.469 Y34.273 Z-0.293 F300
X33.53 Y34.287 Z-0.272
X33.585 Y34.299 Z-0.237
X33.593 Y34.305 Z-0.229
X33.581 Y34.318 Z-0.213
X33.545 Y34.326 Z-0.167
X33.517 Y34.332 Z-0.115
X33.5 Y34.336 Z-0.059
X33.495 Y34.337 Z0
G0 Z4
X33.405 Y34.259
Z1
G1 Z-0.6 F300
X33.585 Y34.299 F1000
X33.593 Y34.305
X33.581 Y34.318
X33.4 Y34.358
X28.248 Y34.357
X28.077 Y34.318
X28.073 Y34.315
Y34.302
X28.078 Y34.298
X28.248 Y34.259
X33.4 Y34.258
X33.405 Y34.259
X33.469 Y34.273 Z-0.593 F300
X33.53 Y34.287 Z-0.572
X33.585 Y34.299 Z-0.537
X33.593 Y34.305 Z-0.529
X33.581 Y34.318 Z-0.513
X33.545 Y34.326 Z-0.467
X33.517 Y34.332 Z-0.415
X33.5 Y34.336 Z-0.359
X33.495 Y34.337 Z-0.3
G0 Z4
X33.405 Y34.259
Z0.7
G1 Z-0.7 F300
X33.585 Y34.299 F1000
X33.593 Y34.305
X33.581 Y34.318
X33.4 Y34.358
X28.248 Y34.357
X28.077 Y34.318
X28.073 Y34.315
Y34.302
X28.078 Y34.298
X28.248 Y34.259
X33.4 Y34.258
X33.405 Y34.259
X33.469 Y34.273 Z-0.693 F300
X33.53 Y34.287 Z-0.672
X33.585 Y34.299 Z-0.637
X33.593 Y34.305 Z-0.629
X33.581 Y34.318 Z-0.613
X33.545 Y34.326 Z-0.567
X33.517 Y34.332 Z-0.515
X33.5 Y34.336 Z-0.459
X33.495 Y34.337 Z-0.4
G0 Z6
G17
M9
M5
M30
