(1001)
(T1  D=3 CR=0 - ZMIN=-7.7 - flat end mill)
G90 G94
G17
G21

(2D Contour3)
T1
S500 M3
G54
M8
G0 X16.03 Y54.771
Z15
Z5
G1 Z1.3 F300
Z-0.3
X26.48 F1000
G2 X32.52 Y50.671 I0 J-6.5
G1 X32.562 Y50.551
X32.768 Y49.868
G2 X34.632 Y47.058 I-1.186 J-2.81
X34.343 Y45.762 I-3.05 J0
X34.343 Y39.854 I-0.761 J-2.954
X34.632 Y38.558 I-2.761 J-1.296
X34.343 Y37.262 I-3.05 J0
X34.343 Y31.354 I-0.761 J-2.954
X34.632 Y30.058 I-2.761 J-1.296
X34.343 Y28.762 I-3.05 J0
X34.343 Y22.854 I-0.761 J-2.954
X34.632 Y21.558 I-2.761 J-1.296
X33.155 Y18.945 I-3.05 J0
X33.632 Y17.354 I-2.573 J-1.637
X31.343 Y14.354 I-3.05 J-0.046
X31.627 Y13.228 I-2.761 J-1.296
X29.973 Y10.344 I-3.045 J-0.17
G1 X29.59 Y6.513
G2 X18.091 Y-4.91 I-11.5 J0.077
G1 X1.929
G2 X-4.571 Y1.59 I0 J6.5
G1 Y48.271
G2 X1.929 Y54.771 I6.5 J0
G1 X16.03
Z-0.6 F300
X26.48 F1000
G2 X32.52 Y50.671 I0 J-6.5
G1 X32.562 Y50.551
X32.768 Y49.868
G2 X34.632 Y47.058 I-1.186 J-2.81
X34.343 Y45.762 I-3.05 J0
X34.343 Y39.854 I-0.761 J-2.954
X34.632 Y38.558 I-2.761 J-1.296
X34.343 Y37.262 I-3.05 J0
X34.343 Y31.354 I-0.761 J-2.954
X34.632 Y30.058 I-2.761 J-1.296
X34.343 Y28.762 I-3.05 J0
X34.343 Y22.854 I-0.761 J-2.954
X34.632 Y21.558 I-2.761 J-1.296
X33.155 Y18.945 I-3.05 J0
X33.632 Y17.354 I-2.573 J-1.637
X31.343 Y14.354 I-3.05 J-0.046
X31.627 Y13.228 I-2.761 J-1.296
X29.973 Y10.344 I-3.045 J-0.17
G1 X29.59 Y6.513
G2 X18.091 Y-4.91 I-11.5 J0.077
G1 X1.929
G2 X-4.571 Y1.59 I0 J6.5
G1 Y48.271
G2 X1.929 Y54.771 I6.5 J0
G1 X16.03
Z-0.9 F300
X26.48 F1000
G2 X32.52 Y50.671 I0 J-6.5
G1 X32.562 Y50.551
X32.768 Y49.868
G2 X34.632 Y47.058 I-1.186 J-2.81
X34.343 Y45.762 I-3.05 J0
X34.343 Y39.854 I-0.761 J-2.954
X34.632 Y38.558 I-2.761 J-1.296
X34.343 Y37.262 I-3.05 J0
X34.343 Y31.354 I-0.761 J-2.954
X34.632 Y30.058 I-2.761 J-1.296
X34.343 Y28.762 I-3.05 J0
X34.343 Y22.854 I-0.761 J-2.954
X34.632 Y21.558 I-2.761 J-1.296
X33.155 Y18.945 I-3.05 J0
X33.632 Y17.354 I-2.573 J-1.637
X31.343 Y14.354 I-3.05 J-0.046
X31.627 Y13.228 I-2.761 J-1.296
X29.973 Y10.344 I-3.045 J-0.17
G1 X29.59 Y6.513
G2 X18.091 Y-4.91 I-11.5 J0.077
G1 X1.929
G2 X-4.571 Y1.59 I0 J6.5
G1 Y48.271
G2 X1.929 Y54.771 I6.5 J0
G1 X16.03
Z-1.2 F300
X26.48 F1000
G2 X32.52 Y50.671 I0 J-6.5
G1 X32.562 Y50.551
X32.768 Y49.868
G2 X34.632 Y47.058 I-1.186 J-2.81
X34.343 Y45.762 I-3.05 J0
X34.343 Y39.854 I-0.761 J-2.954
X34.632 Y38.558 I-2.761 J-1.296
X34.343 Y37.262 I-3.05 J0
X34.343 Y31.354 I-0.761 J-2.954
X34.632 Y30.058 I-2.761 J-1.296
X34.343 Y28.762 I-3.05 J0
X34.343 Y22.854 I-0.761 J-2.954
X34.632 Y21.558 I-2.761 J-1.296
X33.155 Y18.945 I-3.05 J0
X33.632 Y17.354 I-2.573 J-1.637
X31.343 Y14.354 I-3.05 J-0.046
X31.627 Y13.228 I-2.761 J-1.296
X29.973 Y10.344 I-3.045 J-0.17
G1 X29.59 Y6.513
G2 X18.091 Y-4.91 I-11.5 J0.077
G1 X1.929
G2 X-4.571 Y1.59 I0 J6.5
G1 Y48.271
G2 X1.929 Y54.771 I6.5 J0
G1 X16.03
Z-1.5 F300
X26.48 F1000
G2 X32.52 Y50.671 I0 J-6.5
G1 X32.562 Y50.551
X32.768 Y49.868
G2 X34.632 Y47.058 I-1.186 J-2.81
X34.343 Y45.762 I-3.05 J0
X34.343 Y39.854 I-0.761 J-2.954
X34.632 Y38.558 I-2.761 J-1.296
X34.343 Y37.262 I-3.05 J0
X34.343 Y31.354 I-0.761 J-2.954
X34.632 Y30.058 I-2.761 J-1.296
X34.343 Y28.762 I-3.05 J0
X34.343 Y22.854 I-0.761 J-2.954
X34.632 Y21.558 I-2.761 J-1.296
X33.155 Y18.945 I-3.05 J0
X33.632 Y17.354 I-2.573 J-1.637
X31.343 Y14.354 I-3.05 J-0.046
X31.627 Y13.228 I-2.761 J-1.296
X29.973 Y10.344 I-3.045 J-0.17
G1 X29.59 Y6.513
G2 X18.091 Y-4.91 I-11.5 J0.077
G1 X1.929
G2 X-4.571 Y1.59 I0 J6.5
G1 Y48.271
G2 X1.929 Y54.771 I6.5 J0
G1 X16.03
Z-1.8 F300
X26.48 F1000
G2 X32.52 Y50.671 I0 J-6.5
G1 X32.562 Y50.551
X32.768 Y49.868
G2 X34.632 Y47.058 I-1.186 J-2.81
X34.343 Y45.762 I-3.05 J0
X34.343 Y39.854 I-0.761 J-2.954
X34.632 Y38.558 I-2.761 J-1.296
X34.343 Y37.262 I-3.05 J0
X34.343 Y31.354 I-0.761 J-2.954
X34.632 Y30.058 I-2.761 J-1.296
X34.343 Y28.762 I-3.05 J0
X34.343 Y22.854 I-0.761 J-2.954
X34.632 Y21.558 I-2.761 J-1.296
X33.155 Y18.945 I-3.05 J0
X33.632 Y17.354 I-2.573 J-1.637
X31.343 Y14.354 I-3.05 J-0.046
X31.627 Y13.228 I-2.761 J-1.296
X29.973 Y10.344 I-3.045 J-0.17
G1 X29.59 Y6.513
G2 X18.091 Y-4.91 I-11.5 J0.077
G1 X1.929
G2 X-4.571 Y1.59 I0 J6.5
G1 Y48.271
G2 X1.929 Y54.771 I6.5 J0
G1 X16.03
Z-2.1 F300
X26.48 F1000
G2 X32.52 Y50.671 I0 J-6.5
G1 X32.562 Y50.551
X32.768 Y49.868
G2 X34.632 Y47.058 I-1.186 J-2.81
X34.343 Y45.762 I-3.05 J0
X34.343 Y39.854 I-0.761 J-2.954
X34.632 Y38.558 I-2.761 J-1.296
X34.343 Y37.262 I-3.05 J0
X34.343 Y31.354 I-0.761 J-2.954
X34.632 Y30.058 I-2.761 J-1.296
X34.343 Y28.762 I-3.05 J0
X34.343 Y22.854 I-0.761 J-2.954
X34.632 Y21.558 I-2.761 J-1.296
X33.155 Y18.945 I-3.05 J0
X33.632 Y17.354 I-2.573 J-1.637
X31.343 Y14.354 I-3.05 J-0.046
X31.627 Y13.228 I-2.761 J-1.296
X29.973 Y10.344 I-3.045 J-0.17
G1 X29.59 Y6.513
G2 X18.091 Y-4.91 I-11.5 J0.077
G1 X1.929
G2 X-4.571 Y1.59 I0 J6.5
G1 Y48.271
G2 X1.929 Y54.771 I6.5 J0
G1 X16.03
Z-2.4 F300
X26.48 F1000
G2 X32.52 Y50.671 I0 J-6.5
G1 X32.562 Y50.551
X32.768 Y49.868
G2 X34.632 Y47.058 I-1.186 J-2.81
X34.343 Y45.762 I-3.05 J0
X34.343 Y39.854 I-0.761 J-2.954
X34.632 Y38.558 I-2.761 J-1.296
X34.343 Y37.262 I-3.05 J0
X34.343 Y31.354 I-0.761 J-2.954
X34.632 Y30.058 I-2.761 J-1.296
X34.343 Y28.762 I-3.05 J0
X34.343 Y22.854 I-0.761 J-2.954
X34.632 Y21.558 I-2.761 J-1.296
X33.155 Y18.945 I-3.05 J0
X33.632 Y17.354 I-2.573 J-1.637
X31.343 Y14.354 I-3.05 J-0.046
X31.627 Y13.228 I-2.761 J-1.296
X29.973 Y10.344 I-3.045 J-0.17
G1 X29.59 Y6.513
G2 X18.091 Y-4.91 I-11.5 J0.077
G1 X1.929
G2 X-4.571 Y1.59 I0 J6.5
G1 Y48.271
G2 X1.929 Y54.771 I6.5 J0
G1 X16.03
Z-2.7 F300
X26.48 F1000
G2 X32.52 Y50.671 I0 J-6.5
G1 X32.562 Y50.551
X32.768 Y49.868
G2 X34.632 Y47.058 I-1.186 J-2.81
X34.343 Y45.762 I-3.05 J0
X34.343 Y39.854 I-0.761 J-2.954
X34.632 Y38.558 I-2.761 J-1.296
X34.343 Y37.262 I-3.05 J0
X34.343 Y31.354 I-0.761 J-2.954
X34.632 Y30.058 I-2.761 J-1.296
X34.343 Y28.762 I-3.05 J0
X34.343 Y22.854 I-0.761 J-2.954
X34.632 Y21.558 I-2.761 J-1.296
X33.155 Y18.945 I-3.05 J0
X33.632 Y17.354 I-2.573 J-1.637
X31.343 Y14.354 I-3.05 J-0.046
X31.627 Y13.228 I-2.761 J-1.296
X29.973 Y10.344 I-3.045 J-0.17
G1 X29.59 Y6.513
G2 X18.091 Y-4.91 I-11.5 J0.077
G1 X1.929
G2 X-4.571 Y1.59 I0 J6.5
G1 Y48.271
G2 X1.929 Y54.771 I6.5 J0
G1 X16.03
Z-3 F300
X26.48 F1000
G2 X32.52 Y50.671 I0 J-6.5
G1 X32.562 Y50.551
X32.768 Y49.868
G2 X34.632 Y47.058 I-1.186 J-2.81
X34.343 Y45.762 I-3.05 J0
X34.343 Y39.854 I-0.761 J-2.954
X34.632 Y38.558 I-2.761 J-1.296
X34.343 Y37.262 I-3.05 J0
X34.343 Y31.354 I-0.761 J-2.954
X34.632 Y30.058 I-2.761 J-1.296
X34.343 Y28.762 I-3.05 J0
X34.343 Y22.854 I-0.761 J-2.954
X34.632 Y21.558 I-2.761 J-1.296
X33.155 Y18.945 I-3.05 J0
X33.632 Y17.354 I-2.573 J-1.637
X31.343 Y14.354 I-3.05 J-0.046
X31.627 Y13.228 I-2.761 J-1.296
X29.973 Y10.344 I-3.045 J-0.17
G1 X29.59 Y6.513
G2 X18.091 Y-4.91 I-11.5 J0.077
G1 X1.929
G2 X-4.571 Y1.59 I0 J6.5
G1 Y48.271
G2 X1.929 Y54.771 I6.5 J0
G1 X16.03
Z-3.3 F300
X26.48 F1000
G2 X32.52 Y50.671 I0 J-6.5
G1 X32.562 Y50.551
X32.768 Y49.868
G2 X34.632 Y47.058 I-1.186 J-2.81
X34.343 Y45.762 I-3.05 J0
X34.343 Y39.854 I-0.761 J-2.954
X34.632 Y38.558 I-2.761 J-1.296
X34.343 Y37.262 I-3.05 J0
X34.343 Y31.354 I-0.761 J-2.954
X34.632 Y30.058 I-2.761 J-1.296
X34.343 Y28.762 I-3.05 J0
X34.343 Y22.854 I-0.761 J-2.954
X34.632 Y21.558 I-2.761 J-1.296
X33.155 Y18.945 I-3.05 J0
X33.632 Y17.354 I-2.573 J-1.637
X31.343 Y14.354 I-3.05 J-0.046
X31.627 Y13.228 I-2.761 J-1.296
X29.973 Y10.344 I-3.045 J-0.17
G1 X29.59 Y6.513
G2 X18.091 Y-4.91 I-11.5 J0.077
G1 X1.929
G2 X-4.571 Y1.59 I0 J6.5
G1 Y48.271
G2 X1.929 Y54.771 I6.5 J0
G1 X16.03
Z-3.6 F300
X26.48 F1000
G2 X32.52 Y50.671 I0 J-6.5
G1 X32.562 Y50.551
X32.768 Y49.868
G2 X34.632 Y47.058 I-1.186 J-2.81
X34.343 Y45.762 I-3.05 J0
X34.343 Y39.854 I-0.761 J-2.954
X34.632 Y38.558 I-2.761 J-1.296
X34.343 Y37.262 I-3.05 J0
X34.343 Y31.354 I-0.761 J-2.954
X34.632 Y30.058 I-2.761 J-1.296
X34.343 Y28.762 I-3.05 J0
X34.343 Y22.854 I-0.761 J-2.954
X34.632 Y21.558 I-2.761 J-1.296
X33.155 Y18.945 I-3.05 J0
X33.632 Y17.354 I-2.573 J-1.637
X31.343 Y14.354 I-3.05 J-0.046
X31.627 Y13.228 I-2.761 J-1.296
X29.973 Y10.344 I-3.045 J-0.17
G1 X29.59 Y6.513
G2 X18.091 Y-4.91 I-11.5 J0.077
G1 X1.929
G2 X-4.571 Y1.59 I0 J6.5
G1 Y48.271
G2 X1.929 Y54.771 I6.5 J0
G1 X16.03
Z-3.9 F300
X26.48 F1000
G2 X32.52 Y50.671 I0 J-6.5
G1 X32.562 Y50.551
X32.768 Y49.868
G2 X34.632 Y47.058 I-1.186 J-2.81
X34.343 Y45.762 I-3.05 J0
X34.343 Y39.854 I-0.761 J-2.954
X34.632 Y38.558 I-2.761 J-1.296
X34.343 Y37.262 I-3.05 J0
X34.343 Y31.354 I-0.761 J-2.954
X34.632 Y30.058 I-2.761 J-1.296
X34.343 Y28.762 I-3.05 J0
X34.343 Y22.854 I-0.761 J-2.954
X34.632 Y21.558 I-2.761 J-1.296
X33.155 Y18.945 I-3.05 J0
X33.632 Y17.354 I-2.573 J-1.637
X31.343 Y14.354 I-3.05 J-0.046
X31.627 Y13.228 I-2.761 J-1.296
X29.973 Y10.344 I-3.045 J-0.17
G1 X29.59 Y6.513
G2 X18.091 Y-4.91 I-11.5 J0.077
G1 X1.929
G2 X-4.571 Y1.59 I0 J6.5
G1 Y48.271
G2 X1.929 Y54.771 I6.5 J0
G1 X16.03
Z-4.2 F300
X26.48 F1000
G2 X32.52 Y50.671 I0 J-6.5
G1 X32.562 Y50.551
X32.768 Y49.868
G2 X34.632 Y47.058 I-1.186 J-2.81
X34.343 Y45.762 I-3.05 J0
X34.343 Y39.854 I-0.761 J-2.954
X34.632 Y38.558 I-2.761 J-1.296
X34.343 Y37.262 I-3.05 J0
X34.343 Y31.354 I-0.761 J-2.954
X34.632 Y30.058 I-2.761 J-1.296
X34.343 Y28.762 I-3.05 J0
X34.343 Y22.854 I-0.761 J-2.954
X34.632 Y21.558 I-2.761 J-1.296
X33.155 Y18.945 I-3.05 J0
X33.632 Y17.354 I-2.573 J-1.637
X31.343 Y14.354 I-3.05 J-0.046
X31.627 Y13.228 I-2.761 J-1.296
X29.973 Y10.344 I-3.045 J-0.17
G1 X29.59 Y6.513
G2 X18.091 Y-4.91 I-11.5 J0.077
G1 X1.929
G2 X-4.571 Y1.59 I0 J6.5
G1 Y48.271
G2 X1.929 Y54.771 I6.5 J0
G1 X16.03
Z-4.5 F300
X26.48 F1000
G2 X32.52 Y50.671 I0 J-6.5
G1 X32.562 Y50.551
X32.768 Y49.868
G2 X34.632 Y47.058 I-1.186 J-2.81
X34.343 Y45.762 I-3.05 J0
X34.343 Y39.854 I-0.761 J-2.954
X34.632 Y38.558 I-2.761 J-1.296
X34.343 Y37.262 I-3.05 J0
X34.343 Y31.354 I-0.761 J-2.954
X34.632 Y30.058 I-2.761 J-1.296
X34.343 Y28.762 I-3.05 J0
X34.343 Y22.854 I-0.761 J-2.954
X34.632 Y21.558 I-2.761 J-1.296
X33.155 Y18.945 I-3.05 J0
X33.632 Y17.354 I-2.573 J-1.637
X31.343 Y14.354 I-3.05 J-0.046
X31.627 Y13.228 I-2.761 J-1.296
X29.973 Y10.344 I-3.045 J-0.17
G1 X29.59 Y6.513
G2 X18.091 Y-4.91 I-11.5 J0.077
G1 X1.929
G2 X-4.571 Y1.59 I0 J6.5
G1 Y48.271
G2 X1.929 Y54.771 I6.5 J0
G1 X16.03
Z-4.8 F300
X26.48 F1000
G2 X32.52 Y50.671 I0 J-6.5
G1 X32.562 Y50.551
X32.768 Y49.868
G2 X34.632 Y47.058 I-1.186 J-2.81
X34.343 Y45.762 I-3.05 J0
X34.343 Y39.854 I-0.761 J-2.954
X34.632 Y38.558 I-2.761 J-1.296
X34.343 Y37.262 I-3.05 J0
X34.343 Y31.354 I-0.761 J-2.954
X34.632 Y30.058 I-2.761 J-1.296
X34.343 Y28.762 I-3.05 J0
X34.343 Y22.854 I-0.761 J-2.954
X34.632 Y21.558 I-2.761 J-1.296
X33.155 Y18.945 I-3.05 J0
X33.632 Y17.354 I-2.573 J-1.637
X31.343 Y14.354 I-3.05 J-0.046
X31.627 Y13.228 I-2.761 J-1.296
X29.973 Y10.344 I-3.045 J-0.17
G1 X29.59 Y6.513
G2 X18.091 Y-4.91 I-11.5 J0.077
G1 X1.929
G2 X-4.571 Y1.59 I0 J6.5
G1 Y48.271
G2 X1.929 Y54.771 I6.5 J0
G1 X16.03
Z-5.1 F300
X26.48 F1000
G2 X32.52 Y50.671 I0 J-6.5
G1 X32.562 Y50.551
X32.768 Y49.868
G2 X34.632 Y47.058 I-1.186 J-2.81
X34.343 Y45.762 I-3.05 J0
X34.343 Y39.854 I-0.761 J-2.954
X34.632 Y38.558 I-2.761 J-1.296
X34.343 Y37.262 I-3.05 J0
X34.343 Y31.354 I-0.761 J-2.954
X34.632 Y30.058 I-2.761 J-1.296
X34.343 Y28.762 I-3.05 J0
X34.343 Y22.854 I-0.761 J-2.954
X34.632 Y21.558 I-2.761 J-1.296
X33.155 Y18.945 I-3.05 J0
X33.632 Y17.354 I-2.573 J-1.637
X31.343 Y14.354 I-3.05 J-0.046
X31.627 Y13.228 I-2.761 J-1.296
X29.973 Y10.344 I-3.045 J-0.17
G1 X29.59 Y6.513
G2 X18.091 Y-4.91 I-11.5 J0.077
G1 X1.929
G2 X-4.571 Y1.59 I0 J6.5
G1 Y48.271
G2 X1.929 Y54.771 I6.5 J0
G1 X16.03
Z-5.4 F300
X26.48 F1000
G2 X32.52 Y50.671 I0 J-6.5
G1 X32.562 Y50.551
X32.768 Y49.868
G2 X34.632 Y47.058 I-1.186 J-2.81
X34.343 Y45.762 I-3.05 J0
X34.343 Y39.854 I-0.761 J-2.954
X34.632 Y38.558 I-2.761 J-1.296
X34.343 Y37.262 I-3.05 J0
X34.343 Y31.354 I-0.761 J-2.954
X34.632 Y30.058 I-2.761 J-1.296
X34.343 Y28.762 I-3.05 J0
X34.343 Y22.854 I-0.761 J-2.954
X34.632 Y21.558 I-2.761 J-1.296
X33.155 Y18.945 I-3.05 J0
X33.632 Y17.354 I-2.573 J-1.637
X31.343 Y14.354 I-3.05 J-0.046
X31.627 Y13.228 I-2.761 J-1.296
X29.973 Y10.344 I-3.045 J-0.17
G1 X29.59 Y6.513
G2 X18.091 Y-4.91 I-11.5 J0.077
G1 X1.929
G2 X-4.571 Y1.59 I0 J6.5
G1 Y48.271
G2 X1.929 Y54.771 I6.5 J0
G1 X16.03
Z-5.7 F300
X26.48 F1000
G2 X32.52 Y50.671 I0 J-6.5
G1 X32.562 Y50.551
X32.768 Y49.868
G2 X34.632 Y47.058 I-1.186 J-2.81
X34.343 Y45.762 I-3.05 J0
X34.343 Y39.854 I-0.761 J-2.954
X34.632 Y38.558 I-2.761 J-1.296
X34.343 Y37.262 I-3.05 J0
X34.343 Y31.354 I-0.761 J-2.954
X34.632 Y30.058 I-2.761 J-1.296
X34.343 Y28.762 I-3.05 J0
X34.343 Y22.854 I-0.761 J-2.954
X34.632 Y21.558 I-2.761 J-1.296
X33.155 Y18.945 I-3.05 J0
X33.632 Y17.354 I-2.573 J-1.637
X31.343 Y14.354 I-3.05 J-0.046
X31.627 Y13.228 I-2.761 J-1.296
X29.973 Y10.344 I-3.045 J-0.17
G1 X29.59 Y6.513
G2 X18.091 Y-4.91 I-11.5 J0.077
G1 X1.929
G2 X-4.571 Y1.59 I0 J6.5
G1 Y48.271
G2 X1.929 Y54.771 I6.5 J0
G1 X16.03
Z-6 F300
X26.48 F1000
G2 X32.52 Y50.671 I0 J-6.5
G1 X32.562 Y50.551
X32.768 Y49.868
G2 X34.632 Y47.058 I-1.186 J-2.81
X34.343 Y45.762 I-3.05 J0
X34.343 Y39.854 I-0.761 J-2.954
X34.632 Y38.558 I-2.761 J-1.296
X34.343 Y37.262 I-3.05 J0
X34.343 Y31.354 I-0.761 J-2.954
X34.632 Y30.058 I-2.761 J-1.296
X34.343 Y28.762 I-3.05 J0
X34.343 Y22.854 I-0.761 J-2.954
X34.632 Y21.558 I-2.761 J-1.296
X33.155 Y18.945 I-3.05 J0
X33.632 Y17.354 I-2.573 J-1.637
X31.343 Y14.354 I-3.05 J-0.046
X31.627 Y13.228 I-2.761 J-1.296
X29.973 Y10.344 I-3.045 J-0.17
G1 X29.59 Y6.513
G2 X18.091 Y-4.91 I-11.5 J0.077
G1 X1.929
G2 X-4.571 Y1.59 I0 J6.5
G1 Y48.271
G2 X1.929 Y54.771 I6.5 J0
G1 X16.03
Z-6.2 F300
X16.454 F1000
Z-6.3 F300
X26.48 F1000
G2 X32.52 Y50.671 I0 J-6.5
G1 X32.562 Y50.551
X32.768 Y49.868
G2 X34.632 Y47.058 I-1.186 J-2.81
X34.343 Y45.762 I-3.05 J0
X34.343 Y39.854 I-0.761 J-2.954
X34.632 Y38.558 I-2.761 J-1.296
X34.343 Y37.262 I-3.05 J0
X34.343 Y31.354 I-0.761 J-2.954
X34.632 Y30.058 I-2.761 J-1.296
X34.343 Y28.762 I-3.05 J0
X34.343 Y22.854 I-0.761 J-2.954
X34.632 Y21.558 I-2.761 J-1.296
X33.155 Y18.945 I-3.05 J0
X33.632 Y17.354 I-2.573 J-1.637
X31.343 Y14.354 I-3.05 J-0.046
X31.627 Y13.228 I-2.761 J-1.296
X29.973 Y10.344 I-3.045 J-0.17
G1 X29.59 Y6.513
G2 X18.091 Y-4.91 I-11.5 J0.077
G1 X12.26
Z-6.2
X7.76
Z-6.3 F300
X1.929 F1000
G2 X-4.571 Y1.59 I0 J6.5
G1 Y11.01
Z-6.2
Y15.51
Z-6.3 F300
Y34.351 F1000
Z-6.2
Y38.851
Z-6.3 F300
Y48.271 F1000
G2 X1.929 Y54.771 I6.5 J0
G1 X11.954
Z-6.2
X16.03
X16.454
Z-6.6 F300
X26.48 F1000
G2 X32.52 Y50.671 I0 J-6.5
G1 X32.562 Y50.551
X32.768 Y49.868
G2 X34.632 Y47.058 I-1.186 J-2.81
X34.343 Y45.762 I-3.05 J0
X34.343 Y39.854 I-0.761 J-2.954
X34.632 Y38.558 I-2.761 J-1.296
X34.343 Y37.262 I-3.05 J0
X34.343 Y31.354 I-0.761 J-2.954
X34.632 Y30.058 I-2.761 J-1.296
X34.343 Y28.762 I-3.05 J0
X34.343 Y22.854 I-0.761 J-2.954
X34.632 Y21.558 I-2.761 J-1.296
X33.155 Y18.945 I-3.05 J0
X33.632 Y17.354 I-2.573 J-1.637
X31.343 Y14.354 I-3.05 J-0.046
X31.627 Y13.228 I-2.761 J-1.296
X29.973 Y10.344 I-3.045 J-0.17
G1 X29.59 Y6.513
G2 X18.091 Y-4.91 I-11.5 J0.077
G1 X12.26
Z-6.2
X7.76
Z-6.6 F300
X1.929 F1000
G2 X-4.571 Y1.59 I0 J6.5
G1 Y11.01
Z-6.2
Y15.51
Z-6.6 F300
Y34.351 F1000
Z-6.2
Y38.851
Z-6.6 F300
Y48.271 F1000
G2 X1.929 Y54.771 I6.5 J0
G1 X11.954
Z-6.2
X16.03
X16.454
Z-6.9 F300
X26.48 F1000
G2 X32.52 Y50.671 I0 J-6.5
G1 X32.562 Y50.551
X32.768 Y49.868
G2 X34.632 Y47.058 I-1.186 J-2.81
X34.343 Y45.762 I-3.05 J0
X34.343 Y39.854 I-0.761 J-2.954
X34.632 Y38.558 I-2.761 J-1.296
X34.343 Y37.262 I-3.05 J0
X34.343 Y31.354 I-0.761 J-2.954
X34.632 Y30.058 I-2.761 J-1.296
X34.343 Y28.762 I-3.05 J0
X34.343 Y22.854 I-0.761 J-2.954
X34.632 Y21.558 I-2.761 J-1.296
X33.155 Y18.945 I-3.05 J0
X33.632 Y17.354 I-2.573 J-1.637
X31.343 Y14.354 I-3.05 J-0.046
X31.627 Y13.228 I-2.761 J-1.296
X29.973 Y10.344 I-3.045 J-0.17
G1 X29.59 Y6.513
G2 X18.091 Y-4.91 I-11.5 J0.077
G1 X12.26
Z-6.2
X7.76
Z-6.9 F300
X1.929 F1000
G2 X-4.571 Y1.59 I0 J6.5
G1 Y11.01
Z-6.2
Y15.51
Z-6.9 F300
Y34.351 F1000
Z-6.2
Y38.851
Z-6.9 F300
Y48.271 F1000
G2 X1.929 Y54.771 I6.5 J0
G1 X11.954
Z-6.2
X16.03
X16.454
Z-7.2 F300
X26.48 F1000
G2 X32.52 Y50.671 I0 J-6.5
G1 X32.562 Y50.551
X32.768 Y49.868
G2 X34.632 Y47.058 I-1.186 J-2.81
X34.343 Y45.762 I-3.05 J0
X34.343 Y39.854 I-0.761 J-2.954
X34.632 Y38.558 I-2.761 J-1.296
X34.343 Y37.262 I-3.05 J0
X34.343 Y31.354 I-0.761 J-2.954
X34.632 Y30.058 I-2.761 J-1.296
X34.343 Y28.762 I-3.05 J0
X34.343 Y22.854 I-0.761 J-2.954
X34.632 Y21.558 I-2.761 J-1.296
X33.155 Y18.945 I-3.05 J0
X33.632 Y17.354 I-2.573 J-1.637
X31.343 Y14.354 I-3.05 J-0.046
X31.627 Y13.228 I-2.761 J-1.296
X29.973 Y10.344 I-3.045 J-0.17
G1 X29.59 Y6.513
G2 X18.091 Y-4.91 I-11.5 J0.077
G1 X12.26
Z-6.2
X7.76
Z-7.2 F300
X1.929 F1000
G2 X-4.571 Y1.59 I0 J6.5
G1 Y11.01
Z-6.2
Y15.51
Z-7.2 F300
Y34.351 F1000
Z-6.2
Y38.851
Z-7.2 F300
Y48.271 F1000
G2 X1.929 Y54.771 I6.5 J0
G1 X11.954
Z-6.2
X16.03
X16.454
Z-7.5 F300
X26.48 F1000
G2 X32.52 Y50.671 I0 J-6.5
G1 X32.562 Y50.551
X32.768 Y49.868
G2 X34.632 Y47.058 I-1.186 J-2.81
X34.343 Y45.762 I-3.05 J0
X34.343 Y39.854 I-0.761 J-2.954
X34.632 Y38.558 I-2.761 J-1.296
X34.343 Y37.262 I-3.05 J0
X34.343 Y31.354 I-0.761 J-2.954
X34.632 Y30.058 I-2.761 J-1.296
X34.343 Y28.762 I-3.05 J0
X34.343 Y22.854 I-0.761 J-2.954
X34.632 Y21.558 I-2.761 J-1.296
X33.155 Y18.945 I-3.05 J0
X33.632 Y17.354 I-2.573 J-1.637
X31.343 Y14.354 I-3.05 J-0.046
X31.627 Y13.228 I-2.761 J-1.296
X29.973 Y10.344 I-3.045 J-0.17
G1 X29.59 Y6.513
G2 X18.091 Y-4.91 I-11.5 J0.077
G1 X12.26
Z-6.2
X7.76
Z-7.5 F300
X1.929 F1000
G2 X-4.571 Y1.59 I0 J6.5
G1 Y11.01
Z-6.2
Y15.51
Z-7.5 F300
Y34.351 F1000
Z-6.2
Y38.851
Z-7.5 F300
Y48.271 F1000
G2 X1.929 Y54.771 I6.5 J0
G1 X11.954
Z-6.2
X16.03
X16.454
Z-7.7 F300
X26.48 F1000
G2 X32.52 Y50.671 I0 J-6.5
G1 X32.562 Y50.551
X32.768 Y49.868
G2 X34.632 Y47.058 I-1.186 J-2.81
X34.343 Y45.762 I-3.05 J0
X34.343 Y39.854 I-0.761 J-2.954
X34.632 Y38.558 I-2.761 J-1.296
X34.343 Y37.262 I-3.05 J0
X34.343 Y31.354 I-0.761 J-2.954
X34.632 Y30.058 I-2.761 J-1.296
X34.343 Y28.762 I-3.05 J0
X34.343 Y22.854 I-0.761 J-2.954
X34.632 Y21.558 I-2.761 J-1.296
X33.155 Y18.945 I-3.05 J0
X33.632 Y17.354 I-2.573 J-1.637
X31.343 Y14.354 I-3.05 J-0.046
X31.627 Y13.228 I-2.761 J-1.296
X29.973 Y10.344 I-3.045 J-0.17
G1 X29.59 Y6.513
G2 X18.091 Y-4.91 I-11.5 J0.077
G1 X12.26
Z-6.2
X7.76
Z-7.7 F300
X1.929 F1000
G2 X-4.571 Y1.59 I0 J6.5
G1 Y11.01
Z-6.2
Y15.51
Z-7.7 F300
Y34.351 F1000
Z-6.2
Y38.851
Z-7.7 F300
Y48.271 F1000
G2 X1.929 Y54.771 I6.5 J0
G1 X11.954
Z-6.2
X16.03
G0 Z15
M9
M5
M30
