(1001)
(T1  D=1.5 CR=0 - ZMIN=-7.7 - flat end mill)
G90 G94
G17
G21

(Pocket1)
T1
S500 M3
G54
M8
G0 X-19.496 Y29.971
Z6
Z1.3
G1 Z0.315 F80
X-19.146 Z0.285
X-19.113 Y29.978
X-19.087 Y29.999
X-19.073 Y30.029
Y30.062
X-19.087 Y30.092
X-19.113 Y30.113
X-19.146 Y30.121
X-20.686 Z0.155
X-20.718 Y30.113
X-20.744 Y30.092
X-20.759 Y30.062
Y30.029
X-20.744 Y29.999
X-20.718 Y29.978
X-20.686 Y29.971
X-19.146 Z0.025
X-19.113 Y29.978
X-19.087 Y29.999
X-19.073 Y30.029
Y30.062
X-19.087 Y30.092
X-19.113 Y30.113
X-19.146 Y30.121
X-20.686 Z-0.105
X-20.718 Y30.113
X-20.744 Y30.092
X-20.759 Y30.062
Y30.029
X-20.744 Y29.999
X-20.718 Y29.978
X-20.686 Y29.971
X-19.146 Z-0.235
X-19.113 Y29.978
X-19.087 Y29.999
X-19.073 Y30.029
Y30.062
X-19.087 Y30.092
X-19.113 Y30.113
X-19.146 Y30.121
X-19.916 Z-0.3
X-19.952 Y30.114
X-19.985 Y30.096
X-20.009 Y30.067
X-20.021 Y30.032
Y29.995
X-20.009 Y29.96
X-19.985 Y29.932
X-19.952 Y29.913
X-19.916 Y29.907
X-1.637 F200
X-1.457 Y29.965
X-1.422 Y30.012
Y30.075
X-1.458 Y30.127
X-1.637 Y30.185
X-19.925
X-20.203 Y30.149
X-20.251 Y30.146
X-24.561 Y30.147
X-24.565 Y29.946
X-21.725 Y29.944
X-21.68 Y29.942
X-21.635 Y29.933
X-21.522 Y29.905
X-21.473 Y29.89
X-21.426 Y29.867
X-21.179 Y29.727
X-21.131
X-20.89 Y29.864
X-20.847 Y29.886
X-20.8 Y29.901
X-20.687 Y29.931
X-20.64 Y29.94
X-20.593 Y29.944
X-20.252 Y29.945
X-20.203 Y29.942
X-19.925 Y29.907
X-19.916
X-19.894 Y29.912
X-19.877 Y29.928
X-19.816 Y30.024
X-19.799 Y30.04
X-19.777 Y30.046
X-19.275
X-19.2 Y29.971
X-19.146 Z-0.32 F80
X-19.113 Y29.978
X-19.087 Y29.999
X-19.073 Y30.029
Y30.062
X-19.087 Y30.092
X-19.113 Y30.113
X-19.146 Y30.121
X-19.916 Z-0.6
X-19.952 Y30.114
X-19.985 Y30.096
X-20.009 Y30.067
X-20.021 Y30.032
Y29.995
X-20.009 Y29.96
X-19.985 Y29.932
X-19.952 Y29.913
X-19.916 Y29.907
X-1.637 F200
X-1.457 Y29.965
X-1.422 Y30.012
Y30.075
X-1.458 Y30.127
X-1.637 Y30.185
X-19.925
X-20.203 Y30.149
X-20.251 Y30.146
X-24.561 Y30.147
X-24.565 Y29.946
X-21.725 Y29.944
X-21.68 Y29.942
X-21.635 Y29.933
X-21.522 Y29.905
X-21.473 Y29.89
X-21.426 Y29.867
X-21.179 Y29.727
X-21.131
X-20.89 Y29.864
X-20.847 Y29.886
X-20.8 Y29.901
X-20.687 Y29.931
X-20.64 Y29.94
X-20.593 Y29.944
X-20.252 Y29.945
X-20.203 Y29.942
X-19.925 Y29.907
X-19.916
X-19.894 Y29.912
X-19.877 Y29.928
X-19.816 Y30.024
X-19.799 Y30.04
X-19.777 Y30.046
X-19.275
X-19.2 Y29.971
X-19.146 Z-0.62 F80
X-19.113 Y29.978
X-19.087 Y29.999
X-19.073 Y30.029
Y30.062
X-19.087 Y30.092
X-19.113 Y30.113
X-19.146 Y30.121
X-19.916 Z-0.9
X-19.952 Y30.114
X-19.985 Y30.096
X-20.009 Y30.067
X-20.021 Y30.032
Y29.995
X-20.009 Y29.96
X-19.985 Y29.932
X-19.952 Y29.913
X-19.916 Y29.907
X-1.637 F200
X-1.457 Y29.965
X-1.422 Y30.012
Y30.075
X-1.458 Y30.127
X-1.637 Y30.185
X-19.925
X-20.203 Y30.149
X-20.251 Y30.146
X-24.561 Y30.147
X-24.565 Y29.946
X-21.725 Y29.944
X-21.68 Y29.942
X-21.635 Y29.933
X-21.522 Y29.905
X-21.473 Y29.89
X-21.426 Y29.867
X-21.18 Y29.727
X-21.132
X-20.89 Y29.865
X-20.846 Y29.886
X-20.8 Y29.901
X-20.687 Y29.931
X-20.64 Y29.94
X-20.593 Y29.944
X-20.252 Y29.945
X-20.203 Y29.942
X-19.925 Y29.907
X-19.916
X-19.894 Y29.912
X-19.877 Y29.928
X-19.816 Y30.024
X-19.799 Y30.04
X-19.777 Y30.046
X-19.275
X-19.2 Y29.971
X-19.146 Z-0.92 F80
X-19.113 Y29.978
X-19.087 Y29.999
X-19.073 Y30.029
Y30.062
X-19.087 Y30.092
X-19.113 Y30.113
X-19.146 Y30.121
X-19.916 Z-1.2
X-19.952 Y30.114
X-19.985 Y30.096
X-20.009 Y30.067
X-20.021 Y30.032
Y29.995
X-20.009 Y29.96
X-19.985 Y29.932
X-19.952 Y29.913
X-19.916 Y29.907
X-1.637 F200
X-1.457 Y29.965
X-1.422 Y30.012
Y30.075
X-1.458 Y30.127
X-1.637 Y30.185
X-19.925
X-20.203 Y30.149
X-20.251 Y30.146
X-24.561 Y30.147
X-24.565 Y29.946
X-21.725 Y29.944
X-21.68 Y29.942
X-21.635 Y29.933
X-21.522 Y29.905
X-21.473 Y29.89
X-21.426 Y29.867
X-21.18 Y29.727
X-21.132
X-20.889 Y29.865
X-20.846 Y29.886
X-20.8 Y29.901
X-20.687 Y29.931
X-20.64 Y29.94
X-20.593 Y29.944
X-20.252 Y29.945
X-20.203 Y29.942
X-19.925 Y29.907
X-19.916
X-19.894 Y29.912
X-19.877 Y29.928
X-19.816 Y30.024
X-19.799 Y30.04
X-19.777 Y30.046
X-19.275
X-19.2 Y29.971
X-19.146 Z-1.22 F80
X-19.113 Y29.978
X-19.087 Y29.999
X-19.073 Y30.029
Y30.062
X-19.087 Y30.092
X-19.113 Y30.113
X-19.146 Y30.121
X-19.916 Z-1.5
X-19.892 Y30.161
X-19.899 Y30.178
X-19.916 Y30.185
X-19.925 F200
X-20.203 Y30.149
X-20.251 Y30.146
X-24.561 Y30.147
X-24.565 Y29.946
X-21.725 Y29.944
X-21.68 Y29.942
X-21.635 Y29.933
X-21.522 Y29.905
X-21.473 Y29.89
X-21.427 Y29.868
X-21.181 Y29.728
X-21.131
X-20.889 Y29.865
X-20.846 Y29.886
X-20.8 Y29.901
X-20.687 Y29.931
X-20.64 Y29.94
X-20.593 Y29.944
X-20.252 Y29.945
X-20.203 Y29.942
X-19.925 Y29.907
X-1.637
X-1.457 Y29.965
X-1.422 Y30.012
Y30.075
X-1.458 Y30.127
X-1.637 Y30.185
X-19.916
X-19.941 Y30.177
X-19.958 Y30.158
X-19.962 Y30.133
X-19.952 Y30.109
X-19.931 Y30.094
X-19.777 Y30.046
X-19.275
X-19.2 Y29.971
X-19.146 Z-1.52 F80
X-19.113 Y29.978
X-19.087 Y29.999
X-19.073 Y30.029
Y30.062
X-19.087 Y30.092
X-19.113 Y30.113
X-19.146 Y30.121
X-19.916 Z-1.8
X-19.892 Y30.161
X-19.899 Y30.178
X-19.916 Y30.185
X-19.925 F200
X-20.203 Y30.149
X-20.251 Y30.146
X-24.561 Y30.147
X-24.565 Y29.946
X-21.725 Y29.944
X-21.68 Y29.942
X-21.635 Y29.933
X-21.522 Y29.905
X-21.473 Y29.89
X-21.427 Y29.868
X-21.181 Y29.729
X-21.131
X-20.888 Y29.865
X-20.846 Y29.886
X-20.8 Y29.901
X-20.687 Y29.931
X-20.64 Y29.94
X-20.593 Y29.944
X-20.252 Y29.945
X-20.203 Y29.942
X-19.925 Y29.907
X-1.637
X-1.457 Y29.965
X-1.422 Y30.012
Y30.075
X-1.458 Y30.127
X-1.637 Y30.185
X-19.916
X-19.925 F80
X-19.969 Y30.179 Z-1.79
X-20.008 Y30.174 Z-1.768
X-20.038 Y30.17 Z-1.735
X-20.058 Y30.168 Z-1.695
X-20.065 Y30.167 Z-1.65
G0 Z4
X-2.698 Y29.971
G1 Z-1.485 F80
X-1.619 Z-1.576
X-1.586 Y29.978
X-1.56 Y29.999
X-1.545 Y30.029
Y30.062
X-1.56 Y30.092
X-1.586 Y30.113
X-1.619 Y30.121
X-3.158 Z-1.706
X-3.191 Y30.113
X-3.217 Y30.092
X-3.231 Y30.062
Y30.029
X-3.217 Y29.999
X-3.191 Y29.978
X-3.158 Y29.971
X-1.619 Z-1.836
X-1.586 Y29.978
X-1.56 Y29.999
X-1.545 Y30.029
Y30.062
X-1.56 Y30.092
X-1.586 Y30.113
X-1.619 Y30.121
X-3.158 Z-1.966
X-3.191 Y30.113
X-3.217 Y30.092
X-3.231 Y30.062
Y30.029
X-3.217 Y29.999
X-3.191 Y29.978
X-3.158 Y29.971
X-1.619 Z-2.097
X-1.586 Y29.978
X-1.56 Y29.999
X-1.545 Y30.029
Y30.062
X-1.56 Y30.092
X-1.586 Y30.113
X-1.619 Y30.121
X-1.659 Z-2.1
X-1.696 Y30.114
X-1.728 Y30.096
X-1.752 Y30.067
X-1.764 Y30.032
Y29.995
X-1.752 Y29.96
X-1.728 Y29.932
X-1.696 Y29.913
X-1.659 Y29.907
X-1.637 F200
X-1.457 Y29.965
X-1.422 Y30.012
Y30.075
X-1.458 Y30.127
X-1.637 Y30.185
X-19.925
X-20.203 Y30.149
X-20.251 Y30.146
X-24.561 Y30.147
X-24.565 Y29.946
X-21.725 Y29.944
X-21.68 Y29.942
X-21.635 Y29.933
X-21.522 Y29.905
X-21.473 Y29.89
X-21.428 Y29.868
X-21.181 Y29.729
X-21.131
X-20.888 Y29.866
X-20.845 Y29.886
X-20.8 Y29.901
X-20.687 Y29.931
X-20.64 Y29.94
X-20.593 Y29.944
X-20.252 Y29.945
X-20.203 Y29.942
X-19.925 Y29.907
X-1.659
X-1.634 Y29.914
X-1.617 Y29.933
X-1.613 Y29.959
X-1.623 Y29.982
X-1.644 Y29.997
X-1.798 Y30.046
X-2.327
X-2.41 Y30.019
X-2.424 Y30.009
X-2.427 Y29.992
X-2.418 Y29.977
X-2.402 Y29.971
X-1.619 Z-2.385 F80
X-1.586 Y29.978
X-1.56 Y29.999
X-1.545 Y30.029
Y30.062
X-1.56 Y30.092
X-1.586 Y30.113
X-1.619 Y30.121
X-1.659 Z-2.4
X-1.696 Y30.114
X-1.728 Y30.096
X-1.752 Y30.067
X-1.764 Y30.032
Y29.995
X-1.752 Y29.96
X-1.728 Y29.932
X-1.696 Y29.913
X-1.659 Y29.907
X-1.637 F200
X-1.457 Y29.965
X-1.422 Y30.012
Y30.075
X-1.458 Y30.127
X-1.637 Y30.185
X-19.925
X-20.203 Y30.149
X-20.251 Y30.146
X-24.561 Y30.147
X-24.565 Y29.946
X-21.725 Y29.944
X-21.68 Y29.942
X-21.635 Y29.933
X-21.522 Y29.905
X-21.474 Y29.89
X-21.428 Y29.868
X-21.181 Y29.73
X-21.131
X-20.887 Y29.866
X-20.845 Y29.886
X-20.8 Y29.901
X-20.687 Y29.931
X-20.64 Y29.94
X-20.593 Y29.944
X-20.252 Y29.945
X-20.203 Y29.942
X-19.925 Y29.907
X-1.659
X-1.634 Y29.914
X-1.617 Y29.933
X-1.613 Y29.959
X-1.623 Y29.982
X-1.644 Y29.997
X-1.798 Y30.046
X-2.327
X-2.41 Y30.019
X-2.424 Y30.009
X-2.427 Y29.992
X-2.418 Y29.977
X-2.402 Y29.971
X-1.619 Z-2.685 F80
X-1.586 Y29.978
X-1.56 Y29.999
X-1.545 Y30.029
Y30.062
X-1.56 Y30.092
X-1.586 Y30.113
X-1.619 Y30.121
X-1.659 Z-2.7
X-1.696 Y30.114
X-1.728 Y30.096
X-1.752 Y30.067
X-1.764 Y30.032
Y29.995
X-1.752 Y29.96
X-1.728 Y29.932
X-1.696 Y29.913
X-1.659 Y29.907
X-1.637 F200
X-1.457 Y29.965
X-1.422 Y30.012
Y30.075
X-1.458 Y30.127
X-1.637 Y30.185
X-19.925
X-20.203 Y30.149
X-20.251 Y30.146
X-24.561 Y30.147
X-24.565 Y29.946
X-21.725 Y29.944
X-21.68 Y29.942
X-21.635 Y29.933
X-21.522 Y29.905
X-21.474 Y29.89
X-21.429 Y29.869
X-21.182 Y29.731
X-21.13
X-20.887 Y29.866
X-20.845 Y29.886
X-20.8 Y29.901
X-20.687 Y29.931
X-20.64 Y29.94
X-20.593 Y29.944
X-20.252 Y29.945
X-20.203 Y29.942
X-19.925 Y29.907
X-1.659
X-1.634 Y29.914
X-1.617 Y29.933
X-1.613 Y29.959
X-1.623 Y29.982
X-1.644 Y29.997
X-1.798 Y30.046
X-2.327
X-2.41 Y30.019
X-2.424 Y30.009
X-2.427 Y29.992
X-2.418 Y29.977
X-2.402 Y29.971
X-1.619 Z-2.985 F80
X-1.586 Y29.978
X-1.56 Y29.999
X-1.545 Y30.029
Y30.062
X-1.56 Y30.092
X-1.586 Y30.113
X-1.619 Y30.121
X-1.659 Z-3
X-1.696 Y30.114
X-1.728 Y30.096
X-1.752 Y30.067
X-1.764 Y30.032
Y29.995
X-1.752 Y29.96
X-1.728 Y29.932
X-1.696 Y29.913
X-1.659 Y29.907
X-1.637 F200
X-1.457 Y29.965
X-1.422 Y30.012
Y30.075
X-1.458 Y30.127
X-1.637 Y30.185
X-19.925
X-20.203 Y30.149
X-20.251 Y30.146
X-24.561 Y30.147
X-24.565 Y29.946
X-21.725 Y29.944
X-21.68 Y29.942
X-21.635 Y29.933
X-21.522 Y29.905
X-21.474 Y29.89
X-21.429 Y29.869
X-21.182 Y29.731
X-21.13
X-20.887 Y29.866
X-20.845 Y29.886
X-20.8 Y29.901
X-20.687 Y29.931
X-20.64 Y29.94
X-20.593 Y29.944
X-20.252 Y29.945
X-20.203 Y29.942
X-19.925 Y29.907
X-1.659
X-1.637 Z-2.998 F80
X-1.598 Y29.919 Z-2.986
X-1.564 Y29.93 Z-2.963
X-1.538 Y29.939 Z-2.931
X-1.521 Y29.944 Z-2.892
X-1.515 Y29.946 Z-2.85
G0 Z4
X-21.109 Y29.771
G1 Z-1.7 F80
Z-3.3
X-21.1 Y29.789 F200
X-21.107 Y29.82
X-21.139 Y29.846
X-21.176
X-21.202 Y29.825
X-21.209 Y29.793
X-21.179 Y29.732
X-21.128
X-21.109 Y29.771
X-21.1 Y29.789 Z-3.299 F80
X-21.107 Y29.82 Z-3.291
X-21.139 Y29.846 Z-3.267
X-21.16 Z-3.248
X-21.176 Z-3.224
X-21.188 Y29.837 Z-3.188
X-21.191 Y29.834 Z-3.15
G0 Z4
X-21.109 Y29.771
G1 Z-2 F80
Z-3.6
X-21.1 Y29.789 F200
X-21.107 Y29.82
X-21.139 Y29.846
X-21.176
X-21.202 Y29.825
X-21.209 Y29.793
X-21.179 Y29.733
X-21.128
X-21.109 Y29.771
X-21.1 Y29.789 Z-3.599 F80
X-21.107 Y29.82 Z-3.591
X-21.139 Y29.846 Z-3.568
X-21.16 Z-3.548
X-21.176 Z-3.525
X-21.188 Y29.837 Z-3.489
X-21.192 Y29.833 Z-3.45
G0 Z4
X-21.198 Y29.771
G1 Z-2.3 F80
Z-3.9
X-21.179 Y29.733 F200
X-21.127
X-21.1 Y29.789
X-21.107 Y29.82
X-21.139 Y29.846
X-21.176
X-21.202 Y29.825
X-21.209 Y29.793
X-21.198 Y29.771
X-21.179 Y29.733 Z-3.894 F80
X-21.152 Z-3.883
X-21.127 Z-3.866
X-21.114 Y29.76 Z-3.834
X-21.106 Y29.777 Z-3.794
X-21.103 Y29.783 Z-3.75
G0 Z4
X-21.201 Y29.771
G1 Z-2.6 F80
Z-4.2
X-21.183 Y29.734 F200
X-21.126
X-21.1 Y29.789
X-21.107 Y29.82
X-21.139 Y29.846
X-21.176
X-21.202 Y29.825
X-21.21 Y29.789
X-21.201 Y29.771
X-21.183 Y29.734 Z-4.194 F80
X-21.153 Z-4.182
X-21.126 Z-4.164
X-21.114 Y29.759 Z-4.131
X-21.107 Y29.775 Z-4.092
X-21.104 Y29.781 Z-4.05
G0 Z4
X-21.201 Y29.771
G1 Z-2.9 F80
Z-4.5
X-21.184 Y29.735 F200
X-21.126
X-21.1 Y29.789
X-21.107 Y29.82
X-21.139 Y29.846
X-21.176
X-21.202 Y29.825
X-21.21 Y29.789
X-21.201 Y29.771
X-21.184 Y29.735 Z-4.495 F80
X-21.153 Z-4.482
X-21.126 Z-4.464
X-21.114 Y29.76 Z-4.431
X-21.106 Y29.776 Z-4.392
X-21.104 Y29.782 Z-4.35
G0 Z4
X-21.123 Y29.833
G1 Z-3.2 F80
Z-4.8
X-21.139 Y29.846 F200
X-21.176
X-21.202 Y29.825
X-21.21 Y29.79
X-21.185 Y29.737
X-21.125 Y29.738
X-21.1 Y29.79
X-21.107 Y29.82
X-21.123 Y29.833
X-21.139 Y29.846 Z-4.798 F80
X-21.176 Z-4.788
X-21.202 Y29.825 Z-4.769
X-21.206 Y29.806 Z-4.751
X-21.21 Y29.79 Z-4.729
X-21.203 Y29.775 Z-4.691
X-21.2 Y29.77 Z-4.65
G0 Z4
X-21.11 Y29.773
G1 Z-3.5 F80
Z-5
X-21.1 Y29.791 F200
X-21.108 Y29.822
X-21.136 Y29.846
X-21.176
X-21.202 Y29.825
X-21.21 Y29.791
X-21.185 Y29.738
X-21.157 Y29.736
X-21.127 Y29.737
X-21.11 Y29.773
X-21.1 Y29.791 Z-4.999 F80
X-21.108 Y29.822 Z-4.991
X-21.136 Y29.846 Z-4.97
X-21.158 Z-4.95
X-21.176 Z-4.926
X-21.188 Y29.836 Z-4.889
X-21.192 Y29.833 Z-4.85
G0 Z4
X-21.157 Y29.846
G1 Z-3.7 F80
Z-5.3
X-21.176 F200
X-21.202 Y29.825
X-21.21 Y29.789
X-21.188 Y29.743
X-21.182 Y29.739
X-21.132
X-21.123 Y29.746
X-21.102 Y29.792
X-21.11 Y29.826
X-21.135 Y29.846
X-21.157
X-21.176 Z-5.299 F80
X-21.202 Y29.825 Z-5.291
X-21.21 Y29.789 Z-5.271
X-21.197 Y29.762 Z-5.241
X-21.188 Y29.743 Z-5.204
X-21.182 Y29.739 Z-5.18
X-21.179 Z-5.15
G0 Z4
X-21.205 Y29.806
G1 Z-4 F80
Z-5.6
X-21.21 Y29.788 F200
X-21.19 Y29.748
X-21.175 Y29.737
X-21.137
X-21.12 Y29.75
X-21.102 Y29.789
X-21.111 Y29.827
X-21.135 Y29.846
X-21.176
X-21.2 Y29.826
X-21.205 Y29.806
X-21.21 Y29.788 Z-5.599 F80
X-21.19 Y29.748 Z-5.586
X-21.175 Y29.737 Z-5.576
X-21.155 Z-5.56
X-21.137 Z-5.541
X-21.12 Y29.75 Z-5.5
X-21.117 Y29.756 Z-5.476
X-21.116 Y29.758 Z-5.45
G0 Z4
X-21.106 Y29.807
G1 Z-4.3 F80
Z-5.9
X-21.111 Y29.827 F200
X-21.135 Y29.846
X-21.176
X-21.2 Y29.827
X-21.209 Y29.788
X-21.191 Y29.75
X-21.174 Y29.737
X-21.139
X-21.12 Y29.751
X-21.102 Y29.79
X-21.106 Y29.807
X-21.111 Y29.827 Z-5.899 F80
X-21.135 Y29.846 Z-5.891
X-21.176 Z-5.868
X-21.2 Y29.827 Z-5.836
X-21.205 Y29.807 Z-5.795
X-21.206 Y29.8 Z-5.75
G0 Z4
X-21.106 Y29.807
G1 Z-4.6 F80
Z-6.2
X-21.111 Y29.827 F200
X-21.135 Y29.846
X-21.176
X-21.2 Y29.827
X-21.209 Y29.788
X-21.191 Y29.75
X-21.174 Y29.737
X-21.139
X-21.12 Y29.751
X-21.102 Y29.79
X-21.106 Y29.807
X-21.111 Y29.827 Z-6.199 F80
X-21.135 Y29.846 Z-6.191
X-21.176 Z-6.168
X-21.2 Y29.827 Z-6.136
X-21.205 Y29.807 Z-6.095
X-21.206 Y29.8 Z-6.05
G0 Z4
X-21.106 Y29.807
G1 Z-4.9 F80
Z-6.5
X-21.111 Y29.827 F200
X-21.135 Y29.846
X-21.176
X-21.2 Y29.827
X-21.209 Y29.788
X-21.191 Y29.75
X-21.174 Y29.737
X-21.139
X-21.12 Y29.751
X-21.102 Y29.79
X-21.106 Y29.807
X-21.111 Y29.827 Z-6.499 F80
X-21.135 Y29.846 Z-6.491
X-21.176 Z-6.468
X-21.2 Y29.827 Z-6.436
X-21.205 Y29.807 Z-6.395
X-21.206 Y29.8 Z-6.35
G0 Z4
X-21.106 Y29.807
G1 Z-5.2 F80
Z-6.8
X-21.111 Y29.827 F200
X-21.135 Y29.846
X-21.176
X-21.2 Y29.827
X-21.209 Y29.788
X-21.191 Y29.75
X-21.174 Y29.737
X-21.139
X-21.12 Y29.751
X-21.102 Y29.79
X-21.106 Y29.807
X-21.111 Y29.827 Z-6.799 F80
X-21.135 Y29.846 Z-6.791
X-21.176 Z-6.768
X-21.2 Y29.827 Z-6.736
X-21.205 Y29.807 Z-6.695
X-21.206 Y29.8 Z-6.65
G0 Z4
X-21.106 Y29.807
G1 Z-5.5 F80
Z-7.1
X-21.111 Y29.827 F200
X-21.135 Y29.846
X-21.176
X-21.2 Y29.827
X-21.209 Y29.788
X-21.191 Y29.75
X-21.174 Y29.737
X-21.139
X-21.12 Y29.751
X-21.102 Y29.79
X-21.106 Y29.807
X-21.111 Y29.827 Z-7.099 F80
X-21.135 Y29.846 Z-7.091
X-21.176 Z-7.068
X-21.2 Y29.827 Z-7.036
X-21.205 Y29.807 Z-6.995
X-21.206 Y29.8 Z-6.95
G0 Z4
X-21.106 Y29.807
G1 Z-5.8 F80
Z-7.4
X-21.111 Y29.827 F200
X-21.135 Y29.846
X-21.176
X-21.2 Y29.827
X-21.209 Y29.788
X-21.191 Y29.75
X-21.174 Y29.737
X-21.139
X-21.12 Y29.751
X-21.102 Y29.79
X-21.106 Y29.807
X-21.111 Y29.827 Z-7.399 F80
X-21.135 Y29.846 Z-7.391
X-21.176 Z-7.368
X-21.2 Y29.827 Z-7.336
X-21.205 Y29.807 Z-7.295
X-21.206 Y29.8 Z-7.25
G0 Z4
X-21.106 Y29.807
G1 Z-6.1 F80
Z-7.7
X-21.111 Y29.827 F200
X-21.135 Y29.846
X-21.176
X-21.2 Y29.827
X-21.209 Y29.788
X-21.191 Y29.75
X-21.174 Y29.737
X-21.139
X-21.12 Y29.751
X-21.102 Y29.79
X-21.106 Y29.807
X-21.111 Y29.827 Z-7.699 F80
X-21.135 Y29.846 Z-7.691
X-21.176 Z-7.668
X-21.2 Y29.827 Z-7.636
X-21.205 Y29.807 Z-7.595
X-21.206 Y29.8 Z-7.55
G0 Z4
X-21.937 Y27.044
Z0.315
G1 X-20.992 Y27.232 Z0.234 F80
X-20.961 Y27.246
X-20.94 Y27.271
X-20.931 Y27.304
X-20.938 Y27.336
X-20.958 Y27.363
X-20.988 Y27.378
X-21.021 Y27.379
X-22.531 Y27.079 Z0.103
X-22.562 Y27.065
X-22.583 Y27.04
X-22.592 Y27.007
X-22.585 Y26.975
X-22.565 Y26.948
X-22.535 Y26.933
X-22.502 Y26.932
X-20.992 Y27.232 Z-0.027
X-20.961 Y27.246
X-20.94 Y27.271
X-20.931 Y27.304
X-20.938 Y27.336
X-20.958 Y27.363
X-20.988 Y27.378
X-21.021 Y27.379
X-22.531 Y27.079 Z-0.157
X-22.562 Y27.065
X-22.583 Y27.04
X-22.592 Y27.007
X-22.585 Y26.975
X-22.565 Y26.948
X-22.535 Y26.933
X-22.502 Y26.932
X-20.992 Y27.232 Z-0.287
X-20.961 Y27.246
X-20.94 Y27.271
X-20.931 Y27.304
X-20.938 Y27.336
X-20.958 Y27.363
X-20.988 Y27.378
X-21.021 Y27.379
X-21.174 Y27.349 Z-0.3
X-21.192 Y27.352
X-21.202 Y27.366
X-21.185 Y27.395
X-26.62 Y26.228 F200
X-26.577 Y26.029
X-21.388 Y27.144
X-21.347 Y27.15
X-21.306 Y27.152
X-21.155 Y27.151
X-21.122 Y27.157
X-20.973 Y27.225
X-20.936 Y27.24
X-20.897 Y27.25
X-20.217 Y27.398
X-20.177 Y27.404
X-20.137 Y27.406
X-1.637 Y27.407
X-1.457 Y27.465
X-1.42 Y27.515
Y27.577
X-1.457 Y27.626
X-1.637 Y27.685
X-20.007 Y27.682
X-20.025 Y27.68
X-20.088 Y27.661
X-20.228 Y27.606
X-20.285 Y27.589
X-21.185 Y27.395
X-21.204 Y27.386
X-21.215 Y27.37
X-21.25 Y27.278
X-21.262 Y27.261
X-21.28 Y27.253
X-21.881 Y27.14
X-21.966 Y27.094
X-21.978 Y27.08
Y27.061
X-21.966 Y27.046
X-21.947 Y27.043
X-21.138 Y27.204 Z-0.6 F80
X-21.102 Y27.166
X-20.973 Y27.225 F200
X-20.936 Y27.24
X-20.897 Y27.25
X-20.217 Y27.398
X-20.177 Y27.404
X-20.137 Y27.406
X-1.637 Y27.407
X-1.457 Y27.465
X-1.42 Y27.515
Y27.577
X-1.457 Y27.626
X-1.637 Y27.685
X-20.007 Y27.682
X-20.025 Y27.68
X-20.088 Y27.661
X-20.228 Y27.606
X-20.285 Y27.589
X-26.62 Y26.228
X-26.577 Y26.029
X-21.388 Y27.144
X-21.316 Y27.152
X-21.126 Y27.156
X-21.102 Y27.166
X-21.086 Y27.18
X-21.079 Y27.2
X-21.082 Y27.221
X-21.096 Y27.237
X-21.116 Y27.244
X-21.273 Y27.255
X-21.881 Y27.14
X-21.966 Y27.094
X-21.978 Y27.08
Y27.061
X-21.966 Y27.046
X-21.947 Y27.043
X-21.138 Y27.204 Z-0.9 F80
X-21.102 Y27.166
X-20.973 Y27.225 F200
X-20.936 Y27.24
X-20.897 Y27.25
X-20.217 Y27.398
X-20.177 Y27.404
X-20.137 Y27.406
X-1.637 Y27.407
X-1.457 Y27.465
X-1.42 Y27.515
Y27.577
X-1.457 Y27.626
X-1.637 Y27.685
X-20.007 Y27.682
X-20.025 Y27.68
X-20.088 Y27.661
X-20.228 Y27.606
X-20.285 Y27.589
X-26.62 Y26.228
X-26.577 Y26.029
X-21.388 Y27.144
X-21.316 Y27.152
X-21.126 Y27.156
X-21.102 Y27.166
X-21.086 Y27.18
X-21.079 Y27.2
X-21.082 Y27.221
X-21.096 Y27.237
X-21.116 Y27.244
X-21.273 Y27.255
X-21.88 Y27.14
X-21.964 Y27.095
X-21.976 Y27.08
Y27.061
X-21.964 Y27.047
X-21.945 Y27.044
X-21.137 Y27.204 Z-1.2 F80
X-21.101 Y27.167
X-20.973 Y27.225 F200
X-20.936 Y27.24
X-20.897 Y27.25
X-20.217 Y27.398
X-20.177 Y27.404
X-20.137 Y27.406
X-1.637 Y27.407
X-1.457 Y27.465
X-1.42 Y27.515
Y27.577
X-1.457 Y27.626
X-1.637 Y27.685
X-20.007 Y27.682
X-20.025 Y27.68
X-20.088 Y27.661
X-20.228 Y27.606
X-20.285 Y27.589
X-26.62 Y26.228
X-26.577 Y26.029
X-21.388 Y27.144
X-21.317 Y27.152
X-21.124 Y27.157
X-21.101 Y27.167
X-21.074 Y27.188
X-21.059 Y27.218
Y27.252
X-21.074 Y27.283
X-21.101 Y27.304
X-21.134 Y27.311
X-21.418 Y27.302
X-21.448 Y27.295
X-21.473 Y27.276
X-21.488 Y27.249
X-21.49 Y27.218
X-21.481 Y27.189
X-21.46 Y27.166
X-21.432 Y27.153
X-21.401
X-20.859 Y27.261 Z-1.401 F80
X-20.829 Y27.275
X-20.807 Y27.3
X-20.799 Y27.332
X-20.805 Y27.365
X-20.825 Y27.392
X-20.855 Y27.407
X-20.888 Y27.408
X-21.155 Y27.355 Z-1.5
X-21.172 Y27.358
X-21.182 Y27.372
X-21.166 Y27.4
X-26.62 Y26.228 F200
X-26.577 Y26.029
X-21.388 Y27.144
X-21.326 Y27.152
X-21.114 Y27.162
X-21.106 Y27.164
X-20.974 Y27.225
X-20.936 Y27.239
X-20.897 Y27.25
X-20.217 Y27.398
X-20.177 Y27.404
X-20.137 Y27.406
X-1.637 Y27.407
X-1.457 Y27.465
X-1.42 Y27.515
Y27.577
X-1.457 Y27.626
X-1.637 Y27.685
X-20.007 Y27.682
X-20.025 Y27.68
X-20.088 Y27.661
X-20.228 Y27.606
X-20.285 Y27.589
X-21.166 Y27.4
X-21.183 Y27.391
X-21.195 Y27.374
X-21.229 Y27.284
X-21.241 Y27.268
X-21.259 Y27.259
X-21.87 Y27.142
X-21.953 Y27.098
X-21.965 Y27.083
Y27.064
X-21.953 Y27.05
X-21.934 Y27.047
X-21.126 Y27.208 Z-1.8 F80
X-21.09 Y27.172
X-20.973 Y27.225 F200
X-20.936 Y27.24
X-20.897 Y27.25
X-20.217 Y27.398
X-20.177 Y27.404
X-20.137 Y27.406
X-1.637 Y27.407
X-1.457 Y27.465
X-1.42 Y27.515
Y27.577
X-1.457 Y27.626
X-1.637 Y27.685
X-20.007 Y27.682
X-20.025 Y27.68
X-20.088 Y27.661
X-20.228 Y27.606
X-20.285 Y27.589
X-26.62 Y26.228
X-26.577 Y26.029
X-21.388 Y27.144
X-21.326 Y27.152
X-21.114 Y27.162
X-21.106 Y27.164
X-21.09 Y27.172
X-21.074 Y27.185
X-21.067 Y27.205
X-21.071 Y27.225
X-21.084 Y27.241
X-21.104 Y27.248
X-21.259 Y27.259
X-21.864 Y27.144
X-21.946 Y27.099
X-21.958 Y27.085
Y27.066
X-21.946 Y27.052
X-21.928 Y27.049
X-21.119 Y27.21 Z-2.1 F80
X-21.084 Y27.174
X-20.973 Y27.225 F200
X-20.936 Y27.24
X-20.897 Y27.25
X-20.217 Y27.398
X-20.177 Y27.404
X-20.137 Y27.406
X-1.637 Y27.407
X-1.457 Y27.465
X-1.42 Y27.515
Y27.577
X-1.457 Y27.626
X-1.637 Y27.685
X-20.007 Y27.682
X-20.025 Y27.68
X-20.088 Y27.661
X-20.228 Y27.606
X-20.285 Y27.589
X-26.62 Y26.228
X-26.577 Y26.029
X-21.388 Y27.144
X-21.336 Y27.151
X-21.185 Y27.162
X-21.162 Y27.163
X-21.108 Y27.164
X-21.084 Y27.174
X-21.068 Y27.188
X-21.061 Y27.207
X-21.065 Y27.228
X-21.078 Y27.244
X-21.098 Y27.251
X-21.252 Y27.261
X-21.863 Y27.144
X-21.945 Y27.099
X-21.958 Y27.085
Y27.067
X-21.945 Y27.052
X-21.927 Y27.05
X-21.119 Y27.21 Z-2.4 F80
X-21.084 Y27.175
X-20.973 Y27.225 F200
X-20.936 Y27.24
X-20.897 Y27.25
X-20.217 Y27.398
X-20.177 Y27.404
X-20.137 Y27.406
X-1.637 Y27.407
X-1.457 Y27.465
X-1.42 Y27.515
Y27.577
X-1.457 Y27.626
X-1.637 Y27.685
X-20.007 Y27.682
X-20.025 Y27.68
X-20.088 Y27.661
X-20.228 Y27.606
X-20.285 Y27.589
X-26.62 Y26.228
X-26.577 Y26.03
X-21.35 Y27.153
X-21.277 Y27.162
X-21.107 Y27.164
X-21.084 Y27.175
X-21.074 Y27.185
Y27.199
X-21.083 Y27.209
X-21.149 Y27.241
X-21.164 Y27.242
X-21.174 Y27.233
X-21.176 Y27.219
X-21.168 Y27.208
X-21.154 Y27.205
X-20.725 Y27.29 Z-2.559 F80
X-20.695 Y27.304
X-20.673 Y27.329
X-20.665 Y27.362
X-20.672 Y27.394
X-20.692 Y27.421
X-20.721 Y27.436
X-20.755 Y27.437
X-21.135 Y27.362 Z-2.7
X-21.15 Y27.365
X-21.16 Y27.378
X-21.145 Y27.404
X-26.62 Y26.228 F200
X-26.577 Y26.03
X-21.542 Y27.114
X-21.355 Y27.156
X-21.281 Y27.166
X-21.093 Y27.171
X-20.973 Y27.225
X-20.936 Y27.24
X-20.897 Y27.25
X-20.217 Y27.398
X-20.177 Y27.404
X-20.137 Y27.406
X-1.637 Y27.407
X-1.457 Y27.465
X-1.42 Y27.515
Y27.577
X-1.457 Y27.626
X-1.637 Y27.685
X-20.007 Y27.682
X-20.025 Y27.68
X-20.088 Y27.661
X-20.228 Y27.606
X-20.285 Y27.589
X-21.145 Y27.404
X-21.177 Y27.391
X-21.203 Y27.367
X-21.219 Y27.336
X-21.223 Y27.302
X-21.215 Y27.268
X-21.196 Y27.239
X-21.169 Y27.218
X-21.135 Y27.208
X-21.154 Y27.205
X-20.725 Y27.29 Z-2.859 F80
X-20.695 Y27.304
X-20.673 Y27.33
X-20.665 Y27.362
X-20.671 Y27.395
X-20.691 Y27.421
X-20.721 Y27.437
X-20.754 Y27.438
X-21.134 Y27.362 Z-3
X-21.15 Y27.365
X-21.159 Y27.378
X-21.144 Y27.404
X-26.62 Y26.228 F200
X-26.577 Y26.03
X-21.551 Y27.112
X-21.411 Y27.151
X-21.365 Y27.161
X-21.318 Y27.165
X-21.092 Y27.171
X-20.973 Y27.225
X-20.936 Y27.24
X-20.897 Y27.25
X-20.217 Y27.398
X-20.177 Y27.404
X-20.137 Y27.406
X-1.637 Y27.407
X-1.457 Y27.465
X-1.42 Y27.515
Y27.577
X-1.457 Y27.626
X-1.637 Y27.685
X-20.007 Y27.682
X-20.025 Y27.68
X-20.088 Y27.661
X-20.228 Y27.606
X-20.285 Y27.589
X-21.144 Y27.404
X-21.19 Y27.394 Z-2.993 F80
X-21.231 Y27.386 Z-2.971
X-21.263 Y27.379 Z-2.938
X-21.284 Y27.374 Z-2.896
X-21.291 Y27.373 Z-2.85
G0 Z4
X-21.105 Y27.272
G1 Z-1.7 F80
Z-3.3
X-21.118 Y27.295 F200
X-21.149 Y27.308
X-21.182 Y27.301
X-21.21 Y27.271
X-21.214 Y27.229
X-21.198 Y27.2
X-21.145 Y27.175
X-21.137
X-21.097 Y27.223
X-21.095 Y27.254
X-21.105 Y27.272
X-21.118 Y27.295 Z-3.298 F80
X-21.149 Y27.308 Z-3.288
X-21.182 Y27.301 Z-3.267
X-21.198 Y27.284 Z-3.245
X-21.21 Y27.271 Z-3.218
X-21.211 Y27.259 Z-3.185
Y27.255 Z-3.15
G0 Z4
X-21.111 Y27.207
G1 Z-2 F80
Z-3.6
X-21.097 Y27.223 F200
X-21.095 Y27.254
X-21.118 Y27.295
X-21.149 Y27.308
X-21.182 Y27.301
X-21.21 Y27.271
X-21.214 Y27.229
X-21.198 Y27.2
X-21.146 Y27.175
X-21.137
X-21.111 Y27.207
X-21.097 Y27.223 Z-3.598 F80
X-21.095 Y27.254 Z-3.591
X-21.107 Y27.275 Z-3.579
X-21.118 Y27.295 Z-3.562
X-21.135 Y27.302 Z-3.543
X-21.149 Y27.308 Z-3.52
X-21.161 Y27.305 Z-3.486
X-21.166 Y27.304 Z-3.45
G0 Z4
X-21.106 Y27.273
G1 Z-2.3 F80
Z-3.9
X-21.118 Y27.295 F200
X-21.149 Y27.308
X-21.182 Y27.301
X-21.21 Y27.271
X-21.214 Y27.229
X-21.198 Y27.2
X-21.147 Y27.176
X-21.138
X-21.097 Y27.225
X-21.095 Y27.254
X-21.106 Y27.273
X-21.118 Y27.295 Z-3.898 F80
X-21.149 Y27.308 Z-3.888
X-21.182 Y27.301 Z-3.868
X-21.198 Y27.284 Z-3.846
X-21.21 Y27.271 Z-3.82
X-21.211 Y27.259 Z-3.786
Y27.254 Z-3.75
G0 Z4
X-21.18 Y27.192
G1 Z-2.6 F80
Z-4.2
X-21.149 Y27.177 F200
X-21.135
X-21.097 Y27.223
X-21.095 Y27.254
X-21.118 Y27.295
X-21.149 Y27.308
X-21.182 Y27.301
X-21.21 Y27.271
X-21.214 Y27.229
X-21.198 Y27.201
X-21.18 Y27.192
X-21.149 Y27.177 Z-4.196 F80
X-21.135 Z-4.192
X-21.115 Y27.202 Z-4.177
X-21.097 Y27.223 Z-4.155
X-21.096 Y27.241 Z-4.132
X-21.095 Y27.254 Z-4.107
X-21.099 Y27.261 Z-4.079
X-21.1 Y27.264 Z-4.05
G0 Z4
X-21.112 Y27.209
G1 Z-2.9 F80
Z-4.5
X-21.099 Y27.225 F200
X-21.096 Y27.261
X-21.114 Y27.29
X-21.149 Y27.306
X-21.183 Y27.299
X-21.212 Y27.268
X-21.216 Y27.236
X-21.199 Y27.203
X-21.148 Y27.179
X-21.137
X-21.112 Y27.209
X-21.099 Y27.225 Z-4.499 F80
X-21.096 Y27.261 Z-4.489
X-21.114 Y27.29 Z-4.469
X-21.134 Y27.299 Z-4.449
X-21.149 Y27.306 Z-4.425
X-21.164 Y27.303 Z-4.389
X-21.169 Y27.302 Z-4.35
G0 Z4
X-21.199 Y27.286
G1 Z-3.2 F80
Z-4.8
X-21.212 Y27.271 F200
X-21.216 Y27.234
X-21.201 Y27.205
X-21.155 Y27.181
X-21.133
X-21.099 Y27.221
X-21.097 Y27.264
X-21.114 Y27.293
X-21.149 Y27.308
X-21.186 Y27.3
X-21.199 Y27.286
X-21.212 Y27.271 Z-4.799 F80
X-21.216 Y27.234 Z-4.789
X-21.201 Y27.205 Z-4.77
X-21.173 Y27.191 Z-4.739
X-21.155 Y27.181 Z-4.699
X-21.148 Z-4.675
X-21.146 Z-4.65
G0 Z4
X-21.107 Y27.275
G1 Z-3.5 F80
Z-5
X-21.119 Y27.295 F200
X-21.148 Y27.308
X-21.183 Y27.3
X-21.212 Y27.267
X-21.216 Y27.234
X-21.199 Y27.202
X-21.155 Y27.183
X-21.133
X-21.098 Y27.223
X-21.095 Y27.256
X-21.107 Y27.275
X-21.119 Y27.295 Z-4.998 F80
X-21.148 Y27.308 Z-4.989
X-21.183 Y27.3 Z-4.969
X-21.2 Y27.281 Z-4.945
X-21.212 Y27.267 Z-4.915
X-21.214 Y27.256 Z-4.883
Y27.253 Z-4.85
G0 Z4
X-21.161 Y27.302
G1 Z-3.7 F80
Z-5.15
X-21.167 Y27.301 Z-5.19
X-21.182 Y27.296 Z-5.227
X-21.202 Y27.278 Z-5.254
X-21.213 Y27.253 Z-5.281
X-21.211 Y27.229 Z-5.287
X-21.2 Y27.207 Z-5.294
X-21.181 Y27.192 Z-5.3
X-21.166 Y27.185 F200
X-21.135
X-21.117 Y27.199
X-21.098 Y27.221
X-21.094 Y27.259
X-21.113 Y27.292
X-21.151 Y27.307
X-21.18 Y27.301
X-21.189 Y27.295
X-21.212 Y27.267
X-21.216 Y27.234
X-21.214 Y27.229
X-21.198 Y27.201
X-21.181 Y27.192
X-21.166 Y27.185 Z-5.299 F80
X-21.135 Z-5.292
X-21.117 Y27.199 Z-5.283
X-21.098 Y27.221 Z-5.262
X-21.096 Y27.243 Z-5.238
X-21.094 Y27.259 Z-5.209
X-21.099 Y27.267 Z-5.18
X-21.1 Y27.27 Z-5.15
G0 Z4
X-21.185 Y27.198
G1 Z-4 F80
Z-5.6
X-21.169 Y27.188 F200
X-21.132 Y27.189
X-21.116 Y27.2
X-21.101 Y27.219
X-21.099 Y27.225
X-21.096 Y27.258
X-21.113 Y27.289
X-21.123 Y27.296
X-21.138 Y27.303
X-21.177 Y27.301
X-21.205 Y27.279
X-21.211 Y27.265
X-21.214 Y27.234
X-21.211 Y27.224
X-21.203 Y27.21
X-21.185 Y27.198
X-21.169 Y27.188 Z-5.599 F80
X-21.132 Y27.189 Z-5.589
X-21.116 Y27.2 Z-5.579
X-21.101 Y27.219 Z-5.562
X-21.099 Y27.225 Z-5.556
X-21.097 Y27.244 Z-5.532
X-21.096 Y27.258 Z-5.506
X-21.1 Y27.265 Z-5.478
X-21.101 Y27.267 Z-5.45
G0 Z4
X-21.207 Y27.227
G1 Z-4.3 F80
Z-5.9
X-21.2 Y27.209 F200
X-21.17 Y27.189
X-21.153 Y27.188
X-21.135
X-21.116 Y27.202
X-21.107 Y27.213
X-21.097 Y27.248
X-21.108 Y27.28
X-21.134 Y27.301
X-21.163 Y27.302
X-21.178 Y27.299
X-21.202 Y27.281
X-21.214 Y27.248
X-21.207 Y27.227
X-21.2 Y27.209 Z-5.899 F80
X-21.17 Y27.189 Z-5.889
X-21.153 Y27.188 Z-5.881
X-21.135 Z-5.869
X-21.116 Y27.202 Z-5.848
X-21.107 Y27.213 Z-5.827
X-21.102 Y27.229 Z-5.79
X-21.101 Y27.234 Z-5.75
G0 Z4
X-21.207 Y27.227
G1 Z-4.6 F80
Z-6.2
X-21.2 Y27.209 F200
X-21.17 Y27.189
X-21.153 Y27.188
X-21.135
X-21.116 Y27.202
X-21.107 Y27.213
X-21.097 Y27.248
X-21.108 Y27.28
X-21.134 Y27.301
X-21.163 Y27.302
X-21.178 Y27.299
X-21.202 Y27.281
X-21.214 Y27.248
X-21.207 Y27.227
X-21.2 Y27.209 Z-6.199 F80
X-21.17 Y27.189 Z-6.189
X-21.153 Y27.188 Z-6.181
X-21.135 Z-6.169
X-21.116 Y27.202 Z-6.148
X-21.107 Y27.213 Z-6.127
X-21.102 Y27.229 Z-6.09
X-21.101 Y27.234 Z-6.05
G0 Z4
X-21.207 Y27.227
G1 Z-4.9 F80
Z-6.5
X-21.2 Y27.209 F200
X-21.17 Y27.189
X-21.153 Y27.188
X-21.135
X-21.116 Y27.202
X-21.107 Y27.213
X-21.097 Y27.248
X-21.108 Y27.28
X-21.134 Y27.301
X-21.163 Y27.302
X-21.178 Y27.299
X-21.202 Y27.281
X-21.214 Y27.248
X-21.207 Y27.227
X-21.2 Y27.209 Z-6.499 F80
X-21.17 Y27.189 Z-6.489
X-21.153 Y27.188 Z-6.481
X-21.135 Z-6.469
X-21.116 Y27.202 Z-6.448
X-21.107 Y27.213 Z-6.427
X-21.102 Y27.229 Z-6.39
X-21.101 Y27.234 Z-6.35
G0 Z4
X-21.207 Y27.227
G1 Z-5.2 F80
Z-6.8
X-21.2 Y27.209 F200
X-21.17 Y27.189
X-21.153 Y27.188
X-21.135
X-21.116 Y27.202
X-21.107 Y27.213
X-21.097 Y27.248
X-21.108 Y27.28
X-21.134 Y27.301
X-21.163 Y27.302
X-21.178 Y27.299
X-21.202 Y27.281
X-21.214 Y27.248
X-21.207 Y27.227
X-21.2 Y27.209 Z-6.799 F80
X-21.17 Y27.189 Z-6.789
X-21.153 Y27.188 Z-6.781
X-21.135 Z-6.769
X-21.116 Y27.202 Z-6.748
X-21.107 Y27.213 Z-6.727
X-21.102 Y27.229 Z-6.69
X-21.101 Y27.234 Z-6.65
G0 Z4
X-21.207 Y27.227
G1 Z-5.5 F80
Z-7.1
X-21.2 Y27.209 F200
X-21.17 Y27.189
X-21.153 Y27.188
X-21.135
X-21.116 Y27.202
X-21.107 Y27.213
X-21.097 Y27.248
X-21.108 Y27.28
X-21.134 Y27.301
X-21.163 Y27.302
X-21.178 Y27.299
X-21.202 Y27.281
X-21.214 Y27.248
X-21.207 Y27.227
X-21.2 Y27.209 Z-7.099 F80
X-21.17 Y27.189 Z-7.089
X-21.153 Y27.188 Z-7.081
X-21.135 Z-7.069
X-21.116 Y27.202 Z-7.048
X-21.107 Y27.213 Z-7.027
X-21.102 Y27.229 Z-6.99
X-21.101 Y27.234 Z-6.95
G0 Z4
X-21.207 Y27.227
G1 Z-5.8 F80
Z-7.4
X-21.2 Y27.209 F200
X-21.17 Y27.189
X-21.153 Y27.188
X-21.135
X-21.116 Y27.202
X-21.107 Y27.213
X-21.097 Y27.248
X-21.108 Y27.28
X-21.134 Y27.301
X-21.163 Y27.302
X-21.178 Y27.299
X-21.202 Y27.281
X-21.214 Y27.248
X-21.207 Y27.227
X-21.2 Y27.209 Z-7.399 F80
X-21.17 Y27.189 Z-7.389
X-21.153 Y27.188 Z-7.381
X-21.135 Z-7.369
X-21.116 Y27.202 Z-7.348
X-21.107 Y27.213 Z-7.327
X-21.102 Y27.229 Z-7.29
X-21.101 Y27.234 Z-7.25
G0 Z4
X-21.207 Y27.227
G1 Z-6.1 F80
Z-7.7
X-21.2 Y27.209 F200
X-21.17 Y27.189
X-21.153 Y27.188
X-21.135
X-21.116 Y27.202
X-21.107 Y27.213
X-21.097 Y27.248
X-21.108 Y27.28
X-21.134 Y27.301
X-21.163 Y27.302
X-21.178 Y27.299
X-21.202 Y27.281
X-21.214 Y27.248
X-21.207 Y27.227
X-21.2 Y27.209 Z-7.699 F80
X-21.17 Y27.189 Z-7.689
X-21.153 Y27.188 Z-7.681
X-21.135 Z-7.669
X-21.116 Y27.202 Z-7.648
X-21.107 Y27.213 Z-7.627
X-21.102 Y27.229 Z-7.59
X-21.101 Y27.234 Z-7.55
G0 Z4
X-18.873 Y25.11
Z0.315
G1 X-20.034 Z0.217 F80
X-20.066 Y25.103
X-20.092 Y25.082
X-20.107 Y25.052
Y25.019
X-20.092 Y24.989
X-20.066 Y24.968
X-20.034 Y24.96
X-18.494 Z0.087
X-18.462 Y24.968
X-18.436 Y24.989
X-18.421 Y25.019
Y25.052
X-18.436 Y25.082
X-18.462 Y25.103
X-18.494 Y25.11
X-20.034 Z-0.043
X-20.066 Y25.103
X-20.092 Y25.082
X-20.107 Y25.052
Y25.019
X-20.092 Y24.989
X-20.066 Y24.968
X-20.034 Y24.96
X-18.494 Z-0.173
X-18.462 Y24.968
X-18.436 Y24.989
X-18.421 Y25.019
Y25.052
X-18.436 Y25.082
X-18.462 Y25.103
X-18.494 Y25.11
X-19.993 Z-0.3
X-20.052 Y25.166
X-20.094 Y25.147 F200
X-20.237 Y25.035
X-20.286 Y25.002
X-20.598 Y24.829
X-20.653 Y24.805
X-20.711 Y24.789
X-20.833 Y24.766
X-20.91 Y24.759
X-21.173 Y24.765
X-21.207 Y24.745
X-21.346 Y24.496
X-21.373 Y24.455
X-21.406 Y24.417
X-21.495 Y24.326
X-21.534 Y24.292
X-21.576 Y24.264
X-24.817 Y22.402
X-24.714 Y22.228
X-20.173 Y24.832
X-20.121 Y24.856
X-20.066 Y24.873
X-19.955 Y24.897
X-19.915 Y24.904
X-19.875 Y24.906
X-1.637 Y24.907
X-1.457 Y24.965
X-1.422 Y25.012
X-1.423 Y25.08
X-1.454 Y25.123
X-1.639 Y25.185
X-19.961 Y25.184
X-20.033 Y25.174
X-20.052 Y25.166
X-20.083 Y25.144
X-20.103 Y25.113
X-20.111 Y25.076
X-20.104 Y25.039
X-20.085 Y25.007
X-20.055 Y24.985
X-20.019 Y24.975
X-19.177 Y24.911
X-19.141 Y24.914
X-19.109 Y24.93
X-19.085 Y24.956
X-19.071 Y24.989
X-19.07 Y25.024
X-19.081 Y25.058
X-19.103 Y25.086
X-19.134 Y25.104
X-19.169 Y25.11
X-19.993 Z-0.6 F80
X-20.008 Y25.115
X-20.018 Y25.128
X-20.013 Y25.177
X-20.033 Y25.174 F200
X-20.094 Y25.147
X-20.237 Y25.035
X-20.286 Y25.002
X-20.598 Y24.829
X-20.653 Y24.805
X-20.711 Y24.789
X-20.833 Y24.766
X-20.91 Y24.759
X-21.173 Y24.765
X-21.207 Y24.745
X-21.346 Y24.496
X-21.373 Y24.455
X-21.406 Y24.417
X-21.495 Y24.326
X-21.534 Y24.292
X-21.576 Y24.264
X-24.817 Y22.402
X-24.714 Y22.228
X-20.173 Y24.832
X-20.121 Y24.856
X-20.066 Y24.873
X-19.955 Y24.897
X-19.915 Y24.904
X-19.875 Y24.906
X-1.637 Y24.907
X-1.457 Y24.965
X-1.422 Y25.012
X-1.423 Y25.08
X-1.454 Y25.123
X-1.639 Y25.185
X-19.961 Y25.184
X-20.013 Y25.177
X-20.036 Y25.167
X-20.051 Y25.146
X-20.053 Y25.12
X-20.041 Y25.098
X-20.02 Y25.084
X-19.85 Y25.037
X-19.315 Y25.044
X-19.243 Y25.068
X-19.231 Y25.078
X-19.229 Y25.092
X-19.236 Y25.105
X-19.25 Y25.11
X-20.034 Z-0.885 F80
X-20.066 Y25.103
X-20.092 Y25.082
X-20.107 Y25.052
Y25.019
X-20.092 Y24.989
X-20.066 Y24.968
X-20.034 Y24.96
X-19.993 Z-0.9
X-19.976 Y24.956
X-19.963 Y24.943
Y24.895
X-19.955 Y24.897 F200
X-19.915 Y24.904
X-19.875 Y24.906
X-1.637 Y24.907
X-1.457 Y24.965
X-1.422 Y25.012
X-1.423 Y25.08
X-1.454 Y25.123
X-1.639 Y25.185
X-19.961 Y25.184
X-20.033 Y25.174
X-20.094 Y25.147
X-20.237 Y25.035
X-20.286 Y25.002
X-20.598 Y24.829
X-20.653 Y24.805
X-20.711 Y24.789
X-20.833 Y24.766
X-20.91 Y24.759
X-21.173 Y24.765
X-21.207 Y24.745
X-21.346 Y24.496
X-21.373 Y24.455
X-21.406 Y24.417
X-21.495 Y24.326
X-21.534 Y24.292
X-21.576 Y24.264
X-24.817 Y22.402
X-24.714 Y22.228
X-20.173 Y24.832
X-20.121 Y24.856
X-20.066 Y24.873
X-19.963 Y24.895
X-19.942 Y24.905
X-19.929 Y24.924
X-19.894 Y25.008
X-19.876 Y25.029
X-19.85 Y25.037
X-19.315 Y25.044
X-19.243 Y25.068
X-19.231 Y25.078
X-19.229 Y25.092
X-19.236 Y25.105
X-19.25 Y25.11
X-20.034 Z-1.185 F80
X-20.066 Y25.103
X-20.092 Y25.082
X-20.107 Y25.052
Y25.019
X-20.092 Y24.989
X-20.066 Y24.968
X-20.034 Y24.96
X-19.993 Z-1.2
X-19.976 Y24.956
X-19.963 Y24.943
Y24.895
X-19.955 Y24.897 F200
X-19.915 Y24.904
X-19.875 Y24.906
X-1.637 Y24.907
X-1.457 Y24.965
X-1.422 Y25.012
X-1.423 Y25.08
X-1.454 Y25.123
X-1.639 Y25.185
X-19.961 Y25.184
X-20.033 Y25.174
X-20.094 Y25.147
X-20.237 Y25.035
X-20.286 Y25.002
X-20.598 Y24.829
X-20.653 Y24.805
X-20.711 Y24.789
X-20.833 Y24.766
X-20.909 Y24.759
X-21.173 Y24.764
X-21.207 Y24.745
X-21.346 Y24.496
X-21.373 Y24.455
X-21.406 Y24.417
X-21.495 Y24.326
X-21.534 Y24.292
X-21.576 Y24.264
X-24.817 Y22.402
X-24.714 Y22.228
X-20.173 Y24.832
X-20.121 Y24.856
X-20.066 Y24.873
X-19.963 Y24.895
X-19.942 Y24.905
X-19.929 Y24.924
X-19.894 Y25.008
X-19.876 Y25.029
X-19.85 Y25.037
X-19.234 Y25.044
X-19.162 Y25.068
X-19.15 Y25.078
X-19.148 Y25.092
X-19.155 Y25.105
X-19.169 Y25.11
X-19.993 Z-1.5 F80
X-20.008 Y25.115
X-20.018 Y25.128
X-20.013 Y25.177
X-20.033 Y25.174 F200
X-20.094 Y25.147
X-20.237 Y25.035
X-20.286 Y25.002
X-20.598 Y24.829
X-20.653 Y24.805
X-20.711 Y24.789
X-20.833 Y24.766
X-20.904 Y24.759
X-21.18 Y24.76
X-21.207 Y24.745
X-21.346 Y24.496
X-21.373 Y24.455
X-21.406 Y24.417
X-21.495 Y24.326
X-21.534 Y24.292
X-21.576 Y24.264
X-24.817 Y22.402
X-24.714 Y22.228
X-20.173 Y24.832
X-20.121 Y24.856
X-20.066 Y24.873
X-19.955 Y24.897
X-19.915 Y24.904
X-19.875 Y24.906
X-1.637 Y24.907
X-1.457 Y24.965
X-1.422 Y25.012
X-1.423 Y25.08
X-1.454 Y25.123
X-1.639 Y25.185
X-19.961 Y25.184
X-20.013 Y25.177
X-20.036 Y25.167
X-20.051 Y25.146
X-20.053 Y25.12
X-20.041 Y25.098
X-20.02 Y25.084
X-19.85 Y25.037
X-19.315 Y25.044
X-19.243 Y25.068
X-19.231 Y25.078
X-19.229 Y25.092
X-19.236 Y25.105
X-19.25 Y25.11
X-20.034 Z-1.785 F80
X-20.066 Y25.103
X-20.092 Y25.082
X-20.107 Y25.052
Y25.019
X-20.092 Y24.989
X-20.066 Y24.968
X-20.034 Y24.96
X-19.993 Z-1.8
X-19.976 Y24.956
X-19.963 Y24.943
Y24.895
X-19.955 Y24.897 F200
X-19.915 Y24.904
X-19.875 Y24.906
X-1.637 Y24.907
X-1.457 Y24.965
X-1.422 Y25.012
X-1.423 Y25.08
X-1.454 Y25.123
X-1.639 Y25.185
X-19.961 Y25.184
X-20.033 Y25.174
X-20.094 Y25.147
X-20.237 Y25.035
X-20.286 Y25.002
X-20.598 Y24.829
X-20.653 Y24.805
X-20.711 Y24.789
X-20.833 Y24.766
X-20.904 Y24.759
X-21.18 Y24.76
X-21.207 Y24.745
X-21.346 Y24.496
X-21.373 Y24.455
X-21.406 Y24.417
X-21.495 Y24.326
X-21.534 Y24.292
X-21.576 Y24.264
X-24.817 Y22.402
X-24.714 Y22.228
X-20.173 Y24.832
X-20.121 Y24.856
X-20.066 Y24.873
X-19.963 Y24.895
X-19.942 Y24.905
X-19.929 Y24.924
X-19.894 Y25.008
X-19.876 Y25.029
X-19.85 Y25.037
X-19.234 Y25.044
X-19.162 Y25.068
X-19.15 Y25.078
X-19.148 Y25.092
X-19.155 Y25.105
X-19.169 Y25.11
X-19.993 Z-2.1 F80
X-20.008 Y25.115
X-20.018 Y25.128
X-20.013 Y25.177
X-20.033 Y25.174 F200
X-20.094 Y25.147
X-20.237 Y25.035
X-20.286 Y25.002
X-20.598 Y24.829
X-20.653 Y24.805
X-20.711 Y24.789
X-20.833 Y24.766
X-20.904 Y24.759
X-21.18 Y24.76
X-21.207 Y24.745
X-21.346 Y24.496
X-21.373 Y24.455
X-21.406 Y24.417
X-21.495 Y24.326
X-21.534 Y24.292
X-21.576 Y24.264
X-24.817 Y22.402
X-24.714 Y22.228
X-20.173 Y24.832
X-20.121 Y24.856
X-20.066 Y24.873
X-19.955 Y24.897
X-19.915 Y24.904
X-19.875 Y24.906
X-1.637 Y24.907
X-1.457 Y24.965
X-1.422 Y25.012
X-1.423 Y25.08
X-1.454 Y25.123
X-1.639 Y25.185
X-19.961 Y25.184
X-20.013 Y25.177
X-20.036 Y25.167
X-20.051 Y25.146
X-20.053 Y25.12
X-20.041 Y25.098
X-20.02 Y25.084
X-19.85 Y25.037
X-19.315 Y25.044
X-19.243 Y25.068
X-19.231 Y25.078
X-19.229 Y25.092
X-19.236 Y25.105
X-19.25 Y25.11
X-20.034 Z-2.385 F80
X-20.066 Y25.103
X-20.092 Y25.082
X-20.107 Y25.052
Y25.019
X-20.092 Y24.989
X-20.066 Y24.968
X-20.034 Y24.96
X-19.993 Z-2.4
X-19.976 Y24.956
X-19.963 Y24.943
Y24.895
X-19.955 Y24.897 F200
X-19.915 Y24.904
X-19.875 Y24.906
X-1.637 Y24.907
X-1.457 Y24.965
X-1.422 Y25.012
X-1.423 Y25.08
X-1.454 Y25.123
X-1.639 Y25.185
X-19.961 Y25.184
X-20.033 Y25.174
X-20.094 Y25.147
X-20.237 Y25.035
X-20.286 Y25.002
X-20.598 Y24.829
X-20.653 Y24.805
X-20.711 Y24.789
X-20.833 Y24.766
X-20.904 Y24.759
X-21.179 Y24.76
X-21.207 Y24.744
X-21.346 Y24.496
X-21.373 Y24.455
X-21.406 Y24.417
X-21.495 Y24.326
X-21.534 Y24.292
X-21.576 Y24.264
X-24.817 Y22.402
X-24.714 Y22.228
X-20.173 Y24.832
X-20.121 Y24.856
X-20.066 Y24.873
X-19.963 Y24.895
X-19.942 Y24.905
X-19.929 Y24.924
X-19.894 Y25.008
X-19.876 Y25.029
X-19.85 Y25.037
X-19.315 Y25.044
X-19.243 Y25.068
X-19.231 Y25.078
X-19.229 Y25.092
X-19.236 Y25.105
X-19.25 Y25.11
X-20.034 Z-2.685 F80
X-20.066 Y25.103
X-20.092 Y25.082
X-20.107 Y25.052
Y25.019
X-20.092 Y24.989
X-20.066 Y24.968
X-20.034 Y24.96
X-19.993 Z-2.7
X-19.976 Y24.956
X-19.963 Y24.943
Y24.895
X-19.955 Y24.897 F200
X-19.915 Y24.904
X-19.875 Y24.906
X-1.637 Y24.907
X-1.457 Y24.965
X-1.422 Y25.012
X-1.423 Y25.08
X-1.454 Y25.123
X-1.639 Y25.185
X-19.961 Y25.184
X-20.033 Y25.174
X-20.094 Y25.147
X-20.237 Y25.035
X-20.286 Y25.002
X-20.598 Y24.829
X-20.647 Y24.807
X-20.698 Y24.791
X-20.794 Y24.77
X-20.835 Y24.763
X-20.876 Y24.761
X-21.177
X-21.208 Y24.742
X-21.346 Y24.496
X-21.373 Y24.455
X-21.406 Y24.417
X-21.495 Y24.326
X-21.534 Y24.292
X-21.576 Y24.264
X-24.817 Y22.402
X-24.714 Y22.228
X-20.173 Y24.832
X-20.121 Y24.856
X-20.066 Y24.873
X-19.963 Y24.895
X-19.942 Y24.905
X-19.929 Y24.924
X-19.894 Y25.008
X-19.876 Y25.029
X-19.85 Y25.037
X-19.234 Y25.044
X-19.162 Y25.068
X-19.15 Y25.078
X-19.148 Y25.092
X-19.155 Y25.105
X-19.169 Y25.11
X-19.993 Z-3 F80
X-20.052 Y25.166
X-20.094 Y25.147 F200
X-20.237 Y25.035
X-20.286 Y25.002
X-20.598 Y24.829
X-20.652 Y24.805
X-20.71 Y24.789
X-20.83 Y24.766
X-20.902 Y24.759
X-21.176 Y24.76
X-21.209 Y24.741
X-21.346 Y24.496
X-21.373 Y24.455
X-21.406 Y24.417
X-21.495 Y24.326
X-21.534 Y24.292
X-21.576 Y24.264
X-24.817 Y22.402
X-24.714 Y22.228
X-20.173 Y24.832
X-20.121 Y24.856
X-20.066 Y24.873
X-19.955 Y24.897
X-19.915 Y24.904
X-19.875 Y24.906
X-1.637 Y24.907
X-1.457 Y24.965
X-1.422 Y25.012
X-1.423 Y25.08
X-1.454 Y25.123
X-1.639 Y25.185
X-19.961 Y25.184
X-20.033 Y25.174
X-20.052 Y25.166
X-20.094 Y25.147 Z-2.993 F80
X-20.127 Y25.121 Z-2.972
X-20.153 Y25.101 Z-2.938
X-20.17 Y25.088 Z-2.897
X-20.176 Y25.083 Z-2.85
G0 Z4
X-21.208 Y24.692
G1 Z-1.7 F80
Z-3.3
X-21.206 Y24.672 F200
X-21.189 Y24.654
X-21.181 Y24.645
X-21.144 Y24.64
X-21.115 Y24.657
X-21.1 Y24.697
X-21.109 Y24.728
X-21.153 Y24.76
X-21.176
X-21.208 Y24.743
X-21.212 Y24.734
X-21.208 Y24.692
X-21.206 Y24.672 Z-3.299 F80
X-21.181 Y24.645 Z-3.289
X-21.144 Y24.64 Z-3.267
X-21.128 Y24.649 Z-3.249
X-21.115 Y24.657 Z-3.228
X-21.109 Y24.672 Z-3.191
X-21.107 Y24.678 Z-3.15
G0 Z4
X-21.208 Y24.692
G1 Z-2 F80
Z-3.6
X-21.206 Y24.672 F200
X-21.189 Y24.654
X-21.181 Y24.645
X-21.144 Y24.64
X-21.115 Y24.657
X-21.1 Y24.697
X-21.109 Y24.728
X-21.152 Y24.76
X-21.174
X-21.208 Y24.741
X-21.212 Y24.733
X-21.208 Y24.692
X-21.206 Y24.672 Z-3.599 F80
X-21.181 Y24.645 Z-3.589
X-21.144 Y24.64 Z-3.567
X-21.128 Y24.649 Z-3.549
X-21.115 Y24.657 Z-3.528
X-21.109 Y24.672 Z-3.491
X-21.107 Y24.678 Z-3.45
G0 Z4
X-21.125 Y24.74
G1 Z-2.3 F80
Z-3.9
X-21.151 Y24.759 F200
X-21.181
X-21.188 Y24.755
X-21.208 Y24.741
X-21.212 Y24.734
X-21.206 Y24.672
X-21.181 Y24.645
X-21.144 Y24.64
X-21.115 Y24.657
X-21.1 Y24.697
X-21.109 Y24.728
X-21.125 Y24.74
X-21.151 Y24.759 Z-3.897 F80
X-21.181 Z-3.887
X-21.188 Y24.755 Z-3.882
X-21.208 Y24.741 Z-3.866
X-21.212 Y24.734 Z-3.859
X-21.21 Y24.708 Z-3.828
X-21.208 Y24.692 Z-3.79
Y24.687 Z-3.75
G0 Z4
X-21.125 Y24.74
G1 Z-2.6 F80
Z-4.2
X-21.15 Y24.758 F200
X-21.18
X-21.187 Y24.754
X-21.209 Y24.738
X-21.212 Y24.734
X-21.206 Y24.672
X-21.181 Y24.645
X-21.144 Y24.64
X-21.115 Y24.657
X-21.1 Y24.697
X-21.109 Y24.728
X-21.125 Y24.74
X-21.15 Y24.758 Z-4.197 F80
X-21.18 Z-4.187
X-21.187 Y24.754 Z-4.183
X-21.209 Y24.738 Z-4.165
X-21.212 Y24.734 Z-4.16
X-21.21 Y24.708 Z-4.128
X-21.208 Y24.691 Z-4.091
Y24.686 Z-4.05
G0 Z4
X-21.125 Y24.74
G1 Z-2.9 F80
Z-4.5
X-21.149 Y24.757 F200
X-21.178
X-21.212 Y24.733
X-21.206 Y24.672
X-21.181 Y24.645
X-21.144 Y24.64
X-21.115 Y24.657
X-21.1 Y24.697
X-21.109 Y24.728
X-21.125 Y24.74
X-21.149 Y24.757 Z-4.497 F80
X-21.178 Z-4.488
X-21.196 Y24.745 Z-4.476
X-21.212 Y24.733 Z-4.461
X-21.21 Y24.706 Z-4.429
X-21.208 Y24.69 Z-4.391
Y24.684 Z-4.35
G0 Z4
X-21.107 Y24.713
G1 Z-3.2 F80
Z-4.65
X-21.11 Y24.722 Z-4.703
X-21.129 Y24.742 Z-4.748
X-21.153 Y24.75 Z-4.767
X-21.178 Y24.745 Z-4.786
X-21.194 Y24.732 Z-4.791
X-21.204 Y24.714 Z-4.795
X-21.207 Y24.694 Z-4.8
X-21.205 Y24.671 F200
X-21.181 Y24.646
X-21.143 Y24.641
X-21.115 Y24.657
X-21.1 Y24.697
X-21.109 Y24.728
X-21.148 Y24.756
X-21.178
X-21.209 Y24.734
X-21.207 Y24.694
X-21.205 Y24.671 Z-4.798 F80
X-21.181 Y24.646 Z-4.789
X-21.143 Y24.641 Z-4.765
X-21.128 Y24.65 Z-4.748
X-21.115 Y24.657 Z-4.727
X-21.109 Y24.672 Z-4.69
X-21.107 Y24.677 Z-4.65
G0 Z4
X-21.124 Y24.74
G1 Z-3.5 F80
Z-5
X-21.147 Y24.756 F200
X-21.178
X-21.209 Y24.733
X-21.204 Y24.67
X-21.182 Y24.647
X-21.143 Y24.642
X-21.115 Y24.658
X-21.1 Y24.697
X-21.109 Y24.728
X-21.124 Y24.74
X-21.147 Y24.756 Z-4.997 F80
X-21.178 Z-4.988
X-21.209 Y24.733 Z-4.964
X-21.207 Y24.705 Z-4.932
X-21.206 Y24.687 Z-4.893
X-21.205 Y24.681 Z-4.85
G0 Z4
X-21.124 Y24.74
G1 Z-3.7 F80
Z-5.3
X-21.146 Y24.755 F200
X-21.174
X-21.209 Y24.73
X-21.211 Y24.723
X-21.207 Y24.677
X-21.178 Y24.647
X-21.145 Y24.642
X-21.114 Y24.66
X-21.1 Y24.697
X-21.109 Y24.728
X-21.124 Y24.74
X-21.146 Y24.755 Z-5.298 F80
X-21.174 Z-5.29
X-21.193 Y24.742 Z-5.279
X-21.209 Y24.73 Z-5.264
X-21.211 Y24.723 Z-5.257
X-21.209 Y24.699 Z-5.226
X-21.208 Y24.684 Z-5.189
X-21.207 Y24.678 Z-5.15
G0 Z4
X-21.125 Y24.74
G1 Z-4 F80
Z-5.6
X-21.145 Y24.754 F200
X-21.174
X-21.206 Y24.731
X-21.21 Y24.719
X-21.205 Y24.674
X-21.18 Y24.647
X-21.145 Y24.642
X-21.113 Y24.662
X-21.1 Y24.697
X-21.109 Y24.728
X-21.125 Y24.74
X-21.145 Y24.754 Z-5.598 F80
X-21.174 Z-5.59
X-21.206 Y24.731 Z-5.567
X-21.21 Y24.719 Z-5.556
X-21.207 Y24.695 Z-5.525
X-21.205 Y24.681 Z-5.489
Y24.676 Z-5.45
G0 Z4
X-21.206 Y24.692
G1 Z-4.3 F80
Z-5.9
X-21.203 Y24.669 F200
X-21.183 Y24.648
X-21.145 Y24.643
X-21.113 Y24.663
X-21.1 Y24.697
X-21.109 Y24.728
X-21.145 Y24.754
X-21.174
X-21.201 Y24.734
X-21.208 Y24.714
X-21.206 Y24.692
X-21.203 Y24.669 Z-5.898 F80
X-21.183 Y24.648 Z-5.891
X-21.145 Y24.643 Z-5.87
X-21.127 Y24.654 Z-5.851
X-21.113 Y24.663 Z-5.828
X-21.107 Y24.678 Z-5.79
X-21.105 Y24.683 Z-5.75
G0 Z4
X-21.206 Y24.692
G1 Z-4.6 F80
Z-6.2
X-21.203 Y24.669 F200
X-21.183 Y24.648
X-21.145 Y24.643
X-21.113 Y24.663
X-21.1 Y24.697
X-21.109 Y24.728
X-21.145 Y24.754
X-21.174
X-21.201 Y24.734
X-21.208 Y24.714
X-21.206 Y24.692
X-21.203 Y24.669 Z-6.198 F80
X-21.183 Y24.648 Z-6.191
X-21.145 Y24.643 Z-6.17
X-21.127 Y24.654 Z-6.151
X-21.113 Y24.663 Z-6.128
X-21.107 Y24.678 Z-6.09
X-21.105 Y24.683 Z-6.05
G0 Z4
X-21.206 Y24.692
G1 Z-4.9 F80
Z-6.5
X-21.203 Y24.669 F200
X-21.183 Y24.648
X-21.145 Y24.643
X-21.113 Y24.663
X-21.1 Y24.697
X-21.109 Y24.728
X-21.145 Y24.754
X-21.174
X-21.201 Y24.734
X-21.208 Y24.714
X-21.206 Y24.692
X-21.203 Y24.669 Z-6.498 F80
X-21.183 Y24.648 Z-6.491
X-21.145 Y24.643 Z-6.47
X-21.127 Y24.654 Z-6.451
X-21.113 Y24.663 Z-6.428
X-21.107 Y24.678 Z-6.39
X-21.105 Y24.683 Z-6.35
G0 Z4
X-21.206 Y24.692
G1 Z-5.2 F80
Z-6.8
X-21.203 Y24.669 F200
X-21.183 Y24.648
X-21.145 Y24.643
X-21.113 Y24.663
X-21.1 Y24.697
X-21.109 Y24.728
X-21.145 Y24.754
X-21.174
X-21.201 Y24.734
X-21.208 Y24.714
X-21.206 Y24.692
X-21.203 Y24.669 Z-6.798 F80
X-21.183 Y24.648 Z-6.791
X-21.145 Y24.643 Z-6.77
X-21.127 Y24.654 Z-6.751
X-21.113 Y24.663 Z-6.728
X-21.107 Y24.678 Z-6.69
X-21.105 Y24.683 Z-6.65
G0 Z4
X-21.206 Y24.692
G1 Z-5.5 F80
Z-7.1
X-21.203 Y24.669 F200
X-21.183 Y24.648
X-21.145 Y24.643
X-21.113 Y24.663
X-21.1 Y24.697
X-21.109 Y24.728
X-21.145 Y24.754
X-21.174
X-21.201 Y24.734
X-21.208 Y24.714
X-21.206 Y24.692
X-21.203 Y24.669 Z-7.098 F80
X-21.183 Y24.648 Z-7.091
X-21.145 Y24.643 Z-7.07
X-21.127 Y24.654 Z-7.051
X-21.113 Y24.663 Z-7.028
X-21.107 Y24.678 Z-6.99
X-21.105 Y24.683 Z-6.95
G0 Z4
X-21.206 Y24.692
G1 Z-5.8 F80
Z-7.4
X-21.203 Y24.669 F200
X-21.183 Y24.648
X-21.145 Y24.643
X-21.113 Y24.663
X-21.1 Y24.697
X-21.109 Y24.728
X-21.145 Y24.754
X-21.174
X-21.201 Y24.734
X-21.208 Y24.714
X-21.206 Y24.692
X-21.203 Y24.669 Z-7.398 F80
X-21.183 Y24.648 Z-7.391
X-21.145 Y24.643 Z-7.37
X-21.127 Y24.654 Z-7.351
X-21.113 Y24.663 Z-7.328
X-21.107 Y24.678 Z-7.29
X-21.105 Y24.683 Z-7.25
G0 Z4
X-21.206 Y24.692
G1 Z-6.1 F80
Z-7.7
X-21.203 Y24.669 F200
X-21.183 Y24.648
X-21.145 Y24.643
X-21.113 Y24.663
X-21.1 Y24.697
X-21.109 Y24.728
X-21.145 Y24.754
X-21.174
X-21.201 Y24.734
X-21.208 Y24.714
X-21.206 Y24.692
X-21.203 Y24.669 Z-7.698 F80
X-21.183 Y24.648 Z-7.691
X-21.145 Y24.643 Z-7.67
X-21.127 Y24.654 Z-7.651
X-21.113 Y24.663 Z-7.628
X-21.107 Y24.678 Z-7.59
X-21.105 Y24.683 Z-7.55
G0 Z4
X-18.813 Y22.603
Z0.315
G1 X-19.973 Z0.217 F80
X-20.006 Y22.596
X-20.032 Y22.575
X-20.047 Y22.545
Y22.511
X-20.032 Y22.481
X-20.006 Y22.461
X-19.973 Y22.453
X-18.434 Z0.087
X-18.401 Y22.461
X-18.375 Y22.481
X-18.361 Y22.511
Y22.545
X-18.375 Y22.575
X-18.401 Y22.596
X-18.434 Y22.603
X-19.973 Z-0.043
X-20.006 Y22.596
X-20.032 Y22.575
X-20.047 Y22.545
Y22.511
X-20.032 Y22.481
X-20.006 Y22.461
X-19.973 Y22.453
X-18.434 Z-0.173
X-18.401 Y22.461
X-18.375 Y22.481
X-18.361 Y22.511
Y22.545
X-18.375 Y22.575
X-18.401 Y22.596
X-18.434 Y22.603
X-19.933 Z-0.3
X-19.95 Y22.608
X-19.961 Y22.622
Y22.681
X-20.048 Y22.665 F200
X-20.098 Y22.636
X-20.261 Y22.433
X-20.288 Y22.402
X-20.319 Y22.374
X-20.395 Y22.314
X-20.44 Y22.283
X-20.49 Y22.259
X-20.603 Y22.214
X-20.659 Y22.196
X-20.718 Y22.188
X-20.831 Y22.18
X-20.893 Y22.181
X-21.168 Y22.209
X-21.201 Y22.191
X-21.219 Y22.155
X-21.179 Y21.836
X-21.176 Y21.785
X-21.181 Y21.733
X-21.198 Y21.619
X-21.209 Y21.57
X-21.226 Y21.524
X-21.26 Y21.447
X-21.284 Y21.401
X-21.315 Y21.359
X-21.41 Y21.245
X-21.429 Y21.224
X-24.098 Y18.473
X-23.949 Y18.329
X-23.546 Y18.751
X-20.18 Y22.219
X-20.133 Y22.26
X-20.079 Y22.293
X-19.966 Y22.35
X-19.91 Y22.373
X-19.851 Y22.386
X-19.737 Y22.403
X-19.684 Y22.407
X-1.638
X-1.457 Y22.466
X-1.422 Y22.516
Y22.578
X-1.458 Y22.627
X-1.637 Y22.685
X-19.947 Y22.684
X-19.961 Y22.681
X-19.986 Y22.669
X-20.001 Y22.646
X-20.002 Y22.618
X-19.989 Y22.594
X-19.965 Y22.58
X-19.777 Y22.531
X-19.167 Y22.544
X-19.102 Y22.566
X-19.092 Y22.574
X-19.09 Y22.587
X-19.096 Y22.599
X-19.109 Y22.603
X-19.933 Z-0.6 F80
X-19.95 Y22.608
X-19.961 Y22.622
Y22.681
X-20.048 Y22.665 F200
X-20.098 Y22.636
X-20.261 Y22.433
X-20.288 Y22.402
X-20.319 Y22.374
X-20.395 Y22.314
X-20.44 Y22.283
X-20.49 Y22.259
X-20.603 Y22.214
X-20.659 Y22.196
X-20.718 Y22.188
X-20.831 Y22.18
X-20.893 Y22.181
X-21.168 Y22.209
X-21.201 Y22.191
X-21.219 Y22.155
X-21.179 Y21.836
X-21.176 Y21.785
X-21.181 Y21.733
X-21.198 Y21.619
X-21.209 Y21.57
X-21.226 Y21.524
X-21.26 Y21.447
X-21.284 Y21.401
X-21.315 Y21.359
X-21.41 Y21.245
X-21.429 Y21.224
X-24.098 Y18.473
X-23.949 Y18.329
X-23.546 Y18.751
X-20.18 Y22.219
X-20.133 Y22.26
X-20.079 Y22.293
X-19.966 Y22.35
X-19.91 Y22.373
X-19.851 Y22.386
X-19.737 Y22.403
X-19.684 Y22.407
X-1.638
X-1.457 Y22.466
X-1.422 Y22.516
Y22.578
X-1.458 Y22.627
X-1.637 Y22.685
X-19.947 Y22.684
X-19.961 Y22.681
X-19.986 Y22.669
X-20.001 Y22.646
X-20.002 Y22.618
X-19.989 Y22.594
X-19.965 Y22.58
X-19.777 Y22.531
X-19.167 Y22.544
X-19.102 Y22.566
X-19.092 Y22.574
X-19.09 Y22.587
X-19.096 Y22.599
X-19.109 Y22.603
X-19.933 Z-0.9 F80
X-19.95 Y22.608
X-19.961 Y22.622
Y22.681
X-20.048 Y22.665 F200
X-20.098 Y22.636
X-20.261 Y22.433
X-20.288 Y22.402
X-20.319 Y22.374
X-20.395 Y22.314
X-20.44 Y22.283
X-20.49 Y22.259
X-20.603 Y22.214
X-20.659 Y22.196
X-20.718 Y22.188
X-20.831 Y22.18
X-20.893 Y22.181
X-21.168 Y22.209
X-21.201 Y22.191
X-21.219 Y22.155
X-21.179 Y21.836
X-21.176 Y21.785
X-21.181 Y21.733
X-21.198 Y21.619
X-21.209 Y21.57
X-21.226 Y21.524
X-21.26 Y21.447
X-21.284 Y21.401
X-21.315 Y21.359
X-21.41 Y21.245
X-21.429 Y21.224
X-24.098 Y18.473
X-23.949 Y18.329
X-23.546 Y18.751
X-20.18 Y22.219
X-20.133 Y22.26
X-20.079 Y22.293
X-19.966 Y22.35
X-19.91 Y22.373
X-19.851 Y22.386
X-19.737 Y22.403
X-19.684 Y22.407
X-1.638
X-1.457 Y22.466
X-1.422 Y22.516
Y22.578
X-1.458 Y22.627
X-1.637 Y22.685
X-19.947 Y22.684
X-19.961 Y22.681
X-19.986 Y22.669
X-20.001 Y22.646
X-20.002 Y22.618
X-19.989 Y22.594
X-19.965 Y22.58
X-19.777 Y22.531
X-19.167 Y22.544
X-19.102 Y22.566
X-19.092 Y22.574
X-19.09 Y22.587
X-19.096 Y22.599
X-19.109 Y22.603
X-19.933 Z-1.2 F80
X-19.95 Y22.608
X-19.961 Y22.622
Y22.681
X-20.048 Y22.665 F200
X-20.098 Y22.636
X-20.261 Y22.433
X-20.288 Y22.402
X-20.319 Y22.374
X-20.395 Y22.314
X-20.44 Y22.283
X-20.49 Y22.259
X-20.603 Y22.214
X-20.659 Y22.196
X-20.718 Y22.188
X-20.831 Y22.18
X-20.893 Y22.181
X-21.168 Y22.209
X-21.201 Y22.191
X-21.219 Y22.155
X-21.179 Y21.836
X-21.176 Y21.785
X-21.181 Y21.733
X-21.198 Y21.619
X-21.209 Y21.57
X-21.226 Y21.524
X-21.26 Y21.447
X-21.284 Y21.401
X-21.315 Y21.359
X-21.41 Y21.245
X-21.429 Y21.224
X-24.098 Y18.473
X-23.949 Y18.329
X-23.546 Y18.751
X-20.18 Y22.219
X-20.133 Y22.26
X-20.079 Y22.293
X-19.966 Y22.35
X-19.91 Y22.373
X-19.851 Y22.386
X-19.737 Y22.403
X-19.684 Y22.407
X-1.638
X-1.457 Y22.466
X-1.422 Y22.516
Y22.578
X-1.458 Y22.627
X-1.637 Y22.685
X-19.947 Y22.684
X-19.961 Y22.681
X-19.986 Y22.669
X-20.001 Y22.646
X-20.002 Y22.618
X-19.989 Y22.594
X-19.965 Y22.58
X-19.777 Y22.531
X-19.167 Y22.544
X-19.102 Y22.566
X-19.092 Y22.574
X-19.09 Y22.587
X-19.096 Y22.599
X-19.109 Y22.603
X-19.933 Z-1.5 F80
X-19.95 Y22.608
X-19.961 Y22.622
Y22.681
X-20.048 Y22.665 F200
X-20.098 Y22.636
X-20.261 Y22.433
X-20.288 Y22.402
X-20.319 Y22.374
X-20.395 Y22.314
X-20.44 Y22.283
X-20.49 Y22.259
X-20.603 Y22.214
X-20.659 Y22.196
X-20.718 Y22.188
X-20.831 Y22.18
X-20.893 Y22.181
X-21.168 Y22.209
X-21.201 Y22.191
X-21.219 Y22.155
X-21.179 Y21.836
X-21.176 Y21.785
X-21.181 Y21.733
X-21.198 Y21.619
X-21.209 Y21.57
X-21.226 Y21.524
X-21.26 Y21.447
X-21.284 Y21.401
X-21.315 Y21.359
X-21.41 Y21.245
X-21.429 Y21.224
X-24.098 Y18.473
X-23.949 Y18.329
X-23.546 Y18.751
X-20.18 Y22.219
X-20.133 Y22.26
X-20.079 Y22.293
X-19.966 Y22.35
X-19.91 Y22.373
X-19.851 Y22.386
X-19.737 Y22.403
X-19.684 Y22.407
X-1.638
X-1.457 Y22.466
X-1.422 Y22.516
Y22.578
X-1.458 Y22.627
X-1.637 Y22.685
X-19.947 Y22.684
X-19.961 Y22.681
X-19.986 Y22.669
X-20.001 Y22.646
X-20.002 Y22.618
X-19.989 Y22.594
X-19.965 Y22.58
X-19.777 Y22.531
X-19.167 Y22.544
X-19.102 Y22.566
X-19.092 Y22.574
X-19.09 Y22.587
X-19.096 Y22.599
X-19.109 Y22.603
X-19.933 Z-1.8 F80
X-19.947 Y22.609
X-19.953 Y22.623
X-19.947 Y22.637
X-19.933 Y22.643
X-19.919 Y22.649
X-19.913 Y22.663
X-19.919 Y22.678
X-19.933 Y22.684
X-19.947 F200
X-20.048 Y22.665
X-20.098 Y22.636
X-20.261 Y22.433
X-20.288 Y22.402
X-20.319 Y22.374
X-20.395 Y22.314
X-20.44 Y22.283
X-20.49 Y22.259
X-20.603 Y22.214
X-20.659 Y22.196
X-20.718 Y22.188
X-20.831 Y22.18
X-20.893 Y22.181
X-21.168 Y22.209
X-21.201 Y22.191
X-21.219 Y22.155
X-21.179 Y21.836
X-21.176 Y21.785
X-21.181 Y21.733
X-21.198 Y21.619
X-21.209 Y21.57
X-21.226 Y21.524
X-21.26 Y21.447
X-21.284 Y21.401
X-21.315 Y21.359
X-21.41 Y21.245
X-21.429 Y21.224
X-24.098 Y18.473
X-23.949 Y18.329
X-23.546 Y18.751
X-20.18 Y22.219
X-20.133 Y22.26
X-20.079 Y22.293
X-19.966 Y22.35
X-19.91 Y22.373
X-19.851 Y22.386
X-19.737 Y22.403
X-19.684 Y22.407
X-1.638
X-1.457 Y22.466
X-1.422 Y22.516
Y22.578
X-1.458 Y22.627
X-1.637 Y22.685
X-19.933 Y22.684
X-19.956 Y22.678
X-19.975 Y22.662
X-19.984 Y22.64
X-19.982 Y22.615
X-19.969 Y22.595
X-19.948 Y22.582
X-19.777 Y22.531
X-19.167 Y22.544
X-19.102 Y22.566
X-19.092 Y22.574
X-19.09 Y22.587
X-19.096 Y22.599
X-19.109 Y22.603
X-19.933 Z-2.1 F80
X-19.95 Y22.608
X-19.961 Y22.622
Y22.681
X-20.048 Y22.665 F200
X-20.098 Y22.636
X-20.261 Y22.433
X-20.288 Y22.402
X-20.319 Y22.374
X-20.395 Y22.314
X-20.44 Y22.283
X-20.49 Y22.259
X-20.603 Y22.214
X-20.659 Y22.196
X-20.718 Y22.188
X-20.831 Y22.18
X-20.893 Y22.181
X-21.168 Y22.209
X-21.201 Y22.191
X-21.219 Y22.155
X-21.179 Y21.836
X-21.176 Y21.785
X-21.181 Y21.733
X-21.198 Y21.619
X-21.209 Y21.57
X-21.226 Y21.524
X-21.26 Y21.447
X-21.284 Y21.401
X-21.315 Y21.359
X-21.41 Y21.245
X-21.429 Y21.224
X-24.098 Y18.473
X-23.949 Y18.329
X-23.546 Y18.751
X-20.18 Y22.219
X-20.133 Y22.26
X-20.079 Y22.293
X-19.966 Y22.35
X-19.91 Y22.373
X-19.851 Y22.386
X-19.737 Y22.403
X-19.684 Y22.407
X-1.638
X-1.457 Y22.466
X-1.422 Y22.516
Y22.578
X-1.458 Y22.627
X-1.637 Y22.685
X-19.947 Y22.684
X-19.961 Y22.681
X-19.986 Y22.669
X-20.001 Y22.646
X-20.002 Y22.618
X-19.989 Y22.594
X-19.965 Y22.58
X-19.777 Y22.531
X-19.167 Y22.544
X-19.102 Y22.566
X-19.092 Y22.574
X-19.09 Y22.587
X-19.096 Y22.599
X-19.109 Y22.603
X-19.933 Z-2.4 F80
X-19.95 Y22.608
X-19.961 Y22.622
Y22.681
X-20.048 Y22.665 F200
X-20.098 Y22.636
X-20.261 Y22.433
X-20.288 Y22.402
X-20.319 Y22.374
X-20.395 Y22.314
X-20.44 Y22.283
X-20.49 Y22.259
X-20.603 Y22.214
X-20.659 Y22.196
X-20.718 Y22.188
X-20.831 Y22.18
X-20.893 Y22.181
X-21.168 Y22.209
X-21.201 Y22.191
X-21.219 Y22.155
X-21.179 Y21.836
X-21.176 Y21.785
X-21.181 Y21.733
X-21.198 Y21.619
X-21.209 Y21.57
X-21.226 Y21.524
X-21.26 Y21.447
X-21.284 Y21.401
X-21.315 Y21.359
X-21.41 Y21.245
X-21.429 Y21.224
X-24.098 Y18.473
X-23.949 Y18.329
X-23.546 Y18.751
X-20.18 Y22.219
X-20.133 Y22.26
X-20.079 Y22.293
X-19.966 Y22.35
X-19.91 Y22.373
X-19.851 Y22.386
X-19.737 Y22.403
X-19.684 Y22.407
X-1.638
X-1.457 Y22.466
X-1.422 Y22.516
Y22.578
X-1.458 Y22.627
X-1.637 Y22.685
X-19.947 Y22.684
X-19.961 Y22.681
X-19.986 Y22.669
X-20.001 Y22.646
X-20.002 Y22.618
X-19.989 Y22.594
X-19.965 Y22.58
X-19.777 Y22.531
X-19.167 Y22.544
X-19.102 Y22.566
X-19.092 Y22.574
X-19.09 Y22.587
X-19.096 Y22.599
X-19.109 Y22.603
X-19.933 Z-2.7 F80
X-19.95 Y22.608
X-19.961 Y22.622
Y22.681
X-20.048 Y22.665 F200
X-20.098 Y22.636
X-20.261 Y22.433
X-20.288 Y22.402
X-20.319 Y22.374
X-20.395 Y22.314
X-20.44 Y22.283
X-20.49 Y22.259
X-20.603 Y22.214
X-20.659 Y22.196
X-20.718 Y22.188
X-20.831 Y22.18
X-20.893 Y22.181
X-21.169 Y22.209
X-21.201 Y22.191
X-21.219 Y22.155
X-21.179 Y21.836
X-21.176 Y21.785
X-21.181 Y21.733
X-21.198 Y21.619
X-21.209 Y21.57
X-21.226 Y21.524
X-21.26 Y21.447
X-21.284 Y21.401
X-21.315 Y21.359
X-21.41 Y21.245
X-21.429 Y21.224
X-24.098 Y18.473
X-23.949 Y18.329
X-23.546 Y18.751
X-20.18 Y22.219
X-20.133 Y22.26
X-20.079 Y22.293
X-19.966 Y22.35
X-19.91 Y22.373
X-19.851 Y22.386
X-19.737 Y22.403
X-19.684 Y22.407
X-1.638
X-1.457 Y22.466
X-1.422 Y22.516
Y22.578
X-1.458 Y22.627
X-1.637 Y22.685
X-19.947 Y22.684
X-19.961 Y22.681
X-19.986 Y22.669
X-20.001 Y22.646
X-20.002 Y22.618
X-19.989 Y22.594
X-19.965 Y22.58
X-19.777 Y22.531
X-19.167 Y22.544
X-19.102 Y22.566
X-19.092 Y22.574
X-19.09 Y22.587
X-19.096 Y22.599
X-19.109 Y22.603
X-19.933 Z-3 F80
X-19.95 Y22.608
X-19.961 Y22.622
Y22.681
X-20.048 Y22.665 F200
X-20.098 Y22.636
X-20.261 Y22.433
X-20.288 Y22.402
X-20.319 Y22.374
X-20.395 Y22.314
X-20.44 Y22.283
X-20.49 Y22.259
X-20.603 Y22.214
X-20.659 Y22.196
X-20.718 Y22.188
X-20.831 Y22.18
X-20.891 Y22.181
X-21.17 Y22.208
X-21.202 Y22.191
X-21.219 Y22.155
X-21.179 Y21.836
X-21.176 Y21.785
X-21.181 Y21.733
X-21.198 Y21.619
X-21.209 Y21.57
X-21.226 Y21.524
X-21.26 Y21.447
X-21.284 Y21.401
X-21.315 Y21.359
X-21.41 Y21.245
X-21.429 Y21.224
X-24.098 Y18.473
X-23.949 Y18.329
X-23.546 Y18.751
X-20.18 Y22.219
X-20.133 Y22.26
X-20.079 Y22.293
X-19.966 Y22.35
X-19.91 Y22.373
X-19.851 Y22.386
X-19.737 Y22.403
X-19.684 Y22.407
X-1.638
X-1.457 Y22.466
X-1.422 Y22.516
Y22.578
X-1.458 Y22.627
X-1.637 Y22.685
X-19.947 Y22.684
X-19.961 Y22.681
X-20.007 Y22.672 Z-2.993 F80
X-20.048 Y22.665 Z-2.971
X-20.07 Y22.652 Z-2.947
X-20.087 Y22.642 Z-2.918
X-20.098 Y22.636 Z-2.885
X-20.1 Y22.633 Z-2.85
G0 Z4
X-21.119 Y22.188
G1 Z-1.7 F80
Z-3.3
X-21.137 Y22.205 F200
X-21.169 Y22.207
X-21.202 Y22.189
X-21.219 Y22.155
X-21.215 Y22.13
X-21.183 Y22.094
X-21.146 Y22.087
X-21.114 Y22.104
X-21.097 Y22.141
X-21.104 Y22.175
X-21.119 Y22.188
X-21.137 Y22.205 Z-3.298 F80
X-21.169 Y22.207 Z-3.289
X-21.202 Y22.189 Z-3.267
X-21.211 Y22.17 Z-3.246
X-21.219 Y22.155 Z-3.221
X-21.217 Y22.142 Z-3.186
X-21.216 Y22.138 Z-3.15
G0 Z4
X-21.119 Y22.188
G1 Z-2 F80
Z-3.6
X-21.136 Y22.204 F200
X-21.169 Y22.207
X-21.201 Y22.188
X-21.218 Y22.154
X-21.215 Y22.13
X-21.183 Y22.094
X-21.146 Y22.087
X-21.114 Y22.104
X-21.097 Y22.141
X-21.104 Y22.175
X-21.119 Y22.188
X-21.136 Y22.204 Z-3.598 F80
X-21.169 Y22.207 Z-3.589
X-21.201 Y22.188 Z-3.567
X-21.211 Y22.169 Z-3.546
X-21.218 Y22.154 Z-3.522
X-21.216 Y22.141 Z-3.487
Y22.136 Z-3.45
G0 Z4
X-21.119 Y22.188
G1 Z-2.3 F80
Z-3.9
X-21.136 Y22.203 F200
X-21.169 Y22.206
X-21.201 Y22.188
X-21.217 Y22.154
X-21.214 Y22.129
X-21.183 Y22.094
X-21.146 Y22.087
X-21.114 Y22.104
X-21.097 Y22.141
X-21.104 Y22.175
X-21.119 Y22.188
X-21.136 Y22.203 Z-3.898 F80
X-21.169 Y22.206 Z-3.889
X-21.201 Y22.188 Z-3.867
X-21.21 Y22.169 Z-3.848
X-21.217 Y22.154 Z-3.825
X-21.215 Y22.14 Z-3.789
Y22.135 Z-3.75
G0 Z4
X-21.197 Y22.11
G1 Z-2.6 F80
Z-4.2
X-21.183 Y22.094 F200
X-21.146 Y22.087
X-21.114 Y22.104
X-21.097 Y22.141
X-21.104 Y22.175
X-21.135 Y22.203
X-21.169 Y22.205
X-21.201 Y22.187
X-21.216 Y22.154
X-21.213 Y22.127
X-21.197 Y22.11
X-21.183 Y22.094 Z-4.199 F80
X-21.146 Y22.087 Z-4.188
X-21.114 Y22.104 Z-4.166
X-21.104 Y22.125 Z-4.143
X-21.097 Y22.141 Z-4.115
X-21.099 Y22.151 Z-4.083
X-21.1 Y22.155 Z-4.05
G0 Z4
X-21.119 Y22.188
G1 Z-2.9 F80
Z-4.5
X-21.134 Y22.202 F200
X-21.169 Y22.204
X-21.2 Y22.186
X-21.215 Y22.153
X-21.213 Y22.125
X-21.188 Y22.099
X-21.183 Y22.094
X-21.146 Y22.087
X-21.114 Y22.104
X-21.097 Y22.141
X-21.104 Y22.175
X-21.119 Y22.188
X-21.134 Y22.202 Z-4.499 F80
X-21.169 Y22.204 Z-4.489
X-21.2 Y22.186 Z-4.468
X-21.209 Y22.167 Z-4.45
X-21.215 Y22.153 Z-4.427
X-21.214 Y22.137 Z-4.39
X-21.213 Y22.131 Z-4.35
G0 Z4
X-21.121 Y22.189
G1 Z-3.2 F80
Z-4.8
X-21.135 Y22.202 F200
X-21.173 Y22.204
X-21.201 Y22.187
X-21.216 Y22.156
X-21.211 Y22.123
X-21.19 Y22.102
X-21.184 Y22.095
X-21.143 Y22.089
X-21.115 Y22.103
X-21.099 Y22.139
X-21.106 Y22.176
X-21.121 Y22.189
X-21.135 Y22.202 Z-4.799 F80
X-21.173 Y22.204 Z-4.789
X-21.201 Y22.187 Z-4.77
X-21.21 Y22.17 Z-4.753
X-21.216 Y22.156 Z-4.733
X-21.213 Y22.137 Z-4.694
X-21.212 Y22.131 Z-4.65
G0 Z4
X-21.186 Y22.195
G1 Z-3.5 F80
Z-5
X-21.201 Y22.186 F200
X-21.217 Y22.153
X-21.213 Y22.125
X-21.193 Y22.104
X-21.185 Y22.096
X-21.143 Y22.09
X-21.115 Y22.105
X-21.1 Y22.138
X-21.108 Y22.178
X-21.139 Y22.204
X-21.167 Y22.207
X-21.186 Y22.195
X-21.201 Y22.186 Z-4.999 F80
X-21.217 Y22.153 Z-4.99
X-21.213 Y22.125 Z-4.975
X-21.193 Y22.104 Z-4.95
X-21.185 Y22.096 Z-4.936
X-21.165 Y22.093 Z-4.895
X-21.158 Y22.092 Z-4.85
G0 Z4
X-21.167 Y22.199
G1 Z-3.7 F80
Z-5.15
X-21.175 Y22.197 Z-5.2
X-21.196 Y22.185 Z-5.244
X-21.21 Y22.163 Z-5.265
X-21.212 Y22.137 Z-5.285
X-21.203 Y22.118 Z-5.29
X-21.188 Y22.103 Z-5.295
X-21.168 Y22.095 Z-5.3
X-21.145 Y22.091 F200
X-21.113 Y22.109
X-21.098 Y22.14
X-21.107 Y22.175
X-21.14 Y22.203
X-21.17 Y22.206
X-21.18 Y22.202
X-21.2 Y22.187
X-21.214 Y22.156
X-21.217 Y22.147
X-21.214 Y22.127
X-21.188 Y22.099
X-21.168 Y22.095
X-21.145 Y22.091 Z-5.298 F80
X-21.113 Y22.109 Z-5.287
X-21.098 Y22.14 Z-5.266
X-21.103 Y22.16 Z-5.246
X-21.107 Y22.175 Z-5.223
X-21.118 Y22.184 Z-5.188
X-21.121 Y22.187 Z-5.15
G0 Z4
X-21.124 Y22.188
G1 Z-4 F80
Z-5.6
X-21.138 Y22.2 F200
X-21.177 Y22.202
X-21.204 Y22.182
X-21.214 Y22.148
X-21.21 Y22.125
X-21.192 Y22.104
X-21.185 Y22.097
X-21.144 Y22.09
X-21.114 Y22.105
X-21.098 Y22.138
X-21.107 Y22.174
X-21.124 Y22.188
X-21.138 Y22.2 Z-5.599 F80
X-21.177 Y22.202 Z-5.589
X-21.204 Y22.182 Z-5.569
X-21.21 Y22.163 Z-5.551
X-21.214 Y22.148 Z-5.53
X-21.211 Y22.131 Z-5.492
X-21.21 Y22.125 Z-5.45
G0 Z4
X-21.125 Y22.188
G1 Z-4.3 F80
Z-5.9
X-21.139 Y22.2 F200
X-21.177 Y22.201
X-21.204 Y22.182
X-21.214 Y22.149
X-21.209 Y22.124
X-21.193 Y22.105
X-21.185 Y22.098
X-21.144 Y22.091
X-21.114 Y22.106
X-21.099 Y22.139
X-21.107 Y22.174
X-21.125 Y22.188
X-21.139 Y22.2 Z-5.899 F80
X-21.177 Y22.201 Z-5.889
X-21.204 Y22.182 Z-5.87
X-21.209 Y22.164 Z-5.854
X-21.214 Y22.149 Z-5.834
X-21.211 Y22.132 Z-5.801
X-21.209 Y22.124 Z-5.764
Y22.123 Z-5.75
G0 Z4
X-21.125 Y22.188
G1 Z-4.6 F80
Z-6.2
X-21.139 Y22.2 F200
X-21.177 Y22.201
X-21.204 Y22.182
X-21.214 Y22.149
X-21.209 Y22.124
X-21.193 Y22.105
X-21.185 Y22.098
X-21.144 Y22.091
X-21.114 Y22.106
X-21.099 Y22.139
X-21.107 Y22.174
X-21.125 Y22.188
X-21.139 Y22.2 Z-6.199 F80
X-21.177 Y22.201 Z-6.189
X-21.204 Y22.182 Z-6.17
X-21.209 Y22.164 Z-6.154
X-21.214 Y22.149 Z-6.134
X-21.211 Y22.132 Z-6.101
X-21.209 Y22.124 Z-6.064
Y22.123 Z-6.05
G0 Z4
X-21.125 Y22.188
G1 Z-4.9 F80
Z-6.5
X-21.139 Y22.2 F200
X-21.177 Y22.201
X-21.204 Y22.182
X-21.214 Y22.149
X-21.209 Y22.124
X-21.193 Y22.105
X-21.185 Y22.098
X-21.144 Y22.091
X-21.114 Y22.106
X-21.099 Y22.139
X-21.107 Y22.174
X-21.125 Y22.188
X-21.139 Y22.2 Z-6.499 F80
X-21.177 Y22.201 Z-6.489
X-21.204 Y22.182 Z-6.47
X-21.209 Y22.164 Z-6.454
X-21.214 Y22.149 Z-6.434
X-21.211 Y22.132 Z-6.401
X-21.209 Y22.124 Z-6.364
Y22.123 Z-6.35
G0 Z4
X-21.125 Y22.188
G1 Z-5.2 F80
Z-6.8
X-21.139 Y22.2 F200
X-21.177 Y22.201
X-21.204 Y22.182
X-21.214 Y22.149
X-21.209 Y22.124
X-21.193 Y22.105
X-21.185 Y22.098
X-21.144 Y22.091
X-21.114 Y22.106
X-21.099 Y22.139
X-21.107 Y22.174
X-21.125 Y22.188
X-21.139 Y22.2 Z-6.799 F80
X-21.177 Y22.201 Z-6.789
X-21.204 Y22.182 Z-6.77
X-21.209 Y22.164 Z-6.754
X-21.214 Y22.149 Z-6.734
X-21.211 Y22.132 Z-6.701
X-21.209 Y22.124 Z-6.664
Y22.123 Z-6.65
G0 Z4
X-21.125 Y22.188
G1 Z-5.5 F80
Z-7.1
X-21.139 Y22.2 F200
X-21.177 Y22.201
X-21.204 Y22.182
X-21.214 Y22.149
X-21.209 Y22.124
X-21.193 Y22.105
X-21.185 Y22.098
X-21.144 Y22.091
X-21.114 Y22.106
X-21.099 Y22.139
X-21.107 Y22.174
X-21.125 Y22.188
X-21.139 Y22.2 Z-7.099 F80
X-21.177 Y22.201 Z-7.089
X-21.204 Y22.182 Z-7.07
X-21.209 Y22.164 Z-7.054
X-21.214 Y22.149 Z-7.034
X-21.211 Y22.132 Z-7.001
X-21.209 Y22.124 Z-6.964
Y22.123 Z-6.95
G0 Z4
X-21.125 Y22.188
G1 Z-5.8 F80
Z-7.4
X-21.139 Y22.2 F200
X-21.177 Y22.201
X-21.204 Y22.182
X-21.214 Y22.149
X-21.209 Y22.124
X-21.193 Y22.105
X-21.185 Y22.098
X-21.144 Y22.091
X-21.114 Y22.106
X-21.099 Y22.139
X-21.107 Y22.174
X-21.125 Y22.188
X-21.139 Y22.2 Z-7.399 F80
X-21.177 Y22.201 Z-7.389
X-21.204 Y22.182 Z-7.37
X-21.209 Y22.164 Z-7.354
X-21.214 Y22.149 Z-7.334
X-21.211 Y22.132 Z-7.301
X-21.209 Y22.124 Z-7.264
Y22.123 Z-7.25
G0 Z4
X-21.125 Y22.188
G1 Z-6.1 F80
Z-7.7
X-21.139 Y22.2 F200
X-21.177 Y22.201
X-21.204 Y22.182
X-21.214 Y22.149
X-21.209 Y22.124
X-21.193 Y22.105
X-21.185 Y22.098
X-21.144 Y22.091
X-21.114 Y22.106
X-21.099 Y22.139
X-21.107 Y22.174
X-21.125 Y22.188
X-21.139 Y22.2 Z-7.699 F80
X-21.177 Y22.201 Z-7.689
X-21.204 Y22.182 Z-7.67
X-21.209 Y22.164 Z-7.654
X-21.214 Y22.149 Z-7.634
X-21.211 Y22.132 Z-7.601
X-21.209 Y22.124 Z-7.564
Y22.123 Z-7.55
G0 Z4
X-18.937 Y17.57
Z0.315
G1 X-20.016 Z0.224 F80
X-20.048 Y17.562
X-20.075 Y17.541
X-20.089 Y17.511
Y17.478
X-20.075 Y17.448
X-20.048 Y17.427
X-20.016 Y17.42
X-18.476 Z0.094
X-18.444 Y17.427
X-18.418 Y17.448
X-18.403 Y17.478
Y17.511
X-18.418 Y17.541
X-18.444 Y17.562
X-18.476 Y17.57
X-20.016 Z-0.036
X-20.048 Y17.562
X-20.075 Y17.541
X-20.089 Y17.511
Y17.478
X-20.075 Y17.448
X-20.048 Y17.427
X-20.016 Y17.42
X-18.476 Z-0.166
X-18.444 Y17.427
X-18.418 Y17.448
X-18.403 Y17.478
Y17.511
X-18.418 Y17.541
X-18.444 Y17.562
X-18.476 Y17.57
X-20.016 Z-0.297
X-20.048 Y17.562
X-20.075 Y17.541
X-20.089 Y17.511
Y17.478
X-20.075 Y17.448
X-20.048 Y17.427
X-20.016 Y17.42
X-19.975 Z-0.3
X-19.957 Y17.413
X-19.947 Y17.397
X-19.939 Y17.355
X-19.931 Y17.34
X-19.915 Y17.332
X-19.898 Y17.335
X-19.861 Y17.353 F200
X-19.813 Y17.372
X-19.763 Y17.385
X-19.673 Y17.4
X-19.608 Y17.406
X-4.12 Y17.407
X-3.952 Y17.449
X-3.913 Y17.489
X-3.911 Y17.496
X-3.871 Y17.653
X-3.873 Y19.95
X-3.917 Y20.103
X-3.959 Y20.143
X-4.12 Y20.185
X-16.902 Y20.181
X-17.068 Y20.126
X-17.104 Y20.075
Y20.012
X-17.069 Y19.964
X-16.903 Y19.91
X-4.867 Y19.905
X-4.825 Y19.903
X-4.784 Y19.896
X-4.684 Y19.873
X-4.634 Y19.858
X-4.587 Y19.837
X-4.494 Y19.786
X-4.452 Y19.759
X-4.415 Y19.727
X-4.349 Y19.664
X-4.318 Y19.631
X-4.291 Y19.594
X-4.243 Y19.518
X-4.218 Y19.471
X-4.2 Y19.422
X-4.166 Y19.306
X-4.155 Y19.254
X-4.152 Y19.201
Y18.39
X-4.155 Y18.343
X-4.163 Y18.297
X-4.187 Y18.203
X-4.203 Y18.154
X-4.226 Y18.108
X-4.28 Y18.014
X-4.308 Y17.973
X-4.341 Y17.936
X-4.404 Y17.873
X-4.438 Y17.843
X-4.476 Y17.817
X-4.556 Y17.769
X-4.605 Y17.745
X-4.656 Y17.728
X-4.774 Y17.698
X-4.82 Y17.689
X-4.867 Y17.686
X-19.947 Y17.682
X-20.055 Y17.659
X-20.105 Y17.622
X-20.234 Y17.413
X-20.262 Y17.372
X-20.295 Y17.336
X-20.377 Y17.259
X-20.423 Y17.222
X-20.474 Y17.192
X-20.584 Y17.14
X-20.639 Y17.119
X-20.696 Y17.107
X-20.806 Y17.092
X-20.868 Y17.089
X-21.172 Y17.099
X-21.201 Y17.077
X-21.211 Y17.041
X-21.076 Y16.729
X-21.06 Y16.683
X-21.05 Y16.636
X-21.032 Y16.522
X-21.028 Y16.465
X-21.033 Y16.407
X-21.051 Y16.293
X-21.063 Y16.242
X-21.081 Y16.193
X-21.121 Y16.11
X-21.151 Y16.056
X-22.308 Y14.367
X-22.138 Y14.253
X-20.191 Y17.102
X-20.166 Y17.135
X-20.137 Y17.165
X-20.057 Y17.24
X-20.013 Y17.275
X-19.964 Y17.303
X-19.898 Y17.335
X-19.877 Y17.353
X-19.866 Y17.379
X-19.853 Y17.457
X-19.843 Y17.481
X-19.824 Y17.499
X-19.799 Y17.506
X-19.258 Y17.542
X-19.232 Y17.57
X-20.016 Z-0.585 F80
X-20.048 Y17.562
X-20.075 Y17.541
X-20.089 Y17.511
Y17.478
X-20.075 Y17.448
X-20.048 Y17.427
X-20.016 Y17.42
X-19.975 Z-0.6
X-19.957 Y17.413
X-19.947 Y17.397
X-19.939 Y17.355
X-19.931 Y17.34
X-19.915 Y17.332
X-19.898 Y17.335
X-19.861 Y17.353 F200
X-19.813 Y17.372
X-19.763 Y17.385
X-19.673 Y17.4
X-19.608 Y17.406
X-4.12 Y17.407
X-3.952 Y17.449
X-3.913 Y17.489
X-3.911 Y17.496
X-3.871 Y17.653
X-3.873 Y19.95
X-3.917 Y20.103
X-3.959 Y20.143
X-4.12 Y20.185
X-16.902 Y20.181
X-17.068 Y20.126
X-17.104 Y20.075
Y20.012
X-17.069 Y19.964
X-16.903 Y19.91
X-4.867 Y19.905
X-4.825 Y19.903
X-4.784 Y19.896
X-4.684 Y19.873
X-4.634 Y19.858
X-4.587 Y19.837
X-4.494 Y19.786
X-4.452 Y19.759
X-4.415 Y19.727
X-4.349 Y19.664
X-4.318 Y19.631
X-4.291 Y19.594
X-4.243 Y19.518
X-4.218 Y19.471
X-4.2 Y19.422
X-4.166 Y19.306
X-4.155 Y19.254
X-4.152 Y19.201
Y18.39
X-4.155 Y18.343
X-4.163 Y18.297
X-4.187 Y18.203
X-4.203 Y18.154
X-4.226 Y18.108
X-4.28 Y18.014
X-4.308 Y17.973
X-4.341 Y17.936
X-4.404 Y17.873
X-4.438 Y17.843
X-4.476 Y17.817
X-4.556 Y17.769
X-4.605 Y17.745
X-4.656 Y17.728
X-4.774 Y17.698
X-4.82 Y17.689
X-4.867 Y17.686
X-19.947 Y17.682
X-20.055 Y17.659
X-20.105 Y17.622
X-20.234 Y17.413
X-20.262 Y17.372
X-20.295 Y17.336
X-20.377 Y17.259
X-20.423 Y17.222
X-20.474 Y17.192
X-20.584 Y17.14
X-20.639 Y17.119
X-20.696 Y17.107
X-20.806 Y17.092
X-20.868 Y17.089
X-21.172 Y17.099
X-21.201 Y17.077
X-21.211 Y17.041
X-21.076 Y16.729
X-21.06 Y16.683
X-21.05 Y16.636
X-21.032 Y16.522
X-21.028 Y16.465
X-21.033 Y16.407
X-21.051 Y16.293
X-21.063 Y16.242
X-21.081 Y16.193
X-21.121 Y16.11
X-21.151 Y16.056
X-22.308 Y14.367
X-22.138 Y14.253
X-20.191 Y17.102
X-20.166 Y17.135
X-20.137 Y17.165
X-20.057 Y17.24
X-20.013 Y17.275
X-19.964 Y17.303
X-19.898 Y17.335
X-19.877 Y17.353
X-19.866 Y17.379
X-19.853 Y17.457
X-19.843 Y17.481
X-19.824 Y17.499
X-19.799 Y17.506
X-19.258 Y17.542
X-19.232 Y17.57
X-20.016 Z-0.885 F80
X-20.048 Y17.562
X-20.075 Y17.541
X-20.089 Y17.511
Y17.478
X-20.075 Y17.448
X-20.048 Y17.427
X-20.016 Y17.42
X-19.975 Z-0.9
X-19.957 Y17.413
X-19.947 Y17.397
X-19.939 Y17.355
X-19.931 Y17.34
X-19.915 Y17.332
X-19.898 Y17.335
X-19.861 Y17.353 F200
X-19.813 Y17.372
X-19.763 Y17.385
X-19.673 Y17.4
X-19.608 Y17.406
X-4.12 Y17.407
X-3.952 Y17.449
X-3.913 Y17.489
X-3.911 Y17.496
X-3.871 Y17.653
X-3.873 Y19.95
X-3.917 Y20.103
X-3.959 Y20.143
X-4.12 Y20.185
X-16.902 Y20.181
X-17.068 Y20.126
X-17.104 Y20.075
Y20.012
X-17.069 Y19.964
X-16.903 Y19.91
X-4.867 Y19.905
X-4.825 Y19.903
X-4.784 Y19.896
X-4.684 Y19.873
X-4.634 Y19.858
X-4.587 Y19.837
X-4.494 Y19.786
X-4.452 Y19.759
X-4.415 Y19.727
X-4.349 Y19.664
X-4.318 Y19.631
X-4.291 Y19.594
X-4.243 Y19.518
X-4.218 Y19.471
X-4.2 Y19.422
X-4.166 Y19.306
X-4.155 Y19.254
X-4.152 Y19.201
Y18.39
X-4.155 Y18.343
X-4.163 Y18.297
X-4.187 Y18.203
X-4.203 Y18.154
X-4.226 Y18.108
X-4.28 Y18.014
X-4.308 Y17.973
X-4.341 Y17.936
X-4.404 Y17.873
X-4.438 Y17.843
X-4.476 Y17.817
X-4.556 Y17.769
X-4.605 Y17.745
X-4.656 Y17.728
X-4.774 Y17.698
X-4.82 Y17.689
X-4.867 Y17.686
X-19.947 Y17.682
X-20.055 Y17.659
X-20.105 Y17.622
X-20.234 Y17.413
X-20.262 Y17.372
X-20.295 Y17.336
X-20.377 Y17.259
X-20.423 Y17.222
X-20.474 Y17.192
X-20.584 Y17.14
X-20.639 Y17.119
X-20.696 Y17.107
X-20.806 Y17.092
X-20.868 Y17.089
X-21.172 Y17.099
X-21.201 Y17.077
X-21.211 Y17.041
X-21.076 Y16.729
X-21.06 Y16.683
X-21.05 Y16.636
X-21.032 Y16.522
X-21.028 Y16.465
X-21.033 Y16.407
X-21.051 Y16.293
X-21.063 Y16.242
X-21.081 Y16.193
X-21.121 Y16.11
X-21.151 Y16.056
X-22.308 Y14.367
X-22.138 Y14.253
X-20.191 Y17.102
X-20.166 Y17.135
X-20.137 Y17.165
X-20.057 Y17.24
X-20.013 Y17.275
X-19.964 Y17.303
X-19.898 Y17.335
X-19.877 Y17.353
X-19.866 Y17.379
X-19.853 Y17.457
X-19.843 Y17.481
X-19.824 Y17.499
X-19.799 Y17.506
X-19.258 Y17.542
X-19.232 Y17.57
X-20.016 Z-1.185 F80
X-20.048 Y17.562
X-20.075 Y17.541
X-20.089 Y17.511
Y17.478
X-20.075 Y17.448
X-20.048 Y17.427
X-20.016 Y17.42
X-19.975 Z-1.2
X-19.957 Y17.413
X-19.947 Y17.397
X-19.939 Y17.355
X-19.931 Y17.34
X-19.915 Y17.332
X-19.898 Y17.335
X-19.861 Y17.353 F200
X-19.813 Y17.372
X-19.763 Y17.385
X-19.673 Y17.4
X-19.608 Y17.406
X-4.12 Y17.407
X-3.952 Y17.449
X-3.913 Y17.489
X-3.911 Y17.496
X-3.871 Y17.653
X-3.873 Y19.95
X-3.917 Y20.103
X-3.959 Y20.143
X-4.12 Y20.185
X-16.902 Y20.181
X-17.068 Y20.126
X-17.104 Y20.075
Y20.012
X-17.069 Y19.964
X-16.903 Y19.91
X-4.867 Y19.905
X-4.825 Y19.903
X-4.784 Y19.896
X-4.684 Y19.873
X-4.634 Y19.858
X-4.587 Y19.837
X-4.494 Y19.786
X-4.452 Y19.759
X-4.415 Y19.727
X-4.349 Y19.664
X-4.318 Y19.631
X-4.291 Y19.594
X-4.243 Y19.518
X-4.218 Y19.471
X-4.2 Y19.422
X-4.166 Y19.306
X-4.155 Y19.254
X-4.152 Y19.201
Y18.39
X-4.155 Y18.343
X-4.163 Y18.297
X-4.187 Y18.203
X-4.203 Y18.154
X-4.226 Y18.108
X-4.28 Y18.014
X-4.308 Y17.973
X-4.341 Y17.936
X-4.404 Y17.873
X-4.438 Y17.843
X-4.476 Y17.817
X-4.556 Y17.769
X-4.605 Y17.745
X-4.656 Y17.728
X-4.774 Y17.698
X-4.82 Y17.689
X-4.867 Y17.686
X-19.947 Y17.682
X-20.055 Y17.659
X-20.105 Y17.622
X-20.234 Y17.413
X-20.262 Y17.372
X-20.295 Y17.336
X-20.377 Y17.259
X-20.423 Y17.222
X-20.474 Y17.192
X-20.584 Y17.14
X-20.639 Y17.119
X-20.696 Y17.107
X-20.806 Y17.092
X-20.868 Y17.089
X-21.172 Y17.099
X-21.201 Y17.077
X-21.211 Y17.041
X-21.076 Y16.729
X-21.06 Y16.683
X-21.05 Y16.636
X-21.032 Y16.522
X-21.028 Y16.465
X-21.033 Y16.407
X-21.051 Y16.293
X-21.063 Y16.242
X-21.081 Y16.193
X-21.121 Y16.11
X-21.151 Y16.056
X-22.308 Y14.367
X-22.138 Y14.253
X-20.191 Y17.102
X-20.166 Y17.135
X-20.137 Y17.165
X-20.057 Y17.24
X-20.013 Y17.275
X-19.964 Y17.303
X-19.898 Y17.335
X-19.877 Y17.353
X-19.866 Y17.379
X-19.853 Y17.457
X-19.843 Y17.481
X-19.824 Y17.499
X-19.799 Y17.506
X-19.258 Y17.542
X-19.232 Y17.57
X-20.016 Z-1.485 F80
X-20.048 Y17.562
X-20.075 Y17.541
X-20.089 Y17.511
Y17.478
X-20.075 Y17.448
X-20.048 Y17.427
X-20.016 Y17.42
X-19.975 Z-1.5
X-19.957 Y17.413
X-19.947 Y17.397
X-19.939 Y17.355
X-19.931 Y17.34
X-19.915 Y17.332
X-19.898 Y17.335
X-19.861 Y17.353 F200
X-19.813 Y17.372
X-19.763 Y17.385
X-19.673 Y17.4
X-19.608 Y17.406
X-4.12 Y17.407
X-3.952 Y17.449
X-3.913 Y17.489
X-3.911 Y17.496
X-3.871 Y17.653
X-3.873 Y19.95
X-3.917 Y20.103
X-3.959 Y20.143
X-4.12 Y20.185
X-16.902 Y20.181
X-17.068 Y20.126
X-17.104 Y20.075
Y20.012
X-17.069 Y19.964
X-16.903 Y19.91
X-4.867 Y19.905
X-4.825 Y19.903
X-4.784 Y19.896
X-4.684 Y19.873
X-4.634 Y19.858
X-4.587 Y19.837
X-4.494 Y19.786
X-4.452 Y19.759
X-4.415 Y19.727
X-4.349 Y19.664
X-4.318 Y19.631
X-4.291 Y19.594
X-4.243 Y19.518
X-4.218 Y19.471
X-4.2 Y19.422
X-4.166 Y19.306
X-4.155 Y19.254
X-4.152 Y19.201
Y18.39
X-4.155 Y18.343
X-4.163 Y18.297
X-4.187 Y18.203
X-4.203 Y18.154
X-4.226 Y18.108
X-4.28 Y18.014
X-4.308 Y17.973
X-4.341 Y17.936
X-4.404 Y17.873
X-4.438 Y17.843
X-4.476 Y17.817
X-4.556 Y17.769
X-4.605 Y17.745
X-4.656 Y17.728
X-4.774 Y17.698
X-4.82 Y17.689
X-4.867 Y17.686
X-19.947 Y17.682
X-20.055 Y17.659
X-20.105 Y17.622
X-20.234 Y17.413
X-20.262 Y17.372
X-20.295 Y17.336
X-20.377 Y17.259
X-20.423 Y17.222
X-20.474 Y17.192
X-20.584 Y17.14
X-20.639 Y17.119
X-20.696 Y17.107
X-20.806 Y17.092
X-20.868 Y17.089
X-21.172 Y17.099
X-21.201 Y17.077
X-21.211 Y17.041
X-21.076 Y16.729
X-21.06 Y16.683
X-21.05 Y16.636
X-21.032 Y16.522
X-21.028 Y16.465
X-21.033 Y16.407
X-21.051 Y16.293
X-21.063 Y16.242
X-21.081 Y16.193
X-21.121 Y16.11
X-21.151 Y16.056
X-22.308 Y14.367
X-22.138 Y14.253
X-20.191 Y17.102
X-20.166 Y17.135
X-20.137 Y17.165
X-20.057 Y17.24
X-20.013 Y17.275
X-19.964 Y17.303
X-19.898 Y17.335
X-19.877 Y17.353
X-19.866 Y17.379
X-19.853 Y17.457
X-19.843 Y17.481
X-19.824 Y17.499
X-19.799 Y17.506
X-19.258 Y17.542
X-19.232 Y17.57
X-20.016 Z-1.785 F80
X-20.048 Y17.562
X-20.075 Y17.541
X-20.089 Y17.511
Y17.478
X-20.075 Y17.448
X-20.048 Y17.427
X-20.016 Y17.42
X-19.975 Z-1.8
X-19.957 Y17.413
X-19.947 Y17.397
X-19.939 Y17.355
X-19.931 Y17.34
X-19.915 Y17.332
X-19.898 Y17.335
X-19.861 Y17.353 F200
X-19.813 Y17.372
X-19.763 Y17.385
X-19.673 Y17.4
X-19.608 Y17.406
X-4.12 Y17.407
X-3.952 Y17.449
X-3.913 Y17.489
X-3.911 Y17.496
X-3.871 Y17.653
X-3.873 Y19.95
X-3.917 Y20.103
X-3.959 Y20.143
X-4.12 Y20.185
X-16.902 Y20.181
X-17.068 Y20.126
X-17.104 Y20.075
Y20.012
X-17.069 Y19.964
X-16.903 Y19.91
X-4.867 Y19.905
X-4.825 Y19.903
X-4.784 Y19.896
X-4.684 Y19.873
X-4.634 Y19.858
X-4.587 Y19.837
X-4.494 Y19.786
X-4.452 Y19.759
X-4.415 Y19.727
X-4.349 Y19.664
X-4.318 Y19.631
X-4.291 Y19.594
X-4.243 Y19.518
X-4.218 Y19.471
X-4.2 Y19.422
X-4.166 Y19.306
X-4.155 Y19.254
X-4.152 Y19.201
Y18.39
X-4.155 Y18.343
X-4.163 Y18.297
X-4.187 Y18.203
X-4.203 Y18.154
X-4.226 Y18.108
X-4.28 Y18.014
X-4.308 Y17.973
X-4.341 Y17.936
X-4.404 Y17.873
X-4.438 Y17.843
X-4.476 Y17.817
X-4.556 Y17.769
X-4.605 Y17.745
X-4.656 Y17.728
X-4.774 Y17.698
X-4.82 Y17.689
X-4.867 Y17.686
X-19.947 Y17.682
X-20.055 Y17.659
X-20.105 Y17.622
X-20.234 Y17.413
X-20.262 Y17.372
X-20.295 Y17.336
X-20.377 Y17.259
X-20.423 Y17.222
X-20.474 Y17.192
X-20.584 Y17.14
X-20.639 Y17.119
X-20.696 Y17.107
X-20.806 Y17.092
X-20.868 Y17.089
X-21.172 Y17.099
X-21.201 Y17.077
X-21.211 Y17.041
X-21.076 Y16.729
X-21.06 Y16.683
X-21.05 Y16.636
X-21.032 Y16.522
X-21.028 Y16.465
X-21.033 Y16.407
X-21.051 Y16.293
X-21.063 Y16.242
X-21.081 Y16.193
X-21.121 Y16.11
X-21.151 Y16.056
X-22.308 Y14.367
X-22.138 Y14.253
X-20.191 Y17.102
X-20.166 Y17.135
X-20.137 Y17.165
X-20.057 Y17.24
X-20.013 Y17.275
X-19.964 Y17.303
X-19.898 Y17.335
X-19.877 Y17.353
X-19.866 Y17.379
X-19.853 Y17.457
X-19.843 Y17.481
X-19.824 Y17.499
X-19.799 Y17.506
X-19.258 Y17.542
X-19.232 Y17.57
X-20.016 Z-2.085 F80
X-20.048 Y17.562
X-20.075 Y17.541
X-20.089 Y17.511
Y17.478
X-20.075 Y17.448
X-20.048 Y17.427
X-20.016 Y17.42
X-19.975 Z-2.1
X-19.957 Y17.413
X-19.947 Y17.397
X-19.939 Y17.355
X-19.931 Y17.34
X-19.915 Y17.332
X-19.898 Y17.335
X-19.861 Y17.353 F200
X-19.813 Y17.372
X-19.763 Y17.385
X-19.673 Y17.4
X-19.608 Y17.406
X-4.12 Y17.407
X-3.952 Y17.449
X-3.913 Y17.489
X-3.911 Y17.496
X-3.871 Y17.653
X-3.873 Y19.95
X-3.917 Y20.103
X-3.959 Y20.143
X-4.12 Y20.185
X-16.902 Y20.181
X-17.068 Y20.126
X-17.104 Y20.075
Y20.012
X-17.069 Y19.964
X-16.903 Y19.91
X-4.867 Y19.905
X-4.825 Y19.903
X-4.784 Y19.896
X-4.684 Y19.873
X-4.634 Y19.858
X-4.587 Y19.837
X-4.494 Y19.786
X-4.452 Y19.759
X-4.415 Y19.727
X-4.349 Y19.664
X-4.318 Y19.631
X-4.291 Y19.594
X-4.243 Y19.518
X-4.218 Y19.471
X-4.2 Y19.422
X-4.166 Y19.306
X-4.155 Y19.254
X-4.152 Y19.201
Y18.39
X-4.155 Y18.343
X-4.163 Y18.297
X-4.187 Y18.203
X-4.203 Y18.154
X-4.226 Y18.108
X-4.28 Y18.014
X-4.308 Y17.973
X-4.341 Y17.936
X-4.404 Y17.873
X-4.438 Y17.843
X-4.476 Y17.817
X-4.556 Y17.769
X-4.605 Y17.745
X-4.656 Y17.728
X-4.774 Y17.698
X-4.82 Y17.689
X-4.867 Y17.686
X-19.947 Y17.682
X-20.055 Y17.659
X-20.105 Y17.622
X-20.234 Y17.413
X-20.262 Y17.372
X-20.295 Y17.336
X-20.377 Y17.259
X-20.423 Y17.222
X-20.474 Y17.192
X-20.584 Y17.14
X-20.639 Y17.119
X-20.696 Y17.107
X-20.806 Y17.092
X-20.868 Y17.089
X-21.172 Y17.099
X-21.201 Y17.077
X-21.211 Y17.041
X-21.076 Y16.729
X-21.06 Y16.683
X-21.05 Y16.636
X-21.032 Y16.522
X-21.028 Y16.465
X-21.033 Y16.407
X-21.051 Y16.293
X-21.063 Y16.242
X-21.081 Y16.193
X-21.121 Y16.11
X-21.151 Y16.056
X-22.308 Y14.367
X-22.138 Y14.253
X-20.191 Y17.102
X-20.166 Y17.135
X-20.137 Y17.165
X-20.057 Y17.24
X-20.013 Y17.275
X-19.964 Y17.303
X-19.898 Y17.335
X-19.877 Y17.353
X-19.866 Y17.379
X-19.853 Y17.457
X-19.843 Y17.481
X-19.824 Y17.499
X-19.799 Y17.506
X-19.258 Y17.542
X-19.232 Y17.57
X-20.016 Z-2.385 F80
X-20.048 Y17.562
X-20.075 Y17.541
X-20.089 Y17.511
Y17.478
X-20.075 Y17.448
X-20.048 Y17.427
X-20.016 Y17.42
X-19.975 Z-2.4
X-19.957 Y17.413
X-19.947 Y17.397
X-19.939 Y17.355
X-19.931 Y17.34
X-19.915 Y17.332
X-19.898 Y17.335
X-19.861 Y17.353 F200
X-19.813 Y17.372
X-19.763 Y17.385
X-19.673 Y17.4
X-19.608 Y17.406
X-4.12 Y17.407
X-3.952 Y17.449
X-3.913 Y17.489
X-3.911 Y17.496
X-3.871 Y17.653
X-3.873 Y19.95
X-3.917 Y20.103
X-3.959 Y20.143
X-4.12 Y20.185
X-16.902 Y20.181
X-17.068 Y20.126
X-17.104 Y20.075
Y20.012
X-17.069 Y19.964
X-16.903 Y19.91
X-4.867 Y19.905
X-4.825 Y19.903
X-4.784 Y19.896
X-4.684 Y19.873
X-4.634 Y19.858
X-4.587 Y19.837
X-4.494 Y19.786
X-4.452 Y19.759
X-4.415 Y19.727
X-4.349 Y19.664
X-4.318 Y19.631
X-4.291 Y19.594
X-4.243 Y19.518
X-4.218 Y19.471
X-4.2 Y19.422
X-4.166 Y19.306
X-4.155 Y19.254
X-4.152 Y19.201
Y18.39
X-4.155 Y18.343
X-4.163 Y18.297
X-4.187 Y18.203
X-4.203 Y18.154
X-4.226 Y18.108
X-4.28 Y18.014
X-4.308 Y17.973
X-4.341 Y17.936
X-4.404 Y17.873
X-4.438 Y17.843
X-4.476 Y17.817
X-4.556 Y17.769
X-4.605 Y17.745
X-4.656 Y17.728
X-4.774 Y17.698
X-4.82 Y17.689
X-4.867 Y17.686
X-19.947 Y17.682
X-20.055 Y17.659
X-20.105 Y17.622
X-20.234 Y17.413
X-20.262 Y17.372
X-20.295 Y17.336
X-20.377 Y17.259
X-20.423 Y17.222
X-20.474 Y17.192
X-20.584 Y17.14
X-20.639 Y17.119
X-20.696 Y17.107
X-20.806 Y17.092
X-20.868 Y17.089
X-21.172 Y17.099
X-21.201 Y17.077
X-21.211 Y17.041
X-21.076 Y16.729
X-21.06 Y16.683
X-21.05 Y16.636
X-21.032 Y16.522
X-21.028 Y16.465
X-21.033 Y16.407
X-21.051 Y16.293
X-21.063 Y16.242
X-21.081 Y16.193
X-21.121 Y16.11
X-21.151 Y16.056
X-22.308 Y14.367
X-22.138 Y14.253
X-20.191 Y17.102
X-20.166 Y17.135
X-20.137 Y17.165
X-20.057 Y17.24
X-20.013 Y17.275
X-19.964 Y17.303
X-19.898 Y17.335
X-19.877 Y17.353
X-19.866 Y17.379
X-19.853 Y17.457
X-19.843 Y17.481
X-19.824 Y17.499
X-19.799 Y17.506
X-19.258 Y17.542
X-19.232 Y17.57
X-20.016 Z-2.685 F80
X-20.048 Y17.562
X-20.075 Y17.541
X-20.089 Y17.511
Y17.478
X-20.075 Y17.448
X-20.048 Y17.427
X-20.016 Y17.42
X-19.975 Z-2.7
X-19.957 Y17.413
X-19.947 Y17.397
X-19.939 Y17.355
X-19.931 Y17.34
X-19.915 Y17.332
X-19.898 Y17.335
X-19.861 Y17.353 F200
X-19.813 Y17.372
X-19.763 Y17.385
X-19.673 Y17.4
X-19.608 Y17.406
X-4.12 Y17.407
X-3.952 Y17.449
X-3.913 Y17.489
X-3.911 Y17.496
X-3.871 Y17.653
X-3.873 Y19.95
X-3.917 Y20.103
X-3.959 Y20.143
X-4.12 Y20.185
X-16.902 Y20.181
X-17.068 Y20.126
X-17.104 Y20.075
Y20.012
X-17.069 Y19.964
X-16.903 Y19.91
X-4.867 Y19.905
X-4.825 Y19.903
X-4.784 Y19.896
X-4.684 Y19.873
X-4.634 Y19.858
X-4.587 Y19.837
X-4.494 Y19.786
X-4.452 Y19.759
X-4.415 Y19.727
X-4.349 Y19.664
X-4.318 Y19.631
X-4.291 Y19.594
X-4.243 Y19.518
X-4.218 Y19.471
X-4.2 Y19.422
X-4.166 Y19.306
X-4.155 Y19.254
X-4.152 Y19.201
Y18.39
X-4.155 Y18.343
X-4.163 Y18.297
X-4.187 Y18.203
X-4.203 Y18.154
X-4.226 Y18.108
X-4.28 Y18.014
X-4.308 Y17.973
X-4.341 Y17.936
X-4.404 Y17.873
X-4.438 Y17.843
X-4.476 Y17.817
X-4.556 Y17.769
X-4.605 Y17.745
X-4.656 Y17.728
X-4.774 Y17.698
X-4.82 Y17.689
X-4.867 Y17.686
X-19.947 Y17.682
X-20.055 Y17.659
X-20.105 Y17.622
X-20.234 Y17.413
X-20.262 Y17.372
X-20.295 Y17.336
X-20.377 Y17.259
X-20.423 Y17.222
X-20.474 Y17.192
X-20.584 Y17.14
X-20.639 Y17.119
X-20.696 Y17.107
X-20.806 Y17.092
X-20.868 Y17.089
X-21.172 Y17.099
X-21.201 Y17.077
X-21.211 Y17.041
X-21.076 Y16.729
X-21.06 Y16.683
X-21.05 Y16.636
X-21.032 Y16.522
X-21.028 Y16.465
X-21.033 Y16.407
X-21.051 Y16.293
X-21.063 Y16.242
X-21.081 Y16.193
X-21.121 Y16.11
X-21.151 Y16.056
X-22.308 Y14.367
X-22.138 Y14.253
X-20.191 Y17.102
X-20.166 Y17.135
X-20.137 Y17.165
X-20.057 Y17.24
X-20.013 Y17.275
X-19.964 Y17.303
X-19.898 Y17.335
X-19.877 Y17.353
X-19.866 Y17.379
X-19.853 Y17.457
X-19.843 Y17.481
X-19.824 Y17.499
X-19.799 Y17.506
X-19.258 Y17.542
X-19.232 Y17.57
X-20.016 Z-2.985 F80
X-20.048 Y17.562
X-20.075 Y17.541
X-20.089 Y17.511
Y17.478
X-20.075 Y17.448
X-20.048 Y17.427
X-20.016 Y17.42
X-19.975 Z-3
X-19.957 Y17.413
X-19.947 Y17.397
X-19.939 Y17.355
X-19.931 Y17.34
X-19.915 Y17.332
X-19.898 Y17.335
X-19.861 Y17.353 F200
X-19.813 Y17.372
X-19.763 Y17.385
X-19.673 Y17.4
X-19.608 Y17.406
X-4.12 Y17.407
X-3.952 Y17.449
X-3.913 Y17.489
X-3.911 Y17.496
X-3.871 Y17.653
X-3.873 Y19.95
X-3.917 Y20.103
X-3.959 Y20.143
X-4.12 Y20.185
X-16.902 Y20.181
X-17.068 Y20.126
X-17.104 Y20.075
Y20.012
X-17.069 Y19.964
X-16.903 Y19.91
X-4.867 Y19.905
X-4.825 Y19.903
X-4.784 Y19.896
X-4.684 Y19.873
X-4.634 Y19.858
X-4.587 Y19.837
X-4.494 Y19.786
X-4.452 Y19.759
X-4.415 Y19.727
X-4.349 Y19.664
X-4.318 Y19.631
X-4.291 Y19.594
X-4.243 Y19.518
X-4.218 Y19.471
X-4.2 Y19.422
X-4.166 Y19.306
X-4.155 Y19.254
X-4.152 Y19.201
Y18.39
X-4.155 Y18.343
X-4.163 Y18.297
X-4.187 Y18.203
X-4.203 Y18.154
X-4.226 Y18.108
X-4.28 Y18.014
X-4.308 Y17.973
X-4.341 Y17.936
X-4.404 Y17.873
X-4.438 Y17.843
X-4.476 Y17.817
X-4.556 Y17.769
X-4.605 Y17.745
X-4.656 Y17.728
X-4.774 Y17.698
X-4.82 Y17.689
X-4.867 Y17.686
X-19.947 Y17.682
X-20.055 Y17.659
X-20.105 Y17.622
X-20.234 Y17.413
X-20.262 Y17.372
X-20.295 Y17.336
X-20.377 Y17.259
X-20.423 Y17.222
X-20.474 Y17.192
X-20.584 Y17.14
X-20.639 Y17.119
X-20.696 Y17.107
X-20.806 Y17.092
X-20.868 Y17.089
X-21.172 Y17.099
X-21.201 Y17.077
X-21.211 Y17.041
X-21.076 Y16.729
X-21.06 Y16.683
X-21.05 Y16.636
X-21.032 Y16.522
X-21.028 Y16.465
X-21.033 Y16.407
X-21.051 Y16.293
X-21.063 Y16.242
X-21.081 Y16.193
X-21.121 Y16.11
X-21.151 Y16.056
X-22.308 Y14.367
X-22.138 Y14.253
X-20.191 Y17.102
X-20.166 Y17.135
X-20.137 Y17.165
X-20.057 Y17.24
X-20.013 Y17.275
X-19.964 Y17.303
X-19.898 Y17.335
X-19.874 Y17.35 Z-2.994 F80
X-19.853 Y17.369 Z-2.989
X-19.826 Y17.41 Z-2.956
X-19.816 Y17.441 Z-2.907
X-19.815 Y17.452 Z-2.85
G0 Z4
X-21.148 Y17.098
G1 Z-1.7 F80
Z-3.3
X-21.172 Y17.099 F200
X-21.201 Y17.077
X-21.21 Y17.041
X-21.19 Y16.994
X-21.169 Y16.982
X-21.131 Y16.985
X-21.101 Y17.009
X-21.09 Y17.046
X-21.1 Y17.078
X-21.124 Y17.097
X-21.148 Y17.098
X-21.172 Y17.099 Z-3.298 F80
X-21.201 Y17.077 Z-3.287
X-21.21 Y17.041 Z-3.264
X-21.2 Y17.019 Z-3.237
X-21.193 Y17.002 Z-3.205
X-21.19 Y16.994 Z-3.169
X-21.189 Y16.993 Z-3.15
G0 Z4
X-21.148 Y17.098
G1 Z-2 F80
Z-3.6
X-21.172 Y17.099 F200
X-21.201 Y17.077
X-21.21 Y17.041
X-21.19 Y16.994
X-21.169 Y16.982
X-21.131 Y16.985
X-21.101 Y17.009
X-21.09 Y17.046
X-21.1 Y17.078
X-21.124 Y17.097
X-21.148 Y17.098
X-21.172 Y17.099 Z-3.598 F80
X-21.201 Y17.077 Z-3.587
X-21.21 Y17.041 Z-3.564
X-21.2 Y17.019 Z-3.537
X-21.193 Y17.002 Z-3.505
X-21.19 Y16.994 Z-3.469
X-21.189 Y16.993 Z-3.45
G0 Z4
X-21.148 Y17.098
G1 Z-2.3 F80
Z-3.9
X-21.172 Y17.099 F200
X-21.201 Y17.077
X-21.21 Y17.041
X-21.19 Y16.994
X-21.169 Y16.982
X-21.131 Y16.985
X-21.102 Y17.009
X-21.092 Y17.041
X-21.102 Y17.079
X-21.124 Y17.097
X-21.148 Y17.098
X-21.172 Y17.099 Z-3.898 F80
X-21.201 Y17.077 Z-3.887
X-21.21 Y17.041 Z-3.864
X-21.201 Y17.019 Z-3.838
X-21.193 Y17.003 Z-3.806
X-21.19 Y16.994 Z-3.77
X-21.189 Y16.993 Z-3.75
G0 Z4
X-21.201 Y17.02
G1 Z-2.6 F80
Z-4.2
X-21.19 Y16.995 F200
X-21.169 Y16.983
X-21.131 Y16.986
X-21.102 Y17.009
X-21.092 Y17.042
X-21.102 Y17.079
X-21.125 Y17.097
X-21.172 Y17.099
X-21.201 Y17.077
X-21.21 Y17.042
X-21.201 Y17.02
X-21.19 Y16.995 Z-4.197 F80
X-21.169 Y16.983 Z-4.191
X-21.131 Y16.986 Z-4.17
X-21.115 Y16.998 Z-4.152
X-21.102 Y17.009 Z-4.13
X-21.097 Y17.025 Z-4.092
X-21.095 Y17.031 Z-4.05
G0 Z4
X-21.097 Y17.058
G1 Z-2.9 F80
Z-4.5
X-21.103 Y17.08 F200
X-21.123 Y17.097
X-21.172 Y17.099
X-21.201 Y17.077
X-21.21 Y17.043
X-21.189 Y16.995
X-21.17 Y16.984
X-21.131 Y16.987
X-21.102 Y17.009
X-21.092 Y17.041
X-21.097 Y17.058
X-21.103 Y17.08 Z-4.498 F80
X-21.123 Y17.097 Z-4.492
X-21.149 Y17.098 Z-4.48
X-21.172 Y17.099 Z-4.464
X-21.188 Y17.086 Z-4.442
X-21.201 Y17.077 Z-4.417
X-21.204 Y17.066 Z-4.384
X-21.205 Y17.062 Z-4.35
G0 Z4
X-21.148 Y17.098
G1 Z-3.2 F80
Z-4.8
X-21.172 Y17.099 F200
X-21.201 Y17.077
X-21.21 Y17.044
X-21.189 Y16.995
X-21.182 Y16.99
X-21.173 Y16.985
X-21.13 Y16.988
X-21.103 Y17.009
X-21.093 Y17.042
X-21.105 Y17.085
X-21.122 Y17.097
X-21.148 Y17.098
X-21.172 Y17.099 Z-4.798 F80
X-21.201 Y17.077 Z-4.788
X-21.21 Y17.044 Z-4.767
X-21.2 Y17.021 Z-4.742
X-21.193 Y17.005 Z-4.712
X-21.189 Y16.995 Z-4.679
X-21.187 Y16.993 Z-4.65
G0 Z4
X-21.098 Y17.059
G1 Z-3.5 F80
Z-5
X-21.106 Y17.085 F200
X-21.122 Y17.097
X-21.172 Y17.099
X-21.201 Y17.077
X-21.21 Y17.044
X-21.189 Y16.995
X-21.182 Y16.99
X-21.174 Y16.986
X-21.13 Y16.988
X-21.103 Y17.009
X-21.093 Y17.042
X-21.098 Y17.059
X-21.106 Y17.085 Z-4.998 F80
X-21.122 Y17.097 Z-4.992
X-21.148 Y17.098 Z-4.981
X-21.172 Y17.099 Z-4.964
X-21.188 Y17.086 Z-4.943
X-21.201 Y17.077 Z-4.918
X-21.204 Y17.065 Z-4.885
X-21.205 Y17.061 Z-4.85
G0 Z4
X-21.1 Y17.059
G1 Z-3.7 F80
Z-5.3
X-21.107 Y17.084 F200
X-21.127 Y17.097
X-21.172 Y17.099
X-21.201 Y17.077
X-21.21 Y17.041
X-21.191 Y16.997
X-21.176 Y16.987
X-21.135 Y16.988
X-21.104 Y17.01
X-21.094 Y17.04
X-21.1 Y17.059
X-21.107 Y17.084 Z-5.298 F80
X-21.127 Y17.097 Z-5.292
X-21.15 Y17.098 Z-5.281
X-21.172 Y17.099 Z-5.267
X-21.188 Y17.087 Z-5.247
X-21.201 Y17.077 Z-5.224
X-21.204 Y17.063 Z-5.188
X-21.206 Y17.058 Z-5.15
G0 Z4
X-21.151 Y17.098
G1 Z-4 F80
Z-5.6
X-21.172 Y17.099 F200
X-21.2 Y17.077
X-21.21 Y17.042
X-21.192 Y17.003
X-21.172 Y16.988
X-21.138 Y16.989
X-21.105 Y17.013
X-21.095 Y17.041
X-21.108 Y17.083
X-21.129 Y17.097
X-21.151 Y17.098
X-21.172 Y17.099 Z-5.599 F80
X-21.2 Y17.077 Z-5.589
X-21.21 Y17.042 Z-5.568
X-21.2 Y17.019 Z-5.543
X-21.192 Y17.003 Z-5.513
X-21.184 Y16.997 Z-5.482
X-21.181 Y16.995 Z-5.45
G0 Z4
X-21.102 Y17.027
G1 Z-4.3 F80
Z-5.9
X-21.096 Y17.044 F200
X-21.108 Y17.081
X-21.13 Y17.097
X-21.172 Y17.099
X-21.2 Y17.077
X-21.21 Y17.043
X-21.192 Y17.003
X-21.171 Y16.988
X-21.157
X-21.14
X-21.108 Y17.011
X-21.102 Y17.027
X-21.096 Y17.044 Z-5.899 F80
X-21.108 Y17.081 Z-5.889
X-21.13 Y17.097 Z-5.874
X-21.153 Y17.098 Z-5.855
X-21.172 Y17.099 Z-5.832
X-21.186 Y17.088 Z-5.793
X-21.191 Y17.084 Z-5.75
G0 Z4
X-21.102 Y17.027
G1 Z-4.6 F80
Z-6.2
X-21.096 Y17.044 F200
X-21.108 Y17.081
X-21.13 Y17.097
X-21.172 Y17.099
X-21.2 Y17.077
X-21.21 Y17.043
X-21.192 Y17.003
X-21.171 Y16.988
X-21.157
X-21.14
X-21.108 Y17.011
X-21.102 Y17.027
X-21.096 Y17.044 Z-6.199 F80
X-21.108 Y17.081 Z-6.189
X-21.13 Y17.097 Z-6.174
X-21.153 Y17.098 Z-6.155
X-21.172 Y17.099 Z-6.132
X-21.186 Y17.088 Z-6.093
X-21.191 Y17.084 Z-6.05
G0 Z4
X-21.102 Y17.027
G1 Z-4.9 F80
Z-6.5
X-21.096 Y17.044 F200
X-21.108 Y17.081
X-21.13 Y17.097
X-21.172 Y17.099
X-21.2 Y17.077
X-21.21 Y17.043
X-21.192 Y17.003
X-21.171 Y16.988
X-21.157
X-21.14
X-21.108 Y17.011
X-21.102 Y17.027
X-21.096 Y17.044 Z-6.499 F80
X-21.108 Y17.081 Z-6.489
X-21.13 Y17.097 Z-6.474
X-21.153 Y17.098 Z-6.455
X-21.172 Y17.099 Z-6.432
X-21.186 Y17.088 Z-6.393
X-21.191 Y17.084 Z-6.35
G0 Z4
X-21.102 Y17.027
G1 Z-5.2 F80
Z-6.8
X-21.096 Y17.044 F200
X-21.108 Y17.081
X-21.13 Y17.097
X-21.172 Y17.099
X-21.2 Y17.077
X-21.21 Y17.043
X-21.192 Y17.003
X-21.171 Y16.988
X-21.157
X-21.14
X-21.108 Y17.011
X-21.102 Y17.027
X-21.096 Y17.044 Z-6.799 F80
X-21.108 Y17.081 Z-6.789
X-21.13 Y17.097 Z-6.774
X-21.153 Y17.098 Z-6.755
X-21.172 Y17.099 Z-6.732
X-21.186 Y17.088 Z-6.693
X-21.191 Y17.084 Z-6.65
G0 Z4
X-21.102 Y17.027
G1 Z-5.5 F80
Z-7.1
X-21.096 Y17.044 F200
X-21.108 Y17.081
X-21.13 Y17.097
X-21.172 Y17.099
X-21.2 Y17.077
X-21.21 Y17.043
X-21.192 Y17.003
X-21.171 Y16.988
X-21.157
X-21.14
X-21.108 Y17.011
X-21.102 Y17.027
X-21.096 Y17.044 Z-7.099 F80
X-21.108 Y17.081 Z-7.089
X-21.13 Y17.097 Z-7.074
X-21.153 Y17.098 Z-7.055
X-21.172 Y17.099 Z-7.032
X-21.186 Y17.088 Z-6.993
X-21.191 Y17.084 Z-6.95
G0 Z4
X-21.102 Y17.027
G1 Z-5.8 F80
Z-7.4
X-21.096 Y17.044 F200
X-21.108 Y17.081
X-21.13 Y17.097
X-21.172 Y17.099
X-21.2 Y17.077
X-21.21 Y17.043
X-21.192 Y17.003
X-21.171 Y16.988
X-21.157
X-21.14
X-21.108 Y17.011
X-21.102 Y17.027
X-21.096 Y17.044 Z-7.399 F80
X-21.108 Y17.081 Z-7.389
X-21.13 Y17.097 Z-7.374
X-21.153 Y17.098 Z-7.355
X-21.172 Y17.099 Z-7.332
X-21.186 Y17.088 Z-7.293
X-21.191 Y17.084 Z-7.25
G0 Z4
X-21.102 Y17.027
G1 Z-6.1 F80
Z-7.7
X-21.096 Y17.044 F200
X-21.108 Y17.081
X-21.13 Y17.097
X-21.172 Y17.099
X-21.2 Y17.077
X-21.21 Y17.043
X-21.192 Y17.003
X-21.171 Y16.988
X-21.157
X-21.14
X-21.108 Y17.011
X-21.102 Y17.027
X-21.096 Y17.044 Z-7.699 F80
X-21.108 Y17.081 Z-7.689
X-21.13 Y17.097 Z-7.674
X-21.153 Y17.098 Z-7.655
X-21.172 Y17.099 Z-7.632
X-21.186 Y17.088 Z-7.593
X-21.191 Y17.084 Z-7.55
G0 Z4
X-21.095 Y32.383
Z1.3
G1 Z-0.15 F80
X-21.084 Y32.379 Z-0.207
X-21.053 Y32.371 Z-0.256
X-21.004 Y32.373 Z-0.289
X-20.977 Y32.381 Z-0.294
X-20.951 Y32.394 Z-0.3
X-20.888 Y32.435 F200
X-20.846 Y32.459
X-20.801 Y32.477
X-20.697 Y32.512
X-20.645 Y32.525
X-20.592 Y32.53
X-20.488 Y32.534
X-20.437 Y32.532
X-20.387 Y32.523
X-20.21 Y32.48
X-20.147 Y32.459
X-20.06 Y32.42
X-20.022 Y32.412
X-19.342 Y32.407
X-1.637
X-1.461 Y32.463
X-1.422 Y32.516
Y32.579
X-1.457 Y32.627
X-1.624 Y32.681
X-20.138 Y32.686
X-20.178 Y32.688
X-20.218 Y32.694
X-26.574 Y34.085
X-26.617 Y33.886
X-21.751 Y32.818
X-21.703 Y32.804
X-21.657 Y32.784
X-21.589 Y32.749
X-21.55 Y32.725
X-21.513 Y32.696
X-21.434 Y32.625
X-21.399 Y32.59
X-21.369 Y32.55
X-21.2 Y32.29
X-21.172 Y32.276
X-21.129 Y32.278
X-20.951 Y32.394
X-20.929 Y32.412 Z-0.294 F80
X-20.91 Y32.434 Z-0.289
X-20.889 Y32.477 Z-0.256
X-20.884 Y32.509 Z-0.207
X-20.883 Y32.521 Z-0.15
G0 Z4
X-21.095 Y32.383
Z1
G1 Z-0.45 F80
X-21.084 Y32.379 Z-0.507
X-21.053 Y32.371 Z-0.556
X-21.004 Y32.373 Z-0.589
X-20.977 Y32.381 Z-0.594
X-20.951 Y32.394 Z-0.6
X-20.888 Y32.435 F200
X-20.846 Y32.459
X-20.801 Y32.477
X-20.697 Y32.512
X-20.645 Y32.525
X-20.592 Y32.53
X-20.488 Y32.534
X-20.437 Y32.532
X-20.387 Y32.523
X-20.21 Y32.48
X-20.147 Y32.459
X-20.06 Y32.42
X-20.022 Y32.412
X-19.342 Y32.407
X-1.637
X-1.461 Y32.463
X-1.422 Y32.516
Y32.579
X-1.457 Y32.627
X-1.624 Y32.681
X-20.138 Y32.686
X-20.178 Y32.688
X-20.218 Y32.694
X-26.574 Y34.085
X-26.617 Y33.886
X-21.751 Y32.818
X-21.703 Y32.804
X-21.657 Y32.784
X-21.589 Y32.749
X-21.55 Y32.725
X-21.513 Y32.696
X-21.434 Y32.625
X-21.399 Y32.59
X-21.369 Y32.55
X-21.2 Y32.29
X-21.172 Y32.276
X-21.129 Y32.278
X-20.951 Y32.394
X-20.929 Y32.412 Z-0.594 F80
X-20.91 Y32.434 Z-0.589
X-20.889 Y32.477 Z-0.556
X-20.884 Y32.509 Z-0.507
X-20.883 Y32.521 Z-0.45
G0 Z4
X-21.095 Y32.383
Z0.7
G1 Z-0.75 F80
X-21.084 Y32.379 Z-0.807
X-21.053 Y32.371 Z-0.856
X-21.004 Y32.373 Z-0.889
X-20.977 Y32.381 Z-0.894
X-20.951 Y32.394 Z-0.9
X-20.888 Y32.435 F200
X-20.846 Y32.459
X-20.801 Y32.477
X-20.697 Y32.512
X-20.645 Y32.525
X-20.592 Y32.53
X-20.488 Y32.534
X-20.437 Y32.532
X-20.387 Y32.523
X-20.21 Y32.48
X-20.147 Y32.459
X-20.06 Y32.42
X-20.022 Y32.412
X-19.342 Y32.407
X-1.637
X-1.461 Y32.463
X-1.422 Y32.516
Y32.579
X-1.457 Y32.627
X-1.624 Y32.681
X-20.138 Y32.686
X-20.178 Y32.688
X-20.218 Y32.694
X-26.574 Y34.085
X-26.617 Y33.886
X-21.751 Y32.818
X-21.703 Y32.804
X-21.657 Y32.784
X-21.589 Y32.749
X-21.55 Y32.725
X-21.513 Y32.696
X-21.434 Y32.625
X-21.399 Y32.59
X-21.369 Y32.55
X-21.2 Y32.29
X-21.172 Y32.276
X-21.129 Y32.278
X-20.951 Y32.394
X-20.929 Y32.412 Z-0.894 F80
X-20.91 Y32.434 Z-0.889
X-20.889 Y32.477 Z-0.856
X-20.884 Y32.509 Z-0.807
X-20.883 Y32.521 Z-0.75
G0 Z4
X-21.329 Y32.615
Z0.4
G1 Z-1.05 F80
X-21.333 Y32.604 Z-1.107
X-21.341 Y32.573 Z-1.156
X-21.339 Y32.524 Z-1.189
X-21.331 Y32.497 Z-1.194
X-21.318 Y32.471 Z-1.2
X-21.2 Y32.29 F200
X-21.172 Y32.276
X-21.129 Y32.278
X-20.888 Y32.435
X-20.846 Y32.459
X-20.801 Y32.477
X-20.697 Y32.512
X-20.645 Y32.525
X-20.592 Y32.53
X-20.488 Y32.534
X-20.437 Y32.532
X-20.387 Y32.523
X-20.21 Y32.48
X-20.147 Y32.459
X-20.06 Y32.42
X-20.022 Y32.412
X-19.342 Y32.407
X-1.637
X-1.461 Y32.463
X-1.422 Y32.516
Y32.579
X-1.457 Y32.627
X-1.624 Y32.681
X-20.138 Y32.686
X-20.178 Y32.688
X-20.218 Y32.694
X-26.574 Y34.085
X-26.617 Y33.886
X-21.751 Y32.818
X-21.703 Y32.804
X-21.657 Y32.784
X-21.589 Y32.749
X-21.55 Y32.725
X-21.513 Y32.696
X-21.434 Y32.625
X-21.399 Y32.59
X-21.369 Y32.55
X-21.318 Y32.471
X-21.3 Y32.449 Z-1.194 F80
X-21.278 Y32.43 Z-1.189
X-21.234 Y32.409 Z-1.156
X-21.202 Y32.403 Z-1.107
X-21.191 Z-1.05
G0 Z4
X-21.329 Y32.615
Z0.1
G1 Z-1.35 F80
X-21.333 Y32.604 Z-1.407
X-21.341 Y32.573 Z-1.456
X-21.339 Y32.524 Z-1.489
X-21.331 Y32.497 Z-1.494
X-21.318 Y32.471 Z-1.5
X-21.2 Y32.29 F200
X-21.172 Y32.276
X-21.129 Y32.278
X-20.888 Y32.435
X-20.846 Y32.459
X-20.801 Y32.477
X-20.697 Y32.512
X-20.645 Y32.525
X-20.592 Y32.53
X-20.488 Y32.534
X-20.437 Y32.532
X-20.387 Y32.523
X-20.21 Y32.48
X-20.147 Y32.459
X-20.06 Y32.42
X-20.022 Y32.412
X-19.342 Y32.407
X-1.637
X-1.461 Y32.463
X-1.422 Y32.516
Y32.579
X-1.457 Y32.627
X-1.624 Y32.681
X-20.138 Y32.686
X-20.178 Y32.688
X-20.218 Y32.694
X-26.574 Y34.085
X-26.617 Y33.886
X-21.751 Y32.818
X-21.703 Y32.804
X-21.657 Y32.784
X-21.589 Y32.749
X-21.55 Y32.725
X-21.513 Y32.696
X-21.434 Y32.625
X-21.399 Y32.59
X-21.369 Y32.55
X-21.318 Y32.471
X-21.3 Y32.449 Z-1.494 F80
X-21.278 Y32.43 Z-1.489
X-21.234 Y32.409 Z-1.456
X-21.202 Y32.403 Z-1.407
X-21.191 Z-1.35
G0 Z4
X-20.931 Y32.78
Z1.3
G1 Z-0.2 F80
Z-1.65
X-20.935 Y32.79 Z-1.707
X-20.952 Y32.818 Z-1.756
X-20.987 Y32.851 Z-1.789
X-21.012 Y32.865 Z-1.794
X-21.039 Y32.874 Z-1.8
X-26.574 Y34.085 F200
X-26.617 Y33.886
X-21.751 Y32.818
X-21.703 Y32.804
X-21.657 Y32.784
X-21.589 Y32.749
X-21.55 Y32.725
X-21.513 Y32.696
X-21.434 Y32.625
X-21.399 Y32.59
X-21.369 Y32.55
X-21.2 Y32.29
X-21.173 Y32.276
X-21.128 Y32.279
X-20.888 Y32.435
X-20.846 Y32.459
X-20.801 Y32.477
X-20.697 Y32.512
X-20.645 Y32.525
X-20.592 Y32.53
X-20.488 Y32.534
X-20.437 Y32.532
X-20.387 Y32.523
X-20.21 Y32.48
X-20.147 Y32.459
X-20.06 Y32.42
X-20.022 Y32.412
X-19.342 Y32.407
X-1.637
X-1.461 Y32.463
X-1.422 Y32.516
Y32.579
X-1.457 Y32.627
X-1.624 Y32.681
X-20.138 Y32.686
X-20.178 Y32.688
X-20.218 Y32.694
X-21.039 Y32.874
X-21.068 Y32.877 Z-1.794 F80
X-21.096 Y32.875 Z-1.789
X-21.142 Y32.86 Z-1.756
X-21.169 Y32.841 Z-1.707
X-21.177 Y32.834 Z-1.65
G0 Z4
X-20.931 Y32.78
G1 Z-0.5 F80
Z-1.95
X-20.935 Y32.79 Z-2.007
X-20.952 Y32.818 Z-2.056
X-20.987 Y32.851 Z-2.089
X-21.012 Y32.865 Z-2.094
X-21.039 Y32.874 Z-2.1
X-26.574 Y34.085 F200
X-26.617 Y33.886
X-21.751 Y32.818
X-21.703 Y32.804
X-21.657 Y32.784
X-21.589 Y32.749
X-21.55 Y32.725
X-21.513 Y32.696
X-21.434 Y32.625
X-21.399 Y32.59
X-21.369 Y32.55
X-21.199 Y32.29
X-21.172 Y32.276
X-21.163 Y32.275
X-21.13 Y32.278
X-20.888 Y32.435
X-20.846 Y32.459
X-20.801 Y32.477
X-20.697 Y32.512
X-20.645 Y32.525
X-20.592 Y32.53
X-20.488 Y32.534
X-20.437 Y32.532
X-20.387 Y32.523
X-20.21 Y32.48
X-20.147 Y32.459
X-20.06 Y32.42
X-20.022 Y32.412
X-19.342 Y32.407
X-1.637
X-1.461 Y32.463
X-1.422 Y32.516
Y32.579
X-1.457 Y32.627
X-1.624 Y32.681
X-20.138 Y32.686
X-20.178 Y32.688
X-20.218 Y32.694
X-21.039 Y32.874
X-21.068 Y32.877 Z-2.094 F80
X-21.096 Y32.875 Z-2.089
X-21.142 Y32.86 Z-2.056
X-21.169 Y32.841 Z-2.007
X-21.177 Y32.834 Z-1.95
G0 Z4
X-21.096 Y32.382
G1 Z-0.8 F80
Z-2.25
X-21.085 Y32.378 Z-2.307
X-21.053 Y32.371 Z-2.356
X-21.005 Y32.372 Z-2.389
X-20.978 Y32.38 Z-2.394
X-20.952 Y32.394 Z-2.4
X-20.888 Y32.435 F200
X-20.846 Y32.459
X-20.801 Y32.477
X-20.697 Y32.512
X-20.645 Y32.525
X-20.592 Y32.53
X-20.488 Y32.534
X-20.437 Y32.532
X-20.387 Y32.523
X-20.21 Y32.48
X-20.147 Y32.459
X-20.06 Y32.42
X-20.022 Y32.412
X-19.342 Y32.407
X-1.637
X-1.461 Y32.463
X-1.422 Y32.516
Y32.579
X-1.457 Y32.627
X-1.624 Y32.681
X-20.138 Y32.686
X-20.178 Y32.688
X-20.218 Y32.694
X-26.574 Y34.085
X-26.617 Y33.886
X-21.751 Y32.818
X-21.703 Y32.804
X-21.657 Y32.784
X-21.589 Y32.749
X-21.55 Y32.725
X-21.513 Y32.696
X-21.434 Y32.625
X-21.397 Y32.588
X-21.367 Y32.546
X-21.207 Y32.296
X-21.176 Y32.279
X-21.128
X-20.952 Y32.394
X-20.93 Y32.411 Z-2.394 F80
X-20.911 Y32.433 Z-2.389
X-20.89 Y32.477 Z-2.356
X-20.884 Y32.509 Z-2.307
Y32.52 Z-2.25
G0 Z4
X-21.096 Y32.382
G1 Z-1.1 F80
Z-2.55
X-21.085 Y32.378 Z-2.607
X-21.053 Y32.371 Z-2.656
X-21.005 Y32.372 Z-2.689
X-20.978 Y32.38 Z-2.694
X-20.952 Y32.394 Z-2.7
X-20.888 Y32.435 F200
X-20.846 Y32.459
X-20.801 Y32.477
X-20.697 Y32.512
X-20.645 Y32.525
X-20.592 Y32.53
X-20.488 Y32.534
X-20.437 Y32.532
X-20.387 Y32.523
X-20.21 Y32.48
X-20.147 Y32.459
X-20.06 Y32.42
X-20.022 Y32.412
X-19.342 Y32.407
X-1.637
X-1.461 Y32.463
X-1.422 Y32.516
Y32.579
X-1.457 Y32.627
X-1.624 Y32.681
X-20.138 Y32.686
X-20.178 Y32.688
X-20.218 Y32.694
X-26.574 Y34.085
X-26.617 Y33.886
X-21.751 Y32.818
X-21.703 Y32.804
X-21.657 Y32.784
X-21.589 Y32.749
X-21.55 Y32.725
X-21.513 Y32.696
X-21.434 Y32.625
X-21.397 Y32.588
X-21.367 Y32.547
X-21.209 Y32.298
X-21.176 Y32.28
X-21.126
X-20.952 Y32.394
X-20.93 Y32.411 Z-2.694 F80
X-20.911 Y32.433 Z-2.689
X-20.89 Y32.477 Z-2.656
X-20.884 Y32.509 Z-2.607
Y32.52 Z-2.55
G0 Z4
X-21.33 Y32.617
G1 Z-1.4 F80
Z-2.85
X-21.334 Y32.606 Z-2.907
X-21.342 Y32.575 Z-2.956
X-21.341 Y32.526 Z-2.989
X-21.333 Y32.499 Z-2.994
X-21.32 Y32.473 Z-3
X-21.206 Y32.293 F200
X-21.18 Y32.28
X-21.126
X-20.888 Y32.435
X-20.846 Y32.459
X-20.801 Y32.477
X-20.697 Y32.512
X-20.645 Y32.525
X-20.592 Y32.53
X-20.488 Y32.534
X-20.437 Y32.532
X-20.387 Y32.523
X-20.21 Y32.48
X-20.147 Y32.459
X-20.06 Y32.42
X-20.022 Y32.412
X-19.342 Y32.407
X-1.637
X-1.461 Y32.463
X-1.422 Y32.516
Y32.579
X-1.457 Y32.627
X-1.624 Y32.681
X-20.138 Y32.686
X-20.178 Y32.688
X-20.218 Y32.694
X-26.574 Y34.085
X-26.617 Y33.886
X-21.751 Y32.818
X-21.703 Y32.804
X-21.657 Y32.784
X-21.589 Y32.749
X-21.55 Y32.725
X-21.513 Y32.696
X-21.434 Y32.625
X-21.397 Y32.588
X-21.367 Y32.547
X-21.32 Y32.473
X-21.303 Y32.451 Z-2.994 F80
X-21.281 Y32.432 Z-2.989
X-21.237 Y32.41 Z-2.956
X-21.206 Y32.404 Z-2.907
X-21.194 Z-2.85
G0 Z4
X-21.153 Y32.282
G1 Z-1.7 F80
Z-3.3
X-21.125 Y32.283 F200
X-21.11 Y32.293
X-21.091 Y32.335
X-21.097 Y32.376
X-21.121 Y32.401
X-21.162 Y32.41
X-21.191 Y32.399
X-21.218 Y32.362
Y32.314
X-21.209 Y32.301
X-21.177 Y32.282
X-21.153
X-21.125 Y32.283 Z-3.297 F80
X-21.11 Y32.293 Z-3.293
X-21.1 Y32.315 Z-3.282
X-21.091 Y32.335 Z-3.268
X-21.094 Y32.359 Z-3.244
X-21.097 Y32.376 Z-3.216
X-21.105 Y32.385 Z-3.184
X-21.108 Y32.388 Z-3.15
G0 Z4
X-21.153 Y32.282
G1 Z-2 F80
Z-3.6
X-21.125 Y32.283 F200
X-21.11 Y32.293
X-21.091 Y32.335
X-21.097 Y32.376
X-21.121 Y32.401
X-21.162 Y32.41
X-21.191 Y32.399
X-21.218 Y32.362
Y32.314
X-21.207 Y32.296
X-21.191 Y32.286
X-21.183 Y32.282
X-21.153
X-21.125 Y32.283 Z-3.597 F80
X-21.11 Y32.293 Z-3.593
X-21.1 Y32.315 Z-3.582
X-21.091 Y32.335 Z-3.568
X-21.094 Y32.359 Z-3.544
X-21.097 Y32.376 Z-3.516
X-21.105 Y32.385 Z-3.484
X-21.108 Y32.388 Z-3.45
G0 Z4
X-21.192 Y32.391
G1 Z-2.3 F80
Z-3.75
X-21.205 Y32.377 Z-3.823
X-21.213 Y32.363 Z-3.844
X-21.216 Y32.346 Z-3.864
X-21.213 Y32.324 Z-3.877
X-21.202 Y32.304 Z-3.891
X-21.181 Y32.289 Z-3.895
X-21.156 Y32.284 Z-3.9
X-21.125 Y32.283 F200
X-21.111 Y32.293
X-21.091 Y32.337
X-21.097 Y32.376
X-21.121 Y32.401
X-21.162 Y32.41
X-21.191 Y32.399
X-21.218 Y32.362
Y32.314
X-21.208 Y32.298
X-21.189 Y32.284
X-21.156
X-21.125 Y32.283 Z-3.897 F80
X-21.111 Y32.293 Z-3.892
X-21.1 Y32.316 Z-3.881
X-21.091 Y32.337 Z-3.865
X-21.095 Y32.359 Z-3.841
X-21.097 Y32.376 Z-3.813
X-21.104 Y32.384 Z-3.782
X-21.107 Y32.386 Z-3.75
G0 Z4
X-21.101 Y32.319
G1 Z-2.6 F80
Z-4.2
X-21.092 Y32.337 F200
