(1001)
(T1  D=3 CR=0 - ZMIN=0 - flat end mill)
G90 G94
G17
G21

(Face1 2)
T1
S500 M3
G54
M8
G0 X-0.563 Y-1.363
Z6
Z2
G1 Z0 F300
X0.481
X34.068 F1000
X36.113
G2 X36.113 Y-4.198 I0 J-1.417
G1 X0
G3 X0 Y-7.033 I0 J-1.417
G1 X36.203
X36.653
G2 X36.653 Y-9.868 I0 J-1.417
G1 X0
G3 X0 Y-12.703 I0 J-1.417
G1 X36.653
G2 X36.653 Y-15.538 I0 J-1.417
G1 X36.001
X0
G3 X0 Y-18.373 I0 J-1.417
G1 X38.203
G2 X38.203 Y-21.208 I0 J-1.417
G1 X38.009
X0
G3 X0 Y-24.043 I0 J-1.417
G1 X36.203
X36.653
G2 X36.653 Y-26.878 I0 J-1.417
G1 X0
G3 X0 Y-29.713 I0 J-1.417
G1 X36.653
G2 X36.653 Y-32.547 I0 J-1.417
G1 X34.653
X0
G3 X0 Y-35.382 I0 J-1.417
G1 X34.114
G2 X34.114 Y-38.217 I0 J-1.417
G1 X33.653
X0
G3 X0 Y-41.052 I0 J-1.417
G1 X31.653
G2 X31.653 Y-43.887 I0 J-1.417
G1 X31.591
X0
G3 X0 Y-46.722 I0 J-1.417
G1 X31.308
G2 X31.308 Y-49.557 I0 J-1.417
G1 X31.064
X0
G3 X0 Y-52.392 I0 J-1.417
G1 X30.23
G2 X30.23 Y-55.227 I0 J-1.417
G1 X28.251
X0.441
G0 Z6
M9
M5
M30
