(1001)
(T1  D=1.5 CR=0 - ZMIN=-3 - flat end mill)
G90 G94
G17
G21

(Pocket5)
T1
S500 M3
G54
M8
G0 X24.366 Y-12.563
Z6
Z1.4
G1 Z0.42 F100
S5000
X25.095 Z0.374
X25.127 Y-12.556
X25.153 Y-12.535
X25.168 Y-12.505
Y-12.471
X25.153 Y-12.441
X25.127 Y-12.421
X25.095 Y-12.413
X22.184 Z0.189
X22.152 Y-12.421
X22.126 Y-12.441
X22.111 Y-12.471
Y-12.505
X22.126 Y-12.535
X22.152 Y-12.556
X22.184 Y-12.563
X25.095 Z0.004
X25.127 Y-12.556
X25.153 Y-12.535
X25.168 Y-12.505
Y-12.471
X25.153 Y-12.441
X25.127 Y-12.421
X25.095 Y-12.413
X22.184 Z-0.181
X22.152 Y-12.421
X22.126 Y-12.441
X22.111 Y-12.471
Y-12.505
X22.126 Y-12.535
X22.152 Y-12.556
X22.184 Y-12.563
X25.095 Z-0.366
X25.127 Y-12.556
X25.153 Y-12.535
X25.168 Y-12.505
Y-12.471
X25.153 Y-12.441
X25.127 Y-12.421
X25.095 Y-12.413
X24.566 Z-0.4
X24.398 Y-12.354
X24.373 Y-12.337
X24.359 Y-12.31
Y-12.28
X24.373 Y-12.253
X24.397 Y-12.236
X24.427 Y-12.232
X24.455 Y-12.242
X24.476 Y-12.264
X24.484 Y-12.293
X24.478 Y-12.322
X24.459 Y-12.345
S500
G3 X24.673 Y-12.631 I0.107 J-0.143 F350
X24.459 Y-12.345 I-0.107 J0.143
G2 X23.937 Y-12.414 I-0.322 J0.429
G3 X23.411 Y-12.382 I-0.312 J-0.776
G1 X23.396 Y-12.386
X23.348 Y-12.395
X23.3 Y-12.398
X18.79 Y-12.4
X18.742 Y-12.397
X18.462 Y-12.361
X0.125
X-0.058 Y-12.419
X-0.095 Y-12.471
X-0.094 Y-12.533
X-0.06 Y-12.58
X0.125 Y-12.639
X18.462
X18.742 Y-12.603
X18.79 Y-12.6
X23.338 Y-12.605
X23.398 Y-12.61
X23.456 Y-12.624
X23.569 Y-12.662
X23.618 Y-12.682
X23.664 Y-12.709
X23.74 Y-12.761
X23.782 Y-12.795
X24.182 Y-13.165
X24.531 Y-13.265
X24.875 Y-13.201
X24.935 Y-13.159
X25.163 Y-12.986
X25.325 Y-12.66
X25.32 Y-12.296
X25.159 Y-11.983
X25.151 Y-11.976
X24.862 Y-11.768
X24.513 Y-11.71
X24.177 Y-11.815
X23.747 Y-12.221
X23.715 Y-12.248
X23.68 Y-12.271
X23.604 Y-12.316
X23.558 Y-12.339
X23.509 Y-12.356
X23.411 Y-12.382
X23.378 Y-12.397
X23.353 Y-12.423
X23.339 Y-12.456
X23.338 Y-12.492
X23.349 Y-12.526
X23.372 Y-12.554
X23.403 Y-12.572
X23.439 Y-12.578
X24.13 Y-12.563
S5000
X25.095 Z-0.658 F100
X25.127 Y-12.556
X25.153 Y-12.535
X25.168 Y-12.505
Y-12.471
X25.153 Y-12.441
X25.127 Y-12.421
X25.095 Y-12.413
X24.566 Z-0.8
X24.398 Y-12.354
X24.373 Y-12.337
X24.359 Y-12.31
Y-12.28
X24.373 Y-12.253
X24.397 Y-12.236
X24.427 Y-12.232
X24.455 Y-12.242
X24.476 Y-12.264
X24.484 Y-12.293
X24.478 Y-12.322
X24.459 Y-12.345
S500
G3 X24.673 Y-12.631 I0.107 J-0.143 F350
X24.459 Y-12.345 I-0.107 J0.143
G2 X23.937 Y-12.414 I-0.322 J0.429
G3 X23.411 Y-12.382 I-0.312 J-0.776
G1 X23.396 Y-12.386
X23.348 Y-12.395
X23.3 Y-12.398
X18.79 Y-12.4
X18.742 Y-12.397
X18.462 Y-12.361
X0.125
X-0.058 Y-12.419
X-0.095 Y-12.471
X-0.094 Y-12.533
X-0.06 Y-12.58
X0.125 Y-12.639
X18.462
X18.742 Y-12.603
X18.79 Y-12.6
X23.338 Y-12.605
X23.398 Y-12.61
X23.456 Y-12.624
X23.569 Y-12.662
X23.618 Y-12.682
X23.664 Y-12.709
X23.74 Y-12.761
X23.782 Y-12.795
X24.182 Y-13.165
X24.531 Y-13.265
X24.875 Y-13.201
X24.935 Y-13.159
X25.163 Y-12.986
X25.325 Y-12.66
X25.32 Y-12.296
X25.159 Y-11.983
X25.151 Y-11.976
X24.862 Y-11.768
X24.513 Y-11.71
X24.177 Y-11.815
X23.747 Y-12.221
X23.715 Y-12.248
X23.68 Y-12.271
X23.604 Y-12.316
X23.558 Y-12.339
X23.509 Y-12.356
X23.411 Y-12.382
X23.378 Y-12.397
X23.353 Y-12.423
X23.339 Y-12.456
X23.338 Y-12.492
X23.349 Y-12.526
X23.372 Y-12.554
X23.403 Y-12.572
X23.439 Y-12.578
X24.13 Y-12.563
S5000
X25.095 Z-1.058 F100
X25.127 Y-12.556
X25.153 Y-12.535
X25.168 Y-12.505
Y-12.471
X25.153 Y-12.441
X25.127 Y-12.421
X25.095 Y-12.413
X24.566 Z-1.2
X24.398 Y-12.354
X24.373 Y-12.337
X24.359 Y-12.31
Y-12.28
X24.373 Y-12.253
X24.397 Y-12.236
X24.427 Y-12.232
X24.455 Y-12.242
X24.476 Y-12.264
X24.484 Y-12.293
X24.478 Y-12.322
X24.459 Y-12.345
S500
G3 X24.673 Y-12.631 I0.107 J-0.143 F350
X24.459 Y-12.345 I-0.107 J0.143
G2 X23.937 Y-12.414 I-0.322 J0.429
G3 X23.411 Y-12.382 I-0.312 J-0.776
G1 X23.396 Y-12.386
X23.348 Y-12.395
X23.3 Y-12.398
X18.79 Y-12.4
X18.742 Y-12.397
X18.462 Y-12.361
X0.125
X-0.058 Y-12.419
X-0.095 Y-12.471
X-0.094 Y-12.533
X-0.06 Y-12.58
X0.125 Y-12.639
X18.462
X18.742 Y-12.603
X18.79 Y-12.6
X23.338 Y-12.605
X23.398 Y-12.61
X23.456 Y-12.624
X23.569 Y-12.662
X23.618 Y-12.682
X23.664 Y-12.709
X23.74 Y-12.761
X23.782 Y-12.795
X24.182 Y-13.165
X24.531 Y-13.265
X24.875 Y-13.201
X24.935 Y-13.159
X25.163 Y-12.986
X25.325 Y-12.66
X25.32 Y-12.296
X25.159 Y-11.983
X25.151 Y-11.976
X24.862 Y-11.768
X24.513 Y-11.71
X24.177 Y-11.815
X23.747 Y-12.221
X23.715 Y-12.248
X23.68 Y-12.271
X23.604 Y-12.316
X23.558 Y-12.339
X23.509 Y-12.356
X23.411 Y-12.382
X23.378 Y-12.397
X23.353 Y-12.423
X23.339 Y-12.456
X23.338 Y-12.492
X23.349 Y-12.526
X23.372 Y-12.554
X23.403 Y-12.572
X23.439 Y-12.578
X24.13 Y-12.563
S5000
X25.095 Z-1.458 F100
X25.127 Y-12.556
X25.153 Y-12.535
X25.168 Y-12.505
Y-12.471
X25.153 Y-12.441
X25.127 Y-12.421
X25.095 Y-12.413
X24.566 Z-1.6
X24.398 Y-12.354
X24.373 Y-12.337
X24.359 Y-12.31
Y-12.28
X24.373 Y-12.253
X24.397 Y-12.236
X24.427 Y-12.232
X24.455 Y-12.242
X24.476 Y-12.264
X24.484 Y-12.293
X24.478 Y-12.322
X24.459 Y-12.345
S500
G3 X24.673 Y-12.631 I0.107 J-0.143 F350
X24.459 Y-12.345 I-0.107 J0.143
G2 X23.937 Y-12.414 I-0.322 J0.429
G3 X23.411 Y-12.382 I-0.312 J-0.776
G1 X23.396 Y-12.386
X23.348 Y-12.395
X23.3 Y-12.398
X18.79 Y-12.4
X18.742 Y-12.397
X18.462 Y-12.361
X0.125
X-0.058 Y-12.419
X-0.095 Y-12.471
X-0.094 Y-12.533
X-0.06 Y-12.58
X0.125 Y-12.639
X18.462
X18.742 Y-12.603
X18.79 Y-12.6
X23.338 Y-12.605
X23.398 Y-12.61
X23.456 Y-12.624
X23.569 Y-12.662
X23.618 Y-12.682
X23.664 Y-12.709
X23.74 Y-12.761
X23.782 Y-12.795
X24.182 Y-13.165
X24.531 Y-13.265
X24.875 Y-13.201
X24.935 Y-13.159
X25.163 Y-12.986
X25.325 Y-12.66
X25.32 Y-12.296
X25.159 Y-11.983
X25.151 Y-11.976
X24.862 Y-11.768
X24.513 Y-11.71
X24.177 Y-11.815
X23.747 Y-12.221
X23.715 Y-12.248
X23.68 Y-12.271
X23.604 Y-12.316
X23.558 Y-12.339
X23.509 Y-12.356
X23.411 Y-12.382
X23.378 Y-12.397
X23.353 Y-12.423
X23.339 Y-12.456
X23.338 Y-12.492
X23.349 Y-12.526
X23.372 Y-12.554
X23.403 Y-12.572
X23.439 Y-12.578
X24.13 Y-12.563
S5000
X25.095 Z-1.858 F100
X25.127 Y-12.556
X25.153 Y-12.535
X25.168 Y-12.505
Y-12.471
X25.153 Y-12.441
X25.127 Y-12.421
X25.095 Y-12.413
X24.566 Z-2
X24.398 Y-12.354
X24.373 Y-12.337
X24.359 Y-12.31
Y-12.28
X24.373 Y-12.253
X24.397 Y-12.236
X24.427 Y-12.232
X24.455 Y-12.242
X24.476 Y-12.264
X24.484 Y-12.293
X24.478 Y-12.322
X24.459 Y-12.345
S500
G3 X24.673 Y-12.631 I0.107 J-0.143 F350
X24.459 Y-12.345 I-0.107 J0.143
G2 X23.937 Y-12.414 I-0.322 J0.429
G3 X23.411 Y-12.382 I-0.312 J-0.776
G1 X23.396 Y-12.386
X23.348 Y-12.395
X23.3 Y-12.398
X18.79 Y-12.4
X18.742 Y-12.397
X18.462 Y-12.361
X0.125
X-0.058 Y-12.419
X-0.095 Y-12.471
X-0.094 Y-12.533
X-0.06 Y-12.58
X0.125 Y-12.639
X18.462
X18.742 Y-12.603
X18.79 Y-12.6
X23.338 Y-12.605
X23.398 Y-12.61
X23.456 Y-12.624
X23.569 Y-12.662
X23.618 Y-12.682
X23.664 Y-12.709
X23.74 Y-12.761
X23.782 Y-12.795
X24.182 Y-13.165
X24.531 Y-13.265
X24.875 Y-13.201
X24.935 Y-13.159
X25.163 Y-12.986
X25.325 Y-12.66
X25.32 Y-12.296
X25.159 Y-11.983
X25.151 Y-11.976
X24.862 Y-11.768
X24.513 Y-11.71
X24.177 Y-11.815
X23.747 Y-12.221
X23.715 Y-12.248
X23.68 Y-12.271
X23.604 Y-12.316
X23.558 Y-12.339
X23.509 Y-12.356
X23.411 Y-12.382
X23.378 Y-12.397
X23.353 Y-12.423
X23.339 Y-12.456
X23.338 Y-12.492
X23.349 Y-12.526
X23.372 Y-12.554
X23.403 Y-12.572
X23.439 Y-12.578
X24.13 Y-12.563
S5000
X25.095 Z-2.258 F100
X25.127 Y-12.556
X25.153 Y-12.535
X25.168 Y-12.505
Y-12.471
X25.153 Y-12.441
X25.127 Y-12.421
X25.095 Y-12.413
X24.566 Z-2.4
X24.398 Y-12.354
X24.373 Y-12.337
X24.359 Y-12.31
Y-12.28
X24.373 Y-12.253
X24.397 Y-12.236
X24.427 Y-12.232
X24.455 Y-12.242
X24.476 Y-12.264
X24.484 Y-12.293
X24.478 Y-12.322
X24.459 Y-12.345
S500
G3 X24.673 Y-12.631 I0.107 J-0.143 F350
X24.459 Y-12.345 I-0.107 J0.143
G2 X23.937 Y-12.414 I-0.322 J0.429
G3 X23.411 Y-12.382 I-0.312 J-0.776
G1 X23.396 Y-12.386
X23.348 Y-12.395
X23.3 Y-12.398
X18.79 Y-12.4
X18.742 Y-12.397
X18.462 Y-12.361
X0.125
X-0.058 Y-12.419
X-0.095 Y-12.471
X-0.094 Y-12.533
X-0.06 Y-12.58
X0.125 Y-12.639
X18.462
X18.742 Y-12.603
X18.79 Y-12.6
X23.338 Y-12.605
X23.398 Y-12.61
X23.456 Y-12.624
X23.569 Y-12.662
X23.618 Y-12.682
X23.664 Y-12.709
X23.74 Y-12.761
X23.782 Y-12.795
X24.182 Y-13.165
X24.531 Y-13.265
X24.875 Y-13.201
X24.935 Y-13.159
X25.163 Y-12.986
X25.325 Y-12.66
X25.32 Y-12.296
X25.159 Y-11.983
X25.151 Y-11.976
X24.862 Y-11.768
X24.513 Y-11.71
X24.177 Y-11.815
X23.747 Y-12.221
X23.715 Y-12.248
X23.68 Y-12.271
X23.604 Y-12.316
X23.558 Y-12.339
X23.509 Y-12.356
X23.411 Y-12.382
X23.378 Y-12.397
X23.353 Y-12.423
X23.339 Y-12.456
X23.338 Y-12.492
X23.349 Y-12.526
X23.372 Y-12.554
X23.403 Y-12.572
X23.439 Y-12.578
X24.13 Y-12.563
S5000
X25.095 Z-2.658 F100
X25.127 Y-12.556
X25.153 Y-12.535
X25.168 Y-12.505
Y-12.471
X25.153 Y-12.441
X25.127 Y-12.421
X25.095 Y-12.413
X24.566 Z-2.8
X24.398 Y-12.354
X24.373 Y-12.337
X24.359 Y-12.31
Y-12.28
X24.373 Y-12.253
X24.397 Y-12.236
X24.427 Y-12.232
X24.455 Y-12.242
X24.476 Y-12.264
X24.484 Y-12.293
X24.478 Y-12.322
X24.459 Y-12.345
S500
G3 X24.673 Y-12.631 I0.107 J-0.143 F350
X24.459 Y-12.345 I-0.107 J0.143
G2 X23.937 Y-12.414 I-0.322 J0.429
G3 X23.411 Y-12.382 I-0.312 J-0.776
G1 X23.396 Y-12.386
X23.348 Y-12.395
X23.3 Y-12.398
X18.79 Y-12.4
X18.742 Y-12.397
X18.462 Y-12.361
X0.125
X-0.058 Y-12.419
X-0.095 Y-12.471
X-0.094 Y-12.533
X-0.06 Y-12.58
X0.125 Y-12.639
X18.462
X18.742 Y-12.603
X18.79 Y-12.6
X23.338 Y-12.605
X23.398 Y-12.61
X23.456 Y-12.624
X23.569 Y-12.662
X23.618 Y-12.682
X23.664 Y-12.709
X23.74 Y-12.761
X23.782 Y-12.795
X24.182 Y-13.165
X24.531 Y-13.265
X24.875 Y-13.201
X24.935 Y-13.159
X25.163 Y-12.986
X25.325 Y-12.66
X25.32 Y-12.296
X25.159 Y-11.983
X25.151 Y-11.976
X24.862 Y-11.768
X24.513 Y-11.71
X24.177 Y-11.815
X23.747 Y-12.221
X23.715 Y-12.248
X23.68 Y-12.271
X23.604 Y-12.316
X23.558 Y-12.339
X23.509 Y-12.356
X23.411 Y-12.382
X23.393 Y-12.392
X23.383 Y-12.409
Y-12.429
X23.392 Y-12.447
X23.41 Y-12.458
X23.56 Y-12.502
X24.877 Y-12.563
S5000
X25.095 Z-2.858 F100
X25.127 Y-12.556
X25.153 Y-12.535
X25.168 Y-12.505
Y-12.471
X25.153 Y-12.441
X25.127 Y-12.421
X25.095 Y-12.413
X24.566 Z-3
X24.398 Y-12.354
X24.373 Y-12.337
X24.359 Y-12.31
Y-12.28
X24.373 Y-12.253
X24.397 Y-12.236
X24.427 Y-12.232
X24.455 Y-12.242
X24.476 Y-12.264
X24.484 Y-12.293
X24.478 Y-12.322
X24.459 Y-12.345
S500
G3 X24.673 Y-12.631 I0.107 J-0.143 F350
X24.459 Y-12.345 I-0.107 J0.143
G2 X23.937 Y-12.414 I-0.322 J0.429
G3 X23.411 Y-12.382 I-0.312 J-0.776
G1 X23.396 Y-12.386
X23.348 Y-12.395
X23.3 Y-12.398
X18.79 Y-12.4
X18.742 Y-12.397
X18.462 Y-12.361
X0.125
X-0.058 Y-12.419
X-0.095 Y-12.471
X-0.094 Y-12.533
X-0.06 Y-12.58
X0.125 Y-12.639
X18.462
X18.742 Y-12.603
X18.79 Y-12.6
X23.338 Y-12.605
X23.398 Y-12.61
X23.456 Y-12.624
X23.569 Y-12.662
X23.618 Y-12.682
X23.664 Y-12.709
X23.74 Y-12.761
X23.782 Y-12.795
X24.182 Y-13.165
X24.531 Y-13.265
X24.875 Y-13.201
X24.935 Y-13.159
X25.163 Y-12.986
X25.325 Y-12.66
X25.32 Y-12.296
X25.159 Y-11.983
X25.151 Y-11.976
X24.862 Y-11.768
X24.513 Y-11.71
X24.177 Y-11.815
X23.747 Y-12.221
X23.715 Y-12.248
X23.68 Y-12.271
X23.604 Y-12.316
X23.558 Y-12.339
X23.509 Y-12.356
X23.411 Y-12.382
X23.396 Y-12.386 Z-2.999 F100
X23.344 Y-12.396 Z-2.983
X23.3 Y-12.398 Z-2.949
X23.28 Z-2.919
X23.267 Z-2.886
X23.263 Z-2.85
G0 Z4
X25.4 Y-16.583
Z0.42
S5000
G1 X27.069 Y-16.915 Z0.272 F100
X27.102 Y-16.914
X27.132 Y-16.898
X27.152 Y-16.872
X27.158 Y-16.839
X27.15 Y-16.807
X27.128 Y-16.781
X27.098 Y-16.767
X25.074 Y-16.365 Z0.093
X25.041 Y-16.366
X25.011 Y-16.381
X24.991 Y-16.408
X24.985 Y-16.441
X24.993 Y-16.473
X25.014 Y-16.498
X25.045 Y-16.512
X27.069 Y-16.915 Z-0.087
X27.102 Y-16.914
X27.132 Y-16.898
X27.152 Y-16.872
X27.158 Y-16.839
X27.15 Y-16.807
X27.128 Y-16.781
X27.098 Y-16.767
X25.074 Y-16.365 Z-0.266
X25.041 Y-16.366
X25.011 Y-16.381
X24.991 Y-16.408
X24.985 Y-16.441
X24.993 Y-16.473
X25.014 Y-16.498
X25.045 Y-16.512
X26.55 Y-16.811 Z-0.4
X26.582 Y-16.813
X26.613 Y-16.804
X26.64 Y-16.786
X26.777 Y-16.661
X26.811 Y-16.641
X26.851 Y-16.635
X26.89 Y-16.644
X26.922 Y-16.667
X26.944 Y-16.701
X26.95 Y-16.741
X26.941 Y-16.78
X26.918 Y-16.812
X26.885 Y-16.834
X26.845 Y-16.841
X26.806 Y-16.833
X26.773 Y-16.81
X26.751 Y-16.777
X26.743 Y-16.738
S500
G3 X26.386 Y-16.738 I-0.179 J0 F350
X26.743 Y-16.738 I0.179 J0
G2 X26.912 Y-16.409 I0.406 J0
G3 X26.868 Y-16.042 I-0.124 J0.171
G1 X26.689 Y-15.969
X26.331 Y-15.996
X25.805 Y-16.306
X25.752 Y-16.332
X25.695 Y-16.349
X25.579 Y-16.375
X25.522 Y-16.383
X25.465 Y-16.382
X25.354 Y-16.372
X25.309 Y-16.365
X18.749 Y-14.952
X18.689 Y-14.934
X18.539 Y-14.874
X18.458 Y-14.862
X0.125 Y-14.861
X-0.059 Y-14.92
X-0.095 Y-14.97
Y-15.029
X-0.059 Y-15.081
X0.125 Y-15.139
X18.6 Y-15.137
X18.64 Y-15.139
X18.679 Y-15.145
X25.312 Y-16.572
X25.355 Y-16.584
X25.397 Y-16.601
X25.496 Y-16.65
X25.541 Y-16.675
X25.582 Y-16.707
X25.653 Y-16.771
X25.684 Y-16.802
X25.712 Y-16.837
X26.042 Y-17.314
X26.358 Y-17.488
X26.712 Y-17.502
X27.043 Y-17.353
X27.27 Y-17.072
X27.345 Y-16.721
X27.257 Y-16.382
X27.127 Y-16.227
X27.018 Y-16.103
X26.868 Y-16.042
X26.845 Y-16.037
X26.822 Y-16.039
X26.8 Y-16.048
X25.99 Y-16.552
X25.965 Y-16.562
X25.938
X25.202 Y-16.44
X25.088 Y-16.456
X25.068 Y-16.467
X25.06 Y-16.487
X25.067 Y-16.509
X25.086 Y-16.52
S5000
X26.55 Y-16.811 Z-0.8 F100
X26.582 Y-16.813
X26.613 Y-16.804
X26.64 Y-16.786
X26.777 Y-16.661
X26.811 Y-16.641
X26.851 Y-16.635
X26.89 Y-16.644
X26.922 Y-16.667
X26.944 Y-16.701
X26.95 Y-16.741
X26.941 Y-16.78
X26.918 Y-16.812
X26.885 Y-16.834
X26.845 Y-16.841
X26.806 Y-16.833
X26.773 Y-16.81
X26.751 Y-16.777
X26.743 Y-16.738
S500
G3 X26.386 Y-16.738 I-0.179 J0 F350
X26.743 Y-16.738 I0.179 J0
G2 X26.912 Y-16.409 I0.406 J0
G3 X26.868 Y-16.042 I-0.124 J0.171
G1 X26.689 Y-15.969
X26.331 Y-15.996
X25.805 Y-16.306
X25.752 Y-16.332
X25.695 Y-16.349
X25.579 Y-16.375
X25.522 Y-16.383
X25.465 Y-16.382
X25.354 Y-16.372
X25.309 Y-16.365
X18.749 Y-14.952
X18.689 Y-14.934
X18.539 Y-14.874
X18.458 Y-14.862
X0.125 Y-14.861
X-0.059 Y-14.92
X-0.095 Y-14.97
Y-15.029
X-0.059 Y-15.081
X0.125 Y-15.139
X18.6 Y-15.137
X18.64 Y-15.139
X18.679 Y-15.145
X25.312 Y-16.572
X25.355 Y-16.584
X25.397 Y-16.601
X25.496 Y-16.65
X25.541 Y-16.675
X25.582 Y-16.707
X25.653 Y-16.771
X25.684 Y-16.802
X25.712 Y-16.837
X26.042 Y-17.314
X26.358 Y-17.488
X26.712 Y-17.502
X27.043 Y-17.353
X27.27 Y-17.072
X27.345 Y-16.721
X27.257 Y-16.382
X27.127 Y-16.227
X27.018 Y-16.103
X26.868 Y-16.042
X26.845 Y-16.037
X26.822 Y-16.039
X26.8 Y-16.048
X25.99 Y-16.552
X25.965 Y-16.562
X25.938
X25.202 Y-16.44
X25.088 Y-16.456
X25.068 Y-16.467
X25.06 Y-16.487
X25.067 Y-16.509
X25.086 Y-16.52
S5000
X26.55 Y-16.811 Z-1.2 F100
X26.582 Y-16.813
X26.613 Y-16.804
X26.64 Y-16.786
X26.777 Y-16.661
X26.811 Y-16.641
X26.851 Y-16.635
X26.89 Y-16.644
X26.922 Y-16.667
X26.944 Y-16.701
X26.95 Y-16.741
X26.941 Y-16.78
X26.918 Y-16.812
X26.885 Y-16.834
X26.845 Y-16.841
X26.806 Y-16.833
X26.773 Y-16.81
X26.751 Y-16.777
X26.743 Y-16.738
S500
G3 X26.386 Y-16.738 I-0.179 J0 F350
X26.743 Y-16.738 I0.179 J0
G2 X26.912 Y-16.409 I0.406 J0
G3 X26.868 Y-16.042 I-0.124 J0.171
G1 X26.689 Y-15.969
X26.331 Y-15.996
X25.805 Y-16.306
X25.752 Y-16.332
X25.695 Y-16.349
X25.579 Y-16.375
X25.522 Y-16.383
X25.465 Y-16.382
X25.354 Y-16.372
X25.309 Y-16.365
X18.749 Y-14.952
X18.689 Y-14.934
X18.539 Y-14.874
X18.458 Y-14.862
X0.125 Y-14.861
X-0.059 Y-14.92
X-0.095 Y-14.97
Y-15.029
X-0.059 Y-15.081
X0.125 Y-15.139
X18.6 Y-15.137
X18.64 Y-15.139
X18.679 Y-15.145
X25.312 Y-16.572
X25.355 Y-16.584
X25.397 Y-16.601
X25.496 Y-16.65
X25.541 Y-16.675
X25.582 Y-16.707
X25.653 Y-16.771
X25.684 Y-16.802
X25.712 Y-16.837
X26.042 Y-17.314
X26.358 Y-17.488
X26.712 Y-17.502
X27.043 Y-17.353
X27.27 Y-17.072
X27.345 Y-16.721
X27.257 Y-16.382
X27.127 Y-16.227
X27.018 Y-16.103
X26.868 Y-16.042
X26.845 Y-16.037
X26.822 Y-16.039
X26.8 Y-16.048
X25.99 Y-16.552
X25.965 Y-16.562
X25.938
X25.202 Y-16.44
X25.088 Y-16.456
X25.068 Y-16.467
X25.06 Y-16.487
X25.067 Y-16.509
X25.086 Y-16.52
S5000
X26.55 Y-16.811 Z-1.6 F100
X26.582 Y-16.813
X26.613 Y-16.804
X26.64 Y-16.786
X26.777 Y-16.661
X26.811 Y-16.641
X26.851 Y-16.635
X26.89 Y-16.644
X26.922 Y-16.667
X26.944 Y-16.701
X26.95 Y-16.741
X26.941 Y-16.78
X26.918 Y-16.812
X26.885 Y-16.834
X26.845 Y-16.841
X26.806 Y-16.833
X26.773 Y-16.81
X26.751 Y-16.777
X26.743 Y-16.738
S500
G3 X26.386 Y-16.738 I-0.179 J0 F350
X26.743 Y-16.738 I0.179 J0
G2 X26.912 Y-16.409 I0.406 J0
G3 X26.868 Y-16.042 I-0.124 J0.171
G1 X26.689 Y-15.969
X26.331 Y-15.996
X25.805 Y-16.306
X25.752 Y-16.332
X25.695 Y-16.349
X25.579 Y-16.375
X25.522 Y-16.383
X25.465 Y-16.382
X25.354 Y-16.372
X25.309 Y-16.365
X18.749 Y-14.952
X18.689 Y-14.934
X18.539 Y-14.874
X18.458 Y-14.862
X0.125 Y-14.861
X-0.059 Y-14.92
X-0.095 Y-14.97
Y-15.029
X-0.059 Y-15.081
X0.125 Y-15.139
X18.6 Y-15.137
X18.64 Y-15.139
X18.679 Y-15.145
X25.312 Y-16.572
X25.355 Y-16.584
X25.397 Y-16.601
X25.496 Y-16.65
X25.541 Y-16.675
X25.582 Y-16.707
X25.653 Y-16.771
X25.684 Y-16.802
X25.712 Y-16.837
X26.042 Y-17.314
X26.358 Y-17.488
X26.712 Y-17.502
X27.043 Y-17.353
X27.27 Y-17.072
X27.345 Y-16.721
X27.257 Y-16.382
X27.127 Y-16.227
X27.018 Y-16.103
X26.868 Y-16.042
X26.845 Y-16.037
X26.822 Y-16.039
X26.8 Y-16.048
X25.99 Y-16.552
X25.965 Y-16.562
X25.938
X25.202 Y-16.44
X25.088 Y-16.456
X25.068 Y-16.467
X25.06 Y-16.487
X25.067 Y-16.509
X25.086 Y-16.52
S5000
X26.55 Y-16.811 Z-2 F100
X26.582 Y-16.813
X26.613 Y-16.804
X26.64 Y-16.786
X26.777 Y-16.661
X26.811 Y-16.641
X26.851 Y-16.635
X26.89 Y-16.644
X26.922 Y-16.667
X26.944 Y-16.701
X26.95 Y-16.741
X26.941 Y-16.78
X26.918 Y-16.812
X26.885 Y-16.834
X26.845 Y-16.841
X26.806 Y-16.833
X26.773 Y-16.81
X26.751 Y-16.777
X26.743 Y-16.738
S500
G3 X26.386 Y-16.738 I-0.179 J0 F350
X26.743 Y-16.738 I0.179 J0
G2 X26.912 Y-16.409 I0.406 J0
G3 X26.868 Y-16.042 I-0.124 J0.171
G1 X26.689 Y-15.969
X26.331 Y-15.996
X25.805 Y-16.306
X25.752 Y-16.332
X25.695 Y-16.349
X25.579 Y-16.375
X25.522 Y-16.383
X25.465 Y-16.382
X25.354 Y-16.372
X25.309 Y-16.365
X18.749 Y-14.952
X18.689 Y-14.934
X18.539 Y-14.874
X18.458 Y-14.862
X0.125 Y-14.861
X-0.059 Y-14.92
X-0.095 Y-14.97
Y-15.029
X-0.059 Y-15.081
X0.125 Y-15.139
X18.6 Y-15.137
X18.64 Y-15.139
X18.679 Y-15.145
X25.312 Y-16.572
X25.355 Y-16.584
X25.397 Y-16.601
X25.496 Y-16.65
X25.541 Y-16.675
X25.582 Y-16.707
X25.653 Y-16.771
X25.684 Y-16.802
X25.712 Y-16.837
X26.042 Y-17.314
X26.358 Y-17.488
X26.712 Y-17.502
X27.043 Y-17.353
X27.27 Y-17.072
X27.345 Y-16.721
X27.257 Y-16.382
X27.127 Y-16.227
X27.018 Y-16.103
X26.868 Y-16.042
X26.845 Y-16.037
X26.822 Y-16.039
X26.8 Y-16.048
X25.99 Y-16.552
X25.965 Y-16.562
X25.938
X25.202 Y-16.44
X25.088 Y-16.456
X25.068 Y-16.467
X25.06 Y-16.487
X25.067 Y-16.509
X25.086 Y-16.52
S5000
X26.55 Y-16.811 Z-2.4 F100
X26.582 Y-16.813
X26.613 Y-16.804
X26.64 Y-16.786
X26.777 Y-16.661
X26.811 Y-16.641
X26.851 Y-16.635
X26.89 Y-16.644
X26.922 Y-16.667
X26.944 Y-16.701
X26.95 Y-16.741
X26.941 Y-16.78
X26.918 Y-16.812
X26.885 Y-16.834
X26.845 Y-16.841
X26.806 Y-16.833
X26.773 Y-16.81
X26.751 Y-16.777
X26.743 Y-16.738
S500
G3 X26.386 Y-16.738 I-0.179 J0 F350
X26.743 Y-16.738 I0.179 J0
G2 X26.912 Y-16.409 I0.406 J0
G3 X26.868 Y-16.042 I-0.124 J0.171
G1 X26.689 Y-15.969
X26.331 Y-15.996
X25.805 Y-16.306
X25.752 Y-16.332
X25.695 Y-16.349
X25.579 Y-16.375
X25.522 Y-16.383
X25.465 Y-16.382
X25.354 Y-16.372
X25.309 Y-16.365
X18.749 Y-14.952
X18.689 Y-14.934
X18.539 Y-14.874
X18.458 Y-14.862
X0.125 Y-14.861
X-0.059 Y-14.92
X-0.095 Y-14.97
Y-15.029
X-0.059 Y-15.081
X0.125 Y-15.139
X18.6 Y-15.137
X18.64 Y-15.139
X18.679 Y-15.145
X25.312 Y-16.572
X25.355 Y-16.584
X25.397 Y-16.601
X25.496 Y-16.65
X25.541 Y-16.675
X25.582 Y-16.707
X25.653 Y-16.771
X25.684 Y-16.802
X25.712 Y-16.837
X26.042 Y-17.314
X26.358 Y-17.488
X26.712 Y-17.502
X27.043 Y-17.353
X27.27 Y-17.072
X27.345 Y-16.721
X27.257 Y-16.382
X27.127 Y-16.227
X27.018 Y-16.103
X26.868 Y-16.042
X26.845 Y-16.037
X26.822 Y-16.039
X26.8 Y-16.048
X25.99 Y-16.552
X25.965 Y-16.562
X25.938
X25.202 Y-16.44
X25.088 Y-16.456
X25.068 Y-16.467
X25.06 Y-16.487
X25.067 Y-16.509
X25.086 Y-16.52
S5000
X26.55 Y-16.811 Z-2.8 F100
X26.582 Y-16.813
X26.613 Y-16.804
X26.64 Y-16.786
X26.777 Y-16.661
X26.811 Y-16.641
X26.851 Y-16.635
X26.89 Y-16.644
X26.922 Y-16.667
X26.944 Y-16.701
X26.95 Y-16.741
X26.941 Y-16.78
X26.918 Y-16.812
X26.885 Y-16.834
X26.845 Y-16.841
X26.806 Y-16.833
X26.773 Y-16.81
X26.751 Y-16.777
X26.743 Y-16.738
S500
G3 X26.386 Y-16.738 I-0.179 J0 F350
X26.743 Y-16.738 I0.179 J0
G2 X26.912 Y-16.409 I0.406 J0
G3 X26.868 Y-16.042 I-0.124 J0.171
G1 X26.689 Y-15.969
X26.331 Y-15.996
X25.805 Y-16.306
X25.752 Y-16.332
X25.695 Y-16.349
X25.579 Y-16.375
X25.522 Y-16.383
X25.465 Y-16.382
X25.354 Y-16.372
X25.309 Y-16.365
X18.749 Y-14.952
X18.689 Y-14.934
X18.539 Y-14.874
X18.458 Y-14.862
X0.125 Y-14.861
X-0.059 Y-14.92
X-0.095 Y-14.97
Y-15.029
X-0.059 Y-15.081
X0.125 Y-15.139
X18.6 Y-15.137
X18.64 Y-15.139
X18.679 Y-15.145
X25.312 Y-16.572
X25.355 Y-16.584
X25.397 Y-16.601
X25.496 Y-16.65
X25.541 Y-16.675
X25.582 Y-16.707
X25.653 Y-16.771
X25.684 Y-16.802
X25.712 Y-16.837
X26.042 Y-17.314
X26.358 Y-17.488
X26.712 Y-17.502
X27.043 Y-17.353
X27.27 Y-17.072
X27.345 Y-16.721
X27.257 Y-16.382
X27.127 Y-16.227
X27.018 Y-16.103
X26.868 Y-16.042
X26.829 Y-16.035
X26.79 Y-16.043
X25.798 Y-16.476
X25.768 Y-16.496
X25.747 Y-16.526
X25.738 Y-16.56
X25.742 Y-16.596
X25.758 Y-16.628
X25.785 Y-16.653
X25.818 Y-16.666
S5000
X26.55 Y-16.811 Z-3 F100
X26.582 Y-16.813
X26.613 Y-16.804
X26.64 Y-16.786
X26.777 Y-16.661
X26.811 Y-16.641
X26.851 Y-16.635
X26.89 Y-16.644
X26.922 Y-16.667
X26.944 Y-16.701
X26.95 Y-16.741
X26.941 Y-16.78
X26.918 Y-16.812
X26.885 Y-16.834
X26.845 Y-16.841
X26.806 Y-16.833
X26.773 Y-16.81
X26.751 Y-16.777
X26.743 Y-16.738
S500
G3 X26.386 Y-16.738 I-0.179 J0 F350
X26.743 Y-16.738 I0.179 J0
G2 X26.912 Y-16.409 I0.406 J0
G3 X26.868 Y-16.042 I-0.124 J0.171
G1 X26.689 Y-15.969
X26.331 Y-15.996
X25.805 Y-16.306
X25.752 Y-16.332
X25.695 Y-16.349
X25.579 Y-16.375
X25.522 Y-16.383
X25.465 Y-16.382
X25.354 Y-16.372
X25.309 Y-16.365
X18.749 Y-14.952
X18.689 Y-14.934
X18.539 Y-14.874
X18.458 Y-14.862
X0.125 Y-14.861
X-0.059 Y-14.92
X-0.095 Y-14.97
Y-15.029
X-0.059 Y-15.081
X0.125 Y-15.139
X18.6 Y-15.137
X18.64 Y-15.139
X18.679 Y-15.145
X25.312 Y-16.572
X25.355 Y-16.584
X25.397 Y-16.601
X25.496 Y-16.65
X25.541 Y-16.675
X25.582 Y-16.707
X25.653 Y-16.771
X25.684 Y-16.802
X25.712 Y-16.837
X26.042 Y-17.314
X26.358 Y-17.488
X26.712 Y-17.502
X27.043 Y-17.353
X27.27 Y-17.072
X27.345 Y-16.721
X27.257 Y-16.382
X27.127 Y-16.227
X27.018 Y-16.103
X26.868 Y-16.042
X26.84 Y-16.034 Z-2.994 F100
X26.812 Y-16.031 Z-2.989
X26.764 Y-16.039 Z-2.956
X26.734 Y-16.052 Z-2.907
X26.725 Y-16.058 Z-2.85
G0 Z4
X24.478 Y-21.019
Z0.42
S5000
G1 X24.963 Y-21.343 Z0.351 F100
X24.994 Y-21.355
X25.027 Y-21.352
X25.056 Y-21.335
X25.074 Y-21.308
X25.079 Y-21.275
X25.069 Y-21.243
X25.046 Y-21.219
X23.832 Y-20.407 Z0.179
X23.801 Y-20.396
X23.768 Y-20.398
X23.739 Y-20.415
X23.72 Y-20.443
X23.716 Y-20.476
X23.726 Y-20.508
X23.749 Y-20.532
X24.963 Y-21.343 Z0.007
X24.994 Y-21.355
X25.027 Y-21.352
X25.056 Y-21.335
X25.074 Y-21.308
X25.079 Y-21.275
X25.069 Y-21.243
X25.046 Y-21.219
X23.832 Y-20.407 Z-0.165
X23.801 Y-20.396
X23.768 Y-20.398
X23.739 Y-20.415
X23.72 Y-20.443
X23.716 Y-20.476
X23.726 Y-20.508
X23.749 Y-20.532
X24.963 Y-21.343 Z-0.338
X24.994 Y-21.355
X25.027 Y-21.352
X25.056 Y-21.335
X25.074 Y-21.308
X25.079 Y-21.275
X25.069 Y-21.243
X25.046 Y-21.219
X24.606 Y-20.925 Z-0.4
X24.582 Y-20.914
X24.384 Y-20.858
X24.353 Y-20.842
X24.331 Y-20.815
X24.322 Y-20.781
X24.327 Y-20.747
X24.346 Y-20.718
X24.374 Y-20.698
X24.408 Y-20.692
X24.442 Y-20.7
X24.47 Y-20.72
X24.487 Y-20.751
X24.491 Y-20.785
X24.48 Y-20.818
X24.457 Y-20.844
S500
G3 X24.672 Y-21.13 I0.107 J-0.143 F350
X24.457 Y-20.844 I-0.107 J0.143
G2 X23.694 Y-20.649 I-0.303 J0.404
G3 X23.165 Y-20.067 I-1.172 J-0.534
G1 X18.731 Y-17.518
X18.685 Y-17.486
X18.557 Y-17.385
X18.537 Y-17.376
X18.424 Y-17.361
X0.125
X-0.06 Y-17.42
X-0.094 Y-17.467
X-0.095 Y-17.529
X-0.058 Y-17.581
X0.125 Y-17.639
X18.373 Y-17.641
X18.421 Y-17.644
X18.468 Y-17.653
X18.582 Y-17.683
X18.629 Y-17.699
X18.673 Y-17.721
X23.414 Y-20.442
X23.451 Y-20.466
X23.484 Y-20.494
X23.574 Y-20.579
X23.612 Y-20.621
X23.644 Y-20.668
X23.695 Y-20.759
X23.713 Y-20.795
X23.727 Y-20.834
X23.892 Y-21.378
X24.138 Y-21.639
X24.479 Y-21.761
X24.838 Y-21.717
X25.133 Y-21.522
X25.313 Y-21.205
X25.333 Y-20.852
X25.19 Y-20.522
X24.909 Y-20.289
X24.563 Y-20.208
X23.994 Y-20.343
X23.944 Y-20.351
X23.895 Y-20.352
X23.785 Y-20.349
X23.729 Y-20.342
X23.674 Y-20.328
X23.564 Y-20.289
X23.501 Y-20.261
X23.165 Y-20.067
X23.127 Y-20.054
X23.088 Y-20.057
X23.052 Y-20.075
X23.027 Y-20.106
X23.015 Y-20.144
X23.019 Y-20.183
X23.038 Y-20.218
X23.069 Y-20.243
X24.161 Y-20.808
S5000
X24.963 Y-21.343 Z-0.658 F100
X24.994 Y-21.355
X25.027 Y-21.352
X25.056 Y-21.335
X25.074 Y-21.308
X25.079 Y-21.275
X25.069 Y-21.243
X25.046 Y-21.219
X24.606 Y-20.925 Z-0.8
X24.582 Y-20.914
X24.384 Y-20.858
X24.353 Y-20.842
X24.331 Y-20.815
X24.322 Y-20.781
X24.327 Y-20.747
X24.346 Y-20.718
X24.374 Y-20.698
X24.408 Y-20.692
X24.442 Y-20.7
X24.47 Y-20.72
X24.487 Y-20.751
X24.491 Y-20.785
X24.48 Y-20.818
X24.457 Y-20.844
S500
G3 X24.672 Y-21.13 I0.107 J-0.143 F350
X24.457 Y-20.844 I-0.107 J0.143
G2 X23.694 Y-20.649 I-0.303 J0.404
G3 X23.165 Y-20.067 I-1.172 J-0.534
G1 X18.731 Y-17.518
X18.685 Y-17.486
X18.557 Y-17.385
X18.537 Y-17.376
X18.424 Y-17.361
X0.125
X-0.06 Y-17.42
X-0.094 Y-17.467
X-0.095 Y-17.529
X-0.058 Y-17.581
X0.125 Y-17.639
X18.373 Y-17.641
X18.421 Y-17.644
X18.468 Y-17.653
X18.582 Y-17.683
X18.629 Y-17.699
X18.673 Y-17.721
X23.414 Y-20.442
X23.451 Y-20.466
X23.484 Y-20.494
X23.574 Y-20.579
X23.612 Y-20.621
X23.644 Y-20.668
X23.695 Y-20.759
X23.713 Y-20.795
X23.727 Y-20.834
X23.892 Y-21.378
X24.138 Y-21.639
X24.479 Y-21.761
X24.838 Y-21.717
X25.133 Y-21.522
X25.313 Y-21.205
X25.333 Y-20.852
X25.19 Y-20.522
X24.909 Y-20.289
X24.563 Y-20.208
X23.994 Y-20.343
X23.944 Y-20.351
X23.895 Y-20.352
X23.785 Y-20.349
X23.729 Y-20.342
X23.674 Y-20.328
X23.564 Y-20.289
X23.501 Y-20.261
X23.165 Y-20.067
X23.127 Y-20.054
X23.088 Y-20.057
X23.052 Y-20.075
X23.027 Y-20.106
X23.015 Y-20.144
X23.019 Y-20.183
X23.038 Y-20.218
X23.069 Y-20.243
X24.161 Y-20.808
S5000
X24.963 Y-21.343 Z-1.058 F100
X24.994 Y-21.355
X25.027 Y-21.352
X25.056 Y-21.335
X25.074 Y-21.308
X25.079 Y-21.275
X25.069 Y-21.243
X25.046 Y-21.219
X24.606 Y-20.925 Z-1.2
X24.582 Y-20.914
X24.384 Y-20.858
X24.353 Y-20.842
X24.331 Y-20.815
X24.322 Y-20.781
X24.327 Y-20.747
X24.346 Y-20.718
X24.374 Y-20.698
X24.408 Y-20.692
X24.442 Y-20.7
X24.47 Y-20.72
X24.487 Y-20.751
X24.491 Y-20.785
X24.48 Y-20.818
X24.457 Y-20.844
S500
G3 X24.672 Y-21.13 I0.107 J-0.143 F350
X24.457 Y-20.844 I-0.107 J0.143
G2 X23.694 Y-20.649 I-0.303 J0.404
G3 X23.165 Y-20.067 I-1.172 J-0.534
G1 X18.731 Y-17.518
X18.685 Y-17.486
X18.557 Y-17.385
X18.537 Y-17.376
X18.424 Y-17.361
X0.125
X-0.06 Y-17.42
X-0.094 Y-17.467
X-0.095 Y-17.529
X-0.058 Y-17.581
X0.125 Y-17.639
X18.373 Y-17.641
X18.421 Y-17.644
X18.468 Y-17.653
X18.582 Y-17.683
X18.629 Y-17.699
X18.673 Y-17.721
X23.414 Y-20.442
X23.451 Y-20.466
X23.484 Y-20.494
X23.574 Y-20.579
X23.612 Y-20.621
X23.644 Y-20.668
X23.695 Y-20.759
X23.713 Y-20.795
X23.727 Y-20.834
X23.892 Y-21.378
X24.138 Y-21.639
X24.479 Y-21.761
X24.838 Y-21.717
X25.133 Y-21.522
X25.313 Y-21.205
X25.333 Y-20.852
X25.19 Y-20.522
X24.909 Y-20.289
X24.563 Y-20.208
X23.994 Y-20.343
X23.944 Y-20.351
X23.895 Y-20.352
X23.785 Y-20.349
X23.729 Y-20.342
X23.674 Y-20.328
X23.564 Y-20.289
X23.501 Y-20.261
X23.165 Y-20.067
X23.128 Y-20.055
X23.089 Y-20.057
X23.054 Y-20.074
X23.028 Y-20.104
X23.016 Y-20.141
X23.018 Y-20.18
X23.035 Y-20.215
X23.065 Y-20.24
X24.194 Y-20.889
X24.23 Y-20.902
X24.268 Y-20.9
X24.303 Y-20.883
X24.329 Y-20.855
X24.342 Y-20.82
X24.341 Y-20.782
X24.326 Y-20.746
X24.299 Y-20.72
S5000
X23.832 Y-20.407 Z-1.351 F100
X23.801 Y-20.396
X23.768 Y-20.398
X23.739 Y-20.415
X23.72 Y-20.443
X23.716 Y-20.476
X23.726 Y-20.508
X23.749 Y-20.532
X24.523 Y-21.05 Z-1.6
X24.557 Y-21.076
X24.589 Y-21.094
X24.625 Y-21.102
X24.661 Y-21.097
X24.694 Y-21.081
X24.72 Y-21.056
X24.737 Y-21.023
X24.743 Y-20.987
S500
G3 X24.386 Y-20.987 I-0.179 J0 F350
X24.743 Y-20.987 I0.179 J0
G2 X24.877 Y-20.622 I0.566 J0
G3 X24.755 Y-20.253 I-0.174 J0.147
G1 X24.563 Y-20.208
X23.994 Y-20.343
X23.944 Y-20.351
X23.895 Y-20.352
X23.785 Y-20.349
X23.729 Y-20.342
X23.674 Y-20.328
X23.564 Y-20.289
X23.501 Y-20.261
X18.731 Y-17.518
X18.685 Y-17.486
X18.557 Y-17.385
X18.537 Y-17.376
X18.424 Y-17.361
X0.125
X-0.06 Y-17.42
X-0.094 Y-17.467
X-0.095 Y-17.529
X-0.058 Y-17.581
X0.125 Y-17.639
X18.373 Y-17.641
X18.421 Y-17.644
X18.468 Y-17.653
X18.582 Y-17.683
X18.629 Y-17.699
X18.673 Y-17.721
X23.414 Y-20.442
X23.451 Y-20.466
X23.484 Y-20.494
X23.574 Y-20.579
X23.612 Y-20.621
X23.644 Y-20.668
X23.695 Y-20.759
X23.713 Y-20.795
X23.727 Y-20.834
X23.892 Y-21.378
X24.138 Y-21.639
X24.479 Y-21.761
X24.838 Y-21.717
X25.133 Y-21.522
X25.313 Y-21.205
X25.333 Y-20.852
X25.19 Y-20.522
X24.909 Y-20.289
X24.755 Y-20.253
X24.726 Y-20.251
X24.698 Y-20.256
X24.673 Y-20.27
X24.158 Y-20.643
X24.132 Y-20.671
X24.118 Y-20.707
X24.119 Y-20.745
X24.134 Y-20.781
X24.161 Y-20.808
S5000
X24.963 Y-21.343 Z-1.858 F100
X24.994 Y-21.355
X25.027 Y-21.352
X25.056 Y-21.335
X25.074 Y-21.308
X25.079 Y-21.275
X25.069 Y-21.243
X25.046 Y-21.219
X24.606 Y-20.925 Z-2
X24.582 Y-20.914
X24.384 Y-20.858
X24.353 Y-20.842
X24.331 Y-20.815
X24.322 Y-20.781
X24.327 Y-20.747
X24.346 Y-20.718
X24.374 Y-20.698
X24.408 Y-20.692
X24.442 Y-20.7
X24.47 Y-20.72
X24.487 Y-20.751
X24.491 Y-20.785
X24.48 Y-20.818
X24.457 Y-20.844
S500
G3 X24.672 Y-21.13 I0.107 J-0.143 F350
X24.457 Y-20.844 I-0.107 J0.143
G2 X23.694 Y-20.649 I-0.303 J0.404
G3 X23.165 Y-20.067 I-1.172 J-0.534
G1 X18.731 Y-17.518
X18.685 Y-17.486
X18.557 Y-17.385
X18.537 Y-17.376
X18.424 Y-17.361
X0.125
X-0.06 Y-17.42
X-0.094 Y-17.467
X-0.095 Y-17.529
X-0.058 Y-17.581
X0.125 Y-17.639
X18.373 Y-17.641
X18.421 Y-17.644
X18.468 Y-17.653
X18.582 Y-17.683
X18.629 Y-17.699
X18.673 Y-17.721
X23.414 Y-20.442
X23.451 Y-20.466
X23.484 Y-20.494
X23.574 Y-20.579
X23.612 Y-20.621
X23.644 Y-20.668
X23.695 Y-20.759
X23.713 Y-20.795
X23.727 Y-20.834
X23.892 Y-21.378
X24.138 Y-21.639
X24.479 Y-21.761
X24.838 Y-21.717
X25.133 Y-21.522
X25.313 Y-21.205
X25.333 Y-20.852
X25.19 Y-20.522
X24.909 Y-20.289
X24.563 Y-20.208
X23.994 Y-20.343
X23.944 Y-20.351
X23.895 Y-20.352
X23.785 Y-20.349
X23.729 Y-20.342
X23.674 Y-20.328
X23.564 Y-20.289
X23.501 Y-20.261
X23.165 Y-20.067
X23.127 Y-20.054
X23.088 Y-20.057
X23.052 Y-20.075
X23.027 Y-20.106
X23.015 Y-20.144
X23.019 Y-20.183
X23.038 Y-20.218
X23.069 Y-20.243
X24.161 Y-20.808
S5000
X24.963 Y-21.343 Z-2.258 F100
X24.994 Y-21.355
X25.027 Y-21.352
X25.056 Y-21.335
X25.074 Y-21.308
X25.079 Y-21.275
X25.069 Y-21.243
X25.046 Y-21.219
X24.606 Y-20.925 Z-2.4
X24.582 Y-20.914
X24.384 Y-20.858
X24.353 Y-20.842
X24.331 Y-20.815
X24.322 Y-20.781
X24.327 Y-20.747
X24.346 Y-20.718
X24.374 Y-20.698
X24.408 Y-20.692
X24.442 Y-20.7
X24.47 Y-20.72
X24.487 Y-20.751
X24.491 Y-20.785
X24.48 Y-20.818
X24.457 Y-20.844
S500
G3 X24.672 Y-21.13 I0.107 J-0.143 F350
X24.457 Y-20.844 I-0.107 J0.143
G2 X23.694 Y-20.649 I-0.303 J0.404
G3 X23.165 Y-20.067 I-1.172 J-0.534
G1 X18.731 Y-17.518
X18.685 Y-17.486
X18.557 Y-17.385
X18.537 Y-17.376
X18.424 Y-17.361
X0.125
X-0.06 Y-17.42
X-0.094 Y-17.467
X-0.095 Y-17.529
X-0.058 Y-17.581
X0.125 Y-17.639
X18.373 Y-17.641
X18.421 Y-17.644
X18.468 Y-17.653
X18.582 Y-17.683
X18.629 Y-17.699
X18.673 Y-17.721
X23.414 Y-20.442
X23.451 Y-20.466
X23.484 Y-20.494
X23.574 Y-20.579
X23.612 Y-20.621
X23.644 Y-20.668
X23.695 Y-20.759
X23.713 Y-20.795
X23.727 Y-20.834
X23.892 Y-21.378
X24.138 Y-21.639
X24.479 Y-21.761
X24.838 Y-21.717
X25.133 Y-21.522
X25.313 Y-21.205
X25.333 Y-20.852
X25.19 Y-20.522
X24.909 Y-20.289
X24.563 Y-20.208
X23.994 Y-20.343
X23.944 Y-20.351
X23.895 Y-20.352
X23.785 Y-20.349
X23.729 Y-20.342
X23.674 Y-20.328
X23.564 Y-20.289
X23.501 Y-20.261
X23.165 Y-20.067
X23.128 Y-20.055
X23.089 Y-20.057
X23.054 Y-20.074
X23.028 Y-20.104
X23.016 Y-20.141
X23.018 Y-20.18
X23.035 Y-20.215
X23.065 Y-20.24
X24.194 Y-20.889
X24.23 Y-20.902
X24.268 Y-20.9
X24.303 Y-20.883
X24.329 Y-20.855
X24.342 Y-20.82
X24.341 Y-20.782
X24.326 Y-20.746
X24.299 Y-20.72
S5000
X23.832 Y-20.407 Z-2.551 F100
X23.801 Y-20.396
X23.768 Y-20.398
X23.739 Y-20.415
X23.72 Y-20.443
X23.716 Y-20.476
X23.726 Y-20.508
X23.749 Y-20.532
X24.523 Y-21.05 Z-2.8
X24.557 Y-21.076
X24.589 Y-21.094
X24.625 Y-21.102
X24.661 Y-21.097
X24.694 Y-21.081
X24.72 Y-21.056
X24.737 Y-21.023
X24.743 Y-20.987
S500
G3 X24.386 Y-20.987 I-0.179 J0 F350
X24.743 Y-20.987 I0.179 J0
G2 X24.877 Y-20.622 I0.566 J0
G3 X24.755 Y-20.253 I-0.174 J0.147
G1 X24.563 Y-20.208
X23.994 Y-20.343
X23.944 Y-20.351
X23.895 Y-20.352
X23.785 Y-20.349
X23.729 Y-20.342
X23.674 Y-20.328
X23.564 Y-20.289
X23.501 Y-20.261
X18.731 Y-17.518
X18.685 Y-17.486
X18.557 Y-17.385
X18.537 Y-17.376
X18.424 Y-17.361
X0.125
X-0.06 Y-17.42
X-0.094 Y-17.467
X-0.095 Y-17.529
X-0.058 Y-17.581
X0.125 Y-17.639
X18.373 Y-17.641
X18.421 Y-17.644
X18.468 Y-17.653
X18.582 Y-17.683
X18.629 Y-17.699
X18.673 Y-17.721
X23.414 Y-20.442
X23.451 Y-20.466
X23.484 Y-20.494
X23.574 Y-20.579
X23.612 Y-20.621
X23.644 Y-20.668
X23.695 Y-20.759
X23.713 Y-20.795
X23.727 Y-20.834
X23.892 Y-21.378
X24.138 Y-21.639
X24.479 Y-21.761
X24.838 Y-21.717
X25.133 Y-21.522
X25.313 Y-21.205
X25.333 Y-20.852
X25.19 Y-20.522
X24.909 Y-20.289
X24.755 Y-20.253
X24.731 Y-20.251
X24.707 Y-20.254
X23.933 Y-20.455
X23.898 Y-20.471
X23.873 Y-20.499
X23.859 Y-20.535
X23.86 Y-20.573
X23.875 Y-20.608
X23.902 Y-20.635
S5000
X24.523 Y-21.05 Z-3 F100
X24.557 Y-21.076
X24.589 Y-21.094
X24.625 Y-21.102
X24.661 Y-21.097
X24.694 Y-21.081
X24.72 Y-21.056
X24.737 Y-21.023
X24.743 Y-20.987
S500
G3 X24.386 Y-20.987 I-0.179 J0 F350
X24.743 Y-20.987 I0.179 J0
G2 X24.877 Y-20.622 I0.566 J0
G3 X24.755 Y-20.253 I-0.174 J0.147
G1 X24.563 Y-20.208
X23.994 Y-20.343
X23.944 Y-20.351
X23.895 Y-20.352
X23.785 Y-20.349
X23.729 Y-20.342
X23.674 Y-20.328
X23.564 Y-20.289
X23.501 Y-20.261
X18.731 Y-17.518
X18.685 Y-17.486
X18.557 Y-17.385
X18.537 Y-17.376
X18.424 Y-17.361
X0.125
X-0.06 Y-17.42
X-0.094 Y-17.467
X-0.095 Y-17.529
X-0.058 Y-17.581
X0.125 Y-17.639
X18.373 Y-17.641
X18.421 Y-17.644
X18.468 Y-17.653
X18.582 Y-17.683
X18.629 Y-17.699
X18.673 Y-17.721
X23.414 Y-20.442
X23.451 Y-20.466
X23.484 Y-20.494
X23.574 Y-20.579
X23.612 Y-20.621
X23.644 Y-20.668
X23.695 Y-20.759
X23.713 Y-20.795
X23.727 Y-20.834
X23.892 Y-21.378
X24.138 Y-21.639
X24.479 Y-21.761
X24.838 Y-21.717
X25.133 Y-21.522
X25.313 Y-21.205
X25.333 Y-20.852
X25.19 Y-20.522
X24.909 Y-20.289
X24.755 Y-20.253
X24.726 Y-20.249 Z-2.994 F100
X24.698 Y-20.251 Z-2.989
X24.651 Y-20.266 Z-2.956
X24.624 Y-20.284 Z-2.907
X24.616 Y-20.292 Z-2.85
G0 Z4
X23.425 Y-25.202
Z0.42
S5000
G1 X23.887 Y-25.665 Z0.366 F100
X23.915 Y-25.682
X23.948 Y-25.686
X23.98 Y-25.675
X24.003 Y-25.652
X24.014 Y-25.62
X24.011 Y-25.587
X23.993 Y-25.559
X22.463 Y-24.028 Z0.185
X22.434 Y-24.011
X22.401 Y-24.007
X22.37 Y-24.018
X22.346 Y-24.041
X22.335 Y-24.073
X22.339 Y-24.106
X22.357 Y-24.134
X23.887 Y-25.665 Z0.005
X23.915 Y-25.682
X23.948 Y-25.686
X23.98 Y-25.675
X24.003 Y-25.652
X24.014 Y-25.62
X24.011 Y-25.587
X23.993 Y-25.559
X22.463 Y-24.028 Z-0.176
X22.434 Y-24.011
X22.401 Y-24.007
X22.37 Y-24.018
X22.346 Y-24.041
X22.335 Y-24.073
X22.339 Y-24.106
X22.357 Y-24.134
X23.887 Y-25.665 Z-0.356
X23.915 Y-25.682
X23.948 Y-25.686
X23.98 Y-25.675
X24.003 Y-25.652
X24.014 Y-25.62
X24.011 Y-25.587
X23.993 Y-25.559
X23.619 Y-25.185 Z-0.4
X23.6 Y-25.17
X23.577 Y-25.161
X23.382 Y-25.111
X23.348 Y-25.094
X23.323 Y-25.065
X23.313 Y-25.029
X23.318 Y-24.992
X23.337 Y-24.959
X23.368 Y-24.938
X23.405 Y-24.93
X23.442 Y-24.938
X23.472 Y-24.961
X23.491 Y-24.993
X23.495 Y-25.031
X23.484 Y-25.067
X23.459 Y-25.095
S500
G3 X23.673 Y-25.38 I0.107 J-0.143 F350
X23.459 Y-25.095 I-0.107 J0.143
G2 X23.088 Y-25.365 I-8.523 J11.365
G3 X23.085 Y-25.824 I0.161 J-0.23
G1 X23.272 Y-25.958
X23.615 Y-26.014
X23.963 Y-25.907
X24.225 Y-25.65
X24.341 Y-25.319
X24.295 Y-24.966
X24.088 Y-24.661
X23.779 Y-24.488
X23.207 Y-24.461
X23.16 Y-24.456
X23.115 Y-24.445
X23.001 Y-24.411
X22.952 Y-24.392
X22.906 Y-24.367
X22.83 Y-24.318
X22.796 Y-24.293
X22.765 Y-24.264
X18.731 Y-20.1
X18.703 Y-20.068
X18.583 Y-19.911
X18.57 Y-19.901
X18.541 Y-19.883
X18.416 Y-19.861
X0.125
X-0.06 Y-19.92
X-0.094 Y-19.967
Y-20.032
X-0.06 Y-20.08
X0.125 Y-20.139
X18.209 Y-20.141
X18.251 Y-20.143
X18.292 Y-20.15
X18.381 Y-20.17
X18.429 Y-20.184
X18.474 Y-20.205
X18.568 Y-20.254
X18.617 Y-20.285
X18.66 Y-20.324
X19.483 Y-21.165
X22.627 Y-24.417
X22.663 Y-24.461
X22.692 Y-24.509
X22.746 Y-24.615
X22.766 Y-24.664
X22.78 Y-24.716
X22.797 Y-24.807
X22.803 Y-24.871
X22.81 Y-25.418
X22.977 Y-25.746
X23.085 Y-25.824
X23.117 Y-25.839
X23.152 Y-25.842
X23.187 Y-25.833
X23.215 Y-25.812
X23.235 Y-25.782
X23.243 Y-25.748
X23.239 Y-25.712
X23.039 Y-25.084
X23.035 Y-25.046
X23.045 Y-25.01
X23.067 Y-24.98
X23.1 Y-24.96
X23.137 Y-24.954
X23.174 Y-24.962
X23.205 Y-24.983
S5000
X23.887 Y-25.665 Z-0.658 F100
X23.915 Y-25.682
X23.948 Y-25.686
X23.98 Y-25.675
X24.003 Y-25.652
X24.014 Y-25.62
X24.011 Y-25.587
X23.993 Y-25.559
X23.619 Y-25.185 Z-0.8
X23.6 Y-25.17
X23.577 Y-25.161
X23.382 Y-25.111
X23.348 Y-25.094
X23.323 Y-25.065
X23.313 Y-25.029
X23.318 Y-24.992
X23.337 Y-24.959
X23.368 Y-24.938
X23.405 Y-24.93
X23.442 Y-24.938
X23.472 Y-24.961
X23.491 Y-24.993
X23.495 Y-25.031
X23.484 Y-25.067
X23.459 Y-25.095
S500
G3 X23.673 Y-25.38 I0.107 J-0.143 F350
X23.459 Y-25.095 I-0.107 J0.143
G2 X23.088 Y-25.365 I-8.523 J11.365
G3 X23.085 Y-25.824 I0.161 J-0.23
G1 X23.272 Y-25.958
X23.615 Y-26.014
X23.963 Y-25.907
X24.225 Y-25.65
X24.341 Y-25.319
X24.295 Y-24.966
X24.088 Y-24.661
X23.779 Y-24.488
X23.207 Y-24.461
X23.16 Y-24.456
X23.115 Y-24.445
X23.001 Y-24.411
X22.952 Y-24.392
X22.906 Y-24.367
X22.83 Y-24.318
X22.796 Y-24.293
X22.765 Y-24.264
X18.731 Y-20.1
X18.703 Y-20.068
X18.583 Y-19.911
X18.57 Y-19.901
X18.541 Y-19.883
X18.416 Y-19.861
X0.125
X-0.06 Y-19.92
X-0.094 Y-19.967
Y-20.032
X-0.06 Y-20.08
X0.125 Y-20.139
X18.209 Y-20.141
X18.251 Y-20.143
X18.292 Y-20.15
X18.381 Y-20.17
X18.429 Y-20.184
X18.474 Y-20.205
X18.568 Y-20.254
X18.617 Y-20.285
X18.66 Y-20.324
X19.483 Y-21.165
X22.627 Y-24.417
X22.663 Y-24.461
X22.692 Y-24.509
X22.746 Y-24.615
X22.766 Y-24.664
X22.78 Y-24.716
X22.797 Y-24.807
X22.803 Y-24.871
X22.81 Y-25.418
X22.977 Y-25.746
X23.085 Y-25.824
X23.117 Y-25.839
X23.152 Y-25.842
X23.187 Y-25.833
X23.215 Y-25.812
X23.235 Y-25.782
X23.243 Y-25.748
X23.239 Y-25.712
X23.039 Y-25.084
X23.035 Y-25.046
X23.045 Y-25.01
X23.067 Y-24.98
X23.1 Y-24.96
X23.137 Y-24.954
X23.174 Y-24.962
X23.205 Y-24.983
S5000
X23.887 Y-25.665 Z-1.058 F100
X23.915 Y-25.682
X23.948 Y-25.686
X23.98 Y-25.675
X24.003 Y-25.652
X24.014 Y-25.62
X24.011 Y-25.587
X23.993 Y-25.559
X23.619 Y-25.185 Z-1.2
X23.6 Y-25.17
X23.577 Y-25.161
X23.382 Y-25.111
X23.348 Y-25.094
X23.323 Y-25.065
X23.313 Y-25.029
X23.318 Y-24.992
X23.337 Y-24.959
X23.368 Y-24.938
X23.405 Y-24.93
X23.442 Y-24.938
X23.472 Y-24.961
X23.491 Y-24.993
X23.495 Y-25.031
X23.484 Y-25.067
X23.459 Y-25.095
S500
G3 X23.673 Y-25.38 I0.107 J-0.143 F350
X23.459 Y-25.095 I-0.107 J0.143
G2 X23.088 Y-25.365 I-8.523 J11.365
G3 X23.085 Y-25.824 I0.161 J-0.23
G1 X23.272 Y-25.958
X23.615 Y-26.014
X23.963 Y-25.907
X24.225 Y-25.65
X24.341 Y-25.319
X24.295 Y-24.966
X24.088 Y-24.661
X23.779 Y-24.488
X23.207 Y-24.461
X23.16 Y-24.456
X23.115 Y-24.445
X23.001 Y-24.411
X22.952 Y-24.392
X22.906 Y-24.367
X22.83 Y-24.318
X22.796 Y-24.293
X22.765 Y-24.264
X18.731 Y-20.1
X18.703 Y-20.068
X18.583 Y-19.911
X18.57 Y-19.901
X18.541 Y-19.883
X18.416 Y-19.861
X0.125
X-0.06 Y-19.92
X-0.094 Y-19.967
Y-20.032
X-0.06 Y-20.08
X0.125 Y-20.139
X18.209 Y-20.141
X18.251 Y-20.143
X18.292 Y-20.15
X18.381 Y-20.17
X18.429 Y-20.184
X18.474 Y-20.205
X18.568 Y-20.254
X18.617 Y-20.285
X18.66 Y-20.324
X19.483 Y-21.165
X22.627 Y-24.417
X22.663 Y-24.461
X22.692 Y-24.509
X22.746 Y-24.615
X22.766 Y-24.664
X22.78 Y-24.716
X22.797 Y-24.807
X22.803 Y-24.871
X22.81 Y-25.418
X22.977 Y-25.746
X23.085 Y-25.824
X23.117 Y-25.839
X23.152 Y-25.842
X23.187 Y-25.833
X23.215 Y-25.812
X23.235 Y-25.782
X23.243 Y-25.748
X23.239 Y-25.712
X23.039 Y-25.084
X23.035 Y-25.046
X23.045 Y-25.01
X23.067 Y-24.98
X23.1 Y-24.96
X23.137 Y-24.954
X23.174 Y-24.962
X23.205 Y-24.983
S5000
X23.887 Y-25.665 Z-1.458 F100
X23.915 Y-25.682
X23.948 Y-25.686
X23.98 Y-25.675
X24.003 Y-25.652
X24.014 Y-25.62
X24.011 Y-25.587
X23.993 Y-25.559
X23.619 Y-25.185 Z-1.6
X23.6 Y-25.17
X23.577 Y-25.161
X23.382 Y-25.111
X23.348 Y-25.094
X23.323 Y-25.065
X23.313 Y-25.029
X23.318 Y-24.992
X23.337 Y-24.959
X23.368 Y-24.938
X23.405 Y-24.93
X23.442 Y-24.938
X23.472 Y-24.961
X23.491 Y-24.993
X23.495 Y-25.031
X23.484 Y-25.067
X23.459 Y-25.095
S500
G3 X23.673 Y-25.38 I0.107 J-0.143 F350
X23.459 Y-25.095 I-0.107 J0.143
G2 X23.088 Y-25.365 I-8.523 J11.365
G3 X23.085 Y-25.824 I0.161 J-0.23
G1 X23.272 Y-25.958
X23.615 Y-26.014
X23.963 Y-25.907
X24.225 Y-25.65
X24.341 Y-25.319
X24.295 Y-24.966
X24.088 Y-24.661
X23.779 Y-24.488
X23.207 Y-24.461
X23.16 Y-24.456
X23.115 Y-24.445
X23.001 Y-24.411
X22.952 Y-24.392
X22.906 Y-24.367
X22.83 Y-24.318
X22.796 Y-24.293
X22.765 Y-24.264
X18.731 Y-20.1
X18.703 Y-20.068
X18.583 Y-19.911
X18.57 Y-19.901
X18.541 Y-19.883
X18.416 Y-19.861
X0.125
X-0.06 Y-19.92
X-0.094 Y-19.967
Y-20.032
X-0.06 Y-20.08
X0.125 Y-20.139
X18.209 Y-20.141
X18.251 Y-20.143
X18.292 Y-20.15
X18.381 Y-20.17
X18.429 Y-20.184
X18.474 Y-20.205
X18.568 Y-20.254
X18.617 Y-20.285
X18.66 Y-20.324
X19.483 Y-21.165
X22.627 Y-24.417
X22.663 Y-24.461
X22.692 Y-24.509
X22.746 Y-24.615
X22.766 Y-24.664
X22.78 Y-24.716
X22.797 Y-24.807
X22.803 Y-24.871
X22.81 Y-25.418
X22.977 Y-25.746
X23.085 Y-25.824
X23.117 Y-25.839
X23.152 Y-25.842
X23.187 Y-25.833
X23.215 Y-25.812
X23.235 Y-25.782
X23.243 Y-25.748
X23.239 Y-25.712
X23.039 Y-25.084
X23.035 Y-25.046
X23.045 Y-25.01
X23.067 Y-24.98
X23.1 Y-24.96
X23.137 Y-24.954
X23.174 Y-24.962
X23.205 Y-24.983
S5000
X23.887 Y-25.665 Z-1.858 F100
X23.915 Y-25.682
X23.948 Y-25.686
X23.98 Y-25.675
X24.003 Y-25.652
X24.014 Y-25.62
X24.011 Y-25.587
X23.993 Y-25.559
X23.619 Y-25.185 Z-2
X23.6 Y-25.17
X23.577 Y-25.161
X23.382 Y-25.111
X23.348 Y-25.094
X23.323 Y-25.065
X23.313 Y-25.029
X23.318 Y-24.992
X23.337 Y-24.959
X23.368 Y-24.938
X23.405 Y-24.93
X23.442 Y-24.938
X23.472 Y-24.961
X23.491 Y-24.993
X23.495 Y-25.031
X23.484 Y-25.067
X23.459 Y-25.095
S500
G3 X23.673 Y-25.38 I0.107 J-0.143 F350
X23.459 Y-25.095 I-0.107 J0.143
G2 X23.088 Y-25.365 I-8.523 J11.365
G3 X23.085 Y-25.824 I0.161 J-0.23
G1 X23.272 Y-25.958
X23.615 Y-26.014
X23.963 Y-25.907
X24.225 Y-25.65
X24.341 Y-25.319
X24.295 Y-24.966
X24.088 Y-24.661
X23.779 Y-24.488
X23.207 Y-24.461
X23.16 Y-24.456
X23.115 Y-24.445
X23.001 Y-24.411
X22.952 Y-24.392
X22.906 Y-24.367
X22.83 Y-24.318
X22.796 Y-24.293
X22.765 Y-24.264
X18.731 Y-20.1
X18.703 Y-20.068
X18.583 Y-19.911
X18.57 Y-19.901
X18.541 Y-19.883
X18.416 Y-19.861
X0.125
X-0.06 Y-19.92
X-0.094 Y-19.967
Y-20.032
X-0.06 Y-20.08
X0.125 Y-20.139
X18.209 Y-20.141
X18.251 Y-20.143
X18.292 Y-20.15
X18.381 Y-20.17
X18.429 Y-20.184
X18.474 Y-20.205
X18.568 Y-20.254
X18.617 Y-20.285
X18.66 Y-20.324
X19.483 Y-21.165
X22.627 Y-24.417
X22.663 Y-24.461
X22.692 Y-24.509
X22.746 Y-24.615
X22.766 Y-24.664
X22.78 Y-24.716
X22.797 Y-24.807
X22.803 Y-24.871
X22.81 Y-25.418
X22.977 Y-25.746
X23.085 Y-25.824
X23.117 Y-25.839
X23.152 Y-25.842
X23.187 Y-25.833
X23.215 Y-25.812
X23.235 Y-25.782
X23.243 Y-25.748
X23.239 Y-25.712
X23.039 Y-25.084
X23.035 Y-25.046
X23.045 Y-25.01
X23.067 Y-24.98
X23.1 Y-24.96
X23.137 Y-24.954
X23.174 Y-24.962
X23.205 Y-24.983
S5000
X23.887 Y-25.665 Z-2.258 F100
X23.915 Y-25.682
X23.948 Y-25.686
X23.98 Y-25.675
X24.003 Y-25.652
X24.014 Y-25.62
X24.011 Y-25.587
X23.993 Y-25.559
X23.619 Y-25.185 Z-2.4
X23.6 Y-25.17
X23.577 Y-25.161
X23.382 Y-25.111
X23.348 Y-25.094
X23.323 Y-25.065
X23.313 Y-25.029
X23.318 Y-24.992
X23.337 Y-24.959
X23.368 Y-24.938
X23.405 Y-24.93
X23.442 Y-24.938
X23.472 Y-24.961
X23.491 Y-24.993
X23.495 Y-25.031
X23.484 Y-25.067
X23.459 Y-25.095
S500
G3 X23.673 Y-25.38 I0.107 J-0.143 F350
X23.459 Y-25.095 I-0.107 J0.143
G2 X23.088 Y-25.365 I-8.523 J11.365
G3 X23.085 Y-25.824 I0.161 J-0.23
G1 X23.272 Y-25.958
X23.615 Y-26.014
X23.963 Y-25.907
X24.225 Y-25.65
X24.341 Y-25.319
X24.295 Y-24.966
X24.088 Y-24.661
X23.779 Y-24.488
X23.207 Y-24.461
X23.16 Y-24.456
X23.115 Y-24.445
X23.001 Y-24.411
X22.952 Y-24.392
X22.906 Y-24.367
X22.83 Y-24.318
X22.796 Y-24.293
X22.765 Y-24.264
X18.731 Y-20.1
X18.703 Y-20.068
X18.583 Y-19.911
X18.57 Y-19.901
X18.541 Y-19.883
X18.416 Y-19.861
X0.125
X-0.06 Y-19.92
X-0.094 Y-19.967
Y-20.032
X-0.06 Y-20.08
X0.125 Y-20.139
X18.209 Y-20.141
X18.251 Y-20.143
X18.292 Y-20.15
X18.381 Y-20.17
X18.429 Y-20.184
X18.474 Y-20.205
X18.568 Y-20.254
X18.617 Y-20.285
X18.66 Y-20.324
X19.483 Y-21.165
X22.627 Y-24.417
X22.663 Y-24.461
X22.692 Y-24.509
X22.746 Y-24.615
X22.766 Y-24.664
X22.78 Y-24.716
X22.797 Y-24.807
X22.803 Y-24.871
X22.81 Y-25.418
X22.977 Y-25.746
X23.085 Y-25.824
X23.117 Y-25.839
X23.152 Y-25.842
X23.187 Y-25.833
X23.215 Y-25.812
X23.235 Y-25.782
X23.243 Y-25.748
X23.239 Y-25.712
X23.039 Y-25.084
X23.035 Y-25.046
X23.045 Y-25.01
X23.067 Y-24.98
X23.1 Y-24.96
X23.137 Y-24.954
X23.174 Y-24.962
X23.205 Y-24.983
S5000
X23.887 Y-25.665 Z-2.658 F100
X23.915 Y-25.682
X23.948 Y-25.686
X23.98 Y-25.675
X24.003 Y-25.652
X24.014 Y-25.62
X24.011 Y-25.587
X23.993 Y-25.559
X23.619 Y-25.185 Z-2.8
X23.6 Y-25.17
X23.577 Y-25.161
X23.382 Y-25.111
X23.348 Y-25.094
X23.323 Y-25.065
X23.313 Y-25.029
X23.318 Y-24.992
X23.337 Y-24.959
X23.368 Y-24.938
X23.405 Y-24.93
X23.442 Y-24.938
X23.472 Y-24.961
X23.491 Y-24.993
X23.495 Y-25.031
X23.484 Y-25.067
X23.459 Y-25.095
S500
G3 X23.673 Y-25.38 I0.107 J-0.143 F350
X23.459 Y-25.095 I-0.107 J0.143
G2 X23.088 Y-25.365 I-8.523 J11.365
G3 X23.085 Y-25.824 I0.161 J-0.23
G1 X23.272 Y-25.958
X23.615 Y-26.014
X23.963 Y-25.907
X24.225 Y-25.65
X24.341 Y-25.319
X24.295 Y-24.966
X24.088 Y-24.661
X23.779 Y-24.488
X23.207 Y-24.461
X23.16 Y-24.456
X23.115 Y-24.445
X23.001 Y-24.411
X22.952 Y-24.392
X22.906 Y-24.367
X22.83 Y-24.318
X22.796 Y-24.293
X22.765 Y-24.264
X18.731 Y-20.1
X18.703 Y-20.068
X18.583 Y-19.911
X18.57 Y-19.901
X18.541 Y-19.883
X18.416 Y-19.861
X0.125
X-0.06 Y-19.92
X-0.094 Y-19.967
Y-20.032
X-0.06 Y-20.08
X0.125 Y-20.139
X18.209 Y-20.141
X18.251 Y-20.143
X18.292 Y-20.15
X18.381 Y-20.17
X18.429 Y-20.184
X18.474 Y-20.205
X18.568 Y-20.254
X18.617 Y-20.285
X18.66 Y-20.324
X19.483 Y-21.165
X22.627 Y-24.417
X22.663 Y-24.461
X22.692 Y-24.509
X22.746 Y-24.615
X22.766 Y-24.664
X22.78 Y-24.716
X22.797 Y-24.807
X22.803 Y-24.871
X22.81 Y-25.418
X22.977 Y-25.746
X23.085 Y-25.824
X23.114 Y-25.838
X23.146 Y-25.843
X23.178 Y-25.836
X23.206 Y-25.821
X23.6 Y-25.504
X23.632 Y-25.486
X23.668 Y-25.482
X23.703 Y-25.49
X23.733 Y-25.511
S5000
X23.887 Y-25.665 Z-2.858 F100
X23.915 Y-25.682
X23.948 Y-25.686
X23.98 Y-25.675
X24.003 Y-25.652
X24.014 Y-25.62
X24.011 Y-25.587
X23.993 Y-25.559
X23.619 Y-25.185 Z-3
X23.6 Y-25.17
X23.577 Y-25.161
X23.382 Y-25.111
X23.348 Y-25.094
X23.323 Y-25.065
X23.313 Y-25.029
X23.318 Y-24.992
X23.337 Y-24.959
X23.368 Y-24.938
X23.405 Y-24.93
X23.442 Y-24.938
X23.472 Y-24.961
X23.491 Y-24.993
X23.495 Y-25.031
X23.484 Y-25.067
X23.459 Y-25.095
S500
G3 X23.673 Y-25.38 I0.107 J-0.143 F350
X23.459 Y-25.095 I-0.107 J0.143
G2 X23.088 Y-25.365 I-8.523 J11.365
G3 X23.085 Y-25.824 I0.161 J-0.23
G1 X23.272 Y-25.958
X23.615 Y-26.014
X23.963 Y-25.907
X24.225 Y-25.65
X24.341 Y-25.319
X24.295 Y-24.966
X24.088 Y-24.661
X23.779 Y-24.488
X23.207 Y-24.461
X23.16 Y-24.456
X23.115 Y-24.445
X23.001 Y-24.411
X22.952 Y-24.392
X22.906 Y-24.367
X22.83 Y-24.318
X22.796 Y-24.293
X22.765 Y-24.264
X18.731 Y-20.1
X18.703 Y-20.068
X18.583 Y-19.911
X18.57 Y-19.901
X18.541 Y-19.883
X18.416 Y-19.861
X0.125
X-0.06 Y-19.92
X-0.094 Y-19.967
Y-20.032
X-0.06 Y-20.08
X0.125 Y-20.139
X18.209 Y-20.141
X18.251 Y-20.143
X18.292 Y-20.15
X18.381 Y-20.17
X18.429 Y-20.184
X18.474 Y-20.205
X18.568 Y-20.254
X18.617 Y-20.285
X18.66 Y-20.324
X19.483 Y-21.165
X22.627 Y-24.417
X22.663 Y-24.461
X22.692 Y-24.509
X22.746 Y-24.615
X22.766 Y-24.664
X22.78 Y-24.716
X22.797 Y-24.807
X22.803 Y-24.871
X22.81 Y-25.418
X22.977 Y-25.746
X23.085 Y-25.824
X23.11 Y-25.838 Z-2.994 F100
X23.137 Y-25.848 Z-2.989
X23.185 Y-25.851 Z-2.956
X23.217 Y-25.845 Z-2.907
X23.228 Y-25.841 Z-2.85
G0 Z4
X20.818 Y-28.502
Z0.42
S5000
G1 X21.796 Y-29.966 Z0.299 F100
X21.821 Y-29.989
X21.852 Y-29.999
X21.885 Y-29.995
X21.913 Y-29.976
X21.93 Y-29.947
X21.933 Y-29.914
X21.921 Y-29.883
X20.439 Y-27.665 Z0.115
X20.415 Y-27.642
X20.383 Y-27.632
X20.35 Y-27.637
X20.322 Y-27.655
X20.305 Y-27.684
X20.303 Y-27.717
X20.315 Y-27.749
X21.796 Y-29.966 Z-0.069
X21.821 Y-29.989
X21.852 Y-29.999
X21.885 Y-29.995
X21.913 Y-29.976
X21.93 Y-29.947
X21.933 Y-29.914
X21.921 Y-29.883
X20.439 Y-27.665 Z-0.253
X20.415 Y-27.642
X20.383 Y-27.632
X20.35 Y-27.637
X20.322 Y-27.655
X20.305 Y-27.684
X20.303 Y-27.717
X20.315 Y-27.749
X21.503 Y-29.527 Z-0.4
X21.519 Y-29.552
X21.545 Y-29.58
X21.579 Y-29.6
X21.617 Y-29.607
X21.656 Y-29.602
X21.691 Y-29.585
X21.719 Y-29.558
X21.737 Y-29.524
X21.743 Y-29.485
S500
G3 X21.386 Y-29.485 I-0.178 J0 F350
X21.743 Y-29.485 I0.178 J0
G2 X21.878 Y-29.12 I0.561 J0
G3 X21.755 Y-28.752 I-0.172 J0.147
G1 X21.323 Y-28.656
X21.278 Y-28.643
X21.235 Y-28.624
X21.159 Y-28.586
X21.118 Y-28.561
X21.079 Y-28.531
X20.998 Y-28.458
X20.966 Y-28.426
X20.938 Y-28.39
X18.783 Y-25.246
X18.771 Y-25.226
X18.592 Y-24.927
X18.559 Y-24.9
X18.544 Y-24.889
X18.41 Y-24.861
X3.326 Y-24.857
X3.271 Y-24.853
X3.218 Y-24.841
X3.117 Y-24.81
X3.072 Y-24.794
X3.03 Y-24.772
X2.958 Y-24.728
X2.92 Y-24.701
X2.885 Y-24.669
X2.813 Y-24.595
X2.78 Y-24.557
X2.752 Y-24.514
X2.704 Y-24.425
X2.683 Y-24.38
X2.668 Y-24.332
X2.645 Y-24.236
X2.637 Y-24.192
X2.635 Y-24.149
Y-23.349
X2.638 Y-23.301
X2.647 Y-23.254
X2.675 Y-23.147
X2.692 Y-23.097
X2.716 Y-23.05
X2.766 Y-22.965
X2.794 Y-22.925
X2.827 Y-22.888
X2.897 Y-22.82
X2.937 Y-22.786
X2.98 Y-22.759
X3.076 Y-22.707
X3.126 Y-22.684
X3.179 Y-22.669
X3.289 Y-22.647
X3.364 Y-22.639
X15.361
X15.553 Y-22.581
X15.589 Y-22.531
Y-22.469
X15.556 Y-22.424
X15.384 Y-22.365
X15.295 Y-22.361
X2.58 Y-22.365
X2.437 Y-22.403
X2.398 Y-22.443
X2.355 Y-22.608
Y-24.895
X2.397 Y-25.057
X2.438 Y-25.097
X2.58 Y-25.135
X18.107 Y-25.141
X18.15 Y-25.143
X18.193 Y-25.15
X18.292 Y-25.174
X18.342 Y-25.189
X18.389 Y-25.211
X18.483 Y-25.263
X18.526 Y-25.292
X18.565 Y-25.326
X18.635 Y-25.396
X18.68 Y-25.449
X20.774 Y-28.512
X20.8 Y-28.556
X20.819 Y-28.603
X20.858 Y-28.717
X20.872 Y-28.773
X20.877 Y-28.832
X20.879 Y-28.945
X20.874 Y-29.009
X20.789 Y-29.546
X20.898 Y-29.889
X21.147 Y-30.144
X21.481 Y-30.26
X21.853 Y-30.21
X22.143 Y-30.011
X22.317 Y-29.697
X22.331 Y-29.338
X22.182 Y-29.011
X22.179 Y-29.008
X21.901 Y-28.784
X21.755 Y-28.752
X21.734 Y-28.75
X21.714 Y-28.754
X21.3 Y-28.9
X21.27 Y-28.904
X21.24 Y-28.895
X21.217 Y-28.876
X20.757 Y-28.298
X20.7 Y-28.259
X20.683 Y-28.257
X20.671 Y-28.269
X20.673 Y-28.286
S5000
X21.503 Y-29.527 Z-0.8 F100
X21.519 Y-29.552
X21.545 Y-29.58
X21.579 Y-29.6
X21.617 Y-29.607
X21.656 Y-29.602
X21.691 Y-29.585
X21.719 Y-29.558
X21.737 Y-29.524
X21.743 Y-29.485
S500
G3 X21.386 Y-29.485 I-0.178 J0 F350
X21.743 Y-29.485 I0.178 J0
G2 X21.878 Y-29.12 I0.561 J0
G3 X21.755 Y-28.752 I-0.172 J0.147
G1 X21.323 Y-28.656
X21.278 Y-28.643
X21.235 Y-28.624
X21.159 Y-28.586
X21.118 Y-28.561
X21.079 Y-28.531
X20.998 Y-28.458
X20.966 Y-28.426
X20.938 Y-28.39
X18.783 Y-25.246
X18.771 Y-25.226
X18.592 Y-24.927
X18.559 Y-24.9
X18.544 Y-24.889
X18.41 Y-24.861
X3.326 Y-24.857
X3.271 Y-24.853
X3.218 Y-24.841
X3.117 Y-24.81
X3.072 Y-24.794
X3.03 Y-24.772
X2.958 Y-24.728
X2.92 Y-24.701
X2.885 Y-24.669
X2.813 Y-24.595
X2.78 Y-24.557
X2.752 Y-24.514
X2.704 Y-24.425
X2.683 Y-24.38
X2.668 Y-24.332
X2.645 Y-24.236
X2.637 Y-24.192
X2.635 Y-24.149
Y-23.349
X2.638 Y-23.301
X2.647 Y-23.254
X2.675 Y-23.147
X2.692 Y-23.097
X2.716 Y-23.05
X2.766 Y-22.965
X2.794 Y-22.925
X2.827 Y-22.888
X2.897 Y-22.82
X2.937 Y-22.786
X2.98 Y-22.759
X3.076 Y-22.707
X3.126 Y-22.684
X3.179 Y-22.669
X3.289 Y-22.647
X3.364 Y-22.639
X15.361
X15.553 Y-22.581
X15.589 Y-22.531
Y-22.469
X15.556 Y-22.424
X15.384 Y-22.365
X15.295 Y-22.361
X2.58 Y-22.365
X2.437 Y-22.403
X2.398 Y-22.443
X2.355 Y-22.608
Y-24.895
X2.397 Y-25.057
X2.438 Y-25.097
X2.58 Y-25.135
X18.107 Y-25.141
X18.15 Y-25.143
X18.193 Y-25.15
X18.292 Y-25.174
X18.342 Y-25.189
X18.389 Y-25.211
X18.483 Y-25.263
X18.526 Y-25.292
X18.565 Y-25.326
X18.635 Y-25.396
X18.68 Y-25.449
X20.774 Y-28.512
X20.8 Y-28.556
X20.819 Y-28.603
X20.858 Y-28.717
X20.872 Y-28.773
X20.877 Y-28.832
X20.879 Y-28.945
X20.874 Y-29.009
X20.789 Y-29.546
X20.898 Y-29.889
X21.147 Y-30.144
X21.481 Y-30.26
X21.853 Y-30.21
X22.143 Y-30.011
X22.317 Y-29.697
X22.331 Y-29.338
X22.182 Y-29.011
X22.179 Y-29.008
X21.901 Y-28.784
X21.755 Y-28.752
X21.734 Y-28.75
X21.714 Y-28.754
X21.3 Y-28.9
X21.27 Y-28.904
X21.24 Y-28.895
X21.217 Y-28.876
X20.757 Y-28.298
X20.7 Y-28.259
X20.683 Y-28.257
X20.671 Y-28.269
X20.673 Y-28.286
S5000
X21.503 Y-29.527 Z-1.2 F100
X21.519 Y-29.552
X21.545 Y-29.58
X21.579 Y-29.6
X21.617 Y-29.607
X21.656 Y-29.602
X21.691 Y-29.585
X21.719 Y-29.558
X21.737 Y-29.524
X21.743 Y-29.485
S500
G3 X21.386 Y-29.485 I-0.178 J0 F350
X21.743 Y-29.485 I0.178 J0
G2 X21.878 Y-29.12 I0.561 J0
G3 X21.755 Y-28.752 I-0.172 J0.147
G1 X21.323 Y-28.656
X21.278 Y-28.643
X21.235 Y-28.624
X21.159 Y-28.586
X21.118 Y-28.561
X21.079 Y-28.531
X20.998 Y-28.458
X20.966 Y-28.426
X20.938 Y-28.39
X18.783 Y-25.246
X18.771 Y-25.226
X18.592 Y-24.927
X18.559 Y-24.9
X18.544 Y-24.889
X18.41 Y-24.861
X3.326 Y-24.857
X3.271 Y-24.853
X3.218 Y-24.841
X3.117 Y-24.81
X3.072 Y-24.794
X3.03 Y-24.772
X2.958 Y-24.728
X2.92 Y-24.701
X2.885 Y-24.669
X2.813 Y-24.595
X2.78 Y-24.557
X2.752 Y-24.514
X2.704 Y-24.425
X2.683 Y-24.38
X2.668 Y-24.332
X2.645 Y-24.236
X2.637 Y-24.192
X2.635 Y-24.149
Y-23.349
X2.638 Y-23.301
X2.647 Y-23.254
X2.675 Y-23.147
X2.692 Y-23.097
X2.716 Y-23.05
X2.766 Y-22.965
X2.794 Y-22.925
X2.827 Y-22.888
X2.897 Y-22.82
X2.937 Y-22.786
X2.98 Y-22.759
X3.076 Y-22.707
X3.126 Y-22.684
X3.179 Y-22.669
X3.289 Y-22.647
X3.364 Y-22.639
X15.361
X15.553 Y-22.581
X15.589 Y-22.531
Y-22.469
X15.556 Y-22.424
X15.384 Y-22.365
X15.295 Y-22.361
X2.58 Y-22.365
X2.437 Y-22.403
X2.398 Y-22.443
X2.355 Y-22.608
Y-24.895
X2.397 Y-25.057
X2.438 Y-25.097
X2.58 Y-25.135
X18.107 Y-25.141
X18.15 Y-25.143
X18.193 Y-25.15
X18.292 Y-25.174
X18.342 Y-25.189
X18.389 Y-25.211
X18.483 Y-25.263
X18.526 Y-25.292
X18.565 Y-25.326
X18.635 Y-25.396
X18.68 Y-25.449
X20.774 Y-28.512
X20.8 Y-28.556
X20.819 Y-28.603
X20.858 Y-28.717
X20.872 Y-28.773
X20.877 Y-28.832
X20.879 Y-28.945
X20.874 Y-29.009
X20.789 Y-29.546
X20.898 Y-29.889
X21.147 Y-30.144
X21.481 Y-30.26
X21.853 Y-30.21
X22.143 Y-30.011
X22.317 Y-29.697
X22.331 Y-29.338
X22.182 Y-29.011
X22.179 Y-29.008
X21.901 Y-28.784
X21.755 Y-28.752
X21.734 Y-28.75
X21.714 Y-28.754
X21.3 Y-28.9
X21.27 Y-28.904
X21.24 Y-28.895
X21.217 Y-28.876
X20.757 Y-28.298
X20.7 Y-28.259
X20.683 Y-28.257
X20.671 Y-28.269
X20.673 Y-28.286
S5000
X21.503 Y-29.527 Z-1.6 F100
X21.519 Y-29.552
X21.545 Y-29.58
X21.579 Y-29.6
X21.617 Y-29.607
X21.656 Y-29.602
X21.691 Y-29.585
X21.719 Y-29.558
X21.737 Y-29.524
X21.743 Y-29.485
S500
G3 X21.386 Y-29.485 I-0.178 J0 F350
X21.743 Y-29.485 I0.178 J0
G2 X21.878 Y-29.12 I0.561 J0
G3 X21.755 Y-28.752 I-0.172 J0.147
G1 X21.323 Y-28.656
X21.278 Y-28.643
X21.235 Y-28.624
X21.159 Y-28.586
X21.118 Y-28.561
X21.079 Y-28.531
X20.998 Y-28.458
X20.966 Y-28.426
X20.938 Y-28.39
X18.783 Y-25.246
X18.771 Y-25.226
X18.592 Y-24.927
X18.559 Y-24.9
X18.544 Y-24.889
X18.41 Y-24.861
X3.326 Y-24.857
X3.271 Y-24.853
X3.218 Y-24.841
X3.117 Y-24.81
X3.072 Y-24.794
X3.03 Y-24.772
X2.958 Y-24.728
X2.92 Y-24.701
X2.885 Y-24.669
X2.813 Y-24.595
X2.78 Y-24.557
X2.752 Y-24.514
X2.704 Y-24.425
X2.683 Y-24.38
X2.668 Y-24.332
X2.645 Y-24.236
X2.637 Y-24.192
X2.635 Y-24.149
Y-23.349
X2.638 Y-23.301
X2.647 Y-23.254
X2.675 Y-23.147
X2.692 Y-23.097
X2.716 Y-23.05
X2.766 Y-22.965
X2.794 Y-22.925
X2.827 Y-22.888
X2.897 Y-22.82
X2.937 Y-22.786
X2.98 Y-22.759
X3.076 Y-22.707
X3.126 Y-22.684
X3.179 Y-22.669
X3.289 Y-22.647
X3.364 Y-22.639
X15.361
X15.553 Y-22.581
X15.589 Y-22.531
Y-22.469
X15.556 Y-22.424
X15.384 Y-22.365
X15.295 Y-22.361
X2.58 Y-22.365
X2.437 Y-22.403
X2.398 Y-22.443
X2.355 Y-22.608
Y-24.895
X2.397 Y-25.057
X2.438 Y-25.097
X2.58 Y-25.135
X18.107 Y-25.141
X18.15 Y-25.143
X18.193 Y-25.15
X18.292 Y-25.174
X18.342 Y-25.189
X18.389 Y-25.211
X18.483 Y-25.263
X18.526 Y-25.292
X18.565 Y-25.326
X18.635 Y-25.396
X18.68 Y-25.449
X20.774 Y-28.512
X20.8 Y-28.556
X20.819 Y-28.603
X20.858 Y-28.717
X20.872 Y-28.773
X20.877 Y-28.832
X20.879 Y-28.945
X20.874 Y-29.009
X20.789 Y-29.546
X20.898 Y-29.889
X21.147 Y-30.144
X21.481 Y-30.26
X21.853 Y-30.21
X22.143 Y-30.011
X22.317 Y-29.697
X22.331 Y-29.338
X22.182 Y-29.011
X22.179 Y-29.008
X21.901 Y-28.784
X21.755 Y-28.752
X21.734 Y-28.75
X21.714 Y-28.754
X21.3 Y-28.9
X21.27 Y-28.904
X21.24 Y-28.895
X21.217 Y-28.876
X20.757 Y-28.298
X20.7 Y-28.259
X20.683 Y-28.257
X20.671 Y-28.269
X20.673 Y-28.286
S5000
X21.503 Y-29.527 Z-2 F100
X21.519 Y-29.552
X21.545 Y-29.58
X21.579 Y-29.6
X21.617 Y-29.607
X21.656 Y-29.602
X21.691 Y-29.585
X21.719 Y-29.558
X21.737 Y-29.524
X21.743 Y-29.485
S500
G3 X21.386 Y-29.485 I-0.178 J0 F350
X21.743 Y-29.485 I0.178 J0
G2 X21.878 Y-29.12 I0.561 J0
G3 X21.755 Y-28.752 I-0.172 J0.147
G1 X21.323 Y-28.656
X21.278 Y-28.643
X21.235 Y-28.624
X21.159 Y-28.586
X21.118 Y-28.561
X21.079 Y-28.531
X20.998 Y-28.458
X20.966 Y-28.426
X20.938 Y-28.39
X18.783 Y-25.246
X18.771 Y-25.226
X18.592 Y-24.927
X18.559 Y-24.9
X18.544 Y-24.889
X18.41 Y-24.861
X3.326 Y-24.857
X3.271 Y-24.853
X3.218 Y-24.841
X3.117 Y-24.81
X3.072 Y-24.794
X3.03 Y-24.772
X2.958 Y-24.728
X2.92 Y-24.701
X2.885 Y-24.669
X2.813 Y-24.595
X2.78 Y-24.557
X2.752 Y-24.514
X2.704 Y-24.425
X2.683 Y-24.38
X2.668 Y-24.332
X2.645 Y-24.236
X2.637 Y-24.192
X2.635 Y-24.149
Y-23.349
X2.638 Y-23.301
X2.647 Y-23.254
X2.675 Y-23.147
X2.692 Y-23.097
X2.716 Y-23.05
X2.766 Y-22.965
X2.794 Y-22.925
X2.827 Y-22.888
X2.897 Y-22.82
X2.937 Y-22.786
X2.98 Y-22.759
X3.076 Y-22.707
X3.126 Y-22.684
X3.179 Y-22.669
X3.289 Y-22.647
X3.364 Y-22.639
X15.361
X15.553 Y-22.581
X15.589 Y-22.531
Y-22.469
X15.556 Y-22.424
X15.384 Y-22.365
X15.295 Y-22.361
X2.58 Y-22.365
X2.437 Y-22.403
X2.398 Y-22.443
X2.355 Y-22.608
Y-24.895
X2.397 Y-25.057
X2.438 Y-25.097
X2.58 Y-25.135
X18.107 Y-25.141
X18.15 Y-25.143
X18.193 Y-25.15
X18.292 Y-25.174
X18.342 Y-25.189
X18.389 Y-25.211
X18.483 Y-25.263
X18.526 Y-25.292
X18.565 Y-25.326
X18.635 Y-25.396
X18.68 Y-25.449
X20.774 Y-28.512
X20.8 Y-28.556
X20.819 Y-28.603
X20.858 Y-28.717
X20.872 Y-28.773
X20.877 Y-28.832
X20.879 Y-28.945
X20.874 Y-29.009
X20.789 Y-29.546
X20.898 Y-29.889
X21.147 Y-30.144
X21.481 Y-30.26
X21.853 Y-30.21
X22.143 Y-30.011
X22.317 Y-29.697
X22.331 Y-29.338
X22.182 Y-29.011
X22.179 Y-29.008
X21.901 Y-28.784
X21.755 Y-28.752
X21.734 Y-28.75
X21.714 Y-28.754
X21.3 Y-28.9
X21.27 Y-28.904
X21.24 Y-28.895
X21.217 Y-28.876
X20.757 Y-28.298
X20.7 Y-28.259
X20.683 Y-28.257
X20.671 Y-28.269
X20.673 Y-28.286
S5000
X21.503 Y-29.527 Z-2.4 F100
X21.519 Y-29.552
X21.545 Y-29.58
X21.579 Y-29.6
X21.617 Y-29.607
X21.656 Y-29.602
X21.691 Y-29.585
X21.719 Y-29.558
X21.737 Y-29.524
X21.743 Y-29.485
S500
G3 X21.386 Y-29.485 I-0.178 J0 F350
X21.743 Y-29.485 I0.178 J0
G2 X21.878 Y-29.12 I0.561 J0
G3 X21.755 Y-28.752 I-0.172 J0.147
G1 X21.323 Y-28.656
X21.278 Y-28.643
X21.235 Y-28.624
X21.159 Y-28.586
X21.118 Y-28.561
X21.079 Y-28.531
X20.998 Y-28.458
X20.966 Y-28.426
X20.938 Y-28.39
X18.783 Y-25.246
X18.771 Y-25.226
X18.592 Y-24.927
X18.559 Y-24.9
X18.544 Y-24.889
X18.41 Y-24.861
X3.326 Y-24.857
X3.271 Y-24.853
X3.218 Y-24.841
X3.117 Y-24.81
X3.072 Y-24.794
X3.03 Y-24.772
X2.958 Y-24.728
X2.92 Y-24.701
X2.885 Y-24.669
X2.813 Y-24.595
X2.78 Y-24.557
X2.752 Y-24.514
X2.704 Y-24.425
X2.683 Y-24.38
X2.668 Y-24.332
X2.645 Y-24.236
X2.637 Y-24.192
X2.635 Y-24.149
Y-23.349
X2.638 Y-23.301
X2.647 Y-23.254
X2.675 Y-23.147
X2.692 Y-23.097
X2.716 Y-23.05
X2.766 Y-22.965
X2.794 Y-22.925
X2.827 Y-22.888
X2.897 Y-22.82
X2.937 Y-22.786
X2.98 Y-22.759
X3.076 Y-22.707
X3.126 Y-22.684
X3.179 Y-22.669
X3.289 Y-22.647
X3.364 Y-22.639
X15.361
X15.553 Y-22.581
X15.589 Y-22.531
Y-22.469
X15.556 Y-22.424
X15.384 Y-22.365
X15.295 Y-22.361
X2.58 Y-22.365
X2.437 Y-22.403
X2.398 Y-22.443
X2.355 Y-22.608
Y-24.895
X2.397 Y-25.057
X2.438 Y-25.097
X2.58 Y-25.135
X18.107 Y-25.141
X18.15 Y-25.143
X18.193 Y-25.15
X18.292 Y-25.174
X18.342 Y-25.189
X18.389 Y-25.211
X18.483 Y-25.263
X18.526 Y-25.292
X18.565 Y-25.326
X18.635 Y-25.396
X18.68 Y-25.449
X20.774 Y-28.512
X20.8 Y-28.556
X20.819 Y-28.603
X20.858 Y-28.717
X20.872 Y-28.773
X20.877 Y-28.832
X20.879 Y-28.945
X20.874 Y-29.009
X20.789 Y-29.546
X20.898 Y-29.889
X21.147 Y-30.144
X21.481 Y-30.26
X21.853 Y-30.21
X22.143 Y-30.011
X22.317 Y-29.697
X22.331 Y-29.338
X22.182 Y-29.011
X22.179 Y-29.008
X21.901 Y-28.784
X21.755 Y-28.752
X21.734 Y-28.75
X21.714 Y-28.754
X21.3 Y-28.9
X21.27 Y-28.904
X21.24 Y-28.895
X21.217 Y-28.876
X20.757 Y-28.298
X20.7 Y-28.259
X20.683 Y-28.257
X20.671 Y-28.269
X20.673 Y-28.286
S5000
X21.503 Y-29.527 Z-2.8 F100
X21.519 Y-29.552
X21.545 Y-29.58
X21.579 Y-29.6
X21.617 Y-29.607
X21.656 Y-29.602
X21.691 Y-29.585
X21.719 Y-29.558
X21.737 Y-29.524
X21.743 Y-29.485
S500
G3 X21.386 Y-29.485 I-0.178 J0 F350
X21.743 Y-29.485 I0.178 J0
G2 X21.878 Y-29.12 I0.561 J0
G3 X21.755 Y-28.752 I-0.172 J0.147
G1 X21.323 Y-28.656
X21.278 Y-28.643
X21.235 Y-28.624
X21.159 Y-28.586
X21.118 Y-28.561
X21.079 Y-28.531
X20.998 Y-28.458
X20.966 Y-28.426
X20.938 Y-28.39
X18.783 Y-25.246
X18.771 Y-25.226
X18.592 Y-24.927
X18.559 Y-24.9
X18.544 Y-24.889
X18.41 Y-24.861
X3.326 Y-24.857
X3.271 Y-24.853
X3.218 Y-24.841
X3.117 Y-24.81
X3.072 Y-24.794
X3.03 Y-24.772
X2.958 Y-24.728
X2.92 Y-24.701
X2.885 Y-24.669
X2.813 Y-24.595
X2.78 Y-24.557
X2.752 Y-24.514
X2.704 Y-24.425
X2.683 Y-24.38
X2.668 Y-24.332
X2.645 Y-24.236
X2.637 Y-24.192
X2.635 Y-24.149
Y-23.349
X2.638 Y-23.301
X2.647 Y-23.254
X2.675 Y-23.147
X2.692 Y-23.097
X2.716 Y-23.05
X2.766 Y-22.965
X2.794 Y-22.925
X2.827 Y-22.888
X2.897 Y-22.82
X2.937 Y-22.786
X2.98 Y-22.759
X3.076 Y-22.707
X3.126 Y-22.684
X3.179 Y-22.669
X3.289 Y-22.647
X3.364 Y-22.639
X15.361
X15.553 Y-22.581
X15.589 Y-22.531
Y-22.469
X15.556 Y-22.424
X15.384 Y-22.365
X15.295 Y-22.361
X2.58 Y-22.365
X2.437 Y-22.403
X2.398 Y-22.443
X2.355 Y-22.608
Y-24.895
X2.397 Y-25.057
X2.438 Y-25.097
X2.58 Y-25.135
X18.107 Y-25.141
X18.15 Y-25.143
X18.193 Y-25.15
X18.292 Y-25.174
X18.342 Y-25.189
X18.389 Y-25.211
X18.483 Y-25.263
X18.526 Y-25.292
X18.565 Y-25.326
X18.635 Y-25.396
X18.68 Y-25.449
X20.774 Y-28.512
X20.8 Y-28.556
X20.819 Y-28.603
X20.858 Y-28.717
X20.872 Y-28.773
X20.877 Y-28.832
X20.879 Y-28.945
X20.874 Y-29.009
X20.789 Y-29.546
X20.898 Y-29.889
X21.147 Y-30.144
X21.481 Y-30.26
X21.853 Y-30.21
X22.143 Y-30.011
X22.317 Y-29.697
X22.331 Y-29.338
X22.182 Y-29.011
X22.179 Y-29.008
X21.901 Y-28.784
X21.755 Y-28.752
X21.171 Y-28.751
X21.136 Y-28.757
X21.105 Y-28.776
X21.083 Y-28.804
X21.072 Y-28.838
X21.074 Y-28.873
X21.088 Y-28.906
S5000
X21.503 Y-29.527 Z-3 F100
X21.519 Y-29.552
X21.545 Y-29.58
X21.579 Y-29.6
X21.617 Y-29.607
X21.656 Y-29.602
X21.691 Y-29.585
X21.719 Y-29.558
X21.737 Y-29.524
X21.743 Y-29.485
S500
G3 X21.386 Y-29.485 I-0.178 J0 F350
X21.743 Y-29.485 I0.178 J0
G2 X21.878 Y-29.12 I0.561 J0
G3 X21.755 Y-28.752 I-0.172 J0.147
G1 X21.323 Y-28.656
X21.278 Y-28.643
X21.235 Y-28.624
X21.159 Y-28.586
X21.118 Y-28.561
X21.079 Y-28.531
X20.998 Y-28.458
X20.966 Y-28.426
X20.938 Y-28.39
X18.783 Y-25.246
X18.771 Y-25.226
X18.592 Y-24.927
X18.559 Y-24.9
X18.544 Y-24.889
X18.41 Y-24.861
X3.326 Y-24.857
X3.271 Y-24.853
X3.218 Y-24.841
X3.117 Y-24.81
X3.072 Y-24.794
X3.03 Y-24.772
X2.958 Y-24.728
X2.92 Y-24.701
X2.885 Y-24.669
X2.813 Y-24.595
X2.78 Y-24.557
X2.752 Y-24.514
X2.704 Y-24.425
X2.683 Y-24.38
X2.668 Y-24.332
X2.645 Y-24.236
X2.637 Y-24.192
X2.635 Y-24.149
Y-23.349
X2.638 Y-23.301
X2.647 Y-23.254
X2.675 Y-23.147
X2.692 Y-23.097
X2.716 Y-23.05
X2.766 Y-22.965
X2.794 Y-22.925
X2.827 Y-22.888
X2.897 Y-22.82
X2.937 Y-22.786
X2.98 Y-22.759
X3.076 Y-22.707
X3.126 Y-22.684
X3.179 Y-22.669
X3.289 Y-22.647
X3.364 Y-22.639
X15.361
X15.553 Y-22.581
X15.589 Y-22.531
Y-22.469
X15.556 Y-22.424
X15.384 Y-22.365
X15.295 Y-22.361
X2.58 Y-22.365
X2.437 Y-22.403
X2.398 Y-22.443
X2.355 Y-22.608
Y-24.895
X2.397 Y-25.057
X2.438 Y-25.097
X2.58 Y-25.135
X18.107 Y-25.141
X18.15 Y-25.143
X18.193 Y-25.15
X18.292 Y-25.174
X18.342 Y-25.189
X18.389 Y-25.211
X18.483 Y-25.263
X18.526 Y-25.292
X18.565 Y-25.326
X18.635 Y-25.396
X18.68 Y-25.449
X20.774 Y-28.512
X20.8 Y-28.556
X20.819 Y-28.603
X20.858 Y-28.717
X20.872 Y-28.773
X20.877 Y-28.832
X20.879 Y-28.945
X20.874 Y-29.009
X20.789 Y-29.546
X20.898 Y-29.889
X21.147 Y-30.144
X21.481 Y-30.26
X21.853 Y-30.21
X22.143 Y-30.011
X22.317 Y-29.697
X22.331 Y-29.338
X22.182 Y-29.011
X22.179 Y-29.008
X21.901 Y-28.784
X21.755 Y-28.752
X21.726 Y-28.748 Z-2.994 F100
X21.698 Y-28.75 Z-2.989
X21.652 Y-28.765 Z-2.956
X21.625 Y-28.784 Z-2.907
X21.617 Y-28.791 Z-2.85
G0 Z4
X25.462 Y-8.533
Z0.42
S5000
G1 X27.1 Y-8.207 Z0.253 F100
X27.131 Y-8.193
X27.152 Y-8.168
X27.161 Y-8.136
X27.154 Y-8.103
X27.134 Y-8.076
X27.105 Y-8.061
X27.071 Y-8.06
X25.343 Y-8.404 Z0.076
X25.313 Y-8.417
X25.291 Y-8.443
X25.283 Y-8.475
X25.29 Y-8.508
X25.31 Y-8.535
X25.339 Y-8.55
X25.373 Y-8.551
X27.1 Y-8.207 Z-0.1
X27.131 Y-8.193
X27.152 Y-8.168
X27.161 Y-8.136
X27.154 Y-8.103
X27.134 Y-8.076
X27.105 Y-8.061
X27.071 Y-8.06
X25.343 Y-8.404 Z-0.277
X25.313 Y-8.417
X25.291 Y-8.443
X25.283 Y-8.475
X25.29 Y-8.508
X25.31 Y-8.535
X25.339 Y-8.55
X25.373 Y-8.551
X26.582 Y-8.31 Z-0.4
X26.602 Y-8.304
X26.62 Y-8.293
X26.779 Y-8.166
X26.812 Y-8.15
X26.849 Y-8.148
X26.884 Y-8.161
X26.91 Y-8.187
X26.923 Y-8.221
X26.922 Y-8.258
X26.906 Y-8.291
X26.878 Y-8.315
X26.843 Y-8.326
X26.806 Y-8.322
X26.774 Y-8.303
X26.753 Y-8.273
X26.745 Y-8.237
S500
G3 X26.389 Y-8.237 I-0.178 J0 F350
X26.745 Y-8.237 I0.178 J0
G2 X26.91 Y-7.909 I0.41 J0
G3 X26.87 Y-7.544 I-0.128 J0.171
G1 X26.713 Y-7.473
X26.363 Y-7.487
X26.04 Y-7.663
X25.712 Y-8.14
X25.685 Y-8.175
X25.655 Y-8.206
X25.584 Y-8.27
X25.543 Y-8.302
X25.498 Y-8.328
X25.399 Y-8.377
X25.356 Y-8.395
X25.313 Y-8.407
X18.704 Y-9.849
X18.68 Y-9.854
X18.64 Y-9.86
X18.6 Y-9.863
X0.125 Y-9.861
X-0.06 Y-9.92
X-0.095 Y-9.969
Y-10.031
X-0.06 Y-10.08
X0.125 Y-10.139
X18.458 Y-10.138
X18.539 Y-10.126
X18.688 Y-10.066
X18.748 Y-10.048
X25.38 Y-8.604
X25.437 Y-8.596
X25.495 Y-8.597
X25.605 Y-8.607
X25.661 Y-8.617
X25.716 Y-8.635
X25.826 Y-8.681
X25.874 Y-8.706
X26.322 Y-8.976
X26.695 Y-9.004
X27.017 Y-8.872
X27.256 Y-8.6
X27.344 Y-8.257
X27.332 Y-8.193
X27.268 Y-7.9
X27.044 Y-7.623
X26.87 Y-7.544
X26.837 Y-7.535
X26.803 Y-7.538
X26.772 Y-7.553
X25.636 Y-8.337
X25.618 Y-8.347
X25.598 Y-8.353
S5000
X25.343 Y-8.404 Z-0.47 F100
X25.313 Y-8.417
X25.291 Y-8.443
X25.283 Y-8.475
X25.29 Y-8.508
X25.31 Y-8.535
X25.339 Y-8.55
X25.373 Y-8.551
X26.582 Y-8.31 Z-0.8
X26.602 Y-8.304
X26.62 Y-8.293
X26.779 Y-8.166
X26.812 Y-8.15
X26.849 Y-8.148
X26.884 Y-8.161
X26.91 Y-8.187
X26.923 Y-8.221
X26.922 Y-8.258
X26.906 Y-8.291
X26.878 Y-8.315
X26.843 Y-8.326
X26.806 Y-8.322
X26.774 Y-8.303
X26.753 Y-8.273
X26.745 Y-8.237
S500
G3 X26.389 Y-8.237 I-0.178 J0 F350
X26.745 Y-8.237 I0.178 J0
G2 X26.91 Y-7.909 I0.41 J0
G3 X26.87 Y-7.544 I-0.128 J0.171
G1 X26.713 Y-7.473
X26.363 Y-7.487
X26.04 Y-7.663
X25.712 Y-8.14
X25.685 Y-8.175
X25.655 Y-8.206
X25.584 Y-8.27
X25.543 Y-8.302
X25.498 Y-8.328
X25.399 Y-8.377
X25.356 Y-8.395
X25.313 Y-8.407
X18.704 Y-9.849
X18.68 Y-9.854
X18.64 Y-9.86
X18.6 Y-9.863
X0.125 Y-9.861
X-0.06 Y-9.92
X-0.095 Y-9.969
Y-10.031
X-0.06 Y-10.08
X0.125 Y-10.139
X18.458 Y-10.138
X18.539 Y-10.126
X18.688 Y-10.066
X18.748 Y-10.048
X25.38 Y-8.604
X25.437 Y-8.596
X25.495 Y-8.597
X25.605 Y-8.607
X25.661 Y-8.617
X25.716 Y-8.635
X25.826 Y-8.681
X25.874 Y-8.706
X26.322 Y-8.976
X26.695 Y-9.004
X27.017 Y-8.872
X27.256 Y-8.6
X27.344 Y-8.257
X27.332 Y-8.193
X27.268 Y-7.9
X27.044 Y-7.623
X26.87 Y-7.544
X26.837 Y-7.535
X26.803 Y-7.538
X26.772 Y-7.553
X25.636 Y-8.337
X25.618 Y-8.347
X25.598 Y-8.353
S5000
X25.343 Y-8.404 Z-0.87 F100
X25.313 Y-8.417
X25.291 Y-8.443
X25.283 Y-8.475
X25.29 Y-8.508
X25.31 Y-8.535
X25.339 Y-8.55
X25.373 Y-8.551
X26.582 Y-8.31 Z-1.2
X26.602 Y-8.304
X26.62 Y-8.293
X26.779 Y-8.166
X26.812 Y-8.15
X26.849 Y-8.148
X26.884 Y-8.161
X26.91 Y-8.187
X26.923 Y-8.221
X26.922 Y-8.258
X26.906 Y-8.291
X26.878 Y-8.315
X26.843 Y-8.326
X26.806 Y-8.322
X26.774 Y-8.303
X26.753 Y-8.273
X26.745 Y-8.237
S500
G3 X26.389 Y-8.237 I-0.178 J0 F350
X26.745 Y-8.237 I0.178 J0
G2 X26.91 Y-7.909 I0.41 J0
G3 X26.87 Y-7.544 I-0.128 J0.171
G1 X26.713 Y-7.473
X26.363 Y-7.487
X26.04 Y-7.663
X25.712 Y-8.14
X25.685 Y-8.175
X25.655 Y-8.206
X25.584 Y-8.27
X25.543 Y-8.302
X25.498 Y-8.328
X25.399 Y-8.377
X25.356 Y-8.395
X25.313 Y-8.407
X18.704 Y-9.849
X18.68 Y-9.854
X18.64 Y-9.86
X18.6 Y-9.863
X0.125 Y-9.861
X-0.06 Y-9.92
X-0.095 Y-9.969
Y-10.031
X-0.06 Y-10.08
X0.125 Y-10.139
X18.458 Y-10.138
X18.539 Y-10.126
X18.688 Y-10.066
X18.748 Y-10.048
X25.38 Y-8.604
X25.437 Y-8.596
X25.495 Y-8.597
X25.605 Y-8.607
X25.661 Y-8.617
X25.716 Y-8.635
X25.826 Y-8.681
X25.874 Y-8.706
X26.322 Y-8.976
X26.695 Y-9.004
X27.017 Y-8.872
X27.256 Y-8.6
X27.344 Y-8.257
X27.332 Y-8.193
X27.268 Y-7.9
X27.044 Y-7.623
X26.87 Y-7.544
X26.837 Y-7.535
X26.803 Y-7.538
X26.772 Y-7.553
X25.636 Y-8.337
X25.618 Y-8.347
X25.598 Y-8.353
S5000
X25.343 Y-8.404 Z-1.27 F100
X25.313 Y-8.417
X25.291 Y-8.443
X25.283 Y-8.475
X25.29 Y-8.508
X25.31 Y-8.535
X25.339 Y-8.55
X25.373 Y-8.551
X26.582 Y-8.31 Z-1.6
X26.602 Y-8.304
X26.62 Y-8.293
X26.779 Y-8.166
X26.812 Y-8.15
X26.849 Y-8.148
X26.884 Y-8.161
X26.91 Y-8.187
X26.923 Y-8.221
X26.922 Y-8.258
X26.906 Y-8.291
X26.878 Y-8.315
X26.843 Y-8.326
X26.806 Y-8.322
X26.774 Y-8.303
X26.753 Y-8.273
X26.745 Y-8.237
S500
G3 X26.389 Y-8.237 I-0.178 J0 F350
X26.745 Y-8.237 I0.178 J0
G2 X26.91 Y-7.909 I0.41 J0
G3 X26.87 Y-7.544 I-0.128 J0.171
G1 X26.713 Y-7.473
X26.363 Y-7.487
X26.04 Y-7.663
X25.712 Y-8.14
X25.685 Y-8.175
X25.655 Y-8.206
X25.584 Y-8.27
X25.543 Y-8.302
X25.498 Y-8.328
X25.399 Y-8.377
X25.356 Y-8.395
X25.313 Y-8.407
X18.704 Y-9.849
X18.68 Y-9.854
X18.64 Y-9.86
X18.6 Y-9.863
X0.125 Y-9.861
X-0.06 Y-9.92
X-0.095 Y-9.969
Y-10.031
X-0.06 Y-10.08
X0.125 Y-10.139
X18.458 Y-10.138
X18.539 Y-10.126
X18.688 Y-10.066
X18.748 Y-10.048
X25.38 Y-8.604
X25.437 Y-8.596
X25.495 Y-8.597
X25.605 Y-8.607
X25.661 Y-8.617
X25.716 Y-8.635
X25.826 Y-8.681
X25.874 Y-8.706
X26.322 Y-8.976
X26.695 Y-9.004
X27.017 Y-8.872
X27.256 Y-8.6
X27.344 Y-8.257
X27.332 Y-8.193
X27.268 Y-7.9
X27.044 Y-7.623
X26.87 Y-7.544
X26.837 Y-7.535
X26.803 Y-7.538
X26.772 Y-7.553
X25.636 Y-8.337
X25.618 Y-8.347
X25.598 Y-8.353
S5000
X25.343 Y-8.404 Z-1.67 F100
X25.313 Y-8.417
X25.291 Y-8.443
X25.283 Y-8.475
X25.29 Y-8.508
X25.31 Y-8.535
X25.339 Y-8.55
X25.373 Y-8.551
X26.582 Y-8.31 Z-2
X26.602 Y-8.304
X26.62 Y-8.293
X26.779 Y-8.166
X26.812 Y-8.15
X26.849 Y-8.148
X26.884 Y-8.161
X26.91 Y-8.187
X26.923 Y-8.221
X26.922 Y-8.258
X26.906 Y-8.291
X26.878 Y-8.315
X26.843 Y-8.326
X26.806 Y-8.322
X26.774 Y-8.303
X26.753 Y-8.273
X26.745 Y-8.237
S500
G3 X26.389 Y-8.237 I-0.178 J0 F350
X26.745 Y-8.237 I0.178 J0
G2 X26.91 Y-7.909 I0.41 J0
G3 X26.87 Y-7.544 I-0.128 J0.171
G1 X26.713 Y-7.473
X26.363 Y-7.487
X26.04 Y-7.663
X25.712 Y-8.14
X25.685 Y-8.175
X25.655 Y-8.206
X25.584 Y-8.27
X25.543 Y-8.302
X25.498 Y-8.328
X25.399 Y-8.377
X25.356 Y-8.395
X25.313 Y-8.407
X18.704 Y-9.849
X18.68 Y-9.854
X18.64 Y-9.86
X18.6 Y-9.863
X0.125 Y-9.861
X-0.06 Y-9.92
X-0.095 Y-9.969
Y-10.031
X-0.06 Y-10.08
X0.125 Y-10.139
X18.458 Y-10.138
X18.539 Y-10.126
X18.688 Y-10.066
X18.748 Y-10.048
X25.38 Y-8.604
X25.437 Y-8.596
X25.495 Y-8.597
X25.605 Y-8.607
X25.661 Y-8.617
X25.716 Y-8.635
X25.826 Y-8.681
X25.874 Y-8.706
X26.322 Y-8.976
X26.695 Y-9.004
X27.017 Y-8.872
X27.256 Y-8.6
X27.344 Y-8.257
X27.332 Y-8.193
X27.268 Y-7.9
X27.044 Y-7.623
X26.87 Y-7.544
X26.837 Y-7.535
X26.803 Y-7.538
X26.772 Y-7.553
X25.636 Y-8.337
X25.618 Y-8.347
X25.598 Y-8.353
S5000
X25.343 Y-8.404 Z-2.07 F100
X25.313 Y-8.417
X25.291 Y-8.443
X25.283 Y-8.475
X25.29 Y-8.508
X25.31 Y-8.535
X25.339 Y-8.55
X25.373 Y-8.551
X26.582 Y-8.31 Z-2.4
X26.602 Y-8.304
X26.62 Y-8.293
X26.779 Y-8.166
X26.812 Y-8.15
X26.849 Y-8.148
X26.884 Y-8.161
X26.91 Y-8.187
X26.923 Y-8.221
X26.922 Y-8.258
X26.906 Y-8.291
X26.878 Y-8.315
X26.843 Y-8.326
X26.806 Y-8.322
X26.774 Y-8.303
X26.753 Y-8.273
X26.745 Y-8.237
S500
G3 X26.389 Y-8.237 I-0.178 J0 F350
X26.745 Y-8.237 I0.178 J0
G2 X26.91 Y-7.909 I0.41 J0
G3 X26.87 Y-7.544 I-0.128 J0.171
G1 X26.713 Y-7.473
X26.363 Y-7.487
X26.04 Y-7.663
X25.712 Y-8.14
X25.685 Y-8.175
X25.655 Y-8.206
X25.584 Y-8.27
X25.543 Y-8.302
X25.498 Y-8.328
X25.399 Y-8.377
X25.356 Y-8.395
X25.313 Y-8.407
X18.704 Y-9.849
X18.68 Y-9.854
X18.64 Y-9.86
X18.6 Y-9.863
X0.125 Y-9.861
X-0.06 Y-9.92
X-0.095 Y-9.969
Y-10.031
X-0.06 Y-10.08
X0.125 Y-10.139
X18.458 Y-10.138
X18.539 Y-10.126
X18.688 Y-10.066
X18.748 Y-10.048
X25.38 Y-8.604
X25.437 Y-8.596
X25.495 Y-8.597
X25.605 Y-8.607
X25.661 Y-8.617
X25.716 Y-8.635
X25.826 Y-8.681
X25.874 Y-8.706
X26.322 Y-8.976
X26.695 Y-9.004
X27.017 Y-8.872
X27.256 Y-8.6
X27.344 Y-8.257
X27.332 Y-8.193
X27.268 Y-7.9
X27.044 Y-7.623
X26.87 Y-7.544
X26.837 Y-7.535
X26.803 Y-7.538
X26.772 Y-7.553
X25.636 Y-8.337
X25.618 Y-8.347
X25.598 Y-8.353
S5000
X25.343 Y-8.404 Z-2.47 F100
X25.313 Y-8.417
X25.291 Y-8.443
X25.283 Y-8.475
X25.29 Y-8.508
X25.31 Y-8.535
X25.339 Y-8.55
X25.373 Y-8.551
X26.582 Y-8.31 Z-2.8
X26.602 Y-8.304
X26.62 Y-8.293
X26.779 Y-8.166
X26.812 Y-8.15
X26.849 Y-8.148
X26.884 Y-8.161
X26.91 Y-8.187
X26.923 Y-8.221
X26.922 Y-8.258
X26.906 Y-8.291
X26.878 Y-8.315
X26.843 Y-8.326
X26.806 Y-8.322
X26.774 Y-8.303
X26.753 Y-8.273
X26.745 Y-8.237
S500
G3 X26.389 Y-8.237 I-0.178 J0 F350
X26.745 Y-8.237 I0.178 J0
G2 X26.91 Y-7.909 I0.41 J0
G3 X26.87 Y-7.544 I-0.128 J0.171
G1 X26.713 Y-7.473
X26.363 Y-7.487
X26.04 Y-7.663
X25.712 Y-8.14
X25.685 Y-8.175
X25.655 Y-8.206
X25.584 Y-8.27
X25.543 Y-8.302
X25.498 Y-8.328
X25.399 Y-8.377
X25.356 Y-8.395
X25.313 Y-8.407
X18.704 Y-9.849
X18.68 Y-9.854
X18.64 Y-9.86
X18.6 Y-9.863
X0.125 Y-9.861
X-0.06 Y-9.92
X-0.095 Y-9.969
Y-10.031
X-0.06 Y-10.08
X0.125 Y-10.139
X18.458 Y-10.138
X18.539 Y-10.126
X18.688 Y-10.066
X18.748 Y-10.048
X25.38 Y-8.604
X25.437 Y-8.596
X25.495 Y-8.597
X25.605 Y-8.607
X25.661 Y-8.617
X25.716 Y-8.635
X25.826 Y-8.681
X25.874 Y-8.706
X26.322 Y-8.976
X26.695 Y-9.004
X27.017 Y-8.872
X27.256 Y-8.6
X27.344 Y-8.257
X27.332 Y-8.193
X27.268 Y-7.9
X27.044 Y-7.623
X26.87 Y-7.544
X26.836 Y-7.535
X26.801 Y-7.539
X26.77 Y-7.554
X25.772 Y-8.277
X25.745 Y-8.305
X25.732 Y-8.341
X25.733 Y-8.379
X25.748 Y-8.415
X25.776 Y-8.442
X25.811 Y-8.456
X25.85
S5000
X26.582 Y-8.31 Z-3 F100
X26.602 Y-8.304
X26.62 Y-8.293
X26.779 Y-8.166
X26.812 Y-8.15
X26.849 Y-8.148
X26.884 Y-8.161
X26.91 Y-8.187
X26.923 Y-8.221
X26.922 Y-8.258
X26.906 Y-8.291
X26.878 Y-8.315
X26.843 Y-8.326
X26.806 Y-8.322
X26.774 Y-8.303
X26.753 Y-8.273
X26.745 Y-8.237
S500
G3 X26.389 Y-8.237 I-0.178 J0 F350
X26.745 Y-8.237 I0.178 J0
G2 X26.91 Y-7.909 I0.41 J0
G3 X26.87 Y-7.544 I-0.128 J0.171
G1 X26.713 Y-7.473
X26.363 Y-7.487
X26.04 Y-7.663
X25.712 Y-8.14
X25.685 Y-8.175
X25.655 Y-8.206
X25.584 Y-8.27
X25.543 Y-8.302
X25.498 Y-8.328
X25.399 Y-8.377
X25.356 Y-8.395
X25.313 Y-8.407
X18.704 Y-9.849
X18.68 Y-9.854
X18.64 Y-9.86
X18.6 Y-9.863
X0.125 Y-9.861
X-0.06 Y-9.92
X-0.095 Y-9.969
Y-10.031
X-0.06 Y-10.08
X0.125 Y-10.139
X18.458 Y-10.138
X18.539 Y-10.126
X18.688 Y-10.066
X18.748 Y-10.048
X25.38 Y-8.604
X25.437 Y-8.596
X25.495 Y-8.597
X25.605 Y-8.607
X25.661 Y-8.617
X25.716 Y-8.635
X25.826 Y-8.681
X25.874 Y-8.706
X26.322 Y-8.976
X26.695 Y-9.004
X27.017 Y-8.872
X27.256 Y-8.6
X27.344 Y-8.257
X27.332 Y-8.193
X27.268 Y-7.9
X27.044 Y-7.623
X26.87 Y-7.544
X26.843 Y-7.535 Z-2.994 F100
X26.814 Y-7.531 Z-2.989
X26.766 Y-7.536 Z-2.956
X26.736 Y-7.549 Z-2.907
X26.726 Y-7.555 Z-2.85
G0 Z4
X24.561 Y-4.081
Z0.42
S5000
G1 X25.047 Y-3.757 Z0.351 F100
X25.069 Y-3.733
X25.08 Y-3.701
X25.075 Y-3.668
X25.056 Y-3.64
X25.028 Y-3.623
X24.994 Y-3.621
X24.963 Y-3.633
X23.749 Y-4.444 Z0.179
X23.726 Y-4.468
X23.716 Y-4.5
X23.721 Y-4.533
X23.74 Y-4.56
X23.768 Y-4.577
X23.802 Y-4.58
X23.833 Y-4.568
X25.047 Y-3.757 Z0.007
X25.069 Y-3.733
X25.08 Y-3.701
X25.075 Y-3.668
X25.056 Y-3.64
X25.028 Y-3.623
X24.994 Y-3.621
X24.963 Y-3.633
X23.749 Y-4.444 Z-0.165
X23.726 Y-4.468
X23.716 Y-4.5
X23.721 Y-4.533
X23.74 Y-4.56
X23.768 Y-4.577
X23.802 Y-4.58
X23.833 Y-4.568
X25.047 Y-3.757 Z-0.338
X25.069 Y-3.733
X25.08 Y-3.701
X25.075 Y-3.668
X25.056 Y-3.64
X25.028 Y-3.623
X24.994 Y-3.621
X24.963 Y-3.633
X24.524 Y-3.926 Z-0.4
X24.5 Y-3.935
X24.476 Y-3.931
X24.456 Y-3.917
X24.388 Y-3.838
X24.376 Y-3.814
X24.379 Y-3.787
X24.394 Y-3.765
X24.419 Y-3.754
X24.446 Y-3.756
X24.468 Y-3.773
X24.479 Y-3.798
X24.475 Y-3.825
X24.458 Y-3.846
S500
G3 X24.672 Y-4.131 I0.107 J-0.143 F350
X24.458 Y-3.846 I-0.107 J0.143
G2 X24.067 Y-3.94 I-0.304 J0.405
G3 X23.724 Y-4.151 I-0.052 J-0.298
G1 Y-4.152
X23.707 Y-4.197
X23.685 Y-4.24
X23.625 Y-4.338
X23.594 Y-4.381
X23.557 Y-4.42
X23.484 Y-4.487
X23.453 Y-4.512
X23.42 Y-4.534
X18.674 Y-7.278
X18.63 Y-7.3
X18.584 Y-7.315
X18.47 Y-7.346
X18.422 Y-7.356
X18.373 Y-7.359
X0.125 Y-7.361
X-0.06 Y-7.42
X-0.095 Y-7.469
Y-7.531
X-0.06 Y-7.58
X0.125 Y-7.639
X18.458 Y-7.637
X18.534 Y-7.625
X18.559 Y-7.614
X18.722 Y-7.487
X18.765 Y-7.459
X23.529 Y-4.705
X23.573 Y-4.684
X23.619 Y-4.668
X23.733 Y-4.637
X23.79 Y-4.627
X23.848 Y-4.625
X23.962 Y-4.63
X24.031 Y-4.64
X24.566 Y-4.767
X24.909 Y-4.685
X25.186 Y-4.456
X25.333 Y-4.12
X25.313 Y-3.768
X25.135 Y-3.458
X24.833 Y-3.257
X24.802 Y-3.252
X24.481 Y-3.215
X24.137 Y-3.338
X23.888 Y-3.608
X23.724 Y-4.151
X23.72 Y-4.186
X23.729 Y-4.22
X23.749 Y-4.25
X23.778 Y-4.27
X23.812 Y-4.279
X24.181 Y-4.309
X24.214 Y-4.307
X24.245 Y-4.293
S5000
X25.047 Y-3.757 Z-0.658 F100
X25.069 Y-3.733
X25.08 Y-3.701
X25.075 Y-3.668
X25.056 Y-3.64
X25.028 Y-3.623
X24.994 Y-3.621
X24.963 Y-3.633
X24.524 Y-3.926 Z-0.8
X24.5 Y-3.935
X24.476 Y-3.931
X24.456 Y-3.917
X24.388 Y-3.838
X24.376 Y-3.814
X24.379 Y-3.787
X24.394 Y-3.765
X24.419 Y-3.754
X24.446 Y-3.756
X24.468 Y-3.773
X24.479 Y-3.798
X24.475 Y-3.825
X24.458 Y-3.846
S500
G3 X24.672 Y-4.131 I0.107 J-0.143 F350
X24.458 Y-3.846 I-0.107 J0.143
G2 X24.067 Y-3.94 I-0.304 J0.405
G3 X23.724 Y-4.151 I-0.052 J-0.298
G1 Y-4.152
X23.707 Y-4.197
X23.685 Y-4.24
X23.625 Y-4.338
X23.594 Y-4.381
X23.557 Y-4.42
X23.484 Y-4.487
X23.453 Y-4.512
X23.42 Y-4.534
X18.674 Y-7.278
X18.63 Y-7.3
X18.584 Y-7.315
X18.47 Y-7.346
X18.422 Y-7.356
X18.373 Y-7.359
X0.125 Y-7.361
X-0.06 Y-7.42
X-0.095 Y-7.469
Y-7.531
X-0.06 Y-7.58
X0.125 Y-7.639
X18.458 Y-7.637
X18.534 Y-7.625
X18.559 Y-7.614
X18.722 Y-7.487
X18.765 Y-7.459
X23.529 Y-4.705
X23.573 Y-4.684
X23.619 Y-4.668
X23.733 Y-4.637
X23.79 Y-4.627
X23.848 Y-4.625
X23.962 Y-4.63
X24.031 Y-4.64
X24.566 Y-4.767
X24.909 Y-4.685
X25.186 Y-4.456
X25.333 Y-4.12
X25.313 Y-3.768
X25.135 Y-3.458
X24.833 Y-3.257
X24.802 Y-3.252
X24.481 Y-3.215
X24.137 Y-3.338
X23.888 Y-3.608
X23.724 Y-4.151
X23.72 Y-4.186
X23.729 Y-4.22
X23.749 Y-4.25
X23.778 Y-4.27
X23.812 Y-4.279
X24.181 Y-4.309
X24.214 Y-4.307
X24.245 Y-4.293
S5000
X25.047 Y-3.757 Z-1.058 F100
X25.069 Y-3.733
X25.08 Y-3.701
X25.075 Y-3.668
X25.056 Y-3.64
X25.028 Y-3.623
X24.994 Y-3.621
X24.963 Y-3.633
X24.524 Y-3.926 Z-1.2
X24.5 Y-3.935
X24.476 Y-3.931
X24.456 Y-3.917
X24.388 Y-3.838
X24.376 Y-3.814
X24.379 Y-3.787
X24.394 Y-3.765
X24.419 Y-3.754
X24.446 Y-3.756
X24.468 Y-3.773
X24.479 Y-3.798
X24.475 Y-3.825
X24.458 Y-3.846
S500
G3 X24.672 Y-4.131 I0.107 J-0.143 F350
X24.458 Y-3.846 I-0.107 J0.143
G2 X24.067 Y-3.94 I-0.304 J0.405
G3 X23.724 Y-4.151 I-0.052 J-0.298
G1 Y-4.152
X23.707 Y-4.197
X23.685 Y-4.24
X23.625 Y-4.338
X23.594 Y-4.381
X23.557 Y-4.42
X23.484 Y-4.487
X23.453 Y-4.512
X23.42 Y-4.534
X18.674 Y-7.278
X18.63 Y-7.3
X18.584 Y-7.315
X18.47 Y-7.346
X18.422 Y-7.356
X18.373 Y-7.359
X0.125 Y-7.361
X-0.06 Y-7.42
X-0.095 Y-7.469
Y-7.531
X-0.06 Y-7.58
X0.125 Y-7.639
X18.458 Y-7.637
X18.534 Y-7.625
X18.559 Y-7.614
X18.722 Y-7.487
X18.765 Y-7.459
X23.529 Y-4.705
X23.573 Y-4.684
X23.619 Y-4.668
X23.733 Y-4.637
X23.79 Y-4.627
X23.848 Y-4.625
X23.962 Y-4.63
X24.031 Y-4.64
X24.566 Y-4.767
X24.909 Y-4.685
X25.186 Y-4.456
X25.333 Y-4.12
X25.313 Y-3.768
X25.135 Y-3.458
X24.833 Y-3.257
X24.802 Y-3.252
X24.481 Y-3.215
X24.137 Y-3.338
X23.888 Y-3.608
X23.724 Y-4.151
X23.72 Y-4.186
X23.729 Y-4.22
X23.749 Y-4.25
X23.778 Y-4.27
X23.812 Y-4.279
X24.181 Y-4.309
X24.214 Y-4.307
X24.245 Y-4.293
S5000
X25.047 Y-3.757 Z-1.458 F100
X25.069 Y-3.733
X25.08 Y-3.701
X25.075 Y-3.668
X25.056 Y-3.64
X25.028 Y-3.623
X24.994 Y-3.621
X24.963 Y-3.633
X24.524 Y-3.926 Z-1.6
X24.5 Y-3.935
X24.476 Y-3.931
X24.456 Y-3.917
X24.388 Y-3.838
X24.376 Y-3.814
X24.379 Y-3.787
X24.394 Y-3.765
X24.419 Y-3.754
X24.446 Y-3.756
X24.468 Y-3.773
X24.479 Y-3.798
X24.475 Y-3.825
X24.458 Y-3.846
S500
G3 X24.672 Y-4.131 I0.107 J-0.143 F350
X24.458 Y-3.846 I-0.107 J0.143
G2 X24.067 Y-3.94 I-0.304 J0.405
G3 X23.724 Y-4.151 I-0.052 J-0.298
G1 Y-4.152
X23.707 Y-4.197
X23.685 Y-4.24
X23.625 Y-4.338
X23.594 Y-4.381
X23.557 Y-4.42
X23.484 Y-4.487
X23.453 Y-4.512
X23.42 Y-4.534
X18.674 Y-7.278
X18.63 Y-7.3
X18.584 Y-7.315
X18.47 Y-7.346
X18.422 Y-7.356
X18.373 Y-7.359
X0.125 Y-7.361
X-0.06 Y-7.42
X-0.095 Y-7.469
Y-7.531
X-0.06 Y-7.58
X0.125 Y-7.639
X18.458 Y-7.637
X18.534 Y-7.625
X18.559 Y-7.614
X18.722 Y-7.487
X18.765 Y-7.459
X23.529 Y-4.705
X23.573 Y-4.684
X23.619 Y-4.668
X23.733 Y-4.637
X23.79 Y-4.627
X23.848 Y-4.625
X23.962 Y-4.63
X24.031 Y-4.64
X24.566 Y-4.767
X24.909 Y-4.685
X25.186 Y-4.456
X25.333 Y-4.12
X25.313 Y-3.768
X25.135 Y-3.458
X24.833 Y-3.257
X24.802 Y-3.252
X24.481 Y-3.215
X24.137 Y-3.338
X23.888 Y-3.608
X23.724 Y-4.151
X23.72 Y-4.186
X23.729 Y-4.22
X23.749 Y-4.25
X23.778 Y-4.27
X23.812 Y-4.279
X24.181 Y-4.309
X24.214 Y-4.307
X24.245 Y-4.293
S5000
X25.047 Y-3.757 Z-1.858 F100
X25.069 Y-3.733
X25.08 Y-3.701
X25.075 Y-3.668
X25.056 Y-3.64
X25.028 Y-3.623
X24.994 Y-3.621
X24.963 Y-3.633
X24.524 Y-3.926 Z-2
X24.5 Y-3.935
X24.476 Y-3.931
X24.456 Y-3.917
X24.388 Y-3.838
X24.376 Y-3.814
X24.379 Y-3.787
X24.394 Y-3.765
X24.419 Y-3.754
X24.446 Y-3.756
X24.468 Y-3.773
X24.479 Y-3.798
X24.475 Y-3.825
X24.458 Y-3.846
S500
G3 X24.672 Y-4.131 I0.107 J-0.143 F350
X24.458 Y-3.846 I-0.107 J0.143
G2 X24.067 Y-3.94 I-0.304 J0.405
G3 X23.724 Y-4.151 I-0.052 J-0.298
G1 Y-4.152
X23.707 Y-4.197
X23.685 Y-4.24
X23.625 Y-4.338
X23.594 Y-4.381
X23.557 Y-4.42
X23.484 Y-4.487
X23.453 Y-4.512
X23.42 Y-4.534
X18.674 Y-7.278
X18.63 Y-7.3
X18.584 Y-7.315
X18.47 Y-7.346
X18.422 Y-7.356
X18.373 Y-7.359
X0.125 Y-7.361
X-0.06 Y-7.42
X-0.095 Y-7.469
Y-7.531
X-0.06 Y-7.58
X0.125 Y-7.639
X18.458 Y-7.637
X18.534 Y-7.625
X18.559 Y-7.614
X18.722 Y-7.487
X18.765 Y-7.459
X23.529 Y-4.705
X23.573 Y-4.684
X23.619 Y-4.668
X23.733 Y-4.637
X23.79 Y-4.627
X23.848 Y-4.625
X23.962 Y-4.63
X24.031 Y-4.64
X24.566 Y-4.767
X24.909 Y-4.685
X25.186 Y-4.456
X25.333 Y-4.12
X25.313 Y-3.768
X25.135 Y-3.458
X24.833 Y-3.257
X24.802 Y-3.252
X24.481 Y-3.215
X24.137 Y-3.338
X23.888 Y-3.608
X23.724 Y-4.151
X23.72 Y-4.186
X23.729 Y-4.22
X23.749 Y-4.25
X23.778 Y-4.27
X23.812 Y-4.279
X24.181 Y-4.309
X24.214 Y-4.307
X24.245 Y-4.293
S5000
X25.047 Y-3.757 Z-2.258 F100
X25.069 Y-3.733
X25.08 Y-3.701
X25.075 Y-3.668
X25.056 Y-3.64
X25.028 Y-3.623
X24.994 Y-3.621
X24.963 Y-3.633
X24.524 Y-3.926 Z-2.4
X24.5 Y-3.935
X24.476 Y-3.931
X24.456 Y-3.917
X24.388 Y-3.838
X24.376 Y-3.814
X24.379 Y-3.787
X24.394 Y-3.765
X24.419 Y-3.754
X24.446 Y-3.756
X24.468 Y-3.773
X24.479 Y-3.798
X24.475 Y-3.825
X24.458 Y-3.846
S500
G3 X24.672 Y-4.131 I0.107 J-0.143 F350
X24.458 Y-3.846 I-0.107 J0.143
G2 X24.067 Y-3.94 I-0.304 J0.405
G3 X23.724 Y-4.151 I-0.052 J-0.298
G1 Y-4.152
X23.707 Y-4.197
X23.685 Y-4.24
X23.625 Y-4.338
X23.594 Y-4.381
X23.557 Y-4.42
X23.484 Y-4.487
X23.453 Y-4.512
X23.42 Y-4.534
X18.674 Y-7.278
X18.63 Y-7.3
X18.584 Y-7.315
X18.47 Y-7.346
X18.422 Y-7.356
X18.373 Y-7.359
X0.125 Y-7.361
X-0.06 Y-7.42
X-0.095 Y-7.469
Y-7.531
X-0.06 Y-7.58
X0.125 Y-7.639
X18.458 Y-7.637
X18.534 Y-7.625
X18.559 Y-7.614
X18.722 Y-7.487
X18.765 Y-7.459
X23.529 Y-4.705
X23.573 Y-4.684
X23.619 Y-4.668
X23.733 Y-4.637
X23.79 Y-4.627
X23.848 Y-4.625
X23.962 Y-4.63
X24.031 Y-4.64
X24.566 Y-4.767
X24.909 Y-4.685
X25.186 Y-4.456
X25.333 Y-4.12
X25.313 Y-3.768
X25.135 Y-3.458
X24.833 Y-3.257
X24.802 Y-3.252
X24.481 Y-3.215
X24.137 Y-3.338
X23.888 Y-3.608
X23.724 Y-4.151
X23.72 Y-4.186
X23.729 Y-4.22
X23.749 Y-4.25
X23.778 Y-4.27
X23.812 Y-4.279
X24.181 Y-4.309
X24.214 Y-4.307
X24.245 Y-4.293
S5000
X25.047 Y-3.757 Z-2.658 F100
X25.069 Y-3.733
X25.08 Y-3.701
X25.075 Y-3.668
X25.056 Y-3.64
X25.028 Y-3.623
X24.994 Y-3.621
X24.963 Y-3.633
X24.524 Y-3.926 Z-2.8
X24.5 Y-3.935
X24.476 Y-3.931
X24.456 Y-3.917
X24.388 Y-3.838
X24.376 Y-3.814
X24.379 Y-3.787
X24.394 Y-3.765
X24.419 Y-3.754
X24.446 Y-3.756
X24.468 Y-3.773
X24.479 Y-3.798
X24.475 Y-3.825
X24.458 Y-3.846
S500
G3 X24.672 Y-4.131 I0.107 J-0.143 F350
X24.458 Y-3.846 I-0.107 J0.143
G2 X24.067 Y-3.94 I-0.304 J0.405
G3 X23.724 Y-4.151 I-0.052 J-0.298
G1 Y-4.152
X23.707 Y-4.197
X23.685 Y-4.24
X23.625 Y-4.338
X23.594 Y-4.381
X23.557 Y-4.42
X23.484 Y-4.487
X23.453 Y-4.512
X23.42 Y-4.534
X18.674 Y-7.278
X18.63 Y-7.3
X18.584 Y-7.315
X18.47 Y-7.346
X18.422 Y-7.356
X18.373 Y-7.359
X0.125 Y-7.361
X-0.06 Y-7.42
X-0.095 Y-7.469
Y-7.531
X-0.06 Y-7.58
X0.125 Y-7.639
X18.458 Y-7.637
X18.534 Y-7.625
X18.559 Y-7.614
X18.722 Y-7.487
X18.765 Y-7.459
X23.529 Y-4.705
X23.573 Y-4.684
X23.619 Y-4.668
X23.733 Y-4.637
X23.79 Y-4.627
X23.848 Y-4.625
X23.962 Y-4.63
X24.031 Y-4.64
X24.566 Y-4.767
X24.909 Y-4.685
X25.186 Y-4.456
X25.333 Y-4.12
X25.313 Y-3.768
X25.135 Y-3.458
X24.833 Y-3.257
X24.802 Y-3.252
X24.481 Y-3.215
X24.137 Y-3.338
X23.888 Y-3.608
X23.724 Y-4.151
X23.722 Y-4.183
X23.734 Y-4.214
X23.757 Y-4.236
X23.788 Y-4.247
X23.82 Y-4.243
X24.407 Y-4.043
X24.693 Y-3.845
X24.713 Y-3.838
X24.734 Y-3.841
X24.826 Y-3.882
X24.846 Y-3.885
X24.865 Y-3.878
S5000
X25.047 Y-3.757 Z-2.858 F100
X25.069 Y-3.733
X25.08 Y-3.701
X25.075 Y-3.668
X25.056 Y-3.64
X25.028 Y-3.623
X24.994 Y-3.621
X24.963 Y-3.633
X24.524 Y-3.926 Z-3
X24.5 Y-3.935
X24.476 Y-3.931
X24.456 Y-3.917
X24.388 Y-3.838
X24.376 Y-3.814
X24.379 Y-3.787
X24.394 Y-3.765
X24.419 Y-3.754
X24.446 Y-3.756
X24.468 Y-3.773
X24.479 Y-3.798
X24.475 Y-3.825
X24.458 Y-3.846
S500
G3 X24.672 Y-4.131 I0.107 J-0.143 F350
X24.458 Y-3.846 I-0.107 J0.143
G2 X24.067 Y-3.94 I-0.304 J0.405
G3 X23.724 Y-4.151 I-0.052 J-0.298
G1 Y-4.152
X23.707 Y-4.197
X23.685 Y-4.24
X23.625 Y-4.338
X23.594 Y-4.381
X23.557 Y-4.42
X23.484 Y-4.487
X23.453 Y-4.512
X23.42 Y-4.534
X18.674 Y-7.278
X18.63 Y-7.3
X18.584 Y-7.315
X18.47 Y-7.346
X18.422 Y-7.356
X18.373 Y-7.359
X0.125 Y-7.361
X-0.06 Y-7.42
X-0.095 Y-7.469
Y-7.531
X-0.06 Y-7.58
X0.125 Y-7.639
X18.458 Y-7.637
X18.534 Y-7.625
X18.559 Y-7.614
X18.722 Y-7.487
X18.765 Y-7.459
X23.529 Y-4.705
X23.573 Y-4.684
X23.619 Y-4.668
X23.733 Y-4.637
X23.79 Y-4.627
X23.848 Y-4.625
X23.962 Y-4.63
X24.031 Y-4.64
X24.566 Y-4.767
X24.909 Y-4.685
X25.186 Y-4.456
X25.333 Y-4.12
X25.313 Y-3.768
X25.135 Y-3.458
X24.833 Y-3.257
X24.802 Y-3.252
X24.481 Y-3.215
X24.137 Y-3.338
X23.888 Y-3.608
X23.724 Y-4.151
X23.719 Y-4.179 Z-2.994 F100
Y-4.207 Z-2.989
X23.731 Y-4.254 Z-2.956
X23.747 Y-4.283 Z-2.907
X23.754 Y-4.291 Z-2.85
G0 Z4
X26.544 Y0.173
Z0.42
S5000
G1 X27.083 Y0.396 Z0.351 F100
X27.11 Y0.415
X27.126 Y0.444
X27.128 Y0.478
X27.115 Y0.509
X27.09 Y0.531
X27.058 Y0.54
X27.025 Y0.535
X25.677 Y-0.024 Z0.179
X25.649 Y-0.043
X25.633 Y-0.073
X25.631 Y-0.106
X25.644 Y-0.137
X25.669 Y-0.159
X25.701 Y-0.168
X25.734 Y-0.163
X27.083 Y0.396 Z0.007
X27.11 Y0.415
X27.126 Y0.444
X27.128 Y0.478
X27.115 Y0.509
X27.09 Y0.531
X27.058 Y0.54
X27.025 Y0.535
X25.677 Y-0.024 Z-0.165
X25.649 Y-0.043
X25.633 Y-0.073
X25.631 Y-0.106
X25.644 Y-0.137
X25.669 Y-0.159
X25.701 Y-0.168
X25.734 Y-0.163
X27.083 Y0.396 Z-0.338
X27.11 Y0.415
X27.126 Y0.444
X27.128 Y0.478
X27.115 Y0.509
X27.09 Y0.531
X27.058 Y0.54
X27.025 Y0.535
X26.537 Y0.332 Z-0.4
X26.494 Y0.319
X26.458 Y0.3
X26.43 Y0.269
X26.415 Y0.231
X26.416 Y0.189
X26.431 Y0.151
X26.459 Y0.12
S500
G3 X26.673 Y0.405 I0.107 J0.142 F350
X26.459 Y0.12 I-0.107 J-0.142
G2 X26.625 Y-0.209 I-0.25 J-0.333
G3 X26.944 Y-0.395 I0.215 J0.002
G1 X27.089 Y-0.315
X27.293 Y-0.019
X27.342 Y0.338
X27.228 Y0.669
X26.969 Y0.927
X26.625 Y1.039
X26.271 Y0.983
X25.974 Y0.766
X25.709 Y0.265
X25.683 Y0.223
X25.652 Y0.185
X25.567 Y0.093
X25.522 Y0.053
X25.471 Y0.02
X25.37 Y-0.036
X25.312 Y-0.061
X18.684 Y-2.328
X18.62 Y-2.344
X18.544 Y-2.356
X18.486 Y-2.36
X2.582 Y-2.365
X2.435 Y-2.405
X2.398 Y-2.443
X2.355 Y-2.609
X2.353 Y-4.642
X2.348 Y-4.704
X2.295 Y-5.014
X2.328 Y-5.11
X2.362 Y-5.142
X2.403 Y-5.177
X2.577 Y-5.221
X15.375 Y-5.224
X15.602 Y-5.15
X15.67 Y-5.052
Y-4.949
X15.603 Y-4.853
X15.385 Y-4.78
X15.295 Y-4.776
X3.326 Y-4.772
X3.27 Y-4.768
X3.215 Y-4.755
X3.11 Y-4.723
X3.061 Y-4.704
X3.016 Y-4.679
X2.936 Y-4.626
X2.894 Y-4.595
X2.857 Y-4.558
X2.783 Y-4.473
X2.75 Y-4.429
X2.724 Y-4.381
X2.681 Y-4.285
X2.662 Y-4.232
X2.651 Y-4.176
X2.636 Y-4.053
X2.633 Y-4.007
X2.634 Y-3.358
X2.637 Y-3.317
X2.644 Y-3.276
X2.667 Y-3.172
X2.681 Y-3.126
X2.7 Y-3.081
X2.74 Y-3.005
X2.766 Y-2.963
X2.797 Y-2.924
X2.874 Y-2.841
X2.917 Y-2.802
X2.964 Y-2.769
X3.065 Y-2.712
X3.118 Y-2.687
X3.174 Y-2.671
X3.287 Y-2.647
X3.364 Y-2.639
X18.46 Y-2.638
X18.528 Y-2.628
X18.57 Y-2.612
X18.683 Y-2.549
X18.744 Y-2.521
X25.415 Y-0.24
X25.463 Y-0.227
X25.513 Y-0.221
X25.627 Y-0.214
X25.685 Y-0.215
X25.742 Y-0.225
X25.856 Y-0.254
X25.919 Y-0.276
X26.408 Y-0.499
X26.781 Y-0.485
X26.944 Y-0.395
X26.971 Y-0.373
X26.989 Y-0.344
X26.995 Y-0.31
X26.99 Y-0.276
X26.974 Y-0.245
X26.948 Y-0.222
X26.286 Y0.184
X26.257 Y0.196
X26.226 Y0.198
X26.196 Y0.191
S5000
X25.677 Y-0.024 Z-0.551 F100
X25.649 Y-0.043
X25.633 Y-0.073
X25.631 Y-0.106
X25.644 Y-0.137
X25.669 Y-0.159
X25.701 Y-0.168
X25.734 Y-0.163
X26.594 Y0.194 Z-0.8
X26.776 Y0.328
X26.807 Y0.343
X26.84 Y0.344
X26.872 Y0.331
X26.895 Y0.307
X26.907 Y0.276
X26.906 Y0.242
X26.891 Y0.212
X26.865 Y0.19
X26.833 Y0.181
X26.799 Y0.185
X26.77 Y0.202
X26.751 Y0.23
X26.744 Y0.263
S500
G3 X26.388 Y0.263 I-0.178 J0 F350
X26.744 Y0.263 I0.178 J0
G2 X26.926 Y0.586 I0.378 J0
G3 X26.884 Y0.955 I-0.105 J0.175
G1 X26.625 Y1.039
X26.271 Y0.983
X25.974 Y0.766
X25.709 Y0.265
X25.683 Y0.223
X25.652 Y0.185
X25.567 Y0.093
X25.522 Y0.053
X25.471 Y0.02
X25.37 Y-0.036
X25.312 Y-0.061
X18.684 Y-2.328
X18.62 Y-2.344
X18.544 Y-2.356
X18.486 Y-2.36
X2.582 Y-2.365
X2.435 Y-2.405
X2.398 Y-2.443
X2.355 Y-2.609
X2.353 Y-4.642
X2.348 Y-4.704
X2.295 Y-5.014
X2.328 Y-5.11
X2.362 Y-5.142
X2.403 Y-5.177
X2.577 Y-5.221
X15.375 Y-5.224
X15.602 Y-5.15
X15.67 Y-5.052
Y-4.949
X15.603 Y-4.853
X15.385 Y-4.78
X15.295 Y-4.776
X3.326 Y-4.772
X3.27 Y-4.768
X3.215 Y-4.755
X3.11 Y-4.723
X3.061 Y-4.704
X3.016 Y-4.679
X2.936 Y-4.626
X2.894 Y-4.595
X2.857 Y-4.558
X2.783 Y-4.473
X2.75 Y-4.429
X2.724 Y-4.381
X2.681 Y-4.285
X2.662 Y-4.232
X2.651 Y-4.176
X2.636 Y-4.053
X2.633 Y-4.007
X2.634 Y-3.358
X2.637 Y-3.317
X2.644 Y-3.276
X2.667 Y-3.172
X2.681 Y-3.126
X2.7 Y-3.081
X2.74 Y-3.005
X2.766 Y-2.963
X2.797 Y-2.924
X2.874 Y-2.841
X2.917 Y-2.802
X2.964 Y-2.769
X3.065 Y-2.712
X3.118 Y-2.687
X3.174 Y-2.671
X3.287 Y-2.647
X3.364 Y-2.639
X18.46 Y-2.638
X18.528 Y-2.628
X18.57 Y-2.612
X18.683 Y-2.549
X18.744 Y-2.521
X25.415 Y-0.24
X25.463 Y-0.227
X25.513 Y-0.221
X25.627 Y-0.214
X25.685 Y-0.215
X25.742 Y-0.225
X25.856 Y-0.254
X25.919 Y-0.276
X26.408 Y-0.499
X26.781 Y-0.485
X27.089 Y-0.315
X27.293 Y-0.019
X27.342 Y0.338
X27.228 Y0.669
X26.969 Y0.927
X26.884 Y0.955
X26.847 Y0.96
X26.81 Y0.951
X26.78 Y0.929
X26.081 Y0.188
X26.061 Y0.155
X26.054 Y0.117
X26.062 Y0.08
X26.084 Y0.048
X26.116 Y0.027
X26.154 Y0.019
X26.192 Y0.027
S5000
X27.083 Y0.396 Z-1.058 F100
X27.11 Y0.415
X27.126 Y0.444
X27.128 Y0.478
X27.115 Y0.509
X27.09 Y0.531
X27.058 Y0.54
X27.025 Y0.535
X26.537 Y0.332 Z-1.2
X26.494 Y0.319
X26.458 Y0.3
X26.43 Y0.269
X26.415 Y0.231
X26.416 Y0.189
X26.431 Y0.151
X26.459 Y0.12
S500
G3 X26.673 Y0.405 I0.107 J0.142 F350
X26.459 Y0.12 I-0.107 J-0.142
G2 X26.625 Y-0.209 I-0.25 J-0.333
G3 X26.944 Y-0.395 I0.215 J0.002
G1 X27.089 Y-0.315
X27.293 Y-0.019
X27.342 Y0.338
X27.228 Y0.669
X26.969 Y0.927
X26.625 Y1.039
X26.271 Y0.983
X25.974 Y0.766
X25.709 Y0.265
X25.683 Y0.223
X25.652 Y0.185
X25.567 Y0.093
X25.522 Y0.053
X25.471 Y0.02
X25.37 Y-0.036
X25.312 Y-0.061
X18.684 Y-2.328
X18.62 Y-2.344
X18.544 Y-2.356
X18.486 Y-2.36
X2.582 Y-2.365
X2.435 Y-2.405
X2.398 Y-2.443
X2.355 Y-2.609
X2.353 Y-4.642
X2.348 Y-4.704
X2.295 Y-5.014
X2.328 Y-5.11
X2.362 Y-5.142
X2.403 Y-5.177
X2.577 Y-5.221
X15.375 Y-5.224
X15.602 Y-5.15
X15.67 Y-5.052
Y-4.949
X15.603 Y-4.853
X15.385 Y-4.78
X15.295 Y-4.776
X3.326 Y-4.772
X3.27 Y-4.768
X3.215 Y-4.755
X3.11 Y-4.723
X3.061 Y-4.704
X3.016 Y-4.679
X2.936 Y-4.626
X2.894 Y-4.595
X2.857 Y-4.558
X2.783 Y-4.473
X2.75 Y-4.429
X2.724 Y-4.381
X2.681 Y-4.285
X2.662 Y-4.232
X2.651 Y-4.176
X2.636 Y-4.053
X2.633 Y-4.007
X2.634 Y-3.358
X2.637 Y-3.317
X2.644 Y-3.276
X2.667 Y-3.172
X2.681 Y-3.126
X2.7 Y-3.081
X2.74 Y-3.005
X2.766 Y-2.963
X2.797 Y-2.924
X2.874 Y-2.841
X2.917 Y-2.802
X2.964 Y-2.769
X3.065 Y-2.712
X3.118 Y-2.687
X3.174 Y-2.671
X3.287 Y-2.647
X3.364 Y-2.639
X18.46 Y-2.638
X18.528 Y-2.628
X18.57 Y-2.612
X18.683 Y-2.549
X18.744 Y-2.521
X25.415 Y-0.24
X25.463 Y-0.227
X25.513 Y-0.221
X25.627 Y-0.214
X25.685 Y-0.215
X25.742 Y-0.225
X25.856 Y-0.254
X25.919 Y-0.276
X26.408 Y-0.499
X26.781 Y-0.485
X26.944 Y-0.395
X26.971 Y-0.373
X26.989 Y-0.344
X26.995 Y-0.31
X26.99 Y-0.276
X26.974 Y-0.245
X26.948 Y-0.222
X26.286 Y0.184
X26.257 Y0.196
X26.226 Y0.198
X26.196 Y0.191
S5000
X25.677 Y-0.024 Z-1.351 F100
X25.649 Y-0.043
X25.633 Y-0.073
X25.631 Y-0.106
X25.644 Y-0.137
X25.669 Y-0.159
X25.701 Y-0.168
X25.734 Y-0.163
X26.594 Y0.194 Z-1.6
X26.776 Y0.328
X26.807 Y0.343
X26.84 Y0.344
X26.872 Y0.331
X26.895 Y0.307
X26.907 Y0.276
X26.906 Y0.242
X26.891 Y0.212
X26.865 Y0.19
X26.833 Y0.181
X26.799 Y0.185
X26.77 Y0.202
X26.751 Y0.23
X26.744 Y0.263
S500
G3 X26.388 Y0.263 I-0.178 J0 F350
X26.744 Y0.263 I0.178 J0
G2 X26.926 Y0.586 I0.378 J0
G3 X26.884 Y0.955 I-0.105 J0.175
G1 X26.625 Y1.039
X26.271 Y0.983
X25.974 Y0.766
X25.709 Y0.265
X25.683 Y0.223
X25.652 Y0.185
X25.567 Y0.093
X25.522 Y0.053
X25.471 Y0.02
X25.37 Y-0.036
X25.312 Y-0.061
X18.684 Y-2.328
X18.62 Y-2.344
X18.544 Y-2.356
X18.486 Y-2.36
X2.582 Y-2.365
X2.435 Y-2.405
X2.398 Y-2.443
X2.355 Y-2.609
X2.353 Y-4.642
X2.348 Y-4.704
X2.295 Y-5.014
X2.328 Y-5.11
X2.362 Y-5.142
X2.403 Y-5.177
X2.577 Y-5.221
X15.375 Y-5.224
X15.602 Y-5.15
X15.67 Y-5.052
Y-4.949
X15.603 Y-4.853
X15.385 Y-4.78
X15.295 Y-4.776
X3.326 Y-4.772
X3.27 Y-4.768
X3.215 Y-4.755
X3.11 Y-4.723
X3.061 Y-4.704
X3.016 Y-4.679
X2.936 Y-4.626
X2.894 Y-4.595
X2.857 Y-4.558
X2.783 Y-4.473
X2.75 Y-4.429
X2.724 Y-4.381
X2.681 Y-4.285
X2.662 Y-4.232
X2.651 Y-4.176
X2.636 Y-4.053
X2.633 Y-4.007
X2.634 Y-3.358
X2.637 Y-3.317
X2.644 Y-3.276
X2.667 Y-3.172
X2.681 Y-3.126
X2.7 Y-3.081
X2.74 Y-3.005
X2.766 Y-2.963
X2.797 Y-2.924
X2.874 Y-2.841
X2.917 Y-2.802
X2.964 Y-2.769
X3.065 Y-2.712
X3.118 Y-2.687
X3.174 Y-2.671
X3.287 Y-2.647
X3.364 Y-2.639
X18.46 Y-2.638
X18.528 Y-2.628
X18.57 Y-2.612
X18.683 Y-2.549
X18.744 Y-2.521
X25.415 Y-0.24
X25.463 Y-0.227
X25.513 Y-0.221
X25.627 Y-0.214
X25.685 Y-0.215
X25.742 Y-0.225
X25.856 Y-0.254
X25.919 Y-0.276
X26.408 Y-0.499
X26.781 Y-0.485
X27.089 Y-0.315
X27.293 Y-0.019
X27.342 Y0.338
X27.228 Y0.669
X26.969 Y0.927
X26.884 Y0.955
X26.854 Y0.96
X26.823 Y0.956
X26.796 Y0.942
X26.774 Y0.921
X26.237 Y0.222
X26.218 Y0.204
X26.196 Y0.191
S5000
X25.677 Y-0.024 Z-1.751 F100
X25.649 Y-0.043
X25.633 Y-0.073
X25.631 Y-0.106
X25.644 Y-0.137
X25.669 Y-0.159
X25.701 Y-0.168
X25.734 Y-0.163
X26.594 Y0.194 Z-2
X26.776 Y0.328
X26.807 Y0.343
X26.84 Y0.344
X26.872 Y0.331
X26.895 Y0.307
X26.907 Y0.276
X26.906 Y0.242
X26.891 Y0.212
X26.865 Y0.19
X26.833 Y0.181
X26.799 Y0.185
X26.77 Y0.202
X26.751 Y0.23
X26.744 Y0.263
S500
G3 X26.388 Y0.263 I-0.178 J0 F350
X26.744 Y0.263 I0.178 J0
G2 X26.926 Y0.586 I0.378 J0
G3 X26.884 Y0.955 I-0.105 J0.175
G1 X26.625 Y1.039
X26.271 Y0.983
X25.974 Y0.766
X25.709 Y0.265
X25.683 Y0.223
X25.652 Y0.185
X25.567 Y0.093
X25.522 Y0.053
X25.471 Y0.02
X25.37 Y-0.036
X25.312 Y-0.061
X18.684 Y-2.328
X18.62 Y-2.344
X18.544 Y-2.356
X18.486 Y-2.36
X2.582 Y-2.365
X2.435 Y-2.405
X2.398 Y-2.443
X2.355 Y-2.609
X2.353 Y-4.642
X2.348 Y-4.704
X2.295 Y-5.014
X2.328 Y-5.11
X2.362 Y-5.142
X2.403 Y-5.177
X2.577 Y-5.221
X15.375 Y-5.224
X15.602 Y-5.15
X15.67 Y-5.052
Y-4.949
X15.603 Y-4.853
X15.385 Y-4.78
X15.295 Y-4.776
X3.326 Y-4.772
X3.27 Y-4.768
X3.215 Y-4.755
X3.11 Y-4.723
X3.061 Y-4.704
X3.016 Y-4.679
X2.936 Y-4.626
X2.894 Y-4.595
X2.857 Y-4.558
X2.783 Y-4.473
X2.75 Y-4.429
X2.724 Y-4.381
X2.681 Y-4.285
X2.662 Y-4.232
X2.651 Y-4.176
X2.636 Y-4.053
X2.633 Y-4.007
X2.634 Y-3.358
X2.637 Y-3.317
X2.644 Y-3.276
X2.667 Y-3.172
X2.681 Y-3.126
X2.7 Y-3.081
X2.74 Y-3.005
X2.766 Y-2.963
X2.797 Y-2.924
X2.874 Y-2.841
X2.917 Y-2.802
X2.964 Y-2.769
X3.065 Y-2.712
X3.118 Y-2.687
X3.174 Y-2.671
X3.287 Y-2.647
X3.364 Y-2.639
X18.46 Y-2.638
X18.528 Y-2.628
X18.57 Y-2.612
X18.683 Y-2.549
X18.744 Y-2.521
X25.415 Y-0.24
X25.463 Y-0.227
X25.513 Y-0.221
X25.627 Y-0.214
X25.685 Y-0.215
X25.742 Y-0.225
X25.856 Y-0.254
X25.919 Y-0.276
X26.408 Y-0.499
X26.781 Y-0.485
X27.089 Y-0.315
X27.293 Y-0.019
X27.342 Y0.338
X27.228 Y0.669
X26.969 Y0.927
X26.884 Y0.955
X26.847 Y0.96
X26.81 Y0.951
X26.78 Y0.929
X26.081 Y0.188
X26.061 Y0.155
X26.054 Y0.117
X26.062 Y0.08
X26.084 Y0.048
X26.116 Y0.027
X26.154 Y0.019
X26.192 Y0.027
S5000
X27.083 Y0.396 Z-2.258 F100
X27.11 Y0.415
X27.126 Y0.444
X27.128 Y0.478
X27.115 Y0.509
X27.09 Y0.531
X27.058 Y0.54
X27.025 Y0.535
X26.537 Y0.332 Z-2.4
X26.494 Y0.319
X26.458 Y0.3
X26.43 Y0.269
X26.415 Y0.231
X26.416 Y0.189
X26.431 Y0.151
X26.459 Y0.12
S500
G3 X26.673 Y0.405 I0.107 J0.142 F350
X26.459 Y0.12 I-0.107 J-0.142
G2 X26.625 Y-0.209 I-0.25 J-0.333
G3 X26.944 Y-0.395 I0.215 J0.002
G1 X27.089 Y-0.315
X27.293 Y-0.019
X27.342 Y0.338
X27.228 Y0.669
X26.969 Y0.927
X26.625 Y1.039
X26.271 Y0.983
X25.974 Y0.766
X25.709 Y0.265
X25.683 Y0.223
X25.652 Y0.185
X25.567 Y0.093
X25.522 Y0.053
X25.471 Y0.02
X25.37 Y-0.036
X25.312 Y-0.061
X18.684 Y-2.328
X18.62 Y-2.344
X18.544 Y-2.356
X18.486 Y-2.36
X2.582 Y-2.365
X2.435 Y-2.405
X2.398 Y-2.443
X2.355 Y-2.609
X2.353 Y-4.642
X2.348 Y-4.704
X2.295 Y-5.014
X2.328 Y-5.11
X2.362 Y-5.142
X2.403 Y-5.177
X2.577 Y-5.221
X15.375 Y-5.224
X15.602 Y-5.15
X15.67 Y-5.052
Y-4.949
X15.603 Y-4.853
X15.385 Y-4.78
X15.295 Y-4.776
X3.326 Y-4.772
X3.27 Y-4.768
X3.215 Y-4.755
X3.11 Y-4.723
X3.061 Y-4.704
X3.016 Y-4.679
X2.936 Y-4.626
X2.894 Y-4.595
X2.857 Y-4.558
X2.783 Y-4.473
X2.75 Y-4.429
X2.724 Y-4.381
X2.681 Y-4.285
X2.662 Y-4.232
X2.651 Y-4.176
X2.636 Y-4.053
X2.633 Y-4.007
X2.634 Y-3.358
X2.637 Y-3.317
X2.644 Y-3.276
X2.667 Y-3.172
X2.681 Y-3.126
X2.7 Y-3.081
X2.74 Y-3.005
X2.766 Y-2.963
X2.797 Y-2.924
X2.874 Y-2.841
X2.917 Y-2.802
X2.964 Y-2.769
X3.065 Y-2.712
X3.118 Y-2.687
X3.174 Y-2.671
X3.287 Y-2.647
X3.364 Y-2.639
X18.46 Y-2.638
X18.528 Y-2.628
X18.57 Y-2.612
X18.683 Y-2.549
X18.744 Y-2.521
X25.415 Y-0.24
X25.463 Y-0.227
X25.513 Y-0.221
X25.627 Y-0.214
X25.685 Y-0.215
X25.742 Y-0.225
X25.856 Y-0.254
X25.919 Y-0.276
X26.408 Y-0.499
X26.781 Y-0.485
X26.944 Y-0.395
X26.971 Y-0.373
X26.989 Y-0.344
X26.995 Y-0.31
X26.99 Y-0.276
X26.974 Y-0.245
X26.948 Y-0.222
X26.286 Y0.184
X26.257 Y0.196
X26.226 Y0.198
X26.196 Y0.191
S5000
X25.677 Y-0.024 Z-2.551 F100
X25.649 Y-0.043
X25.633 Y-0.073
X25.631 Y-0.106
X25.644 Y-0.137
X25.669 Y-0.159
X25.701 Y-0.168
X25.734 Y-0.163
X26.594 Y0.194 Z-2.8
X26.776 Y0.328
X26.807 Y0.343
X26.84 Y0.344
X26.872 Y0.331
X26.895 Y0.307
X26.907 Y0.276
X26.906 Y0.242
X26.891 Y0.212
X26.865 Y0.19
X26.833 Y0.181
X26.799 Y0.185
X26.77 Y0.202
X26.751 Y0.23
X26.744 Y0.263
S500
G3 X26.388 Y0.263 I-0.178 J0 F350
X26.744 Y0.263 I0.178 J0
G2 X26.926 Y0.586 I0.378 J0
G3 X26.884 Y0.955 I-0.105 J0.175
G1 X26.625 Y1.039
X26.271 Y0.983
X25.974 Y0.766
X25.709 Y0.265
