(1001)
(T1  D=3 CR=0 - ZMIN=0 - flat end mill)
G90 G94
G17
G21

(Face1)
T1
S500 M3
G54
M8
G0 X3.934 Y-2.046
Z15
Z5
G1 Z0.3 F300
G18 G3 X3.634 Z0 I-0.3 K0
G1 X2.59
X-25.089 F1000
X-27.117
G17 G2 X-27.117 Y0.789 I0 J1.417
G1 X3.071
G3 X3.071 Y3.624 I0 J1.417
G1 X-27.978
X-28.227
G2 X-28.227 Y6.459 I0 J1.417
G1 X3.071
G3 X3.071 Y9.294 I0 J1.417
G1 X-28.511
X-30.132
G2 X-30.132 Y12.128 I0 J1.417
G1 X3.071
G3 X3.071 Y14.963 I0 J1.417
G1 X-31.877
X-32.132
G2 X-32.132 Y17.798 I0 J1.417
G1 X3.071
G3 X3.071 Y20.633 I0 J1.417
G1 X-33.132
X-34.88
G2 X-34.88 Y23.468 I0 J1.417
G1 X3.071
G3 X3.071 Y26.303 I0 J1.417
G1 X-35.132
G2 X-35.132 Y29.138 I0 J1.417
G1 X-33.132
X3.071
G3 X3.071 Y31.973 I0 J1.417
G1 X-34.882
X-35.132
G2 X-35.132 Y34.808 I0 J1.417
G1 X3.071
G3 X3.071 Y37.643 I0 J1.417
G1 X-33.132
X-34.885
G2 X-34.885 Y40.478 I0 J1.417
G1 X3.071
G3 X3.071 Y43.312 I0 J1.417
G1 X-35.132
G2 X-35.132 Y46.147 I0 J1.417
G1 X-33.132
X3.071
G3 X3.071 Y48.982 I0 J1.417
G1 X-33.069
G2 X-33.069 Y51.817 I0 J1.417
G1 X-31.037
X2.63
G18 G2 X2.93 Z0.3 I0 K0.3 F300
G0 Z15
G17
M9
M5
M30
