(1001)
(T4  D=3 CR=0 - ZMIN=-17.5 - flat end mill)
G90 G94
G17
G21

(2D Pocket5)
T4
S15000 M3
G54
M8
G0 X66.225 Y83.07
Z6
Z2
G1 Z1.5 F700
Z-0.5
Y83.047
X66.221 Y66.269
G3 X66.421 Y66.069 I0.2 J0
G1 X67 Y66.068
G3 X67.2 Y66.268 I0 J0.2
G1 Y83.046
Y88.263
Y91.705
G3 X66.881 Y92.025 I-0.319 J0
G1 X66.482
G3 X66.21 Y91.725 I0 J-0.274
G1 X66.221 Y91.61
X66.227 Y91.495
Y88.264
X66.226 Y86.764
G0 Z4
X49.495 Y87.585
Z2
G1 Z1.5 F700
Z-0.5
Y87.597
X49.493 Y91.495
G2 X49.578 Y92.136 I2.465 J0
X49.79 Y92.748 I4.413 J-1.189
G3 X49.79 Y93.342 I-0.693 J0.297
G2 X49.578 Y93.953 I4.201 J1.801
X49.493 Y94.595 I2.38 J0.641
G1 X49.497 Y99.391
G3 X49.297 Y99.591 I-0.2 J0
G1 X48.129 Y99.588
G3 X47.93 Y99.388 I0.001 J-0.2
G1 X47.938 Y88.996
X47.937 Y87.599
G3 X48.138 Y87.399 I0.2 J0
G1 X51.013 Y87.4
G3 X51.213 Y87.6 I0 J0.2
G1 Y91.495
G2 X52.713 Y92.995 I1.5 J0
G1 X63.71
G2 X65.21 Y91.495 I0 J-1.5
G1 Y61.035
X68.21
Y61.052
X68.189 Y61.068
X67.12 Y64.826
G2 X67.311 Y65.369 I0.481 J0.137
G1 X68.001 Y65.861
G3 X68.21 Y66.268 I-0.29 J0.407
G1 Y83.047
X68.206 Y83.069
X68.196 Y83.088
X68.179 Y83.103
X68.041 Y83.19
X68.024 Y83.205
X68.014 Y83.225
X68.01 Y83.247
Y88.063
X68.014 Y88.085
X68.024 Y88.105
X68.041 Y88.12
X68.179 Y88.207
X68.196 Y88.222
X68.206 Y88.241
X68.21 Y88.263
Y93.035
X64.713
G2 X64.293 Y93.095 I0 J1.5
G1 X52.713
G2 X51.213 Y94.595 I0 J1.5
G1 Y98
Y99.397
G3 X51.013 Y99.597 I-0.2 J0
G1 X46.413 Y99.585
G3 X46.213 Y99.385 I0.001 J-0.2
G1 Y87.599
G3 X46.412 Y87.399 I0.2 J0
G1 X49.294 Y87.385
G3 X49.495 Y87.585 I0.001 J0.2
G1 Z-1
Y87.597
X49.493 Y91.495
G2 X49.578 Y92.136 I2.465 J0
X49.79 Y92.748 I4.413 J-1.189
G3 X49.79 Y93.342 I-0.693 J0.297
G2 X49.578 Y93.953 I4.201 J1.801
X49.493 Y94.595 I2.38 J0.641
G1 X49.497 Y99.391
G3 X49.297 Y99.591 I-0.2 J0
G1 X48.129 Y99.588
G3 X47.93 Y99.388 I0.001 J-0.2
G1 X47.938 Y88.996
X47.937 Y87.599
G3 X48.356 Y87.18 I0.419 J0
X48.775 Y87.599 I0 J0.419
G1 X48.772 Y93.494
X48.349 Y99.388
G3 X47.939 Y99.777 I-0.418 J-0.03
G1 X46.641 Y99.803
G3 X46.213 Y99.385 I-0.009 J-0.419
G1 Y87.599
G0 Z4
X66.225 Y83.07
Z2
G1 Z1 F700
Z-1
Y83.047
X66.221 Y66.269
G3 X66.421 Y66.069 I0.2 J0
G1 X67 Y66.068
G3 X67.2 Y66.268 I0 J0.2
G1 Y83.046
Y88.263
Y91.705
G3 X66.881 Y92.025 I-0.319 J0
G1 X66.482
G3 X66.21 Y91.725 I0 J-0.274
G1 X66.221 Y91.61
X66.227 Y91.495
Y88.264
G3 X66.427 Y88.064 I0.2 J0
G1 X68.01 Y88.063
G3 X68.21 Y88.263 I0 J0.2
G1 Y93.035
X64.713
G2 X64.293 Y93.095 I0 J1.5
G1 X52.713
G2 X51.213 Y94.595 I0 J1.5
G1 Y98
Y99.397
G3 X50.813 Y99.397 I-0.2 J0
G1 Y87.6
G3 X51.213 Y87.6 I0.2 J0
G1 Y91.495
G2 X52.713 Y92.995 I1.5 J0
G1 X63.71
G2 X65.21 Y91.495 I0 J-1.5
G1 Y61.035
X68.21
Y61.052
X68.189 Y61.068
X67.12 Y64.826
G2 X67.311 Y65.369 I0.481 J0.137
G1 X68.001 Y65.861
G3 X68.21 Y66.268 I-0.29 J0.407
G1 Y83.047
G3 X68.013 Y83.247 I-0.2 J0
G1 X66.428 Y83.27
G3 X66.225 Y83.07 I-0.003 J-0.2
G1 Z-1.5
Y83.047
X66.221 Y66.269
G3 X66.421 Y66.069 I0.2 J0
G1 X67 Y66.068
G3 X67.2 Y66.268 I0 J0.2
G1 Y83.046
Y88.263
Y91.705
G3 X66.881 Y92.025 I-0.319 J0
G1 X66.482
G3 X66.21 Y91.725 I0 J-0.274
G1 X66.221 Y91.61
X66.227 Y91.495
Y88.264
X66.226 Y86.764
G0 Z4
X49.495 Y87.585
Z2
G1 Z0.5 F700
Z-1.5
Y87.597
X49.493 Y91.495
G2 X49.578 Y92.136 I2.465 J0
X49.79 Y92.748 I4.413 J-1.189
G3 X49.79 Y93.342 I-0.693 J0.297
G2 X49.578 Y93.953 I4.201 J1.801
X49.493 Y94.595 I2.38 J0.641
G1 X49.497 Y99.391
G3 X49.297 Y99.591 I-0.2 J0
G1 X48.129 Y99.588
G3 X47.93 Y99.388 I0.001 J-0.2
G1 X47.938 Y88.996
X47.937 Y87.599
G3 X48.138 Y87.399 I0.2 J0
G1 X51.013 Y87.4
G3 X51.213 Y87.6 I0 J0.2
G1 Y91.495
G2 X52.713 Y92.995 I1.5 J0
G1 X63.71
G2 X65.21 Y91.495 I0 J-1.5
G1 Y61.035
X68.21
Y61.052
X68.189 Y61.068
X67.12 Y64.826
G2 X67.311 Y65.369 I0.481 J0.137
G1 X68.001 Y65.861
G3 X68.21 Y66.268 I-0.29 J0.407
G1 Y83.047
X68.206 Y83.069
X68.196 Y83.088
X68.179 Y83.103
X68.041 Y83.19
X68.024 Y83.205
X68.014 Y83.225
X68.01 Y83.247
Y88.063
X68.014 Y88.085
X68.024 Y88.105
X68.041 Y88.12
X68.179 Y88.207
X68.196 Y88.222
X68.206 Y88.241
X68.21 Y88.263
Y93.035
X64.713
G2 X64.293 Y93.095 I0 J1.5
G1 X52.713
G2 X51.213 Y94.595 I0 J1.5
G1 Y98
Y99.397
G3 X51.013 Y99.597 I-0.2 J0
G1 X46.413 Y99.585
G3 X46.213 Y99.385 I0.001 J-0.2
G1 Y87.599
G3 X46.412 Y87.399 I0.2 J0
G1 X49.294 Y87.385
G3 X49.495 Y87.585 I0.001 J0.2
G1 Z-2
Y87.597
X49.493 Y91.495
G2 X49.578 Y92.136 I2.465 J0
X49.79 Y92.748 I4.413 J-1.189
G3 X49.79 Y93.342 I-0.693 J0.297
G2 X49.578 Y93.953 I4.201 J1.801
X49.493 Y94.595 I2.38 J0.641
G1 X49.497 Y99.391
G3 X49.297 Y99.591 I-0.2 J0
G1 X48.129 Y99.588
G3 X47.93 Y99.388 I0.001 J-0.2
G1 X47.938 Y88.996
X47.937 Y87.599
G3 X48.356 Y87.18 I0.419 J0
X48.775 Y87.599 I0 J0.419
G1 X48.772 Y93.494
X48.349 Y99.388
G3 X47.939 Y99.777 I-0.418 J-0.03
G1 X46.641 Y99.803
G3 X46.213 Y99.385 I-0.009 J-0.419
G1 Y87.599
G0 Z4
X66.225 Y83.07
Z2
G1 Z0 F700
Z-2
Y83.047
X66.221 Y66.269
G3 X66.421 Y66.069 I0.2 J0
G1 X67 Y66.068
G3 X67.2 Y66.268 I0 J0.2
G1 Y83.046
Y88.263
Y91.705
G3 X66.881 Y92.025 I-0.319 J0
G1 X66.482
G3 X66.21 Y91.725 I0 J-0.274
G1 X66.221 Y91.61
X66.227 Y91.495
Y88.264
G3 X66.427 Y88.064 I0.2 J0
G1 X68.01 Y88.063
G3 X68.21 Y88.263 I0 J0.2
G1 Y93.035
X64.713
G2 X64.293 Y93.095 I0 J1.5
G1 X52.713
G2 X51.213 Y94.595 I0 J1.5
G1 Y98
Y99.397
G3 X50.813 Y99.397 I-0.2 J0
G1 Y87.6
G3 X51.213 Y87.6 I0.2 J0
G1 Y91.495
G2 X52.713 Y92.995 I1.5 J0
G1 X63.71
G2 X65.21 Y91.495 I0 J-1.5
G1 Y61.035
X68.21
Y61.052
X68.189 Y61.068
X67.12 Y64.826
G2 X67.311 Y65.369 I0.481 J0.137
G1 X68.001 Y65.861
G3 X68.21 Y66.268 I-0.29 J0.407
G1 Y83.047
G3 X68.013 Y83.247 I-0.2 J0
G1 X66.428 Y83.27
G3 X66.225 Y83.07 I-0.003 J-0.2
G1 Z-2.5
Y83.047
X66.221 Y66.269
G3 X66.421 Y66.069 I0.2 J0
G1 X67 Y66.068
G3 X67.2 Y66.268 I0 J0.2
G1 Y83.046
Y88.263
Y91.705
G3 X66.881 Y92.025 I-0.319 J0
G1 X66.482
G3 X66.21 Y91.725 I0 J-0.274
G1 X66.221 Y91.61
X66.227 Y91.495
Y88.264
X66.226 Y86.764
G0 Z4
X49.495 Y87.585
Z2
G1 Z-0.5 F700
Z-2.5
Y87.597
X49.493 Y91.495
G2 X49.578 Y92.136 I2.465 J0
X49.79 Y92.748 I4.413 J-1.189
G3 X49.79 Y93.342 I-0.693 J0.297
G2 X49.578 Y93.953 I4.201 J1.801
X49.493 Y94.595 I2.38 J0.641
G1 X49.497 Y99.391
G3 X49.297 Y99.591 I-0.2 J0
G1 X48.129 Y99.588
G3 X47.93 Y99.388 I0.001 J-0.2
G1 X47.938 Y88.996
X47.937 Y87.599
G3 X48.138 Y87.399 I0.2 J0
G1 X51.013 Y87.4
G3 X51.213 Y87.6 I0 J0.2
G1 Y91.495
G2 X52.713 Y92.995 I1.5 J0
G1 X63.71
G2 X65.21 Y91.495 I0 J-1.5
G1 Y61.035
X68.21
Y61.052
X68.189 Y61.068
X67.12 Y64.826
G2 X67.311 Y65.369 I0.481 J0.137
G1 X68.001 Y65.861
G3 X68.21 Y66.268 I-0.29 J0.407
G1 Y83.047
X68.206 Y83.069
X68.196 Y83.088
X68.179 Y83.103
X68.041 Y83.19
X68.024 Y83.205
X68.014 Y83.225
X68.01 Y83.247
Y88.063
X68.014 Y88.085
X68.024 Y88.105
X68.041 Y88.12
X68.179 Y88.207
X68.196 Y88.222
X68.206 Y88.241
X68.21 Y88.263
Y93.035
X64.713
G2 X64.293 Y93.095 I0 J1.5
G1 X52.713
G2 X51.213 Y94.595 I0 J1.5
G1 Y98
Y99.397
G3 X51.013 Y99.597 I-0.2 J0
G1 X46.413 Y99.585
G3 X46.213 Y99.385 I0.001 J-0.2
G1 Y87.599
G3 X46.412 Y87.399 I0.2 J0
G1 X49.294 Y87.385
G3 X49.495 Y87.585 I0.001 J0.2
G1 Z-3
Y87.597
X49.493 Y91.495
G2 X49.578 Y92.136 I2.465 J0
X49.79 Y92.748 I4.413 J-1.189
G3 X49.79 Y93.342 I-0.693 J0.297
G2 X49.578 Y93.953 I4.201 J1.801
X49.493 Y94.595 I2.38 J0.641
G1 X49.497 Y99.391
G3 X49.297 Y99.591 I-0.2 J0
G1 X48.129 Y99.588
G3 X47.93 Y99.388 I0.001 J-0.2
G1 X47.938 Y88.996
X47.937 Y87.599
G3 X48.356 Y87.18 I0.419 J0
X48.775 Y87.599 I0 J0.419
G1 X48.772 Y93.494
X48.349 Y99.388
G3 X47.939 Y99.777 I-0.418 J-0.03
G1 X46.641 Y99.803
G3 X46.213 Y99.385 I-0.009 J-0.419
G1 Y87.599
G0 Z4
X66.225 Y83.07
Z2
G1 Z-1 F700
Z-3
Y83.047
X66.221 Y66.269
G3 X66.421 Y66.069 I0.2 J0
G1 X67 Y66.068
G3 X67.2 Y66.268 I0 J0.2
G1 Y83.046
Y88.263
Y91.705
G3 X66.881 Y92.025 I-0.319 J0
G1 X66.482
G3 X66.21 Y91.725 I0 J-0.274
G1 X66.221 Y91.61
X66.227 Y91.495
Y88.264
G3 X66.427 Y88.064 I0.2 J0
G1 X68.01 Y88.063
G3 X68.21 Y88.263 I0 J0.2
G1 Y93.035
X64.713
G2 X64.293 Y93.095 I0 J1.5
G1 X52.713
G2 X51.213 Y94.595 I0 J1.5
G1 Y98
Y99.397
G3 X50.813 Y99.397 I-0.2 J0
G1 Y87.6
G3 X51.213 Y87.6 I0.2 J0
G1 Y91.495
G2 X52.713 Y92.995 I1.5 J0
G1 X63.71
G2 X65.21 Y91.495 I0 J-1.5
G1 Y61.035
X68.21
Y61.052
X68.189 Y61.068
X67.12 Y64.826
G2 X67.311 Y65.369 I0.481 J0.137
G1 X68.001 Y65.861
G3 X68.21 Y66.268 I-0.29 J0.407
G1 Y83.047
G3 X68.013 Y83.247 I-0.2 J0
G1 X66.428 Y83.27
G3 X66.225 Y83.07 I-0.003 J-0.2
G1 Z-3.5
Y83.047
X66.221 Y66.269
G3 X66.421 Y66.069 I0.2 J0
G1 X67 Y66.068
G3 X67.2 Y66.268 I0 J0.2
G1 Y83.046
Y88.263
Y91.705
G3 X66.881 Y92.025 I-0.319 J0
G1 X66.482
G3 X66.21 Y91.725 I0 J-0.274
G1 X66.221 Y91.61
X66.227 Y91.495
Y88.264
X66.226 Y86.764
G0 Z4
X49.495 Y87.585
Z2
G1 Z-1.5 F700
Z-3.5
Y87.597
X49.493 Y91.495
G2 X49.578 Y92.136 I2.465 J0
X49.79 Y92.748 I4.413 J-1.189
G3 X49.79 Y93.342 I-0.693 J0.297
G2 X49.578 Y93.953 I4.201 J1.801
X49.493 Y94.595 I2.38 J0.641
G1 X49.497 Y99.391
G3 X49.297 Y99.591 I-0.2 J0
G1 X48.129 Y99.588
G3 X47.93 Y99.388 I0.001 J-0.2
G1 X47.938 Y88.996
X47.937 Y87.599
G3 X48.138 Y87.399 I0.2 J0
G1 X51.013 Y87.4
G3 X51.213 Y87.6 I0 J0.2
G1 Y91.495
G2 X52.713 Y92.995 I1.5 J0
G1 X63.71
G2 X65.21 Y91.495 I0 J-1.5
G1 Y61.035
X68.21
Y61.052
X68.189 Y61.068
X67.12 Y64.826
G2 X67.311 Y65.369 I0.481 J0.137
G1 X68.001 Y65.861
G3 X68.21 Y66.268 I-0.29 J0.407
G1 Y83.047
X68.206 Y83.069
X68.196 Y83.088
X68.179 Y83.103
X68.041 Y83.19
X68.024 Y83.205
X68.014 Y83.225
X68.01 Y83.247
Y88.063
X68.014 Y88.085
X68.024 Y88.105
X68.041 Y88.12
X68.179 Y88.207
X68.196 Y88.222
X68.206 Y88.241
X68.21 Y88.263
Y93.035
X64.713
G2 X64.293 Y93.095 I0 J1.5
G1 X52.713
G2 X51.213 Y94.595 I0 J1.5
G1 Y98
Y99.397
G3 X51.013 Y99.597 I-0.2 J0
G1 X46.413 Y99.585
G3 X46.213 Y99.385 I0.001 J-0.2
G1 Y87.599
G3 X46.412 Y87.399 I0.2 J0
G1 X49.294 Y87.385
G3 X49.495 Y87.585 I0.001 J0.2
G1 Z-4
Y87.597
X49.493 Y91.495
G2 X49.578 Y92.136 I2.465 J0
X49.79 Y92.748 I4.413 J-1.189
G3 X49.79 Y93.342 I-0.693 J0.297
G2 X49.578 Y93.953 I4.201 J1.801
X49.493 Y94.595 I2.38 J0.641
G1 X49.497 Y99.391
G3 X49.297 Y99.591 I-0.2 J0
G1 X48.129 Y99.588
G3 X47.93 Y99.388 I0.001 J-0.2
G1 X47.938 Y88.996
X47.937 Y87.599
G3 X48.356 Y87.18 I0.419 J0
X48.775 Y87.599 I0 J0.419
G1 X48.772 Y93.494
X48.349 Y99.388
G3 X47.939 Y99.777 I-0.418 J-0.03
G1 X46.641 Y99.803
G3 X46.213 Y99.385 I-0.009 J-0.419
G1 Y87.599
G0 Z4
X66.225 Y83.07
Z2
G1 Z-2 F700
Z-4
Y83.047
X66.221 Y66.269
G3 X66.421 Y66.069 I0.2 J0
G1 X67 Y66.068
G3 X67.2 Y66.268 I0 J0.2
G1 Y83.046
Y88.263
Y91.705
G3 X66.881 Y92.025 I-0.319 J0
G1 X66.482
G3 X66.21 Y91.725 I0 J-0.274
G1 X66.221 Y91.61
X66.227 Y91.495
Y88.264
G3 X66.427 Y88.064 I0.2 J0
G1 X68.01 Y88.063
G3 X68.21 Y88.263 I0 J0.2
G1 Y93.035
X64.713
G2 X64.293 Y93.095 I0 J1.5
G1 X52.713
G2 X51.213 Y94.595 I0 J1.5
G1 Y98
Y99.397
G3 X50.813 Y99.397 I-0.2 J0
G1 Y87.6
G3 X51.213 Y87.6 I0.2 J0
G1 Y91.495
G2 X52.713 Y92.995 I1.5 J0
G1 X63.71
G2 X65.21 Y91.495 I0 J-1.5
G1 Y61.035
X68.21
Y61.052
X68.189 Y61.068
X67.12 Y64.826
G2 X67.311 Y65.369 I0.481 J0.137
G1 X68.001 Y65.861
G3 X68.21 Y66.268 I-0.29 J0.407
G1 Y83.047
G3 X68.013 Y83.247 I-0.2 J0
G1 X66.428 Y83.27
G3 X66.225 Y83.07 I-0.003 J-0.2
G1 Z-4.5
Y83.047
X66.221 Y66.269
G3 X66.421 Y66.069 I0.2 J0
G1 X67 Y66.068
G3 X67.2 Y66.268 I0 J0.2
G1 Y83.046
Y88.263
Y91.705
G3 X66.881 Y92.025 I-0.319 J0
G1 X66.482
G3 X66.21 Y91.725 I0 J-0.274
G1 X66.221 Y91.61
X66.227 Y91.495
Y88.264
X66.226 Y86.764
G0 Z4
X49.495 Y87.585
Z2
G1 Z-2.5 F700
Z-4.5
Y87.597
X49.493 Y91.495
G2 X49.578 Y92.136 I2.465 J0
X49.79 Y92.748 I4.413 J-1.189
G3 X49.79 Y93.342 I-0.693 J0.297
G2 X49.578 Y93.953 I4.201 J1.801
X49.493 Y94.595 I2.38 J0.641
G1 X49.497 Y99.391
G3 X49.297 Y99.591 I-0.2 J0
G1 X48.129 Y99.588
G3 X47.93 Y99.388 I0.001 J-0.2
G1 X47.938 Y88.996
X47.937 Y87.599
G3 X48.138 Y87.399 I0.2 J0
G1 X51.013 Y87.4
G3 X51.213 Y87.6 I0 J0.2
G1 Y91.495
G2 X52.713 Y92.995 I1.5 J0
G1 X63.71
G2 X65.21 Y91.495 I0 J-1.5
G1 Y61.035
X68.21
Y61.052
X68.189 Y61.068
X67.12 Y64.826
G2 X67.311 Y65.369 I0.481 J0.137
G1 X68.001 Y65.861
G3 X68.21 Y66.268 I-0.29 J0.407
G1 Y83.047
X68.206 Y83.069
X68.196 Y83.088
X68.179 Y83.103
X68.041 Y83.19
X68.024 Y83.205
X68.014 Y83.225
X68.01 Y83.247
Y88.063
X68.014 Y88.085
X68.024 Y88.105
X68.041 Y88.12
X68.179 Y88.207
X68.196 Y88.222
X68.206 Y88.241
X68.21 Y88.263
Y93.035
X64.713
G2 X64.293 Y93.095 I0 J1.5
G1 X52.713
G2 X51.213 Y94.595 I0 J1.5
G1 Y98
Y99.397
G3 X51.013 Y99.597 I-0.2 J0
G1 X46.413 Y99.585
G3 X46.213 Y99.385 I0.001 J-0.2
G1 Y87.599
G3 X46.412 Y87.399 I0.2 J0
G1 X49.294 Y87.385
G3 X49.495 Y87.585 I0.001 J0.2
G1 Z-5
Y87.597
X49.493 Y91.495
G2 X49.578 Y92.136 I2.465 J0
X49.79 Y92.748 I4.413 J-1.189
G3 X49.79 Y93.342 I-0.693 J0.297
G2 X49.578 Y93.953 I4.201 J1.801
X49.493 Y94.595 I2.38 J0.641
G1 X49.497 Y99.391
G3 X49.297 Y99.591 I-0.2 J0
G1 X48.129 Y99.588
G3 X47.93 Y99.388 I0.001 J-0.2
G1 X47.938 Y88.996
X47.937 Y87.599
G3 X48.356 Y87.18 I0.419 J0
X48.775 Y87.599 I0 J0.419
G1 X48.772 Y93.494
X48.349 Y99.388
G3 X47.939 Y99.777 I-0.418 J-0.03
G1 X46.641 Y99.803
G3 X46.213 Y99.385 I-0.009 J-0.419
G1 Y87.599
G0 Z4
X66.225 Y83.07
Z2
G1 Z-3 F700
Z-5
Y83.047
X66.221 Y66.269
G3 X66.421 Y66.069 I0.2 J0
G1 X67 Y66.068
G3 X67.2 Y66.268 I0 J0.2
G1 Y83.046
Y88.263
Y91.705
G3 X66.881 Y92.025 I-0.319 J0
G1 X66.482
G3 X66.21 Y91.725 I0 J-0.274
G1 X66.221 Y91.61
X66.227 Y91.495
Y88.264
G3 X66.427 Y88.064 I0.2 J0
G1 X68.01 Y88.063
G3 X68.21 Y88.263 I0 J0.2
G1 Y93.035
X64.713
G2 X64.293 Y93.095 I0 J1.5
G1 X52.713
G2 X51.213 Y94.595 I0 J1.5
G1 Y98
Y99.397
G3 X50.813 Y99.397 I-0.2 J0
G1 Y87.6
G3 X51.213 Y87.6 I0.2 J0
G1 Y91.495
G2 X52.713 Y92.995 I1.5 J0
G1 X63.71
G2 X65.21 Y91.495 I0 J-1.5
G1 Y61.035
X68.21
Y61.052
X68.189 Y61.068
X67.12 Y64.826
G2 X67.311 Y65.369 I0.481 J0.137
G1 X68.001 Y65.861
G3 X68.21 Y66.268 I-0.29 J0.407
G1 Y83.047
G3 X68.013 Y83.247 I-0.2 J0
G1 X66.428 Y83.27
G3 X66.225 Y83.07 I-0.003 J-0.2
G1 Z-5.5
Y83.047
X66.221 Y66.269
G3 X66.421 Y66.069 I0.2 J0
G1 X67 Y66.068
G3 X67.2 Y66.268 I0 J0.2
G1 Y83.046
Y88.263
Y91.705
G3 X66.881 Y92.025 I-0.319 J0
G1 X66.482
G3 X66.21 Y91.725 I0 J-0.274
G1 X66.221 Y91.61
X66.227 Y91.495
Y88.264
X66.226 Y86.764
G0 Z4
X49.495 Y87.585
Z2
G1 Z-3.5 F700
Z-5.5
Y87.597
X49.493 Y91.495
G2 X49.578 Y92.136 I2.465 J0
X49.79 Y92.748 I4.413 J-1.189
G3 X49.79 Y93.342 I-0.693 J0.297
G2 X49.578 Y93.953 I4.201 J1.801
X49.493 Y94.595 I2.38 J0.641
G1 X49.497 Y99.391
G3 X49.297 Y99.591 I-0.2 J0
G1 X48.129 Y99.588
G3 X47.93 Y99.388 I0.001 J-0.2
G1 X47.938 Y88.996
X47.937 Y87.599
G3 X48.138 Y87.399 I0.2 J0
G1 X51.013 Y87.4
G3 X51.213 Y87.6 I0 J0.2
G1 Y91.495
G2 X52.713 Y92.995 I1.5 J0
G1 X63.71
G2 X65.21 Y91.495 I0 J-1.5
G1 Y61.035
X68.21
Y61.052
X68.189 Y61.068
X67.12 Y64.826
G2 X67.311 Y65.369 I0.481 J0.137
G1 X68.001 Y65.861
G3 X68.21 Y66.268 I-0.29 J0.407
G1 Y83.047
X68.206 Y83.069
X68.196 Y83.088
X68.179 Y83.103
X68.041 Y83.19
X68.024 Y83.205
X68.014 Y83.225
X68.01 Y83.247
Y88.063
X68.014 Y88.085
X68.024 Y88.105
X68.041 Y88.12
X68.179 Y88.207
X68.196 Y88.222
X68.206 Y88.241
X68.21 Y88.263
Y93.035
X64.713
G2 X64.293 Y93.095 I0 J1.5
G1 X52.713
G2 X51.213 Y94.595 I0 J1.5
G1 Y98
Y99.397
G3 X51.013 Y99.597 I-0.2 J0
G1 X46.413 Y99.585
G3 X46.213 Y99.385 I0.001 J-0.2
G1 Y87.599
G3 X46.412 Y87.399 I0.2 J0
G1 X49.294 Y87.385
G3 X49.495 Y87.585 I0.001 J0.2
G1 Z-6
Y87.597
X49.493 Y91.495
G2 X49.578 Y92.136 I2.465 J0
X49.79 Y92.748 I4.413 J-1.189
G3 X49.79 Y93.342 I-0.693 J0.297
G2 X49.578 Y93.953 I4.201 J1.801
X49.493 Y94.595 I2.38 J0.641
G1 X49.497 Y99.391
G3 X49.297 Y99.591 I-0.2 J0
G1 X48.129 Y99.588
G3 X47.93 Y99.388 I0.001 J-0.2
G1 X47.938 Y88.996
X47.937 Y87.599
G3 X48.356 Y87.18 I0.419 J0
X48.775 Y87.599 I0 J0.419
G1 X48.772 Y93.494
X48.349 Y99.388
G3 X47.939 Y99.777 I-0.418 J-0.03
G1 X46.641 Y99.803
G3 X46.213 Y99.385 I-0.009 J-0.419
G1 Y87.599
G0 Z4
X66.225 Y83.07
Z2
G1 Z-4 F700
Z-6
Y83.047
X66.221 Y66.269
G3 X66.421 Y66.069 I0.2 J0
G1 X67 Y66.068
G3 X67.2 Y66.268 I0 J0.2
G1 Y83.046
Y88.263
Y91.705
G3 X66.881 Y92.025 I-0.319 J0
G1 X66.482
G3 X66.21 Y91.725 I0 J-0.274
G1 X66.221 Y91.61
X66.227 Y91.495
Y88.264
G3 X66.427 Y88.064 I0.2 J0
G1 X68.01 Y88.063
G3 X68.21 Y88.263 I0 J0.2
G1 Y93.035
X64.713
G2 X64.293 Y93.095 I0 J1.5
G1 X52.713
G2 X51.213 Y94.595 I0 J1.5
G1 Y98
Y99.397
G3 X50.813 Y99.397 I-0.2 J0
G1 Y87.6
G3 X51.213 Y87.6 I0.2 J0
G1 Y91.495
G2 X52.713 Y92.995 I1.5 J0
G1 X63.71
G2 X65.21 Y91.495 I0 J-1.5
G1 Y61.035
X68.21
Y61.052
X68.189 Y61.068
X67.12 Y64.826
G2 X67.311 Y65.369 I0.481 J0.137
G1 X68.001 Y65.861
G3 X68.21 Y66.268 I-0.29 J0.407
G1 Y83.047
G3 X68.013 Y83.247 I-0.2 J0
G1 X66.428 Y83.27
G3 X66.225 Y83.07 I-0.003 J-0.2
G1 Z-6.5
Y83.047
X66.221 Y66.269
G3 X66.421 Y66.069 I0.2 J0
G1 X67 Y66.068
G3 X67.2 Y66.268 I0 J0.2
G1 Y83.046
Y88.263
Y91.705
G3 X66.881 Y92.025 I-0.319 J0
G1 X66.482
G3 X66.21 Y91.725 I0 J-0.274
G1 X66.221 Y91.61
X66.227 Y91.495
Y88.264
X66.226 Y86.764
G0 Z4
X49.495 Y87.585
Z2
G1 Z-4.5 F700
Z-6.5
Y87.597
X49.493 Y91.495
G2 X49.578 Y92.136 I2.465 J0
X49.79 Y92.748 I4.413 J-1.189
G3 X49.79 Y93.342 I-0.693 J0.297
G2 X49.578 Y93.953 I4.201 J1.801
X49.493 Y94.595 I2.38 J0.641
G1 X49.497 Y99.391
G3 X49.297 Y99.591 I-0.2 J0
G1 X48.129 Y99.588
G3 X47.93 Y99.388 I0.001 J-0.2
G1 X47.938 Y88.996
X47.937 Y87.599
G3 X48.138 Y87.399 I0.2 J0
G1 X51.013 Y87.4
G3 X51.213 Y87.6 I0 J0.2
G1 Y91.495
G2 X52.713 Y92.995 I1.5 J0
G1 X63.71
G2 X65.21 Y91.495 I0 J-1.5
G1 Y61.035
X68.21
Y61.052
X68.189 Y61.068
X67.12 Y64.826
G2 X67.311 Y65.369 I0.481 J0.137
G1 X68.001 Y65.861
G3 X68.21 Y66.268 I-0.29 J0.407
G1 Y83.047
X68.206 Y83.069
X68.196 Y83.088
X68.179 Y83.103
X68.041 Y83.19
X68.024 Y83.205
X68.014 Y83.225
X68.01 Y83.247
Y88.063
X68.014 Y88.085
X68.024 Y88.105
X68.041 Y88.12
X68.179 Y88.207
X68.196 Y88.222
X68.206 Y88.241
X68.21 Y88.263
Y93.035
X64.713
G2 X64.293 Y93.095 I0 J1.5
G1 X52.713
G2 X51.213 Y94.595 I0 J1.5
G1 Y98
Y99.397
G3 X51.013 Y99.597 I-0.2 J0
G1 X46.413 Y99.585
G3 X46.213 Y99.385 I0.001 J-0.2
G1 Y87.599
G3 X46.412 Y87.399 I0.2 J0
G1 X49.294 Y87.385
G3 X49.495 Y87.585 I0.001 J0.2
G1 Z-7
Y87.597
X49.493 Y91.495
G2 X49.578 Y92.136 I2.465 J0
X49.79 Y92.748 I4.413 J-1.189
G3 X49.79 Y93.342 I-0.693 J0.297
G2 X49.578 Y93.953 I4.201 J1.801
X49.493 Y94.595 I2.38 J0.641
G1 X49.497 Y99.391
G3 X49.297 Y99.591 I-0.2 J0
G1 X48.129 Y99.588
G3 X47.93 Y99.388 I0.001 J-0.2
G1 X47.938 Y88.996
X47.937 Y87.599
G3 X48.356 Y87.18 I0.419 J0
X48.775 Y87.599 I0 J0.419
G1 X48.772 Y93.494
X48.349 Y99.388
G3 X47.939 Y99.777 I-0.418 J-0.03
G1 X46.641 Y99.803
G3 X46.213 Y99.385 I-0.009 J-0.419
G1 Y87.599
G0 Z4
X66.225 Y83.07
Z2
G1 Z-5 F700
Z-7
Y83.047
X66.221 Y66.269
G3 X66.421 Y66.069 I0.2 J0
G1 X67 Y66.068
G3 X67.2 Y66.268 I0 J0.2
G1 Y83.046
Y88.263
Y91.705
G3 X66.881 Y92.025 I-0.319 J0
G1 X66.482
G3 X66.21 Y91.725 I0 J-0.274
G1 X66.221 Y91.61
X66.227 Y91.495
Y88.264
G3 X66.427 Y88.064 I0.2 J0
G1 X68.01 Y88.063
G3 X68.21 Y88.263 I0 J0.2
G1 Y93.035
X64.713
G2 X64.293 Y93.095 I0 J1.5
G1 X52.713
G2 X51.213 Y94.595 I0 J1.5
G1 Y98
Y99.397
G3 X50.813 Y99.397 I-0.2 J0
G1 Y87.6
G3 X51.213 Y87.6 I0.2 J0
G1 Y91.495
G2 X52.713 Y92.995 I1.5 J0
G1 X63.71
G2 X65.21 Y91.495 I0 J-1.5
G1 Y61.035
X68.21
Y61.052
X68.189 Y61.068
X67.12 Y64.826
G2 X67.311 Y65.369 I0.481 J0.137
G1 X68.001 Y65.861
G3 X68.21 Y66.268 I-0.29 J0.407
G1 Y83.047
G3 X68.013 Y83.247 I-0.2 J0
G1 X66.428 Y83.27
G3 X66.225 Y83.07 I-0.003 J-0.2
G1 Z-7.5
Y83.047
X66.221 Y66.269
G3 X66.421 Y66.069 I0.2 J0
G1 X67 Y66.068
G3 X67.2 Y66.268 I0 J0.2
G1 Y83.046
Y88.263
Y91.705
G3 X66.881 Y92.025 I-0.319 J0
G1 X66.482
G3 X66.21 Y91.725 I0 J-0.274
G1 X66.221 Y91.61
X66.227 Y91.495
Y88.264
X66.226 Y86.764
G0 Z4
X49.495 Y87.585
Z2
G1 Z-5.5 F700
Z-7.5
Y87.597
X49.493 Y91.495
G2 X49.578 Y92.136 I2.465 J0
X49.79 Y92.748 I4.413 J-1.189
G3 X49.79 Y93.342 I-0.693 J0.297
G2 X49.578 Y93.953 I4.201 J1.801
X49.493 Y94.595 I2.38 J0.641
G1 X49.497 Y99.391
G3 X49.297 Y99.591 I-0.2 J0
G1 X48.129 Y99.588
G3 X47.93 Y99.388 I0.001 J-0.2
G1 X47.938 Y88.996
X47.937 Y87.599
G3 X48.138 Y87.399 I0.2 J0
G1 X51.013 Y87.4
G3 X51.213 Y87.6 I0 J0.2
G1 Y91.495
G2 X52.713 Y92.995 I1.5 J0
G1 X63.71
G2 X65.21 Y91.495 I0 J-1.5
G1 Y61.035
X68.21
Y61.052
X68.189 Y61.068
X67.12 Y64.826
G2 X67.311 Y65.369 I0.481 J0.137
G1 X68.001 Y65.861
G3 X68.21 Y66.268 I-0.29 J0.407
G1 Y83.047
X68.206 Y83.069
X68.196 Y83.088
X68.179 Y83.103
X68.041 Y83.19
X68.024 Y83.205
X68.014 Y83.225
X68.01 Y83.247
Y88.063
X68.014 Y88.085
X68.024 Y88.105
X68.041 Y88.12
X68.179 Y88.207
X68.196 Y88.222
X68.206 Y88.241
X68.21 Y88.263
Y93.035
X64.713
G2 X64.293 Y93.095 I0 J1.5
G1 X52.713
G2 X51.213 Y94.595 I0 J1.5
G1 Y98
Y99.397
G3 X51.013 Y99.597 I-0.2 J0
G1 X46.413 Y99.585
G3 X46.213 Y99.385 I0.001 J-0.2
G1 Y87.599
G3 X46.412 Y87.399 I0.2 J0
G1 X49.294 Y87.385
G3 X49.495 Y87.585 I0.001 J0.2
G1 Z-8
Y87.597
X49.493 Y91.495
G2 X49.578 Y92.136 I2.465 J0
X49.79 Y92.748 I4.413 J-1.189
G3 X49.79 Y93.342 I-0.693 J0.297
G2 X49.578 Y93.953 I4.201 J1.801
X49.493 Y94.595 I2.38 J0.641
G1 X49.497 Y99.391
G3 X49.297 Y99.591 I-0.2 J0
G1 X48.129 Y99.588
G3 X47.93 Y99.388 I0.001 J-0.2
G1 X47.938 Y88.996
X47.937 Y87.599
G3 X48.356 Y87.18 I0.419 J0
X48.775 Y87.599 I0 J0.419
G1 X48.772 Y93.494
X48.349 Y99.388
G3 X47.939 Y99.777 I-0.418 J-0.03
G1 X46.641 Y99.803
G3 X46.213 Y99.385 I-0.009 J-0.419
G1 Y87.599
G0 Z4
X66.225 Y83.07
Z2
G1 Z-6 F700
Z-8
Y83.047
X66.221 Y66.269
G3 X66.421 Y66.069 I0.2 J0
G1 X67 Y66.068
G3 X67.2 Y66.268 I0 J0.2
G1 Y83.046
Y88.263
Y91.705
G3 X66.881 Y92.025 I-0.319 J0
G1 X66.482
G3 X66.21 Y91.725 I0 J-0.274
G1 X66.221 Y91.61
X66.227 Y91.495
Y88.264
G3 X66.427 Y88.064 I0.2 J0
G1 X68.01 Y88.063
G3 X68.21 Y88.263 I0 J0.2
G1 Y93.035
X64.713
G2 X64.293 Y93.095 I0 J1.5
G1 X52.713
G2 X51.213 Y94.595 I0 J1.5
G1 Y98
Y99.397
G3 X50.813 Y99.397 I-0.2 J0
G1 Y87.6
G3 X51.213 Y87.6 I0.2 J0
G1 Y91.495
G2 X52.713 Y92.995 I1.5 J0
G1 X63.71
G2 X65.21 Y91.495 I0 J-1.5
G1 Y61.035
X68.21
Y61.052
X68.189 Y61.068
X67.12 Y64.826
G2 X67.311 Y65.369 I0.481 J0.137
G1 X68.001 Y65.861
G3 X68.21 Y66.268 I-0.29 J0.407
G1 Y83.047
G3 X68.013 Y83.247 I-0.2 J0
G1 X66.428 Y83.27
G3 X66.225 Y83.07 I-0.003 J-0.2
G1 Z-8.5
Y83.047
X66.221 Y66.269
G3 X66.421 Y66.069 I0.2 J0
G1 X67 Y66.068
G3 X67.2 Y66.268 I0 J0.2
G1 Y83.046
Y88.263
Y91.705
G3 X66.881 Y92.025 I-0.319 J0
G1 X66.482
G3 X66.21 Y91.725 I0 J-0.274
G1 X66.221 Y91.61
X66.227 Y91.495
Y88.264
X66.226 Y86.764
G0 Z4
X49.495 Y87.585
Z2
G1 Z-6.5 F700
Z-8.5
Y87.597
X49.493 Y91.495
G2 X49.578 Y92.136 I2.465 J0
X49.79 Y92.748 I4.413 J-1.189
G3 X49.79 Y93.342 I-0.693 J0.297
G2 X49.578 Y93.953 I4.201 J1.801
X49.493 Y94.595 I2.38 J0.641
G1 X49.497 Y99.391
G3 X49.297 Y99.591 I-0.2 J0
G1 X48.129 Y99.588
G3 X47.93 Y99.388 I0.001 J-0.2
G1 X47.938 Y88.996
X47.937 Y87.599
G3 X48.138 Y87.399 I0.2 J0
G1 X51.013 Y87.4
G3 X51.213 Y87.6 I0 J0.2
G1 Y91.495
G2 X52.713 Y92.995 I1.5 J0
G1 X63.71
G2 X65.21 Y91.495 I0 J-1.5
G1 Y61.035
X68.21
Y61.052
X68.189 Y61.068
X67.12 Y64.826
G2 X67.311 Y65.369 I0.481 J0.137
G1 X68.001 Y65.861
G3 X68.21 Y66.268 I-0.29 J0.407
G1 Y83.047
X68.206 Y83.069
X68.196 Y83.088
X68.179 Y83.103
X68.041 Y83.19
X68.024 Y83.205
X68.014 Y83.225
X68.01 Y83.247
Y88.063
X68.014 Y88.085
X68.024 Y88.105
X68.041 Y88.12
X68.179 Y88.207
X68.196 Y88.222
X68.206 Y88.241
X68.21 Y88.263
Y93.035
X64.713
G2 X64.293 Y93.095 I0 J1.5
G1 X52.713
G2 X51.213 Y94.595 I0 J1.5
G1 Y98
Y99.397
G3 X51.013 Y99.597 I-0.2 J0
G1 X46.413 Y99.585
G3 X46.213 Y99.385 I0.001 J-0.2
G1 Y87.599
G3 X46.412 Y87.399 I0.2 J0
G1 X49.294 Y87.385
G3 X49.495 Y87.585 I0.001 J0.2
G1 Z-9
Y87.597
X49.493 Y91.495
G2 X49.578 Y92.136 I2.465 J0
X49.79 Y92.748 I4.413 J-1.189
G3 X49.79 Y93.342 I-0.693 J0.297
G2 X49.578 Y93.953 I4.201 J1.801
X49.493 Y94.595 I2.38 J0.641
G1 X49.497 Y99.391
G3 X49.297 Y99.591 I-0.2 J0
G1 X48.129 Y99.588
G3 X47.93 Y99.388 I0.001 J-0.2
G1 X47.938 Y88.996
X47.937 Y87.599
G3 X48.356 Y87.18 I0.419 J0
X48.775 Y87.599 I0 J0.419
G1 X48.772 Y93.494
X48.349 Y99.388
G3 X47.939 Y99.777 I-0.418 J-0.03
G1 X46.641 Y99.803
G3 X46.213 Y99.385 I-0.009 J-0.419
G1 Y87.599
G0 Z4
X66.225 Y83.07
Z2
G1 Z-7 F700
Z-9
Y83.047
X66.221 Y66.269
G3 X66.421 Y66.069 I0.2 J0
G1 X67 Y66.068
G3 X67.2 Y66.268 I0 J0.2
G1 Y83.046
Y88.263
Y91.705
G3 X66.881 Y92.025 I-0.319 J0
G1 X66.482
G3 X66.21 Y91.725 I0 J-0.274
G1 X66.221 Y91.61
X66.227 Y91.495
Y88.264
G3 X66.427 Y88.064 I0.2 J0
G1 X68.01 Y88.063
G3 X68.21 Y88.263 I0 J0.2
G1 Y93.035
X64.713
G2 X64.293 Y93.095 I0 J1.5
G1 X52.713
G2 X51.213 Y94.595 I0 J1.5
G1 Y98
Y99.397
G3 X50.813 Y99.397 I-0.2 J0
G1 Y87.6
G3 X51.213 Y87.6 I0.2 J0
G1 Y91.495
G2 X52.713 Y92.995 I1.5 J0
G1 X63.71
G2 X65.21 Y91.495 I0 J-1.5
G1 Y61.035
X68.21
Y61.052
X68.189 Y61.068
X67.12 Y64.826
G2 X67.311 Y65.369 I0.481 J0.137
G1 X68.001 Y65.861
G3 X68.21 Y66.268 I-0.29 J0.407
G1 Y83.047
G3 X68.013 Y83.247 I-0.2 J0
G1 X66.428 Y83.27
G3 X66.225 Y83.07 I-0.003 J-0.2
G1 Z-9.5
Y83.047
X66.221 Y66.269
G3 X66.421 Y66.069 I0.2 J0
G1 X67 Y66.068
G3 X67.2 Y66.268 I0 J0.2
G1 Y83.046
Y88.263
Y91.705
G3 X66.881 Y92.025 I-0.319 J0
G1 X66.482
G3 X66.21 Y91.725 I0 J-0.274
G1 X66.221 Y91.61
X66.227 Y91.495
Y88.264
X66.226 Y86.764
G0 Z4
X49.495 Y87.585
Z2
G1 Z-7.5 F700
Z-9.5
Y87.597
X49.493 Y91.495
G2 X49.578 Y92.136 I2.465 J0
X49.79 Y92.748 I4.413 J-1.189
G3 X49.79 Y93.342 I-0.693 J0.297
G2 X49.578 Y93.953 I4.201 J1.801
X49.493 Y94.595 I2.38 J0.641
G1 X49.497 Y99.391
G3 X49.297 Y99.591 I-0.2 J0
G1 X48.129 Y99.588
G3 X47.93 Y99.388 I0.001 J-0.2
G1 X47.938 Y88.996
X47.937 Y87.599
G3 X48.138 Y87.399 I0.2 J0
G1 X51.013 Y87.4
G3 X51.213 Y87.6 I0 J0.2
G1 Y91.495
G2 X52.713 Y92.995 I1.5 J0
G1 X63.71
G2 X65.21 Y91.495 I0 J-1.5
G1 Y61.035
X68.21
Y61.052
X68.189 Y61.068
X67.12 Y64.826
G2 X67.311 Y65.369 I0.481 J0.137
G1 X68.001 Y65.861
G3 X68.21 Y66.268 I-0.29 J0.407
G1 Y83.047
X68.206 Y83.069
X68.196 Y83.088
X68.179 Y83.103
X68.041 Y83.19
X68.024 Y83.205
X68.014 Y83.225
X68.01 Y83.247
Y88.063
X68.014 Y88.085
X68.024 Y88.105
X68.041 Y88.12
X68.179 Y88.207
X68.196 Y88.222
X68.206 Y88.241
X68.21 Y88.263
Y93.035
X64.713
G2 X64.293 Y93.095 I0 J1.5
G1 X52.713
G2 X51.213 Y94.595 I0 J1.5
G1 Y98
Y99.397
G3 X51.013 Y99.597 I-0.2 J0
G1 X46.413 Y99.585
G3 X46.213 Y99.385 I0.001 J-0.2
G1 Y87.599
G3 X46.412 Y87.399 I0.2 J0
G1 X49.294 Y87.385
G3 X49.495 Y87.585 I0.001 J0.2
G1 Z-10
Y87.597
X49.493 Y91.495
G2 X49.578 Y92.136 I2.465 J0
X49.79 Y92.748 I4.413 J-1.189
G3 X49.79 Y93.342 I-0.693 J0.297
G2 X49.578 Y93.953 I4.201 J1.801
X49.493 Y94.595 I2.38 J0.641
G1 X49.497 Y99.391
G3 X49.297 Y99.591 I-0.2 J0
G1 X48.129 Y99.588
G3 X47.93 Y99.388 I0.001 J-0.2
G1 X47.938 Y88.996
X47.937 Y87.599
G3 X48.356 Y87.18 I0.419 J0
X48.775 Y87.599 I0 J0.419
G1 X48.772 Y93.494
X48.349 Y99.388
G3 X47.939 Y99.777 I-0.418 J-0.03
G1 X46.641 Y99.803
G3 X46.213 Y99.385 I-0.009 J-0.419
G1 Y87.599
G0 Z4
X66.225 Y83.07
Z2
G1 Z-8 F700
Z-10
Y83.047
X66.221 Y66.269
G3 X66.421 Y66.069 I0.2 J0
G1 X67 Y66.068
G3 X67.2 Y66.268 I0 J0.2
G1 Y83.046
Y88.263
Y91.705
G3 X66.881 Y92.025 I-0.319 J0
G1 X66.482
G3 X66.21 Y91.725 I0 J-0.274
G1 X66.221 Y91.61
X66.227 Y91.495
Y88.264
G3 X66.427 Y88.064 I0.2 J0
G1 X68.01 Y88.063
G3 X68.21 Y88.263 I0 J0.2
G1 Y93.035
X64.713
G2 X64.293 Y93.095 I0 J1.5
G1 X52.713
G2 X51.213 Y94.595 I0 J1.5
G1 Y98
Y99.397
G3 X50.813 Y99.397 I-0.2 J0
G1 Y87.6
G3 X51.213 Y87.6 I0.2 J0
G1 Y91.495
G2 X52.713 Y92.995 I1.5 J0
G1 X63.71
G2 X65.21 Y91.495 I0 J-1.5
G1 Y61.035
X68.21
Y61.052
X68.189 Y61.068
X67.12 Y64.826
G2 X67.311 Y65.369 I0.481 J0.137
G1 X68.001 Y65.861
G3 X68.21 Y66.268 I-0.29 J0.407
G1 Y83.047
G3 X68.013 Y83.247 I-0.2 J0
G1 X66.428 Y83.27
G3 X66.225 Y83.07 I-0.003 J-0.2
G1 Z-10.5
Y83.047
X66.221 Y66.269
G3 X66.421 Y66.069 I0.2 J0
G1 X67 Y66.068
G3 X67.2 Y66.268 I0 J0.2
G1 Y83.046
Y88.263
Y91.705
G3 X66.881 Y92.025 I-0.319 J0
G1 X66.482
G3 X66.21 Y91.725 I0 J-0.274
G1 X66.221 Y91.61
X66.227 Y91.495
Y88.264
X66.226 Y86.764
G0 Z4
X49.495 Y87.585
Z2
G1 Z-8.5 F700
Z-10.5
Y87.597
X49.493 Y91.495
G2 X49.578 Y92.136 I2.465 J0
X49.79 Y92.748 I4.413 J-1.189
G3 X49.79 Y93.342 I-0.693 J0.297
G2 X49.578 Y93.953 I4.201 J1.801
X49.493 Y94.595 I2.38 J0.641
G1 X49.497 Y99.391
G3 X49.297 Y99.591 I-0.2 J0
G1 X48.129 Y99.588
G3 X47.93 Y99.388 I0.001 J-0.2
G1 X47.938 Y88.996
X47.937 Y87.599
G3 X48.138 Y87.399 I0.2 J0
G1 X51.013 Y87.4
G3 X51.213 Y87.6 I0 J0.2
G1 Y91.495
G2 X52.713 Y92.995 I1.5 J0
G1 X63.71
G2 X65.21 Y91.495 I0 J-1.5
G1 Y61.035
X68.21
Y61.052
X68.189 Y61.068
X67.12 Y64.826
G2 X67.311 Y65.369 I0.481 J0.137
G1 X68.001 Y65.861
G3 X68.21 Y66.268 I-0.29 J0.407
G1 Y83.047
X68.206 Y83.069
X68.196 Y83.088
X68.179 Y83.103
X68.041 Y83.19
X68.024 Y83.205
X68.014 Y83.225
X68.01 Y83.247
Y88.063
X68.014 Y88.085
X68.024 Y88.105
X68.041 Y88.12
X68.179 Y88.207
X68.196 Y88.222
X68.206 Y88.241
X68.21 Y88.263
Y93.035
X64.713
G2 X64.293 Y93.095 I0 J1.5
G1 X52.713
G2 X51.213 Y94.595 I0 J1.5
G1 Y98
Y99.397
G3 X51.013 Y99.597 I-0.2 J0
G1 X46.413 Y99.585
G3 X46.213 Y99.385 I0.001 J-0.2
G1 Y87.599
G3 X46.412 Y87.399 I0.2 J0
G1 X49.294 Y87.385
G3 X49.495 Y87.585 I0.001 J0.2
G1 Z-10.875
Y87.597
X49.493 Y91.495
G2 X49.578 Y92.136 I2.465 J0
X49.79 Y92.748 I4.413 J-1.189
G3 X49.79 Y93.342 I-0.693 J0.297
G2 X49.578 Y93.953 I4.201 J1.801
X49.493 Y94.595 I2.38 J0.641
G1 X49.497 Y99.391
G3 X49.297 Y99.591 I-0.2 J0
G1 X48.129 Y99.588
G3 X47.93 Y99.388 I0.001 J-0.2
G1 X47.938 Y88.996
X47.937 Y87.599
G3 X48.356 Y87.18 I0.419 J0
X48.775 Y87.599 I0 J0.419
G1 X48.772 Y93.494
X48.349 Y99.388
G3 X47.939 Y99.777 I-0.418 J-0.03
G1 X46.641 Y99.803
G3 X46.213 Y99.385 I-0.009 J-0.419
G1 Y87.599
G0 Z4
X66.225 Y83.07
Z2
G1 Z-9 F700
Z-10.875
Y83.047
X66.221 Y66.269
G3 X66.421 Y66.069 I0.2 J0
G1 X67 Y66.068
G3 X67.2 Y66.268 I0 J0.2
G1 Y83.046
Y88.263
Y91.705
G3 X66.881 Y92.025 I-0.319 J0
G1 X66.482
G3 X66.21 Y91.725 I0 J-0.274
G1 X66.221 Y91.61
X66.227 Y91.495
Y88.264
G3 X66.427 Y88.064 I0.2 J0
G1 X68.01 Y88.063
G3 X68.21 Y88.263 I0 J0.2
G1 Y93.035
X64.713
G2 X64.293 Y93.095 I0 J1.5
G1 X52.713
G2 X51.213 Y94.595 I0 J1.5
G1 Y98
Y99.397
G3 X50.813 Y99.397 I-0.2 J0
G1 Y87.6
G3 X51.213 Y87.6 I0.2 J0
G1 Y91.495
G2 X52.713 Y92.995 I1.5 J0
G1 X63.71
G2 X65.21 Y91.495 I0 J-1.5
G1 Y61.035
X68.21
Y61.052
X68.189 Y61.068
X67.12 Y64.826
G2 X67.311 Y65.369 I0.481 J0.137
G1 X68.001 Y65.861
G3 X68.21 Y66.268 I-0.29 J0.407
G1 Y83.047
G0 Z6
X38.893 Y99.408
Z2
G1 Z1.5 F700
Z-0.5
Y99.397
Y87.6
G3 X39.093 Y87.4 I0.2 J0
G1 X40.333 Y87.399
G3 X40.533 Y87.599 I0 J0.2
G1 Y99.396
G3 X40.333 Y99.596 I-0.2 J0
G1 X37.413 Y99.593
G3 X37.213 Y99.393 I0 J-0.2
G1 Y87.599
G3 X37.413 Y87.399 I0.2 J0
G1 X42.013 Y87.402
G3 X42.213 Y87.602 I0 J0.2
G1 Y99.397
G3 X42.014 Y99.597 I-0.2 J0
G1 X39.094 Y99.608
G3 X38.893 Y99.408 I-0.001 J-0.2
G1 Z-1
Y99.397
Y87.6
G3 X39.093 Y87.4 I0.2 J0
G1 X40.333 Y87.399
G3 X40.533 Y87.599 I0 J0.2
G1 Y99.396
G3 X40.333 Y99.596 I-0.2 J0
G1 X37.413 Y99.593
G3 X37.213 Y99.393 I0 J-0.2
G1 Y87.599
G3 X37.413 Y87.399 I0.2 J0
G1 X42.013 Y87.402
G3 X42.213 Y87.602 I0 J0.2
G1 Y99.397
G3 X42.014 Y99.597 I-0.2 J0
G1 X39.094 Y99.608
G3 X38.893 Y99.408 I-0.001 J-0.2
G1 Z-1.5
Y99.397
Y87.6
G3 X39.093 Y87.4 I0.2 J0
G1 X40.333 Y87.399
G3 X40.533 Y87.599 I0 J0.2
G1 Y99.396
G3 X40.333 Y99.596 I-0.2 J0
G1 X37.413 Y99.593
G3 X37.213 Y99.393 I0 J-0.2
G1 Y87.599
G3 X37.413 Y87.399 I0.2 J0
G1 X42.013 Y87.402
G3 X42.213 Y87.602 I0 J0.2
G1 Y99.397
G3 X42.014 Y99.597 I-0.2 J0
G1 X39.094 Y99.608
G3 X38.893 Y99.408 I-0.001 J-0.2
G1 Z-2
Y99.397
Y87.6
G3 X39.093 Y87.4 I0.2 J0
G1 X40.333 Y87.399
G3 X40.533 Y87.599 I0 J0.2
G1 Y99.396
G3 X40.333 Y99.596 I-0.2 J0
G1 X37.413 Y99.593
G3 X37.213 Y99.393 I0 J-0.2
G1 Y87.599
G3 X37.413 Y87.399 I0.2 J0
G1 X42.013 Y87.402
G3 X42.213 Y87.602 I0 J0.2
G1 Y99.397
G3 X42.014 Y99.597 I-0.2 J0
G1 X39.094 Y99.608
G3 X38.893 Y99.408 I-0.001 J-0.2
G1 Z-2.5
Y99.397
Y87.6
G3 X39.093 Y87.4 I0.2 J0
G1 X40.333 Y87.399
G3 X40.533 Y87.599 I0 J0.2
G1 Y99.396
G3 X40.333 Y99.596 I-0.2 J0
G1 X37.413 Y99.593
G3 X37.213 Y99.393 I0 J-0.2
G1 Y87.599
G3 X37.413 Y87.399 I0.2 J0
G1 X42.013 Y87.402
G3 X42.213 Y87.602 I0 J0.2
G1 Y99.397
G3 X42.014 Y99.597 I-0.2 J0
G1 X39.094 Y99.608
G3 X38.893 Y99.408 I-0.001 J-0.2
G1 Z-3
Y99.397
Y87.6
G3 X39.093 Y87.4 I0.2 J0
G1 X40.333 Y87.399
G3 X40.533 Y87.599 I0 J0.2
G1 Y99.396
G3 X40.333 Y99.596 I-0.2 J0
G1 X37.413 Y99.593
G3 X37.213 Y99.393 I0 J-0.2
G1 Y87.599
G3 X37.413 Y87.399 I0.2 J0
G1 X42.013 Y87.402
G3 X42.213 Y87.602 I0 J0.2
G1 Y99.397
G3 X42.014 Y99.597 I-0.2 J0
G1 X39.094 Y99.608
G3 X38.893 Y99.408 I-0.001 J-0.2
G1 Z-3.5
Y99.397
Y87.6
G3 X39.093 Y87.4 I0.2 J0
G1 X40.333 Y87.399
G3 X40.533 Y87.599 I0 J0.2
G1 Y99.396
G3 X40.333 Y99.596 I-0.2 J0
G1 X37.413 Y99.593
G3 X37.213 Y99.393 I0 J-0.2
G1 Y87.599
G3 X37.413 Y87.399 I0.2 J0
G1 X42.013 Y87.402
G3 X42.213 Y87.602 I0 J0.2
G1 Y99.397
G3 X42.014 Y99.597 I-0.2 J0
G1 X39.094 Y99.608
G3 X38.893 Y99.408 I-0.001 J-0.2
G1 Z-4
Y99.397
Y87.6
G3 X39.093 Y87.4 I0.2 J0
G1 X40.333 Y87.399
G3 X40.533 Y87.599 I0 J0.2
G1 Y99.396
G3 X40.333 Y99.596 I-0.2 J0
G1 X37.413 Y99.593
G3 X37.213 Y99.393 I0 J-0.2
G1 Y87.599
G3 X37.413 Y87.399 I0.2 J0
G1 X42.013 Y87.402
G3 X42.213 Y87.602 I0 J0.2
G1 Y99.397
G3 X42.014 Y99.597 I-0.2 J0
G1 X39.094 Y99.608
G3 X38.893 Y99.408 I-0.001 J-0.2
G1 Z-4.5
Y99.397
Y87.6
G3 X39.093 Y87.4 I0.2 J0
G1 X40.333 Y87.399
G3 X40.533 Y87.599 I0 J0.2
G1 Y99.396
G3 X40.333 Y99.596 I-0.2 J0
G1 X37.413 Y99.593
G3 X37.213 Y99.393 I0 J-0.2
G1 Y87.599
G3 X37.413 Y87.399 I0.2 J0
G1 X42.013 Y87.402
G3 X42.213 Y87.602 I0 J0.2
G1 Y99.397
G3 X42.014 Y99.597 I-0.2 J0
G1 X39.094 Y99.608
G3 X38.893 Y99.408 I-0.001 J-0.2
G1 Z-5
Y99.397
Y87.6
G3 X39.093 Y87.4 I0.2 J0
G1 X40.333 Y87.399
G3 X40.533 Y87.599 I0 J0.2
G1 Y99.396
G3 X40.333 Y99.596 I-0.2 J0
G1 X37.413 Y99.593
G3 X37.213 Y99.393 I0 J-0.2
G1 Y87.599
G3 X37.413 Y87.399 I0.2 J0
G1 X42.013 Y87.402
G3 X42.213 Y87.602 I0 J0.2
G1 Y99.397
G3 X42.014 Y99.597 I-0.2 J0
G1 X39.094 Y99.608
G3 X38.893 Y99.408 I-0.001 J-0.2
G1 Z-5.5
Y99.397
Y87.6
G3 X39.093 Y87.4 I0.2 J0
G1 X40.333 Y87.399
G3 X40.533 Y87.599 I0 J0.2
G1 Y99.396
G3 X40.333 Y99.596 I-0.2 J0
G1 X37.413 Y99.593
G3 X37.213 Y99.393 I0 J-0.2
G1 Y87.599
G3 X37.413 Y87.399 I0.2 J0
G1 X42.013 Y87.402
G3 X42.213 Y87.602 I0 J0.2
G1 Y99.397
G3 X42.014 Y99.597 I-0.2 J0
G1 X39.094 Y99.608
G3 X38.893 Y99.408 I-0.001 J-0.2
G1 Z-6
Y99.397
Y87.6
G3 X39.093 Y87.4 I0.2 J0
G1 X40.333 Y87.399
G3 X40.533 Y87.599 I0 J0.2
G1 Y99.396
G3 X40.333 Y99.596 I-0.2 J0
G1 X37.413 Y99.593
G3 X37.213 Y99.393 I0 J-0.2
G1 Y87.599
G3 X37.413 Y87.399 I0.2 J0
G1 X42.013 Y87.402
G3 X42.213 Y87.602 I0 J0.2
G1 Y99.397
G3 X42.014 Y99.597 I-0.2 J0
G1 X39.094 Y99.608
G3 X38.893 Y99.408 I-0.001 J-0.2
G1 Z-6.5
Y99.397
Y87.6
G3 X39.093 Y87.4 I0.2 J0
G1 X40.333 Y87.399
G3 X40.533 Y87.599 I0 J0.2
G1 Y99.396
G3 X40.333 Y99.596 I-0.2 J0
G1 X37.413 Y99.593
G3 X37.213 Y99.393 I0 J-0.2
G1 Y87.599
G3 X37.413 Y87.399 I0.2 J0
G1 X42.013 Y87.402
G3 X42.213 Y87.602 I0 J0.2
G1 Y99.397
G3 X42.014 Y99.597 I-0.2 J0
G1 X39.094 Y99.608
G3 X38.893 Y99.408 I-0.001 J-0.2
G1 Z-7
Y99.397
Y87.6
G3 X39.093 Y87.4 I0.2 J0
G1 X40.333 Y87.399
G3 X40.533 Y87.599 I0 J0.2
G1 Y99.396
G3 X40.333 Y99.596 I-0.2 J0
G1 X37.413 Y99.593
G3 X37.213 Y99.393 I0 J-0.2
G1 Y87.599
G3 X37.413 Y87.399 I0.2 J0
G1 X42.013 Y87.402
G3 X42.213 Y87.602 I0 J0.2
G1 Y99.397
G3 X42.014 Y99.597 I-0.2 J0
G1 X39.094 Y99.608
G3 X38.893 Y99.408 I-0.001 J-0.2
G1 Z-7.5
Y99.397
Y87.6
G3 X39.093 Y87.4 I0.2 J0
G1 X40.333 Y87.399
G3 X40.533 Y87.599 I0 J0.2
G1 Y99.396
G3 X40.333 Y99.596 I-0.2 J0
G1 X37.413 Y99.593
G3 X37.213 Y99.393 I0 J-0.2
G1 Y87.599
G3 X37.413 Y87.399 I0.2 J0
G1 X42.013 Y87.402
G3 X42.213 Y87.602 I0 J0.2
G1 Y99.397
G3 X42.014 Y99.597 I-0.2 J0
G1 X39.094 Y99.608
G3 X38.893 Y99.408 I-0.001 J-0.2
G1 Z-8
Y99.397
Y87.6
G3 X39.093 Y87.4 I0.2 J0
G1 X40.333 Y87.399
G3 X40.533 Y87.599 I0 J0.2
G1 Y99.396
G3 X40.333 Y99.596 I-0.2 J0
G1 X37.413 Y99.593
G3 X37.213 Y99.393 I0 J-0.2
G1 Y87.599
G3 X37.413 Y87.399 I0.2 J0
G1 X42.013 Y87.402
G3 X42.213 Y87.602 I0 J0.2
G1 Y99.397
G3 X42.014 Y99.597 I-0.2 J0
G1 X39.094 Y99.608
G3 X38.893 Y99.408 I-0.001 J-0.2
G1 Z-8.5
Y99.397
Y87.6
G3 X39.093 Y87.4 I0.2 J0
G1 X40.333 Y87.399
G3 X40.533 Y87.599 I0 J0.2
G1 Y99.396
G3 X40.333 Y99.596 I-0.2 J0
G1 X37.413 Y99.593
G3 X37.213 Y99.393 I0 J-0.2
G1 Y87.599
G3 X37.413 Y87.399 I0.2 J0
G1 X42.013 Y87.402
G3 X42.213 Y87.602 I0 J0.2
G1 Y99.397
G3 X42.014 Y99.597 I-0.2 J0
G1 X39.094 Y99.608
G3 X38.893 Y99.408 I-0.001 J-0.2
G1 Z-9
Y99.397
Y87.6
G3 X39.093 Y87.4 I0.2 J0
G1 X40.333 Y87.399
G3 X40.533 Y87.599 I0 J0.2
G1 Y99.396
G3 X40.333 Y99.596 I-0.2 J0
G1 X37.413 Y99.593
G3 X37.213 Y99.393 I0 J-0.2
G1 Y87.599
G3 X37.413 Y87.399 I0.2 J0
G1 X42.013 Y87.402
G3 X42.213 Y87.602 I0 J0.2
G1 Y99.397
G3 X42.014 Y99.597 I-0.2 J0
G1 X39.094 Y99.608
G3 X38.893 Y99.408 I-0.001 J-0.2
G1 Z-9.5
Y99.397
Y87.6
G3 X39.093 Y87.4 I0.2 J0
G1 X40.333 Y87.399
G3 X40.533 Y87.599 I0 J0.2
G1 Y99.396
G3 X40.333 Y99.596 I-0.2 J0
G1 X37.413 Y99.593
G3 X37.213 Y99.393 I0 J-0.2
G1 Y87.599
G3 X37.413 Y87.399 I0.2 J0
G1 X42.013 Y87.402
G3 X42.213 Y87.602 I0 J0.2
G1 Y99.397
G3 X42.014 Y99.597 I-0.2 J0
G1 X39.094 Y99.608
G3 X38.893 Y99.408 I-0.001 J-0.2
G1 Z-10
Y99.397
Y87.6
G3 X39.093 Y87.4 I0.2 J0
G1 X40.333 Y87.399
G3 X40.533 Y87.599 I0 J0.2
G1 Y99.396
G3 X40.333 Y99.596 I-0.2 J0
G1 X37.413 Y99.593
G3 X37.213 Y99.393 I0 J-0.2
G1 Y87.599
G3 X37.413 Y87.399 I0.2 J0
G1 X42.013 Y87.402
G3 X42.213 Y87.602 I0 J0.2
G1 Y99.397
G3 X42.014 Y99.597 I-0.2 J0
G1 X39.094 Y99.608
G3 X38.893 Y99.408 I-0.001 J-0.2
G1 Z-10.5
Y99.397
Y87.6
G3 X39.093 Y87.4 I0.2 J0
G1 X40.333 Y87.399
G3 X40.533 Y87.599 I0 J0.2
G1 Y99.396
G3 X40.333 Y99.596 I-0.2 J0
G1 X37.413 Y99.593
G3 X37.213 Y99.393 I0 J-0.2
G1 Y87.599
G3 X37.413 Y87.399 I0.2 J0
G1 X42.013 Y87.402
G3 X42.213 Y87.602 I0 J0.2
G1 Y99.397
G3 X42.014 Y99.597 I-0.2 J0
G1 X39.094 Y99.608
G3 X38.893 Y99.408 I-0.001 J-0.2
G1 Z-10.875
Y99.397
Y87.6
G3 X39.093 Y87.4 I0.2 J0
G1 X40.333 Y87.399
G3 X40.533 Y87.599 I0 J0.2
G1 Y99.396
G3 X40.333 Y99.596 I-0.2 J0
G1 X37.413 Y99.593
G3 X37.213 Y99.393 I0 J-0.2
G1 Y87.599
G3 X37.413 Y87.399 I0.2 J0
G1 X42.013 Y87.402
G3 X42.213 Y87.602 I0 J0.2
G1 Y99.397
G0 Z6
X29.893 Y99.408
Z2
G1 Z1.5 F700
Z-0.5
Y99.397
Y87.6
G3 X30.093 Y87.4 I0.2 J0
G1 X31.333 Y87.399
G3 X31.533 Y87.599 I0 J0.2
G1 Y99.396
G3 X31.333 Y99.596 I-0.2 J0
G1 X28.413 Y99.593
G3 X28.213 Y99.393 I0 J-0.2
G1 Y87.599
G3 X28.413 Y87.399 I0.2 J0
G1 X33.013 Y87.402
G3 X33.213 Y87.602 I0 J0.2
G1 Y99.397
G3 X33.014 Y99.597 I-0.2 J0
G1 X30.094 Y99.608
G3 X29.893 Y99.408 I-0.001 J-0.2
G1 Z-1
Y99.397
Y87.6
G3 X30.093 Y87.4 I0.2 J0
G1 X31.333 Y87.399
G3 X31.533 Y87.599 I0 J0.2
G1 Y99.396
G3 X31.333 Y99.596 I-0.2 J0
G1 X28.413 Y99.593
G3 X28.213 Y99.393 I0 J-0.2
G1 Y87.599
G3 X28.413 Y87.399 I0.2 J0
G1 X33.013 Y87.402
G3 X33.213 Y87.602 I0 J0.2
G1 Y99.397
G3 X33.014 Y99.597 I-0.2 J0
G1 X30.094 Y99.608
G3 X29.893 Y99.408 I-0.001 J-0.2
G1 Z-1.5
Y99.397
Y87.6
G3 X30.093 Y87.4 I0.2 J0
G1 X31.333 Y87.399
G3 X31.533 Y87.599 I0 J0.2
G1 Y99.396
G3 X31.333 Y99.596 I-0.2 J0
G1 X28.413 Y99.593
G3 X28.213 Y99.393 I0 J-0.2
G1 Y87.599
G3 X28.413 Y87.399 I0.2 J0
G1 X33.013 Y87.402
G3 X33.213 Y87.602 I0 J0.2
G1 Y99.397
G3 X33.014 Y99.597 I-0.2 J0
G1 X30.094 Y99.608
G3 X29.893 Y99.408 I-0.001 J-0.2
G1 Z-2
Y99.397
Y87.6
G3 X30.093 Y87.4 I0.2 J0
G1 X31.333 Y87.399
G3 X31.533 Y87.599 I0 J0.2
G1 Y99.396
G3 X31.333 Y99.596 I-0.2 J0
G1 X28.413 Y99.593
G3 X28.213 Y99.393 I0 J-0.2
G1 Y87.599
G3 X28.413 Y87.399 I0.2 J0
G1 X33.013 Y87.402
G3 X33.213 Y87.602 I0 J0.2
G1 Y99.397
G3 X33.014 Y99.597 I-0.2 J0
G1 X30.094 Y99.608
G3 X29.893 Y99.408 I-0.001 J-0.2
G1 Z-2.5
Y99.397
Y87.6
G3 X30.093 Y87.4 I0.2 J0
G1 X31.333 Y87.399
G3 X31.533 Y87.599 I0 J0.2
G1 Y99.396
G3 X31.333 Y99.596 I-0.2 J0
G1 X28.413 Y99.593
G3 X28.213 Y99.393 I0 J-0.2
G1 Y87.599
G3 X28.413 Y87.399 I0.2 J0
G1 X33.013 Y87.402
G3 X33.213 Y87.602 I0 J0.2
G1 Y99.397
G3 X33.014 Y99.597 I-0.2 J0
G1 X30.094 Y99.608
G3 X29.893 Y99.408 I-0.001 J-0.2
G1 Z-3
Y99.397
Y87.6
G3 X30.093 Y87.4 I0.2 J0
G1 X31.333 Y87.399
G3 X31.533 Y87.599 I0 J0.2
G1 Y99.396
G3 X31.333 Y99.596 I-0.2 J0
G1 X28.413 Y99.593
G3 X28.213 Y99.393 I0 J-0.2
G1 Y87.599
G3 X28.413 Y87.399 I0.2 J0
G1 X33.013 Y87.402
G3 X33.213 Y87.602 I0 J0.2
G1 Y99.397
G3 X33.014 Y99.597 I-0.2 J0
G1 X30.094 Y99.608
G3 X29.893 Y99.408 I-0.001 J-0.2
G1 Z-3.5
Y99.397
Y87.6
G3 X30.093 Y87.4 I0.2 J0
G1 X31.333 Y87.399
G3 X31.533 Y87.599 I0 J0.2
G1 Y99.396
G3 X31.333 Y99.596 I-0.2 J0
G1 X28.413 Y99.593
G3 X28.213 Y99.393 I0 J-0.2
G1 Y87.599
G3 X28.413 Y87.399 I0.2 J0
G1 X33.013 Y87.402
G3 X33.213 Y87.602 I0 J0.2
G1 Y99.397
G3 X33.014 Y99.597 I-0.2 J0
G1 X30.094 Y99.608
G3 X29.893 Y99.408 I-0.001 J-0.2
G1 Z-4
Y99.397
Y87.6
G3 X30.093 Y87.4 I0.2 J0
G1 X31.333 Y87.399
G3 X31.533 Y87.599 I0 J0.2
G1 Y99.396
G3 X31.333 Y99.596 I-0.2 J0
G1 X28.413 Y99.593
G3 X28.213 Y99.393 I0 J-0.2
G1 Y87.599
G3 X28.413 Y87.399 I0.2 J0
G1 X33.013 Y87.402
G3 X33.213 Y87.602 I0 J0.2
G1 Y99.397
G3 X33.014 Y99.597 I-0.2 J0
G1 X30.094 Y99.608
G3 X29.893 Y99.408 I-0.001 J-0.2
G1 Z-4.5
Y99.397
Y87.6
G3 X30.093 Y87.4 I0.2 J0
G1 X31.333 Y87.399
G3 X31.533 Y87.599 I0 J0.2
G1 Y99.396
G3 X31.333 Y99.596 I-0.2 J0
G1 X28.413 Y99.593
G3 X28.213 Y99.393 I0 J-0.2
G1 Y87.599
G3 X28.413 Y87.399 I0.2 J0
G1 X33.013 Y87.402
G3 X33.213 Y87.602 I0 J0.2
G1 Y99.397
G3 X33.014 Y99.597 I-0.2 J0
G1 X30.094 Y99.608
G3 X29.893 Y99.408 I-0.001 J-0.2
G1 Z-5
Y99.397
Y87.6
G3 X30.093 Y87.4 I0.2 J0
G1 X31.333 Y87.399
G3 X31.533 Y87.599 I0 J0.2
G1 Y99.396
G3 X31.333 Y99.596 I-0.2 J0
G1 X28.413 Y99.593
G3 X28.213 Y99.393 I0 J-0.2
G1 Y87.599
G3 X28.413 Y87.399 I0.2 J0
G1 X33.013 Y87.402
G3 X33.213 Y87.602 I0 J0.2
G1 Y99.397
G3 X33.014 Y99.597 I-0.2 J0
G1 X30.094 Y99.608
G3 X29.893 Y99.408 I-0.001 J-0.2
G1 Z-5.5
Y99.397
Y87.6
G3 X30.093 Y87.4 I0.2 J0
G1 X31.333 Y87.399
G3 X31.533 Y87.599 I0 J0.2
G1 Y99.396
G3 X31.333 Y99.596 I-0.2 J0
G1 X28.413 Y99.593
G3 X28.213 Y99.393 I0 J-0.2
G1 Y87.599
G3 X28.413 Y87.399 I0.2 J0
G1 X33.013 Y87.402
G3 X33.213 Y87.602 I0 J0.2
G1 Y99.397
G3 X33.014 Y99.597 I-0.2 J0
G1 X30.094 Y99.608
G3 X29.893 Y99.408 I-0.001 J-0.2
G1 Z-6
Y99.397
Y87.6
G3 X30.093 Y87.4 I0.2 J0
G1 X31.333 Y87.399
G3 X31.533 Y87.599 I0 J0.2
G1 Y99.396
G3 X31.333 Y99.596 I-0.2 J0
G1 X28.413 Y99.593
G3 X28.213 Y99.393 I0 J-0.2
G1 Y87.599
G3 X28.413 Y87.399 I0.2 J0
G1 X33.013 Y87.402
G3 X33.213 Y87.602 I0 J0.2
G1 Y99.397
G3 X33.014 Y99.597 I-0.2 J0
G1 X30.094 Y99.608
G3 X29.893 Y99.408 I-0.001 J-0.2
G1 Z-6.5
Y99.397
Y87.6
G3 X30.093 Y87.4 I0.2 J0
G1 X31.333 Y87.399
G3 X31.533 Y87.599 I0 J0.2
G1 Y99.396
G3 X31.333 Y99.596 I-0.2 J0
G1 X28.413 Y99.593
G3 X28.213 Y99.393 I0 J-0.2
G1 Y87.599
G3 X28.413 Y87.399 I0.2 J0
G1 X33.013 Y87.402
G3 X33.213 Y87.602 I0 J0.2
G1 Y99.397
G3 X33.014 Y99.597 I-0.2 J0
G1 X30.094 Y99.608
G3 X29.893 Y99.408 I-0.001 J-0.2
G1 Z-7
Y99.397
Y87.6
G3 X30.093 Y87.4 I0.2 J0
G1 X31.333 Y87.399
G3 X31.533 Y87.599 I0 J0.2
G1 Y99.396
G3 X31.333 Y99.596 I-0.2 J0
G1 X28.413 Y99.593
G3 X28.213 Y99.393 I0 J-0.2
G1 Y87.599
G3 X28.413 Y87.399 I0.2 J0
G1 X33.013 Y87.402
G3 X33.213 Y87.602 I0 J0.2
G1 Y99.397
G3 X33.014 Y99.597 I-0.2 J0
G1 X30.094 Y99.608
G3 X29.893 Y99.408 I-0.001 J-0.2
G1 Z-7.5
Y99.397
Y87.6
G3 X30.093 Y87.4 I0.2 J0
G1 X31.333 Y87.399
G3 X31.533 Y87.599 I0 J0.2
G1 Y99.396
G3 X31.333 Y99.596 I-0.2 J0
G1 X28.413 Y99.593
G3 X28.213 Y99.393 I0 J-0.2
G1 Y87.599
G3 X28.413 Y87.399 I0.2 J0
G1 X33.013 Y87.402
G3 X33.213 Y87.602 I0 J0.2
G1 Y99.397
G3 X33.014 Y99.597 I-0.2 J0
G1 X30.094 Y99.608
G3 X29.893 Y99.408 I-0.001 J-0.2
G1 Z-8
Y99.397
Y87.6
G3 X30.093 Y87.4 I0.2 J0
G1 X31.333 Y87.399
G3 X31.533 Y87.599 I0 J0.2
G1 Y99.396
G3 X31.333 Y99.596 I-0.2 J0
G1 X28.413 Y99.593
G3 X28.213 Y99.393 I0 J-0.2
G1 Y87.599
G3 X28.413 Y87.399 I0.2 J0
G1 X33.013 Y87.402
G3 X33.213 Y87.602 I0 J0.2
G1 Y99.397
G3 X33.014 Y99.597 I-0.2 J0
G1 X30.094 Y99.608
G3 X29.893 Y99.408 I-0.001 J-0.2
G1 Z-8.5
Y99.397
Y87.6
G3 X30.093 Y87.4 I0.2 J0
G1 X31.333 Y87.399
G3 X31.533 Y87.599 I0 J0.2
G1 Y99.396
G3 X31.333 Y99.596 I-0.2 J0
G1 X28.413 Y99.593
G3 X28.213 Y99.393 I0 J-0.2
G1 Y87.599
G3 X28.413 Y87.399 I0.2 J0
G1 X33.013 Y87.402
G3 X33.213 Y87.602 I0 J0.2
G1 Y99.397
G3 X33.014 Y99.597 I-0.2 J0
G1 X30.094 Y99.608
G3 X29.893 Y99.408 I-0.001 J-0.2
G1 Z-9
Y99.397
Y87.6
G3 X30.093 Y87.4 I0.2 J0
G1 X31.333 Y87.399
G3 X31.533 Y87.599 I0 J0.2
G1 Y99.396
G3 X31.333 Y99.596 I-0.2 J0
G1 X28.413 Y99.593
G3 X28.213 Y99.393 I0 J-0.2
G1 Y87.599
G3 X28.413 Y87.399 I0.2 J0
G1 X33.013 Y87.402
G3 X33.213 Y87.602 I0 J0.2
G1 Y99.397
G3 X33.014 Y99.597 I-0.2 J0
G1 X30.094 Y99.608
G3 X29.893 Y99.408 I-0.001 J-0.2
G1 Z-9.5
Y99.397
Y87.6
G3 X30.093 Y87.4 I0.2 J0
G1 X31.333 Y87.399
G3 X31.533 Y87.599 I0 J0.2
G1 Y99.396
G3 X31.333 Y99.596 I-0.2 J0
G1 X28.413 Y99.593
G3 X28.213 Y99.393 I0 J-0.2
G1 Y87.599
G3 X28.413 Y87.399 I0.2 J0
G1 X33.013 Y87.402
G3 X33.213 Y87.602 I0 J0.2
G1 Y99.397
G3 X33.014 Y99.597 I-0.2 J0
G1 X30.094 Y99.608
G3 X29.893 Y99.408 I-0.001 J-0.2
G1 Z-10
Y99.397
Y87.6
G3 X30.093 Y87.4 I0.2 J0
G1 X31.333 Y87.399
G3 X31.533 Y87.599 I0 J0.2
G1 Y99.396
G3 X31.333 Y99.596 I-0.2 J0
G1 X28.413 Y99.593
G3 X28.213 Y99.393 I0 J-0.2
G1 Y87.599
G3 X28.413 Y87.399 I0.2 J0
G1 X33.013 Y87.402
G3 X33.213 Y87.602 I0 J0.2
G1 Y99.397
G3 X33.014 Y99.597 I-0.2 J0
G1 X30.094 Y99.608
G3 X29.893 Y99.408 I-0.001 J-0.2
G1 Z-10.5
Y99.397
Y87.6
G3 X30.093 Y87.4 I0.2 J0
G1 X31.333 Y87.399
G3 X31.533 Y87.599 I0 J0.2
G1 Y99.396
G3 X31.333 Y99.596 I-0.2 J0
G1 X28.413 Y99.593
G3 X28.213 Y99.393 I0 J-0.2
G1 Y87.599
G3 X28.413 Y87.399 I0.2 J0
G1 X33.013 Y87.402
G3 X33.213 Y87.602 I0 J0.2
G1 Y99.397
G3 X33.014 Y99.597 I-0.2 J0
G1 X30.094 Y99.608
G3 X29.893 Y99.408 I-0.001 J-0.2
G1 Z-10.875
Y99.397
Y87.6
G3 X30.093 Y87.4 I0.2 J0
G1 X31.333 Y87.399
G3 X31.533 Y87.599 I0 J0.2
G1 Y99.396
G3 X31.333 Y99.596 I-0.2 J0
G1 X28.413 Y99.593
G3 X28.213 Y99.393 I0 J-0.2
G1 Y87.599
G3 X28.413 Y87.399 I0.2 J0
G1 X33.013 Y87.402
G3 X33.213 Y87.602 I0 J0.2
G1 Y99.397
G0 Z6
X20.893 Y99.408
Z2
G1 Z1.5 F700
Z-0.5
Y99.397
Y87.6
G3 X21.093 Y87.4 I0.2 J0
G1 X22.333 Y87.399
G3 X22.533 Y87.599 I0 J0.2
G1 Y99.396
G3 X22.333 Y99.596 I-0.2 J0
G1 X19.413 Y99.593
G3 X19.213 Y99.393 I0 J-0.2
G1 Y87.599
G3 X19.413 Y87.399 I0.2 J0
G1 X24.013 Y87.402
G3 X24.213 Y87.602 I0 J0.2
G1 Y99.397
G3 X24.014 Y99.597 I-0.2 J0
G1 X21.094 Y99.608
G3 X20.893 Y99.408 I-0.001 J-0.2
G1 Z-1
Y99.397
Y87.6
G3 X21.093 Y87.4 I0.2 J0
G1 X22.333 Y87.399
G3 X22.533 Y87.599 I0 J0.2
G1 Y99.396
G3 X22.333 Y99.596 I-0.2 J0
G1 X19.413 Y99.593
G3 X19.213 Y99.393 I0 J-0.2
G1 Y87.599
G3 X19.413 Y87.399 I0.2 J0
G1 X24.013 Y87.402
G3 X24.213 Y87.602 I0 J0.2
G1 Y99.397
G3 X24.014 Y99.597 I-0.2 J0
G1 X21.094 Y99.608
G3 X20.893 Y99.408 I-0.001 J-0.2
G1 Z-1.5
Y99.397
Y87.6
G3 X21.093 Y87.4 I0.2 J0
G1 X22.333 Y87.399
G3 X22.533 Y87.599 I0 J0.2
G1 Y99.396
G3 X22.333 Y99.596 I-0.2 J0
G1 X19.413 Y99.593
G3 X19.213 Y99.393 I0 J-0.2
G1 Y87.599
G3 X19.413 Y87.399 I0.2 J0
G1 X24.013 Y87.402
G3 X24.213 Y87.602 I0 J0.2
G1 Y99.397
G3 X24.014 Y99.597 I-0.2 J0
G1 X21.094 Y99.608
G3 X20.893 Y99.408 I-0.001 J-0.2
G1 Z-2
Y99.397
Y87.6
G3 X21.093 Y87.4 I0.2 J0
G1 X22.333 Y87.399
G3 X22.533 Y87.599 I0 J0.2
G1 Y99.396
G3 X22.333 Y99.596 I-0.2 J0
G1 X19.413 Y99.593
G3 X19.213 Y99.393 I0 J-0.2
G1 Y87.599
G3 X19.413 Y87.399 I0.2 J0
G1 X24.013 Y87.402
G3 X24.213 Y87.602 I0 J0.2
G1 Y99.397
G3 X24.014 Y99.597 I-0.2 J0
G1 X21.094 Y99.608
G3 X20.893 Y99.408 I-0.001 J-0.2
G1 Z-2.5
Y99.397
Y87.6
G3 X21.093 Y87.4 I0.2 J0
G1 X22.333 Y87.399
G3 X22.533 Y87.599 I0 J0.2
G1 Y99.396
G3 X22.333 Y99.596 I-0.2 J0
G1 X19.413 Y99.593
G3 X19.213 Y99.393 I0 J-0.2
G1 Y87.599
G3 X19.413 Y87.399 I0.2 J0
G1 X24.013 Y87.402
G3 X24.213 Y87.602 I0 J0.2
G1 Y99.397
G3 X24.014 Y99.597 I-0.2 J0
G1 X21.094 Y99.608
G3 X20.893 Y99.408 I-0.001 J-0.2
G1 Z-3
Y99.397
Y87.6
G3 X21.093 Y87.4 I0.2 J0
G1 X22.333 Y87.399
G3 X22.533 Y87.599 I0 J0.2
G1 Y99.396
G3 X22.333 Y99.596 I-0.2 J0
G1 X19.413 Y99.593
G3 X19.213 Y99.393 I0 J-0.2
G1 Y87.599
G3 X19.413 Y87.399 I0.2 J0
G1 X24.013 Y87.402
G3 X24.213 Y87.602 I0 J0.2
G1 Y99.397
G3 X24.014 Y99.597 I-0.2 J0
G1 X21.094 Y99.608
G3 X20.893 Y99.408 I-0.001 J-0.2
G1 Z-3.5
Y99.397
Y87.6
G3 X21.093 Y87.4 I0.2 J0
G1 X22.333 Y87.399
G3 X22.533 Y87.599 I0 J0.2
G1 Y99.396
G3 X22.333 Y99.596 I-0.2 J0
G1 X19.413 Y99.593
G3 X19.213 Y99.393 I0 J-0.2
G1 Y87.599
G3 X19.413 Y87.399 I0.2 J0
G1 X24.013 Y87.402
G3 X24.213 Y87.602 I0 J0.2
G1 Y99.397
G3 X24.014 Y99.597 I-0.2 J0
G1 X21.094 Y99.608
G3 X20.893 Y99.408 I-0.001 J-0.2
G1 Z-4
Y99.397
Y87.6
G3 X21.093 Y87.4 I0.2 J0
G1 X22.333 Y87.399
G3 X22.533 Y87.599 I0 J0.2
G1 Y99.396
G3 X22.333 Y99.596 I-0.2 J0
G1 X19.413 Y99.593
G3 X19.213 Y99.393 I0 J-0.2
G1 Y87.599
G3 X19.413 Y87.399 I0.2 J0
G1 X24.013 Y87.402
G3 X24.213 Y87.602 I0 J0.2
G1 Y99.397
G3 X24.014 Y99.597 I-0.2 J0
G1 X21.094 Y99.608
G3 X20.893 Y99.408 I-0.001 J-0.2
G1 Z-4.5
Y99.397
Y87.6
G3 X21.093 Y87.4 I0.2 J0
G1 X22.333 Y87.399
G3 X22.533 Y87.599 I0 J0.2
G1 Y99.396
G3 X22.333 Y99.596 I-0.2 J0
G1 X19.413 Y99.593
G3 X19.213 Y99.393 I0 J-0.2
G1 Y87.599
G3 X19.413 Y87.399 I0.2 J0
G1 X24.013 Y87.402
G3 X24.213 Y87.602 I0 J0.2
G1 Y99.397
G3 X24.014 Y99.597 I-0.2 J0
G1 X21.094 Y99.608
G3 X20.893 Y99.408 I-0.001 J-0.2
G1 Z-5
Y99.397
Y87.6
G3 X21.093 Y87.4 I0.2 J0
G1 X22.333 Y87.399
G3 X22.533 Y87.599 I0 J0.2
G1 Y99.396
G3 X22.333 Y99.596 I-0.2 J0
G1 X19.413 Y99.593
G3 X19.213 Y99.393 I0 J-0.2
G1 Y87.599
G3 X19.413 Y87.399 I0.2 J0
G1 X24.013 Y87.402
G3 X24.213 Y87.602 I0 J0.2
G1 Y99.397
G3 X24.014 Y99.597 I-0.2 J0
G1 X21.094 Y99.608
G3 X20.893 Y99.408 I-0.001 J-0.2
G1 Z-5.5
Y99.397
Y87.6
G3 X21.093 Y87.4 I0.2 J0
G1 X22.333 Y87.399
G3 X22.533 Y87.599 I0 J0.2
G1 Y99.396
G3 X22.333 Y99.596 I-0.2 J0
G1 X19.413 Y99.593
G3 X19.213 Y99.393 I0 J-0.2
G1 Y87.599
G3 X19.413 Y87.399 I0.2 J0
G1 X24.013 Y87.402
G3 X24.213 Y87.602 I0 J0.2
G1 Y99.397
G3 X24.014 Y99.597 I-0.2 J0
G1 X21.094 Y99.608
G3 X20.893 Y99.408 I-0.001 J-0.2
G1 Z-6
Y99.397
Y87.6
G3 X21.093 Y87.4 I0.2 J0
G1 X22.333 Y87.399
G3 X22.533 Y87.599 I0 J0.2
G1 Y99.396
G3 X22.333 Y99.596 I-0.2 J0
G1 X19.413 Y99.593
G3 X19.213 Y99.393 I0 J-0.2
G1 Y87.599
G3 X19.413 Y87.399 I0.2 J0
G1 X24.013 Y87.402
G3 X24.213 Y87.602 I0 J0.2
G1 Y99.397
G3 X24.014 Y99.597 I-0.2 J0
G1 X21.094 Y99.608
G3 X20.893 Y99.408 I-0.001 J-0.2
G1 Z-6.5
Y99.397
Y87.6
G3 X21.093 Y87.4 I0.2 J0
G1 X22.333 Y87.399
G3 X22.533 Y87.599 I0 J0.2
G1 Y99.396
G3 X22.333 Y99.596 I-0.2 J0
G1 X19.413 Y99.593
G3 X19.213 Y99.393 I0 J-0.2
G1 Y87.599
G3 X19.413 Y87.399 I0.2 J0
G1 X24.013 Y87.402
G3 X24.213 Y87.602 I0 J0.2
G1 Y99.397
G3 X24.014 Y99.597 I-0.2 J0
G1 X21.094 Y99.608
G3 X20.893 Y99.408 I-0.001 J-0.2
G1 Z-7
Y99.397
Y87.6
G3 X21.093 Y87.4 I0.2 J0
G1 X22.333 Y87.399
G3 X22.533 Y87.599 I0 J0.2
G1 Y99.396
G3 X22.333 Y99.596 I-0.2 J0
G1 X19.413 Y99.593
G3 X19.213 Y99.393 I0 J-0.2
G1 Y87.599
G3 X19.413 Y87.399 I0.2 J0
G1 X24.013 Y87.402
G3 X24.213 Y87.602 I0 J0.2
G1 Y99.397
G3 X24.014 Y99.597 I-0.2 J0
G1 X21.094 Y99.608
G3 X20.893 Y99.408 I-0.001 J-0.2
G1 Z-7.5
Y99.397
Y87.6
G3 X21.093 Y87.4 I0.2 J0
G1 X22.333 Y87.399
G3 X22.533 Y87.599 I0 J0.2
G1 Y99.396
G3 X22.333 Y99.596 I-0.2 J0
G1 X19.413 Y99.593
G3 X19.213 Y99.393 I0 J-0.2
G1 Y87.599
G3 X19.413 Y87.399 I0.2 J0
G1 X24.013 Y87.402
G3 X24.213 Y87.602 I0 J0.2
G1 Y99.397
G3 X24.014 Y99.597 I-0.2 J0
G1 X21.094 Y99.608
G3 X20.893 Y99.408 I-0.001 J-0.2
G1 Z-8
Y99.397
Y87.6
G3 X21.093 Y87.4 I0.2 J0
G1 X22.333 Y87.399
G3 X22.533 Y87.599 I0 J0.2
G1 Y99.396
G3 X22.333 Y99.596 I-0.2 J0
G1 X19.413 Y99.593
G3 X19.213 Y99.393 I0 J-0.2
G1 Y87.599
G3 X19.413 Y87.399 I0.2 J0
G1 X24.013 Y87.402
G3 X24.213 Y87.602 I0 J0.2
G1 Y99.397
G3 X24.014 Y99.597 I-0.2 J0
G1 X21.094 Y99.608
G3 X20.893 Y99.408 I-0.001 J-0.2
G1 Z-8.5
Y99.397
Y87.6
G3 X21.093 Y87.4 I0.2 J0
G1 X22.333 Y87.399
G3 X22.533 Y87.599 I0 J0.2
G1 Y99.396
G3 X22.333 Y99.596 I-0.2 J0
G1 X19.413 Y99.593
G3 X19.213 Y99.393 I0 J-0.2
G1 Y87.599
G3 X19.413 Y87.399 I0.2 J0
G1 X24.013 Y87.402
G3 X24.213 Y87.602 I0 J0.2
G1 Y99.397
G3 X24.014 Y99.597 I-0.2 J0
G1 X21.094 Y99.608
G3 X20.893 Y99.408 I-0.001 J-0.2
G1 Z-9
Y99.397
Y87.6
G3 X21.093 Y87.4 I0.2 J0
G1 X22.333 Y87.399
G3 X22.533 Y87.599 I0 J0.2
G1 Y99.396
G3 X22.333 Y99.596 I-0.2 J0
G1 X19.413 Y99.593
G3 X19.213 Y99.393 I0 J-0.2
G1 Y87.599
G3 X19.413 Y87.399 I0.2 J0
G1 X24.013 Y87.402
G3 X24.213 Y87.602 I0 J0.2
G1 Y99.397
G3 X24.014 Y99.597 I-0.2 J0
G1 X21.094 Y99.608
G3 X20.893 Y99.408 I-0.001 J-0.2
G1 Z-9.5
Y99.397
Y87.6
G3 X21.093 Y87.4 I0.2 J0
G1 X22.333 Y87.399
G3 X22.533 Y87.599 I0 J0.2
G1 Y99.396
G3 X22.333 Y99.596 I-0.2 J0
G1 X19.413 Y99.593
G3 X19.213 Y99.393 I0 J-0.2
G1 Y87.599
G3 X19.413 Y87.399 I0.2 J0
G1 X24.013 Y87.402
G3 X24.213 Y87.602 I0 J0.2
G1 Y99.397
G3 X24.014 Y99.597 I-0.2 J0
G1 X21.094 Y99.608
G3 X20.893 Y99.408 I-0.001 J-0.2
G1 Z-10
Y99.397
Y87.6
G3 X21.093 Y87.4 I0.2 J0
G1 X22.333 Y87.399
G3 X22.533 Y87.599 I0 J0.2
G1 Y99.396
G3 X22.333 Y99.596 I-0.2 J0
G1 X19.413 Y99.593
G3 X19.213 Y99.393 I0 J-0.2
G1 Y87.599
G3 X19.413 Y87.399 I0.2 J0
G1 X24.013 Y87.402
G3 X24.213 Y87.602 I0 J0.2
G1 Y99.397
G3 X24.014 Y99.597 I-0.2 J0
G1 X21.094 Y99.608
G3 X20.893 Y99.408 I-0.001 J-0.2
G1 Z-10.5
Y99.397
Y87.6
G3 X21.093 Y87.4 I0.2 J0
G1 X22.333 Y87.399
G3 X22.533 Y87.599 I0 J0.2
G1 Y99.396
G3 X22.333 Y99.596 I-0.2 J0
G1 X19.413 Y99.593
G3 X19.213 Y99.393 I0 J-0.2
G1 Y87.599
G3 X19.413 Y87.399 I0.2 J0
G1 X24.013 Y87.402
G3 X24.213 Y87.602 I0 J0.2
G1 Y99.397
G3 X24.014 Y99.597 I-0.2 J0
G1 X21.094 Y99.608
G3 X20.893 Y99.408 I-0.001 J-0.2
G1 Z-10.875
Y99.397
Y87.6
G3 X21.093 Y87.4 I0.2 J0
G1 X22.333 Y87.399
G3 X22.533 Y87.599 I0 J0.2
G1 Y99.396
G3 X22.333 Y99.596 I-0.2 J0
G1 X19.413 Y99.593
G3 X19.213 Y99.393 I0 J-0.2
G1 Y87.599
G3 X19.413 Y87.399 I0.2 J0
G1 X24.013 Y87.402
G3 X24.213 Y87.602 I0 J0.2
G1 Y99.397
G0 Z6
X103.96 Y63.488
Z2
G1 Z1.5 F700
Z-0.5
Y63.476
X103.95 Y36.483
G3 X104.873 Y36.483 I0.461 J0
G1 X104.878 Y49.979
X104.422 Y63.476
X104.414 Y63.545
X104.396 Y63.612
X104.369 Y63.676
X100.825 Y70.384
G2 X101.029 Y71.013 I0.408 J0.216
X101.652 Y70.792 I0.204 J-0.414
X102.118 Y68.659 I-4.652 J-2.132
G1 X102.103 Y29.6
Y29.588
G0 Z4
X98.4 Y75.545
Z2
G1 Z1.5 F700
Z-0.5
X98.389
X91.326 Y75.542
G2 X87.349 Y77.438 I0 J5.118
X84.192 Y77.575 I0 J36.324
X81.953 Y79.806 I0.214 J2.454
X81.933 Y80.061 I9.373 J0.854
G1 X81.923 Y80.097
X81.901 Y80.127
X81.869 Y80.147
X81.832 Y80.153
X81.796 Y80.144
X81.765 Y80.123
X81.744 Y80.092
X81.737 Y80.055
Y69.264
X81.744 Y69.227
X81.765 Y69.196
X81.796 Y69.174
X81.832 Y69.166
X81.869 Y69.172
X81.901 Y69.191
X81.923 Y69.221
X81.933 Y69.257
G2 X83.863 Y74.394 I9.393 J-0.598
G3 X83.863 Y74.925 I-0.345 J0.265
G2 X81.953 Y79.806 I7.463 J5.735
X82.556 Y81.133 I1.467 J0.134
G3 X82.107 Y82.52 I-0.449 J0.621
G1 X79.722
G3 X79.443 Y82.218 I0 J-0.28
X79.468 Y81.939 I12.034 J0.944
G2 X79.482 Y81.659 I-2.745 J-0.28
G1 Y67.659
G2 X79.468 Y67.38 I-2.76 J0
G3 X79.443 Y67.101 I12.009 J-1.223
X79.722 Y66.799 I0.279 J-0.022
G1 X83.873
G3 X84.186 Y67.112 I0 J0.313
X84.164 Y67.885 I-13.59 J0
G2 X84.142 Y68.659 I13.568 J0.774
X84.963 Y71.946 I6.991 J0
X87.202 Y74.488 I6.479 J-3.451
G3 X87.202 Y74.831 I-0.122 J0.172
G2 X84.963 Y77.373 I4.24 J5.993
X84.142 Y80.659 I6.17 J3.287
X84.164 Y81.433 I13.59 J0
G3 X84.186 Y82.207 I-13.568 J0.774
X83.873 Y82.52 I-0.313 J0
G1 X82.107
G3 X81.423 Y81.715 I0 J-0.694
G1 X81.966 Y78.362
G3 X83.886 Y76.44 I2.217 J0.294
G1 X97.257 Y74.651
X97.425 Y74.635
X97.478 Y74.636
X97.531 Y74.646
X98.476 Y74.913
G3 X98.389 Y75.545 I-0.087 J0.31
G1 X91.326 Y75.542
G2 X86.208 Y80.659 I0 J5.118
X86.23 Y82.463 I72.328 J0
G3 X86.253 Y84.267 I-72.305 J1.804
X85.933 Y84.587 I-0.319 J0
G1 X76.799
G3 X76.647 Y84.315 I0 J-0.178
G2 X77.229 Y83.042 I-4.894 J-3.007
X77.443 Y81.659 I-4.367 J-1.383
G1 Y67.659
G2 X77.229 Y66.276 I-4.58 J0
X76.647 Y65.004 I-5.476 J1.734
G3 X76.799 Y64.732 I0.152 J-0.093
G1 X85.933
G3 X86.253 Y65.051 I0 J0.319
X86.23 Y66.855 I-72.328 J0
G2 X86.208 Y68.659 I72.305 J1.804
X91.326 Y73.777 I5.118 J0
G1 X97
G2 X98.541 Y73.54 I0 J-5.118
G3 X98.801 Y73.742 I0.06 J0.191
G1 X98.596 Y77.25
G3 X98.397 Y77.438 I-0.2 J-0.012
G1 X91.326 Y77.434
G2 X88.101 Y80.659 I0 J3.225
X88.123 Y83.41 I168.106 J0
G3 X88.146 Y86.16 I-168.084 J2.75
X87.826 Y86.479 I-0.319 J0
G1 X67.825
G3 X67.506 Y86.16 I0 J-0.319
G1 Y85.159
G3 X67.825 Y84.839 I0.319 J0
G1 X72.37
G2 X75.55 Y81.659 I0 J-3.18
G1 Y67.659
G2 X72.37 Y64.479 I-3.18 J0
G1 X67.825
G3 X67.506 Y64.16 I0 J-0.319
G1 Y63.159
G3 X67.825 Y62.839 I0.319 J0
G1 X87.826
G3 X88.146 Y63.159 I0 J0.319
X88.123 Y65.909 I-168.107 J0
G2 X88.101 Y68.659 I168.084 J2.75
X91.326 Y71.884 I3.225 J0
G1 X97
G2 X100.225 Y68.659 I0 J-3.225
G1 X100.21 Y28.59
Y28.579
G0 Z4
X98.417 Y79.158
Z2
G1 Z1.5 F700
Z-0.5
X98.393 Y79.159
X91.326
G2 X89.826 Y80.659 I0 J1.5
G1 Y88.159
X65.826
Y83.159
X72.326
G2 X73.826 Y81.659 I0 J-1.5
G1 Y67.659
G2 X72.326 Y66.159 I-1.5 J0
G1 X65.826
Y61.159
X89.826
Y68.659
G2 X91.326 Y70.159 I1.5 J0
G1 X97
G2 X98.5 Y68.659 I0 J-1.5
G1 Y26.15
G3 X99.93 Y24.725 Z-0.524 I1.425 J0 F333.3
X101.35 Y26.159 Z-0.548 I-0.005 J1.425
G1 X101.11 Y63.467 Z-0.952
G2 X102.531 Y64.902 Z-0.976 I1.425 J0.009
X103.96 Y63.476 Z-1 I0.004 J-1.425
G1 X103.95 Y36.483 F700
G3 X104.873 Y36.483 I0.461 J0
G1 X104.878 Y49.979
X104.422 Y63.476
X104.414 Y63.545
X104.396 Y63.612
X104.369 Y63.676
X100.825 Y70.384
G2 X101.029 Y71.013 I0.408 J0.216
X101.652 Y70.792 I0.204 J-0.414
X102.118 Y68.659 I-4.652 J-2.132
G1 X102.103 Y29.6
Y29.588
Z1
X98.4 Y75.545
Z-1
X98.389
X91.326 Y75.542
G2 X87.349 Y77.438 I0 J5.118
X84.192 Y77.575 I0 J36.324
X81.953 Y79.806 I0.214 J2.454
X81.933 Y80.061 I9.373 J0.854
G1 X81.923 Y80.097
X81.901 Y80.127
X81.869 Y80.147
X81.832 Y80.153
X81.796 Y80.144
X81.765 Y80.123
X81.744 Y80.092
X81.737 Y80.055
Y69.264
X81.744 Y69.227
X81.765 Y69.196
X81.796 Y69.174
X81.832 Y69.166
X81.869 Y69.172
X81.901 Y69.191
X81.923 Y69.221
X81.933 Y69.257
G2 X83.863 Y74.394 I9.393 J-0.598
G3 X83.863 Y74.925 I-0.345 J0.265
G2 X81.953 Y79.806 I7.463 J5.735
X82.556 Y81.133 I1.467 J0.134
G3 X82.107 Y82.52 I-0.449 J0.621
G1 X79.722
G3 X79.443 Y82.218 I0 J-0.28
X79.468 Y81.939 I12.034 J0.944
G2 X79.482 Y81.659 I-2.745 J-0.28
G1 Y67.659
G2 X79.468 Y67.38 I-2.76 J0
G3 X79.443 Y67.101 I12.009 J-1.223
X79.722 Y66.799 I0.279 J-0.022
G1 X83.873
G3 X84.186 Y67.112 I0 J0.313
X84.164 Y67.885 I-13.59 J0
G2 X84.142 Y68.659 I13.568 J0.774
X84.963 Y71.946 I6.991 J0
X87.202 Y74.488 I6.479 J-3.451
G3 X87.202 Y74.831 I-0.122 J0.172
G2 X84.963 Y77.373 I4.24 J5.993
X84.142 Y80.659 I6.17 J3.287
X84.164 Y81.433 I13.59 J0
G3 X84.186 Y82.207 I-13.568 J0.774
X83.873 Y82.52 I-0.313 J0
G1 X82.107
G3 X81.423 Y81.715 I0 J-0.694
G1 X81.966 Y78.362
G3 X83.886 Y76.44 I2.217 J0.294
G1 X97.257 Y74.651
X97.425 Y74.635
X97.478 Y74.636
X97.531 Y74.646
X98.476 Y74.913
G3 X98.389 Y75.545 I-0.087 J0.31
G1 X91.326 Y75.542
G2 X86.208 Y80.659 I0 J5.118
X86.23 Y82.463 I72.328 J0
G3 X86.253 Y84.267 I-72.305 J1.804
X85.933 Y84.587 I-0.319 J0
G1 X76.799
G3 X76.647 Y84.315 I0 J-0.178
G2 X77.229 Y83.042 I-4.894 J-3.007
X77.443 Y81.659 I-4.367 J-1.383
G1 Y67.659
G2 X77.229 Y66.276 I-4.58 J0
X76.647 Y65.004 I-5.476 J1.734
G3 X76.799 Y64.732 I0.152 J-0.093
G1 X85.933
G3 X86.253 Y65.051 I0 J0.319
X86.23 Y66.855 I-72.328 J0
G2 X86.208 Y68.659 I72.305 J1.804
X91.326 Y73.777 I5.118 J0
G1 X97
G2 X98.541 Y73.54 I0 J-5.118
G3 X98.801 Y73.742 I0.06 J0.191
G1 X98.596 Y77.25
G3 X98.397 Y77.438 I-0.2 J-0.012
G1 X91.326 Y77.434
G2 X88.101 Y80.659 I0 J3.225
X88.123 Y83.41 I168.106 J0
G3 X88.146 Y86.16 I-168.084 J2.75
X87.826 Y86.479 I-0.319 J0
G1 X67.825
G3 X67.506 Y86.16 I0 J-0.319
G1 Y85.159
G3 X67.825 Y84.839 I0.319 J0
G1 X72.37
G2 X75.55 Y81.659 I0 J-3.18
G1 Y67.659
G2 X72.37 Y64.479 I-3.18 J0
G1 X67.825
G3 X67.506 Y64.16 I0 J-0.319
G1 Y63.159
G3 X67.825 Y62.839 I0.319 J0
G1 X87.826
G3 X88.146 Y63.159 I0 J0.319
X88.123 Y65.909 I-168.107 J0
G2 X88.101 Y68.659 I168.084 J2.75
X91.326 Y71.884 I3.225 J0
G1 X97
G2 X100.225 Y68.659 I0 J-3.225
G1 X100.21 Y28.59
Y28.579
G0 Z4
X98.417 Y79.158
Z2
G1 Z1 F700
Z-1
X98.393 Y79.159
X91.326
G2 X89.826 Y80.659 I0 J1.5
G1 Y88.159
X65.826
Y83.159
X72.326
G2 X73.826 Y81.659 I0 J-1.5
G1 Y67.659
G2 X72.326 Y66.159 I-1.5 J0
G1 X65.826
Y61.159
X89.826
Y68.659
G2 X91.326 Y70.159 I1.5 J0
G1 X97
G2 X98.5 Y68.659 I0 J-1.5
G1 Y26.15
G3 X99.93 Y24.725 Z-1.024 I1.425 J0 F333.3
X101.35 Y26.159 Z-1.048 I-0.005 J1.425
G1 X101.11 Y63.467 Z-1.452
G2 X102.531 Y64.902 Z-1.476 I1.425 J0.009
X103.96 Y63.476 Z-1.5 I0.004 J-1.425
G1 X103.95 Y36.483 F700
G3 X104.873 Y36.483 I0.461 J0
G1 X104.878 Y49.979
X104.422 Y63.476
X104.414 Y63.545
X104.396 Y63.612
X104.369 Y63.676
X100.825 Y70.384
G2 X101.029 Y71.013 I0.408 J0.216
X101.652 Y70.792 I0.204 J-0.414
X102.118 Y68.659 I-4.652 J-2.132
G1 X102.103 Y29.6
Y29.588
Z0.5
X98.4 Y75.545
Z-1.5
X98.389
X91.326 Y75.542
G2 X87.349 Y77.438 I0 J5.118
X84.192 Y77.575 I0 J36.324
X81.953 Y79.806 I0.214 J2.454
X81.933 Y80.061 I9.373 J0.854
G1 X81.923 Y80.097
X81.901 Y80.127
X81.869 Y80.147
X81.832 Y80.153
X81.796 Y80.144
X81.765 Y80.123
X81.744 Y80.092
X81.737 Y80.055
Y69.264
X81.744 Y69.227
X81.765 Y69.196
X81.796 Y69.174
X81.832 Y69.166
X81.869 Y69.172
X81.901 Y69.191
X81.923 Y69.221
X81.933 Y69.257
G2 X83.863 Y74.394 I9.393 J-0.598
G3 X83.863 Y74.925 I-0.345 J0.265
G2 X81.953 Y79.806 I7.463 J5.735
X82.556 Y81.133 I1.467 J0.134
G3 X82.107 Y82.52 I-0.449 J0.621
G1 X79.722
G3 X79.443 Y82.218 I0 J-0.28
X79.468 Y81.939 I12.034 J0.944
G2 X79.482 Y81.659 I-2.745 J-0.28
G1 Y67.659
G2 X79.468 Y67.38 I-2.76 J0
G3 X79.443 Y67.101 I12.009 J-1.223
X79.722 Y66.799 I0.279 J-0.022
G1 X83.873
G3 X84.186 Y67.112 I0 J0.313
X84.164 Y67.885 I-13.59 J0
G2 X84.142 Y68.659 I13.568 J0.774
X84.963 Y71.946 I6.991 J0
X87.202 Y74.488 I6.479 J-3.451
G3 X87.202 Y74.831 I-0.122 J0.172
G2 X84.963 Y77.373 I4.24 J5.993
X84.142 Y80.659 I6.17 J3.287
X84.164 Y81.433 I13.59 J0
G3 X84.186 Y82.207 I-13.568 J0.774
X83.873 Y82.52 I-0.313 J0
G1 X82.107
G3 X81.423 Y81.715 I0 J-0.694
G1 X81.966 Y78.362
G3 X83.886 Y76.44 I2.217 J0.294
G1 X97.257 Y74.651
X97.425 Y74.635
X97.478 Y74.636
X97.531 Y74.646
X98.476 Y74.913
G3 X98.389 Y75.545 I-0.087 J0.31
G1 X91.326 Y75.542
G2 X86.208 Y80.659 I0 J5.118
X86.23 Y82.463 I72.328 J0
G3 X86.253 Y84.267 I-72.305 J1.804
X85.933 Y84.587 I-0.319 J0
G1 X76.799
G3 X76.647 Y84.315 I0 J-0.178
G2 X77.229 Y83.042 I-4.894 J-3.007
X77.443 Y81.659 I-4.367 J-1.383
G1 Y67.659
G2 X77.229 Y66.276 I-4.58 J0
X76.647 Y65.004 I-5.476 J1.734
G3 X76.799 Y64.732 I0.152 J-0.093
G1 X85.933
G3 X86.253 Y65.051 I0 J0.319
X86.23 Y66.855 I-72.328 J0
G2 X86.208 Y68.659 I72.305 J1.804
X91.326 Y73.777 I5.118 J0
G1 X97
G2 X98.541 Y73.54 I0 J-5.118
G3 X98.801 Y73.742 I0.06 J0.191
G1 X98.596 Y77.25
G3 X98.397 Y77.438 I-0.2 J-0.012
G1 X91.326 Y77.434
G2 X88.101 Y80.659 I0 J3.225
X88.123 Y83.41 I168.106 J0
G3 X88.146 Y86.16 I-168.084 J2.75
X87.826 Y86.479 I-0.319 J0
G1 X67.825
G3 X67.506 Y86.16 I0 J-0.319
G1 Y85.159
G3 X67.825 Y84.839 I0.319 J0
G1 X72.37
G2 X75.55 Y81.659 I0 J-3.18
G1 Y67.659
G2 X72.37 Y64.479 I-3.18 J0
G1 X67.825
G3 X67.506 Y64.16 I0 J-0.319
G1 Y63.159
G3 X67.825 Y62.839 I0.319 J0
G1 X87.826
G3 X88.146 Y63.159 I0 J0.319
X88.123 Y65.909 I-168.107 J0
G2 X88.101 Y68.659 I168.084 J2.75
X91.326 Y71.884 I3.225 J0
G1 X97
G2 X100.225 Y68.659 I0 J-3.225
G1 X100.21 Y28.59
Y28.579
G0 Z4
X98.417 Y79.158
Z2
G1 Z0.5 F700
Z-1.5
X98.393 Y79.159
X91.326
G2 X89.826 Y80.659 I0 J1.5
G1 Y88.159
X65.826
Y83.159
X72.326
G2 X73.826 Y81.659 I0 J-1.5
G1 Y67.659
G2 X72.326 Y66.159 I-1.5 J0
G1 X65.826
Y61.159
X89.826
Y68.659
G2 X91.326 Y70.159 I1.5 J0
G1 X97
G2 X98.5 Y68.659 I0 J-1.5
G1 Y26.15
G3 X99.93 Y24.725 Z-1.524 I1.425 J0 F333.3
X101.35 Y26.159 Z-1.548 I-0.005 J1.425
G1 X101.11 Y63.467 Z-1.952
G2 X102.531 Y64.902 Z-1.976 I1.425 J0.009
X103.96 Y63.476 Z-2 I0.004 J-1.425
G1 X103.95 Y36.483 F700
G3 X104.873 Y36.483 I0.461 J0
G1 X104.878 Y49.979
X104.422 Y63.476
X104.414 Y63.545
X104.396 Y63.612
X104.369 Y63.676
X100.825 Y70.384
G2 X101.029 Y71.013 I0.408 J0.216
X101.652 Y70.792 I0.204 J-0.414
X102.118 Y68.659 I-4.652 J-2.132
G1 X102.103 Y29.6
Y29.588
Z0
X98.4 Y75.545
Z-2
X98.389
X91.326 Y75.542
G2 X87.349 Y77.438 I0 J5.118
X84.192 Y77.575 I0 J36.324
X81.953 Y79.806 I0.214 J2.454
X81.933 Y80.061 I9.373 J0.854
G1 X81.923 Y80.097
X81.901 Y80.127
X81.869 Y80.147
X81.832 Y80.153
X81.796 Y80.144
X81.765 Y80.123
X81.744 Y80.092
X81.737 Y80.055
Y69.264
X81.744 Y69.227
X81.765 Y69.196
X81.796 Y69.174
X81.832 Y69.166
X81.869 Y69.172
X81.901 Y69.191
X81.923 Y69.221
X81.933 Y69.257
G2 X83.863 Y74.394 I9.393 J-0.598
G3 X83.863 Y74.925 I-0.345 J0.265
G2 X81.953 Y79.806 I7.463 J5.735
X82.556 Y81.133 I1.467 J0.134
G3 X82.107 Y82.52 I-0.449 J0.621
G1 X79.722
G3 X79.443 Y82.218 I0 J-0.28
X79.468 Y81.939 I12.034 J0.944
G2 X79.482 Y81.659 I-2.745 J-0.28
G1 Y67.659
G2 X79.468 Y67.38 I-2.76 J0
G3 X79.443 Y67.101 I12.009 J-1.223
X79.722 Y66.799 I0.279 J-0.022
G1 X83.873
G3 X84.186 Y67.112 I0 J0.313
X84.164 Y67.885 I-13.59 J0
G2 X84.142 Y68.659 I13.568 J0.774
X84.963 Y71.946 I6.991 J0
X87.202 Y74.488 I6.479 J-3.451
G3 X87.202 Y74.831 I-0.122 J0.172
G2 X84.963 Y77.373 I4.24 J5.993
X84.142 Y80.659 I6.17 J3.287
X84.164 Y81.433 I13.59 J0
G3 X84.186 Y82.207 I-13.568 J0.774
X83.873 Y82.52 I-0.313 J0
G1 X82.107
G3 X81.423 Y81.715 I0 J-0.694
G1 X81.966 Y78.362
G3 X83.886 Y76.44 I2.217 J0.294
G1 X97.257 Y74.651
X97.425 Y74.635
X97.478 Y74.636
X97.531 Y74.646
X98.476 Y74.913
G3 X98.389 Y75.545 I-0.087 J0.31
G1 X91.326 Y75.542
G2 X86.208 Y80.659 I0 J5.118
X86.23 Y82.463 I72.328 J0
G3 X86.253 Y84.267 I-72.305 J1.804
X85.933 Y84.587 I-0.319 J0
G1 X76.799
G3 X76.647 Y84.315 I0 J-0.178
G2 X77.229 Y83.042 I-4.894 J-3.007
X77.443 Y81.659 I-4.367 J-1.383
G1 Y67.659
G2 X77.229 Y66.276 I-4.58 J0
X76.647 Y65.004 I-5.476 J1.734
G3 X76.799 Y64.732 I0.152 J-0.093
G1 X85.933
G3 X86.253 Y65.051 I0 J0.319
X86.23 Y66.855 I-72.328 J0
G2 X86.208 Y68.659 I72.305 J1.804
X91.326 Y73.777 I5.118 J0
G1 X97
G2 X98.541 Y73.54 I0 J-5.118
G3 X98.801 Y73.742 I0.06 J0.191
G1 X98.596 Y77.25
G3 X98.397 Y77.438 I-0.2 J-0.012
G1 X91.326 Y77.434
G2 X88.101 Y80.659 I0 J3.225
X88.123 Y83.41 I168.106 J0
G3 X88.146 Y86.16 I-168.084 J2.75
X87.826 Y86.479 I-0.319 J0
G1 X67.825
G3 X67.506 Y86.16 I0 J-0.319
G1 Y85.159
G3 X67.825 Y84.839 I0.319 J0
G1 X72.37
G2 X75.55 Y81.659 I0 J-3.18
G1 Y67.659
G2 X72.37 Y64.479 I-3.18 J0
G1 X67.825
G3 X67.506 Y64.16 I0 J-0.319
G1 Y63.159
G3 X67.825 Y62.839 I0.319 J0
G1 X87.826
G3 X88.146 Y63.159 I0 J0.319
X88.123 Y65.909 I-168.107 J0
G2 X88.101 Y68.659 I168.084 J2.75
X91.326 Y71.884 I3.225 J0
G1 X97
G2 X100.225 Y68.659 I0 J-3.225
G1 X100.21 Y28.59
Y28.579
G0 Z4
X98.417 Y79.158
Z2
G1 Z0 F700
Z-2
X98.393 Y79.159
X91.326
G2 X89.826 Y80.659 I0 J1.5
G1 Y88.159
X65.826
Y83.159
X72.326
G2 X73.826 Y81.659 I0 J-1.5
G1 Y67.659
G2 X72.326 Y66.159 I-1.5 J0
G1 X65.826
Y61.159
X89.826
Y68.659
G2 X91.326 Y70.159 I1.5 J0
G1 X97
G2 X98.5 Y68.659 I0 J-1.5
G1 Y26.15
G3 X99.93 Y24.725 Z-2.024 I1.425 J0 F333.3
X101.35 Y26.159 Z-2.048 I-0.005 J1.425
G1 X101.11 Y63.467 Z-2.452
G2 X102.531 Y64.902 Z-2.476 I1.425 J0.009
X103.96 Y63.476 Z-2.5 I0.004 J-1.425
G1 X103.95 Y36.483 F700
G3 X104.873 Y36.483 I0.461 J0
G1 X104.878 Y49.979
X104.422 Y63.476
X104.414 Y63.545
X104.396 Y63.612
X104.369 Y63.676
X100.825 Y70.384
G2 X101.029 Y71.013 I0.408 J0.216
X101.652 Y70.792 I0.204 J-0.414
X102.118 Y68.659 I-4.652 J-2.132
G1 X102.103 Y29.6
Y29.588
Z-0.5
X98.4 Y75.545
Z-2.5
X98.389
X91.326 Y75.542
G2 X87.349 Y77.438 I0 J5.118
X84.192 Y77.575 I0 J36.324
X81.953 Y79.806 I0.214 J2.454
X81.933 Y80.061 I9.373 J0.854
G1 X81.923 Y80.097
X81.901 Y80.127
X81.869 Y80.147
X81.832 Y80.153
X81.796 Y80.144
X81.765 Y80.123
X81.744 Y80.092
X81.737 Y80.055
Y69.264
X81.744 Y69.227
X81.765 Y69.196
X81.796 Y69.174
X81.832 Y69.166
X81.869 Y69.172
X81.901 Y69.191
X81.923 Y69.221
X81.933 Y69.257
G2 X83.863 Y74.394 I9.393 J-0.598
G3 X83.863 Y74.925 I-0.345 J0.265
G2 X81.953 Y79.806 I7.463 J5.735
X82.556 Y81.133 I1.467 J0.134
G3 X82.107 Y82.52 I-0.449 J0.621
G1 X79.722
G3 X79.443 Y82.218 I0 J-0.28
X79.468 Y81.939 I12.034 J0.944
G2 X79.482 Y81.659 I-2.745 J-0.28
G1 Y67.659
G2 X79.468 Y67.38 I-2.76 J0
G3 X79.443 Y67.101 I12.009 J-1.223
X79.722 Y66.799 I0.279 J-0.022
G1 X83.873
G3 X84.186 Y67.112 I0 J0.313
X84.164 Y67.885 I-13.59 J0
G2 X84.142 Y68.659 I13.568 J0.774
X84.963 Y71.946 I6.991 J0
X87.202 Y74.488 I6.479 J-3.451
G3 X87.202 Y74.831 I-0.122 J0.172
G2 X84.963 Y77.373 I4.24 J5.993
X84.142 Y80.659 I6.17 J3.287
X84.164 Y81.433 I13.59 J0
G3 X84.186 Y82.207 I-13.568 J0.774
X83.873 Y82.52 I-0.313 J0
G1 X82.107
G3 X81.423 Y81.715 I0 J-0.694
G1 X81.966 Y78.362
G3 X83.886 Y76.44 I2.217 J0.294
G1 X97.257 Y74.651
X97.425 Y74.635
X97.478 Y74.636
X97.531 Y74.646
X98.476 Y74.913
G3 X98.389 Y75.545 I-0.087 J0.31
G1 X91.326 Y75.542
G2 X86.208 Y80.659 I0 J5.118
X86.23 Y82.463 I72.328 J0
G3 X86.253 Y84.267 I-72.305 J1.804
X85.933 Y84.587 I-0.319 J0
G1 X76.799
G3 X76.647 Y84.315 I0 J-0.178
G2 X77.229 Y83.042 I-4.894 J-3.007
X77.443 Y81.659 I-4.367 J-1.383
G1 Y67.659
G2 X77.229 Y66.276 I-4.58 J0
X76.647 Y65.004 I-5.476 J1.734
G3 X76.799 Y64.732 I0.152 J-0.093
G1 X85.933
G3 X86.253 Y65.051 I0 J0.319
X86.23 Y66.855 I-72.328 J0
G2 X86.208 Y68.659 I72.305 J1.804
X91.326 Y73.777 I5.118 J0
G1 X97
G2 X98.541 Y73.54 I0 J-5.118
G3 X98.801 Y73.742 I0.06 J0.191
G1 X98.596 Y77.25
G3 X98.397 Y77.438 I-0.2 J-0.012
G1 X91.326 Y77.434
G2 X88.101 Y80.659 I0 J3.225
X88.123 Y83.41 I168.106 J0
G3 X88.146 Y86.16 I-168.084 J2.75
X87.826 Y86.479 I-0.319 J0
G1 X67.825
G3 X67.506 Y86.16 I0 J-0.319
G1 Y85.159
G3 X67.825 Y84.839 I0.319 J0
G1 X72.37
G2 X75.55 Y81.659 I0 J-3.18
G1 Y67.659
G2 X72.37 Y64.479 I-3.18 J0
G1 X67.825
G3 X67.506 Y64.16 I0 J-0.319
G1 Y63.159
G3 X67.825 Y62.839 I0.319 J0
G1 X87.826
G3 X88.146 Y63.159 I0 J0.319
X88.123 Y65.909 I-168.107 J0
G2 X88.101 Y68.659 I168.084 J2.75
X91.326 Y71.884 I3.225 J0
G1 X97
G2 X100.225 Y68.659 I0 J-3.225
G1 X100.21 Y28.59
Y28.579
G0 Z4
X98.417 Y79.158
Z2
G1 Z-0.5 F700
Z-2.5
X98.393 Y79.159
X91.326
G2 X89.826 Y80.659 I0 J1.5
G1 Y88.159
X65.826
Y83.159
X72.326
G2 X73.826 Y81.659 I0 J-1.5
G1 Y67.659
G2 X72.326 Y66.159 I-1.5 J0
G1 X65.826
Y61.159
X89.826
Y68.659
G2 X91.326 Y70.159 I1.5 J0
G1 X97
G2 X98.5 Y68.659 I0 J-1.5
G1 Y26.15
G3 X99.93 Y24.725 Z-2.524 I1.425 J0 F333.3
X101.35 Y26.159 Z-2.548 I-0.005 J1.425
G1 X101.11 Y63.467 Z-2.952
G2 X102.531 Y64.902 Z-2.976 I1.425 J0.009
X103.96 Y63.476 Z-3 I0.004 J-1.425
G1 X103.95 Y36.483 F700
G3 X104.873 Y36.483 I0.461 J0
G1 X104.878 Y49.979
X104.422 Y63.476
X104.414 Y63.545
X104.396 Y63.612
X104.369 Y63.676
X100.825 Y70.384
G2 X101.029 Y71.013 I0.408 J0.216
X101.652 Y70.792 I0.204 J-0.414
X102.118 Y68.659 I-4.652 J-2.132
G1 X102.103 Y29.6
Y29.588
Z-1
X98.4 Y75.545
Z-3
X98.389
X91.326 Y75.542
G2 X87.349 Y77.438 I0 J5.118
X84.192 Y77.575 I0 J36.324
X81.953 Y79.806 I0.214 J2.454
X81.933 Y80.061 I9.373 J0.854
G1 X81.923 Y80.097
X81.901 Y80.127
X81.869 Y80.147
X81.832 Y80.153
X81.796 Y80.144
X81.765 Y80.123
X81.744 Y80.092
X81.737 Y80.055
Y69.264
X81.744 Y69.227
X81.765 Y69.196
X81.796 Y69.174
X81.832 Y69.166
X81.869 Y69.172
X81.901 Y69.191
X81.923 Y69.221
X81.933 Y69.257
G2 X83.863 Y74.394 I9.393 J-0.598
G3 X83.863 Y74.925 I-0.345 J0.265
G2 X81.953 Y79.806 I7.463 J5.735
X82.556 Y81.133 I1.467 J0.134
G3 X82.107 Y82.52 I-0.449 J0.621
G1 X79.722
G3 X79.443 Y82.218 I0 J-0.28
X79.468 Y81.939 I12.034 J0.944
G2 X79.482 Y81.659 I-2.745 J-0.28
G1 Y67.659
G2 X79.468 Y67.38 I-2.76 J0
G3 X79.443 Y67.101 I12.009 J-1.223
X79.722 Y66.799 I0.279 J-0.022
G1 X83.873
G3 X84.186 Y67.112 I0 J0.313
X84.164 Y67.885 I-13.59 J0
G2 X84.142 Y68.659 I13.568 J0.774
X84.963 Y71.946 I6.991 J0
X87.202 Y74.488 I6.479 J-3.451
G3 X87.202 Y74.831 I-0.122 J0.172
G2 X84.963 Y77.373 I4.24 J5.993
X84.142 Y80.659 I6.17 J3.287
X84.164 Y81.433 I13.59 J0
G3 X84.186 Y82.207 I-13.568 J0.774
X83.873 Y82.52 I-0.313 J0
G1 X82.107
G3 X81.423 Y81.715 I0 J-0.694
G1 X81.966 Y78.362
G3 X83.886 Y76.44 I2.217 J0.294
G1 X97.257 Y74.651
X97.425 Y74.635
X97.478 Y74.636
X97.531 Y74.646
X98.476 Y74.913
G3 X98.389 Y75.545 I-0.087 J0.31
G1 X91.326 Y75.542
G2 X86.208 Y80.659 I0 J5.118
X86.23 Y82.463 I72.328 J0
G3 X86.253 Y84.267 I-72.305 J1.804
X85.933 Y84.587 I-0.319 J0
G1 X76.799
G3 X76.647 Y84.315 I0 J-0.178
G2 X77.229 Y83.042 I-4.894 J-3.007
X77.443 Y81.659 I-4.367 J-1.383
G1 Y67.659
G2 X77.229 Y66.276 I-4.58 J0
X76.647 Y65.004 I-5.476 J1.734
G3 X76.799 Y64.732 I0.152 J-0.093
G1 X85.933
G3 X86.253 Y65.051 I0 J0.319
X86.23 Y66.855 I-72.328 J0
G2 X86.208 Y68.659 I72.305 J1.804
X91.326 Y73.777 I5.118 J0
G1 X97
G2 X98.541 Y73.54 I0 J-5.118
G3 X98.801 Y73.742 I0.06 J0.191
G1 X98.596 Y77.25
G3 X98.397 Y77.438 I-0.2 J-0.012
G1 X91.326 Y77.434
G2 X88.101 Y80.659 I0 J3.225
X88.123 Y83.41 I168.106 J0
G3 X88.146 Y86.16 I-168.084 J2.75
X87.826 Y86.479 I-0.319 J0
G1 X67.825
G3 X67.506 Y86.16 I0 J-0.319
G1 Y85.159
G3 X67.825 Y84.839 I0.319 J0
G1 X72.37
G2 X75.55 Y81.659 I0 J-3.18
G1 Y67.659
G2 X72.37 Y64.479 I-3.18 J0
G1 X67.825
G3 X67.506 Y64.16 I0 J-0.319
G1 Y63.159
G3 X67.825 Y62.839 I0.319 J0
G1 X87.826
G3 X88.146 Y63.159 I0 J0.319
X88.123 Y65.909 I-168.107 J0
G2 X88.101 Y68.659 I168.084 J2.75
X91.326 Y71.884 I3.225 J0
G1 X97
G2 X100.225 Y68.659 I0 J-3.225
G1 X100.21 Y28.59
Y28.579
G0 Z4
X98.417 Y79.158
Z2
G1 Z-1 F700
Z-3
X98.393 Y79.159
X91.326
G2 X89.826 Y80.659 I0 J1.5
G1 Y88.159
X65.826
Y83.159
X72.326
G2 X73.826 Y81.659 I0 J-1.5
G1 Y67.659
G2 X72.326 Y66.159 I-1.5 J0
G1 X65.826
Y61.159
X89.826
Y68.659
G2 X91.326 Y70.159 I1.5 J0
G1 X97
G2 X98.5 Y68.659 I0 J-1.5
G1 Y26.15
G3 X99.93 Y24.725 Z-3.024 I1.425 J0 F333.3
X101.35 Y26.159 Z-3.048 I-0.005 J1.425
G1 X101.11 Y63.467 Z-3.452
G2 X102.531 Y64.902 Z-3.476 I1.425 J0.009
X103.96 Y63.476 Z-3.5 I0.004 J-1.425
G1 X103.95 Y36.483 F700
G3 X104.873 Y36.483 I0.461 J0
G1 X104.878 Y49.979
X104.422 Y63.476
X104.414 Y63.545
X104.396 Y63.612
X104.369 Y63.676
X100.825 Y70.384
G2 X101.029 Y71.013 I0.408 J0.216
X101.652 Y70.792 I0.204 J-0.414
X102.118 Y68.659 I-4.652 J-2.132
G1 X102.103 Y29.6
Y29.588
Z-1.5
X98.4 Y75.545
Z-3.5
X98.389
X91.326 Y75.542
G2 X87.349 Y77.438 I0 J5.118
X84.192 Y77.575 I0 J36.324
X81.953 Y79.806 I0.214 J2.454
X81.933 Y80.061 I9.373 J0.854
G1 X81.923 Y80.097
X81.901 Y80.127
X81.869 Y80.147
X81.832 Y80.153
X81.796 Y80.144
X81.765 Y80.123
X81.744 Y80.092
X81.737 Y80.055
Y69.264
X81.744 Y69.227
X81.765 Y69.196
X81.796 Y69.174
X81.832 Y69.166
X81.869 Y69.172
X81.901 Y69.191
X81.923 Y69.221
X81.933 Y69.257
G2 X83.863 Y74.394 I9.393 J-0.598
G3 X83.863 Y74.925 I-0.345 J0.265
G2 X81.953 Y79.806 I7.463 J5.735
X82.556 Y81.133 I1.467 J0.134
G3 X82.107 Y82.52 I-0.449 J0.621
G1 X79.722
G3 X79.443 Y82.218 I0 J-0.28
X79.468 Y81.939 I12.034 J0.944
G2 X79.482 Y81.659 I-2.745 J-0.28
G1 Y67.659
G2 X79.468 Y67.38 I-2.76 J0
G3 X79.443 Y67.101 I12.009 J-1.223
X79.722 Y66.799 I0.279 J-0.022
G1 X83.873
G3 X84.186 Y67.112 I0 J0.313
X84.164 Y67.885 I-13.59 J0
G2 X84.142 Y68.659 I13.568 J0.774
X84.963 Y71.946 I6.991 J0
X87.202 Y74.488 I6.479 J-3.451
G3 X87.202 Y74.831 I-0.122 J0.172
G2 X84.963 Y77.373 I4.24 J5.993
X84.142 Y80.659 I6.17 J3.287
X84.164 Y81.433 I13.59 J0
G3 X84.186 Y82.207 I-13.568 J0.774
X83.873 Y82.52 I-0.313 J0
G1 X82.107
G3 X81.423 Y81.715 I0 J-0.694
G1 X81.966 Y78.362
G3 X83.886 Y76.44 I2.217 J0.294
G1 X97.257 Y74.651
X97.425 Y74.635
X97.478 Y74.636
X97.531 Y74.646
X98.476 Y74.913
G3 X98.389 Y75.545 I-0.087 J0.31
G1 X91.326 Y75.542
G2 X86.208 Y80.659 I0 J5.118
X86.23 Y82.463 I72.328 J0
G3 X86.253 Y84.267 I-72.305 J1.804
X85.933 Y84.587 I-0.319 J0
G1 X76.799
G3 X76.647 Y84.315 I0 J-0.178
G2 X77.229 Y83.042 I-4.894 J-3.007
X77.443 Y81.659 I-4.367 J-1.383
G1 Y67.659
G2 X77.229 Y66.276 I-4.58 J0
X76.647 Y65.004 I-5.476 J1.734
G3 X76.799 Y64.732 I0.152 J-0.093
G1 X85.933
G3 X86.253 Y65.051 I0 J0.319
X86.23 Y66.855 I-72.328 J0
G2 X86.208 Y68.659 I72.305 J1.804
X91.326 Y73.777 I5.118 J0
G1 X97
G2 X98.541 Y73.54 I0 J-5.118
G3 X98.801 Y73.742 I0.06 J0.191
G1 X98.596 Y77.25
G3 X98.397 Y77.438 I-0.2 J-0.012
G1 X91.326 Y77.434
G2 X88.101 Y80.659 I0 J3.225
X88.123 Y83.41 I168.106 J0
G3 X88.146 Y86.16 I-168.084 J2.75
X87.826 Y86.479 I-0.319 J0
G1 X67.825
G3 X67.506 Y86.16 I0 J-0.319
G1 Y85.159
G3 X67.825 Y84.839 I0.319 J0
G1 X72.37
G2 X75.55 Y81.659 I0 J-3.18
G1 Y67.659
G2 X72.37 Y64.479 I-3.18 J0
G1 X67.825
G3 X67.506 Y64.16 I0 J-0.319
G1 Y63.159
G3 X67.825 Y62.839 I0.319 J0
G1 X87.826
G3 X88.146 Y63.159 I0 J0.319
X88.123 Y65.909 I-168.107 J0
G2 X88.101 Y68.659 I168.084 J2.75
X91.326 Y71.884 I3.225 J0
G1 X97
G2 X100.225 Y68.659 I0 J-3.225
G1 X100.21 Y28.59
Y28.579
G0 Z4
X98.417 Y79.158
Z2
G1 Z-1.5 F700
Z-3.5
X98.393 Y79.159
X91.326
G2 X89.826 Y80.659 I0 J1.5
G1 Y88.159
X65.826
Y83.159
X72.326
G2 X73.826 Y81.659 I0 J-1.5
G1 Y67.659
G2 X72.326 Y66.159 I-1.5 J0
G1 X65.826
Y61.159
X89.826
Y68.659
G2 X91.326 Y70.159 I1.5 J0
G1 X97
G2 X98.5 Y68.659 I0 J-1.5
G1 Y26.15
G3 X99.93 Y24.725 Z-3.524 I1.425 J0 F333.3
X101.35 Y26.159 Z-3.548 I-0.005 J1.425
G1 X101.11 Y63.467 Z-3.952
G2 X102.531 Y64.902 Z-3.976 I1.425 J0.009
X103.96 Y63.476 Z-4 I0.004 J-1.425
G1 X103.95 Y36.483 F700
G3 X104.873 Y36.483 I0.461 J0
G1 X104.878 Y49.979
X104.422 Y63.476
X104.414 Y63.545
X104.396 Y63.612
X104.369 Y63.676
X100.825 Y70.384
G2 X101.029 Y71.013 I0.408 J0.216
X101.652 Y70.792 I0.204 J-0.414
X102.118 Y68.659 I-4.652 J-2.132
G1 X102.103 Y29.6
Y29.588
Z-2
X98.4 Y75.545
Z-4
X98.389
X91.326 Y75.542
G2 X87.349 Y77.438 I0 J5.118
X84.192 Y77.575 I0 J36.324
X81.953 Y79.806 I0.214 J2.454
X81.933 Y80.061 I9.373 J0.854
G1 X81.923 Y80.097
X81.901 Y80.127
X81.869 Y80.147
X81.832 Y80.153
X81.796 Y80.144
X81.765 Y80.123
X81.744 Y80.092
X81.737 Y80.055
Y69.264
X81.744 Y69.227
X81.765 Y69.196
X81.796 Y69.174
X81.832 Y69.166
X81.869 Y69.172
X81.901 Y69.191
X81.923 Y69.221
X81.933 Y69.257
G2 X83.863 Y74.394 I9.393 J-0.598
G3 X83.863 Y74.925 I-0.345 J0.265
G2 X81.953 Y79.806 I7.463 J5.735
X82.556 Y81.133 I1.467 J0.134
G3 X82.107 Y82.52 I-0.449 J0.621
G1 X79.722
G3 X79.443 Y82.218 I0 J-0.28
X79.468 Y81.939 I12.034 J0.944
G2 X79.482 Y81.659 I-2.745 J-0.28
G1 Y67.659
G2 X79.468 Y67.38 I-2.76 J0
G3 X79.443 Y67.101 I12.009 J-1.223
X79.722 Y66.799 I0.279 J-0.022
G1 X83.873
G3 X84.186 Y67.112 I0 J0.313
X84.164 Y67.885 I-13.59 J0
G2 X84.142 Y68.659 I13.568 J0.774
X84.963 Y71.946 I6.991 J0
X87.202 Y74.488 I6.479 J-3.451
G3 X87.202 Y74.831 I-0.122 J0.172
G2 X84.963 Y77.373 I4.24 J5.993
X84.142 Y80.659 I6.17 J3.287
X84.164 Y81.433 I13.59 J0
G3 X84.186 Y82.207 I-13.568 J0.774
X83.873 Y82.52 I-0.313 J0
G1 X82.107
G3 X81.423 Y81.715 I0 J-0.694
G1 X81.966 Y78.362
G3 X83.886 Y76.44 I2.217 J0.294
G1 X97.257 Y74.651
X97.425 Y74.635
X97.478 Y74.636
X97.531 Y74.646
X98.476 Y74.913
G3 X98.389 Y75.545 I-0.087 J0.31
G1 X91.326 Y75.542
G2 X86.208 Y80.659 I0 J5.118
X86.23 Y82.463 I72.328 J0
G3 X86.253 Y84.267 I-72.305 J1.804
X85.933 Y84.587 I-0.319 J0
G1 X76.799
G3 X76.647 Y84.315 I0 J-0.178
G2 X77.229 Y83.042 I-4.894 J-3.007
X77.443 Y81.659 I-4.367 J-1.383
G1 Y67.659
G2 X77.229 Y66.276 I-4.58 J0
X76.647 Y65.004 I-5.476 J1.734
G3 X76.799 Y64.732 I0.152 J-0.093
G1 X85.933
G3 X86.253 Y65.051 I0 J0.319
X86.23 Y66.855 I-72.328 J0
G2 X86.208 Y68.659 I72.305 J1.804
X91.326 Y73.777 I5.118 J0
G1 X97
G2 X98.541 Y73.54 I0 J-5.118
G3 X98.801 Y73.742 I0.06 J0.191
G1 X98.596 Y77.25
G3 X98.397 Y77.438 I-0.2 J-0.012
G1 X91.326 Y77.434
G2 X88.101 Y80.659 I0 J3.225
X88.123 Y83.41 I168.106 J0
G3 X88.146 Y86.16 I-168.084 J2.75
X87.826 Y86.479 I-0.319 J0
G1 X67.825
G3 X67.506 Y86.16 I0 J-0.319
G1 Y85.159
G3 X67.825 Y84.839 I0.319 J0
G1 X72.37
G2 X75.55 Y81.659 I0 J-3.18
G1 Y67.659
G2 X72.37 Y64.479 I-3.18 J0
G1 X67.825
G3 X67.506 Y64.16 I0 J-0.319
G1 Y63.159
G3 X67.825 Y62.839 I0.319 J0
G1 X87.826
G3 X88.146 Y63.159 I0 J0.319
X88.123 Y65.909 I-168.107 J0
G2 X88.101 Y68.659 I168.084 J2.75
X91.326 Y71.884 I3.225 J0
G1 X97
G2 X100.225 Y68.659 I0 J-3.225
G1 X100.21 Y28.59
Y28.579
G0 Z4
X98.417 Y79.158
Z2
G1 Z-2 F700
Z-4
X98.393 Y79.159
X91.326
G2 X89.826 Y80.659 I0 J1.5
G1 Y88.159
X65.826
Y83.159
X72.326
G2 X73.826 Y81.659 I0 J-1.5
G1 Y67.659
G2 X72.326 Y66.159 I-1.5 J0
G1 X65.826
Y61.159
X89.826
Y68.659
G2 X91.326 Y70.159 I1.5 J0
G1 X97
G2 X98.5 Y68.659 I0 J-1.5
G1 Y26.15
G3 X99.93 Y24.725 Z-4.024 I1.425 J0 F333.3
X101.35 Y26.159 Z-4.048 I-0.005 J1.425
G1 X101.11 Y63.467 Z-4.452
G2 X102.531 Y64.902 Z-4.476 I1.425 J0.009
X103.96 Y63.476 Z-4.5 I0.004 J-1.425
G1 X103.95 Y36.483 F700
G3 X104.873 Y36.483 I0.461 J0
G1 X104.878 Y49.979
X104.422 Y63.476
X104.414 Y63.545
X104.396 Y63.612
X104.369 Y63.676
X100.825 Y70.384
G2 X101.029 Y71.013 I0.408 J0.216
X101.652 Y70.792 I0.204 J-0.414
X102.118 Y68.659 I-4.652 J-2.132
G1 X102.103 Y29.6
Y29.588
Z-2.5
X98.4 Y75.545
Z-4.5
X98.389
X91.326 Y75.542
G2 X87.349 Y77.438 I0 J5.118
X84.192 Y77.575 I0 J36.324
X81.953 Y79.806 I0.214 J2.454
X81.933 Y80.061 I9.373 J0.854
G1 X81.923 Y80.097
X81.901 Y80.127
X81.869 Y80.147
X81.832 Y80.153
X81.796 Y80.144
X81.765 Y80.123
X81.744 Y80.092
X81.737 Y80.055
Y69.264
X81.744 Y69.227
X81.765 Y69.196
X81.796 Y69.174
X81.832 Y69.166
X81.869 Y69.172
X81.901 Y69.191
X81.923 Y69.221
X81.933 Y69.257
G2 X83.863 Y74.394 I9.393 J-0.598
G3 X83.863 Y74.925 I-0.345 J0.265
G2 X81.953 Y79.806 I7.463 J5.735
X82.556 Y81.133 I1.467 J0.134
G3 X82.107 Y82.52 I-0.449 J0.621
G1 X79.722
G3 X79.443 Y82.218 I0 J-0.28
X79.468 Y81.939 I12.034 J0.944
G2 X79.482 Y81.659 I-2.745 J-0.28
G1 Y67.659
G2 X79.468 Y67.38 I-2.76 J0
G3 X79.443 Y67.101 I12.009 J-1.223
X79.722 Y66.799 I0.279 J-0.022
G1 X83.873
G3 X84.186 Y67.112 I0 J0.313
X84.164 Y67.885 I-13.59 J0
G2 X84.142 Y68.659 I13.568 J0.774
X84.963 Y71.946 I6.991 J0
X87.202 Y74.488 I6.479 J-3.451
G3 X87.202 Y74.831 I-0.122 J0.172
G2 X84.963 Y77.373 I4.24 J5.993
X84.142 Y80.659 I6.17 J3.287
X84.164 Y81.433 I13.59 J0
G3 X84.186 Y82.207 I-13.568 J0.774
X83.873 Y82.52 I-0.313 J0
G1 X82.107
G3 X81.423 Y81.715 I0 J-0.694
G1 X81.966 Y78.362
G3 X83.886 Y76.44 I2.217 J0.294
G1 X97.257 Y74.651
X97.425 Y74.635
X97.478 Y74.636
X97.531 Y74.646
X98.476 Y74.913
G3 X98.389 Y75.545 I-0.087 J0.31
G1 X91.326 Y75.542
G2 X86.208 Y80.659 I0 J5.118
X86.23 Y82.463 I72.328 J0
G3 X86.253 Y84.267 I-72.305 J1.804
X85.933 Y84.587 I-0.319 J0
G1 X76.799
G3 X76.647 Y84.315 I0 J-0.178
G2 X77.229 Y83.042 I-4.894 J-3.007
X77.443 Y81.659 I-4.367 J-1.383
G1 Y67.659
G2 X77.229 Y66.276 I-4.58 J0
X76.647 Y65.004 I-5.476 J1.734
G3 X76.799 Y64.732 I0.152 J-0.093
G1 X85.933
G3 X86.253 Y65.051 I0 J0.319
X86.23 Y66.855 I-72.328 J0
G2 X86.208 Y68.659 I72.305 J1.804
X91.326 Y73.777 I5.118 J0
G1 X97
G2 X98.541 Y73.54 I0 J-5.118
G3 X98.801 Y73.742 I0.06 J0.191
G1 X98.596 Y77.25
G3 X98.397 Y77.438 I-0.2 J-0.012
G1 X91.326 Y77.434
G2 X88.101 Y80.659 I0 J3.225
X88.123 Y83.41 I168.106 J0
G3 X88.146 Y86.16 I-168.084 J2.75
X87.826 Y86.479 I-0.319 J0
G1 X67.825
G3 X67.506 Y86.16 I0 J-0.319
G1 Y85.159
G3 X67.825 Y84.839 I0.319 J0
G1 X72.37
G2 X75.55 Y81.659 I0 J-3.18
G1 Y67.659
G2 X72.37 Y64.479 I-3.18 J0
G1 X67.825
G3 X67.506 Y64.16 I0 J-0.319
G1 Y63.159
G3 X67.825 Y62.839 I0.319 J0
G1 X87.826
G3 X88.146 Y63.159 I0 J0.319
X88.123 Y65.909 I-168.107 J0
G2 X88.101 Y68.659 I168.084 J2.75
X91.326 Y71.884 I3.225 J0
G1 X97
G2 X100.225 Y68.659 I0 J-3.225
G1 X100.21 Y28.59
Y28.579
G0 Z4
X98.417 Y79.158
Z2
G1 Z-2.5 F700
Z-4.5
X98.393 Y79.159
X91.326
G2 X89.826 Y80.659 I0 J1.5
G1 Y88.159
X65.826
Y83.159
X72.326
G2 X73.826 Y81.659 I0 J-1.5
G1 Y67.659
G2 X72.326 Y66.159 I-1.5 J0
G1 X65.826
Y61.159
X89.826
Y68.659
G2 X91.326 Y70.159 I1.5 J0
G1 X97
G2 X98.5 Y68.659 I0 J-1.5
G1 Y26.15
G3 X99.93 Y24.725 Z-4.524 I1.425 J0 F333.3
X101.35 Y26.159 Z-4.548 I-0.005 J1.425
G1 X101.11 Y63.467 Z-4.952
G2 X102.531 Y64.902 Z-4.976 I1.425 J0.009
X103.96 Y63.476 Z-5 I0.004 J-1.425
G1 X103.95 Y36.483 F700
G3 X104.873 Y36.483 I0.461 J0
G1 X104.878 Y49.979
X104.422 Y63.476
X104.414 Y63.545
X104.396 Y63.612
X104.369 Y63.676
X100.825 Y70.384
G2 X101.029 Y71.013 I0.408 J0.216
X101.652 Y70.792 I0.204 J-0.414
X102.118 Y68.659 I-4.652 J-2.132
G1 X102.103 Y29.6
Y29.588
Z-3
X98.4 Y75.545
Z-5
X98.389
X91.326 Y75.542
G2 X87.349 Y77.438 I0 J5.118
X84.192 Y77.575 I0 J36.324
X81.953 Y79.806 I0.214 J2.454
X81.933 Y80.061 I9.373 J0.854
G1 X81.923 Y80.097
X81.901 Y80.127
X81.869 Y80.147
X81.832 Y80.153
X81.796 Y80.144
X81.765 Y80.123
X81.744 Y80.092
X81.737 Y80.055
Y69.264
X81.744 Y69.227
X81.765 Y69.196
X81.796 Y69.174
X81.832 Y69.166
X81.869 Y69.172
X81.901 Y69.191
X81.923 Y69.221
X81.933 Y69.257
G2 X83.863 Y74.394 I9.393 J-0.598
G3 X83.863 Y74.925 I-0.345 J0.265
G2 X81.953 Y79.806 I7.463 J5.735
X82.556 Y81.133 I1.467 J0.134
G3 X82.107 Y82.52 I-0.449 J0.621
G1 X79.722
G3 X79.443 Y82.218 I0 J-0.28
X79.468 Y81.939 I12.034 J0.944
G2 X79.482 Y81.659 I-2.745 J-0.28
G1 Y67.659
G2 X79.468 Y67.38 I-2.76 J0
G3 X79.443 Y67.101 I12.009 J-1.223
X79.722 Y66.799 I0.279 J-0.022
G1 X83.873
G3 X84.186 Y67.112 I0 J0.313
X84.164 Y67.885 I-13.59 J0
G2 X84.142 Y68.659 I13.568 J0.774
X84.963 Y71.946 I6.991 J0
X87.202 Y74.488 I6.479 J-3.451
G3 X87.202 Y74.831 I-0.122 J0.172
G2 X84.963 Y77.373 I4.24 J5.993
X84.142 Y80.659 I6.17 J3.287
X84.164 Y81.433 I13.59 J0
G3 X84.186 Y82.207 I-13.568 J0.774
X83.873 Y82.52 I-0.313 J0
G1 X82.107
G3 X81.423 Y81.715 I0 J-0.694
G1 X81.966 Y78.362
G3 X83.886 Y76.44 I2.217 J0.294
G1 X97.257 Y74.651
X97.425 Y74.635
X97.478 Y74.636
X97.531 Y74.646
X98.476 Y74.913
G3 X98.389 Y75.545 I-0.087 J0.31
G1 X91.326 Y75.542
G2 X86.208 Y80.659 I0 J5.118
X86.23 Y82.463 I72.328 J0
G3 X86.253 Y84.267 I-72.305 J1.804
X85.933 Y84.587 I-0.319 J0
G1 X76.799
G3 X76.647 Y84.315 I0 J-0.178
G2 X77.229 Y83.042 I-4.894 J-3.007
X77.443 Y81.659 I-4.367 J-1.383
G1 Y67.659
G2 X77.229 Y66.276 I-4.58 J0
X76.647 Y65.004 I-5.476 J1.734
G3 X76.799 Y64.732 I0.152 J-0.093
G1 X85.933
G3 X86.253 Y65.051 I0 J0.319
X86.23 Y66.855 I-72.328 J0
G2 X86.208 Y68.659 I72.305 J1.804
X91.326 Y73.777 I5.118 J0
G1 X97
G2 X98.541 Y73.54 I0 J-5.118
G3 X98.801 Y73.742 I0.06 J0.191
G1 X98.596 Y77.25
G3 X98.397 Y77.438 I-0.2 J-0.012
G1 X91.326 Y77.434
G2 X88.101 Y80.659 I0 J3.225
X88.123 Y83.41 I168.106 J0
G3 X88.146 Y86.16 I-168.084 J2.75
X87.826 Y86.479 I-0.319 J0
G1 X67.825
G3 X67.506 Y86.16 I0 J-0.319
G1 Y85.159
G3 X67.825 Y84.839 I0.319 J0
G1 X72.37
G2 X75.55 Y81.659 I0 J-3.18
G1 Y67.659
G2 X72.37 Y64.479 I-3.18 J0
G1 X67.825
G3 X67.506 Y64.16 I0 J-0.319
G1 Y63.159
G3 X67.825 Y62.839 I0.319 J0
G1 X87.826
G3 X88.146 Y63.159 I0 J0.319
X88.123 Y65.909 I-168.107 J0
G2 X88.101 Y68.659 I168.084 J2.75
X91.326 Y71.884 I3.225 J0
G1 X97
G2 X100.225 Y68.659 I0 J-3.225
G1 X100.21 Y28.59
Y28.579
G0 Z4
X98.417 Y79.158
Z2
G1 Z-3 F700
Z-5
X98.393 Y79.159
X91.326
G2 X89.826 Y80.659 I0 J1.5
G1 Y88.159
X65.826
Y83.159
X72.326
G2 X73.826 Y81.659 I0 J-1.5
G1 Y67.659
G2 X72.326 Y66.159 I-1.5 J0
G1 X65.826
Y61.159
X89.826
Y68.659
G2 X91.326 Y70.159 I1.5 J0
G1 X97
G2 X98.5 Y68.659 I0 J-1.5
G1 Y26.15
G3 X99.93 Y24.725 Z-5.024 I1.425 J0 F333.3
X101.35 Y26.159 Z-5.048 I-0.005 J1.425
G1 X101.11 Y63.467 Z-5.452
G2 X102.531 Y64.902 Z-5.476 I1.425 J0.009
X103.96 Y63.476 Z-5.5 I0.004 J-1.425
G1 X103.95 Y36.483 F700
G3 X104.873 Y36.483 I0.461 J0
G1 X104.878 Y49.979
X104.422 Y63.476
X104.414 Y63.545
X104.396 Y63.612
X104.369 Y63.676
X100.825 Y70.384
G2 X101.029 Y71.013 I0.408 J0.216
X101.652 Y70.792 I0.204 J-0.414
X102.118 Y68.659 I-4.652 J-2.132
G1 X102.103 Y29.6
Y29.588
Z-3.5
X98.4 Y75.545
Z-5.5
X98.389
X91.326 Y75.542
G2 X87.349 Y77.438 I0 J5.118
X84.192 Y77.575 I0 J36.324
X81.953 Y79.806 I0.214 J2.454
X81.933 Y80.061 I9.373 J0.854
G1 X81.923 Y80.097
X81.901 Y80.127
X81.869 Y80.147
X81.832 Y80.153
X81.796 Y80.144
X81.765 Y80.123
X81.744 Y80.092
X81.737 Y80.055
Y69.264
X81.744 Y69.227
X81.765 Y69.196
X81.796 Y69.174
X81.832 Y69.166
X81.869 Y69.172
X81.901 Y69.191
X81.923 Y69.221
X81.933 Y69.257
G2 X83.863 Y74.394 I9.393 J-0.598
G3 X83.863 Y74.925 I-0.345 J0.265
G2 X81.953 Y79.806 I7.463 J5.735
X82.556 Y81.133 I1.467 J0.134
G3 X82.107 Y82.52 I-0.449 J0.621
G1 X79.722
G3 X79.443 Y82.218 I0 J-0.28
X79.468 Y81.939 I12.034 J0.944
G2 X79.482 Y81.659 I-2.745 J-0.28
G1 Y67.659
G2 X79.468 Y67.38 I-2.76 J0
G3 X79.443 Y67.101 I12.009 J-1.223
X79.722 Y66.799 I0.279 J-0.022
G1 X83.873
G3 X84.186 Y67.112 I0 J0.313
X84.164 Y67.885 I-13.59 J0
G2 X84.142 Y68.659 I13.568 J0.774
X84.963 Y71.946 I6.991 J0
X87.202 Y74.488 I6.479 J-3.451
G3 X87.202 Y74.831 I-0.122 J0.172
G2 X84.963 Y77.373 I4.24 J5.993
X84.142 Y80.659 I6.17 J3.287
X84.164 Y81.433 I13.59 J0
G3 X84.186 Y82.207 I-13.568 J0.774
X83.873 Y82.52 I-0.313 J0
G1 X82.107
G3 X81.423 Y81.715 I0 J-0.694
G1 X81.966 Y78.362
G3 X83.886 Y76.44 I2.217 J0.294
G1 X97.257 Y74.651
X97.425 Y74.635
X97.478 Y74.636
X97.531 Y74.646
X98.476 Y74.913
G3 X98.389 Y75.545 I-0.087 J0.31
G1 X91.326 Y75.542
G2 X86.208 Y80.659 I0 J5.118
X86.23 Y82.463 I72.328 J0
G3 X86.253 Y84.267 I-72.305 J1.804
X85.933 Y84.587 I-0.319 J0
G1 X76.799
G3 X76.647 Y84.315 I0 J-0.178
G2 X77.229 Y83.042 I-4.894 J-3.007
X77.443 Y81.659 I-4.367 J-1.383
G1 Y67.659
G2 X77.229 Y66.276 I-4.58 J0
X76.647 Y65.004 I-5.476 J1.734
G3 X76.799 Y64.732 I0.152 J-0.093
G1 X85.933
G3 X86.253 Y65.051 I0 J0.319
X86.23 Y66.855 I-72.328 J0
G2 X86.208 Y68.659 I72.305 J1.804
X91.326 Y73.777 I5.118 J0
G1 X97
G2 X98.541 Y73.54 I0 J-5.118
G3 X98.801 Y73.742 I0.06 J0.191
G1 X98.596 Y77.25
G3 X98.397 Y77.438 I-0.2 J-0.012
G1 X91.326 Y77.434
G2 X88.101 Y80.659 I0 J3.225
X88.123 Y83.41 I168.106 J0
G3 X88.146 Y86.16 I-168.084 J2.75
X87.826 Y86.479 I-0.319 J0
G1 X67.825
G3 X67.506 Y86.16 I0 J-0.319
G1 Y85.159
G3 X67.825 Y84.839 I0.319 J0
G1 X72.37
G2 X75.55 Y81.659 I0 J-3.18
G1 Y67.659
G2 X72.37 Y64.479 I-3.18 J0
G1 X67.825
G3 X67.506 Y64.16 I0 J-0.319
G1 Y63.159
G3 X67.825 Y62.839 I0.319 J0
G1 X87.826
G3 X88.146 Y63.159 I0 J0.319
X88.123 Y65.909 I-168.107 J0
G2 X88.101 Y68.659 I168.084 J2.75
X91.326 Y71.884 I3.225 J0
G1 X97
G2 X100.225 Y68.659 I0 J-3.225
G1 X100.21 Y28.59
Y28.579
G0 Z4
X98.417 Y79.158
Z2
G1 Z-3.5 F700
Z-5.5
X98.393 Y79.159
X91.326
G2 X89.826 Y80.659 I0 J1.5
G1 Y88.159
X65.826
Y83.159
X72.326
G2 X73.826 Y81.659 I0 J-1.5
G1 Y67.659
G2 X72.326 Y66.159 I-1.5 J0
G1 X65.826
Y61.159
X89.826
Y68.659
G2 X91.326 Y70.159 I1.5 J0
G1 X97
G2 X98.5 Y68.659 I0 J-1.5
G1 Y26.15
G3 X99.93 Y24.725 Z-5.524 I1.425 J0 F333.3
X101.35 Y26.159 Z-5.548 I-0.005 J1.425
G1 X101.11 Y63.467 Z-5.952
G2 X102.531 Y64.902 Z-5.976 I1.425 J0.009
X103.96 Y63.476 Z-6 I0.004 J-1.425
G1 X103.95 Y36.483 F700
G3 X104.873 Y36.483 I0.461 J0
G1 X104.878 Y49.979
X104.422 Y63.476
X104.414 Y63.545
X104.396 Y63.612
X104.369 Y63.676
X100.825 Y70.384
G2 X101.029 Y71.013 I0.408 J0.216
X101.652 Y70.792 I0.204 J-0.414
X102.118 Y68.659 I-4.652 J-2.132
G1 X102.103 Y29.6
Y29.588
Z-4
X98.4 Y75.545
Z-6
X98.389
X91.326 Y75.542
G2 X87.349 Y77.438 I0 J5.118
X84.192 Y77.575 I0 J36.324
X81.953 Y79.806 I0.214 J2.454
X81.933 Y80.061 I9.373 J0.854
G1 X81.923 Y80.097
X81.901 Y80.127
X81.869 Y80.147
X81.832 Y80.153
X81.796 Y80.144
X81.765 Y80.123
X81.744 Y80.092
X81.737 Y80.055
Y69.264
X81.744 Y69.227
X81.765 Y69.196
X81.796 Y69.174
X81.832 Y69.166
X81.869 Y69.172
X81.901 Y69.191
X81.923 Y69.221
X81.933 Y69.257
G2 X83.863 Y74.394 I9.393 J-0.598
G3 X83.863 Y74.925 I-0.345 J0.265
G2 X81.953 Y79.806 I7.463 J5.735
X82.556 Y81.133 I1.467 J0.134
G3 X82.107 Y82.52 I-0.449 J0.621
G1 X79.722
G3 X79.443 Y82.218 I0 J-0.28
X79.468 Y81.939 I12.034 J0.944
G2 X79.482 Y81.659 I-2.745 J-0.28
G1 Y67.659
G2 X79.468 Y67.38 I-2.76 J0
G3 X79.443 Y67.101 I12.009 J-1.223
X79.722 Y66.799 I0.279 J-0.022
G1 X83.873
G3 X84.186 Y67.112 I0 J0.313
X84.164 Y67.885 I-13.59 J0
G2 X84.142 Y68.659 I13.568 J0.774
X84.963 Y71.946 I6.991 J0
X87.202 Y74.488 I6.479 J-3.451
G3 X87.202 Y74.831 I-0.122 J0.172
G2 X84.963 Y77.373 I4.24 J5.993
X84.142 Y80.659 I6.17 J3.287
X84.164 Y81.433 I13.59 J0
G3 X84.186 Y82.207 I-13.568 J0.774
X83.873 Y82.52 I-0.313 J0
G1 X82.107
G3 X81.423 Y81.715 I0 J-0.694
G1 X81.966 Y78.362
G3 X83.886 Y76.44 I2.217 J0.294
G1 X97.257 Y74.651
X97.425 Y74.635
X97.478 Y74.636
X97.531 Y74.646
X98.476 Y74.913
G3 X98.389 Y75.545 I-0.087 J0.31
G1 X91.326 Y75.542
G2 X86.208 Y80.659 I0 J5.118
X86.23 Y82.463 I72.328 J0
G3 X86.253 Y84.267 I-72.305 J1.804
X85.933 Y84.587 I-0.319 J0
G1 X76.799
G3 X76.647 Y84.315 I0 J-0.178
G2 X77.229 Y83.042 I-4.894 J-3.007
X77.443 Y81.659 I-4.367 J-1.383
G1 Y67.659
G2 X77.229 Y66.276 I-4.58 J0
X76.647 Y65.004 I-5.476 J1.734
G3 X76.799 Y64.732 I0.152 J-0.093
G1 X85.933
G3 X86.253 Y65.051 I0 J0.319
X86.23 Y66.855 I-72.328 J0
G2 X86.208 Y68.659 I72.305 J1.804
X91.326 Y73.777 I5.118 J0
G1 X97
G2 X98.541 Y73.54 I0 J-5.118
G3 X98.801 Y73.742 I0.06 J0.191
G1 X98.596 Y77.25
G3 X98.397 Y77.438 I-0.2 J-0.012
G1 X91.326 Y77.434
G2 X88.101 Y80.659 I0 J3.225
X88.123 Y83.41 I168.106 J0
G3 X88.146 Y86.16 I-168.084 J2.75
X87.826 Y86.479 I-0.319 J0
G1 X67.825
G3 X67.506 Y86.16 I0 J-0.319
G1 Y85.159
G3 X67.825 Y84.839 I0.319 J0
G1 X72.37
G2 X75.55 Y81.659 I0 J-3.18
G1 Y67.659
G2 X72.37 Y64.479 I-3.18 J0
G1 X67.825
G3 X67.506 Y64.16 I0 J-0.319
G1 Y63.159
G3 X67.825 Y62.839 I0.319 J0
G1 X87.826
G3 X88.146 Y63.159 I0 J0.319
X88.123 Y65.909 I-168.107 J0
G2 X88.101 Y68.659 I168.084 J2.75
X91.326 Y71.884 I3.225 J0
G1 X97
G2 X100.225 Y68.659 I0 J-3.225
G1 X100.21 Y28.59
Y28.579
G0 Z4
X98.417 Y79.158
Z2
G1 Z-4 F700
Z-6
X98.393 Y79.159
X91.326
G2 X89.826 Y80.659 I0 J1.5
G1 Y88.159
X65.826
Y83.159
X72.326
G2 X73.826 Y81.659 I0 J-1.5
G1 Y67.659
G2 X72.326 Y66.159 I-1.5 J0
G1 X65.826
Y61.159
X89.826
Y68.659
G2 X91.326 Y70.159 I1.5 J0
G1 X97
G2 X98.5 Y68.659 I0 J-1.5
G1 Y26.15
G3 X99.93 Y24.725 Z-6.024 I1.425 J0 F333.3
X101.35 Y26.159 Z-6.048 I-0.005 J1.425
G1 X101.11 Y63.467 Z-6.452
G2 X102.531 Y64.902 Z-6.476 I1.425 J0.009
X103.96 Y63.476 Z-6.5 I0.004 J-1.425
G1 X103.95 Y36.483 F700
G3 X104.873 Y36.483 I0.461 J0
G1 X104.878 Y49.979
X104.422 Y63.476
X104.414 Y63.545
X104.396 Y63.612
X104.369 Y63.676
X100.825 Y70.384
G2 X101.029 Y71.013 I0.408 J0.216
X101.652 Y70.792 I0.204 J-0.414
X102.118 Y68.659 I-4.652 J-2.132
G1 X102.103 Y29.6
Y29.588
Z-4.5
X98.4 Y75.545
Z-6.5
X98.389
X91.326 Y75.542
G2 X87.349 Y77.438 I0 J5.118
X84.192 Y77.575 I0 J36.324
X81.953 Y79.806 I0.214 J2.454
X81.933 Y80.061 I9.373 J0.854
G1 X81.923 Y80.097
X81.901 Y80.127
X81.869 Y80.147
X81.832 Y80.153
X81.796 Y80.144
X81.765 Y80.123
X81.744 Y80.092
X81.737 Y80.055
Y69.264
X81.744 Y69.227
X81.765 Y69.196
X81.796 Y69.174
X81.832 Y69.166
X81.869 Y69.172
X81.901 Y69.191
X81.923 Y69.221
X81.933 Y69.257
G2 X83.863 Y74.394 I9.393 J-0.598
G3 X83.863 Y74.925 I-0.345 J0.265
G2 X81.953 Y79.806 I7.463 J5.735
X82.556 Y81.133 I1.467 J0.134
G3 X82.107 Y82.52 I-0.449 J0.621
G1 X79.722
G3 X79.443 Y82.218 I0 J-0.28
X79.468 Y81.939 I12.034 J0.944
G2 X79.482 Y81.659 I-2.745 J-0.28
G1 Y67.659
G2 X79.468 Y67.38 I-2.76 J0
G3 X79.443 Y67.101 I12.009 J-1.223
X79.722 Y66.799 I0.279 J-0.022
G1 X83.873
G3 X84.186 Y67.112 I0 J0.313
X84.164 Y67.885 I-13.59 J0
G2 X84.142 Y68.659 I13.568 J0.774
X84.963 Y71.946 I6.991 J0
X87.202 Y74.488 I6.479 J-3.451
G3 X87.202 Y74.831 I-0.122 J0.172
G2 X84.963 Y77.373 I4.24 J5.993
X84.142 Y80.659 I6.17 J3.287
X84.164 Y81.433 I13.59 J0
G3 X84.186 Y82.207 I-13.568 J0.774
X83.873 Y82.52 I-0.313 J0
G1 X82.107
G3 X81.423 Y81.715 I0 J-0.694
G1 X81.966 Y78.362
G3 X83.886 Y76.44 I2.217 J0.294
G1 X97.257 Y74.651
X97.425 Y74.635
X97.478 Y74.636
X97.531 Y74.646
X98.476 Y74.913
G3 X98.389 Y75.545 I-0.087 J0.31
G1 X91.326 Y75.542
G2 X86.208 Y80.659 I0 J5.118
X86.23 Y82.463 I72.328 J0
G3 X86.253 Y84.267 I-72.305 J1.804
X85.933 Y84.587 I-0.319 J0
G1 X76.799
G3 X76.647 Y84.315 I0 J-0.178
G2 X77.229 Y83.042 I-4.894 J-3.007
X77.443 Y81.659 I-4.367 J-1.383
G1 Y67.659
G2 X77.229 Y66.276 I-4.58 J0
X76.647 Y65.004 I-5.476 J1.734
G3 X76.799 Y64.732 I0.152 J-0.093
G1 X85.933
G3 X86.253 Y65.051 I0 J0.319
X86.23 Y66.855 I-72.328 J0
G2 X86.208 Y68.659 I72.305 J1.804
X91.326 Y73.777 I5.118 J0
G1 X97
G2 X98.541 Y73.54 I0 J-5.118
G3 X98.801 Y73.742 I0.06 J0.191
G1 X98.596 Y77.25
G3 X98.397 Y77.438 I-0.2 J-0.012
G1 X91.326 Y77.434
G2 X88.101 Y80.659 I0 J3.225
X88.123 Y83.41 I168.106 J0
G3 X88.146 Y86.16 I-168.084 J2.75
X87.826 Y86.479 I-0.319 J0
G1 X67.825
G3 X67.506 Y86.16 I0 J-0.319
G1 Y85.159
G3 X67.825 Y84.839 I0.319 J0
G1 X72.37
G2 X75.55 Y81.659 I0 J-3.18
G1 Y67.659
G2 X72.37 Y64.479 I-3.18 J0
G1 X67.825
G3 X67.506 Y64.16 I0 J-0.319
G1 Y63.159
G3 X67.825 Y62.839 I0.319 J0
G1 X87.826
G3 X88.146 Y63.159 I0 J0.319
X88.123 Y65.909 I-168.107 J0
G2 X88.101 Y68.659 I168.084 J2.75
X91.326 Y71.884 I3.225 J0
G1 X97
G2 X100.225 Y68.659 I0 J-3.225
G1 X100.21 Y28.59
Y28.579
G0 Z4
X98.417 Y79.158
Z2
G1 Z-4.5 F700
Z-6.5
X98.393 Y79.159
X91.326
G2 X89.826 Y80.659 I0 J1.5
G1 Y88.159
X65.826
Y83.159
X72.326
G2 X73.826 Y81.659 I0 J-1.5
G1 Y67.659
G2 X72.326 Y66.159 I-1.5 J0
G1 X65.826
Y61.159
X89.826
Y68.659
G2 X91.326 Y70.159 I1.5 J0
G1 X97
G2 X98.5 Y68.659 I0 J-1.5
G1 Y26.15
G3 X99.93 Y24.725 Z-6.524 I1.425 J0 F333.3
X101.35 Y26.159 Z-6.548 I-0.005 J1.425
G1 X101.11 Y63.467 Z-6.952
G2 X102.531 Y64.902 Z-6.976 I1.425 J0.009
X103.96 Y63.476 Z-7 I0.004 J-1.425
G1 X103.95 Y36.483 F700
G3 X104.873 Y36.483 I0.461 J0
G1 X104.878 Y49.979
X104.422 Y63.476
X104.414 Y63.545
X104.396 Y63.612
X104.369 Y63.676
X100.825 Y70.384
G2 X101.029 Y71.013 I0.408 J0.216
X101.652 Y70.792 I0.204 J-0.414
X102.118 Y68.659 I-4.652 J-2.132
G1 X102.103 Y29.6
Y29.588
Z-5
X98.4 Y75.545
Z-7
X98.389
X91.326 Y75.542
G2 X87.349 Y77.438 I0 J5.118
X84.192 Y77.575 I0 J36.324
X81.953 Y79.806 I0.214 J2.454
X81.933 Y80.061 I9.373 J0.854
G1 X81.923 Y80.097
X81.901 Y80.127
X81.869 Y80.147
X81.832 Y80.153
X81.796 Y80.144
X81.765 Y80.123
X81.744 Y80.092
X81.737 Y80.055
Y69.264
X81.744 Y69.227
X81.765 Y69.196
X81.796 Y69.174
X81.832 Y69.166
X81.869 Y69.172
X81.901 Y69.191
X81.923 Y69.221
X81.933 Y69.257
G2 X83.863 Y74.394 I9.393 J-0.598
G3 X83.863 Y74.925 I-0.345 J0.265
G2 X81.953 Y79.806 I7.463 J5.735
X82.556 Y81.133 I1.467 J0.134
G3 X82.107 Y82.52 I-0.449 J0.621
G1 X79.722
G3 X79.443 Y82.218 I0 J-0.28
X79.468 Y81.939 I12.034 J0.944
G2 X79.482 Y81.659 I-2.745 J-0.28
G1 Y67.659
G2 X79.468 Y67.38 I-2.76 J0
G3 X79.443 Y67.101 I12.009 J-1.223
X79.722 Y66.799 I0.279 J-0.022
G1 X83.873
G3 X84.186 Y67.112 I0 J0.313
X84.164 Y67.885 I-13.59 J0
G2 X84.142 Y68.659 I13.568 J0.774
X84.963 Y71.946 I6.991 J0
X87.202 Y74.488 I6.479 J-3.451
G3 X87.202 Y74.831 I-0.122 J0.172
G2 X84.963 Y77.373 I4.24 J5.993
X84.142 Y80.659 I6.17 J3.287
X84.164 Y81.433 I13.59 J0
G3 X84.186 Y82.207 I-13.568 J0.774
X83.873 Y82.52 I-0.313 J0
G1 X82.107
G3 X81.423 Y81.715 I0 J-0.694
G1 X81.966 Y78.362
G3 X83.886 Y76.44 I2.217 J0.294
G1 X97.257 Y74.651
X97.425 Y74.635
X97.478 Y74.636
X97.531 Y74.646
X98.476 Y74.913
G3 X98.389 Y75.545 I-0.087 J0.31
G1 X91.326 Y75.542
G2 X86.208 Y80.659 I0 J5.118
X86.23 Y82.463 I72.328 J0
G3 X86.253 Y84.267 I-72.305 J1.804
X85.933 Y84.587 I-0.319 J0
G1 X76.799
G3 X76.647 Y84.315 I0 J-0.178
G2 X77.229 Y83.042 I-4.894 J-3.007
X77.443 Y81.659 I-4.367 J-1.383
G1 Y67.659
G2 X77.229 Y66.276 I-4.58 J0
X76.647 Y65.004 I-5.476 J1.734
G3 X76.799 Y64.732 I0.152 J-0.093
G1 X85.933
G3 X86.253 Y65.051 I0 J0.319
X86.23 Y66.855 I-72.328 J0
G2 X86.208 Y68.659 I72.305 J1.804
X91.326 Y73.777 I5.118 J0
G1 X97
G2 X98.541 Y73.54 I0 J-5.118
G3 X98.801 Y73.742 I0.06 J0.191
G1 X98.596 Y77.25
G3 X98.397 Y77.438 I-0.2 J-0.012
G1 X91.326 Y77.434
G2 X88.101 Y80.659 I0 J3.225
X88.123 Y83.41 I168.106 J0
G3 X88.146 Y86.16 I-168.084 J2.75
X87.826 Y86.479 I-0.319 J0
G1 X67.825
G3 X67.506 Y86.16 I0 J-0.319
G1 Y85.159
G3 X67.825 Y84.839 I0.319 J0
G1 X72.37
G2 X75.55 Y81.659 I0 J-3.18
G1 Y67.659
G2 X72.37 Y64.479 I-3.18 J0
G1 X67.825
G3 X67.506 Y64.16 I0 J-0.319
G1 Y63.159
G3 X67.825 Y62.839 I0.319 J0
G1 X87.826
G3 X88.146 Y63.159 I0 J0.319
X88.123 Y65.909 I-168.107 J0
G2 X88.101 Y68.659 I168.084 J2.75
X91.326 Y71.884 I3.225 J0
G1 X97
G2 X100.225 Y68.659 I0 J-3.225
G1 X100.21 Y28.59
Y28.579
G0 Z4
X98.417 Y79.158
Z2
G1 Z-5 F700
Z-7
X98.393 Y79.159
X91.326
G2 X89.826 Y80.659 I0 J1.5
G1 Y88.159
X65.826
Y83.159
X72.326
G2 X73.826 Y81.659 I0 J-1.5
G1 Y67.659
G2 X72.326 Y66.159 I-1.5 J0
G1 X65.826
Y61.159
X89.826
Y68.659
G2 X91.326 Y70.159 I1.5 J0
G1 X97
G2 X98.5 Y68.659 I0 J-1.5
G1 Y26.15
G3 X99.93 Y24.725 Z-7.024 I1.425 J0 F333.3
X101.35 Y26.159 Z-7.048 I-0.005 J1.425
G1 X101.11 Y63.467 Z-7.452
G2 X102.531 Y64.902 Z-7.476 I1.425 J0.009
X103.96 Y63.476 Z-7.5 I0.004 J-1.425
G1 X103.95 Y36.483 F700
G3 X104.873 Y36.483 I0.461 J0
G1 X104.878 Y49.979
X104.422 Y63.476
X104.414 Y63.545
X104.396 Y63.612
X104.369 Y63.676
X100.825 Y70.384
G2 X101.029 Y71.013 I0.408 J0.216
X101.652 Y70.792 I0.204 J-0.414
X102.118 Y68.659 I-4.652 J-2.132
G1 X102.103 Y29.6
Y29.588
Z-5.5
X98.4 Y75.545
Z-7.5
X98.389
X91.326 Y75.542
G2 X87.349 Y77.438 I0 J5.118
X84.192 Y77.575 I0 J36.324
X81.953 Y79.806 I0.214 J2.454
X81.933 Y80.061 I9.373 J0.854
G1 X81.923 Y80.097
X81.901 Y80.127
X81.869 Y80.147
X81.832 Y80.153
X81.796 Y80.144
X81.765 Y80.123
X81.744 Y80.092
X81.737 Y80.055
Y69.264
X81.744 Y69.227
X81.765 Y69.196
X81.796 Y69.174
X81.832 Y69.166
X81.869 Y69.172
X81.901 Y69.191
X81.923 Y69.221
X81.933 Y69.257
G2 X83.863 Y74.394 I9.393 J-0.598
G3 X83.863 Y74.925 I-0.345 J0.265
G2 X81.953 Y79.806 I7.463 J5.735
