(1001)
(T4  D=0.7 CR=0 - ZMIN=-7.5 - flat end mill)
G90 G94
G17
G21

(Drill2)
T4
S500 M3
G54
M8
G0 X15.338 Y45.051
Z15
Z5
G1 Z-7.5 F80
G0 Z5
Y42.551
G1 Z-7.5 F80
G0 Z5
Y40.051
G1 Z-7.5 F80
G0 Z5
Y37.551
G1 Z-7.5 F80
G0 Z5
Y35.051
G1 Z-7.5 F80
G0 Z5
Y32.551
G1 Z-7.5 F80
G0 Z5
Y30.051
G1 Z-7.5 F80
G0 Z5
Y27.551
G1 Z-7.5 F80
G0 Z5
Y25.051
G1 Z-7.5 F80
G0 Z5
Y22.551
G1 Z-7.5 F80
G0 Z5
Y20.051
G1 Z-7.5 F80
G0 Z5
X30.832 Y25.051
G1 Z-7.5 F80
G0 Z5
Y27.551
G1 Z-7.5 F80
G0 Z5
Y30.051
G1 Z-7.5 F80
G0 Z5
Y32.551
G1 Z-7.5 F80
G0 Z5
Y35.051
G1 Z-7.5 F80
G0 Z5
Y37.551
G1 Z-7.5 F80
G0 Z5
Y45.051
G1 Z-7.5 F80
G0 Z5
X41.575 Y46.075
G1 Z-7.5 F80
G0 Z5
Y3
G1 Z-7.5 F80
G0 Z5
Z15
M9
M5
M30
