(1001)
(T4  D=0.7 CR=0 - ZMIN=-2.5 - flat end mill)
G90 G94
G17
G21

(Pocket1)
T4
S500 M3
G54
M8
G0 X-20.579 Y29.468
Z6
Z1.3
G1 Z0.384 F80
X-20.564 Y29.461 Z0.338
X-20.524 Y29.445 Z0.315
G3 X-20.319 Y30.077 Z0.165 I0.103 J0.316
X-20.524 Y29.445 Z0.015 I-0.103 J-0.316
X-20.319 Y30.077 Z-0.135 I0.103 J0.316
X-20.75 Y29.813 Z-0.218 I-0.103 J-0.316
X-20.422 Y29.428 Z-0.3 I0.328 J-0.052
G1 X-20.416 F150
X-20.381 Y29.434
X-20.349 Y29.449
X-20.324 Y29.474
X-20.307 Y29.505
X-20.299 Y29.533
X-20.298 Y29.562
X-20.305 Y29.591
X-20.307 Y29.598
X-20.324 Y29.629
X-20.35 Y29.653
X-20.382 Y29.669
X-20.417 Y29.674
X-25.061
X-25.097 Y29.669
X-25.129 Y29.653
X-25.154 Y29.628
X-25.171 Y29.596
X-25.173 Y29.591
X-25.18 Y29.551
X-25.173 Y29.512
X-25.171 Y29.506
X-25.154 Y29.475
X-25.129 Y29.45
X-25.097 Y29.434
X-25.061 Y29.428
X-20.422
X-20.375 Y29.422
X-20.333 Y29.402
X-20.298 Y29.37
X-20.274 Y29.33
X-20.254 Y29.3
X-20.223 Y29.279
X-20.187 Y29.271
X-20.151 Y29.277
X-20.119 Y29.296
X-20.097 Y29.326
X-20.082 Y29.367
X-20.065 Y29.419
G3 X-20.065 Y29.68 I-0.352 J0.131
G1 X-20.082 Y29.735
G3 X-20.34 Y29.931 I-0.257 J-0.072
G1 X-25.143
G3 X-25.397 Y29.735 I0 J-0.262
G1 X-25.414 Y29.678
G3 X-25.414 Y29.425 I0.353 J-0.126
G1 X-25.397 Y29.367
G3 X-25.143 Y29.172 I0.254 J0.067
G1 X-20.341
G3 X-20.097 Y29.326 I0 J0.27
G1 X-20.096 Y29.344 Z-0.295 F80
X-20.099 Y29.361 Z-0.291
X-20.11 Y29.384 Z-0.265
X-20.116 Y29.391 Z-0.23
G0 Z4
X-40.499 Y7.21
Z0.384
G1 X-40.507 Y7.195 Z0.338 F80
X-40.523 Y7.155 Z0.315
G3 X-39.891 Y6.95 Z0.165 I0.316 J-0.103
X-40.523 Y7.155 Z0.015 I-0.316 J0.103
X-39.891 Y6.95 Z-0.135 I0.316 J-0.103
X-40.523 Y7.155 Z-0.285 I-0.316 J0.103
X-40.539 Y7.052 Z-0.3 I0.316 J-0.103
G1 Y7.044 F150
X-40.532 Y6.995
X-40.509 Y6.952
X-40.475 Y6.917
X-40.431 Y6.895
X-40.383 Y6.887
X-35.536 Y6.888
X-35.502 Y6.892
X-35.35 Y6.926
X-35.326 Y6.934
X-35.304 Y6.947
X-35.291 Y6.957
X-35.273 Y6.975
X-35.258 Y6.996
X-35.247 Y7.031
Y7.068
X-35.258 Y7.104
X-35.263 Y7.112
X-35.283 Y7.14
X-35.309 Y7.16
X-35.341 Y7.172
X-35.526 Y7.213
X-35.559 Y7.216
X-40.383 Y7.218
X-40.431 Y7.21
X-40.475 Y7.188
X-40.509 Y7.153
X-40.532 Y7.11
X-40.539 Y7.061
Y7.052
G2 X-40.718 Y6.727 I-0.386 J0
G3 X-40.614 Y6.371 I0.104 J-0.163
G1 X-35.536 Y6.372
X-35.463 Y6.376
X-35.391 Y6.388
X-35.21 Y6.429
X-35.141 Y6.449
X-35.075 Y6.48
X-35.015 Y6.519
X-34.955 Y6.564
X-34.901 Y6.613
X-34.853 Y6.669
X-34.815 Y6.731
X-34.782 Y6.794
G3 X-34.781 Y7.305 I-0.489 J0.256
G1 X-34.819 Y7.377
X-34.857 Y7.439
X-34.904 Y7.495
X-34.958 Y7.543
X-35.003 Y7.578
X-35.065 Y7.618
X-35.131 Y7.649
X-35.202 Y7.67
X-35.416 Y7.717
X-35.487 Y7.728
X-35.558 Y7.732
X-40.843 Y7.734
G3 X-41.055 Y7.522 I0 J-0.212
G1 Y6.583
G3 X-40.843 Y6.371 I0.212 J0
G1 X-40.614
G2 X-40.224 Y6.111 I0 J-0.422
G3 X-39.835 Y5.852 I0.389 J0.162
G1 X-35.405 Y5.853
X-34.878 Y5.97
X-34.46 Y6.289
X-34.174 Y6.836
X-34.156 Y6.863
X-34.134 Y6.886
X-34.076 Y6.937
X-34.046 Y6.958
X-34.011 Y6.973
X-33.945 Y6.993
X-33.894 Y7.001
X-6.971
X-6.94 Y29.592
X-15.379 Y29.601
X-19.274 Y29.605
X-19.307 Y29.608
X-19.34 Y29.618
X-19.401 Y29.642
X-19.429 Y29.657
X-19.455 Y29.677
X-19.5 Y29.719
X-19.523 Y29.746
X-19.541 Y29.778
X-19.573 Y29.853
X-19.584 Y29.886
X-19.587 Y29.921
X-19.589 Y30.451
X-25.891
X-25.894 Y29.911
X-25.898 Y29.876
X-25.909 Y29.842
X-25.934 Y29.784
X-25.952 Y29.752
X-25.977 Y29.724
X-26.04 Y29.667
X-26.069 Y29.646
X-26.1 Y29.632
X-26.25 Y29.58
X-26.267 Y29.559
Y29.545
X-26.252 Y29.523
X-26.096 Y29.469
X-26.065 Y29.455
X-26.037 Y29.435
X-25.983 Y29.386
X-25.959 Y29.36
X-25.94 Y29.328
X-25.91 Y29.263
X-25.898 Y29.228
X-25.894 Y29.192
X-25.891 Y28.651
X-19.589
X-19.588 Y29.177
X-19.585 Y29.209
X-19.576 Y29.24
X-19.548 Y29.313
X-19.529 Y29.349
X-19.502 Y29.379
X-19.441 Y29.435
X-19.41 Y29.457
X-19.375 Y29.472
X-19.306 Y29.493
X-19.255 Y29.501
X-7.365 Y29.495
X-7.332 Y29.492
X-7.3 Y29.482
X-7.224 Y29.452
X-7.191 Y29.434
X-7.162 Y29.41
X-7.115 Y29.36
X-7.092 Y29.329
X-7.076 Y29.294
X-7.05 Y29.212
X-7.043 Y29.185
X-7.041 Y29.158
X-7.074 Y7.417
X-7.078 Y7.38
X-7.09 Y7.344
X-7.124 Y7.269
X-7.145 Y7.236
X-7.172 Y7.208
X-7.229 Y7.161
X-7.261 Y7.14
X-7.296 Y7.127
X-7.372 Y7.107
X-7.416 Y7.101
X-33.915 Y7.106
X-33.955 Y7.11
X-33.993 Y7.124
X-34.07 Y7.162
X-34.105 Y7.185
X-34.133 Y7.216
X-34.184 Y7.286
X-34.197 Y7.308
X-34.463 Y7.817
X-34.868 Y8.129
X-35.43 Y8.251
X-41.575 Y8.254
Y5.849
X-41.568 Y5.85
X-41.548 Y5.851
X-39.835 Y5.852
G3 X-39.529 Y6.315 Z-0.378 I0 J0.332 F80
G1 X-39.901 Y7.183 Z-0.491
G3 X-40.539 Y7.052 Z-0.6 I-0.306 J-0.131
G1 Y7.044 F150
X-40.532 Y6.995
X-40.509 Y6.952
X-40.475 Y6.917
X-40.431 Y6.895
X-40.383 Y6.887
X-35.541 Y6.888
X-35.506 Y6.892
X-35.34 Y6.931
X-35.317 Y6.939
X-35.295 Y6.952
X-35.276 Y6.97
X-35.261 Y6.992
X-35.248 Y7.028
X-35.247 Y7.067
X-35.259 Y7.104
X-35.264 Y7.113
X-35.284 Y7.14
X-35.31 Y7.161
X-35.342 Y7.172
X-35.526 Y7.213
X-35.559 Y7.216
X-40.383 Y7.218
X-40.431 Y7.21
X-40.475 Y7.188
X-40.509 Y7.153
X-40.532 Y7.11
X-40.539 Y7.061
Y7.052
G2 X-40.718 Y6.727 I-0.386 J0
G3 X-40.614 Y6.371 I0.104 J-0.163
G1 X-35.541 Y6.372
X-35.465 Y6.377
X-35.391 Y6.39
X-35.197 Y6.434
X-35.128 Y6.455
X-35.063 Y6.486
X-35.003 Y6.526
X-34.955 Y6.563
X-34.901 Y6.611
X-34.855 Y6.666
X-34.817 Y6.727
X-34.782 Y6.794
G3 X-34.782 Y7.304 I-0.486 J0.255
G1 X-34.82 Y7.378
X-34.858 Y7.439
X-34.905 Y7.495
X-34.958 Y7.543
X-35.003 Y7.577
X-35.065 Y7.618
X-35.132 Y7.649
X-35.203 Y7.67
X-35.416 Y7.717
X-35.487 Y7.728
X-35.558 Y7.732
X-40.843 Y7.734
G3 X-41.055 Y7.522 I0 J-0.212
G1 Y6.583
G3 X-40.843 Y6.371 I0.212 J0
G1 X-40.614
X-40.596 Y6.373 Z-0.595 F80
X-40.58 Y6.38 Z-0.591
X-40.56 Y6.396 Z-0.565
X-40.555 Y6.403 Z-0.53
G0 Z4
X-20.579 Y29.468
Z0.084
G1 X-20.564 Y29.461 Z0.038 F80
X-20.524 Y29.445 Z0.015
G3 X-20.319 Y30.077 Z-0.135 I0.103 J0.316
X-20.524 Y29.445 Z-0.285 I-0.103 J-0.316
X-20.319 Y30.077 Z-0.435 I0.103 J0.316
X-20.75 Y29.813 Z-0.518 I-0.103 J-0.316
X-20.422 Y29.428 Z-0.6 I0.328 J-0.052
G1 X-20.416 F150
X-20.381 Y29.434
X-20.349 Y29.449
X-20.324 Y29.474
X-20.307 Y29.505
X-20.299 Y29.533
X-20.298 Y29.562
X-20.305 Y29.591
X-20.307 Y29.598
X-20.324 Y29.629
X-20.35 Y29.653
X-20.382 Y29.669
X-20.417 Y29.674
X-25.061
X-25.097 Y29.669
X-25.129 Y29.653
X-25.154 Y29.628
X-25.171 Y29.596
X-25.173 Y29.591
X-25.18 Y29.551
X-25.173 Y29.512
X-25.171 Y29.506
X-25.154 Y29.475
X-25.129 Y29.45
X-25.097 Y29.434
X-25.061 Y29.428
X-20.422
X-20.375 Y29.422
X-20.333 Y29.402
X-20.298 Y29.37
X-20.274 Y29.33
X-20.254 Y29.3
X-20.223 Y29.279
X-20.187 Y29.271
X-20.151 Y29.277
X-20.119 Y29.296
X-20.097 Y29.326
X-20.082 Y29.367
X-20.065 Y29.419
G3 X-20.065 Y29.68 I-0.352 J0.131
G1 X-20.082 Y29.735
G3 X-20.34 Y29.931 I-0.257 J-0.072
G1 X-25.143
G3 X-25.397 Y29.735 I0 J-0.262
G1 X-25.414 Y29.678
G3 X-25.414 Y29.425 I0.353 J-0.126
G1 X-25.397 Y29.367
G3 X-25.143 Y29.172 I0.254 J0.067
G1 X-20.341
G3 X-20.097 Y29.326 I0 J0.27
G2 X-19.578 Y29.571 I0.409 J-0.194
G3 X-19.009 Y29.501 I0.571 J2.27
G1 X-7.365 Y29.495
X-7.332 Y29.492
X-7.3 Y29.482
X-7.224 Y29.452
X-7.191 Y29.434
X-7.162 Y29.41
X-7.115 Y29.36
X-7.092 Y29.329
X-7.076 Y29.294
X-7.05 Y29.212
X-7.043 Y29.185
X-7.041 Y29.158
X-7.074 Y7.417
X-7.078 Y7.38
X-7.09 Y7.344
X-7.124 Y7.269
X-7.145 Y7.236
X-7.172 Y7.208
X-7.229 Y7.161
X-7.261 Y7.14
X-7.296 Y7.127
X-7.372 Y7.107
X-7.416 Y7.101
X-33.915 Y7.106
X-33.955 Y7.11
X-33.993 Y7.124
X-34.07 Y7.162
X-34.105 Y7.185
X-34.133 Y7.216
X-34.184 Y7.286
X-34.197 Y7.308
X-34.464 Y7.817
X-34.868 Y8.129
X-35.43 Y8.251
X-41.575 Y8.254
Y5.849
X-41.568 Y5.85
X-41.548 Y5.851
X-35.406 Y5.853
X-34.862 Y5.978
X-34.461 Y6.288
X-34.174 Y6.836
X-34.156 Y6.863
X-34.134 Y6.886
X-34.076 Y6.937
X-34.046 Y6.958
X-34.011 Y6.973
X-33.945 Y6.993
X-33.894 Y7.001
X-6.971
X-6.94 Y29.592
X-15.379 Y29.601
X-19.274 Y29.605
X-19.307 Y29.608
X-19.34 Y29.618
X-19.401 Y29.642
X-19.429 Y29.657
X-19.455 Y29.677
X-19.5 Y29.719
X-19.523 Y29.746
X-19.541 Y29.778
X-19.573 Y29.853
X-19.584 Y29.886
X-19.587 Y29.921
X-19.589 Y30.451
X-25.891
X-25.894 Y29.911
X-25.898 Y29.876
X-25.909 Y29.842
X-25.934 Y29.784
X-25.952 Y29.752
X-25.977 Y29.724
X-26.04 Y29.667
X-26.069 Y29.646
X-26.1 Y29.632
X-26.25 Y29.58
X-26.266 Y29.559
X-26.267 Y29.545
X-26.252 Y29.523
X-26.096 Y29.469
X-26.065 Y29.455
X-26.037 Y29.435
X-25.983 Y29.386
X-25.959 Y29.36
X-25.94 Y29.328
X-25.91 Y29.263
X-25.898 Y29.228
X-25.894 Y29.192
X-25.891 Y28.651
X-19.589
X-19.588 Y29.177
X-19.585 Y29.209
X-19.576 Y29.24
X-19.548 Y29.313
X-19.529 Y29.349
X-19.502 Y29.379
X-19.441 Y29.435
X-19.41 Y29.457
X-19.375 Y29.472
X-19.306 Y29.493
X-19.255 Y29.501
X-19.009
X-18.995 Y29.507
X-18.992 Y29.522
X-19.002 Y29.534
X-19.061 Y29.557
X-19.884 Y29.623
X-20.587 Y30.026
X-20.607 Y30.03
X-20.626 Y30.023
G3 X-20.422 Y29.428 Z-0.9 I0.205 J-0.262 F80
G1 X-20.416 F150
X-20.381 Y29.434
X-20.349 Y29.449
X-20.324 Y29.474
X-20.307 Y29.505
X-20.299 Y29.533
X-20.298 Y29.562
X-20.305 Y29.591
X-20.307 Y29.598
X-20.324 Y29.629
X-20.35 Y29.653
X-20.382 Y29.669
X-20.417 Y29.674
X-25.061
X-25.097 Y29.669
X-25.129 Y29.653
X-25.154 Y29.628
X-25.171 Y29.596
X-25.173 Y29.591
X-25.18 Y29.551
X-25.173 Y29.512
X-25.171 Y29.506
X-25.154 Y29.475
X-25.129 Y29.45
X-25.097 Y29.434
X-25.061 Y29.428
X-20.422
X-20.375 Y29.422
X-20.333 Y29.402
X-20.298 Y29.37
X-20.274 Y29.33
X-20.254 Y29.3
X-20.223 Y29.279
X-20.187 Y29.271
X-20.151 Y29.277
X-20.119 Y29.296
X-20.097 Y29.326
X-20.082 Y29.367
X-20.065 Y29.419
G3 X-20.065 Y29.68 I-0.352 J0.131
G1 X-20.082 Y29.735
G3 X-20.34 Y29.931 I-0.257 J-0.072
G1 X-25.143
G3 X-25.397 Y29.735 I0 J-0.262
G1 X-25.414 Y29.678
G3 X-25.414 Y29.425 I0.353 J-0.126
G1 X-25.397 Y29.367
G3 X-25.143 Y29.172 I0.254 J0.067
G1 X-20.341
G3 X-20.097 Y29.326 I0 J0.27
G1 X-20.096 Y29.344 Z-0.895 F80
X-20.099 Y29.361 Z-0.891
X-20.11 Y29.384 Z-0.865
X-20.116 Y29.391 Z-0.83
G0 Z4
X-40.499 Y7.21
Z1.3
G1 Z-0.216 F80
X-40.507 Y7.195 Z-0.262
X-40.523 Y7.155 Z-0.285
G3 X-39.891 Y6.95 Z-0.435 I0.316 J-0.103
X-40.523 Y7.155 Z-0.585 I-0.316 J0.103
X-39.891 Y6.95 Z-0.735 I0.316 J-0.103
X-40.523 Y7.155 Z-0.885 I-0.316 J0.103
X-40.539 Y7.052 Z-0.9 I0.316 J-0.103
G1 Y7.044 F150
X-40.532 Y6.995
X-40.509 Y6.952
X-40.475 Y6.917
X-40.431 Y6.895
X-40.383 Y6.887
X-35.54 Y6.888
X-35.505 Y6.892
X-35.343 Y6.93
X-35.319 Y6.938
X-35.297 Y6.951
X-35.293 Y6.954
X-35.275 Y6.972
X-35.261 Y6.992
X-35.248 Y7.028
Y7.067
X-35.26 Y7.104
X-35.265 Y7.113
X-35.285 Y7.14
X-35.311 Y7.161
X-35.343 Y7.173
X-35.526 Y7.213
X-35.559 Y7.216
X-40.383 Y7.218
X-40.431 Y7.21
X-40.475 Y7.188
X-40.509 Y7.153
X-40.532 Y7.11
X-40.539 Y7.061
Y7.052
G2 X-40.718 Y6.727 I-0.386 J0
G3 X-40.614 Y6.371 I0.104 J-0.163
G1 X-35.54 Y6.372
X-35.465 Y6.377
X-35.391 Y6.389
X-35.199 Y6.433
X-35.13 Y6.454
X-35.065 Y6.485
X-35.004 Y6.525
X-34.955 Y6.564
X-34.901 Y6.611
X-34.856 Y6.666
X-34.818 Y6.727
X-34.782 Y6.795
G3 X-34.782 Y7.303 I-0.482 J0.254
G1 X-34.822 Y7.379
X-34.859 Y7.44
X-34.905 Y7.495
X-34.959 Y7.542
X-35.004 Y7.577
X-35.066 Y7.618
X-35.133 Y7.649
X-35.204 Y7.67
X-35.416 Y7.717
X-35.487 Y7.728
X-35.558 Y7.732
X-40.843 Y7.734
G3 X-41.055 Y7.522 I0 J-0.212
G1 Y6.583
G3 X-40.843 Y6.371 I0.212 J0
G1 X-40.614
G2 X-40.224 Y6.111 I0 J-0.422
G3 X-39.835 Y5.852 I0.389 J0.162
G1 X-35.406 Y5.853
X-34.864 Y5.977
X-34.462 Y6.289
X-34.173 Y6.836
X-34.156 Y6.863
X-34.134 Y6.886
X-34.076 Y6.937
X-34.046 Y6.958
X-34.011 Y6.973
X-33.945 Y6.993
X-33.894 Y7.001
X-6.971
X-6.94 Y29.592
X-15.379 Y29.601
X-19.274 Y29.605
X-19.307 Y29.608
X-19.34 Y29.618
X-19.401 Y29.642
X-19.429 Y29.657
X-19.455 Y29.677
X-19.5 Y29.719
X-19.523 Y29.746
X-19.541 Y29.778
X-19.573 Y29.853
X-19.584 Y29.886
X-19.587 Y29.921
X-19.589 Y30.451
X-25.891
X-25.894 Y29.911
X-25.898 Y29.876
X-25.909 Y29.842
X-25.934 Y29.784
X-25.952 Y29.752
X-25.977 Y29.724
X-26.04 Y29.667
X-26.069 Y29.646
X-26.1 Y29.632
X-26.25 Y29.58
X-26.266 Y29.559
X-26.267 Y29.545
X-26.252 Y29.523
X-26.096 Y29.469
X-26.065 Y29.455
X-26.037 Y29.435
X-25.983 Y29.386
X-25.959 Y29.36
X-25.94 Y29.328
X-25.91 Y29.263
X-25.898 Y29.228
X-25.894 Y29.192
X-25.891 Y28.651
X-19.589
X-19.588 Y29.177
X-19.585 Y29.209
X-19.576 Y29.24
X-19.548 Y29.313
X-19.529 Y29.349
X-19.502 Y29.379
X-19.441 Y29.435
X-19.41 Y29.457
X-19.375 Y29.472
X-19.306 Y29.493
X-19.255 Y29.501
X-7.365 Y29.495
X-7.332 Y29.492
X-7.3 Y29.482
X-7.224 Y29.452
X-7.191 Y29.434
X-7.162 Y29.41
X-7.115 Y29.36
X-7.092 Y29.329
X-7.076 Y29.294
X-7.05 Y29.212
X-7.043 Y29.185
X-7.041 Y29.158
X-7.074 Y7.417
X-7.078 Y7.38
X-7.09 Y7.344
X-7.124 Y7.269
X-7.145 Y7.236
X-7.172 Y7.208
X-7.229 Y7.161
X-7.261 Y7.14
X-7.296 Y7.127
X-7.372 Y7.107
X-7.416 Y7.101
X-33.915 Y7.106
X-33.955 Y7.11
X-33.993 Y7.124
X-34.07 Y7.162
X-34.105 Y7.185
X-34.133 Y7.216
X-34.184 Y7.286
X-34.197 Y7.307
X-34.466 Y7.817
X-34.868 Y8.129
X-35.43 Y8.251
X-41.575 Y8.254
Y5.849
X-41.568 Y5.85
X-41.548 Y5.851
X-39.835 Y5.852
G3 X-39.529 Y6.315 Z-0.978 I0 J0.332 F80
G1 X-39.901 Y7.183 Z-1.091
G3 X-40.539 Y7.052 Z-1.2 I-0.306 J-0.131
G1 Y7.044 F150
X-40.532 Y6.995
X-40.509 Y6.952
X-40.475 Y6.917
X-40.431 Y6.895
X-40.383 Y6.887
X-35.539 Y6.888
X-35.505 Y6.892
X-35.345 Y6.929
X-35.321 Y6.937
X-35.299 Y6.95
X-35.293 Y6.955
X-35.276 Y6.972
X-35.262 Y6.992
X-35.249 Y7.029
X-35.248 Y7.067
X-35.261 Y7.104
X-35.266 Y7.113
X-35.286 Y7.141
X-35.312 Y7.161
X-35.344 Y7.173
X-35.526 Y7.213
X-35.559 Y7.216
X-40.383 Y7.218
X-40.431 Y7.21
X-40.475 Y7.188
X-40.509 Y7.153
X-40.532 Y7.11
X-40.539 Y7.061
Y7.052
G2 X-40.718 Y6.727 I-0.386 J0
G3 X-40.614 Y6.371 I0.104 J-0.163
G1 X-35.539 Y6.372
X-35.464 Y6.377
X-35.391 Y6.389
X-35.202 Y6.432
X-35.132 Y6.453
X-35.066 Y6.484
X-35.006 Y6.525
X-34.955 Y6.564
X-34.902 Y6.612
X-34.856 Y6.666
X-34.819 Y6.726
X-34.782 Y6.796
G3 X-34.782 Y7.303 I-0.479 J0.253
G1 X-34.823 Y7.38
X-34.86 Y7.44
X-34.906 Y7.494
X-34.959 Y7.541
X-35.004 Y7.577
X-35.066 Y7.618
X-35.133 Y7.649
X-35.205 Y7.671
X-35.416 Y7.717
X-35.487 Y7.728
X-35.559 Y7.732
X-40.843 Y7.734
G3 X-41.055 Y7.522 I0 J-0.212
G1 Y6.583
G3 X-40.843 Y6.371 I0.212 J0
G1 X-40.614
X-40.596 Y6.373 Z-1.195 F80
X-40.58 Y6.38 Z-1.191
X-40.56 Y6.396 Z-1.165
X-40.555 Y6.403 Z-1.13
G0 Z4
X-20.579 Y29.468
G1 Z-0.516 F80
X-20.564 Y29.461 Z-0.562
X-20.524 Y29.445 Z-0.585
G3 X-20.319 Y30.077 Z-0.735 I0.103 J0.316
X-20.524 Y29.445 Z-0.885 I-0.103 J-0.316
X-20.319 Y30.077 Z-1.035 I0.103 J0.316
X-20.75 Y29.813 Z-1.118 I-0.103 J-0.316
X-20.422 Y29.428 Z-1.2 I0.328 J-0.052
G1 X-20.416 F150
X-20.381 Y29.434
X-20.349 Y29.449
X-20.324 Y29.474
X-20.307 Y29.505
X-20.299 Y29.533
X-20.298 Y29.562
X-20.305 Y29.591
X-20.307 Y29.598
X-20.324 Y29.629
X-20.35 Y29.653
X-20.382 Y29.669
X-20.417 Y29.674
X-25.061
X-25.097 Y29.669
X-25.129 Y29.653
X-25.154 Y29.628
X-25.171 Y29.596
X-25.173 Y29.591
X-25.18 Y29.551
X-25.173 Y29.512
X-25.171 Y29.506
X-25.154 Y29.475
X-25.129 Y29.45
X-25.097 Y29.434
X-25.061 Y29.428
X-20.422
X-20.375 Y29.422
X-20.333 Y29.402
X-20.298 Y29.37
X-20.274 Y29.33
X-20.254 Y29.3
X-20.223 Y29.279
X-20.187 Y29.271
X-20.151 Y29.277
X-20.119 Y29.296
X-20.097 Y29.326
X-20.082 Y29.367
X-20.065 Y29.419
G3 X-20.065 Y29.68 I-0.352 J0.131
G1 X-20.082 Y29.735
G3 X-20.34 Y29.931 I-0.257 J-0.072
G1 X-25.143
G3 X-25.397 Y29.735 I0 J-0.262
G1 X-25.414 Y29.678
G3 X-25.414 Y29.425 I0.353 J-0.126
G1 X-25.397 Y29.367
G3 X-25.143 Y29.172 I0.254 J0.067
G1 X-20.341
G3 X-20.097 Y29.326 I0 J0.27
G2 X-19.578 Y29.571 I0.409 J-0.194
G3 X-19.009 Y29.501 I0.571 J2.27
G1 X-7.365 Y29.495
X-7.332 Y29.492
X-7.3 Y29.482
X-7.224 Y29.452
X-7.191 Y29.434
X-7.162 Y29.41
X-7.115 Y29.36
X-7.092 Y29.329
X-7.076 Y29.294
X-7.05 Y29.212
X-7.043 Y29.185
X-7.041 Y29.158
X-7.074 Y7.417
X-7.078 Y7.38
X-7.09 Y7.344
X-7.124 Y7.269
X-7.145 Y7.236
X-7.172 Y7.208
X-7.229 Y7.161
X-7.261 Y7.14
X-7.296 Y7.127
X-7.372 Y7.107
X-7.416 Y7.101
X-33.915 Y7.106
X-33.955 Y7.11
X-33.993 Y7.124
X-34.07 Y7.162
X-34.105 Y7.185
X-34.133 Y7.216
X-34.184 Y7.286
X-34.197 Y7.307
X-34.467 Y7.817
X-34.868 Y8.129
X-35.43 Y8.251
X-41.575 Y8.254
Y5.849
X-41.568 Y5.85
X-41.548 Y5.851
X-35.406 Y5.853
X-34.866 Y5.976
X-34.462 Y6.289
X-34.173 Y6.836
X-34.156 Y6.863
X-34.134 Y6.886
X-34.076 Y6.937
X-34.046 Y6.958
X-34.011 Y6.973
X-33.945 Y6.993
X-33.894 Y7.001
X-6.971
X-6.94 Y29.592
X-15.379 Y29.601
X-19.274 Y29.605
X-19.307 Y29.608
X-19.34 Y29.618
X-19.401 Y29.642
X-19.429 Y29.657
X-19.455 Y29.677
X-19.5 Y29.719
X-19.523 Y29.746
X-19.541 Y29.778
X-19.573 Y29.853
X-19.584 Y29.886
X-19.587 Y29.921
X-19.589 Y30.451
X-25.891
X-25.894 Y29.911
X-25.898 Y29.876
X-25.909 Y29.842
X-25.934 Y29.784
X-25.952 Y29.752
X-25.977 Y29.724
X-26.04 Y29.667
X-26.069 Y29.646
X-26.1 Y29.632
X-26.25 Y29.58
X-26.266 Y29.56
Y29.545
X-26.251 Y29.523
X-26.096 Y29.469
X-26.065 Y29.455
X-26.037 Y29.435
X-25.983 Y29.386
X-25.959 Y29.36
X-25.94 Y29.328
X-25.91 Y29.263
X-25.898 Y29.228
X-25.894 Y29.192
X-25.891 Y28.651
X-19.589
X-19.588 Y29.177
X-19.585 Y29.209
X-19.576 Y29.24
X-19.548 Y29.313
X-19.529 Y29.349
X-19.502 Y29.379
X-19.441 Y29.435
X-19.41 Y29.457
X-19.375 Y29.472
X-19.306 Y29.493
X-19.255 Y29.501
X-19.009
X-18.995 Y29.507
X-18.992 Y29.522
X-19.002 Y29.534
X-19.061 Y29.557
X-19.884 Y29.623
X-20.587 Y30.026
X-20.607 Y30.03
X-20.626 Y30.023
G3 X-20.422 Y29.428 Z-1.5 I0.205 J-0.262 F80
G1 X-20.416 F150
X-20.381 Y29.434
X-20.349 Y29.449
X-20.324 Y29.474
X-20.307 Y29.505
X-20.299 Y29.533
X-20.298 Y29.562
X-20.305 Y29.591
X-20.307 Y29.598
X-20.324 Y29.629
X-20.35 Y29.653
X-20.382 Y29.669
X-20.417 Y29.674
X-25.061
X-25.097 Y29.669
X-25.129 Y29.653
X-25.154 Y29.628
X-25.171 Y29.596
X-25.173 Y29.591
X-25.18 Y29.551
X-25.173 Y29.512
X-25.171 Y29.506
X-25.154 Y29.475
X-25.129 Y29.45
X-25.097 Y29.434
X-25.061 Y29.428
X-20.422
X-20.375 Y29.422
X-20.333 Y29.402
X-20.298 Y29.37
X-20.274 Y29.33
X-20.254 Y29.3
X-20.223 Y29.279
X-20.187 Y29.271
X-20.151 Y29.277
X-20.119 Y29.296
X-20.097 Y29.326
X-20.082 Y29.367
X-20.065 Y29.419
G3 X-20.065 Y29.68 I-0.352 J0.131
G1 X-20.082 Y29.735
G3 X-20.34 Y29.931 I-0.257 J-0.072
G1 X-25.143
G3 X-25.397 Y29.735 I0 J-0.262
G1 X-25.414 Y29.678
G3 X-25.414 Y29.425 I0.353 J-0.126
G1 X-25.397 Y29.367
G3 X-25.143 Y29.172 I0.254 J0.067
G1 X-20.341
G3 X-20.097 Y29.326 I0 J0.27
G1 X-20.096 Y29.344 Z-1.495 F80
X-20.099 Y29.361 Z-1.491
X-20.11 Y29.384 Z-1.465
X-20.116 Y29.391 Z-1.43
G0 Z4
X-40.499 Y7.21
G1 Z-0.816 F80
X-40.507 Y7.195 Z-0.862
X-40.523 Y7.155 Z-0.885
G3 X-39.891 Y6.95 Z-1.035 I0.316 J-0.103
X-40.523 Y7.155 Z-1.185 I-0.316 J0.103
X-39.891 Y6.95 Z-1.335 I0.316 J-0.103
X-40.523 Y7.155 Z-1.485 I-0.316 J0.103
X-40.539 Y7.052 Z-1.5 I0.316 J-0.103
G1 Y7.044 F150
X-40.532 Y6.995
X-40.509 Y6.952
X-40.475 Y6.917
X-40.431 Y6.895
X-40.383 Y6.887
X-35.538 Y6.888
X-35.504 Y6.892
X-35.347 Y6.928
X-35.323 Y6.936
X-35.301 Y6.949
X-35.294 Y6.955
X-35.276 Y6.972
X-35.262 Y6.993
X-35.26 Y6.998
X-35.248 Y7.033
X-35.247 Y7.071
X-35.259 Y7.106
X-35.273 Y7.128
X-35.292 Y7.146
X-35.298 Y7.151
X-35.32 Y7.164
X-35.345 Y7.173
X-35.526 Y7.212
X-35.56 Y7.216
X-40.383 Y7.218
X-40.431 Y7.21
X-40.475 Y7.188
X-40.509 Y7.153
X-40.532 Y7.11
X-40.539 Y7.061
Y7.052
G2 X-40.718 Y6.727 I-0.386 J0
G3 X-40.614 Y6.371 I0.104 J-0.163
G1 X-35.538 Y6.372
X-35.464 Y6.377
X-35.391 Y6.389
X-35.205 Y6.431
X-35.135 Y6.452
X-35.068 Y6.484
X-35.007 Y6.524
X-34.955 Y6.565
X-34.902 Y6.612
X-34.857 Y6.666
X-34.819 Y6.726
X-34.783 Y6.795
G3 X-34.781 Y7.305 I-0.484 J0.257
G1 X-34.815 Y7.371
X-34.853 Y7.432
X-34.899 Y7.488
X-34.952 Y7.536
X-35.005 Y7.576
X-35.067 Y7.618
X-35.134 Y7.649
X-35.205 Y7.67
X-35.416 Y7.717
X-35.487 Y7.728
X-35.559 Y7.732
X-40.843 Y7.734
G3 X-41.055 Y7.522 I0 J-0.212
G1 Y6.583
G3 X-40.843 Y6.371 I0.212 J0
G1 X-40.614
G2 X-40.224 Y6.111 I0 J-0.422
G3 X-39.835 Y5.852 I0.389 J0.162
G1 X-35.405 Y5.853
X-34.868 Y5.974
X-34.463 Y6.29
X-34.173 Y6.837
X-34.156 Y6.863
X-34.134 Y6.886
X-34.076 Y6.937
X-34.046 Y6.958
X-34.011 Y6.973
X-33.945 Y6.993
X-33.894 Y7.001
X-6.971
X-6.94 Y29.592
X-15.379 Y29.601
X-19.274 Y29.605
X-19.307 Y29.608
X-19.34 Y29.618
X-19.401 Y29.642
X-19.429 Y29.657
X-19.455 Y29.677
X-19.5 Y29.719
X-19.523 Y29.746
X-19.541 Y29.778
X-19.573 Y29.853
X-19.584 Y29.886
X-19.587 Y29.921
X-19.589 Y30.451
X-25.891
X-25.894 Y29.911
X-25.898 Y29.876
X-25.909 Y29.842
X-25.934 Y29.784
X-25.952 Y29.752
X-25.977 Y29.724
X-26.04 Y29.667
X-26.069 Y29.646
X-26.1 Y29.632
X-26.25 Y29.58
X-26.266 Y29.56
Y29.544
X-26.251 Y29.523
X-26.096 Y29.469
X-26.065 Y29.455
X-26.037 Y29.435
X-25.983 Y29.386
X-25.959 Y29.36
X-25.94 Y29.328
X-25.91 Y29.263
X-25.898 Y29.228
X-25.894 Y29.192
X-25.891 Y28.651
X-19.589
X-19.588 Y29.177
X-19.585 Y29.209
X-19.576 Y29.24
X-19.548 Y29.313
X-19.529 Y29.349
X-19.502 Y29.379
X-19.441 Y29.435
X-19.41 Y29.457
X-19.375 Y29.472
X-19.306 Y29.493
X-19.255 Y29.501
X-7.365 Y29.495
X-7.332 Y29.492
X-7.3 Y29.482
X-7.224 Y29.452
X-7.191 Y29.434
X-7.162 Y29.41
X-7.115 Y29.36
X-7.092 Y29.329
X-7.076 Y29.294
X-7.05 Y29.212
X-7.043 Y29.185
X-7.041 Y29.158
X-7.074 Y7.417
X-7.078 Y7.38
X-7.09 Y7.344
X-7.124 Y7.269
X-7.145 Y7.236
X-7.172 Y7.208
X-7.229 Y7.161
X-7.261 Y7.14
X-7.296 Y7.127
X-7.372 Y7.107
X-7.416 Y7.101
X-33.915 Y7.106
X-33.955 Y7.11
X-33.993 Y7.124
X-34.07 Y7.162
X-34.105 Y7.185
X-34.133 Y7.216
X-34.184 Y7.286
X-34.197 Y7.308
X-34.457 Y7.809
X-34.868 Y8.128
X-35.43 Y8.251
X-41.575 Y8.254
Y5.849
X-41.568 Y5.85
X-41.548 Y5.851
X-39.835 Y5.852
G3 X-39.529 Y6.315 Z-1.578 I0 J0.332 F80
G1 X-39.901 Y7.183 Z-1.691
G3 X-40.539 Y7.052 Z-1.8 I-0.306 J-0.131
G1 Y7.044 F150
X-40.532 Y6.995
X-40.509 Y6.952
X-40.475 Y6.917
X-40.431 Y6.895
X-40.383 Y6.887
X-35.539 Y6.888
X-35.504 Y6.892
X-35.349 Y6.928
X-35.325 Y6.936
X-35.303 Y6.949
X-35.293 Y6.957
X-35.276 Y6.974
X-35.262 Y6.994
X-35.248 Y7.031
X-35.247 Y7.07
X-35.259 Y7.107
X-35.274 Y7.129
X-35.293 Y7.147
X-35.297 Y7.15
X-35.319 Y7.164
X-35.343 Y7.172
X-35.527 Y7.212
X-35.56 Y7.216
X-40.383 Y7.218
X-40.431 Y7.21
X-40.475 Y7.188
X-40.509 Y7.153
X-40.532 Y7.11
X-40.539 Y7.061
Y7.052
G2 X-40.718 Y6.727 I-0.386 J0
G3 X-40.614 Y6.371 I0.104 J-0.163
G1 X-35.539 Y6.372
X-35.464 Y6.377
X-35.391 Y6.389
X-35.207 Y6.431
X-35.137 Y6.452
X-35.07 Y6.483
X-35.01 Y6.524
X-34.955 Y6.567
X-34.902 Y6.614
X-34.857 Y6.667
X-34.82 Y6.727
X-34.783 Y6.796
G3 X-34.781 Y7.305 I-0.483 J0.257
G1 X-34.816 Y7.372
X-34.854 Y7.434
X-34.9 Y7.49
X-34.954 Y7.538
X-35.004 Y7.577
X-35.066 Y7.617
X-35.133 Y7.649
X-35.203 Y7.67
X-35.416 Y7.716
X-35.487 Y7.728
X-35.56 Y7.732
X-40.843 Y7.734
G3 X-41.055 Y7.522 I0 J-0.212
G1 Y6.583
G3 X-40.843 Y6.371 I0.212 J0
G1 X-40.614
X-40.596 Y6.373 Z-1.795 F80
X-40.58 Y6.38 Z-1.791
X-40.56 Y6.396 Z-1.765
X-40.555 Y6.403 Z-1.73
G0 Z4
X-20.579 Y29.468
G1 Z-1.116 F80
X-20.564 Y29.461 Z-1.162
X-20.524 Y29.445 Z-1.185
G3 X-20.319 Y30.077 Z-1.335 I0.103 J0.316
X-20.524 Y29.445 Z-1.485 I-0.103 J-0.316
X-20.319 Y30.077 Z-1.635 I0.103 J0.316
X-20.75 Y29.813 Z-1.717 I-0.103 J-0.316
X-20.422 Y29.428 Z-1.8 I0.328 J-0.052
G1 X-20.416 F150
X-20.381 Y29.434
X-20.349 Y29.449
X-20.324 Y29.474
X-20.307 Y29.505
X-20.299 Y29.533
X-20.298 Y29.562
X-20.305 Y29.591
X-20.307 Y29.598
X-20.324 Y29.629
X-20.35 Y29.653
X-20.382 Y29.669
X-20.417 Y29.674
X-25.061
X-25.097 Y29.669
X-25.129 Y29.653
X-25.154 Y29.628
X-25.171 Y29.596
X-25.173 Y29.591
X-25.18 Y29.551
X-25.173 Y29.512
X-25.171 Y29.506
X-25.154 Y29.475
X-25.129 Y29.45
X-25.097 Y29.434
X-25.061 Y29.428
X-20.422
X-20.375 Y29.422
X-20.333 Y29.402
X-20.298 Y29.37
X-20.274 Y29.33
X-20.254 Y29.3
X-20.223 Y29.279
X-20.187 Y29.271
X-20.151 Y29.277
X-20.119 Y29.296
X-20.097 Y29.326
X-20.082 Y29.367
X-20.065 Y29.419
G3 X-20.065 Y29.68 I-0.352 J0.131
G1 X-20.082 Y29.735
G3 X-20.34 Y29.931 I-0.257 J-0.072
G1 X-25.143
G3 X-25.397 Y29.735 I0 J-0.262
G1 X-25.414 Y29.678
G3 X-25.414 Y29.425 I0.353 J-0.126
G1 X-25.397 Y29.367
G3 X-25.143 Y29.172 I0.254 J0.067
G1 X-20.341
G3 X-20.097 Y29.326 I0 J0.27
G2 X-19.578 Y29.571 I0.409 J-0.194
G3 X-19.009 Y29.501 I0.571 J2.27
G1 X-7.365 Y29.495
X-7.332 Y29.492
X-7.3 Y29.482
X-7.224 Y29.452
X-7.191 Y29.434
X-7.162 Y29.41
X-7.115 Y29.36
X-7.092 Y29.329
X-7.076 Y29.294
X-7.05 Y29.212
X-7.043 Y29.185
X-7.041 Y29.158
X-7.074 Y7.417
X-7.078 Y7.38
X-7.09 Y7.344
X-7.124 Y7.269
X-7.145 Y7.236
X-7.172 Y7.208
X-7.229 Y7.161
X-7.261 Y7.14
X-7.296 Y7.127
X-7.372 Y7.107
X-7.416 Y7.101
X-33.915 Y7.106
X-33.955 Y7.11
X-33.993 Y7.124
X-34.07 Y7.162
X-34.105 Y7.185
X-34.133 Y7.216
X-34.184 Y7.286
X-34.197 Y7.308
X-34.451 Y7.797
X-34.558 Y7.888
X-34.868 Y8.128
X-35.43 Y8.251
X-41.575 Y8.254
Y5.849
X-41.568 Y5.85
X-41.548 Y5.851
X-35.406 Y5.853
X-34.87 Y5.974
X-34.464 Y6.291
X-34.173 Y6.837
X-34.156 Y6.863
X-34.134 Y6.886
X-34.076 Y6.937
X-34.046 Y6.958
X-34.011 Y6.973
X-33.945 Y6.993
X-33.894 Y7.001
X-6.971
X-6.94 Y29.592
X-15.379 Y29.601
X-19.274 Y29.605
X-19.307 Y29.608
X-19.34 Y29.618
X-19.401 Y29.642
X-19.429 Y29.657
X-19.455 Y29.677
X-19.5 Y29.719
X-19.523 Y29.746
X-19.541 Y29.778
X-19.573 Y29.853
X-19.584 Y29.886
X-19.587 Y29.921
X-19.589 Y30.451
X-25.891
X-25.894 Y29.911
X-25.898 Y29.876
X-25.909 Y29.842
X-25.934 Y29.784
X-25.952 Y29.752
X-25.977 Y29.724
X-26.04 Y29.667
X-26.069 Y29.646
X-26.1 Y29.632
X-26.25 Y29.58
X-26.263 Y29.563
X-26.264 Y29.542
X-26.251 Y29.523
X-26.096 Y29.469
X-26.065 Y29.455
X-26.037 Y29.435
X-25.983 Y29.386
X-25.959 Y29.36
X-25.94 Y29.328
X-25.91 Y29.263
X-25.898 Y29.228
X-25.894 Y29.192
X-25.891 Y28.651
X-19.589
X-19.588 Y29.177
X-19.585 Y29.209
X-19.576 Y29.24
X-19.548 Y29.313
X-19.529 Y29.349
X-19.502 Y29.379
X-19.441 Y29.435
X-19.41 Y29.457
X-19.375 Y29.472
X-19.306 Y29.493
X-19.255 Y29.501
X-19.009
X-18.995 Y29.507
X-18.992 Y29.522
X-19.001 Y29.534
X-19.06 Y29.56
X-19.797 Y29.675
X-20.713 Y29.82
X-20.731 Y29.818
X-20.746 Y29.806
X-20.753 Y29.788
G3 X-20.422 Y29.428 Z-2 I0.331 J-0.027 F80
G1 X-20.416 F150
X-20.381 Y29.434
X-20.349 Y29.449
X-20.324 Y29.474
X-20.307 Y29.505
X-20.299 Y29.533
X-20.298 Y29.562
X-20.305 Y29.591
X-20.307 Y29.598
X-20.324 Y29.629
X-20.35 Y29.653
X-20.382 Y29.669
X-20.417 Y29.674
X-25.061
X-25.097 Y29.669
X-25.129 Y29.653
X-25.154 Y29.628
X-25.171 Y29.596
X-25.173 Y29.591
X-25.18 Y29.551
X-25.173 Y29.512
X-25.171 Y29.506
X-25.154 Y29.475
X-25.129 Y29.45
X-25.097 Y29.434
X-25.061 Y29.428
X-20.422
X-20.375 Y29.422
X-20.333 Y29.402
X-20.298 Y29.37
X-20.274 Y29.33
X-20.254 Y29.3
X-20.223 Y29.279
X-20.187 Y29.271
X-20.151 Y29.277
X-20.119 Y29.296
X-20.097 Y29.326
X-20.082 Y29.367
X-20.065 Y29.419
G3 X-20.065 Y29.68 I-0.352 J0.131
G1 X-20.082 Y29.735
G3 X-20.34 Y29.931 I-0.257 J-0.072
G1 X-25.143
G3 X-25.397 Y29.735 I0 J-0.262
G1 X-25.414 Y29.678
G3 X-25.414 Y29.425 I0.353 J-0.126
G1 X-25.397 Y29.367
G3 X-25.143 Y29.172 I0.254 J0.067
G1 X-20.341
G3 X-20.097 Y29.326 I0 J0.27
G1 X-20.096 Y29.344 Z-1.995 F80
X-20.099 Y29.361 Z-1.991
X-20.11 Y29.384 Z-1.965
X-20.116 Y29.391 Z-1.93
G0 Z4
X-40.197 Y6.72
G1 Z-1.416 F80
X-40.18 Y6.721 Z-1.462
X-40.138 Y6.727 Z-1.485
G3 X-40.276 Y7.378 Z-1.635 I-0.069 J0.325
X-40.138 Y6.727 Z-1.785 I0.069 J-0.325
X-40.276 Y7.378 Z-1.935 I-0.069 J0.325
X-40.539 Y7.052 Z-2 I0.069 J-0.325
G1 Y7.044 F150
X-40.532 Y6.995
X-40.509 Y6.952
X-40.475 Y6.917
X-40.431 Y6.895
X-40.383 Y6.887
X-35.539 Y6.888
X-35.505 Y6.892
X-35.35 Y6.927
X-35.326 Y6.936
X-35.305 Y6.949
X-35.293 Y6.958
X-35.276 Y6.975
X-35.262 Y6.995
X-35.248 Y7.031
Y7.07
X-35.26 Y7.107
X-35.274 Y7.129
X-35.292 Y7.147
X-35.297 Y7.15
X-35.319 Y7.164
X-35.343 Y7.172
X-35.527 Y7.212
X-35.56 Y7.216
X-40.383 Y7.218
X-40.431 Y7.21
X-40.475 Y7.188
X-40.509 Y7.153
X-40.532 Y7.11
X-40.539 Y7.061
Y7.052
G2 X-40.718 Y6.727 I-0.386 J0
G3 X-40.614 Y6.371 I0.104 J-0.163
G1 X-35.539 Y6.372
X-35.464 Y6.377
X-35.391 Y6.389
X-35.208 Y6.431
X-35.138 Y6.452
X-35.072 Y6.483
X-35.011 Y6.524
X-34.955 Y6.567
X-34.902 Y6.614
X-34.857 Y6.668
X-34.82 Y6.728
X-34.783 Y6.796
G3 X-34.781 Y7.304 I-0.481 J0.257
G1 X-34.816 Y7.372
X-34.854 Y7.434
X-34.9 Y7.489
X-34.954 Y7.538
X-35.005 Y7.577
X-35.066 Y7.617
X-35.133 Y7.648
X-35.203 Y7.669
X-35.416 Y7.716
X-35.488 Y7.728
X-35.56 Y7.732
X-40.843 Y7.734
G3 X-41.055 Y7.522 I0 J-0.212
G1 Y6.583
G3 X-40.843 Y6.371 I0.212 J0
G1 X-40.614
G2 X-40.224 Y6.111 I0 J-0.422
G3 X-39.835 Y5.852 I0.389 J0.162
G1 X-35.406 Y5.853
X-34.871 Y5.974
X-34.464 Y6.291
X-34.173 Y6.837
X-34.156 Y6.863
X-34.134 Y6.886
X-34.076 Y6.937
X-34.046 Y6.958
X-34.011 Y6.973
X-33.945 Y6.993
X-33.894 Y7.001
X-6.971
X-6.94 Y29.592
X-15.379 Y29.601
X-19.274 Y29.605
X-19.307 Y29.608
X-19.34 Y29.618
X-19.401 Y29.642
X-19.429 Y29.657
X-19.455 Y29.677
X-19.5 Y29.719
X-19.523 Y29.746
X-19.541 Y29.778
X-19.573 Y29.853
X-19.584 Y29.886
X-19.587 Y29.921
X-19.589 Y30.451
X-25.891
X-25.894 Y29.911
X-25.898 Y29.876
X-25.909 Y29.842
X-25.934 Y29.784
X-25.952 Y29.752
X-25.977 Y29.724
X-26.04 Y29.667
X-26.069 Y29.646
X-26.1 Y29.632
X-26.25 Y29.58
X-26.262 Y29.564
X-26.263 Y29.541
X-26.251 Y29.524
X-26.095 Y29.469
X-26.065 Y29.454
X-26.037 Y29.435
X-25.983 Y29.386
X-25.959 Y29.36
X-25.94 Y29.328
X-25.91 Y29.263
X-25.898 Y29.228
X-25.894 Y29.192
X-25.891 Y28.651
X-19.589
X-19.588 Y29.177
X-19.585 Y29.209
X-19.576 Y29.24
X-19.548 Y29.313
X-19.529 Y29.349
X-19.502 Y29.379
X-19.441 Y29.435
X-19.41 Y29.457
X-19.375 Y29.472
X-19.306 Y29.493
X-19.255 Y29.501
X-7.365 Y29.495
X-7.332 Y29.492
X-7.3 Y29.482
X-7.224 Y29.452
X-7.191 Y29.434
X-7.162 Y29.41
X-7.115 Y29.36
X-7.092 Y29.329
X-7.076 Y29.294
X-7.05 Y29.212
X-7.043 Y29.185
X-7.041 Y29.158
X-7.074 Y7.417
X-7.078 Y7.38
X-7.09 Y7.344
X-7.124 Y7.269
X-7.145 Y7.236
X-7.172 Y7.208
X-7.229 Y7.161
X-7.261 Y7.14
X-7.296 Y7.127
X-7.372 Y7.107
X-7.416 Y7.101
X-33.915 Y7.106
X-33.955 Y7.11
X-33.993 Y7.124
X-34.07 Y7.162
X-34.105 Y7.185
X-34.133 Y7.216
X-34.184 Y7.286
X-34.197 Y7.308
X-34.451 Y7.796
X-34.58 Y7.905
X-34.868 Y8.127
X-35.43 Y8.251
X-41.575 Y8.254
Y5.849
X-41.568 Y5.85
X-41.548 Y5.851
X-39.835 Y5.852
G3 X-39.529 Y6.315 Z-2.078 I0 J0.332 F80
G1 X-39.901 Y7.183 Z-2.191
G3 X-40.539 Y7.052 Z-2.3 I-0.306 J-0.131
G1 Y7.044 F150
X-40.532 Y6.995
X-40.509 Y6.952
X-40.475 Y6.917
X-40.431 Y6.895
X-40.383 Y6.887
X-35.54 Y6.888
X-35.505 Y6.892
X-35.352 Y6.927
X-35.328 Y6.936
X-35.307 Y6.949
X-35.294 Y6.959
X-35.267 Y6.988
X-35.252 Y7.025
X-35.25 Y7.065
X-35.261 Y7.103
X-35.275 Y7.124
X-35.293 Y7.142
X-35.304 Y7.151
X-35.326 Y7.165
X-35.351 Y7.174
X-35.527 Y7.212
X-35.561 Y7.216
X-40.383 Y7.218
X-40.431 Y7.21
X-40.475 Y7.188
X-40.509 Y7.153
X-40.532 Y7.11
X-40.539 Y7.061
Y7.052
G2 X-40.718 Y6.727 I-0.386 J0
G3 X-40.614 Y6.371 I0.104 J-0.163
G1 X-35.539 Y6.372
X-35.465 Y6.377
X-35.391 Y6.389
X-35.209 Y6.431
X-35.14 Y6.452
X-35.074 Y6.483
X-35.013 Y6.523
X-34.953 Y6.57
X-34.897 Y6.62
X-34.85 Y6.678
X-34.812 Y6.742
X-34.774 Y6.817
X-34.745 Y6.89
X-34.727 Y6.966
X-34.721 Y7.045
Y7.063
X-34.728 Y7.14
X-34.746 Y7.214
X-34.775 Y7.286
X-34.814 Y7.362
X-34.85 Y7.423
X-34.896 Y7.479
X-34.948 Y7.527
X-35.005 Y7.573
X-35.068 Y7.616
X-35.137 Y7.649
X-35.21 Y7.671
X-35.416 Y7.716
X-35.488 Y7.728
X-35.56 Y7.732
X-40.843 Y7.734
G3 X-41.055 Y7.522 I0 J-0.212
G1 Y6.583
G3 X-40.843 Y6.371 I0.212 J0
G1 X-40.614
G2 X-40.224 Y6.111 I0 J-0.422
G3 X-39.835 Y5.852 I0.389 J0.162
G1 X-35.406 Y5.853
X-34.873 Y5.974
X-34.463 Y6.293
X-34.399 Y6.406
X-34.21 Y6.784
X-34.201 Y6.838
X-34.203 Y7.285
X-34.209 Y7.318
X-34.45 Y7.794
X-34.86 Y8.122
X-34.898 Y8.134
X-35.43 Y8.251
X-41.575 Y8.254
Y5.849
X-41.568 Y5.85
X-41.548 Y5.851
X-39.835 Y5.852
X-39.806 Y5.858 F80
X-39.783 Y5.875
X-39.768 Y5.9
X-39.765 Y5.929
X-39.774 Y5.956
X-40.408 Y7.087 Z-2.5
X-40.429 Y7.109
X-40.457 Y7.121
X-40.487 Y7.12
X-40.514 Y7.106
X-40.533 Y7.082
X-40.539 Y7.052
Y7.044 F150
X-40.532 Y6.995
X-40.509 Y6.952
X-40.475 Y6.917
X-40.431 Y6.895
X-40.383 Y6.887
X-35.54 Y6.889
X-35.505 Y6.893
X-35.352 Y6.927
X-35.329 Y6.936
X-35.307 Y6.949
X-35.299 Y6.955
X-35.28 Y6.974
X-35.266 Y6.996
X-35.256 Y7.022
X-35.252 Y7.05
X-35.257 Y7.085
X-35.272 Y7.117
X-35.296 Y7.144
X-35.306 Y7.151
X-35.328 Y7.165
X-35.353 Y7.174
X-35.528 Y7.212
X-35.561 Y7.216
X-40.383 Y7.218
X-40.431 Y7.21
X-40.475 Y7.188
X-40.509 Y7.153
X-40.532 Y7.11
X-40.539 Y7.061
Y7.052
G2 X-40.718 Y6.727 I-0.386 J0
G3 X-40.614 Y6.371 I0.104 J-0.163
G1 X-35.54 Y6.373
X-35.465 Y6.377
X-35.391 Y6.389
X-35.209 Y6.431
X-35.14 Y6.452
X-35.075 Y6.483
X-35.014 Y6.523
X-34.959 Y6.566
X-34.903 Y6.616
X-34.855 Y6.675
X-34.817 Y6.74
X-34.789 Y6.796
X-34.76 Y6.868
X-34.742 Y6.943
X-34.736 Y7.019
Y7.084
X-34.742 Y7.16
X-34.76 Y7.235
X-34.788 Y7.306
X-34.815 Y7.359
X-34.852 Y7.422
X-34.898 Y7.479
X-34.952 Y7.529
X-35.008 Y7.574
X-35.071 Y7.616
X-35.139 Y7.649
X-35.212 Y7.671
X-35.416 Y7.716
X-35.488 Y7.728
X-35.561 Y7.732
X-40.843 Y7.734
G3 X-41.055 Y7.522 I0 J-0.212
G1 Y6.583
G3 X-40.843 Y6.371 I0.212 J0
G1 X-40.614
G2 X-40.224 Y6.111 I0 J-0.422
G3 X-39.835 Y5.852 I0.389 J0.162
G1 X-35.406 Y5.853
X-34.875 Y5.975
X-34.486 Y6.275
X-34.453 Y6.304
X-34.217 Y6.78
Y7.323
X-34.451 Y7.794
X-34.869 Y8.127
X-35.431 Y8.251
X-41.575 Y8.254
Y5.849
X-41.568 Y5.85
X-41.548 Y5.851
X-39.835 Y5.852
X-39.817 Y5.854 Z-2.495 F80
X-39.801 Y5.861 Z-2.491
X-39.781 Y5.877 Z-2.465
X-39.776 Y5.884 Z-2.43
G0 Z4
X-20.579 Y29.468
G1 Z-1.616 F80
X-20.564 Y29.461 Z-1.662
X-20.524 Y29.445 Z-1.685
G3 X-20.319 Y30.077 Z-1.835 I0.103 J0.316
X-20.524 Y29.445 Z-1.985 I-0.103 J-0.316
X-20.319 Y30.077 Z-2.135 I0.103 J0.316
X-20.75 Y29.813 Z-2.217 I-0.103 J-0.316
X-20.422 Y29.428 Z-2.3 I0.328 J-0.052
G1 X-20.416 F150
X-20.381 Y29.434
X-20.349 Y29.449
X-20.324 Y29.474
X-20.307 Y29.505
X-20.299 Y29.533
X-20.298 Y29.562
X-20.305 Y29.591
X-20.307 Y29.598
X-20.324 Y29.629
X-20.35 Y29.653
X-20.382 Y29.669
X-20.417 Y29.674
X-25.061
X-25.097 Y29.669
X-25.129 Y29.653
X-25.154 Y29.628
X-25.171 Y29.596
X-25.173 Y29.591
X-25.18 Y29.551
X-25.173 Y29.512
X-25.171 Y29.506
X-25.154 Y29.475
X-25.129 Y29.45
X-25.097 Y29.434
X-25.061 Y29.428
X-20.422
X-20.375 Y29.422
X-20.333 Y29.402
X-20.298 Y29.37
X-20.274 Y29.33
X-20.254 Y29.3
X-20.223 Y29.279
X-20.187 Y29.271
X-20.151 Y29.277
X-20.119 Y29.296
X-20.097 Y29.326
X-20.082 Y29.367
X-20.065 Y29.419
G3 X-20.065 Y29.68 I-0.352 J0.131
G1 X-20.082 Y29.735
G3 X-20.34 Y29.931 I-0.257 J-0.072
G1 X-25.143
G3 X-25.397 Y29.735 I0 J-0.262
G1 X-25.414 Y29.678
G3 X-25.414 Y29.425 I0.353 J-0.126
G1 X-25.397 Y29.367
G3 X-25.143 Y29.172 I0.254 J0.067
G1 X-20.341
G3 X-20.097 Y29.326 I0 J0.27
G2 X-19.578 Y29.571 I0.409 J-0.194
G3 X-19.009 Y29.501 I0.569 J2.262
G1 X-10.791 Y29.504
X-10.725 Y29.525
X-10.712 Y29.543
Y29.557
X-10.726 Y29.576
X-10.811 Y29.601
X-19.274 Y29.605
X-19.307 Y29.608
X-19.34 Y29.618
X-19.401 Y29.642
X-19.429 Y29.657
X-19.455 Y29.677
X-19.5 Y29.719
X-19.523 Y29.746
X-19.541 Y29.778
X-19.573 Y29.853
X-19.584 Y29.886
X-19.587 Y29.921
X-19.589 Y30.451
X-25.891
X-25.894 Y29.911
X-25.898 Y29.876
X-25.909 Y29.842
X-25.934 Y29.784
X-25.952 Y29.752
X-25.977 Y29.724
X-26.04 Y29.667
X-26.069 Y29.646
X-26.1 Y29.632
X-26.25 Y29.58
X-26.262 Y29.564
X-26.263 Y29.542
X-26.251 Y29.525
X-26.094 Y29.468
X-26.064 Y29.454
X-26.037 Y29.435
X-25.983 Y29.386
X-25.959 Y29.36
X-25.94 Y29.328
X-25.91 Y29.263
X-25.898 Y29.228
X-25.894 Y29.192
X-25.891 Y28.651
X-19.589
X-19.588 Y29.177
X-19.585 Y29.209
X-19.576 Y29.24
X-19.548 Y29.313
X-19.529 Y29.349
X-19.502 Y29.379
X-19.441 Y29.435
X-19.41 Y29.457
X-19.375 Y29.472
X-19.306 Y29.493
X-19.256 Y29.501
X-19.009
X-18.995 Y29.507
X-18.992 Y29.522
X-19.002 Y29.534
X-19.06 Y29.561
X-19.797 Y29.675
X-20.713 Y29.82
X-20.731 Y29.818
X-20.746 Y29.806
X-20.753 Y29.788
G3 X-20.422 Y29.428 Z-2.5 I0.331 J-0.027 F80
G1 X-20.416 F150
X-20.381 Y29.434
X-20.349 Y29.449
X-20.324 Y29.474
X-20.307 Y29.505
X-20.299 Y29.533
X-20.298 Y29.562
X-20.305 Y29.591
X-20.307 Y29.598
X-20.324 Y29.629
X-20.35 Y29.653
X-20.382 Y29.669
X-20.417 Y29.674
X-25.061
X-25.097 Y29.669
X-25.129 Y29.653
X-25.154 Y29.628
X-25.171 Y29.596
X-25.173 Y29.591
X-25.18 Y29.551
X-25.173 Y29.512
X-25.171 Y29.506
X-25.154 Y29.475
X-25.129 Y29.45
X-25.097 Y29.434
X-25.061 Y29.428
X-20.422
X-20.375 Y29.422
X-20.333 Y29.402
X-20.298 Y29.37
X-20.274 Y29.33
X-20.254 Y29.3
X-20.223 Y29.279
X-20.187 Y29.271
X-20.151 Y29.277
X-20.119 Y29.296
X-20.097 Y29.326
X-20.082 Y29.367
X-20.065 Y29.419
G3 X-20.065 Y29.68 I-0.352 J0.131
G1 X-20.082 Y29.735
G3 X-20.34 Y29.931 I-0.257 J-0.072
G1 X-25.143
G3 X-25.397 Y29.735 I0 J-0.262
G1 X-25.414 Y29.678
G3 X-25.414 Y29.425 I0.353 J-0.126
G1 X-25.397 Y29.367
G3 X-25.143 Y29.172 I0.254 J0.067
G1 X-20.341
G3 X-20.097 Y29.326 I0 J0.27
G2 X-19.578 Y29.571 I0.409 J-0.194
G3 X-19.009 Y29.501 I0.569 J2.262
G1 X-10.791 Y29.504
X-10.725 Y29.525
X-10.712 Y29.543
Y29.557
X-10.726 Y29.576
X-10.811 Y29.601
X-19.274 Y29.605
X-19.307 Y29.608
X-19.34 Y29.618
X-19.401 Y29.642
X-19.429 Y29.657
X-19.455 Y29.677
X-19.5 Y29.719
X-19.523 Y29.746
X-19.541 Y29.778
X-19.573 Y29.853
X-19.584 Y29.886
X-19.587 Y29.921
X-19.589 Y30.451
X-25.891
X-25.894 Y29.911
X-25.898 Y29.876
X-25.909 Y29.842
X-25.934 Y29.784
X-25.952 Y29.752
X-25.977 Y29.724
X-26.04 Y29.667
X-26.069 Y29.646
X-26.1 Y29.632
X-26.25 Y29.58
X-26.262 Y29.564
X-26.263 Y29.542
X-26.251 Y29.525
X-26.094 Y29.468
X-26.064 Y29.454
X-26.037 Y29.435
X-25.983 Y29.386
X-25.959 Y29.36
X-25.94 Y29.328
X-25.91 Y29.263
X-25.898 Y29.228
X-25.894 Y29.192
X-25.891 Y28.651
X-19.589
X-19.588 Y29.177
X-19.585 Y29.209
X-19.576 Y29.24
X-19.548 Y29.313
X-19.529 Y29.349
X-19.502 Y29.379
X-19.441 Y29.435
X-19.41 Y29.457
X-19.375 Y29.472
X-19.306 Y29.493
X-19.256 Y29.501
X-19.009
X-18.982 Z-2.495 F80
X-18.959 Z-2.479
X-18.944 Z-2.457
X-18.939 Z-2.43
G0 Z4
X-20.264 Y34.635
Z0.384
G1 X-20.279 Y34.642 Z0.338 F80
X-20.319 Y34.658 Z0.315
G3 X-20.525 Y34.026 Z0.165 I-0.103 J-0.316
X-20.319 Y34.658 Z0.015 I0.103 J0.316
X-20.525 Y34.026 Z-0.135 I-0.103 J-0.316
X-20.319 Y34.658 Z-0.285 I0.103 J0.316
X-20.422 Y34.674 Z-0.3 I-0.103 J-0.316
G1 X-25.062 F150
X-25.097 Y34.669
X-25.129 Y34.653
X-25.155 Y34.629
X-25.172 Y34.597
X-25.174 Y34.592
X-25.181 Y34.551
X-25.174 Y34.511
X-25.172 Y34.506
X-25.155 Y34.474
X-25.129 Y34.45
X-25.097 Y34.434
X-25.062 Y34.428
X-20.417
X-20.382 Y34.434
X-20.35 Y34.45
X-20.325 Y34.474
X-20.308 Y34.506
X-20.305 Y34.512
X-20.298 Y34.549
X-20.303 Y34.587
X-20.305 Y34.592
X-20.321 Y34.625
X-20.347 Y34.651
X-20.38 Y34.668
X-20.416 Y34.674
X-20.422
X-20.471 Y34.68
X-20.516 Y34.697
X-20.557 Y34.724
X-20.59 Y34.76
X-20.614 Y34.803
X-20.638 Y34.845
X-20.672 Y34.881
X-20.712 Y34.908
X-20.758 Y34.925
X-20.807 Y34.931
X-25.141
G3 X-25.397 Y34.735 I0 J-0.266
G1 X-25.415 Y34.68
G3 X-25.415 Y34.422 I0.353 J-0.129
G1 X-25.397 Y34.367
G3 X-25.141 Y34.172 I0.256 J0.07
G1 X-20.339
G3 X-20.083 Y34.367 I0 J0.266
G1 X-20.065 Y34.423
X-20.049 Y34.482
X-20.042 Y34.543
X-20.045 Y34.604
X-20.059 Y34.663
X-20.065 Y34.687
X-20.076 Y34.726
G3 X-20.344 Y34.931 I-0.268 J-0.073
G1 X-20.807
X-20.824 Y34.929 Z-0.295 F80
X-20.84 Y34.922 Z-0.291
X-20.86 Y34.906 Z-0.265
X-20.866 Y34.899 Z-0.23
G0 Z4
X-40.499 Y2.21
Z0.384
G1 X-40.506 Y2.195 Z0.338 F80
X-40.522 Y2.155 Z0.315
G3 X-39.89 Y1.95 Z0.165 I0.316 J-0.103
X-40.522 Y2.155 Z0.015 I-0.316 J0.103
X-39.89 Y1.95 Z-0.135 I0.316 J-0.103
X-40.522 Y2.155 Z-0.285 I-0.316 J0.103
X-40.538 Y2.052 Z-0.3 I0.316 J-0.103
G1 Y2.043 F150
X-40.531 Y1.995
X-40.509 Y1.951
X-40.474 Y1.917
X-40.43 Y1.895
X-40.382 Y1.887
X-35.536 Y1.888
X-35.502 Y1.892
X-35.348 Y1.926
X-35.325 Y1.934
X-35.303 Y1.947
X-35.293 Y1.955
X-35.274 Y1.973
X-35.26 Y1.994
X-35.247 Y2.03
X-35.246 Y2.069
X-35.258 Y2.105
X-35.261 Y2.11
X-35.275 Y2.131
X-35.294 Y2.149
X-35.299 Y2.153
X-35.32 Y2.166
X-35.344 Y2.174
X-35.524 Y2.213
X-35.557 Y2.216
X-40.382 Y2.217
X-40.43 Y2.21
X-40.474 Y2.188
X-40.509 Y2.153
X-40.531 Y2.109
X-40.538 Y2.061
Y2.052
G2 X-40.716 Y1.727 I-0.386 J0
G3 X-40.612 Y1.371 I0.104 J-0.163
G1 X-35.536 Y1.372
X-35.463 Y1.376
X-35.391 Y1.388
X-35.208 Y1.429
X-35.14 Y1.449
X-35.074 Y1.48
X-35.014 Y1.519
X-34.958 Y1.562
X-34.902 Y1.61
X-34.855 Y1.667
X-34.816 Y1.729
X-34.782 Y1.795
G3 X-34.782 Y2.308 I-0.492 J0.256
G1 X-34.817 Y2.375
X-34.856 Y2.438
X-34.903 Y2.494
X-34.959 Y2.543
X-35.011 Y2.582
X-35.072 Y2.621
X-35.138 Y2.652
X-35.207 Y2.672
X-35.416 Y2.717
X-35.486 Y2.728
X-35.557 Y2.732
X-40.843 Y2.734
G3 X-41.055 Y2.521 I0 J-0.212
G1 X-41.054 Y1.583
G3 X-40.842 Y1.371 I0.212 J0
G1 X-40.612
G2 X-40.222 Y1.111 I0 J-0.422
G3 X-39.833 Y0.852 I0.389 J0.162
G1 X-35.405 Y0.853
X-34.878 Y0.97
X-34.462 Y1.286
X-34.179 Y1.828
X-34.15 Y1.868
X-34.104 Y1.916
X-34.076 Y1.939
X-34.045 Y1.956
X-33.976 Y1.985
X-33.943 Y1.995
X-33.908 Y1.999
X-5.356 Y2.001
Y34.601
X-19.269 Y34.604
X-19.303 Y34.607
X-19.336 Y34.617
X-19.408 Y34.647
X-19.443 Y34.666
X-19.473 Y34.693
X-19.525 Y34.753
X-19.548 Y34.786
X-19.563 Y34.823
X-19.584 Y34.899
X-19.59 Y34.945
Y35.451
X-25.891
X-25.893 Y34.919
X-25.897 Y34.882
X-25.908 Y34.847
X-25.943 Y34.771
X-25.962 Y34.738
X-25.989 Y34.71
X-26.042 Y34.665
X-26.069 Y34.646
X-26.098 Y34.633
X-26.252 Y34.579
X-26.267 Y34.559
Y34.543
X-26.254 Y34.525
X-26.098 Y34.47
X-26.069 Y34.457
X-26.043 Y34.439
X-25.991 Y34.395
X-25.964 Y34.367
X-25.944 Y34.334
X-25.909 Y34.256
X-25.897 Y34.221
X-25.893 Y34.184
X-25.891 Y33.651
X-19.589
X-19.587 Y34.184
X-19.583 Y34.221
X-19.571 Y34.255
X-19.537 Y34.331
X-19.516 Y34.367
X-19.486 Y34.396
X-19.422 Y34.447
X-19.387 Y34.469
X-19.348 Y34.482
X-19.267 Y34.498
X-19.233 Y34.501
X-5.772 Y34.498
X-5.735 Y34.494
X-5.7 Y34.483
X-5.628 Y34.45
X-5.594 Y34.431
X-5.566 Y34.404
X-5.518 Y34.348
X-5.498 Y34.318
X-5.484 Y34.284
X-5.463 Y34.215
X-5.456 Y34.166
X-5.46 Y2.413
X-5.463 Y2.378
X-5.474 Y2.345
X-5.498 Y2.288
X-5.513 Y2.259
X-5.533 Y2.234
X-5.579 Y2.186
X-5.606 Y2.164
X-5.638 Y2.147
X-5.707 Y2.118
X-5.74 Y2.108
X-5.774 Y2.104
X-33.908
X-33.943 Y2.108
X-33.976 Y2.118
X-34.045 Y2.147
X-34.076 Y2.164
X-34.104 Y2.187
X-34.15 Y2.234
X-34.179 Y2.275
X-34.456 Y2.806
X-34.556 Y2.889
X-34.877 Y3.132
X-35.43 Y3.251
X-41.574 Y3.253
X-41.573 Y0.851
X-39.833 Y0.852
G3 X-39.527 Y1.316 Z-0.378 I0 J0.332 F80
G1 X-39.9 Y2.184 Z-0.491
G3 X-40.538 Y2.052 Z-0.6 I-0.305 J-0.131
G1 Y2.043 F150
X-40.531 Y1.995
X-40.509 Y1.951
X-40.474 Y1.917
X-40.43 Y1.895
X-40.382 Y1.887
X-35.537 Y1.888
X-35.503 Y1.892
X-35.349 Y1.926
X-35.325 Y1.934
X-35.304 Y1.947
X-35.292 Y1.956
X-35.274 Y1.974
X-35.259 Y1.995
X-35.247 Y2.031
X-35.246 Y2.069
X-35.258 Y2.105
X-35.26 Y2.11
X-35.275 Y2.131
X-35.294 Y2.149
X-35.299 Y2.153
X-35.32 Y2.166
X-35.344 Y2.174
X-35.525 Y2.213
X-35.558 Y2.216
X-40.382 Y2.217
X-40.43 Y2.21
X-40.474 Y2.188
X-40.509 Y2.153
X-40.531 Y2.109
X-40.538 Y2.061
Y2.052
G2 X-40.716 Y1.727 I-0.386 J0
G3 X-40.612 Y1.371 I0.104 J-0.163
G1 X-35.536 Y1.372
X-35.463 Y1.376
X-35.391 Y1.388
X-35.209 Y1.429
X-35.14 Y1.45
X-35.075 Y1.48
X-35.015 Y1.519
X-34.957 Y1.563
X-34.902 Y1.612
X-34.854 Y1.668
X-34.815 Y1.731
X-34.782 Y1.795
G3 X-34.782 Y2.308 I-0.492 J0.256
G1 X-34.817 Y2.374
X-34.856 Y2.438
X-34.904 Y2.494
X-34.959 Y2.543
X-35.011 Y2.582
X-35.072 Y2.621
X-35.137 Y2.651
X-35.207 Y2.672
X-35.416 Y2.717
X-35.486 Y2.728
X-35.557 Y2.732
X-40.843 Y2.734
G3 X-41.055 Y2.521 I0 J-0.212
G1 X-41.054 Y1.583
G3 X-40.842 Y1.371 I0.212 J0
G1 X-40.612
X-40.595 Y1.373 Z-0.595 F80
X-40.578 Y1.38 Z-0.591
X-40.559 Y1.396 Z-0.565
X-40.553 Y1.403 Z-0.53
G0 Z4
X-20.264 Y34.635
Z0.084
G1 X-20.279 Y34.642 Z0.038 F80
X-20.319 Y34.658 Z0.015
G3 X-20.525 Y34.026 Z-0.135 I-0.103 J-0.316
X-20.319 Y34.658 Z-0.285 I0.103 J0.316
X-20.525 Y34.026 Z-0.435 I-0.103 J-0.316
X-20.319 Y34.658 Z-0.585 I0.103 J0.316
X-20.422 Y34.674 Z-0.6 I-0.103 J-0.316
G1 X-25.062 F150
X-25.097 Y34.669
X-25.129 Y34.653
X-25.155 Y34.629
X-25.172 Y34.597
X-25.174 Y34.592
X-25.181 Y34.551
X-25.174 Y34.511
X-25.172 Y34.506
X-25.155 Y34.474
X-25.129 Y34.45
X-25.097 Y34.434
X-25.062 Y34.428
X-20.417
X-20.382 Y34.434
X-20.35 Y34.45
X-20.325 Y34.474
X-20.308 Y34.506
X-20.305 Y34.512
X-20.298 Y34.549
X-20.303 Y34.587
X-20.305 Y34.592
X-20.321 Y34.625
X-20.347 Y34.651
X-20.38 Y34.668
X-20.416 Y34.674
X-20.422
X-20.471 Y34.68
X-20.516 Y34.697
X-20.557 Y34.724
X-20.59 Y34.76
X-20.614 Y34.803
X-20.638 Y34.845
X-20.672 Y34.881
X-20.712 Y34.908
X-20.758 Y34.925
X-20.807 Y34.931
X-25.141
G3 X-25.397 Y34.735 I0 J-0.266
G1 X-25.415 Y34.68
G3 X-25.415 Y34.422 I0.353 J-0.129
G1 X-25.397 Y34.367
G3 X-25.141 Y34.172 I0.256 J0.07
G1 X-20.339
G3 X-20.083 Y34.367 I0 J0.266
G1 X-20.065 Y34.423
X-20.049 Y34.482
X-20.042 Y34.543
X-20.045 Y34.604
X-20.059 Y34.663
X-20.065 Y34.687
X-20.076 Y34.726
G3 X-20.344 Y34.931 I-0.268 J-0.073
G1 X-20.807
G2 X-21.197 Y35.191 I0 J0.423
G3 X-21.587 Y35.451 I-0.39 J-0.163
G1 X-25.891
X-25.893 Y34.919
X-25.897 Y34.882
X-25.908 Y34.847
X-25.943 Y34.771
X-25.962 Y34.738
X-25.989 Y34.71
X-26.042 Y34.665
X-26.069 Y34.646
X-26.098 Y34.633
X-26.252 Y34.579
X-26.267 Y34.559
Y34.543
X-26.254 Y34.524
X-26.098 Y34.47
X-26.069 Y34.457
X-26.043 Y34.439
X-25.991 Y34.395
X-25.964 Y34.367
X-25.944 Y34.334
X-25.909 Y34.256
X-25.897 Y34.221
X-25.893 Y34.184
X-25.891 Y33.651
X-19.589
X-19.587 Y34.184
X-19.583 Y34.221
X-19.571 Y34.255
X-19.537 Y34.331
X-19.516 Y34.367
X-19.486 Y34.396
X-19.422 Y34.447
X-19.387 Y34.469
X-19.348 Y34.482
X-19.267 Y34.498
X-19.233 Y34.501
X-5.772 Y34.498
X-5.735 Y34.494
X-5.7 Y34.483
X-5.628 Y34.45
X-5.594 Y34.431
X-5.566 Y34.404
X-5.518 Y34.348
X-5.498 Y34.318
X-5.484 Y34.284
X-5.463 Y34.215
X-5.456 Y34.166
X-5.46 Y2.413
X-5.463 Y2.378
X-5.474 Y2.345
X-5.498 Y2.288
X-5.513 Y2.259
X-5.533 Y2.234
X-5.579 Y2.186
X-5.606 Y2.164
X-5.638 Y2.147
X-5.707 Y2.118
X-5.74 Y2.108
X-5.774 Y2.104
X-33.908
X-33.943 Y2.108
X-33.976 Y2.118
X-34.045 Y2.147
X-34.076 Y2.164
X-34.104 Y2.187
X-34.15 Y2.234
X-34.179 Y2.275
X-34.456 Y2.806
X-34.556 Y2.889
X-34.877 Y3.132
X-35.43 Y3.251
X-41.574 Y3.253
X-41.573 Y0.851
X-35.405 Y0.853
X-34.878 Y0.971
X-34.461 Y1.288
X-34.179 Y1.828
X-34.15 Y1.868
X-34.104 Y1.916
X-34.076 Y1.939
X-34.045 Y1.956
X-33.976 Y1.985
X-33.943 Y1.995
X-33.908 Y1.999
X-5.356 Y2.001
Y34.601
X-19.269 Y34.604
X-19.303 Y34.607
X-19.336 Y34.617
X-19.408 Y34.647
X-19.443 Y34.666
X-19.473 Y34.693
X-19.525 Y34.753
X-19.548 Y34.786
X-19.563 Y34.823
X-19.584 Y34.899
X-19.59 Y34.945
Y35.451
X-21.587
G3 X-21.587 Y34.786 Z-0.692 I0 J-0.333 F80
X-21.426 Y34.828 Z-0.707 I0 J0.332
G1 X-20.584 Y35.297 Z-0.793
G2 X-20.26 Y34.716 Z-0.885 I0.162 J-0.29
X-20.422 Y34.674 Z-0.9 I-0.162 J0.29
G1 X-25.062 F150
X-25.097 Y34.669
X-25.129 Y34.653
X-25.155 Y34.629
X-25.172 Y34.597
X-25.174 Y34.592
X-25.181 Y34.551
X-25.174 Y34.511
X-25.172 Y34.506
X-25.155 Y34.474
X-25.129 Y34.45
X-25.097 Y34.434
X-25.062 Y34.428
X-20.417
X-20.382 Y34.434
X-20.35 Y34.45
X-20.325 Y34.474
X-20.308 Y34.506
X-20.305 Y34.512
X-20.298 Y34.549
X-20.303 Y34.587
X-20.305 Y34.592
X-20.321 Y34.625
X-20.347 Y34.651
X-20.38 Y34.668
X-20.416 Y34.674
X-20.422
X-20.471 Y34.68
X-20.516 Y34.697
X-20.557 Y34.724
X-20.59 Y34.76
X-20.614 Y34.803
X-20.638 Y34.845
X-20.672 Y34.881
X-20.712 Y34.908
X-20.758 Y34.925
X-20.807 Y34.931
X-25.141
G3 X-25.397 Y34.735 I0 J-0.266
G1 X-25.415 Y34.68
G3 X-25.415 Y34.422 I0.353 J-0.129
G1 X-25.397 Y34.367
G3 X-25.141 Y34.172 I0.256 J0.07
G1 X-20.339
G3 X-20.083 Y34.367 I0 J0.266
G1 X-20.065 Y34.423
X-20.049 Y34.482
X-20.042 Y34.543
X-20.045 Y34.604
X-20.059 Y34.663
X-20.065 Y34.687
X-20.076 Y34.726
G3 X-20.344 Y34.931 I-0.268 J-0.073
G1 X-20.807
X-20.824 Y34.929 Z-0.895 F80
X-20.84 Y34.922 Z-0.891
X-20.86 Y34.906 Z-0.865
X-20.866 Y34.899 Z-0.83
G0 Z4
X-40.499 Y2.21
Z1.3
G1 Z-0.216 F80
X-40.506 Y2.195 Z-0.262
X-40.522 Y2.155 Z-0.285
G3 X-39.89 Y1.95 Z-0.435 I0.316 J-0.103
X-40.522 Y2.155 Z-0.585 I-0.316 J0.103
X-39.89 Y1.95 Z-0.735 I0.316 J-0.103
X-40.522 Y2.155 Z-0.885 I-0.316 J0.103
X-40.538 Y2.052 Z-0.9 I0.316 J-0.103
G1 Y2.043 F150
X-40.531 Y1.995
X-40.509 Y1.951
X-40.474 Y1.917
X-40.43 Y1.895
X-40.382 Y1.887
X-35.537 Y1.888
X-35.503 Y1.892
X-35.35 Y1.926
X-35.326 Y1.934
X-35.305 Y1.947
X-35.291 Y1.958
X-35.273 Y1.975
X-35.259 Y1.997
X-35.247 Y2.032
X-35.246 Y2.07
X-35.258 Y2.105
X-35.272 Y2.126
X-35.29 Y2.143
X-35.3 Y2.152
X-35.323 Y2.166
X-35.348 Y2.174
X-35.525 Y2.213
X-35.558 Y2.216
X-40.382 Y2.217
X-40.43 Y2.21
X-40.474 Y2.188
X-40.509 Y2.153
X-40.531 Y2.109
X-40.538 Y2.061
Y2.052
G2 X-40.716 Y1.727 I-0.386 J0
G3 X-40.612 Y1.371 I0.104 J-0.163
G1 X-35.537 Y1.372
X-35.463 Y1.376
X-35.391 Y1.389
X-35.209 Y1.429
X-35.141 Y1.45
X-35.075 Y1.48
X-35.015 Y1.52
X-34.956 Y1.565
X-34.901 Y1.614
X-34.853 Y1.67
X-34.815 Y1.732
X-34.782 Y1.795
G3 X-34.782 Y2.308 I-0.492 J0.256
G1 X-34.814 Y2.369
X-34.851 Y2.43
X-34.896 Y2.484
X-34.949 Y2.532
X-35.005 Y2.576
X-35.068 Y2.618
X-35.136 Y2.65
X-35.209 Y2.672
X-35.416 Y2.717
X-35.486 Y2.728
X-35.558 Y2.732
X-40.843 Y2.734
G3 X-41.055 Y2.521 I0 J-0.212
G1 X-41.054 Y1.583
G3 X-40.842 Y1.371 I0.212 J0
G1 X-40.612
G2 X-40.222 Y1.111 I0 J-0.422
G3 X-39.833 Y0.852 I0.389 J0.162
G1 X-35.405 Y0.853
X-34.878 Y0.971
X-34.46 Y1.29
X-34.179 Y1.828
X-34.15 Y1.868
X-34.104 Y1.916
X-34.076 Y1.939
X-34.045 Y1.956
X-33.976 Y1.985
X-33.943 Y1.995
X-33.908 Y1.999
X-5.356 Y2.001
Y34.601
X-19.269 Y34.604
X-19.303 Y34.607
X-19.336 Y34.617
X-19.408 Y34.647
X-19.443 Y34.666
X-19.473 Y34.693
X-19.525 Y34.753
X-19.548 Y34.786
X-19.563 Y34.823
X-19.584 Y34.899
X-19.59 Y34.945
Y35.451
X-25.891
X-25.893 Y34.919
X-25.897 Y34.882
X-25.908 Y34.847
X-25.943 Y34.771
X-25.962 Y34.738
X-25.989 Y34.71
X-26.042 Y34.665
X-26.069 Y34.646
X-26.098 Y34.633
X-26.252 Y34.579
X-26.267 Y34.559
Y34.543
X-26.254 Y34.524
X-26.098 Y34.47
X-26.069 Y34.457
X-26.043 Y34.439
X-25.991 Y34.395
X-25.964 Y34.367
X-25.944 Y34.334
X-25.909 Y34.256
X-25.897 Y34.221
X-25.893 Y34.184
X-25.891 Y33.651
X-19.589
X-19.587 Y34.184
X-19.583 Y34.221
X-19.571 Y34.255
X-19.537 Y34.331
X-19.516 Y34.367
X-19.486 Y34.396
X-19.422 Y34.447
X-19.387 Y34.469
X-19.348 Y34.482
X-19.267 Y34.498
X-19.233 Y34.501
X-5.772 Y34.498
X-5.735 Y34.494
X-5.7 Y34.483
X-5.628 Y34.45
X-5.594 Y34.431
X-5.566 Y34.404
X-5.518 Y34.348
X-5.498 Y34.318
X-5.484 Y34.284
X-5.463 Y34.215
X-5.456 Y34.166
X-5.46 Y2.413
X-5.463 Y2.378
X-5.474 Y2.345
X-5.498 Y2.288
X-5.513 Y2.259
X-5.533 Y2.234
X-5.579 Y2.186
X-5.606 Y2.164
X-5.638 Y2.147
X-5.707 Y2.118
X-5.74 Y2.108
X-5.774 Y2.104
X-33.908
X-33.943 Y2.108
X-33.976 Y2.118
X-34.045 Y2.147
X-34.076 Y2.164
X-34.104 Y2.187
X-34.15 Y2.234
X-34.179 Y2.275
X-34.455 Y2.804
X-34.869 Y3.129
X-35.43 Y3.251
X-41.574 Y3.253
X-41.573 Y0.851
X-39.833 Y0.852
G3 X-39.527 Y1.316 Z-0.978 I0 J0.332 F80
G1 X-39.9 Y2.184 Z-1.091
G3 X-40.538 Y2.052 Z-1.2 I-0.305 J-0.131
G1 Y2.043 F150
X-40.531 Y1.995
X-40.509 Y1.951
X-40.474 Y1.917
X-40.43 Y1.895
X-40.382 Y1.887
X-35.538 Y1.888
X-35.504 Y1.892
X-35.351 Y1.926
X-35.327 Y1.934
X-35.306 Y1.947
X-35.291 Y1.959
X-35.263 Y1.989
X-35.248 Y2.026
X-35.246 Y2.067
X-35.258 Y2.105
X-35.272 Y2.126
X-35.29 Y2.143
X-35.3 Y2.152
X-35.323 Y2.166
X-35.348 Y2.174
X-35.525 Y2.213
X-35.558 Y2.216
X-40.382 Y2.217
X-40.43 Y2.21
X-40.474 Y2.188
X-40.509 Y2.153
X-40.531 Y2.109
X-40.538 Y2.061
Y2.052
G2 X-40.716 Y1.727 I-0.386 J0
G3 X-40.612 Y1.371 I0.104 J-0.163
G1 X-35.537 Y1.372
X-35.464 Y1.377
X-35.391 Y1.389
X-35.21 Y1.429
X-35.141 Y1.45
X-35.076 Y1.48
X-35.016 Y1.52
X-34.954 Y1.567
X-34.9 Y1.615
X-34.852 Y1.671
X-34.814 Y1.734
X-34.782 Y1.795
G3 X-34.782 Y2.308 I-0.492 J0.256
G1 X-34.814 Y2.369
X-34.851 Y2.43
X-34.896 Y2.484
X-34.949 Y2.532
X-35.005 Y2.576
X-35.068 Y2.618
X-35.136 Y2.65
X-35.209 Y2.672
X-35.416 Y2.717
X-35.486 Y2.728
X-35.558 Y2.732
X-40.843 Y2.734
G3 X-41.055 Y2.521 I0 J-0.212
G1 X-41.054 Y1.583
G3 X-40.842 Y1.371 I0.212 J0
G1 X-40.612
X-40.595 Y1.373 Z-1.195 F80
X-40.578 Y1.38 Z-1.191
X-40.559 Y1.396 Z-1.165
X-40.553 Y1.403 Z-1.13
G0 Z4
X-20.264 Y34.635
G1 Z-0.516 F80
X-20.279 Y34.642 Z-0.562
X-20.319 Y34.658 Z-0.585
G3 X-20.525 Y34.026 Z-0.735 I-0.103 J-0.316
X-20.319 Y34.658 Z-0.885 I0.103 J0.316
X-20.525 Y34.026 Z-1.035 I-0.103 J-0.316
X-20.319 Y34.658 Z-1.185 I0.103 J0.316
X-20.422 Y34.674 Z-1.2 I-0.103 J-0.316
G1 X-25.062 F150
X-25.097 Y34.669
X-25.129 Y34.653
X-25.155 Y34.629
X-25.172 Y34.597
X-25.174 Y34.592
X-25.181 Y34.551
X-25.174 Y34.511
X-25.172 Y34.506
X-25.155 Y34.474
X-25.129 Y34.45
X-25.097 Y34.434
X-25.062 Y34.428
X-20.417
X-20.382 Y34.434
X-20.35 Y34.45
X-20.325 Y34.474
X-20.308 Y34.506
X-20.305 Y34.512
X-20.298 Y34.549
X-20.303 Y34.587
X-20.305 Y34.592
X-20.321 Y34.625
X-20.347 Y34.651
X-20.38 Y34.668
X-20.416 Y34.674
X-20.422
X-20.471 Y34.68
X-20.516 Y34.697
X-20.557 Y34.724
X-20.59 Y34.76
X-20.614 Y34.803
X-20.638 Y34.845
X-20.672 Y34.881
X-20.712 Y34.908
X-20.758 Y34.925
X-20.807 Y34.931
X-25.141
G3 X-25.397 Y34.735 I0 J-0.266
G1 X-25.415 Y34.68
G3 X-25.415 Y34.422 I0.353 J-0.129
G1 X-25.397 Y34.367
G3 X-25.141 Y34.172 I0.256 J0.07
G1 X-20.339
G3 X-20.083 Y34.367 I0 J0.266
G1 X-20.065 Y34.423
X-20.049 Y34.482
X-20.042 Y34.543
X-20.045 Y34.604
X-20.059 Y34.663
X-20.065 Y34.687
X-20.076 Y34.726
G3 X-20.344 Y34.931 I-0.268 J-0.073
G1 X-20.807
G2 X-21.197 Y35.191 I0 J0.423
G3 X-21.587 Y35.451 I-0.39 J-0.163
G1 X-25.891
X-25.893 Y34.919
X-25.897 Y34.882
X-25.908 Y34.847
X-25.943 Y34.771
X-25.962 Y34.738
X-25.989 Y34.71
X-26.042 Y34.665
X-26.069 Y34.646
X-26.098 Y34.633
X-26.252 Y34.579
X-26.266 Y34.559
Y34.542
X-26.254 Y34.524
X-26.098 Y34.47
X-26.069 Y34.457
X-26.043 Y34.439
X-25.991 Y34.395
X-25.964 Y34.367
X-25.944 Y34.334
X-25.909 Y34.256
X-25.897 Y34.221
X-25.893 Y34.184
X-25.891 Y33.651
X-19.589
X-19.587 Y34.184
X-19.583 Y34.221
X-19.571 Y34.255
X-19.537 Y34.331
X-19.516 Y34.367
X-19.486 Y34.396
X-19.422 Y34.447
X-19.387 Y34.469
X-19.348 Y34.482
X-19.267 Y34.498
X-19.233 Y34.501
X-5.772 Y34.498
X-5.735 Y34.494
X-5.7 Y34.483
X-5.628 Y34.45
X-5.594 Y34.431
X-5.566 Y34.404
X-5.518 Y34.348
X-5.498 Y34.318
X-5.484 Y34.284
X-5.463 Y34.215
X-5.456 Y34.166
X-5.46 Y2.413
X-5.463 Y2.378
X-5.474 Y2.345
X-5.498 Y2.288
X-5.513 Y2.259
X-5.533 Y2.234
X-5.579 Y2.186
X-5.606 Y2.164
X-5.638 Y2.147
X-5.707 Y2.118
X-5.74 Y2.108
X-5.774 Y2.104
X-33.908
X-33.943 Y2.108
X-33.976 Y2.118
X-34.045 Y2.147
X-34.076 Y2.164
X-34.104 Y2.187
X-34.15 Y2.234
X-34.179 Y2.275
X-34.455 Y2.804
X-34.861 Y3.123
X-34.9 Y3.136
X-35.43 Y3.251
X-41.574 Y3.253
X-41.573 Y0.851
X-35.405 Y0.853
X-34.878 Y0.972
X-34.459 Y1.292
X-34.179 Y1.828
X-34.15 Y1.868
X-34.104 Y1.916
X-34.076 Y1.939
X-34.045 Y1.956
X-33.976 Y1.985
X-33.943 Y1.995
X-33.908 Y1.999
X-5.356 Y2.001
Y34.601
X-19.269 Y34.604
X-19.303 Y34.607
X-19.336 Y34.617
X-19.408 Y34.647
X-19.443 Y34.666
X-19.473 Y34.693
X-19.525 Y34.753
X-19.548 Y34.786
X-19.563 Y34.823
X-19.584 Y34.899
X-19.59 Y34.945
Y35.451
X-21.587
G3 X-21.587 Y34.786 Z-1.292 I0 J-0.333 F80
X-21.426 Y34.828 Z-1.307 I0 J0.332
G1 X-20.584 Y35.297 Z-1.393
G2 X-20.26 Y34.716 Z-1.485 I0.162 J-0.29
X-20.422 Y34.674 Z-1.5 I-0.162 J0.29
G1 X-25.062 F150
X-25.097 Y34.669
X-25.129 Y34.653
X-25.155 Y34.629
X-25.172 Y34.597
X-25.174 Y34.592
X-25.181 Y34.551
X-25.174 Y34.511
X-25.172 Y34.506
X-25.155 Y34.474
X-25.129 Y34.45
X-25.097 Y34.434
X-25.062 Y34.428
X-20.417
X-20.382 Y34.434
X-20.35 Y34.45
X-20.325 Y34.474
X-20.308 Y34.506
X-20.305 Y34.512
X-20.298 Y34.549
X-20.303 Y34.587
X-20.305 Y34.592
X-20.321 Y34.625
X-20.347 Y34.651
X-20.38 Y34.668
X-20.416 Y34.674
X-20.422
X-20.471 Y34.68
X-20.516 Y34.697
X-20.557 Y34.724
X-20.59 Y34.76
X-20.614 Y34.803
X-20.638 Y34.845
X-20.672 Y34.881
X-20.712 Y34.908
X-20.758 Y34.925
X-20.807 Y34.931
X-25.141
G3 X-25.397 Y34.735 I0 J-0.266
G1 X-25.415 Y34.68
G3 X-25.415 Y34.422 I0.353 J-0.129
G1 X-25.397 Y34.367
G3 X-25.141 Y34.172 I0.256 J0.07
G1 X-20.339
G3 X-20.083 Y34.367 I0 J0.266
G1 X-20.065 Y34.423
X-20.049 Y34.482
X-20.042 Y34.543
X-20.045 Y34.604
X-20.059 Y34.663
X-20.065 Y34.687
X-20.076 Y34.726
G3 X-20.344 Y34.931 I-0.268 J-0.073
G1 X-20.807
X-20.824 Y34.929 Z-1.495 F80
X-20.84 Y34.922 Z-1.491
X-20.86 Y34.906 Z-1.465
X-20.866 Y34.899 Z-1.43
G0 Z4
X-40.499 Y2.21
G1 Z-0.816 F80
X-40.506 Y2.195 Z-0.862
X-40.522 Y2.155 Z-0.885
G3 X-39.89 Y1.95 Z-1.035 I0.316 J-0.103
X-40.522 Y2.155 Z-1.185 I-0.316 J0.103
X-39.89 Y1.95 Z-1.335 I0.316 J-0.103
X-40.522 Y2.155 Z-1.485 I-0.316 J0.103
X-40.538 Y2.052 Z-1.5 I0.316 J-0.103
G1 Y2.043 F150
X-40.531 Y1.995
X-40.509 Y1.951
X-40.474 Y1.917
X-40.43 Y1.895
X-40.382 Y1.887
X-35.538 Y1.888
X-35.504 Y1.892
X-35.352 Y1.926
X-35.328 Y1.935
X-35.307 Y1.948
X-35.291 Y1.96
X-35.263 Y1.991
X-35.248 Y2.03
X-35.247 Y2.072
X-35.262 Y2.112
X-35.29 Y2.144
X-35.3 Y2.151
X-35.322 Y2.165
X-35.347 Y2.174
X-35.526 Y2.213
X-35.559 Y2.216
X-40.382 Y2.217
X-40.43 Y2.21
X-40.474 Y2.188
X-40.509 Y2.153
X-40.531 Y2.109
X-40.538 Y2.061
Y2.052
G2 X-40.716 Y1.727 I-0.386 J0
G3 X-40.612 Y1.371 I0.104 J-0.163
G1 X-35.538 Y1.372
X-35.464 Y1.377
X-35.391 Y1.389
X-35.211 Y1.429
X-35.142 Y1.45
X-35.077 Y1.481
X-35.016 Y1.52
X-34.953 Y1.569
X-34.899 Y1.617
X-34.851 Y1.673
X-34.813 Y1.735
X-34.782 Y1.795
G3 X-34.782 Y2.308 I-0.492 J0.256
G1 X-34.814 Y2.369
X-34.851 Y2.43
X-34.896 Y2.484
X-34.949 Y2.532
X-35.005 Y2.576
X-35.067 Y2.618
X-35.135 Y2.65
X-35.208 Y2.671
X-35.416 Y2.717
X-35.487 Y2.728
X-35.559 Y2.732
X-40.843 Y2.734
G3 X-41.055 Y2.521 I0 J-0.212
G1 X-41.054 Y1.583
G3 X-40.842 Y1.371 I0.212 J0
G1 X-40.612
G2 X-40.222 Y1.111 I0 J-0.422
G3 X-39.833 Y0.852 I0.389 J0.162
G1 X-35.405 Y0.853
X-34.879 Y0.972
X-34.458 Y1.294
X-34.179 Y1.828
X-34.15 Y1.868
X-34.104 Y1.916
X-34.076 Y1.939
X-34.045 Y1.956
X-33.976 Y1.985
X-33.943 Y1.995
X-33.908 Y1.999
X-5.356 Y2.001
Y34.601
X-19.269 Y34.604
X-19.303 Y34.607
X-19.336 Y34.617
X-19.408 Y34.647
X-19.443 Y34.666
X-19.473 Y34.693
X-19.525 Y34.753
X-19.548 Y34.786
X-19.563 Y34.823
X-19.584 Y34.899
X-19.59 Y34.945
Y35.451
X-25.891
X-25.893 Y34.919
X-25.897 Y34.882
X-25.908 Y34.847
X-25.943 Y34.771
X-25.962 Y34.738
X-25.989 Y34.71
X-26.042 Y34.665
X-26.069 Y34.646
X-26.098 Y34.633
X-26.252 Y34.579
X-26.266 Y34.559
Y34.542
X-26.254 Y34.524
X-26.098 Y34.47
X-26.069 Y34.457
X-26.043 Y34.439
X-25.991 Y34.395
X-25.964 Y34.367
X-25.944 Y34.334
X-25.909 Y34.256
X-25.897 Y34.221
X-25.893 Y34.184
X-25.891 Y33.651
X-19.589
X-19.587 Y34.184
X-19.583 Y34.221
X-19.571 Y34.255
X-19.537 Y34.331
X-19.516 Y34.367
X-19.486 Y34.396
X-19.422 Y34.447
X-19.387 Y34.469
X-19.348 Y34.482
X-19.267 Y34.498
X-19.233 Y34.501
X-5.772 Y34.498
X-5.735 Y34.494
X-5.7 Y34.483
X-5.628 Y34.45
X-5.594 Y34.431
X-5.566 Y34.404
X-5.518 Y34.348
X-5.498 Y34.318
X-5.484 Y34.284
X-5.463 Y34.215
X-5.456 Y34.166
X-5.46 Y2.413
X-5.463 Y2.378
X-5.474 Y2.345
X-5.498 Y2.288
X-5.513 Y2.259
X-5.533 Y2.234
X-5.579 Y2.186
X-5.606 Y2.164
X-5.638 Y2.147
X-5.707 Y2.118
X-5.74 Y2.108
X-5.774 Y2.104
X-33.908
X-33.943 Y2.108
X-33.976 Y2.118
X-34.045 Y2.147
X-34.076 Y2.164
X-34.104 Y2.187
X-34.15 Y2.234
X-34.179 Y2.275
X-34.455 Y2.804
X-34.861 Y3.123
X-34.899 Y3.135
X-35.43 Y3.251
X-41.574 Y3.253
X-41.573 Y0.851
X-39.833 Y0.852
G3 X-39.527 Y1.316 Z-1.578 I0 J0.332 F80
G1 X-39.9 Y2.184 Z-1.691
G3 X-40.538 Y2.052 Z-1.8 I-0.305 J-0.131
G1 Y2.043 F150
X-40.531 Y1.995
X-40.509 Y1.951
X-40.474 Y1.917
X-40.43 Y1.895
X-40.382 Y1.887
X-35.539 Y1.888
X-35.504 Y1.892
X-35.345 Y1.928
X-35.32 Y1.937
X-35.298 Y1.951
X-35.291 Y1.957
X-35.273 Y1.974
X-35.26 Y1.994
X-35.247 Y2.03
X-35.246 Y2.069
X-35.258 Y2.105
X-35.272 Y2.126
X-35.29 Y2.143
X-35.299 Y2.151
X-35.322 Y2.165
X-35.346 Y2.173
X-35.526 Y2.213
X-35.559 Y2.216
X-40.382 Y2.217
X-40.43 Y2.21
X-40.474 Y2.188
X-40.509 Y2.153
X-40.531 Y2.109
X-40.538 Y2.061
Y2.052
G2 X-40.716 Y1.727 I-0.386 J0
G3 X-40.612 Y1.371 I0.104 J-0.163
G1 X-35.539 Y1.372
X-35.464 Y1.377
X-35.391 Y1.389
X-35.202 Y1.432
X-35.13 Y1.454
X-35.063 Y1.486
X-35.001 Y1.528
X-34.948 Y1.57
X-34.897 Y1.617
X-34.852 Y1.671
X-34.815 Y1.731
X-34.782 Y1.795
G3 X-34.782 Y2.308 I-0.492 J0.256
G1 X-34.814 Y2.369
X-34.851 Y2.43
X-34.896 Y2.484
X-34.949 Y2.532
X-35.004 Y2.575
X-35.067 Y2.617
X-35.135 Y2.649
X-35.207 Y2.671
X-35.416 Y2.717
X-35.487 Y2.728
X-35.559 Y2.732
X-40.843 Y2.734
G3 X-41.055 Y2.521 I0 J-0.212
G1 X-41.054 Y1.583
G3 X-40.842 Y1.371 I0.212 J0
G1 X-40.612
X-40.595 Y1.373 Z-1.795 F80
X-40.578 Y1.38 Z-1.791
X-40.559 Y1.396 Z-1.765
X-40.553 Y1.403 Z-1.73
G0 Z4
X-20.264 Y34.635
G1 Z-1.116 F80
X-20.279 Y34.642 Z-1.162
X-20.319 Y34.658 Z-1.185
G3 X-20.525 Y34.026 Z-1.335 I-0.103 J-0.316
X-20.319 Y34.658 Z-1.485 I0.103 J0.316
X-20.525 Y34.026 Z-1.635 I-0.103 J-0.316
X-20.319 Y34.658 Z-1.785 I0.103 J0.316
X-20.422 Y34.674 Z-1.8 I-0.103 J-0.316
G1 X-25.062 F150
X-25.097 Y34.669
X-25.129 Y34.653
X-25.155 Y34.629
X-25.172 Y34.597
X-25.174 Y34.592
X-25.181 Y34.551
X-25.174 Y34.511
X-25.172 Y34.506
X-25.155 Y34.474
X-25.129 Y34.45
X-25.097 Y34.434
X-25.062 Y34.428
X-20.417
X-20.382 Y34.434
X-20.35 Y34.45
X-20.325 Y34.474
X-20.308 Y34.506
X-20.305 Y34.512
X-20.298 Y34.549
X-20.303 Y34.587
X-20.305 Y34.592
X-20.321 Y34.625
X-20.347 Y34.651
X-20.38 Y34.668
X-20.416 Y34.674
X-20.422
X-20.471 Y34.68
X-20.516 Y34.697
X-20.557 Y34.724
X-20.59 Y34.76
X-20.614 Y34.803
X-20.638 Y34.845
X-20.672 Y34.881
X-20.712 Y34.908
X-20.758 Y34.925
X-20.807 Y34.931
X-25.141
G3 X-25.397 Y34.735 I0 J-0.266
G1 X-25.415 Y34.68
G3 X-25.415 Y34.422 I0.353 J-0.129
G1 X-25.397 Y34.367
G3 X-25.141 Y34.172 I0.256 J0.07
G1 X-20.339
G3 X-20.083 Y34.367 I0 J0.266
G1 X-20.065 Y34.423
X-20.049 Y34.482
X-20.042 Y34.543
X-20.045 Y34.604
X-20.059 Y34.663
X-20.065 Y34.687
X-20.076 Y34.726
G3 X-20.344 Y34.931 I-0.268 J-0.073
G1 X-20.807
G2 X-21.197 Y35.191 I0 J0.423
G3 X-21.587 Y35.451 I-0.39 J-0.163
G1 X-25.891
X-25.893 Y34.919
X-25.897 Y34.882
X-25.908 Y34.847
X-25.943 Y34.771
X-25.962 Y34.738
X-25.989 Y34.71
X-26.042 Y34.665
X-26.069 Y34.646
X-26.098 Y34.633
X-26.252 Y34.58
X-26.266 Y34.56
Y34.542
X-26.253 Y34.524
X-26.098 Y34.47
X-26.069 Y34.457
X-26.043 Y34.439
X-25.991 Y34.395
X-25.964 Y34.367
X-25.944 Y34.334
X-25.909 Y34.256
X-25.897 Y34.221
X-25.893 Y34.184
X-25.891 Y33.651
X-19.589
X-19.587 Y34.184
X-19.583 Y34.221
X-19.571 Y34.255
X-19.537 Y34.331
X-19.516 Y34.367
X-19.486 Y34.396
X-19.422 Y34.447
X-19.387 Y34.469
X-19.348 Y34.482
X-19.267 Y34.498
X-19.233 Y34.501
X-5.772 Y34.498
X-5.735 Y34.494
X-5.7 Y34.483
X-5.628 Y34.45
X-5.594 Y34.431
X-5.566 Y34.404
X-5.518 Y34.348
X-5.498 Y34.318
X-5.484 Y34.284
X-5.463 Y34.215
X-5.456 Y34.166
X-5.46 Y2.413
X-5.463 Y2.378
X-5.474 Y2.345
X-5.498 Y2.288
X-5.513 Y2.259
X-5.533 Y2.234
X-5.579 Y2.186
X-5.606 Y2.164
X-5.638 Y2.147
X-5.707 Y2.118
X-5.74 Y2.108
X-5.774 Y2.104
X-33.908
X-33.943 Y2.108
X-33.976 Y2.118
X-34.045 Y2.147
X-34.076 Y2.164
X-34.104 Y2.187
X-34.15 Y2.234
X-34.179 Y2.275
X-34.455 Y2.804
X-34.861 Y3.123
X-34.899 Y3.135
X-35.43 Y3.251
X-41.574 Y3.253
X-41.573 Y0.851
X-35.406 Y0.853
X-34.877 Y0.973
X-34.738 Y1.074
X-34.455 Y1.298
X-34.179 Y1.828
X-34.15 Y1.868
X-34.104 Y1.916
X-34.076 Y1.939
X-34.045 Y1.956
X-33.976 Y1.985
X-33.943 Y1.995
X-33.908 Y1.999
X-5.356 Y2.001
Y34.601
X-19.269 Y34.604
X-19.303 Y34.607
X-19.336 Y34.617
X-19.408 Y34.647
X-19.443 Y34.666
X-19.473 Y34.693
X-19.525 Y34.753
X-19.548 Y34.786
X-19.563 Y34.823
X-19.584 Y34.899
X-19.59 Y34.945
Y35.451
X-21.587
G3 X-21.587 Y34.786 Z-1.862 I0 J-0.333 F80
X-21.426 Y34.828 Z-1.872 I0 J0.332
G1 X-20.584 Y35.297 Z-1.928
G2 X-20.26 Y34.716 Z-1.99 I0.162 J-0.29
X-20.422 Y34.674 Z-2 I-0.162 J0.29
G1 X-25.062 F150
X-25.097 Y34.669
X-25.129 Y34.653
X-25.155 Y34.629
X-25.172 Y34.597
X-25.174 Y34.592
X-25.181 Y34.551
X-25.174 Y34.511
X-25.172 Y34.506
X-25.155 Y34.474
X-25.129 Y34.45
X-25.097 Y34.434
X-25.062 Y34.428
X-20.417
X-20.382 Y34.434
X-20.35 Y34.45
X-20.325 Y34.474
X-20.308 Y34.506
X-20.305 Y34.512
X-20.298 Y34.549
X-20.303 Y34.587
X-20.305 Y34.592
X-20.321 Y34.625
X-20.347 Y34.651
X-20.38 Y34.668
X-20.416 Y34.674
X-20.422
X-20.471 Y34.68
X-20.516 Y34.697
X-20.557 Y34.724
X-20.59 Y34.76
X-20.614 Y34.803
X-20.638 Y34.845
X-20.672 Y34.881
X-20.712 Y34.908
X-20.758 Y34.925
X-20.807 Y34.931
X-25.141
G3 X-25.397 Y34.735 I0 J-0.266
G1 X-25.415 Y34.68
G3 X-25.415 Y34.422 I0.353 J-0.129
G1 X-25.397 Y34.367
G3 X-25.141 Y34.172 I0.256 J0.07
G1 X-20.339
G3 X-20.083 Y34.367 I0 J0.266
G1 X-20.065 Y34.423
X-20.049 Y34.482
X-20.042 Y34.543
X-20.045 Y34.604
X-20.059 Y34.663
X-20.065 Y34.687
X-20.076 Y34.726
G3 X-20.344 Y34.931 I-0.268 J-0.073
G1 X-20.807
X-20.824 Y34.929 Z-1.995 F80
X-20.84 Y34.922 Z-1.991
X-20.86 Y34.906 Z-1.965
X-20.866 Y34.899 Z-1.93
G0 Z4
X-40.196 Y1.72
G1 Z-1.416 F80
X-40.179 Y1.721 Z-1.462
X-40.137 Y1.727 Z-1.485
G3 X-40.275 Y2.378 Z-1.635 I-0.069 J0.325
X-40.137 Y1.727 Z-1.785 I0.069 J-0.325
X-40.275 Y2.378 Z-1.935 I-0.069 J0.325
X-40.538 Y2.052 Z-2 I0.069 J-0.325
G1 Y2.043 F150
X-40.531 Y1.995
X-40.509 Y1.951
X-40.474 Y1.917
X-40.43 Y1.895
X-40.382 Y1.887
X-35.539 Y1.888
X-35.505 Y1.892
X-35.345 Y1.929
X-35.32 Y1.937
X-35.298 Y1.951
X-35.291 Y1.957
X-35.273 Y1.974
X-35.26 Y1.994
X-35.247 Y2.03
X-35.246 Y2.069
X-35.258 Y2.105
X-35.272 Y2.126
X-35.29 Y2.143
X-35.299 Y2.151
X-35.321 Y2.165
X-35.346 Y2.173
X-35.526 Y2.213
X-35.56 Y2.216
X-40.382 Y2.217
X-40.43 Y2.21
X-40.474 Y2.188
X-40.509 Y2.153
X-40.531 Y2.109
X-40.538 Y2.061
Y2.052
G2 X-40.716 Y1.727 I-0.386 J0
G3 X-40.612 Y1.371 I0.104 J-0.163
G1 X-35.539 Y1.372
X-35.464 Y1.377
X-35.391 Y1.389
X-35.201 Y1.432
X-35.13 Y1.454
X-35.063 Y1.486
X-35.001 Y1.528
X-34.948 Y1.57
X-34.897 Y1.617
X-34.852 Y1.671
X-34.815 Y1.731
X-34.782 Y1.795
G3 X-34.782 Y2.308 I-0.492 J0.256
G1 X-34.814 Y2.369
X-34.851 Y2.43
X-34.896 Y2.484
X-34.949 Y2.532
X-35.004 Y2.575
X-35.066 Y2.617
X-35.134 Y2.649
X-35.206 Y2.67
X-35.416 Y2.717
X-35.487 Y2.728
X-35.559 Y2.732
X-40.843 Y2.734
G3 X-41.055 Y2.521 I0 J-0.212
G1 X-41.054 Y1.583
G3 X-40.842 Y1.371 I0.212 J0
G1 X-40.612
G2 X-40.222 Y1.111 I0 J-0.422
G3 X-39.833 Y0.852 I0.389 J0.162
G1 X-35.406 Y0.853
X-34.876 Y0.973
X-34.738 Y1.074
X-34.455 Y1.298
X-34.179 Y1.828
X-34.15 Y1.868
X-34.104 Y1.916
X-34.076 Y1.939
X-34.045 Y1.956
X-33.976 Y1.985
X-33.943 Y1.995
X-33.908 Y1.999
X-5.356 Y2.001
Y34.601
X-19.269 Y34.604
X-19.303 Y34.607
X-19.336 Y34.617
X-19.408 Y34.647
X-19.443 Y34.666
X-19.473 Y34.693
X-19.525 Y34.753
X-19.548 Y34.786
X-19.563 Y34.823
X-19.584 Y34.899
X-19.59 Y34.945
Y35.451
X-25.891
X-25.893 Y34.919
X-25.897 Y34.882
X-25.908 Y34.847
X-25.943 Y34.771
X-25.962 Y34.738
X-25.989 Y34.71
X-26.042 Y34.665
X-26.069 Y34.646
X-26.098 Y34.633
X-26.252 Y34.579
X-26.266 Y34.559
Y34.543
X-26.253 Y34.524
X-26.098 Y34.47
X-26.069 Y34.457
X-26.043 Y34.439
X-25.991 Y34.395
X-25.964 Y34.367
X-25.944 Y34.334
X-25.909 Y34.256
X-25.897 Y34.221
X-25.893 Y34.184
X-25.891 Y33.651
X-19.589
X-19.587 Y34.184
X-19.583 Y34.221
X-19.571 Y34.255
X-19.537 Y34.331
X-19.516 Y34.367
X-19.486 Y34.396
X-19.422 Y34.447
X-19.387 Y34.469
X-19.348 Y34.482
X-19.267 Y34.498
X-19.233 Y34.501
X-5.772 Y34.498
X-5.735 Y34.494
X-5.7 Y34.483
X-5.628 Y34.45
X-5.594 Y34.431
X-5.566 Y34.404
X-5.518 Y34.348
X-5.498 Y34.318
X-5.484 Y34.284
X-5.463 Y34.215
X-5.456 Y34.166
X-5.46 Y2.413
X-5.463 Y2.378
X-5.474 Y2.345
X-5.498 Y2.288
X-5.513 Y2.259
X-5.533 Y2.234
X-5.579 Y2.186
X-5.606 Y2.164
X-5.638 Y2.147
X-5.707 Y2.118
X-5.74 Y2.108
X-5.774 Y2.104
X-33.908
X-33.943 Y2.108
X-33.976 Y2.118
X-34.045 Y2.147
X-34.076 Y2.164
X-34.104 Y2.187
X-34.15 Y2.234
X-34.179 Y2.275
X-34.455 Y2.804
X-34.86 Y3.122
X-34.898 Y3.134
X-35.43 Y3.251
X-41.574 Y3.253
X-41.573 Y0.851
X-39.833 Y0.852
G3 X-39.527 Y1.316 Z-2.078 I0 J0.332 F80
G1 X-39.9 Y2.184 Z-2.191
G3 X-40.538 Y2.052 Z-2.3 I-0.305 J-0.131
G1 Y2.043 F150
X-40.531 Y1.995
X-40.509 Y1.951
X-40.474 Y1.917
X-40.43 Y1.895
X-40.382 Y1.887
X-35.54 Y1.888
X-35.505 Y1.892
X-35.348 Y1.928
X-35.323 Y1.937
X-35.301 Y1.95
X-35.297 Y1.954
X-35.279 Y1.971
X-35.265 Y1.993
X-35.262 Y1.999
X-35.251 Y2.033
Y2.07
X-35.262 Y2.104
X-35.265 Y2.11
X-35.279 Y2.131
X-35.297 Y2.149
X-35.32 Y2.164
X-35.346 Y2.173
X-35.527 Y2.213
X-35.56 Y2.216
X-40.382 Y2.217
X-40.43 Y2.21
X-40.474 Y2.188
X-40.509 Y2.153
X-40.531 Y2.109
X-40.538 Y2.061
Y2.052
G2 X-40.716 Y1.727 I-0.386 J0
G3 X-40.612 Y1.371 I0.104 J-0.163
G1 X-35.539 Y1.372
X-35.465 Y1.377
X-35.391 Y1.389
X-35.204 Y1.432
X-35.133 Y1.453
X-35.067 Y1.485
X-35.005 Y1.527
X-34.955 Y1.566
X-34.901 Y1.615
X-34.856 Y1.671
X-34.818 Y1.733
X-34.776 Y1.817
X-34.745 Y1.891
X-34.727 Y1.969
X-34.721 Y2.048
X-34.722 Y2.063
X-34.728 Y2.14
X-34.746 Y2.215
X-34.776 Y2.286
X-34.818 Y2.369
X-34.855 Y2.431
X-34.901 Y2.487
X-34.955 Y2.536
X-35.003 Y2.574
X-35.066 Y2.616
X-35.134 Y2.648
X-35.206 Y2.67
X-35.416 Y2.716
X-35.488 Y2.728
X-35.56 Y2.732
X-40.843 Y2.734
G3 X-41.055 Y2.521 I0 J-0.212
G1 X-41.054 Y1.583
G3 X-40.842 Y1.371 I0.212 J0
G1 X-40.612
G2 X-40.222 Y1.111 I0 J-0.422
G3 X-39.833 Y0.852 I0.389 J0.162
G1 X-35.406 Y0.853
X-34.87 Y0.975
X-34.852 Y0.986
X-34.457 Y1.298
X-34.211 Y1.782
X-34.201 Y1.86
X-34.204 Y2.288
X-34.209 Y2.317
X-34.457 Y2.805
X-34.86 Y3.122
X-34.898 Y3.134
X-35.43 Y3.251
X-41.574 Y3.253
X-41.573 Y0.851
X-39.833 Y0.852
X-39.805 Y0.858 F80
X-39.781 Y0.875
X-39.766 Y0.9
X-39.763 Y0.929
X-39.772 Y0.956
X-40.407 Y2.086 Z-2.5
X-40.428 Y2.109
X-40.456 Y2.121
X-40.486 Y2.12
X-40.513 Y2.106
X-40.532 Y2.082
X-40.538 Y2.052
Y2.043 F150
X-40.531 Y1.995
X-40.509 Y1.951
X-40.474 Y1.917
X-40.43 Y1.895
X-40.382 Y1.887
X-35.54 Y1.888
X-35.505 Y1.892
X-35.348 Y1.928
X-35.316 Y1.941
X-35.289 Y1.962
X-35.27 Y1.99
X-35.265 Y1.999
X-35.254 Y2.034
Y2.069
X-35.265 Y2.104
X-35.269 Y2.111
X-35.288 Y2.139
X-35.315 Y2.16
X-35.348 Y2.173
X-35.527 Y2.213
X-35.561 Y2.216
X-40.382 Y2.217
X-40.43 Y2.21
X-40.474 Y2.188
X-40.509 Y2.153
X-40.531 Y2.109
X-40.538 Y2.061
Y2.052
G2 X-40.716 Y1.727 I-0.386 J0
G3 X-40.612 Y1.371 I0.104 J-0.163
G1 X-35.54 Y1.373
X-35.465 Y1.377
X-35.391 Y1.389
X-35.204 Y1.432
X-35.133 Y1.454
X-35.066 Y1.486
X-35.005 Y1.527
X-34.959 Y1.564
X-34.905 Y1.613
X-34.859 Y1.67
X-34.821 Y1.733
X-34.787 Y1.801
X-34.758 Y1.874
X-34.74 Y1.95
X-34.734 Y2.028
X-34.735 Y2.081
X-34.741 Y2.157
X-34.759 Y2.232
X-34.787 Y2.302
X-34.821 Y2.369
X-34.858 Y2.432
X-34.905 Y2.489
X-34.959 Y2.539
X-35.003 Y2.574
X-35.066 Y2.616
X-35.134 Y2.648
X-35.205 Y2.67
X-35.416 Y2.716
X-35.488 Y2.728
X-35.56 Y2.732
X-40.843 Y2.734
G3 X-41.055 Y2.521 I0 J-0.212
G1 X-41.054 Y1.583
G3 X-40.842 Y1.371 I0.212 J0
G1 X-40.612
G2 X-40.222 Y1.111 I0 J-0.422
G3 X-39.833 Y0.852 I0.389 J0.162
G1 X-35.406 Y0.853
X-34.869 Y0.976
X-34.852 Y0.986
X-34.458 Y1.297
X-34.213 Y1.788
X-34.217 Y2.322
X-34.458 Y2.805
X-34.86 Y3.122
X-34.898 Y3.133
X-35.43 Y3.251
X-41.574 Y3.253
X-41.573 Y0.851
X-39.833 Y0.852
X-39.815 Y0.854 Z-2.495 F80
X-39.799 Y0.861 Z-2.491
X-39.78 Y0.877 Z-2.465
X-39.774 Y0.884 Z-2.43
G0 Z4
X-20.264 Y34.635
G1 Z-1.616 F80
X-20.279 Y34.642 Z-1.662
X-20.319 Y34.658 Z-1.685
G3 X-20.525 Y34.026 Z-1.835 I-0.103 J-0.316
X-20.319 Y34.658 Z-1.985 I0.103 J0.316
X-20.525 Y34.026 Z-2.135 I-0.103 J-0.316
X-20.319 Y34.658 Z-2.285 I0.103 J0.316
X-20.422 Y34.674 Z-2.3 I-0.103 J-0.316
G1 X-25.062 F150
X-25.097 Y34.669
X-25.129 Y34.653
X-25.155 Y34.629
X-25.172 Y34.597
X-25.174 Y34.592
X-25.181 Y34.551
X-25.174 Y34.511
X-25.172 Y34.506
X-25.155 Y34.474
X-25.129 Y34.45
X-25.097 Y34.434
X-25.062 Y34.428
X-20.417
X-20.382 Y34.434
X-20.35 Y34.45
X-20.325 Y34.474
X-20.308 Y34.506
X-20.305 Y34.512
X-20.298 Y34.549
X-20.303 Y34.587
X-20.305 Y34.592
X-20.321 Y34.625
X-20.347 Y34.651
X-20.38 Y34.668
X-20.416 Y34.674
X-20.422
X-20.471 Y34.68
X-20.516 Y34.697
X-20.557 Y34.724
X-20.59 Y34.76
X-20.614 Y34.803
X-20.638 Y34.845
X-20.672 Y34.881
X-20.712 Y34.908
X-20.758 Y34.925
X-20.807 Y34.931
X-25.141
G3 X-25.397 Y34.735 I0 J-0.266
G1 X-25.415 Y34.68
G3 X-25.415 Y34.422 I0.353 J-0.129
G1 X-25.397 Y34.367
G3 X-25.141 Y34.172 I0.256 J0.07
G1 X-20.339
G3 X-20.083 Y34.367 I0 J0.266
G1 X-20.065 Y34.423
X-20.049 Y34.482
X-20.042 Y34.543
X-20.045 Y34.604
X-20.059 Y34.663
X-20.065 Y34.687
X-20.076 Y34.726
G3 X-20.344 Y34.931 I-0.268 J-0.073
G1 X-20.807
G2 X-21.197 Y35.191 I0 J0.423
G3 X-21.587 Y35.451 I-0.39 J-0.163
G1 X-25.891
X-25.893 Y34.919
X-25.897 Y34.882
X-25.908 Y34.847
X-25.943 Y34.771
X-25.962 Y34.738
X-25.989 Y34.71
X-26.042 Y34.665
X-26.068 Y34.646
X-26.097 Y34.633
X-26.252 Y34.578
X-26.265 Y34.559
Y34.543
X-26.252 Y34.524
X-26.098 Y34.47
X-26.069 Y34.457
X-26.043 Y34.439
X-25.991 Y34.395
X-25.964 Y34.367
X-25.944 Y34.334
X-25.909 Y34.256
X-25.897 Y34.221
X-25.893 Y34.184
X-25.891 Y33.651
X-19.589
X-19.587 Y34.184
X-19.583 Y34.221
X-19.571 Y34.255
X-19.537 Y34.331
X-19.516 Y34.367
X-19.486 Y34.396
X-19.422 Y34.447
X-19.387 Y34.469
X-19.348 Y34.482
X-19.267 Y34.498
X-19.233 Y34.501
X-10.791 Y34.504
X-10.731 Y34.523
X-10.712 Y34.547
Y34.559
X-10.722 Y34.574
X-10.765 Y34.59
X-10.81 Y34.601
X-19.269 Y34.604
X-19.303 Y34.607
X-19.336 Y34.617
X-19.408 Y34.647
X-19.443 Y34.666
X-19.473 Y34.693
X-19.525 Y34.753
X-19.548 Y34.786
X-19.563 Y34.823
X-19.584 Y34.899
X-19.59 Y34.945
Y35.451
X-21.587
G3 X-21.587 Y34.786 Z-2.362 I0 J-0.333 F80
X-21.426 Y34.828 Z-2.372 I0 J0.332
G1 X-20.584 Y35.297 Z-2.428
G2 X-20.26 Y34.716 Z-2.49 I0.162 J-0.29
X-20.422 Y34.674 Z-2.5 I-0.162 J0.29
G1 X-25.062 F150
X-25.097 Y34.669
X-25.129 Y34.653
X-25.155 Y34.629
X-25.172 Y34.597
X-25.174 Y34.592
X-25.181 Y34.551
X-25.174 Y34.511
X-25.172 Y34.506
X-25.155 Y34.474
X-25.129 Y34.45
X-25.097 Y34.434
X-25.062 Y34.428
X-20.417
X-20.382 Y34.434
X-20.35 Y34.45
X-20.325 Y34.474
X-20.308 Y34.506
X-20.305 Y34.512
X-20.298 Y34.549
X-20.303 Y34.587
X-20.305 Y34.592
X-20.321 Y34.625
X-20.347 Y34.651
X-20.38 Y34.668
X-20.416 Y34.674
X-20.422
X-20.471 Y34.68
X-20.516 Y34.697
X-20.557 Y34.724
X-20.59 Y34.76
X-20.614 Y34.803
X-20.638 Y34.845
X-20.672 Y34.881
X-20.712 Y34.908
X-20.758 Y34.925
X-20.807 Y34.931
X-25.141
G3 X-25.397 Y34.735 I0 J-0.266
G1 X-25.415 Y34.68
G3 X-25.415 Y34.422 I0.353 J-0.129
G1 X-25.397 Y34.367
G3 X-25.141 Y34.172 I0.256 J0.07
G1 X-20.339
G3 X-20.083 Y34.367 I0 J0.266
G1 X-20.065 Y34.423
X-20.049 Y34.482
X-20.042 Y34.543
X-20.045 Y34.604
X-20.059 Y34.663
X-20.065 Y34.687
X-20.076 Y34.726
G3 X-20.344 Y34.931 I-0.268 J-0.073
G1 X-20.807
G2 X-21.197 Y35.191 I0 J0.423
G3 X-21.587 Y35.451 I-0.39 J-0.163
G1 X-25.891
X-25.893 Y34.919
X-25.897 Y34.882
X-25.908 Y34.847
X-25.943 Y34.771
X-25.962 Y34.738
X-25.989 Y34.71
X-26.042 Y34.665
X-26.068 Y34.647
X-26.096 Y34.633
X-26.252 Y34.578
X-26.265 Y34.559
Y34.543
X-26.251 Y34.523
X-26.098 Y34.47
X-26.069 Y34.457
X-26.043 Y34.439
X-25.991 Y34.395
X-25.964 Y34.367
X-25.944 Y34.334
X-25.909 Y34.256
X-25.897 Y34.221
X-25.893 Y34.184
X-25.891 Y33.651
X-19.589
X-19.587 Y34.184
X-19.583 Y34.221
X-19.571 Y34.255
X-19.537 Y34.331
X-19.516 Y34.367
X-19.486 Y34.396
X-19.422 Y34.447
X-19.387 Y34.469
X-19.348 Y34.482
X-19.267 Y34.498
X-19.233 Y34.501
X-10.791 Y34.504
X-10.731 Y34.523
X-10.712 Y34.547
Y34.559
X-10.722 Y34.574
X-10.765 Y34.59
X-10.81 Y34.601
X-19.269 Y34.604
X-19.303 Y34.607
X-19.336 Y34.617
X-19.408 Y34.647
X-19.443 Y34.666
X-19.473 Y34.693
X-19.525 Y34.753
X-19.548 Y34.786
X-19.563 Y34.823
X-19.584 Y34.899
X-19.59 Y34.945
Y35.451
X-21.587
X-21.605 Y35.449 Z-2.495 F80
X-21.621 Y35.443 Z-2.491
X-21.641 Y35.427 Z-2.465
X-21.646 Y35.419 Z-2.43
G0 Z4
X-20.333 Y39.519
Z0.384
G1 X-20.329 Y39.536 Z0.338 F80
X-20.324 Y39.579 Z0.315
G3 X-20.987 Y39.62 Z0.165 I-0.332 J0.021
X-20.324 Y39.579 Z0.015 I0.332 J-0.021
X-20.987 Y39.62 Z-0.135 I-0.332 J0.021
X-20.624 Y39.268 Z-0.218 I0.332 J-0.021
X-20.334 Y39.682 Z-0.3 I-0.032 J0.331
G1 X-20.335 Y39.687 F150
X-20.35 Y39.722
X-20.376 Y39.75
X-20.41 Y39.768
X-20.448 Y39.775
X-25.032
X-25.07 Y39.768
X-25.104 Y39.75
X-25.13 Y39.722
X-25.145 Y39.687
X-25.148 Y39.675
X-25.151 Y39.632
X-25.139 Y39.592
X-25.113 Y39.558
X-25.077 Y39.536
X-25.035 Y39.528
X-20.444
X-20.403 Y39.536
X-20.366 Y39.558
X-20.341 Y39.592
X-20.328 Y39.632
X-20.332 Y39.675
X-20.334 Y39.682
X-20.338 Y39.721
X-20.333 Y39.76
X-20.317 Y39.796
X-20.293 Y39.827
X-20.261 Y39.85
X-20.235 Y39.872
X-20.217 Y39.901
X-20.211 Y39.935
X-20.218 Y39.969
X-20.236 Y39.998
X-20.263 Y40.019
X-20.295 Y40.03
X-20.324 Y40.032
X-25.156
G3 X-25.378 Y39.835 I0 J-0.224
G1 X-25.395 Y39.745
X-25.424 Y39.658
G3 X-25.164 Y39.271 I0.26 J-0.106
G1 X-20.316
G3 X-20.054 Y39.654 I0 J0.281
G1 X-20.084 Y39.743
X-20.102 Y39.835
G3 X-20.295 Y40.03 I-0.223 J-0.027
G1 X-20.313 Y40.028 Z-0.295 F80
X-20.329 Y40.021 Z-0.291
X-20.349 Y40.005 Z-0.265
X-20.354 Y39.998 Z-0.23
G0 Z4
X-40.215 Y37.179
Z0.384
G1 X-40.231 Y37.187 Z0.338 F80
X-40.271 Y37.203 Z0.315
G3 X-40.476 Y36.57 Z0.165 I-0.103 J-0.316
X-40.271 Y37.203 Z0.015 I0.103 J0.316
X-40.476 Y36.57 Z-0.135 I-0.103 J-0.316
X-40.045 Y36.834 Z-0.218 I0.103 J0.316
X-40.373 Y37.219 Z-0.3 I-0.328 J0.052
G1 X-40.383 F150
X-40.431 Y37.212
X-40.475 Y37.189
X-40.51 Y37.155
X-40.532 Y37.111
X-40.539 Y37.063
Y37.043
X-40.532 Y36.995
X-40.51 Y36.951
X-40.475 Y36.917
X-40.431 Y36.895
X-40.383 Y36.887
X-35.538 Y36.888
X-35.503 Y36.892
X-35.343 Y36.928
X-35.319 Y36.936
X-35.298 Y36.95
X-35.291 Y36.954
X-35.273 Y36.971
X-35.259 Y36.992
X-35.246 Y37.028
Y37.067
X-35.257 Y37.103
X-35.26 Y37.108
X-35.274 Y37.129
X-35.293 Y37.147
X-35.301 Y37.153
X-35.323 Y37.166
X-35.347 Y37.174
X-35.525 Y37.213
X-35.557 Y37.216
X-40.373 Y37.219
G2 X-40.699 Y37.398 I0 J0.385
G3 X-41.055 Y37.295 I-0.163 J-0.103
G1 Y36.583
G3 X-40.843 Y36.371 I0.212 J0
G1 X-35.537 Y36.372
X-35.463 Y36.377
X-35.391 Y36.389
X-35.202 Y36.431
X-35.132 Y36.452
X-35.067 Y36.483
X-35.006 Y36.523
X-34.954 Y36.563
X-34.901 Y36.61
X-34.855 Y36.665
X-34.817 Y36.725
X-34.781 Y36.792
G3 X-34.779 Y37.302 I-0.484 J0.257
G1 X-34.816 Y37.372
X-34.854 Y37.435
X-34.902 Y37.491
X-34.957 Y37.54
X-35.012 Y37.581
X-35.073 Y37.621
X-35.139 Y37.652
X-35.21 Y37.673
X-35.416 Y37.717
X-35.486 Y37.728
X-35.557 Y37.732
X-40.843 Y37.735
G3 X-41.055 Y37.523 I0 J-0.212
G1 Y37.295
G2 X-41.315 Y36.905 I-0.422 J0
G3 X-41.575 Y36.516 I0.162 J-0.389
G1 Y35.851
X-35.405 Y35.853
X-34.868 Y35.974
X-34.462 Y36.286
X-34.164 Y36.849
X-34.14 Y36.883
X-34.109 Y36.91
X-34.041 Y36.958
X-34.011 Y36.975
X-33.979 Y36.985
X-33.928 Y36.997
X-33.89 Y37.001
X-13.342
Y39.601
X-19.278 Y39.606
X-19.313 Y39.609
X-19.347 Y39.62
X-19.408 Y39.646
X-19.439 Y39.663
X-19.465 Y39.686
X-19.514 Y39.737
X-19.535 Y39.764
X-19.551 Y39.795
X-19.575 Y39.856
X-19.584 Y39.887
X-19.587 Y39.919
X-19.589 Y40.551
X-25.89
X-25.893 Y39.919
X-25.897 Y39.882
X-25.909 Y39.846
X-25.945 Y39.768
X-25.965 Y39.735
X-25.992 Y39.707
X-26.043 Y39.664
X-26.069 Y39.646
X-26.098 Y39.633
X-26.254 Y39.579
X-26.265 Y39.563
X-26.264 Y39.536
X-26.255 Y39.525
X-26.089 Y39.465
X-26.055 Y39.448
X-26.025 Y39.424
X-25.967 Y39.366
X-25.943 Y39.336
X-25.926 Y39.301
X-25.902 Y39.234
X-25.894 Y39.205
X-25.891 Y39.175
X-25.89 Y38.751
X-19.589
X-19.587 Y39.184
X-19.583 Y39.221
X-19.571 Y39.256
X-19.537 Y39.332
X-19.515 Y39.367
X-19.486 Y39.397
X-19.422 Y39.448
X-19.387 Y39.469
X-19.348 Y39.482
X-19.267 Y39.498
X-19.233 Y39.501
X-13.755 Y39.498
X-13.718 Y39.493
X-13.683 Y39.482
X-13.614 Y39.45
X-13.581 Y39.431
X-13.554 Y39.405
X-13.505 Y39.348
X-13.483 Y39.316
X-13.469 Y39.28
X-13.448 Y39.204
X-13.442 Y39.158
X-13.443 Y37.432
X-13.445 Y37.404
X-13.452 Y37.377
X-13.475 Y37.308
X-13.491 Y37.274
X-13.513 Y37.243
X-13.566 Y37.187
X-13.593 Y37.163
X-13.626 Y37.146
X-13.69 Y37.119
X-13.723 Y37.108
X-13.758 Y37.105
X-33.912
X-33.947 Y37.108
X-33.98 Y37.119
X-34.045 Y37.146
X-34.079 Y37.165
X-34.107 Y37.191
X-34.162 Y37.252
X-34.187 Y37.288
X-34.46 Y37.814
X-34.878 Y38.132
X-35.43 Y38.251
X-41.575 Y38.255
Y36.516
G3 X-41.089 Y36.221 Z-0.363 I0.333 J0 F80
G1 X-40.054 Y36.758 Z-0.47
G3 X-40.36 Y37.348 Z-0.567 I-0.153 J0.295
X-40.539 Y37.053 Z-0.6 I0.153 J-0.295
G1 Y37.043 F150
X-40.532 Y36.995
X-40.51 Y36.951
X-40.475 Y36.917
X-40.431 Y36.895
X-40.383 Y36.887
X-35.538 Y36.888
X-35.503 Y36.892
X-35.344 Y36.928
X-35.32 Y36.936
X-35.299 Y36.949
X-35.292 Y36.954
X-35.274 Y36.971
X-35.26 Y36.992
X-35.247 Y37.028
X-35.246 Y37.067
X-35.258 Y37.104
X-35.273 Y37.127
X-35.292 Y37.146
X-35.303 Y37.153
X-35.324 Y37.166
X-35.348 Y37.174
X-35.525 Y37.213
X-35.558 Y37.216
X-40.383 Y37.219
X-40.431 Y37.212
X-40.475 Y37.189
X-40.51 Y37.155
X-40.532 Y37.111
X-40.539 Y37.063
Y37.053
G2 X-40.718 Y36.728 I-0.386 J0
G3 X-40.615 Y36.371 I0.104 J-0.163
G1 X-35.537 Y36.372
X-35.463 Y36.377
X-35.391 Y36.389
X-35.203 Y36.431
X-35.133 Y36.452
X-35.067 Y36.483
X-35.006 Y36.523
X-34.955 Y36.563
X-34.902 Y36.61
X-34.856 Y36.664
X-34.818 Y36.724
X-34.782 Y36.793
G3 X-34.779 Y37.301 I-0.481 J0.256
G1 X-34.815 Y37.371
X-34.854 Y37.434
X-34.902 Y37.49
X-34.957 Y37.539
X-35.014 Y37.582
X-35.075 Y37.622
X-35.141 Y37.652
X-35.211 Y37.673
X-35.416 Y37.717
X-35.486 Y37.728
X-35.557 Y37.732
X-40.843 Y37.735
G3 X-41.055 Y37.523 I0 J-0.212
G1 Y36.583
G3 X-40.843 Y36.371 I0.212 J0
G1 X-40.615
X-40.597 Y36.373 Z-0.595 F80
X-40.581 Y36.38 Z-0.591
X-40.561 Y36.396 Z-0.565
X-40.556 Y36.403 Z-0.53
G0 Z4
X-20.333 Y39.519
Z0.084
G1 X-20.329 Y39.536 Z0.038 F80
X-20.324 Y39.579 Z0.015
G3 X-20.987 Y39.62 Z-0.135 I-0.332 J0.021
X-20.324 Y39.579 Z-0.285 I0.332 J-0.021
X-20.987 Y39.62 Z-0.435 I-0.332 J0.021
X-20.624 Y39.268 Z-0.518 I0.332 J-0.021
X-20.334 Y39.682 Z-0.6 I-0.032 J0.331
G1 X-20.335 Y39.687 F150
X-20.35 Y39.722
X-20.376 Y39.75
X-20.41 Y39.768
X-20.448 Y39.775
X-25.032
X-25.07 Y39.768
X-25.104 Y39.75
X-25.13 Y39.722
X-25.145 Y39.687
X-25.148 Y39.675
X-25.151 Y39.632
X-25.139 Y39.592
X-25.113 Y39.558
X-25.077 Y39.536
X-25.035 Y39.528
X-20.444
X-20.403 Y39.536
X-20.366 Y39.558
X-20.341 Y39.592
X-20.328 Y39.632
X-20.332 Y39.675
X-20.334 Y39.682
X-20.338 Y39.721
X-20.333 Y39.76
X-20.317 Y39.796
X-20.293 Y39.827
X-20.261 Y39.85
X-20.235 Y39.872
X-20.217 Y39.901
X-20.211 Y39.935
X-20.218 Y39.969
X-20.236 Y39.998
X-20.263 Y40.019
X-20.295 Y40.03
X-20.324 Y40.032
X-25.156
G3 X-25.378 Y39.835 I0 J-0.224
G1 X-25.395 Y39.745
X-25.424 Y39.658
G3 X-25.164 Y39.271 I0.26 J-0.106
G1 X-20.316
G3 X-20.054 Y39.654 I0 J0.281
G1 X-20.084 Y39.743
X-20.102 Y39.835
G3 X-20.295 Y40.03 I-0.223 J-0.027
G2 X-20.647 Y40.302 I0.057 J0.437
G3 X-21.017 Y40.551 I-0.369 J-0.149
G1 X-25.89
X-25.893 Y39.919
X-25.897 Y39.882
X-25.909 Y39.846
X-25.945 Y39.768
X-25.965 Y39.735
X-25.992 Y39.707
X-26.043 Y39.664
X-26.069 Y39.646
X-26.098 Y39.633
X-26.254 Y39.579
X-26.265 Y39.563
X-26.264 Y39.536
X-26.255 Y39.525
X-26.089 Y39.465
X-26.055 Y39.448
X-26.025 Y39.424
X-25.967 Y39.366
X-25.943 Y39.336
X-25.926 Y39.301
X-25.902 Y39.234
X-25.894 Y39.205
X-25.891 Y39.175
X-25.89 Y38.751
X-19.589
X-19.587 Y39.184
X-19.583 Y39.221
X-19.571 Y39.256
X-19.537 Y39.332
X-19.515 Y39.367
X-19.486 Y39.397
X-19.422 Y39.448
X-19.387 Y39.469
X-19.348 Y39.482
X-19.267 Y39.498
X-19.233 Y39.501
X-13.755 Y39.498
X-13.718 Y39.493
X-13.683 Y39.482
X-13.614 Y39.45
X-13.581 Y39.431
X-13.554 Y39.405
X-13.505 Y39.348
X-13.483 Y39.316
X-13.469 Y39.28
X-13.448 Y39.204
X-13.442 Y39.158
X-13.443 Y37.432
X-13.445 Y37.404
X-13.452 Y37.377
X-13.475 Y37.308
X-13.491 Y37.274
X-13.513 Y37.243
X-13.566 Y37.187
X-13.593 Y37.163
X-13.626 Y37.146
X-13.69 Y37.119
X-13.723 Y37.108
X-13.758 Y37.105
X-33.912
X-33.947 Y37.108
X-33.98 Y37.119
X-34.045 Y37.146
X-34.079 Y37.165
X-34.107 Y37.191
X-34.162 Y37.252
X-34.187 Y37.288
X-34.461 Y37.814
X-34.88 Y38.132
X-35.43 Y38.251
X-41.575 Y38.255
Y35.851
X-35.405 Y35.853
X-34.868 Y35.974
X-34.464 Y36.286
X-34.163 Y36.849
X-34.14 Y36.883
X-34.109 Y36.91
X-34.041 Y36.958
X-34.011 Y36.975
X-33.979 Y36.985
X-33.928 Y36.997
X-33.89 Y37.001
X-13.342
Y39.601
X-19.278 Y39.606
X-19.313 Y39.609
X-19.347 Y39.62
X-19.408 Y39.646
X-19.439 Y39.663
X-19.465 Y39.686
X-19.514 Y39.737
X-19.535 Y39.764
X-19.551 Y39.795
X-19.575 Y39.856
X-19.584 Y39.887
X-19.587 Y39.919
X-19.589 Y40.551
X-21.017
G3 X-21.304 Y40.052 Z-0.688 I0 J-0.333 F80
G1 X-20.943 Y39.432 Z-0.779
G3 X-20.334 Y39.682 Z-0.9 I0.287 J0.167
G1 X-20.335 Y39.687 F150
X-20.35 Y39.722
X-20.376 Y39.75
X-20.41 Y39.768
X-20.448 Y39.775
X-25.032
X-25.07 Y39.768
X-25.104 Y39.75
X-25.13 Y39.722
X-25.145 Y39.687
X-25.148 Y39.675
X-25.151 Y39.632
X-25.139 Y39.592
X-25.113 Y39.558
X-25.077 Y39.536
X-25.035 Y39.528
X-20.444
X-20.403 Y39.536
X-20.366 Y39.558
X-20.341 Y39.592
X-20.328 Y39.632
X-20.332 Y39.675
X-20.334 Y39.682
X-20.338 Y39.721
X-20.333 Y39.76
X-20.317 Y39.796
X-20.293 Y39.827
X-20.261 Y39.85
X-20.235 Y39.872
X-20.217 Y39.901
X-20.211 Y39.935
X-20.218 Y39.969
X-20.236 Y39.998
X-20.263 Y40.019
X-20.295 Y40.03
X-20.324 Y40.032
X-25.156
G3 X-25.378 Y39.835 I0 J-0.224
G1 X-25.395 Y39.745
X-25.424 Y39.658
G3 X-25.164 Y39.271 I0.26 J-0.106
G1 X-20.316
G3 X-20.054 Y39.654 I0 J0.281
G1 X-20.084 Y39.743
X-20.102 Y39.835
G3 X-20.295 Y40.03 I-0.223 J-0.027
G1 X-20.313 Y40.028 Z-0.895 F80
X-20.329 Y40.021 Z-0.891
X-20.349 Y40.005 Z-0.865
X-20.354 Y39.998 Z-0.83
G0 Z4
X-40.5 Y37.211
Z1.3
G1 Z-0.216 F80
X-40.507 Y37.196 Z-0.262
X-40.523 Y37.156 Z-0.285
G3 X-39.891 Y36.95 Z-0.435 I0.316 J-0.103
X-40.523 Y37.156 Z-0.585 I-0.316 J0.103
X-39.891 Y36.95 Z-0.735 I0.316 J-0.103
X-40.523 Y37.156 Z-0.885 I-0.316 J0.103
X-40.539 Y37.053 Z-0.9 I0.316 J-0.103
G1 Y37.043 F150
X-40.532 Y36.995
X-40.51 Y36.951
X-40.475 Y36.917
X-40.431 Y36.895
X-40.383 Y36.887
X-35.538 Y36.888
X-35.503 Y36.892
X-35.345 Y36.928
X-35.321 Y36.936
X-35.299 Y36.949
X-35.293 Y36.954
X-35.275 Y36.971
X-35.262 Y36.991
X-35.248 Y37.028
X-35.247 Y37.067
X-35.259 Y37.104
X-35.262 Y37.111
X-35.282 Y37.138
X-35.309 Y37.159
X-35.34 Y37.171
X-35.528 Y37.212
X-35.562 Y37.216
X-40.383 Y37.219
X-40.431 Y37.212
X-40.475 Y37.189
X-40.51 Y37.155
X-40.532 Y37.111
X-40.539 Y37.063
Y37.053
G2 X-40.718 Y36.728 I-0.386 J0
G3 X-40.615 Y36.371 I0.104 J-0.163
G1 X-35.537 Y36.372
X-35.463 Y36.377
X-35.391 Y36.389
X-35.204 Y36.431
X-35.134 Y36.452
X-35.068 Y36.483
X-35.007 Y36.523
X-34.955 Y36.563
X-34.903 Y36.61
X-34.857 Y36.664
X-34.82 Y36.723
X-34.782 Y36.794
G3 X-34.779 Y37.3 I-0.477 J0.255
G1 X-34.819 Y37.376
X-34.856 Y37.437
X-34.903 Y37.492
X-34.956 Y37.54
X-35.001 Y37.575
X-35.062 Y37.616
X-35.129 Y37.647
X-35.199 Y37.668
X-35.416 Y37.716
X-35.488 Y37.728
X-35.561 Y37.732
X-40.843 Y37.735
G3 X-41.055 Y37.523 I0 J-0.212
G1 Y36.583
G3 X-40.843 Y36.371 I0.212 J0
G1 X-40.615
G2 X-40.225 Y36.111 I0 J-0.422
G3 X-39.835 Y35.852 I0.389 J0.162
G1 X-35.405 Y35.853
X-34.868 Y35.974
X-34.465 Y36.286
X-34.163 Y36.849
X-34.14 Y36.883
X-34.109 Y36.91
X-34.041 Y36.958
X-34.011 Y36.975
X-33.979 Y36.985
X-33.928 Y36.997
X-33.89 Y37.001
X-13.342
Y39.601
X-19.278 Y39.606
X-19.313 Y39.609
X-19.347 Y39.62
X-19.408 Y39.646
X-19.439 Y39.663
X-19.465 Y39.686
X-19.514 Y39.737
X-19.535 Y39.764
X-19.551 Y39.795
X-19.575 Y39.856
X-19.584 Y39.887
X-19.587 Y39.919
X-19.589 Y40.551
X-25.89
X-25.893 Y39.919
X-25.897 Y39.882
X-25.909 Y39.846
X-25.945 Y39.768
X-25.965 Y39.735
X-25.992 Y39.707
X-26.043 Y39.664
X-26.069 Y39.646
X-26.098 Y39.633
X-26.254 Y39.579
X-26.265 Y39.563
X-26.264 Y39.536
X-26.255 Y39.525
X-26.089 Y39.465
X-26.055 Y39.448
X-26.025 Y39.424
X-25.967 Y39.366
X-25.943 Y39.336
X-25.926 Y39.301
X-25.902 Y39.234
X-25.894 Y39.205
X-25.891 Y39.175
X-25.89 Y38.751
X-19.589
X-19.587 Y39.184
X-19.583 Y39.221
X-19.571 Y39.256
X-19.537 Y39.332
X-19.515 Y39.367
X-19.486 Y39.397
X-19.422 Y39.448
X-19.387 Y39.469
X-19.348 Y39.482
X-19.267 Y39.498
X-19.233 Y39.501
X-13.755 Y39.498
X-13.718 Y39.493
X-13.683 Y39.482
X-13.614 Y39.45
X-13.581 Y39.431
X-13.554 Y39.405
X-13.505 Y39.348
X-13.483 Y39.316
X-13.469 Y39.28
X-13.448 Y39.204
X-13.442 Y39.158
X-13.443 Y37.432
X-13.445 Y37.404
X-13.452 Y37.377
X-13.475 Y37.308
X-13.491 Y37.274
X-13.513 Y37.243
X-13.566 Y37.187
X-13.593 Y37.163
X-13.626 Y37.146
X-13.69 Y37.119
X-13.723 Y37.108
X-13.758 Y37.105
X-33.912
X-33.947 Y37.108
X-33.98 Y37.119
X-34.045 Y37.146
X-34.079 Y37.165
X-34.107 Y37.191
X-34.162 Y37.252
X-34.186 Y37.287
X-34.462 Y37.814
X-34.864 Y38.126
X-35.431 Y38.251
X-41.575 Y38.255
Y35.851
X-39.835 Y35.852
G3 X-39.53 Y36.315 Z-0.978 I0 J0.333 F80
G1 X-39.901 Y37.184 Z-1.091
G3 X-40.539 Y37.053 Z-1.2 I-0.306 J-0.131
G1 Y37.043 F150
X-40.532 Y36.995
X-40.51 Y36.951
X-40.475 Y36.917
X-40.431 Y36.895
X-40.383 Y36.887
X-35.538 Y36.888
X-35.504 Y36.892
X-35.346 Y36.928
X-35.322 Y36.936
X-35.3 Y36.949
X-35.294 Y36.955
X-35.276 Y36.971
X-35.262 Y36.991
X-35.248 Y37.028
X-35.247 Y37.067
X-35.26 Y37.105
X-35.263 Y37.111
X-35.277 Y37.132
X-35.295 Y37.149
X-35.317 Y37.163
X-35.342 Y37.172
X-35.527 Y37.213
X-35.56 Y37.216
X-40.383 Y37.219
X-40.431 Y37.212
X-40.475 Y37.189
X-40.51 Y37.155
X-40.532 Y37.111
X-40.539 Y37.063
Y37.053
G2 X-40.718 Y36.728 I-0.386 J0
G3 X-40.615 Y36.371 I0.104 J-0.163
G1 X-35.537 Y36.372
X-35.464 Y36.377
X-35.391 Y36.389
X-35.205 Y36.431
X-35.134 Y36.452
X-35.068 Y36.483
X-35.007 Y36.524
X-34.955 Y36.564
X-34.903 Y36.61
X-34.858 Y36.664
X-34.821 Y36.722
X-34.782 Y36.795
G3 X-34.779 Y37.3 I-0.473 J0.255
G1 X-34.819 Y37.376
X-34.857 Y37.437
X-34.903 Y37.492
X-34.956 Y37.539
X-35.003 Y37.576
X-35.064 Y37.617
X-35.131 Y37.648
X-35.202 Y37.669
X-35.416 Y37.716
X-35.488 Y37.728
X-35.56 Y37.732
X-40.843 Y37.735
G3 X-41.055 Y37.523 I0 J-0.212
G1 Y36.583
G3 X-40.843 Y36.371 I0.212 J0
G1 X-40.615
X-40.597 Y36.373 Z-1.195 F80
X-40.581 Y36.38 Z-1.191
X-40.561 Y36.396 Z-1.165
X-40.556 Y36.403 Z-1.13
G0 Z4
X-20.333 Y39.519
G1 Z-0.516 F80
X-20.329 Y39.536 Z-0.562
X-20.324 Y39.579 Z-0.585
G3 X-20.987 Y39.62 Z-0.735 I-0.332 J0.021
X-20.324 Y39.579 Z-0.885 I0.332 J-0.021
X-20.987 Y39.62 Z-1.035 I-0.332 J0.021
X-20.624 Y39.268 Z-1.118 I0.332 J-0.021
X-20.334 Y39.682 Z-1.2 I-0.032 J0.331
G1 X-20.335 Y39.687 F150
X-20.35 Y39.722
X-20.376 Y39.75
X-20.41 Y39.768
X-20.448 Y39.775
X-25.032
X-25.07 Y39.768
X-25.104 Y39.75
X-25.13 Y39.722
X-25.145 Y39.687
X-25.148 Y39.675
X-25.151 Y39.632
X-25.139 Y39.592
X-25.113 Y39.558
X-25.077 Y39.536
X-25.035 Y39.528
X-20.444
X-20.403 Y39.536
X-20.366 Y39.558
X-20.341 Y39.592
X-20.328 Y39.632
X-20.332 Y39.675
X-20.334 Y39.682
X-20.338 Y39.721
X-20.333 Y39.76
X-20.317 Y39.796
X-20.293 Y39.827
X-20.261 Y39.85
X-20.235 Y39.872
X-20.217 Y39.901
X-20.211 Y39.935
X-20.218 Y39.969
X-20.236 Y39.998
X-20.263 Y40.019
X-20.295 Y40.03
X-20.324 Y40.032
X-25.156
G3 X-25.378 Y39.835 I0 J-0.224
G1 X-25.395 Y39.745
X-25.424 Y39.658
G3 X-25.164 Y39.271 I0.26 J-0.106
G1 X-20.316
G3 X-20.054 Y39.654 I0 J0.281
G1 X-20.084 Y39.743
X-20.102 Y39.835
G3 X-20.295 Y40.03 I-0.223 J-0.027
G2 X-20.647 Y40.302 I0.057 J0.437
G3 X-21.017 Y40.551 I-0.369 J-0.149
G1 X-25.89
X-25.893 Y39.919
X-25.897 Y39.882
X-25.909 Y39.846
X-25.945 Y39.768
X-25.965 Y39.735
X-25.992 Y39.707
X-26.043 Y39.664
X-26.069 Y39.646
X-26.098 Y39.633
X-26.254 Y39.579
X-26.264 Y39.563
X-26.263 Y39.536
X-26.255 Y39.525
X-26.089 Y39.465
X-26.055 Y39.448
X-26.025 Y39.424
X-25.967 Y39.366
X-25.943 Y39.336
X-25.926 Y39.301
X-25.902 Y39.234
X-25.894 Y39.205
X-25.891 Y39.175
X-25.89 Y38.751
X-19.589
X-19.587 Y39.184
X-19.583 Y39.221
X-19.571 Y39.256
X-19.537 Y39.332
X-19.515 Y39.367
X-19.486 Y39.397
X-19.422 Y39.448
X-19.387 Y39.469
X-19.348 Y39.482
X-19.267 Y39.498
X-19.233 Y39.501
X-13.755 Y39.498
X-13.718 Y39.493
X-13.683 Y39.482
X-13.614 Y39.45
X-13.581 Y39.431
X-13.554 Y39.405
X-13.505 Y39.348
X-13.483 Y39.316
X-13.469 Y39.28
X-13.448 Y39.204
X-13.442 Y39.158
X-13.443 Y37.432
X-13.445 Y37.404
X-13.452 Y37.377
X-13.475 Y37.308
X-13.491 Y37.274
X-13.513 Y37.243
X-13.566 Y37.187
X-13.593 Y37.163
X-13.626 Y37.146
X-13.69 Y37.119
X-13.723 Y37.108
X-13.758 Y37.105
X-33.912
X-33.947 Y37.108
X-33.98 Y37.119
X-34.045 Y37.146
X-34.079 Y37.165
X-34.107 Y37.191
X-34.162 Y37.252
X-34.186 Y37.287
X-34.462 Y37.814
X-34.866 Y38.127
X-35.43 Y38.251
X-41.575 Y38.255
Y35.851
X-35.405 Y35.853
X-34.869 Y35.974
X-34.466 Y36.286
X-34.163 Y36.85
X-34.14 Y36.883
X-34.109 Y36.91
X-34.041 Y36.958
X-34.011 Y36.975
X-33.979 Y36.985
X-33.928 Y36.997
X-33.89 Y37.001
X-13.342
Y39.601
X-19.233 Y39.605
X-19.278 Y39.606
X-19.313 Y39.609
X-19.347 Y39.62
X-19.408 Y39.646
X-19.439 Y39.663
X-19.465 Y39.686
X-19.514 Y39.737
X-19.535 Y39.764
X-19.551 Y39.795
X-19.575 Y39.856
X-19.584 Y39.887
X-19.587 Y39.919
X-19.589 Y40.551
X-21.017
G3 X-21.304 Y40.052 Z-1.288 I0 J-0.333 F80
G1 X-20.943 Y39.432 Z-1.379
G3 X-20.334 Y39.682 Z-1.5 I0.287 J0.167
G1 X-20.335 Y39.687 F150
X-20.35 Y39.722
X-20.376 Y39.75
X-20.41 Y39.768
X-20.448 Y39.775
X-25.032
X-25.07 Y39.768
X-25.104 Y39.75
X-25.13 Y39.722
X-25.145 Y39.687
X-25.148 Y39.675
X-25.151 Y39.632
X-25.139 Y39.592
X-25.113 Y39.558
X-25.077 Y39.536
X-25.035 Y39.528
X-20.444
X-20.403 Y39.536
X-20.366 Y39.558
X-20.341 Y39.592
X-20.328 Y39.632
X-20.332 Y39.675
X-20.334 Y39.682
X-20.338 Y39.721
X-20.333 Y39.76
X-20.317 Y39.796
X-20.293 Y39.827
X-20.261 Y39.85
X-20.235 Y39.872
X-20.217 Y39.901
X-20.211 Y39.935
X-20.218 Y39.969
X-20.236 Y39.998
X-20.263 Y40.019
X-20.295 Y40.03
X-20.324 Y40.032
X-25.156
G3 X-25.378 Y39.835 I0 J-0.224
G1 X-25.395 Y39.745
X-25.424 Y39.658
G3 X-25.164 Y39.271 I0.26 J-0.106
G1 X-20.316
G3 X-20.054 Y39.654 I0 J0.281
G1 X-20.084 Y39.743
X-20.102 Y39.835
G3 X-20.295 Y40.03 I-0.223 J-0.027
G1 X-20.313 Y40.028 Z-1.495 F80
X-20.329 Y40.021 Z-1.491
X-20.349 Y40.005 Z-1.465
X-20.354 Y39.998 Z-1.43
G0 Z4
X-40.5 Y37.211
G1 Z-0.816 F80
X-40.507 Y37.196 Z-0.862
X-40.523 Y37.156 Z-0.885
G3 X-39.891 Y36.95 Z-1.035 I0.316 J-0.103
X-40.523 Y37.156 Z-1.185 I-0.316 J0.103
X-39.891 Y36.95 Z-1.335 I0.316 J-0.103
X-40.523 Y37.156 Z-1.485 I-0.316 J0.103
X-40.539 Y37.053 Z-1.5 I0.316 J-0.103
G1 Y37.043 F150
X-40.532 Y36.995
X-40.51 Y36.951
X-40.475 Y36.917
X-40.431 Y36.895
X-40.383 Y36.887
X-35.538 Y36.888
X-35.504 Y36.892
X-35.347 Y36.928
X-35.323 Y36.936
X-35.301 Y36.949
X-35.291 Y36.957
X-35.264 Y36.987
X-35.249 Y37.025
X-35.247 Y37.065
X-35.26 Y37.103
X-35.264 Y37.111
X-35.277 Y37.132
X-35.295 Y37.149
X-35.318 Y37.164
X-35.344 Y37.173
X-35.526 Y37.213
X-35.56 Y37.216
X-40.383 Y37.219
X-40.431 Y37.212
X-40.475 Y37.189
X-40.51 Y37.155
X-40.532 Y37.111
X-40.539 Y37.063
Y37.053
G2 X-40.718 Y36.728 I-0.386 J0
G3 X-40.615 Y36.371 I0.104 J-0.163
G1 X-35.538 Y36.372
X-35.464 Y36.377
X-35.391 Y36.389
X-35.205 Y36.431
X-35.135 Y36.452
X-35.069 Y36.483
X-35.008 Y36.524
X-34.951 Y36.568
X-34.898 Y36.615
X-34.853 Y36.669
X-34.816 Y36.729
X-34.781 Y36.794
G3 X-34.78 Y37.3 I-0.477 J0.254
G1 X-34.82 Y37.376
X-34.858 Y37.437
X-34.903 Y37.491
X-34.956 Y37.539
X-35.004 Y37.576
X-35.066 Y37.617
X-35.134 Y37.649
X-35.205 Y37.67
X-35.416 Y37.717
X-35.487 Y37.728
X-35.559 Y37.732
X-40.843 Y37.735
G3 X-41.055 Y37.523 I0 J-0.212
G1 Y36.583
G3 X-40.843 Y36.371 I0.212 J0
G1 X-40.615
G2 X-40.225 Y36.111 I0 J-0.422
G3 X-39.835 Y35.852 I0.389 J0.162
G1 X-35.405 Y35.853
X-34.869 Y35.974
X-34.466 Y36.288
X-34.398 Y36.408
X-34.163 Y36.849
X-34.14 Y36.883
X-34.109 Y36.91
X-34.041 Y36.958
X-34.011 Y36.975
X-33.979 Y36.985
X-33.928 Y36.997
X-33.89 Y37.001
X-13.342
Y39.601
X-19.233 Y39.605
X-19.278 Y39.606
X-19.313 Y39.609
X-19.347 Y39.62
X-19.408 Y39.646
X-19.439 Y39.663
X-19.465 Y39.686
X-19.514 Y39.737
X-19.535 Y39.764
X-19.551 Y39.795
X-19.575 Y39.856
X-19.584 Y39.887
X-19.587 Y39.919
X-19.589 Y40.551
X-25.89
X-25.893 Y39.919
X-25.897 Y39.882
X-25.909 Y39.846
X-25.945 Y39.768
X-25.965 Y39.735
X-25.992 Y39.707
X-26.043 Y39.664
X-26.069 Y39.646
X-26.098 Y39.633
X-26.254 Y39.579
X-26.264 Y39.563
X-26.263 Y39.536
X-26.255 Y39.525
X-26.089 Y39.465
X-26.055 Y39.448
X-26.025 Y39.424
X-25.967 Y39.366
X-25.943 Y39.336
X-25.926 Y39.301
X-25.902 Y39.234
X-25.894 Y39.205
X-25.891 Y39.175
X-25.89 Y38.751
X-19.589
X-19.587 Y39.184
X-19.583 Y39.221
X-19.571 Y39.256
X-19.537 Y39.332
X-19.515 Y39.367
X-19.486 Y39.397
X-19.422 Y39.448
X-19.387 Y39.469
X-19.348 Y39.482
X-19.267 Y39.498
X-19.233 Y39.501
X-13.755 Y39.498
X-13.718 Y39.493
X-13.683 Y39.482
X-13.614 Y39.45
X-13.581 Y39.431
X-13.554 Y39.405
X-13.505 Y39.348
X-13.483 Y39.316
X-13.469 Y39.28
X-13.448 Y39.204
X-13.442 Y39.158
X-13.443 Y37.432
X-13.445 Y37.404
X-13.452 Y37.377
X-13.475 Y37.308
X-13.491 Y37.274
X-13.513 Y37.243
X-13.566 Y37.187
X-13.593 Y37.163
X-13.626 Y37.146
X-13.69 Y37.119
X-13.723 Y37.108
X-13.758 Y37.105
X-33.912
X-33.947 Y37.108
X-33.98 Y37.119
X-34.045 Y37.146
X-34.079 Y37.165
X-34.107 Y37.191
X-34.162 Y37.252
X-34.186 Y37.287
X-34.463 Y37.813
X-34.868 Y38.128
X-35.43 Y38.251
X-41.575 Y38.255
Y35.851
X-39.835 Y35.852
G3 X-39.53 Y36.315 Z-1.578 I0 J0.333 F80
G1 X-39.901 Y37.184 Z-1.691
G3 X-40.539 Y37.053 Z-1.8 I-0.306 J-0.131
G1 Y37.043 F150
X-40.532 Y36.995
X-40.51 Y36.951
X-40.475 Y36.917
X-40.431 Y36.895
X-40.383 Y36.887
X-35.539 Y36.888
X-35.504 Y36.892
X-35.348 Y36.928
X-35.324 Y36.936
X-35.302 Y36.949
X-35.292 Y36.958
X-35.265 Y36.988
X-35.25 Y37.025
X-35.248 Y37.065
X-35.26 Y37.104
X-35.263 Y37.11
X-35.277 Y37.13
X-35.295 Y37.147
X-35.3 Y37.151
X-35.322 Y37.165
X-35.346 Y37.173
X-35.527 Y37.213
X-35.56 Y37.216
X-40.383 Y37.219
X-40.431 Y37.212
X-40.475 Y37.189
X-40.51 Y37.155
X-40.532 Y37.111
X-40.539 Y37.063
Y37.053
G2 X-40.718 Y36.728 I-0.386 J0
G3 X-40.615 Y36.371 I0.104 J-0.163
G1 X-35.539 Y36.372
X-35.464 Y36.377
X-35.391 Y36.389
X-35.206 Y36.431
X-35.136 Y36.452
X-35.069 Y36.484
X-35.008 Y36.524
X-34.949 Y36.571
X-34.896 Y36.618
X-34.851 Y36.672
X-34.814 Y36.731
X-34.781 Y36.794
G3 X-34.78 Y37.299 I-0.477 J0.253
G1 X-34.82 Y37.376
X-34.858 Y37.436
X-34.903 Y37.49
X-34.956 Y37.537
X-35.006 Y37.577
X-35.068 Y37.618
X-35.135 Y37.649
X-35.207 Y37.67
X-35.416 Y37.717
X-35.487 Y37.728
X-35.56 Y37.732
X-40.843 Y37.735
G3 X-41.055 Y37.523 I0 J-0.212
G1 Y36.583
G3 X-40.843 Y36.371 I0.212 J0
G1 X-40.615
X-40.597 Y36.373 Z-1.795 F80
X-40.581 Y36.38 Z-1.791
X-40.561 Y36.396 Z-1.765
X-40.556 Y36.403 Z-1.73
G0 Z4
X-20.333 Y39.519
G1 Z-1.116 F80
X-20.329 Y39.536 Z-1.162
X-20.324 Y39.579 Z-1.185
G3 X-20.987 Y39.62 Z-1.335 I-0.332 J0.021
X-20.324 Y39.579 Z-1.485 I0.332 J-0.021
X-20.987 Y39.62 Z-1.635 I-0.332 J0.021
X-20.624 Y39.268 Z-1.718 I0.332 J-0.021
X-20.334 Y39.682 Z-1.8 I-0.032 J0.331
G1 X-20.335 Y39.687 F150
X-20.35 Y39.722
X-20.376 Y39.75
X-20.41 Y39.768
X-20.448 Y39.775
X-25.032
X-25.07 Y39.768
X-25.104 Y39.75
X-25.13 Y39.722
X-25.145 Y39.687
X-25.148 Y39.675
X-25.151 Y39.632
X-25.139 Y39.592
X-25.113 Y39.558
X-25.077 Y39.536
X-25.035 Y39.528
X-20.444
X-20.403 Y39.536
X-20.366 Y39.558
X-20.341 Y39.592
X-20.328 Y39.632
X-20.332 Y39.675
X-20.334 Y39.682
X-20.338 Y39.721
X-20.333 Y39.76
X-20.317 Y39.796
X-20.293 Y39.827
X-20.261 Y39.85
X-20.235 Y39.872
X-20.217 Y39.901
X-20.211 Y39.935
X-20.218 Y39.969
X-20.236 Y39.998
X-20.263 Y40.019
X-20.295 Y40.03
X-20.324 Y40.032
X-25.156
G3 X-25.378 Y39.835 I0 J-0.224
G1 X-25.395 Y39.745
X-25.424 Y39.658
G3 X-25.164 Y39.271 I0.26 J-0.106
G1 X-20.316
G3 X-20.054 Y39.654 I0 J0.281
G1 X-20.084 Y39.743
X-20.102 Y39.835
G3 X-20.295 Y40.03 I-0.223 J-0.027
G2 X-20.647 Y40.302 I0.057 J0.437
G3 X-21.017 Y40.551 I-0.369 J-0.149
G1 X-25.89
X-25.893 Y39.919
X-25.897 Y39.882
X-25.909 Y39.846
X-25.945 Y39.768
X-25.965 Y39.735
X-25.992 Y39.707
X-26.043 Y39.664
X-26.069 Y39.646
X-26.098 Y39.633
X-26.253 Y39.579
X-26.264 Y39.563
X-26.263 Y39.536
X-26.255 Y39.525
X-26.089 Y39.465
X-26.055 Y39.448
X-26.025 Y39.424
X-25.967 Y39.366
X-25.943 Y39.336
X-25.926 Y39.301
X-25.902 Y39.234
X-25.894 Y39.205
X-25.891 Y39.175
X-25.89 Y38.751
X-19.589
X-19.587 Y39.184
X-19.583 Y39.221
X-19.571 Y39.256
X-19.537 Y39.332
X-19.515 Y39.367
X-19.486 Y39.397
X-19.422 Y39.448
X-19.387 Y39.469
X-19.348 Y39.482
X-19.267 Y39.498
X-19.233 Y39.501
X-13.755 Y39.498
X-13.718 Y39.493
X-13.683 Y39.482
X-13.614 Y39.45
X-13.581 Y39.431
X-13.554 Y39.405
X-13.505 Y39.348
X-13.483 Y39.316
X-13.469 Y39.28
X-13.448 Y39.204
X-13.442 Y39.158
X-13.443 Y37.432
X-13.445 Y37.404
X-13.452 Y37.377
X-13.475 Y37.308
X-13.491 Y37.274
X-13.513 Y37.243
X-13.566 Y37.187
X-13.593 Y37.163
X-13.626 Y37.146
X-13.69 Y37.119
X-13.723 Y37.108
X-13.758 Y37.105
X-33.912
X-33.947 Y37.108
X-33.98 Y37.119
X-34.045 Y37.146
X-34.079 Y37.165
X-34.107 Y37.191
X-34.162 Y37.252
X-34.186 Y37.287
X-34.464 Y37.812
X-34.87 Y38.128
X-35.43 Y38.251
X-41.575 Y38.255
Y35.851
X-35.406 Y35.853
X-34.869 Y35.975
X-34.465 Y36.29
X-34.428 Y36.351
X-34.164 Y36.849
X-34.14 Y36.883
X-34.109 Y36.91
X-34.041 Y36.958
X-34.011 Y36.975
X-33.979 Y36.985
X-33.928 Y36.997
X-33.89 Y37.001
X-13.342
Y39.601
X-19.278 Y39.606
X-19.313 Y39.609
X-19.347 Y39.62
X-19.408 Y39.646
X-19.439 Y39.663
X-19.465 Y39.686
X-19.514 Y39.737
X-19.535 Y39.764
X-19.551 Y39.795
X-19.575 Y39.856
X-19.584 Y39.887
X-19.587 Y39.919
X-19.589 Y40.551
X-21.017
G3 X-21.304 Y40.052 Z-1.859 I0 J-0.333 F80
G1 X-20.943 Y39.432 Z-1.92
G3 X-20.334 Y39.682 Z-2 I0.287 J0.167
G1 X-20.335 Y39.687 F150
X-20.35 Y39.722
X-20.376 Y39.75
X-20.41 Y39.768
X-20.448 Y39.775
X-25.032
X-25.07 Y39.768
X-25.104 Y39.75
X-25.13 Y39.722
X-25.145 Y39.687
X-25.148 Y39.675
X-25.151 Y39.632
X-25.139 Y39.592
X-25.113 Y39.558
X-25.077 Y39.536
X-25.035 Y39.528
X-20.444
X-20.403 Y39.536
X-20.366 Y39.558
X-20.341 Y39.592
X-20.328 Y39.632
X-20.332 Y39.675
X-20.334 Y39.682
X-20.338 Y39.721
X-20.333 Y39.76
X-20.317 Y39.796
X-20.293 Y39.827
X-20.261 Y39.85
X-20.235 Y39.872
X-20.217 Y39.901
X-20.211 Y39.935
X-20.218 Y39.969
X-20.236 Y39.998
X-20.263 Y40.019
X-20.295 Y40.03
X-20.324 Y40.032
X-25.156
G3 X-25.378 Y39.835 I0 J-0.224
G1 X-25.395 Y39.745
X-25.424 Y39.658
G3 X-25.164 Y39.271 I0.26 J-0.106
G1 X-20.316
G3 X-20.054 Y39.654 I0 J0.281
G1 X-20.084 Y39.743
X-20.102 Y39.835
G3 X-20.295 Y40.03 I-0.223 J-0.027
G1 X-20.313 Y40.028 Z-1.995 F80
X-20.329 Y40.021 Z-1.991
X-20.349 Y40.005 Z-1.965
X-20.354 Y39.998 Z-1.93
G0 Z4
X-40.706 Y36.877
G1 Z-1.416 F80
X-40.705 Y36.86 Z-1.462
X-40.699 Y36.818 Z-1.485
G3 X-40.048 Y36.956 Z-1.635 I0.325 J0.069
X-40.699 Y36.818 Z-1.785 I-0.325 J-0.069
X-40.048 Y36.956 Z-1.935 I0.325 J0.069
X-40.373 Y37.219 Z-2 I-0.325 J-0.069
