(1001)
(T4  D=0.7 CR=0 - ZMIN=-2.5 - flat end mill)
G90 G94
G17
G21

(Pocket1)
T4
S500 M3
G54
M8
G0 X21.311 Y27.635
Z6
Z1.3
G1 Z0.384 F80
X21.295 Y27.642 Z0.338
X21.255 Y27.658 Z0.315
G3 X21.05 Y27.026 Z0.165 I-0.103 J-0.316
X21.255 Y27.658 Z0.015 I0.103 J0.316
X21.05 Y27.026 Z-0.135 I-0.103 J-0.316
X21.255 Y27.658 Z-0.285 I0.103 J0.316
X21.153 Y27.674 Z-0.3 I-0.103 J-0.316
G1 X16.512
X16.477 Y27.669
X16.445 Y27.653
X16.42 Y27.629
X16.403 Y27.597
X16.401 Y27.592
X16.394 Y27.551
X16.401 Y27.511
X16.403 Y27.506
X16.42 Y27.474
X16.445 Y27.45
X16.477 Y27.434
X16.512 Y27.428
X21.157
X21.192 Y27.434
X21.224 Y27.45
X21.25 Y27.474
X21.267 Y27.506
X21.269 Y27.512
X21.276 Y27.549
X21.271 Y27.587
X21.27 Y27.592
X21.253 Y27.625
X21.227 Y27.651
X21.195 Y27.669
X21.158 Y27.674
X21.153
X21.104 Y27.68
X21.058 Y27.697
X21.018 Y27.724
X20.984 Y27.76
X20.96 Y27.803
X20.936 Y27.845
X20.903 Y27.881
X20.863 Y27.908
X20.817 Y27.925
X20.768 Y27.931
X16.434
G3 X16.178 Y27.735 I0 J-0.266
G1 X16.16 Y27.68
G3 X16.16 Y27.422 I0.353 J-0.129
G1 X16.178 Y27.367
G3 X16.434 Y27.172 I0.256 J0.07
G1 X21.236
G3 X21.492 Y27.367 I0 J0.266
G1 X21.51 Y27.423
X21.526 Y27.482
X21.533 Y27.543
X21.529 Y27.604
X21.516 Y27.663
X21.509 Y27.689
X21.499 Y27.725
G3 X21.231 Y27.931 I-0.268 J-0.072
G1 X20.768
X20.751 Y27.929 Z-0.295
X20.735 Y27.922 Z-0.291
X20.715 Y27.906 Z-0.265
X20.709 Y27.899 Z-0.23
G0 Z4
X1.358 Y15.177
Z0.384
G1 X1.343 Y15.185 Z0.338 F80
X1.303 Y15.201 Z0.315
G3 X1.097 Y14.568 Z0.165 I-0.103 J-0.316
X1.303 Y15.201 Z0.015 I0.103 J0.316
X1.097 Y14.568 Z-0.135 I-0.103 J-0.316
X1.303 Y15.201 Z-0.285 I0.103 J0.316
X1.2 Y15.217 Z-0.3 I-0.103 J-0.316
G1 X1.192
X1.143 Y15.209
X1.1 Y15.187
X1.065 Y15.152
X1.043 Y15.109
X1.035 Y15.061
Y15.044
X1.043 Y14.996
X1.065 Y14.952
X1.1 Y14.917
X1.143 Y14.895
X1.192 Y14.887
X6.05 Y14.891
X6.084 Y14.895
X6.23 Y14.927
X6.254 Y14.935
X6.275 Y14.948
X6.284 Y14.955
X6.302 Y14.973
X6.316 Y14.993
X6.329 Y15.029
Y15.067
X6.317 Y15.103
X6.314 Y15.109
X6.299 Y15.131
X6.281 Y15.148
X6.275 Y15.153
X6.253 Y15.166
X6.229 Y15.174
X6.05 Y15.213
X6.017 Y15.216
X1.2 Y15.217
G2 X0.875 Y15.395 I0 J0.386
G3 X0.519 Y15.291 I-0.163 J-0.104
G1 Y14.583
G3 X0.732 Y14.371 I0.212 J0
G1 X6.051 Y14.375
X6.124 Y14.379
X6.196 Y14.391
X6.37 Y14.43
X6.44 Y14.451
X6.506 Y14.482
X6.567 Y14.522
X6.621 Y14.564
X6.675 Y14.611
X6.721 Y14.666
X6.759 Y14.727
X6.794 Y14.792
G3 X6.795 Y15.301 I-0.484 J0.256
G1 X6.758 Y15.374
X6.719 Y15.437
X6.671 Y15.493
X6.616 Y15.542
X6.564 Y15.582
X6.502 Y15.621
X6.436 Y15.652
X6.366 Y15.672
X6.159 Y15.717
X6.089 Y15.728
X6.018 Y15.732
X0.732 Y15.733
G3 X0.519 Y15.521 I0 J-0.212
G1 Y15.291
G2 X0.26 Y14.901 I-0.422 J0
G3 X0 Y14.512 I0.162 J-0.389
G1 Y13.851
X6.181 Y13.856
X6.704 Y13.972
X7.114 Y14.287
X7.411 Y14.848
X7.435 Y14.882
X7.465 Y14.91
X7.534 Y14.958
X7.563 Y14.975
X7.596 Y14.985
X7.647 Y14.997
X7.685 Y15.001
X32.983
X33.055 Y27.588
X29.442 Y27.601
X22.299 Y27.605
X22.261 Y27.609
X22.224 Y27.622
X22.151 Y27.656
X22.119 Y27.676
X22.091 Y27.703
X22.046 Y27.758
X22.025 Y27.789
X22.011 Y27.824
X21.991 Y27.899
X21.985 Y27.945
Y28.451
X15.684
X15.682 Y27.919
X15.679 Y27.886
X15.669 Y27.854
X15.643 Y27.789
X15.624 Y27.755
X15.599 Y27.726
X15.538 Y27.669
X15.509 Y27.648
X15.476 Y27.633
X15.323 Y27.579
X15.308 Y27.558
Y27.543
X15.319 Y27.526
X15.478 Y27.47
X15.507 Y27.456
X15.532 Y27.438
X15.586 Y27.393
X15.612 Y27.365
X15.632 Y27.332
X15.666 Y27.256
X15.678 Y27.221
X15.682 Y27.184
X15.684 Y26.651
X21.985
X21.988 Y27.184
X21.992 Y27.221
X22.003 Y27.256
X22.038 Y27.332
X22.058 Y27.365
X22.085 Y27.393
X22.139 Y27.439
X22.17 Y27.46
X22.205 Y27.474
X22.28 Y27.495
X22.327 Y27.501
X31.674 Y27.497
X32.639 Y27.488
X32.673 Y27.484
X32.706 Y27.474
X32.771 Y27.446
X32.802 Y27.429
X32.829 Y27.406
X32.878 Y27.355
X32.9 Y27.325
X32.916 Y27.29
X32.942 Y27.214
X32.949 Y27.186
X32.952 Y27.157
X32.883 Y15.418
X32.879 Y15.383
X32.869 Y15.35
X32.839 Y15.281
X32.822 Y15.25
X32.8 Y15.224
X32.753 Y15.179
X32.725 Y15.157
X32.693 Y15.141
X32.62 Y15.114
X32.59 Y15.106
X32.559 Y15.103
X7.668 Y15.104
X7.636 Y15.107
X7.604 Y15.116
X7.537 Y15.142
X7.502 Y15.161
X7.472 Y15.187
X7.415 Y15.25
X7.388 Y15.287
X7.112 Y15.817
X6.697 Y16.132
X6.145 Y16.251
X0 Y16.252
Y14.512
G3 X0.597 Y14.311 Z-0.447 I0.333 J0
G1 X0.936 Y14.756 Z-0.546
G2 X1.2 Y14.888 Z-0.6 I0.265 J-0.201
G1 X6.05 Y14.891
X6.084 Y14.895
X6.229 Y14.927
X6.253 Y14.935
X6.275 Y14.949
X6.284 Y14.956
X6.302 Y14.973
X6.316 Y14.994
X6.328 Y15.029
Y15.067
X6.317 Y15.103
X6.313 Y15.109
X6.299 Y15.13
X6.281 Y15.148
X6.274 Y15.153
X6.252 Y15.166
X6.228 Y15.174
X6.05 Y15.213
X6.017 Y15.216
X1.192 Y15.217
X1.143 Y15.209
X1.1 Y15.187
X1.065 Y15.152
X1.043 Y15.109
X1.035 Y15.061
Y15.044
X1.043 Y14.996
X1.065 Y14.952
X1.1 Y14.917
X1.143 Y14.895
X1.192 Y14.887
X1.2 Y14.888
G2 X1.587 Y14.63 I0 J-0.419
G3 X1.974 Y14.372 I0.387 J0.162
G1 X6.05 Y14.375
X6.124 Y14.379
X6.196 Y14.391
X6.37 Y14.43
X6.439 Y14.451
X6.505 Y14.482
X6.566 Y14.522
X6.621 Y14.564
X6.675 Y14.612
X6.721 Y14.666
X6.759 Y14.727
X6.794 Y14.793
G3 X6.795 Y15.301 I-0.481 J0.255
G1 X6.757 Y15.374
X6.718 Y15.436
X6.671 Y15.492
X6.616 Y15.541
X6.563 Y15.581
X6.502 Y15.621
X6.435 Y15.652
X6.365 Y15.672
X6.159 Y15.717
X6.089 Y15.728
X6.017 Y15.732
X0.732 Y15.733
G3 X0.519 Y15.521 I0 J-0.212
G1 Y14.583
G3 X0.732 Y14.371 I0.212 J0
G1 X1.974 Y14.372
X1.992 Y14.374 Z-0.595
X2.008 Y14.381 Z-0.591
X2.028 Y14.397 Z-0.565
X2.033 Y14.404 Z-0.53
G0 Z4
X21.311 Y27.635
Z0.084
G1 X21.295 Y27.642 Z0.038 F80
X21.255 Y27.658 Z0.015
G3 X21.05 Y27.026 Z-0.135 I-0.103 J-0.316
X21.255 Y27.658 Z-0.285 I0.103 J0.316
X21.05 Y27.026 Z-0.435 I-0.103 J-0.316
X21.255 Y27.658 Z-0.585 I0.103 J0.316
X21.153 Y27.674 Z-0.6 I-0.103 J-0.316
G1 X16.512
X16.477 Y27.669
X16.445 Y27.653
X16.42 Y27.629
X16.403 Y27.597
X16.401 Y27.592
X16.394 Y27.551
X16.401 Y27.511
X16.403 Y27.506
X16.42 Y27.474
X16.445 Y27.45
X16.477 Y27.434
X16.512 Y27.428
X21.157
X21.192 Y27.434
X21.224 Y27.45
X21.25 Y27.474
X21.267 Y27.506
X21.269 Y27.512
X21.276 Y27.549
X21.271 Y27.587
X21.27 Y27.592
X21.253 Y27.625
X21.227 Y27.651
X21.195 Y27.669
X21.158 Y27.674
X21.153
X21.104 Y27.68
X21.058 Y27.697
X21.018 Y27.724
X20.984 Y27.76
X20.96 Y27.803
X20.936 Y27.845
X20.903 Y27.881
X20.863 Y27.908
X20.817 Y27.925
X20.768 Y27.931
X16.434
G3 X16.178 Y27.735 I0 J-0.266
G1 X16.16 Y27.68
G3 X16.16 Y27.422 I0.353 J-0.129
G1 X16.178 Y27.367
G3 X16.434 Y27.172 I0.256 J0.07
G1 X21.236
G3 X21.492 Y27.367 I0 J0.266
G1 X21.51 Y27.423
X21.526 Y27.482
X21.533 Y27.543
X21.529 Y27.604
X21.516 Y27.663
X21.509 Y27.689
X21.499 Y27.725
G3 X21.231 Y27.931 I-0.268 J-0.072
G1 X20.768
G2 X20.378 Y28.191 I0 J0.423
G3 X19.987 Y28.451 I-0.39 J-0.163
G1 X15.684
X15.682 Y27.919
X15.679 Y27.886
X15.669 Y27.854
X15.643 Y27.789
X15.624 Y27.755
X15.599 Y27.726
X15.538 Y27.669
X15.509 Y27.648
X15.476 Y27.633
X15.323 Y27.58
X15.308 Y27.558
Y27.543
X15.319 Y27.526
X15.478 Y27.47
X15.507 Y27.456
X15.532 Y27.438
X15.586 Y27.393
X15.612 Y27.365
X15.632 Y27.332
X15.666 Y27.256
X15.678 Y27.221
X15.682 Y27.184
X15.684 Y26.651
X21.985
X21.988 Y27.184
X21.992 Y27.221
X22.003 Y27.256
X22.038 Y27.332
X22.058 Y27.365
X22.085 Y27.393
X22.139 Y27.439
X22.17 Y27.46
X22.205 Y27.474
X22.28 Y27.495
X22.327 Y27.501
X31.674 Y27.497
X32.639 Y27.488
X32.673 Y27.484
X32.706 Y27.474
X32.771 Y27.446
X32.802 Y27.429
X32.829 Y27.406
X32.878 Y27.355
X32.9 Y27.325
X32.916 Y27.29
X32.942 Y27.214
X32.949 Y27.186
X32.952 Y27.157
X32.883 Y15.418
X32.879 Y15.383
X32.869 Y15.35
X32.839 Y15.281
X32.822 Y15.25
X32.8 Y15.224
X32.753 Y15.179
X32.725 Y15.157
X32.693 Y15.141
X32.62 Y15.114
X32.59 Y15.106
X32.559 Y15.103
X7.668 Y15.104
X7.636 Y15.107
X7.604 Y15.116
X7.537 Y15.142
X7.502 Y15.161
X7.472 Y15.187
X7.415 Y15.25
X7.389 Y15.287
X7.112 Y15.816
X6.697 Y16.132
X6.145 Y16.251
X0 Y16.252
Y13.851
X6.181 Y13.856
X6.704 Y13.972
X7.113 Y14.288
X7.411 Y14.849
X7.435 Y14.883
X7.465 Y14.91
X7.534 Y14.958
X7.563 Y14.975
X7.596 Y14.985
X7.647 Y14.997
X7.685 Y15.001
X32.983
X33.055 Y27.588
X29.442 Y27.601
X22.299 Y27.605
X22.261 Y27.609
X22.224 Y27.622
X22.151 Y27.656
X22.119 Y27.676
X22.091 Y27.703
X22.046 Y27.758
X22.025 Y27.789
X22.011 Y27.824
X21.991 Y27.899
X21.985 Y27.945
Y28.451
X19.987
G3 X19.987 Y27.786 Z-0.692 I0 J-0.332
X20.149 Y27.828 Z-0.707 I0 J0.332
G1 X20.991 Y28.297 Z-0.793
G2 X21.315 Y27.716 Z-0.885 I0.162 J-0.29
X21.153 Y27.674 Z-0.9 I-0.162 J0.29
G1 X16.512
X16.477 Y27.669
X16.445 Y27.653
X16.42 Y27.629
X16.403 Y27.597
X16.401 Y27.592
X16.394 Y27.551
X16.401 Y27.511
X16.403 Y27.506
X16.42 Y27.474
X16.445 Y27.45
X16.477 Y27.434
X16.512 Y27.428
X21.157
X21.192 Y27.434
X21.224 Y27.45
X21.25 Y27.474
X21.267 Y27.506
X21.269 Y27.512
X21.276 Y27.549
X21.271 Y27.587
X21.27 Y27.592
X21.253 Y27.625
X21.227 Y27.651
X21.195 Y27.669
X21.158 Y27.674
X21.153
X21.104 Y27.68
X21.058 Y27.697
X21.018 Y27.724
X20.984 Y27.76
X20.96 Y27.803
X20.936 Y27.845
X20.903 Y27.881
X20.863 Y27.908
X20.817 Y27.925
X20.768 Y27.931
X16.434
G3 X16.178 Y27.735 I0 J-0.266
G1 X16.16 Y27.68
G3 X16.16 Y27.422 I0.353 J-0.129
G1 X16.178 Y27.367
G3 X16.434 Y27.172 I0.256 J0.07
G1 X21.236
G3 X21.492 Y27.367 I0 J0.266
G1 X21.51 Y27.423
X21.526 Y27.482
X21.533 Y27.543
X21.529 Y27.604
X21.516 Y27.663
X21.509 Y27.689
X21.499 Y27.725
G3 X21.231 Y27.931 I-0.268 J-0.072
G1 X20.768
X20.751 Y27.929 Z-0.895
X20.735 Y27.922 Z-0.891
X20.715 Y27.906 Z-0.865
X20.709 Y27.899 Z-0.83
G0 Z4
X1.042 Y14.927
Z1.3
G1 Z-0.216 F80
X1.057 Y14.92 Z-0.262
X1.097 Y14.904 Z-0.285
G3 X1.302 Y15.536 Z-0.435 I0.103 J0.316
X1.097 Y14.904 Z-0.585 I-0.103 J-0.316
X1.302 Y15.536 Z-0.735 I0.103 J0.316
X0.871 Y15.272 Z-0.817 I-0.103 J-0.316
X1.2 Y14.888 Z-0.9 I0.328 J-0.052
G1 X6.049 Y14.891
X6.083 Y14.895
X6.228 Y14.927
X6.252 Y14.935
X6.274 Y14.949
X6.284 Y14.956
X6.311 Y14.986
X6.326 Y15.024
X6.328 Y15.064
X6.316 Y15.103
X6.313 Y15.108
X6.299 Y15.13
X6.28 Y15.147
X6.273 Y15.153
X6.251 Y15.166
X6.227 Y15.174
X6.05 Y15.213
X6.016 Y15.216
X1.192 Y15.217
X1.143 Y15.209
X1.1 Y15.187
X1.065 Y15.152
X1.043 Y15.109
X1.035 Y15.061
Y15.044
X1.043 Y14.996
X1.065 Y14.952
X1.1 Y14.917
X1.143 Y14.895
X1.192 Y14.887
X1.2 Y14.888
G2 X1.587 Y14.63 I0 J-0.419
G3 X1.974 Y14.372 I0.387 J0.162
G1 X6.05 Y14.375
X6.123 Y14.379
X6.196 Y14.391
X6.369 Y14.43
X6.439 Y14.451
X6.505 Y14.482
X6.566 Y14.522
X6.621 Y14.565
X6.674 Y14.612
X6.72 Y14.667
X6.758 Y14.727
X6.794 Y14.794
G3 X6.795 Y15.3 I-0.478 J0.254
G1 X6.756 Y15.374
X6.718 Y15.436
X6.671 Y15.491
X6.616 Y15.54
X6.562 Y15.581
X6.501 Y15.621
X6.435 Y15.651
X6.365 Y15.672
X6.159 Y15.717
X6.088 Y15.728
X6.017 Y15.732
X0.732 Y15.733
G3 X0.519 Y15.521 I0 J-0.212
G1 Y14.583
G3 X0.732 Y14.371 I0.212 J0
G1 X1.974 Y14.372
G2 X2.364 Y14.113 I0 J-0.422
G3 X2.754 Y13.853 I0.389 J0.163
G1 X6.181 Y13.856
X6.703 Y13.973
X7.113 Y14.288
X7.411 Y14.849
X7.435 Y14.883
X7.465 Y14.91
X7.534 Y14.958
X7.563 Y14.975
X7.596 Y14.985
X7.647 Y14.997
X7.685 Y15.001
X32.983
X33.055 Y27.588
X29.442 Y27.601
X22.299 Y27.605
X22.261 Y27.609
X22.224 Y27.622
X22.151 Y27.656
X22.119 Y27.676
X22.091 Y27.703
X22.046 Y27.758
X22.025 Y27.789
X22.011 Y27.824
X21.991 Y27.899
X21.985 Y27.945
Y28.451
X15.684
X15.682 Y27.919
X15.679 Y27.886
X15.669 Y27.854
X15.643 Y27.789
X15.624 Y27.755
X15.599 Y27.726
X15.538 Y27.669
X15.509 Y27.648
X15.476 Y27.633
X15.323 Y27.58
X15.308 Y27.559
Y27.543
X15.32 Y27.526
X15.478 Y27.47
X15.507 Y27.456
X15.532 Y27.438
X15.586 Y27.393
X15.612 Y27.365
X15.632 Y27.332
X15.666 Y27.256
X15.678 Y27.221
X15.682 Y27.184
X15.684 Y26.651
X21.985
X21.988 Y27.184
X21.992 Y27.221
X22.003 Y27.256
X22.038 Y27.332
X22.058 Y27.365
X22.085 Y27.393
X22.139 Y27.439
X22.17 Y27.46
X22.205 Y27.474
X22.28 Y27.495
X22.327 Y27.501
X31.674 Y27.497
X32.639 Y27.488
X32.673 Y27.484
X32.706 Y27.474
X32.771 Y27.446
X32.802 Y27.429
X32.829 Y27.406
X32.878 Y27.355
X32.9 Y27.325
X32.916 Y27.29
X32.942 Y27.214
X32.949 Y27.186
X32.952 Y27.157
X32.883 Y15.418
X32.879 Y15.383
X32.869 Y15.35
X32.839 Y15.281
X32.822 Y15.25
X32.8 Y15.224
X32.753 Y15.179
X32.725 Y15.157
X32.693 Y15.141
X32.62 Y15.114
X32.59 Y15.106
X32.559 Y15.103
X7.668 Y15.104
X7.636 Y15.107
X7.604 Y15.116
X7.537 Y15.142
X7.502 Y15.161
X7.472 Y15.187
X7.415 Y15.25
X7.389 Y15.287
X7.111 Y15.816
X6.697 Y16.131
X6.145 Y16.251
X0 Y16.252
Y13.851
X2.754 Y13.853
X2.772 Y13.858
X2.784 Y13.872
X2.789 Y13.89
X2.783 Y13.907
X2.525 Y14.307
X1.179 Y15.303
X1.044 Y15.476
X1.03 Y15.487
X1.012 Y15.489
X0.995 Y15.482
G3 X1.2 Y14.888 Z-1.2 I0.205 J-0.262
G1 X6.049 Y14.891
X6.083 Y14.895
X6.227 Y14.927
X6.251 Y14.935
X6.273 Y14.949
X6.284 Y14.957
X6.301 Y14.974
X6.315 Y14.995
X6.328 Y15.03
Y15.068
X6.317 Y15.105
X6.303 Y15.126
X6.285 Y15.144
X6.277 Y15.15
X6.254 Y15.165
X6.229 Y15.173
X6.049 Y15.213
X6.016 Y15.216
X1.192 Y15.217
X1.143 Y15.209
X1.1 Y15.187
X1.065 Y15.152
X1.043 Y15.109
X1.035 Y15.061
Y15.044
X1.043 Y14.996
X1.065 Y14.952
X1.1 Y14.917
X1.143 Y14.895
X1.192 Y14.887
X1.2 Y14.888
G2 X1.587 Y14.63 I0 J-0.419
G3 X1.974 Y14.372 I0.387 J0.162
G1 X6.049 Y14.375
X6.123 Y14.379
X6.196 Y14.391
X6.368 Y14.43
X6.438 Y14.451
X6.504 Y14.482
X6.565 Y14.523
X6.621 Y14.566
X6.674 Y14.613
X6.72 Y14.667
X6.757 Y14.727
X6.793 Y14.794
G3 X6.796 Y15.301 I-0.48 J0.257
G1 X6.76 Y15.37
X6.724 Y15.429
X6.68 Y15.483
X6.628 Y15.53
X6.575 Y15.573
X6.512 Y15.616
X6.443 Y15.649
X6.369 Y15.671
X6.159 Y15.717
X6.088 Y15.728
X6.016 Y15.732
X0.732 Y15.733
G3 X0.519 Y15.521 I0 J-0.212
G1 Y14.583
G3 X0.732 Y14.371 I0.212 J0
G1 X1.974 Y14.372
X1.992 Y14.374 Z-1.195
X2.008 Y14.381 Z-1.191
X2.028 Y14.397 Z-1.165
X2.033 Y14.404 Z-1.13
G0 Z4
X21.311 Y27.635
G1 Z-0.516 F80
X21.295 Y27.642 Z-0.562
X21.255 Y27.658 Z-0.585
G3 X21.05 Y27.026 Z-0.735 I-0.103 J-0.316
X21.255 Y27.658 Z-0.885 I0.103 J0.316
X21.05 Y27.026 Z-1.035 I-0.103 J-0.316
X21.255 Y27.658 Z-1.185 I0.103 J0.316
X21.153 Y27.674 Z-1.2 I-0.103 J-0.316
G1 X16.512
X16.477 Y27.669
X16.445 Y27.653
X16.42 Y27.629
X16.403 Y27.597
X16.401 Y27.592
X16.394 Y27.551
X16.401 Y27.511
X16.403 Y27.506
X16.42 Y27.474
X16.445 Y27.45
X16.477 Y27.434
X16.512 Y27.428
X21.157
X21.192 Y27.434
X21.224 Y27.45
X21.25 Y27.474
X21.267 Y27.506
X21.269 Y27.512
X21.276 Y27.549
X21.271 Y27.587
X21.27 Y27.592
X21.253 Y27.625
X21.227 Y27.651
X21.195 Y27.669
X21.158 Y27.674
X21.153
X21.104 Y27.68
X21.058 Y27.697
X21.018 Y27.724
X20.984 Y27.76
X20.96 Y27.803
X20.936 Y27.845
X20.903 Y27.881
X20.863 Y27.908
X20.817 Y27.925
X20.768 Y27.931
X16.434
G3 X16.178 Y27.735 I0 J-0.266
G1 X16.16 Y27.68
G3 X16.16 Y27.422 I0.353 J-0.129
G1 X16.178 Y27.367
G3 X16.434 Y27.172 I0.256 J0.07
G1 X21.236
G3 X21.492 Y27.367 I0 J0.266
G1 X21.51 Y27.423
X21.526 Y27.482
X21.533 Y27.543
X21.529 Y27.604
X21.516 Y27.663
X21.509 Y27.689
X21.499 Y27.725
G3 X21.231 Y27.931 I-0.268 J-0.072
G1 X20.768
G2 X20.378 Y28.191 I0 J0.423
G3 X19.987 Y28.451 I-0.39 J-0.163
G1 X15.684
X15.682 Y27.919
X15.679 Y27.886
X15.669 Y27.854
X15.643 Y27.789
X15.624 Y27.755
X15.599 Y27.726
X15.538 Y27.669
X15.509 Y27.648
X15.476 Y27.633
X15.323 Y27.58
X15.308 Y27.559
Y27.542
X15.32 Y27.526
X15.478 Y27.47
X15.507 Y27.456
X15.532 Y27.438
X15.586 Y27.393
X15.612 Y27.365
X15.632 Y27.332
X15.666 Y27.256
X15.678 Y27.221
X15.682 Y27.184
X15.684 Y26.651
X21.985
X21.988 Y27.184
X21.992 Y27.221
X22.003 Y27.256
X22.038 Y27.332
X22.058 Y27.365
X22.085 Y27.393
X22.139 Y27.439
X22.17 Y27.46
X22.205 Y27.474
X22.28 Y27.495
X22.327 Y27.501
X31.674 Y27.497
X32.639 Y27.488
X32.673 Y27.484
X32.706 Y27.474
X32.771 Y27.446
X32.802 Y27.429
X32.829 Y27.406
X32.878 Y27.355
X32.9 Y27.325
X32.916 Y27.29
X32.942 Y27.214
X32.949 Y27.186
X32.952 Y27.157
X32.883 Y15.418
X32.879 Y15.383
X32.869 Y15.35
X32.839 Y15.281
X32.822 Y15.25
X32.8 Y15.224
X32.753 Y15.179
X32.725 Y15.157
X32.693 Y15.141
X32.62 Y15.114
X32.59 Y15.106
X32.559 Y15.103
X7.668 Y15.104
X7.636 Y15.107
X7.604 Y15.116
X7.537 Y15.142
X7.502 Y15.161
X7.472 Y15.187
X7.415 Y15.25
X7.388 Y15.287
X7.121 Y15.801
X6.818 Y16.043
X6.699 Y16.13
X6.145 Y16.251
X0 Y16.252
Y13.851
X6.181 Y13.856
X6.703 Y13.973
X7.112 Y14.289
X7.411 Y14.849
X7.435 Y14.883
X7.465 Y14.91
X7.534 Y14.958
X7.563 Y14.975
X7.596 Y14.985
X7.647 Y14.997
X7.685 Y15.001
X32.983
X33.055 Y27.588
X29.442 Y27.601
X22.299 Y27.605
X22.261 Y27.609
X22.224 Y27.622
X22.151 Y27.656
X22.119 Y27.676
X22.091 Y27.703
X22.046 Y27.758
X22.025 Y27.789
X22.011 Y27.824
X21.991 Y27.899
X21.985 Y27.945
Y28.451
X19.987
G3 X19.987 Y27.786 Z-1.292 I0 J-0.332
X20.149 Y27.828 Z-1.307 I0 J0.332
G1 X20.991 Y28.297 Z-1.393
G2 X21.315 Y27.716 Z-1.485 I0.162 J-0.29
X21.153 Y27.674 Z-1.5 I-0.162 J0.29
G1 X16.512
X16.477 Y27.669
X16.445 Y27.653
X16.42 Y27.629
X16.403 Y27.597
X16.401 Y27.592
X16.394 Y27.551
X16.401 Y27.511
X16.403 Y27.506
X16.42 Y27.474
X16.445 Y27.45
X16.477 Y27.434
X16.512 Y27.428
X21.157
X21.192 Y27.434
X21.224 Y27.45
X21.25 Y27.474
X21.267 Y27.506
X21.269 Y27.512
X21.276 Y27.549
X21.271 Y27.587
X21.27 Y27.592
X21.253 Y27.625
X21.227 Y27.651
X21.195 Y27.669
X21.158 Y27.674
X21.153
X21.104 Y27.68
X21.058 Y27.697
X21.018 Y27.724
X20.984 Y27.76
X20.96 Y27.803
X20.936 Y27.845
X20.903 Y27.881
X20.863 Y27.908
X20.817 Y27.925
X20.768 Y27.931
X16.434
G3 X16.178 Y27.735 I0 J-0.266
G1 X16.16 Y27.68
G3 X16.16 Y27.422 I0.353 J-0.129
G1 X16.178 Y27.367
G3 X16.434 Y27.172 I0.256 J0.07
G1 X21.236
G3 X21.492 Y27.367 I0 J0.266
G1 X21.51 Y27.423
X21.526 Y27.482
X21.533 Y27.543
X21.529 Y27.604
X21.516 Y27.663
X21.509 Y27.689
X21.499 Y27.725
G3 X21.231 Y27.931 I-0.268 J-0.072
G1 X20.768
X20.751 Y27.929 Z-1.495
X20.735 Y27.922 Z-1.491
X20.715 Y27.906 Z-1.465
X20.709 Y27.899 Z-1.43
G0 Z4
X1.358 Y15.177
G1 Z-0.816 F80
X1.343 Y15.185 Z-0.862
X1.303 Y15.201 Z-0.885
G3 X1.097 Y14.568 Z-1.035 I-0.103 J-0.316
X1.303 Y15.201 Z-1.185 I0.103 J0.316
X1.097 Y14.568 Z-1.335 I-0.103 J-0.316
X1.303 Y15.201 Z-1.485 I0.103 J0.316
X1.2 Y15.217 Z-1.5 I-0.103 J-0.316
G1 X1.192
X1.143 Y15.209
X1.1 Y15.187
X1.065 Y15.152
X1.043 Y15.109
X1.035 Y15.061
Y15.044
X1.043 Y14.996
X1.065 Y14.952
X1.1 Y14.917
X1.143 Y14.895
X1.192 Y14.887
X6.048 Y14.891
X6.082 Y14.895
X6.226 Y14.927
X6.25 Y14.935
X6.272 Y14.949
X6.284 Y14.958
X6.312 Y14.99
X6.327 Y15.029
X6.328 Y15.071
X6.313 Y15.11
X6.285 Y15.142
X6.273 Y15.152
X6.251 Y15.166
X6.226 Y15.174
X6.049 Y15.213
X6.016 Y15.216
X1.2 Y15.217
G2 X0.875 Y15.395 I0 J0.386
G3 X0.519 Y15.291 I-0.163 J-0.104
G1 Y14.583
G3 X0.732 Y14.371 I0.212 J0
G1 X6.049 Y14.375
X6.123 Y14.379
X6.196 Y14.391
X6.368 Y14.43
X6.438 Y14.452
X6.504 Y14.483
X6.564 Y14.523
X6.624 Y14.569
X6.677 Y14.616
X6.722 Y14.67
X6.76 Y14.73
X6.793 Y14.793
G3 X6.796 Y15.301 I-0.482 J0.257
G1 X6.762 Y15.367
X6.725 Y15.427
X6.68 Y15.481
X6.628 Y15.529
X6.569 Y15.575
X6.506 Y15.617
X6.438 Y15.65
X6.365 Y15.672
X6.159 Y15.717
X6.088 Y15.728
X6.016 Y15.732
X0.732 Y15.733
G3 X0.519 Y15.521 I0 J-0.212
G1 Y15.291
G2 X0.26 Y14.901 I-0.422 J0
G3 X0 Y14.512 I0.162 J-0.389
G1 Y13.851
X6.181 Y13.856
X6.703 Y13.974
X7.109 Y14.288
X7.176 Y14.408
X7.411 Y14.849
X7.435 Y14.883
X7.465 Y14.91
X7.534 Y14.958
X7.563 Y14.975
X7.596 Y14.985
X7.647 Y14.997
X7.685 Y15.001
X32.983
X33.055 Y27.588
X29.442 Y27.601
X22.299 Y27.605
X22.261 Y27.609
X22.224 Y27.622
X22.151 Y27.656
X22.119 Y27.676
X22.091 Y27.703
X22.046 Y27.758
X22.025 Y27.789
X22.011 Y27.824
X21.991 Y27.899
X21.985 Y27.945
Y28.451
X15.684
X15.682 Y27.919
X15.679 Y27.886
X15.669 Y27.854
X15.643 Y27.789
X15.624 Y27.755
X15.599 Y27.726
X15.538 Y27.669
X15.509 Y27.648
X15.476 Y27.633
X15.324 Y27.58
X15.309 Y27.559
Y27.542
X15.32 Y27.526
X15.478 Y27.469
X15.507 Y27.456
X15.532 Y27.438
X15.586 Y27.393
X15.612 Y27.365
X15.632 Y27.332
X15.666 Y27.256
X15.678 Y27.221
X15.682 Y27.184
X15.684 Y26.651
X21.985
X21.988 Y27.184
X21.992 Y27.221
X22.003 Y27.256
X22.038 Y27.332
X22.058 Y27.365
X22.085 Y27.393
X22.139 Y27.439
X22.17 Y27.46
X22.205 Y27.474
X22.28 Y27.495
X22.327 Y27.501
X31.674 Y27.497
X32.639 Y27.488
X32.673 Y27.484
X32.706 Y27.474
X32.771 Y27.446
X32.802 Y27.429
X32.829 Y27.406
X32.878 Y27.355
X32.9 Y27.325
X32.916 Y27.29
X32.942 Y27.214
X32.949 Y27.186
X32.952 Y27.157
X32.883 Y15.418
X32.879 Y15.383
X32.869 Y15.35
X32.839 Y15.281
X32.822 Y15.25
X32.8 Y15.224
X32.753 Y15.179
X32.725 Y15.157
X32.693 Y15.141
X32.62 Y15.114
X32.59 Y15.106
X32.559 Y15.103
X7.668 Y15.104
X7.636 Y15.107
X7.604 Y15.116
X7.537 Y15.142
X7.502 Y15.161
X7.472 Y15.187
X7.415 Y15.25
X7.388 Y15.287
X7.122 Y15.8
X6.713 Y16.123
X6.676 Y16.135
X6.145 Y16.251
X0 Y16.252
Y14.512
G3 X0.597 Y14.311 Z-1.647 I0.333 J0
G1 X0.936 Y14.756 Z-1.746
G2 X1.2 Y14.888 Z-1.8 I0.265 J-0.201
G1 X6.047 Y14.891
X6.082 Y14.895
X6.221 Y14.926
X6.246 Y14.935
X6.267 Y14.948
X6.283 Y14.96
X6.311 Y14.992
X6.326 Y15.031
Y15.073
X6.311 Y15.112
X6.283 Y15.144
X6.274 Y15.151
X6.251 Y15.165
X6.226 Y15.174
X6.049 Y15.213
X6.015 Y15.216
X1.192 Y15.217
X1.143 Y15.209
X1.1 Y15.187
X1.065 Y15.152
X1.043 Y15.109
X1.035 Y15.061
Y15.044
X1.043 Y14.996
X1.065 Y14.952
X1.1 Y14.917
X1.143 Y14.895
X1.192 Y14.887
X1.2 Y14.888
G2 X1.587 Y14.63 I0 J-0.419
G3 X1.974 Y14.372 I0.387 J0.162
G1 X6.048 Y14.375
X6.122 Y14.379
X6.196 Y14.392
X6.364 Y14.43
X6.435 Y14.451
X6.501 Y14.483
X6.563 Y14.524
X6.631 Y14.578
X6.683 Y14.625
X6.728 Y14.679
X6.765 Y14.738
X6.794 Y14.792
G3 X6.796 Y15.302 I-0.485 J0.257
G1 X6.762 Y15.367
X6.725 Y15.427
X6.68 Y15.481
X6.628 Y15.529
X6.57 Y15.575
X6.507 Y15.617
X6.439 Y15.649
X6.366 Y15.671
X6.159 Y15.717
X6.088 Y15.728
X6.016 Y15.732
X0.732 Y15.733
G3 X0.519 Y15.521 I0 J-0.212
G1 Y14.583
G3 X0.732 Y14.371 I0.212 J0
G1 X1.974 Y14.372
X1.992 Y14.374 Z-1.795
X2.008 Y14.381 Z-1.791
X2.028 Y14.397 Z-1.765
X2.033 Y14.404 Z-1.73
G0 Z4
X21.311 Y27.635
G1 Z-1.116 F80
X21.295 Y27.642 Z-1.162
X21.255 Y27.658 Z-1.185
G3 X21.05 Y27.026 Z-1.335 I-0.103 J-0.316
X21.255 Y27.658 Z-1.485 I0.103 J0.316
X21.05 Y27.026 Z-1.635 I-0.103 J-0.316
X21.255 Y27.658 Z-1.785 I0.103 J0.316
X21.153 Y27.674 Z-1.8 I-0.103 J-0.316
G1 X16.512
X16.477 Y27.669
X16.445 Y27.653
X16.42 Y27.629
X16.403 Y27.597
X16.401 Y27.592
X16.394 Y27.551
X16.401 Y27.511
X16.403 Y27.506
X16.42 Y27.474
X16.445 Y27.45
X16.477 Y27.434
X16.512 Y27.428
X21.157
X21.192 Y27.434
X21.224 Y27.45
X21.25 Y27.474
X21.267 Y27.506
X21.269 Y27.512
X21.276 Y27.549
X21.271 Y27.587
X21.27 Y27.592
X21.253 Y27.625
X21.227 Y27.651
X21.195 Y27.669
X21.158 Y27.674
X21.153
X21.104 Y27.68
X21.058 Y27.697
X21.018 Y27.724
X20.984 Y27.76
X20.96 Y27.803
X20.936 Y27.845
X20.903 Y27.881
X20.863 Y27.908
X20.817 Y27.925
X20.768 Y27.931
X16.434
G3 X16.178 Y27.735 I0 J-0.266
G1 X16.16 Y27.68
G3 X16.16 Y27.422 I0.353 J-0.129
G1 X16.178 Y27.367
G3 X16.434 Y27.172 I0.256 J0.07
G1 X21.236
G3 X21.492 Y27.367 I0 J0.266
G1 X21.51 Y27.423
X21.526 Y27.482
X21.533 Y27.543
X21.529 Y27.604
X21.516 Y27.663
X21.509 Y27.689
X21.499 Y27.725
G3 X21.231 Y27.931 I-0.268 J-0.072
G1 X20.768
G2 X20.378 Y28.191 I0 J0.423
G3 X19.987 Y28.451 I-0.39 J-0.163
G1 X15.684
X15.682 Y27.919
X15.679 Y27.886
X15.669 Y27.854
X15.643 Y27.789
X15.624 Y27.755
X15.599 Y27.726
X15.538 Y27.669
X15.509 Y27.648
X15.476 Y27.633
X15.324 Y27.58
X15.309 Y27.559
Y27.543
X15.32 Y27.527
X15.479 Y27.469
X15.507 Y27.456
X15.532 Y27.438
X15.586 Y27.393
X15.612 Y27.365
X15.632 Y27.332
X15.666 Y27.256
X15.678 Y27.221
X15.682 Y27.184
X15.684 Y26.651
X21.985
X21.988 Y27.184
X21.992 Y27.221
X22.003 Y27.256
X22.038 Y27.332
X22.058 Y27.365
X22.085 Y27.393
X22.139 Y27.439
X22.17 Y27.46
X22.205 Y27.474
X22.28 Y27.495
X22.327 Y27.501
X31.674 Y27.497
X32.639 Y27.488
X32.673 Y27.484
X32.706 Y27.474
X32.771 Y27.446
X32.802 Y27.429
X32.829 Y27.406
X32.878 Y27.355
X32.9 Y27.325
X32.916 Y27.29
X32.942 Y27.214
X32.949 Y27.186
X32.952 Y27.157
X32.883 Y15.418
X32.879 Y15.383
X32.869 Y15.35
X32.839 Y15.281
X32.822 Y15.25
X32.8 Y15.224
X32.753 Y15.179
X32.725 Y15.157
X32.693 Y15.141
X32.62 Y15.114
X32.59 Y15.106
X32.559 Y15.103
X7.668 Y15.104
X7.636 Y15.107
X7.604 Y15.116
X7.537 Y15.142
X7.502 Y15.161
X7.472 Y15.187
X7.415 Y15.25
X7.388 Y15.287
X7.122 Y15.8
X6.714 Y16.123
X6.676 Y16.135
X6.144 Y16.251
X0 Y16.252
Y13.851
X6.181 Y13.856
X6.703 Y13.974
X7.122 Y14.303
X7.411 Y14.849
X7.435 Y14.882
X7.465 Y14.91
X7.534 Y14.958
X7.563 Y14.975
X7.596 Y14.985
X7.647 Y14.997
X7.685 Y15.001
X32.983
X33.055 Y27.588
X29.442 Y27.601
X22.299 Y27.605
X22.261 Y27.609
X22.224 Y27.622
X22.151 Y27.656
X22.119 Y27.676
X22.091 Y27.703
X22.046 Y27.758
X22.025 Y27.789
X22.011 Y27.824
X21.991 Y27.899
X21.985 Y27.945
Y28.451
X19.987
G3 X19.987 Y27.786 Z-1.862 I0 J-0.332
X20.149 Y27.828 Z-1.872 I0 J0.332
G1 X20.991 Y28.297 Z-1.928
G2 X21.315 Y27.716 Z-1.99 I0.162 J-0.29
X21.153 Y27.674 Z-2 I-0.162 J0.29
G1 X16.512
X16.477 Y27.669
X16.445 Y27.653
X16.42 Y27.629
X16.403 Y27.597
X16.401 Y27.592
X16.394 Y27.551
X16.401 Y27.511
X16.403 Y27.506
X16.42 Y27.474
X16.445 Y27.45
X16.477 Y27.434
X16.512 Y27.428
X21.157
X21.192 Y27.434
X21.224 Y27.45
X21.25 Y27.474
X21.267 Y27.506
X21.269 Y27.512
X21.276 Y27.549
X21.271 Y27.587
X21.27 Y27.592
X21.253 Y27.625
X21.227 Y27.651
X21.195 Y27.669
X21.158 Y27.674
X21.153
X21.104 Y27.68
X21.058 Y27.697
X21.018 Y27.724
X20.984 Y27.76
X20.96 Y27.803
X20.936 Y27.845
X20.903 Y27.881
X20.863 Y27.908
X20.817 Y27.925
X20.768 Y27.931
X16.434
G3 X16.178 Y27.735 I0 J-0.266
G1 X16.16 Y27.68
G3 X16.16 Y27.422 I0.353 J-0.129
G1 X16.178 Y27.367
G3 X16.434 Y27.172 I0.256 J0.07
G1 X21.236
G3 X21.492 Y27.367 I0 J0.266
G1 X21.51 Y27.423
X21.526 Y27.482
X21.533 Y27.543
X21.529 Y27.604
X21.516 Y27.663
X21.509 Y27.689
X21.499 Y27.725
G3 X21.231 Y27.931 I-0.268 J-0.072
G1 X20.768
X20.751 Y27.929 Z-1.995
X20.735 Y27.922 Z-1.991
X20.715 Y27.906 Z-1.965
X20.709 Y27.899 Z-1.93
G0 Z4
X1.532 Y15.23
G1 Z-1.416 F80
X1.531 Y15.247 Z-1.462
X1.525 Y15.289 Z-1.485
G3 X0.875 Y15.151 Z-1.635 I-0.325 J-0.069
X1.525 Y15.289 Z-1.785 I0.325 J0.069
X0.875 Y15.151 Z-1.935 I-0.325 J-0.069
X1.2 Y14.888 Z-2 I0.325 J0.069
G1 X6.047 Y14.891
X6.082 Y14.895
X6.221 Y14.927
X6.246 Y14.935
X6.267 Y14.948
X6.283 Y14.961
X6.31 Y14.992
X6.325 Y15.031
Y15.073
X6.311 Y15.112
X6.283 Y15.144
X6.274 Y15.151
X6.251 Y15.165
X6.227 Y15.173
X6.048 Y15.213
X6.015 Y15.216
X1.192 Y15.217
X1.143 Y15.209
X1.1 Y15.187
X1.065 Y15.152
X1.043 Y15.109
X1.035 Y15.061
Y15.044
X1.043 Y14.996
X1.065 Y14.952
X1.1 Y14.917
X1.143 Y14.895
X1.192 Y14.887
X1.2 Y14.888
G2 X1.587 Y14.63 I0 J-0.419
G3 X1.974 Y14.372 I0.387 J0.162
G1 X6.048 Y14.375
X6.122 Y14.379
X6.196 Y14.392
X6.364 Y14.43
X6.435 Y14.452
X6.501 Y14.483
X6.562 Y14.524
X6.631 Y14.578
X6.683 Y14.625
X6.728 Y14.679
X6.765 Y14.738
X6.794 Y14.792
G3 X6.796 Y15.302 I-0.485 J0.257
G1 X6.762 Y15.367
X6.725 Y15.427
X6.68 Y15.481
X6.628 Y15.529
X6.57 Y15.574
X6.508 Y15.617
X6.439 Y15.649
X6.367 Y15.671
X6.159 Y15.717
X6.088 Y15.728
X6.015 Y15.732
X0.732 Y15.733
G3 X0.519 Y15.521 I0 J-0.212
G1 Y14.583
G3 X0.732 Y14.371 I0.212 J0
G1 X1.974 Y14.372
G2 X2.364 Y14.113 I0 J-0.422
G3 X2.754 Y13.853 I0.389 J0.163
G1 X6.181 Y13.856
X6.703 Y13.974
X7.122 Y14.303
X7.411 Y14.849
X7.435 Y14.882
X7.465 Y14.91
X7.534 Y14.958
X7.563 Y14.975
X7.596 Y14.985
X7.647 Y14.997
X7.685 Y15.001
X32.983
X33.055 Y27.588
X29.442 Y27.601
X22.299 Y27.605
X22.261 Y27.609
X22.224 Y27.622
X22.151 Y27.656
X22.119 Y27.676
X22.091 Y27.703
X22.046 Y27.758
X22.025 Y27.789
X22.011 Y27.824
X21.991 Y27.899
X21.985 Y27.945
Y28.451
X15.684
X15.682 Y27.919
X15.679 Y27.886
X15.669 Y27.854
X15.643 Y27.789
X15.624 Y27.755
X15.599 Y27.726
X15.538 Y27.669
X15.509 Y27.648
X15.477 Y27.633
X15.324 Y27.58
X15.309 Y27.559
Y27.543
X15.32 Y27.528
X15.48 Y27.469
X15.507 Y27.456
X15.532 Y27.438
X15.586 Y27.393
X15.612 Y27.365
X15.632 Y27.332
X15.666 Y27.256
X15.678 Y27.221
X15.682 Y27.184
X15.684 Y26.651
X21.985
X21.988 Y27.184
X21.992 Y27.221
X22.003 Y27.256
X22.038 Y27.332
X22.058 Y27.365
X22.085 Y27.393
X22.139 Y27.439
X22.17 Y27.46
X22.205 Y27.474
X22.28 Y27.495
X22.327 Y27.501
X31.674 Y27.497
X32.639 Y27.488
X32.673 Y27.484
X32.706 Y27.474
X32.771 Y27.446
X32.802 Y27.429
X32.829 Y27.406
X32.878 Y27.355
X32.9 Y27.325
X32.916 Y27.29
X32.942 Y27.214
X32.949 Y27.186
X32.952 Y27.157
X32.883 Y15.418
X32.879 Y15.383
X32.869 Y15.35
X32.839 Y15.281
X32.822 Y15.25
X32.8 Y15.224
X32.753 Y15.179
X32.725 Y15.157
X32.693 Y15.141
X32.62 Y15.114
X32.59 Y15.106
X32.559 Y15.103
X7.668 Y15.104
X7.636 Y15.107
X7.604 Y15.116
X7.537 Y15.142
X7.502 Y15.161
X7.472 Y15.187
X7.415 Y15.25
X7.388 Y15.287
X7.122 Y15.8
X6.714 Y16.123
X6.676 Y16.134
X6.144 Y16.251
X0 Y16.252
Y13.851
X2.754 Y13.853
X2.772 Y13.858
X2.784 Y13.872
X2.789 Y13.89
X2.783 Y13.907
X2.525 Y14.307
X1.179 Y15.303
X1.044 Y15.476
X1.03 Y15.487
X1.012 Y15.489
X0.995 Y15.482
G3 X1.2 Y14.888 Z-2.3 I0.205 J-0.262
G1 X6.046 Y14.891
X6.081 Y14.895
X6.221 Y14.927
X6.246 Y14.935
X6.267 Y14.949
X6.281 Y14.959
X6.299 Y14.977
X6.313 Y14.998
X6.324 Y15.033
Y15.069
X6.313 Y15.104
X6.299 Y15.127
X6.28 Y15.146
X6.274 Y15.151
X6.251 Y15.165
X6.226 Y15.173
X6.049 Y15.213
X6.015 Y15.216
X1.192 Y15.217
X1.143 Y15.209
X1.1 Y15.187
X1.065 Y15.152
X1.043 Y15.109
X1.035 Y15.061
Y15.044
X1.043 Y14.996
X1.065 Y14.952
X1.1 Y14.917
X1.143 Y14.895
X1.192 Y14.887
X1.2 Y14.888
G2 X1.587 Y14.63 I0 J-0.419
G3 X1.974 Y14.372 I0.387 J0.162
G1 X6.047 Y14.375
X6.122 Y14.379
X6.196 Y14.392
X6.365 Y14.43
X6.435 Y14.452
X6.501 Y14.483
X6.562 Y14.524
X6.622 Y14.571
X6.676 Y14.62
X6.723 Y14.677
X6.76 Y14.74
X6.799 Y14.817
X6.83 Y14.891
X6.848 Y14.968
X6.853 Y15.048
X6.846 Y15.131
X6.824 Y15.212
X6.794 Y15.29
X6.759 Y15.366
X6.722 Y15.428
X6.676 Y15.484
X6.622 Y15.533
X6.57 Y15.574
X6.507 Y15.617
X6.439 Y15.649
X6.367 Y15.671
X6.159 Y15.717
X6.088 Y15.728
X6.015 Y15.732
X0.732 Y15.733
G3 X0.519 Y15.521 I0 J-0.212
G1 Y14.583
G3 X0.732 Y14.371 I0.212 J0
G1 X1.974 Y14.372
G2 X2.364 Y14.113 I0 J-0.422
G3 X2.754 Y13.853 I0.389 J0.163
G1 X6.181 Y13.856
X6.703 Y13.975
X7.121 Y14.302
X7.363 Y14.781
X7.374 Y14.867
X7.371 Y15.288
X7.365 Y15.317
X7.121 Y15.801
X6.717 Y16.12
X6.605 Y16.15
X6.144 Y16.251
X0 Y16.252
Y13.851
X2.754 Y13.853
G3 X2.89 Y14.489 Z-2.366 I0 J0.332
G1 X1.336 Y15.188 Z-2.49
X1.27 Y15.21 Z-2.495
X1.2 Y15.217 Z-2.5
X1.192
X1.143 Y15.209
X1.1 Y15.187
X1.065 Y15.152
X1.043 Y15.109
X1.035 Y15.061
Y15.044
X1.043 Y14.996
X1.065 Y14.952
X1.1 Y14.917
X1.143 Y14.895
X1.192 Y14.887
X6.045 Y14.891
X6.08 Y14.895
X6.222 Y14.927
X6.246 Y14.936
X6.267 Y14.949
X6.277 Y14.956
X6.295 Y14.974
X6.309 Y14.996
X6.319 Y15.022
X6.322 Y15.05
X6.32 Y15.078
X6.31 Y15.105
X6.308 Y15.11
X6.294 Y15.132
X6.276 Y15.15
X6.252 Y15.165
X6.225 Y15.175
X6.05 Y15.213
X6.016 Y15.216
X1.2 Y15.217
G2 X0.875 Y15.395 I0 J0.386
G3 X0.519 Y15.291 I-0.163 J-0.104
G1 Y14.583
G3 X0.732 Y14.371 I0.212 J0
G1 X6.046 Y14.375
X6.121 Y14.379
X6.195 Y14.392
X6.365 Y14.431
X6.435 Y14.452
X6.501 Y14.484
X6.562 Y14.525
X6.618 Y14.568
X6.673 Y14.618
X6.72 Y14.676
X6.758 Y14.74
G3 X6.838 Y15.083 I-0.688 J0.341
G1 X6.833 Y15.16
X6.815 Y15.235
X6.786 Y15.306
X6.757 Y15.366
X6.719 Y15.429
X6.673 Y15.486
X6.619 Y15.536
X6.569 Y15.575
X6.511 Y15.615
X6.447 Y15.646
X6.379 Y15.668
X6.269 Y15.693
X6.159 Y15.717
X6.088 Y15.728
X6.017 Y15.732
X0.732 Y15.733
G3 X0.519 Y15.521 I0 J-0.212
G1 Y15.291
G2 X0.26 Y14.901 I-0.422 J0
G3 X0 Y14.512 I0.162 J-0.389
G1 Y13.851
X6.18 Y13.856
X6.703 Y13.975
X7.121 Y14.302
X7.358 Y14.78
Y15.323
X7.12 Y15.801
X6.718 Y16.119
X6.479 Y16.179
X6.145 Y16.251
X0 Y16.252
Y14.512
X0.002 Y14.495 Z-2.495
X0.009 Y14.478 Z-2.491
X0.025 Y14.459 Z-2.465
X0.032 Y14.453 Z-2.43
G0 Z4
X21.311 Y27.635
G1 Z-1.616 F80
X21.295 Y27.642 Z-1.662
X21.255 Y27.658 Z-1.685
G3 X21.05 Y27.026 Z-1.835 I-0.103 J-0.316
X21.255 Y27.658 Z-1.985 I0.103 J0.316
X21.05 Y27.026 Z-2.135 I-0.103 J-0.316
X21.255 Y27.658 Z-2.285 I0.103 J0.316
X21.153 Y27.674 Z-2.3 I-0.103 J-0.316
G1 X16.512
X16.477 Y27.669
X16.445 Y27.653
X16.42 Y27.629
X16.403 Y27.597
X16.401 Y27.592
X16.394 Y27.551
X16.401 Y27.511
X16.403 Y27.506
X16.42 Y27.474
X16.445 Y27.45
X16.477 Y27.434
X16.512 Y27.428
X21.157
X21.192 Y27.434
X21.224 Y27.45
X21.25 Y27.474
X21.267 Y27.506
X21.269 Y27.512
X21.276 Y27.549
X21.271 Y27.587
X21.27 Y27.592
X21.253 Y27.625
X21.227 Y27.651
X21.195 Y27.669
X21.158 Y27.674
X21.153
X21.104 Y27.68
X21.058 Y27.697
X21.018 Y27.724
X20.984 Y27.76
X20.96 Y27.803
X20.936 Y27.845
X20.903 Y27.881
X20.863 Y27.908
X20.817 Y27.925
X20.768 Y27.931
X16.434
G3 X16.178 Y27.735 I0 J-0.266
G1 X16.16 Y27.68
G3 X16.16 Y27.422 I0.353 J-0.129
G1 X16.178 Y27.367
G3 X16.434 Y27.172 I0.256 J0.07
G1 X21.236
G3 X21.492 Y27.367 I0 J0.266
G1 X21.51 Y27.423
X21.526 Y27.482
X21.533 Y27.543
X21.529 Y27.604
X21.516 Y27.663
X21.509 Y27.689
X21.499 Y27.725
G3 X21.231 Y27.931 I-0.268 J-0.072
G1 X20.768
G2 X20.378 Y28.191 I0 J0.423
G3 X19.987 Y28.451 I-0.39 J-0.163
G1 X15.684
X15.682 Y27.919
X15.679 Y27.886
X15.669 Y27.854
X15.643 Y27.789
X15.624 Y27.755
X15.599 Y27.726
X15.538 Y27.669
X15.509 Y27.648
X15.478 Y27.633
X15.324 Y27.579
X15.31 Y27.559
Y27.543
X15.324 Y27.523
X15.477 Y27.47
X15.506 Y27.457
X15.532 Y27.438
X15.586 Y27.393
X15.612 Y27.365
X15.632 Y27.332
X15.666 Y27.256
X15.678 Y27.221
X15.682 Y27.184
X15.684 Y26.651
X21.985
X21.988 Y27.184
X21.992 Y27.221
X22.003 Y27.256
X22.038 Y27.332
X22.058 Y27.365
X22.085 Y27.393
X22.139 Y27.439
X22.17 Y27.46
X22.205 Y27.474
X22.28 Y27.495
X22.327 Y27.501
X30.784 Y27.504
X30.844 Y27.523
X30.862 Y27.547
Y27.557
X30.849 Y27.576
X30.761 Y27.601
X22.299 Y27.605
X22.261 Y27.609
X22.224 Y27.622
X22.151 Y27.656
X22.119 Y27.676
X22.091 Y27.703
X22.046 Y27.758
X22.025 Y27.789
X22.011 Y27.824
X21.991 Y27.899
X21.985 Y27.945
Y28.451
X19.987
G3 X19.987 Y27.786 Z-2.362 I0 J-0.332
X20.149 Y27.828 Z-2.372 I0 J0.332
G1 X20.991 Y28.297 Z-2.428
G2 X21.315 Y27.716 Z-2.49 I0.162 J-0.29
X21.153 Y27.674 Z-2.5 I-0.162 J0.29
G1 X16.512
X16.477 Y27.669
X16.445 Y27.653
X16.42 Y27.629
X16.403 Y27.597
X16.401 Y27.592
X16.394 Y27.551
X16.401 Y27.511
X16.403 Y27.506
X16.42 Y27.474
X16.445 Y27.45
X16.477 Y27.434
X16.512 Y27.428
X21.157
X21.192 Y27.434
X21.224 Y27.45
X21.25 Y27.474
X21.267 Y27.506
X21.269 Y27.512
X21.276 Y27.549
X21.271 Y27.587
X21.27 Y27.592
X21.253 Y27.625
X21.227 Y27.651
X21.195 Y27.669
X21.158 Y27.674
X21.153
X21.104 Y27.68
X21.058 Y27.697
X21.018 Y27.724
X20.984 Y27.76
X20.96 Y27.803
X20.936 Y27.845
X20.903 Y27.881
X20.863 Y27.908
X20.817 Y27.925
X20.768 Y27.931
X16.434
G3 X16.178 Y27.735 I0 J-0.266
G1 X16.16 Y27.68
G3 X16.16 Y27.422 I0.353 J-0.129
G1 X16.178 Y27.367
G3 X16.434 Y27.172 I0.256 J0.07
G1 X21.236
G3 X21.492 Y27.367 I0 J0.266
G1 X21.51 Y27.423
X21.526 Y27.482
X21.533 Y27.543
X21.529 Y27.604
X21.516 Y27.663
X21.509 Y27.689
X21.499 Y27.725
G3 X21.231 Y27.931 I-0.268 J-0.072
G1 X20.768
G2 X20.378 Y28.191 I0 J0.423
G3 X19.987 Y28.451 I-0.39 J-0.163
G1 X15.684
X15.682 Y27.919
X15.679 Y27.886
X15.669 Y27.854
X15.643 Y27.789
X15.624 Y27.755
X15.599 Y27.726
X15.538 Y27.669
X15.51 Y27.648
X15.478 Y27.633
X15.324 Y27.578
X15.31 Y27.559
Y27.544
X15.324 Y27.523
X15.477 Y27.47
X15.506 Y27.457
X15.532 Y27.438
X15.586 Y27.393
X15.612 Y27.365
X15.632 Y27.332
X15.666 Y27.256
X15.678 Y27.221
X15.682 Y27.184
X15.684 Y26.651
X21.985
X21.988 Y27.184
X21.992 Y27.221
X22.003 Y27.256
X22.038 Y27.332
X22.058 Y27.365
X22.085 Y27.393
X22.139 Y27.439
X22.17 Y27.46
X22.205 Y27.474
X22.28 Y27.495
X22.327 Y27.501
X30.784 Y27.504
X30.844 Y27.523
X30.862 Y27.547
Y27.557
X30.849 Y27.576
X30.761 Y27.601
X22.299 Y27.605
X22.261 Y27.609
X22.224 Y27.622
X22.151 Y27.656
X22.119 Y27.676
X22.091 Y27.703
X22.046 Y27.758
X22.025 Y27.789
X22.011 Y27.824
X21.991 Y27.899
X21.985 Y27.945
Y28.451
X19.987
X19.97 Y28.449 Z-2.495
X19.954 Y28.443 Z-2.491
X19.934 Y28.427 Z-2.465
X19.928 Y28.419 Z-2.43
G0 Z4
X20.995 Y32.468
Z0.384
G1 X21.011 Y32.461 Z0.338 F80
X21.05 Y32.445 Z0.315
G3 X21.256 Y33.077 Z0.165 I0.103 J0.316
X21.05 Y32.445 Z0.015 I-0.103 J-0.316
X21.256 Y33.077 Z-0.135 I0.103 J0.316
X21.05 Y32.445 Z-0.285 I-0.103 J-0.316
X21.153 Y32.428 Z-0.3 I0.103 J0.316
G1 X21.159
X21.194 Y32.434
X21.225 Y32.449
X21.251 Y32.474
X21.268 Y32.505
X21.276 Y32.533
Y32.562
X21.27 Y32.591
X21.267 Y32.598
X21.25 Y32.629
X21.225 Y32.653
X21.193 Y32.669
X21.158 Y32.674
X16.513
X16.478 Y32.669
X16.446 Y32.653
X16.42 Y32.628
X16.404 Y32.596
X16.402 Y32.591
X16.395 Y32.551
X16.402 Y32.512
X16.404 Y32.506
X16.42 Y32.475
X16.446 Y32.45
X16.478 Y32.434
X16.513 Y32.428
X21.153
X21.199 Y32.422
X21.242 Y32.402
X21.276 Y32.37
X21.3 Y32.33
X21.321 Y32.3
X21.351 Y32.279
X21.387 Y32.271
X21.424 Y32.277
X21.455 Y32.296
X21.477 Y32.326
X21.493 Y32.367
X21.51 Y32.419
G3 X21.51 Y32.68 I-0.352 J0.131
G1 X21.492 Y32.735
G3 X21.235 Y32.931 I-0.257 J-0.072
G1 X16.432
G3 X16.178 Y32.735 I0 J-0.262
G1 X16.16 Y32.678
G3 X16.16 Y32.425 I0.353 J-0.126
G1 X16.178 Y32.367
G3 X16.432 Y32.172 I0.253 J0.067
G1 X21.234
G3 X21.477 Y32.326 I0 J0.27
G1 X21.479 Y32.344 Z-0.295
X21.476 Y32.361 Z-0.291
X21.465 Y32.384 Z-0.265
X21.458 Y32.391 Z-0.23
G0 Z4
X1.043 Y9.927
Z0.384
G1 X1.058 Y9.919 Z0.338 F80
X1.098 Y9.903 Z0.315
G3 X1.303 Y10.536 Z0.165 I0.103 J0.316
X1.098 Y9.903 Z0.015 I-0.103 J-0.316
X1.303 Y10.536 Z-0.135 I0.103 J0.316
X1.098 Y9.903 Z-0.285 I-0.103 J-0.316
X1.201 Y9.887 Z-0.3 I0.103 J0.316
G1 X6.039 Y9.888
X6.072 Y9.892
X6.225 Y9.926
X6.249 Y9.934
X6.27 Y9.947
X6.284 Y9.957
X6.302 Y9.975
X6.316 Y9.996
X6.328 Y10.031
Y10.068
X6.316 Y10.104
X6.312 Y10.112
X6.292 Y10.14
X6.265 Y10.16
X6.234 Y10.172
X6.049 Y10.213
X6.016 Y10.216
X1.192 Y10.218
X1.143 Y10.21
X1.1 Y10.188
X1.065 Y10.153
X1.043 Y10.11
X1.035 Y10.061
Y10.044
X1.043 Y9.995
X1.065 Y9.952
X1.1 Y9.917
X1.143 Y9.895
X1.192 Y9.887
X1.201
G2 X1.588 Y9.629 I0 J-0.419
G3 X1.975 Y9.371 I0.387 J0.161
G1 X6.039 Y9.372
X6.112 Y9.376
X6.184 Y9.388
X6.365 Y9.429
X6.434 Y9.449
X6.5 Y9.48
X6.56 Y9.519
X6.619 Y9.564
X6.674 Y9.613
X6.721 Y9.669
X6.76 Y9.731
X6.793 Y9.794
G3 X6.793 Y10.305 I-0.489 J0.256
G1 X6.756 Y10.377
X6.718 Y10.439
X6.671 Y10.495
X6.617 Y10.543
X6.572 Y10.578
X6.51 Y10.618
X6.443 Y10.649
X6.373 Y10.67
X6.159 Y10.717
X6.088 Y10.728
X6.016 Y10.732
X0.732 Y10.734
G3 X0.519 Y10.522 I0 J-0.212
G1 Y9.583
G3 X0.732 Y9.371 I0.212 J0
G1 X1.975
G2 X2.365 Y9.112 I0 J-0.422
G3 X2.754 Y8.852 I0.389 J0.162
G1 X6.17 Y8.853
X6.696 Y8.97
X7.115 Y9.289
X7.401 Y9.836
X7.419 Y9.863
X7.441 Y9.886
X7.499 Y9.937
X7.529 Y9.958
X7.563 Y9.973
X7.63 Y9.993
X7.681 Y10.001
X34.604
X34.635 Y32.592
X26.196 Y32.601
X22.301 Y32.605
X22.267 Y32.608
X22.235 Y32.618
X22.174 Y32.642
X22.145 Y32.657
X22.12 Y32.677
X22.075 Y32.719
X22.051 Y32.746
X22.034 Y32.778
X22.002 Y32.853
X21.991 Y32.886
X21.987 Y32.921
X21.985 Y33.451
X15.684
X15.68 Y32.911
X15.677 Y32.876
X15.666 Y32.842
X15.641 Y32.784
X15.622 Y32.752
X15.597 Y32.724
X15.534 Y32.667
X15.506 Y32.646
X15.474 Y32.632
X15.325 Y32.58
X15.308 Y32.559
Y32.545
X15.323 Y32.523
X15.479 Y32.469
X15.51 Y32.455
X15.537 Y32.435
X15.592 Y32.386
X15.616 Y32.36
X15.635 Y32.328
X15.664 Y32.264
X15.676 Y32.228
X15.68 Y32.192
X15.684 Y31.651
X21.985
X21.987 Y32.177
X21.99 Y32.209
X21.998 Y32.24
X22.027 Y32.313
X22.046 Y32.349
X22.073 Y32.379
X22.133 Y32.435
X22.165 Y32.457
X22.2 Y32.472
X22.268 Y32.493
X22.319 Y32.501
X34.209 Y32.495
X34.243 Y32.492
X34.275 Y32.482
X34.351 Y32.452
X34.384 Y32.434
X34.413 Y32.41
X34.459 Y32.36
X34.483 Y32.329
X34.499 Y32.294
X34.525 Y32.212
X34.532 Y32.185
X34.534 Y32.158
X34.501 Y10.417
X34.497 Y10.38
X34.485 Y10.344
X34.45 Y10.269
X34.43 Y10.236
X34.403 Y10.208
X34.346 Y10.161
X34.314 Y10.14
X34.278 Y10.127
X34.202 Y10.107
X34.159 Y10.101
X7.66 Y10.106
X7.619 Y10.11
X7.581 Y10.124
X7.505 Y10.162
X7.47 Y10.185
X7.442 Y10.216
X7.391 Y10.286
X7.378 Y10.308
X7.112 Y10.817
X6.707 Y11.129
X6.145 Y11.251
X0 Y11.254
Y8.849
X0.007 Y8.85
X0.027 Y8.851
X2.754 Y8.852
X2.772 Y8.857
X2.785 Y8.87
X2.789 Y8.888
X2.784 Y8.906
X2.525 Y9.306
X1.179 Y10.303
X1.045 Y10.475
X1.031 Y10.486
X1.013 Y10.489
X0.996 Y10.482
G3 X1.201 Y9.887 Z-0.6 I0.205 J-0.262
G1 X6.033 Y9.888
X6.068 Y9.892
X6.234 Y9.931
X6.258 Y9.939
X6.279 Y9.952
X6.299 Y9.97
X6.314 Y9.992
X6.327 Y10.028
X6.328 Y10.067
X6.316 Y10.104
X6.311 Y10.113
X6.291 Y10.14
X6.264 Y10.161
X6.233 Y10.172
X6.049 Y10.213
X6.016 Y10.216
X1.192 Y10.218
X1.143 Y10.21
X1.1 Y10.188
X1.065 Y10.153
X1.043 Y10.11
X1.035 Y10.061
Y10.044
X1.043 Y9.995
X1.065 Y9.952
X1.1 Y9.917
X1.143 Y9.895
X1.192 Y9.887
X1.201
G2 X1.588 Y9.629 I0 J-0.419
G3 X1.975 Y9.371 I0.387 J0.161
G1 X6.034 Y9.372
X6.109 Y9.377
X6.184 Y9.39
X6.378 Y9.434
X6.447 Y9.455
X6.512 Y9.486
X6.572 Y9.526
X6.62 Y9.563
X6.674 Y9.611
X6.72 Y9.666
X6.758 Y9.727
X6.793 Y9.794
G3 X6.793 Y10.304 I-0.486 J0.255
G1 X6.754 Y10.378
X6.716 Y10.439
X6.67 Y10.495
X6.616 Y10.543
X6.571 Y10.577
X6.51 Y10.618
X6.443 Y10.649
X6.372 Y10.67
X6.159 Y10.717
X6.088 Y10.728
X6.016 Y10.732
X0.732 Y10.734
G3 X0.519 Y10.522 I0 J-0.212
G1 Y9.583
G3 X0.732 Y9.371 I0.212 J0
G1 X1.975
X1.992 Y9.373 Z-0.595
X2.009 Y9.38 Z-0.591
X2.028 Y9.396 Z-0.565
X2.034 Y9.403 Z-0.53
G0 Z4
X20.995 Y32.468
Z0.084
G1 X21.011 Y32.461 Z0.038 F80
X21.05 Y32.445 Z0.015
G3 X21.256 Y33.077 Z-0.135 I0.103 J0.316
X21.05 Y32.445 Z-0.285 I-0.103 J-0.316
X21.256 Y33.077 Z-0.435 I0.103 J0.316
X21.05 Y32.445 Z-0.585 I-0.103 J-0.316
X21.153 Y32.428 Z-0.6 I0.103 J0.316
G1 X21.159
X21.194 Y32.434
X21.225 Y32.449
X21.251 Y32.474
X21.268 Y32.505
X21.276 Y32.533
Y32.562
X21.27 Y32.591
X21.267 Y32.598
X21.25 Y32.629
X21.225 Y32.653
X21.193 Y32.669
X21.158 Y32.674
X16.513
X16.478 Y32.669
X16.446 Y32.653
X16.42 Y32.628
X16.404 Y32.596
X16.402 Y32.591
X16.395 Y32.551
X16.402 Y32.512
X16.404 Y32.506
X16.42 Y32.475
X16.446 Y32.45
X16.478 Y32.434
X16.513 Y32.428
X21.153
X21.199 Y32.422
X21.242 Y32.402
X21.276 Y32.37
X21.3 Y32.33
X21.321 Y32.3
X21.351 Y32.279
X21.387 Y32.271
X21.424 Y32.277
X21.455 Y32.296
X21.477 Y32.326
X21.493 Y32.367
X21.51 Y32.419
G3 X21.51 Y32.68 I-0.352 J0.131
G1 X21.492 Y32.735
G3 X21.235 Y32.931 I-0.257 J-0.072
G1 X16.432
G3 X16.178 Y32.735 I0 J-0.262
G1 X16.16 Y32.678
G3 X16.16 Y32.425 I0.353 J-0.126
G1 X16.178 Y32.367
G3 X16.432 Y32.172 I0.253 J0.067
G1 X21.234
G3 X21.477 Y32.326 I0 J0.27
G2 X21.996 Y32.571 I0.409 J-0.194
G3 X22.566 Y32.501 I0.571 J2.27
G1 X34.209 Y32.495
X34.243 Y32.492
X34.275 Y32.482
X34.351 Y32.452
X34.384 Y32.434
X34.413 Y32.41
X34.459 Y32.36
X34.483 Y32.329
X34.499 Y32.294
X34.525 Y32.212
X34.532 Y32.185
X34.534 Y32.158
X34.501 Y10.417
X34.497 Y10.38
X34.485 Y10.344
X34.45 Y10.269
X34.43 Y10.236
X34.403 Y10.208
X34.346 Y10.161
X34.314 Y10.14
X34.278 Y10.127
X34.202 Y10.107
X34.159 Y10.101
X7.66 Y10.106
X7.619 Y10.11
X7.581 Y10.124
X7.505 Y10.162
X7.47 Y10.185
X7.442 Y10.216
X7.391 Y10.286
X7.378 Y10.308
X7.111 Y10.817
X6.707 Y11.129
X6.145 Y11.251
X0 Y11.254
Y8.849
X0.007 Y8.85
X0.027 Y8.851
X6.169 Y8.853
X6.712 Y8.978
X7.114 Y9.288
X7.401 Y9.836
X7.419 Y9.863
X7.441 Y9.886
X7.499 Y9.937
X7.529 Y9.958
X7.563 Y9.973
X7.63 Y9.993
X7.681 Y10.001
X34.604
X34.635 Y32.592
X26.196 Y32.601
X22.301 Y32.605
X22.267 Y32.608
X22.235 Y32.618
X22.174 Y32.642
X22.145 Y32.657
X22.12 Y32.677
X22.075 Y32.719
X22.051 Y32.746
X22.034 Y32.778
X22.002 Y32.853
X21.991 Y32.886
X21.987 Y32.921
X21.985 Y33.451
X15.684
X15.68 Y32.911
X15.677 Y32.876
X15.666 Y32.842
X15.641 Y32.784
X15.622 Y32.752
X15.597 Y32.724
X15.534 Y32.667
X15.506 Y32.646
X15.474 Y32.632
X15.325 Y32.58
X15.308 Y32.559
Y32.545
X15.323 Y32.523
X15.479 Y32.469
X15.51 Y32.455
X15.537 Y32.435
X15.592 Y32.386
X15.616 Y32.36
X15.635 Y32.328
X15.664 Y32.264
X15.676 Y32.228
X15.68 Y32.192
X15.684 Y31.651
X21.985
X21.987 Y32.177
X21.99 Y32.209
X21.998 Y32.24
X22.027 Y32.313
X22.046 Y32.349
X22.073 Y32.379
X22.133 Y32.435
X22.165 Y32.457
X22.2 Y32.472
X22.268 Y32.493
X22.319 Y32.501
X22.566
X22.58 Y32.507
X22.583 Y32.522
X22.572 Y32.534
X22.514 Y32.557
X21.691 Y32.623
X20.988 Y33.026
X20.968 Y33.03
X20.949 Y33.023
G3 X21.153 Y32.428 Z-0.9 I0.205 J-0.262
G1 X21.159
X21.194 Y32.434
X21.225 Y32.449
X21.251 Y32.474
X21.268 Y32.505
X21.276 Y32.533
Y32.562
X21.27 Y32.591
X21.267 Y32.598
X21.25 Y32.629
X21.225 Y32.653
X21.193 Y32.669
X21.158 Y32.674
X16.513
X16.478 Y32.669
X16.446 Y32.653
X16.42 Y32.628
X16.404 Y32.596
X16.402 Y32.591
X16.395 Y32.551
X16.402 Y32.512
X16.404 Y32.506
X16.42 Y32.475
X16.446 Y32.45
X16.478 Y32.434
X16.513 Y32.428
X21.153
X21.199 Y32.422
X21.242 Y32.402
X21.276 Y32.37
X21.3 Y32.33
X21.321 Y32.3
X21.351 Y32.279
X21.387 Y32.271
X21.424 Y32.277
X21.455 Y32.296
X21.477 Y32.326
X21.493 Y32.367
X21.51 Y32.419
G3 X21.51 Y32.68 I-0.352 J0.131
G1 X21.492 Y32.735
G3 X21.235 Y32.931 I-0.257 J-0.072
G1 X16.432
G3 X16.178 Y32.735 I0 J-0.262
G1 X16.16 Y32.678
G3 X16.16 Y32.425 I0.353 J-0.126
G1 X16.178 Y32.367
G3 X16.432 Y32.172 I0.253 J0.067
G1 X21.234
G3 X21.477 Y32.326 I0 J0.27
G1 X21.479 Y32.344 Z-0.895
X21.476 Y32.361 Z-0.891
X21.465 Y32.384 Z-0.865
X21.458 Y32.391 Z-0.83
G0 Z4
X1.043 Y9.927
Z1.3
G1 Z-0.216 F80
X1.058 Y9.919 Z-0.262
X1.098 Y9.903 Z-0.285
G3 X1.303 Y10.536 Z-0.435 I0.103 J0.316
X1.098 Y9.903 Z-0.585 I-0.103 J-0.316
X1.303 Y10.536 Z-0.735 I0.103 J0.316
X1.098 Y9.903 Z-0.885 I-0.103 J-0.316
X1.201 Y9.887 Z-0.9 I0.103 J0.316
G1 X6.034 Y9.888
X6.069 Y9.892
X6.232 Y9.93
X6.256 Y9.938
X6.277 Y9.951
X6.282 Y9.954
X6.3 Y9.972
X6.313 Y9.992
X6.327 Y10.028
Y10.067
X6.315 Y10.104
X6.31 Y10.113
X6.29 Y10.14
X6.263 Y10.161
X6.232 Y10.173
X6.049 Y10.213
X6.016 Y10.216
X1.192 Y10.218
X1.143 Y10.21
X1.1 Y10.188
X1.065 Y10.153
X1.043 Y10.11
X1.035 Y10.061
Y10.044
X1.043 Y9.995
X1.065 Y9.952
X1.1 Y9.917
X1.143 Y9.895
X1.192 Y9.887
X1.201
G2 X1.588 Y9.629 I0 J-0.419
G3 X1.975 Y9.371 I0.387 J0.161
G1 X6.035 Y9.372
X6.11 Y9.377
X6.184 Y9.389
X6.375 Y9.433
X6.445 Y9.454
X6.51 Y9.485
X6.571 Y9.525
X6.62 Y9.564
X6.673 Y9.611
X6.719 Y9.666
X6.757 Y9.727
X6.793 Y9.795
G3 X6.793 Y10.303 I-0.482 J0.254
G1 X6.753 Y10.379
X6.715 Y10.44
X6.669 Y10.495
X6.616 Y10.542
X6.571 Y10.577
X6.509 Y10.618
X6.442 Y10.649
X6.371 Y10.67
X6.159 Y10.717
X6.088 Y10.728
X6.016 Y10.732
X0.732 Y10.734
G3 X0.519 Y10.522 I0 J-0.212
G1 Y9.583
G3 X0.732 Y9.371 I0.212 J0
G1 X1.975
G2 X2.365 Y9.112 I0 J-0.422
G3 X2.754 Y8.852 I0.389 J0.162
G1 X6.169 Y8.853
X6.71 Y8.977
X7.113 Y9.289
X7.401 Y9.836
X7.419 Y9.863
X7.441 Y9.886
X7.499 Y9.937
X7.529 Y9.958
X7.563 Y9.973
X7.63 Y9.993
X7.681 Y10.001
X34.604
X34.635 Y32.592
X26.196 Y32.601
X22.301 Y32.605
X22.267 Y32.608
X22.235 Y32.618
X22.174 Y32.642
X22.145 Y32.657
X22.12 Y32.677
X22.075 Y32.719
X22.051 Y32.746
X22.034 Y32.778
X22.002 Y32.853
X21.991 Y32.886
X21.987 Y32.921
X21.985 Y33.451
X15.684
X15.68 Y32.911
X15.677 Y32.876
X15.666 Y32.842
X15.641 Y32.784
X15.622 Y32.752
X15.597 Y32.724
X15.534 Y32.667
X15.506 Y32.646
X15.474 Y32.632
X15.325 Y32.58
X15.309 Y32.559
X15.308 Y32.545
X15.323 Y32.523
X15.479 Y32.469
X15.51 Y32.455
X15.537 Y32.435
X15.592 Y32.386
X15.616 Y32.36
X15.635 Y32.328
X15.664 Y32.264
X15.676 Y32.228
X15.68 Y32.192
X15.684 Y31.651
X21.985
X21.987 Y32.177
X21.99 Y32.209
X21.998 Y32.24
X22.027 Y32.313
X22.046 Y32.349
X22.073 Y32.379
X22.133 Y32.435
X22.165 Y32.457
X22.2 Y32.472
X22.268 Y32.493
X22.319 Y32.501
X34.209 Y32.495
X34.243 Y32.492
X34.275 Y32.482
X34.351 Y32.452
X34.384 Y32.434
X34.413 Y32.41
X34.459 Y32.36
X34.483 Y32.329
X34.499 Y32.294
X34.525 Y32.212
X34.532 Y32.185
X34.534 Y32.158
X34.501 Y10.417
X34.497 Y10.38
X34.485 Y10.344
X34.45 Y10.269
X34.43 Y10.236
X34.403 Y10.208
X34.346 Y10.161
X34.314 Y10.14
X34.278 Y10.127
X34.202 Y10.107
X34.159 Y10.101
X7.66 Y10.106
X7.619 Y10.11
X7.581 Y10.124
X7.505 Y10.162
X7.47 Y10.185
X7.442 Y10.216
X7.391 Y10.286
X7.378 Y10.307
X7.109 Y10.817
X6.707 Y11.129
X6.145 Y11.251
X0 Y11.254
Y8.849
X0.007 Y8.85
X0.027 Y8.851
X2.754 Y8.852
X2.772 Y8.857
X2.785 Y8.87
X2.789 Y8.888
X2.784 Y8.906
X2.525 Y9.306
X1.179 Y10.303
X1.045 Y10.475
X1.031 Y10.486
X1.013 Y10.489
X0.996 Y10.482
G3 X1.201 Y9.887 Z-1.2 I0.205 J-0.262
G1 X6.036 Y9.888
X6.07 Y9.892
X6.23 Y9.929
X6.254 Y9.937
X6.276 Y9.95
X6.281 Y9.955
X6.299 Y9.972
X6.313 Y9.992
X6.326 Y10.029
Y10.067
X6.314 Y10.104
X6.309 Y10.113
X6.289 Y10.141
X6.262 Y10.161
X6.231 Y10.173
X6.049 Y10.213
X6.016 Y10.216
X1.192 Y10.218
X1.143 Y10.21
X1.1 Y10.188
X1.065 Y10.153
X1.043 Y10.11
X1.035 Y10.061
Y10.044
X1.043 Y9.995
X1.065 Y9.952
X1.1 Y9.917
X1.143 Y9.895
X1.192 Y9.887
X1.201
G2 X1.588 Y9.629 I0 J-0.419
G3 X1.975 Y9.371 I0.387 J0.161
G1 X6.036 Y9.372
X6.11 Y9.377
X6.184 Y9.389
X6.372 Y9.432
X6.442 Y9.453
X6.508 Y9.484
X6.569 Y9.525
X6.62 Y9.564
X6.673 Y9.612
X6.719 Y9.666
X6.756 Y9.726
X6.793 Y9.796
G3 X6.793 Y10.303 I-0.479 J0.253
G1 X6.752 Y10.38
X6.714 Y10.44
X6.669 Y10.494
X6.616 Y10.541
X6.571 Y10.577
X6.509 Y10.618
X6.441 Y10.649
X6.37 Y10.671
X6.159 Y10.717
X6.088 Y10.728
X6.016 Y10.732
X0.732 Y10.734
G3 X0.519 Y10.522 I0 J-0.212
G1 Y9.583
G3 X0.732 Y9.371 I0.212 J0
G1 X1.975
X1.992 Y9.373 Z-1.195
X2.009 Y9.38 Z-1.191
X2.028 Y9.396 Z-1.165
X2.034 Y9.403 Z-1.13
G0 Z4
X20.995 Y32.468
G1 Z-0.516 F80
X21.011 Y32.461 Z-0.562
X21.05 Y32.445 Z-0.585
G3 X21.256 Y33.077 Z-0.735 I0.103 J0.316
X21.05 Y32.445 Z-0.885 I-0.103 J-0.316
X21.256 Y33.077 Z-1.035 I0.103 J0.316
X21.05 Y32.445 Z-1.185 I-0.103 J-0.316
X21.153 Y32.428 Z-1.2 I0.103 J0.316
G1 X21.159
X21.194 Y32.434
X21.225 Y32.449
X21.251 Y32.474
X21.268 Y32.505
X21.276 Y32.533
Y32.562
X21.27 Y32.591
X21.267 Y32.598
X21.25 Y32.629
X21.225 Y32.653
X21.193 Y32.669
X21.158 Y32.674
X16.513
X16.478 Y32.669
X16.446 Y32.653
X16.42 Y32.628
X16.404 Y32.596
X16.402 Y32.591
X16.395 Y32.551
X16.402 Y32.512
X16.404 Y32.506
X16.42 Y32.475
X16.446 Y32.45
X16.478 Y32.434
X16.513 Y32.428
X21.153
X21.199 Y32.422
X21.242 Y32.402
X21.276 Y32.37
X21.3 Y32.33
X21.321 Y32.3
X21.351 Y32.279
X21.387 Y32.271
X21.424 Y32.277
X21.455 Y32.296
X21.477 Y32.326
X21.493 Y32.367
X21.51 Y32.419
G3 X21.51 Y32.68 I-0.352 J0.131
G1 X21.492 Y32.735
G3 X21.235 Y32.931 I-0.257 J-0.072
G1 X16.432
G3 X16.178 Y32.735 I0 J-0.262
G1 X16.16 Y32.678
G3 X16.16 Y32.425 I0.353 J-0.126
G1 X16.178 Y32.367
G3 X16.432 Y32.172 I0.253 J0.067
G1 X21.234
G3 X21.477 Y32.326 I0 J0.27
G2 X21.996 Y32.571 I0.409 J-0.194
G3 X22.566 Y32.501 I0.571 J2.27
G1 X34.209 Y32.495
X34.243 Y32.492
X34.275 Y32.482
X34.351 Y32.452
X34.384 Y32.434
X34.413 Y32.41
X34.459 Y32.36
X34.483 Y32.329
X34.499 Y32.294
X34.525 Y32.212
X34.532 Y32.185
X34.534 Y32.158
X34.501 Y10.417
X34.497 Y10.38
X34.485 Y10.344
X34.45 Y10.269
X34.43 Y10.236
X34.403 Y10.208
X34.346 Y10.161
X34.314 Y10.14
X34.278 Y10.127
X34.202 Y10.107
X34.159 Y10.101
X7.66 Y10.106
X7.619 Y10.11
X7.581 Y10.124
X7.505 Y10.162
X7.47 Y10.185
X7.442 Y10.216
X7.391 Y10.286
X7.378 Y10.307
X7.108 Y10.817
X6.707 Y11.129
X6.144 Y11.251
X0 Y11.254
Y8.849
X0.007 Y8.85
X0.027 Y8.851
X6.169 Y8.853
X6.708 Y8.976
X7.112 Y9.289
X7.401 Y9.836
X7.419 Y9.863
X7.441 Y9.886
X7.499 Y9.937
X7.529 Y9.958
X7.563 Y9.973
X7.63 Y9.993
X7.681 Y10.001
X34.604
X34.635 Y32.592
X26.196 Y32.601
X22.301 Y32.605
X22.267 Y32.608
X22.235 Y32.618
X22.174 Y32.642
X22.145 Y32.657
X22.12 Y32.677
X22.075 Y32.719
X22.051 Y32.746
X22.034 Y32.778
X22.002 Y32.853
X21.991 Y32.886
X21.987 Y32.921
X21.985 Y33.451
X15.684
X15.68 Y32.911
X15.677 Y32.876
X15.666 Y32.842
X15.641 Y32.784
X15.622 Y32.752
X15.597 Y32.724
X15.534 Y32.667
X15.506 Y32.646
X15.474 Y32.632
X15.325 Y32.58
X15.309 Y32.56
X15.308 Y32.545
X15.323 Y32.523
X15.479 Y32.469
X15.51 Y32.455
X15.537 Y32.435
X15.592 Y32.386
X15.616 Y32.36
X15.635 Y32.328
X15.664 Y32.264
X15.676 Y32.228
X15.68 Y32.192
X15.684 Y31.651
X21.985
X21.987 Y32.177
X21.99 Y32.209
X21.998 Y32.24
X22.027 Y32.313
X22.046 Y32.349
X22.073 Y32.379
X22.133 Y32.435
X22.165 Y32.457
X22.2 Y32.472
X22.268 Y32.493
X22.319 Y32.501
X22.566
X22.58 Y32.507
X22.583 Y32.522
X22.572 Y32.534
X22.514 Y32.557
X21.691 Y32.623
X20.988 Y33.026
X20.968 Y33.03
X20.949 Y33.023
G3 X21.153 Y32.428 Z-1.5 I0.205 J-0.262
G1 X21.159
X21.194 Y32.434
X21.225 Y32.449
X21.251 Y32.474
X21.268 Y32.505
X21.276 Y32.533
Y32.562
X21.27 Y32.591
X21.267 Y32.598
X21.25 Y32.629
X21.225 Y32.653
X21.193 Y32.669
X21.158 Y32.674
X16.513
X16.478 Y32.669
X16.446 Y32.653
X16.42 Y32.628
X16.404 Y32.596
X16.402 Y32.591
X16.395 Y32.551
X16.402 Y32.512
X16.404 Y32.506
X16.42 Y32.475
X16.446 Y32.45
X16.478 Y32.434
X16.513 Y32.428
X21.153
X21.199 Y32.422
X21.242 Y32.402
X21.276 Y32.37
X21.3 Y32.33
X21.321 Y32.3
X21.351 Y32.279
X21.387 Y32.271
X21.424 Y32.277
X21.455 Y32.296
X21.477 Y32.326
X21.493 Y32.367
X21.51 Y32.419
G3 X21.51 Y32.68 I-0.352 J0.131
G1 X21.492 Y32.735
G3 X21.235 Y32.931 I-0.257 J-0.072
G1 X16.432
G3 X16.178 Y32.735 I0 J-0.262
G1 X16.16 Y32.678
G3 X16.16 Y32.425 I0.353 J-0.126
G1 X16.178 Y32.367
G3 X16.432 Y32.172 I0.253 J0.067
G1 X21.234
G3 X21.477 Y32.326 I0 J0.27
G1 X21.479 Y32.344 Z-1.495
X21.476 Y32.361 Z-1.491
X21.465 Y32.384 Z-1.465
X21.458 Y32.391 Z-1.43
G0 Z4
X1.043 Y9.927
G1 Z-0.816 F80
X1.058 Y9.919 Z-0.862
X1.098 Y9.903 Z-0.885
G3 X1.303 Y10.536 Z-1.035 I0.103 J0.316
X1.098 Y9.903 Z-1.185 I-0.103 J-0.316
X1.303 Y10.536 Z-1.335 I0.103 J0.316
X1.098 Y9.903 Z-1.485 I-0.103 J-0.316
X1.201 Y9.887 Z-1.5 I0.103 J0.316
G1 X6.036 Y9.888
X6.071 Y9.892
X6.228 Y9.928
X6.252 Y9.936
X6.274 Y9.949
X6.281 Y9.955
X6.299 Y9.972
X6.313 Y9.993
X6.315 Y9.998
X6.327 Y10.033
Y10.071
X6.316 Y10.106
X6.302 Y10.128
X6.283 Y10.146
X6.277 Y10.151
X6.255 Y10.164
X6.23 Y10.173
X6.049 Y10.212
X6.015 Y10.216
X1.192 Y10.218
X1.143 Y10.21
X1.1 Y10.188
X1.065 Y10.153
X1.043 Y10.11
X1.035 Y10.061
Y10.044
X1.043 Y9.995
X1.065 Y9.952
X1.1 Y9.917
X1.143 Y9.895
X1.192 Y9.887
X1.201
G2 X1.588 Y9.629 I0 J-0.419
G3 X1.975 Y9.371 I0.387 J0.161
G1 X6.037 Y9.372
X6.111 Y9.377
X6.184 Y9.389
X6.37 Y9.431
X6.44 Y9.452
X6.506 Y9.484
X6.567 Y9.524
X6.62 Y9.565
X6.673 Y9.612
X6.718 Y9.666
X6.755 Y9.726
X6.792 Y9.795
G3 X6.794 Y10.305 I-0.484 J0.257
G1 X6.759 Y10.371
X6.722 Y10.432
X6.676 Y10.488
X6.622 Y10.536
X6.57 Y10.576
X6.508 Y10.618
X6.441 Y10.649
X6.37 Y10.67
X6.159 Y10.717
X6.088 Y10.728
X6.016 Y10.732
X0.732 Y10.734
G3 X0.519 Y10.522 I0 J-0.212
G1 Y9.583
G3 X0.732 Y9.371 I0.212 J0
G1 X1.975
G2 X2.365 Y9.112 I0 J-0.422
G3 X2.754 Y8.852 I0.389 J0.162
G1 X6.169 Y8.853
X6.706 Y8.974
X7.112 Y9.29
X7.402 Y9.837
X7.419 Y9.863
X7.441 Y9.886
X7.499 Y9.937
X7.529 Y9.958
X7.563 Y9.973
X7.63 Y9.993
X7.681 Y10.001
X34.604
X34.635 Y32.592
X26.196 Y32.601
X22.301 Y32.605
X22.267 Y32.608
X22.235 Y32.618
X22.174 Y32.642
X22.145 Y32.657
X22.12 Y32.677
X22.075 Y32.719
X22.051 Y32.746
X22.034 Y32.778
X22.002 Y32.853
X21.991 Y32.886
X21.987 Y32.921
X21.985 Y33.451
X15.684
X15.68 Y32.911
X15.677 Y32.876
X15.666 Y32.842
X15.641 Y32.784
X15.622 Y32.752
X15.597 Y32.724
X15.534 Y32.667
X15.506 Y32.646
X15.474 Y32.632
X15.325 Y32.58
X15.309 Y32.56
Y32.544
X15.324 Y32.523
X15.479 Y32.469
X15.51 Y32.455
X15.537 Y32.435
X15.592 Y32.386
X15.616 Y32.36
X15.635 Y32.328
X15.664 Y32.264
X15.676 Y32.228
X15.68 Y32.192
X15.684 Y31.651
X21.985
X21.987 Y32.177
X21.99 Y32.209
X21.998 Y32.24
X22.027 Y32.313
X22.046 Y32.349
X22.073 Y32.379
X22.133 Y32.435
X22.165 Y32.457
X22.2 Y32.472
X22.268 Y32.493
X22.319 Y32.501
X34.209 Y32.495
X34.243 Y32.492
X34.275 Y32.482
X34.351 Y32.452
X34.384 Y32.434
X34.413 Y32.41
X34.459 Y32.36
X34.483 Y32.329
X34.499 Y32.294
X34.525 Y32.212
X34.532 Y32.185
X34.534 Y32.158
X34.501 Y10.417
X34.497 Y10.38
X34.485 Y10.344
X34.45 Y10.269
X34.43 Y10.236
X34.403 Y10.208
X34.346 Y10.161
X34.314 Y10.14
X34.278 Y10.127
X34.202 Y10.107
X34.159 Y10.101
X7.66 Y10.106
X7.619 Y10.11
X7.581 Y10.124
X7.505 Y10.162
X7.47 Y10.185
X7.442 Y10.216
X7.391 Y10.286
X7.377 Y10.308
X7.117 Y10.809
X6.706 Y11.128
X6.144 Y11.251
X0 Y11.254
Y8.849
X0.007 Y8.85
X0.027 Y8.851
X2.754 Y8.852
X2.772 Y8.857
X2.785 Y8.87
X2.789 Y8.888
X2.784 Y8.906
X2.525 Y9.306
X1.179 Y10.303
X1.045 Y10.475
X1.031 Y10.486
X1.013 Y10.489
X0.996 Y10.482
G3 X1.201 Y9.887 Z-1.8 I0.205 J-0.262
G1 X6.036 Y9.888
X6.07 Y9.892
X6.226 Y9.928
X6.25 Y9.936
X6.271 Y9.949
X6.281 Y9.957
X6.299 Y9.974
X6.313 Y9.994
X6.326 Y10.031
X6.327 Y10.07
X6.315 Y10.107
X6.301 Y10.129
X6.282 Y10.147
X6.278 Y10.15
X6.256 Y10.164
X6.232 Y10.172
X6.048 Y10.212
X6.015 Y10.216
X1.192 Y10.218
X1.143 Y10.21
X1.1 Y10.188
X1.065 Y10.153
X1.043 Y10.11
X1.035 Y10.061
Y10.044
X1.043 Y9.995
X1.065 Y9.952
X1.1 Y9.917
X1.143 Y9.895
X1.192 Y9.887
X1.201
G2 X1.588 Y9.629 I0 J-0.419
G3 X1.975 Y9.371 I0.387 J0.161
G1 X6.036 Y9.372
X6.111 Y9.377
X6.184 Y9.389
X6.368 Y9.431
X6.438 Y9.452
X6.504 Y9.483
X6.565 Y9.524
X6.62 Y9.567
X6.672 Y9.614
X6.718 Y9.667
X6.755 Y9.727
X6.792 Y9.796
G3 X6.794 Y10.305 I-0.483 J0.257
G1 X6.759 Y10.372
X6.721 Y10.434
X6.674 Y10.49
X6.62 Y10.538
X6.57 Y10.577
X6.509 Y10.617
X6.442 Y10.649
X6.371 Y10.67
X6.159 Y10.716
X6.087 Y10.728
X6.015 Y10.732
X0.732 Y10.734
G3 X0.519 Y10.522 I0 J-0.212
G1 Y9.583
G3 X0.732 Y9.371 I0.212 J0
G1 X1.975
X1.992 Y9.373 Z-1.795
X2.009 Y9.38 Z-1.791
X2.028 Y9.396 Z-1.765
X2.034 Y9.403 Z-1.73
G0 Z4
X20.995 Y32.468
G1 Z-1.116 F80
X21.011 Y32.461 Z-1.162
X21.05 Y32.445 Z-1.185
G3 X21.256 Y33.077 Z-1.335 I0.103 J0.316
X21.05 Y32.445 Z-1.485 I-0.103 J-0.316
X21.256 Y33.077 Z-1.635 I0.103 J0.316
X21.05 Y32.445 Z-1.785 I-0.103 J-0.316
X21.153 Y32.428 Z-1.8 I0.103 J0.316
G1 X21.159
X21.194 Y32.434
X21.225 Y32.449
X21.251 Y32.474
X21.268 Y32.505
X21.276 Y32.533
Y32.562
X21.27 Y32.591
X21.267 Y32.598
X21.25 Y32.629
X21.225 Y32.653
X21.193 Y32.669
X21.158 Y32.674
X16.513
X16.478 Y32.669
X16.446 Y32.653
X16.42 Y32.628
X16.404 Y32.596
X16.402 Y32.591
X16.395 Y32.551
X16.402 Y32.512
X16.404 Y32.506
X16.42 Y32.475
X16.446 Y32.45
X16.478 Y32.434
X16.513 Y32.428
X21.153
X21.199 Y32.422
X21.242 Y32.402
X21.276 Y32.37
X21.3 Y32.33
X21.321 Y32.3
X21.351 Y32.279
X21.387 Y32.271
X21.424 Y32.277
X21.455 Y32.296
X21.477 Y32.326
X21.493 Y32.367
X21.51 Y32.419
G3 X21.51 Y32.68 I-0.352 J0.131
G1 X21.492 Y32.735
G3 X21.235 Y32.931 I-0.257 J-0.072
G1 X16.432
G3 X16.178 Y32.735 I0 J-0.262
G1 X16.16 Y32.678
G3 X16.16 Y32.425 I0.353 J-0.126
G1 X16.178 Y32.367
G3 X16.432 Y32.172 I0.253 J0.067
G1 X21.234
G3 X21.477 Y32.326 I0 J0.27
G2 X21.996 Y32.571 I0.409 J-0.194
G3 X22.566 Y32.501 I0.571 J2.27
G1 X34.209 Y32.495
X34.243 Y32.492
X34.275 Y32.482
X34.351 Y32.452
X34.384 Y32.434
X34.413 Y32.41
X34.459 Y32.36
X34.483 Y32.329
X34.499 Y32.294
X34.525 Y32.212
X34.532 Y32.185
X34.534 Y32.158
X34.501 Y10.417
X34.497 Y10.38
X34.485 Y10.344
X34.45 Y10.269
X34.43 Y10.236
X34.403 Y10.208
X34.346 Y10.161
X34.314 Y10.14
X34.278 Y10.127
X34.202 Y10.107
X34.159 Y10.101
X7.66 Y10.106
X7.619 Y10.11
X7.581 Y10.124
X7.505 Y10.162
X7.47 Y10.185
X7.442 Y10.216
X7.391 Y10.286
X7.377 Y10.308
X7.123 Y10.797
X7.017 Y10.888
X6.707 Y11.128
X6.144 Y11.251
X0 Y11.254
Y8.849
X0.007 Y8.85
X0.027 Y8.851
X6.169 Y8.853
X6.705 Y8.974
X7.111 Y9.291
X7.402 Y9.837
X7.419 Y9.863
X7.441 Y9.886
X7.499 Y9.937
X7.529 Y9.958
X7.563 Y9.973
X7.63 Y9.993
X7.681 Y10.001
X34.604
X34.635 Y32.592
X26.196 Y32.601
X22.301 Y32.605
X22.267 Y32.608
X22.235 Y32.618
X22.174 Y32.642
X22.145 Y32.657
X22.12 Y32.677
X22.075 Y32.719
X22.051 Y32.746
X22.034 Y32.778
X22.002 Y32.853
X21.991 Y32.886
X21.987 Y32.921
X21.985 Y33.451
X15.684
X15.68 Y32.911
X15.677 Y32.876
X15.666 Y32.842
X15.641 Y32.784
X15.622 Y32.752
X15.597 Y32.724
X15.534 Y32.667
X15.506 Y32.646
X15.474 Y32.632
X15.325 Y32.58
X15.312 Y32.564
X15.311 Y32.541
X15.324 Y32.523
X15.479 Y32.469
X15.51 Y32.454
X15.537 Y32.435
X15.592 Y32.386
X15.616 Y32.36
X15.635 Y32.328
X15.664 Y32.264
X15.676 Y32.228
X15.68 Y32.192
X15.684 Y31.651
X21.985
X21.987 Y32.177
X21.99 Y32.209
X21.998 Y32.24
X22.027 Y32.313
X22.046 Y32.349
X22.073 Y32.379
X22.133 Y32.435
X22.165 Y32.457
X22.2 Y32.472
X22.268 Y32.493
X22.319 Y32.501
X22.566
X22.579 Y32.507
X22.583 Y32.522
X22.573 Y32.534
X22.515 Y32.56
X21.778 Y32.675
X20.862 Y32.82
X20.843 Y32.818
X20.828 Y32.806
X20.822 Y32.788
G3 X21.153 Y32.428 Z-2 I0.331 J-0.027
G1 X21.159
X21.194 Y32.434
X21.225 Y32.449
X21.251 Y32.474
X21.268 Y32.505
X21.276 Y32.533
Y32.562
X21.27 Y32.591
X21.267 Y32.598
X21.25 Y32.629
X21.225 Y32.653
X21.193 Y32.669
X21.158 Y32.674
X16.513
X16.478 Y32.669
X16.446 Y32.653
X16.42 Y32.628
X16.404 Y32.596
X16.402 Y32.591
X16.395 Y32.551
X16.402 Y32.512
X16.404 Y32.506
X16.42 Y32.475
X16.446 Y32.45
X16.478 Y32.434
X16.513 Y32.428
X21.153
X21.199 Y32.422
X21.242 Y32.402
X21.276 Y32.37
X21.3 Y32.33
X21.321 Y32.3
X21.351 Y32.279
X21.387 Y32.271
X21.424 Y32.277
X21.455 Y32.296
X21.477 Y32.326
X21.493 Y32.367
X21.51 Y32.419
G3 X21.51 Y32.68 I-0.352 J0.131
G1 X21.492 Y32.735
G3 X21.235 Y32.931 I-0.257 J-0.072
G1 X16.432
G3 X16.178 Y32.735 I0 J-0.262
G1 X16.16 Y32.678
G3 X16.16 Y32.425 I0.353 J-0.126
G1 X16.178 Y32.367
G3 X16.432 Y32.172 I0.253 J0.067
G1 X21.234
G3 X21.477 Y32.326 I0 J0.27
G1 X21.479 Y32.344 Z-1.995
X21.476 Y32.361 Z-1.991
X21.465 Y32.384 Z-1.965
X21.458 Y32.391 Z-1.93
G0 Z4
X1.533 Y10.229
G1 Z-1.416 F80
X1.532 Y10.246 Z-1.462
X1.526 Y10.289 Z-1.485
G3 X0.875 Y10.15 Z-1.635 I-0.325 J-0.069
X1.526 Y10.289 Z-1.785 I0.325 J0.069
X0.875 Y10.15 Z-1.935 I-0.325 J-0.069
X1.201 Y9.887 Z-2 I0.325 J0.069
G1 X6.035 Y9.888
X6.07 Y9.892
X6.224 Y9.927
X6.248 Y9.936
X6.27 Y9.949
X6.281 Y9.958
X6.299 Y9.975
X6.313 Y9.995
X6.326 Y10.031
X6.327 Y10.07
X6.315 Y10.107
X6.301 Y10.129
X6.282 Y10.147
X6.278 Y10.15
X6.256 Y10.164
X6.232 Y10.172
X6.048 Y10.212
X6.014 Y10.216
X1.192 Y10.218
X1.143 Y10.21
X1.1 Y10.188
X1.065 Y10.153
X1.043 Y10.11
X1.035 Y10.061
Y10.044
X1.043 Y9.995
X1.065 Y9.952
X1.1 Y9.917
X1.143 Y9.895
X1.192 Y9.887
X1.201
G2 X1.588 Y9.629 I0 J-0.419
G3 X1.975 Y9.371 I0.387 J0.161
G1 X6.036 Y9.372
X6.11 Y9.377
X6.184 Y9.389
X6.367 Y9.431
X6.437 Y9.452
X6.503 Y9.483
X6.564 Y9.524
X6.62 Y9.567
X6.672 Y9.614
X6.718 Y9.668
X6.755 Y9.728
X6.791 Y9.796
G3 X6.794 Y10.304 I-0.481 J0.257
G1 X6.759 Y10.372
X6.721 Y10.434
X6.675 Y10.489
X6.621 Y10.538
X6.57 Y10.577
X6.509 Y10.617
X6.442 Y10.648
X6.371 Y10.669
X6.159 Y10.716
X6.087 Y10.728
X6.015 Y10.732
X0.732 Y10.734
G3 X0.519 Y10.522 I0 J-0.212
G1 Y9.583
G3 X0.732 Y9.371 I0.212 J0
G1 X1.975
G2 X2.365 Y9.112 I0 J-0.422
G3 X2.754 Y8.852 I0.389 J0.162
G1 X6.169 Y8.853
X6.703 Y8.974
X7.111 Y9.291
X7.402 Y9.837
X7.419 Y9.863
X7.441 Y9.886
X7.499 Y9.937
X7.529 Y9.958
X7.563 Y9.973
X7.63 Y9.993
X7.681 Y10.001
X34.604
X34.635 Y32.592
X26.196 Y32.601
X22.301 Y32.605
X22.267 Y32.608
X22.235 Y32.618
X22.174 Y32.642
X22.145 Y32.657
X22.12 Y32.677
X22.075 Y32.719
X22.051 Y32.746
X22.034 Y32.778
X22.002 Y32.853
X21.991 Y32.886
X21.987 Y32.921
X21.985 Y33.451
X15.684
X15.68 Y32.911
X15.677 Y32.876
X15.666 Y32.842
X15.641 Y32.784
X15.622 Y32.752
X15.597 Y32.724
X15.534 Y32.667
X15.506 Y32.646
X15.474 Y32.632
X15.325 Y32.58
X15.312 Y32.564
Y32.541
X15.324 Y32.524
X15.48 Y32.468
X15.51 Y32.454
X15.537 Y32.435
X15.592 Y32.386
X15.616 Y32.36
X15.635 Y32.328
X15.664 Y32.264
X15.676 Y32.228
X15.68 Y32.192
X15.684 Y31.651
X21.985
X21.987 Y32.177
X21.99 Y32.209
X21.998 Y32.24
X22.027 Y32.313
X22.046 Y32.349
X22.073 Y32.379
X22.133 Y32.435
X22.165 Y32.457
X22.2 Y32.472
X22.268 Y32.493
X22.319 Y32.501
X34.209 Y32.495
X34.243 Y32.492
X34.275 Y32.482
X34.351 Y32.452
X34.384 Y32.434
X34.413 Y32.41
X34.459 Y32.36
X34.483 Y32.329
X34.499 Y32.294
X34.525 Y32.212
X34.532 Y32.185
X34.534 Y32.158
X34.501 Y10.417
X34.497 Y10.38
X34.485 Y10.344
X34.45 Y10.269
X34.43 Y10.236
X34.403 Y10.208
X34.346 Y10.161
X34.314 Y10.14
X34.278 Y10.127
X34.202 Y10.107
X34.159 Y10.101
X7.66 Y10.106
X7.619 Y10.11
X7.581 Y10.124
X7.505 Y10.162
X7.47 Y10.185
X7.442 Y10.216
X7.391 Y10.286
X7.377 Y10.308
X7.124 Y10.796
X6.994 Y10.905
X6.707 Y11.127
X6.144 Y11.251
X0 Y11.254
Y8.849
X0.007 Y8.85
X0.027 Y8.851
X2.754 Y8.852
X2.772 Y8.857
X2.785 Y8.87
X2.789 Y8.888
X2.784 Y8.906
X2.525 Y9.306
X1.179 Y10.303
X1.045 Y10.475
X1.031 Y10.486
X1.013 Y10.489
X0.996 Y10.482
G3 X1.201 Y9.887 Z-2.3 I0.205 J-0.262
G1 X6.035 Y9.888
X6.07 Y9.892
X6.222 Y9.927
X6.246 Y9.936
X6.268 Y9.949
X6.281 Y9.959
X6.308 Y9.988
X6.323 Y10.025
X6.325 Y10.065
X6.313 Y10.103
X6.3 Y10.124
X6.282 Y10.142
X6.271 Y10.151
X6.249 Y10.165
X6.224 Y10.174
X6.048 Y10.212
X6.014 Y10.216
X1.192 Y10.218
X1.143 Y10.21
X1.1 Y10.188
X1.065 Y10.153
X1.043 Y10.11
X1.035 Y10.061
Y10.044
X1.043 Y9.995
X1.065 Y9.952
X1.1 Y9.917
X1.143 Y9.895
X1.192 Y9.887
X1.201
G2 X1.588 Y9.629 I0 J-0.419
G3 X1.975 Y9.371 I0.387 J0.161
G1 X6.035 Y9.372
X6.11 Y9.377
X6.184 Y9.389
X6.365 Y9.431
X6.435 Y9.452
X6.501 Y9.483
X6.561 Y9.523
X6.622 Y9.57
X6.677 Y9.62
X6.725 Y9.678
X6.763 Y9.742
X6.8 Y9.817
X6.83 Y9.89
X6.848 Y9.966
X6.853 Y10.045
Y10.063
X6.847 Y10.14
X6.829 Y10.214
X6.799 Y10.286
X6.761 Y10.362
X6.724 Y10.423
X6.679 Y10.479
X6.627 Y10.527
X6.57 Y10.573
X6.507 Y10.616
X6.438 Y10.649
X6.365 Y10.671
X6.159 Y10.716
X6.087 Y10.728
X6.015 Y10.732
X0.732 Y10.734
G3 X0.519 Y10.522 I0 J-0.212
G1 Y9.583
G3 X0.732 Y9.371 I0.212 J0
G1 X1.975
G2 X2.365 Y9.112 I0 J-0.422
G3 X2.754 Y8.852 I0.389 J0.162
G1 X6.169 Y8.853
X6.701 Y8.974
X7.112 Y9.293
X7.175 Y9.406
X7.365 Y9.784
X7.374 Y9.838
X7.371 Y10.285
X7.365 Y10.318
X7.124 Y10.794
X6.714 Y11.122
X6.676 Y11.134
X6.144 Y11.251
X0 Y11.254
Y8.849
X0.007 Y8.85
X0.027 Y8.851
X2.754 Y8.852
X2.782 Y8.858
X2.805 Y8.875
X2.82 Y8.899
X2.824 Y8.928
X2.816 Y8.955
X2.797 Y8.977
X1.244 Y10.203 Z-2.5
X1.224 Y10.214
X1.201 Y10.218
X1.192
X1.143 Y10.21
X1.1 Y10.188
X1.065 Y10.153
X1.043 Y10.11
X1.035 Y10.061
Y10.044
X1.043 Y9.995
X1.065 Y9.952
X1.1 Y9.917
X1.143 Y9.895
X1.192 Y9.887
X6.035 Y9.889
X6.069 Y9.893
X6.222 Y9.927
X6.246 Y9.936
X6.268 Y9.949
X6.276 Y9.955
X6.295 Y9.974
X6.309 Y9.996
X6.319 Y10.022
X6.322 Y10.05
X6.318 Y10.085
X6.303 Y10.117
X6.278 Y10.144
X6.269 Y10.151
X6.247 Y10.165
X6.222 Y10.174
X6.047 Y10.212
X6.013 Y10.216
X1.201 Y10.218
G2 X0.876 Y10.396 I0 J0.386
G3 X0.519 Y10.293 I-0.163 J-0.104
G1 Y9.583
G3 X0.732 Y9.371 I0.212 J0
G1 X6.035 Y9.373
X6.11 Y9.377
X6.184 Y9.389
X6.365 Y9.431
X6.435 Y9.452
X6.5 Y9.483
X6.561 Y9.523
X6.616 Y9.566
X6.672 Y9.616
X6.719 Y9.675
X6.758 Y9.74
X6.786 Y9.796
X6.815 Y9.868
X6.833 Y9.943
X6.838 Y10.019
Y10.084
X6.833 Y10.16
X6.815 Y10.235
X6.786 Y10.306
X6.76 Y10.359
X6.723 Y10.422
X6.677 Y10.479
X6.623 Y10.529
X6.566 Y10.574
X6.504 Y10.616
X6.435 Y10.649
X6.363 Y10.671
X6.159 Y10.716
X6.087 Y10.728
X6.014 Y10.732
X0.732 Y10.734
G3 X0.519 Y10.522 I0 J-0.212
G1 Y10.293
G2 X0.26 Y9.903 I-0.422 J0
G3 X0 Y9.514 I0.162 J-0.389
G1 Y8.849
X0.007 Y8.85
X0.027 Y8.851
X6.169 Y8.853
X6.7 Y8.975
X7.089 Y9.275
X7.122 Y9.304
X7.358 Y9.78
Y10.323
X7.124 Y10.794
X6.705 Y11.127
X6.144 Y11.251
X0 Y11.254
Y9.514
X0.002 Y9.496 Z-2.495
X0.009 Y9.48 Z-2.491
X0.025 Y9.46 Z-2.465
X0.032 Y9.455 Z-2.43
G0 Z4
X20.995 Y32.468
G1 Z-1.616 F80
X21.011 Y32.461 Z-1.662
X21.05 Y32.445 Z-1.685
G3 X21.256 Y33.077 Z-1.835 I0.103 J0.316
X21.05 Y32.445 Z-1.985 I-0.103 J-0.316
X21.256 Y33.077 Z-2.135 I0.103 J0.316
X21.05 Y32.445 Z-2.285 I-0.103 J-0.316
X21.153 Y32.428 Z-2.3 I0.103 J0.316
G1 X21.159
X21.194 Y32.434
X21.225 Y32.449
X21.251 Y32.474
X21.268 Y32.505
X21.276 Y32.533
Y32.562
X21.27 Y32.591
X21.267 Y32.598
X21.25 Y32.629
X21.225 Y32.653
X21.193 Y32.669
X21.158 Y32.674
X16.513
X16.478 Y32.669
X16.446 Y32.653
X16.42 Y32.628
X16.404 Y32.596
X16.402 Y32.591
X16.395 Y32.551
X16.402 Y32.512
X16.404 Y32.506
X16.42 Y32.475
X16.446 Y32.45
X16.478 Y32.434
X16.513 Y32.428
X21.153
X21.199 Y32.422
X21.242 Y32.402
X21.276 Y32.37
X21.3 Y32.33
X21.321 Y32.3
X21.351 Y32.279
X21.387 Y32.271
X21.424 Y32.277
X21.455 Y32.296
X21.477 Y32.326
X21.493 Y32.367
X21.51 Y32.419
G3 X21.51 Y32.68 I-0.352 J0.131
G1 X21.492 Y32.735
G3 X21.235 Y32.931 I-0.257 J-0.072
G1 X16.432
G3 X16.178 Y32.735 I0 J-0.262
G1 X16.16 Y32.678
G3 X16.16 Y32.425 I0.353 J-0.126
G1 X16.178 Y32.367
G3 X16.432 Y32.172 I0.253 J0.067
G1 X21.234
G3 X21.477 Y32.326 I0 J0.27
G2 X21.996 Y32.571 I0.409 J-0.194
G3 X22.566 Y32.501 I0.569 J2.261
G1 X30.784 Y32.504
X30.849 Y32.525
X30.862 Y32.543
Y32.557
X30.849 Y32.576
X30.764 Y32.601
X22.301 Y32.605
X22.267 Y32.608
X22.235 Y32.618
X22.174 Y32.642
X22.145 Y32.657
X22.12 Y32.677
X22.075 Y32.719
X22.051 Y32.746
X22.034 Y32.778
X22.002 Y32.853
X21.991 Y32.886
X21.987 Y32.921
X21.985 Y33.451
X15.684
X15.68 Y32.911
X15.677 Y32.876
X15.666 Y32.842
X15.641 Y32.784
X15.622 Y32.752
X15.597 Y32.724
X15.534 Y32.667
X15.506 Y32.646
X15.474 Y32.632
X15.325 Y32.58
X15.313 Y32.564
X15.312 Y32.542
X15.324 Y32.525
X15.481 Y32.468
X15.511 Y32.454
X15.537 Y32.435
X15.592 Y32.386
X15.616 Y32.36
X15.635 Y32.328
X15.664 Y32.264
X15.676 Y32.228
X15.68 Y32.192
X15.684 Y31.651
X21.985
X21.987 Y32.177
X21.99 Y32.209
X21.998 Y32.24
X22.027 Y32.313
X22.046 Y32.349
X22.073 Y32.379
X22.133 Y32.435
X22.165 Y32.457
X22.2 Y32.472
X22.268 Y32.493
X22.319 Y32.501
X22.566
X22.593 Z-2.295
X22.615 Z-2.279
X22.63 Z-2.257
X22.636 Z-2.23
G0 Z4
X16.85 Y32.771
G1 Z-1.916 F80
X16.849 Y32.788 Z-1.962
X16.843 Y32.83 Z-1.985
G3 X16.193 Y32.692 Z-2.135 I-0.325 J-0.069
X16.843 Y32.83 Z-2.285 I0.325 J0.069
X16.193 Y32.692 Z-2.435 I-0.325 J-0.069
X16.518 Y32.428 Z-2.5 I0.325 J0.069
G1 X21.159
X21.194 Y32.434
X21.225 Y32.449
X21.251 Y32.474
X21.268 Y32.505
X21.276 Y32.533
Y32.562
X21.27 Y32.591
X21.267 Y32.598
X21.25 Y32.629
X21.225 Y32.653
X21.193 Y32.669
X21.158 Y32.674
X16.513
X16.478 Y32.669
X16.446 Y32.653
X16.42 Y32.628
X16.404 Y32.596
X16.402 Y32.591
X16.395 Y32.551
X16.402 Y32.512
X16.404 Y32.506
X16.42 Y32.475
X16.446 Y32.45
X16.478 Y32.434
X16.513 Y32.428
X16.518
X16.567 Y32.423
X16.612 Y32.406
X16.653 Y32.379
X16.686 Y32.343
X16.71 Y32.3
X16.734 Y32.258
X16.768 Y32.222
X16.808 Y32.195
X16.854 Y32.178
X16.903 Y32.172
X21.234
G3 X21.493 Y32.367 I0 J0.27
G1 X21.51 Y32.419
G3 X21.51 Y32.68 I-0.352 J0.131
G1 X21.492 Y32.735
G3 X21.235 Y32.931 I-0.257 J-0.072
G1 X16.432
G3 X16.178 Y32.735 I0 J-0.262
G1 X16.16 Y32.678
G3 X16.16 Y32.425 I0.353 J-0.126
G1 X16.178 Y32.367
G3 X16.432 Y32.172 I0.253 J0.067
G1 X16.903
G2 X17.293 Y31.912 I0 J-0.423
G3 X17.684 Y31.651 I0.39 J0.163
G1 X21.985
X21.987 Y32.177
X21.99 Y32.209
X21.998 Y32.24
X22.027 Y32.313
X22.046 Y32.349
X22.073 Y32.379
X22.133 Y32.435
X22.165 Y32.457
X22.2 Y32.472
X22.268 Y32.493
X22.319 Y32.501
X30.784 Y32.504
X30.849 Y32.525
X30.862 Y32.543
Y32.557
X30.849 Y32.576
X30.764 Y32.601
X22.301 Y32.605
X22.267 Y32.608
X22.235 Y32.618
X22.174 Y32.642
X22.145 Y32.657
X22.12 Y32.677
X22.075 Y32.719
X22.051 Y32.746
X22.034 Y32.778
X22.002 Y32.853
X21.991 Y32.886
X21.987 Y32.921
X21.985 Y33.451
X15.684
X15.68 Y32.911
X15.677 Y32.876
X15.666 Y32.842
X15.641 Y32.784
X15.622 Y32.752
X15.597 Y32.724
X15.534 Y32.667
X15.506 Y32.646
X15.474 Y32.632
X15.325 Y32.58
X15.313 Y32.565
X15.312 Y32.542
X15.324 Y32.526
X15.481 Y32.468
X15.511 Y32.454
X15.537 Y32.435
X15.592 Y32.386
X15.616 Y32.36
X15.635 Y32.328
X15.664 Y32.264
X15.676 Y32.228
X15.68 Y32.192
X15.684 Y31.651
X17.684
X17.701 Y31.654 Z-2.495
X17.717 Y31.66 Z-2.491
X17.737 Y31.676 Z-2.465
X17.743 Y31.684 Z-2.43
G0 Z4
X20.995 Y37.468
Z0.384
G1 X21.01 Y37.461 Z0.338 F80
X21.05 Y37.445 Z0.315
G3 X21.255 Y38.077 Z0.165 I0.103 J0.316
X21.05 Y37.445 Z0.015 I-0.103 J-0.316
X21.255 Y38.077 Z-0.135 I0.103 J0.316
X20.824 Y37.813 Z-0.218 I-0.103 J-0.316
X21.153 Y37.428 Z-0.3 I0.328 J-0.052
G1 X21.157
X21.192 Y37.434
X21.224 Y37.45
X21.25 Y37.474
X21.267 Y37.506
X21.269 Y37.512
X21.276 Y37.549
X21.271 Y37.587
X21.27 Y37.592
X21.254 Y37.625
X21.228 Y37.651
X21.195 Y37.668
X21.158 Y37.674
X16.512
X16.477 Y37.669
X16.445 Y37.653
X16.42 Y37.629
X16.403 Y37.597
X16.401 Y37.592
X16.394 Y37.551
X16.401 Y37.511
X16.403 Y37.506
X16.42 Y37.474
X16.445 Y37.45
X16.477 Y37.434
X16.512 Y37.428
X21.153
X21.199 Y37.422
X21.241 Y37.401
X21.276 Y37.37
X21.3 Y37.33
X21.32 Y37.299
X21.351 Y37.278
X21.387 Y37.27
X21.423 Y37.276
X21.455 Y37.296
X21.477 Y37.326
X21.492 Y37.367
X21.51 Y37.423
X21.526 Y37.482
X21.533 Y37.543
X21.529 Y37.604
X21.516 Y37.663
X21.509 Y37.687
X21.499 Y37.726
G3 X21.231 Y37.931 I-0.268 J-0.073
G1 X16.434
G3 X16.178 Y37.735 I0 J-0.266
G1 X16.16 Y37.68
G3 X16.16 Y37.422 I0.353 J-0.129
G1 X16.178 Y37.367
G3 X16.434 Y37.172 I0.256 J0.07
G1 X21.236
G3 X21.477 Y37.326 I0 J0.266
G1 X21.478 Y37.343 Z-0.295
X21.475 Y37.36 Z-0.291
X21.463 Y37.383 Z-0.265
X21.457 Y37.39 Z-0.23
G0 Z4
X1.076 Y5.21
Z0.384
G1 X1.068 Y5.195 Z0.338 F80
X1.052 Y5.155 Z0.315
G3 X1.685 Y4.95 Z0.165 I0.316 J-0.103
X1.052 Y5.155 Z0.015 I-0.316 J0.103
X1.685 Y4.95 Z-0.135 I0.316 J-0.103
X1.421 Y5.381 Z-0.218 I-0.316 J0.103
X1.036 Y5.052 Z-0.3 I-0.052 J-0.328
G1 Y5.043
X1.044 Y4.995
X1.066 Y4.951
X1.101 Y4.917
X1.144 Y4.895
X1.193 Y4.887
X6.039 Y4.888
X6.073 Y4.892
X6.226 Y4.926
X6.25 Y4.934
X6.272 Y4.947
X6.282 Y4.955
X6.3 Y4.973
X6.315 Y4.994
X6.328 Y5.03
X6.329 Y5.069
X6.317 Y5.105
X6.314 Y5.11
X6.3 Y5.131
X6.281 Y5.149
X6.276 Y5.153
X6.254 Y5.166
X6.23 Y5.174
X6.05 Y5.213
X6.017 Y5.216
X1.193 Y5.217
X1.144 Y5.21
X1.101 Y5.188
X1.066 Y5.153
X1.044 Y5.109
X1.036 Y5.061
Y5.052
G2 X0.859 Y4.727 I-0.386 J0
G3 X0.963 Y4.371 I0.104 J-0.163
G1 X6.039 Y4.372
X6.112 Y4.376
X6.184 Y4.388
X6.366 Y4.429
X6.435 Y4.449
X6.5 Y4.48
X6.561 Y4.519
X6.617 Y4.562
X6.672 Y4.61
X6.72 Y4.667
X6.759 Y4.729
X6.793 Y4.795
G3 X6.793 Y5.308 I-0.492 J0.256
G1 X6.758 Y5.375
X6.719 Y5.438
X6.671 Y5.494
X6.616 Y5.543
X6.564 Y5.582
X6.503 Y5.621
X6.437 Y5.652
X6.367 Y5.672
X6.159 Y5.717
X6.089 Y5.728
X6.018 Y5.732
X0.732 Y5.734
G3 X0.52 Y5.521 I0 J-0.212
G1 X0.521 Y4.583
G3 X0.733 Y4.371 I0.212 J0
G1 X0.963
G2 X1.352 Y4.111 I0 J-0.422
G3 X1.742 Y3.852 I0.389 J0.162
G1 X6.17 Y3.853
X6.697 Y3.97
X7.113 Y4.286
X7.396 Y4.828
X7.425 Y4.868
X7.471 Y4.916
X7.498 Y4.939
X7.53 Y4.956
X7.599 Y4.985
X7.632 Y4.995
X7.666 Y4.999
X36.219 Y5.001
Y37.601
X22.306 Y37.604
X22.272 Y37.607
X22.239 Y37.617
X22.166 Y37.647
X22.132 Y37.666
X22.102 Y37.693
X22.049 Y37.753
X22.027 Y37.786
X22.012 Y37.823
X21.991 Y37.899
X21.985 Y37.945
Y38.451
X15.684
X15.682 Y37.919
X15.678 Y37.882
X15.666 Y37.847
X15.632 Y37.771
X15.612 Y37.738
X15.586 Y37.71
X15.532 Y37.665
X15.506 Y37.646
X15.476 Y37.633
X15.322 Y37.579
X15.308 Y37.559
Y37.543
X15.32 Y37.525
X15.477 Y37.47
X15.506 Y37.457
X15.532 Y37.439
X15.584 Y37.395
X15.61 Y37.367
X15.63 Y37.334
X15.666 Y37.256
X15.678 Y37.221
X15.682 Y37.184
X15.684 Y36.651
X21.986
X21.988 Y37.184
X21.992 Y37.221
X22.003 Y37.255
X22.037 Y37.331
X22.059 Y37.367
X22.088 Y37.396
X22.152 Y37.447
X22.188 Y37.469
X22.227 Y37.482
X22.307 Y37.498
X22.342 Y37.501
X35.803 Y37.498
X35.84 Y37.494
X35.875 Y37.483
X35.947 Y37.45
X35.98 Y37.431
X36.008 Y37.404
X36.056 Y37.348
X36.077 Y37.318
X36.091 Y37.284
X36.111 Y37.216
X36.119 Y37.166
X36.115 Y5.413
X36.111 Y5.378
X36.101 Y5.345
X36.077 Y5.288
X36.062 Y5.259
X36.042 Y5.234
X35.995 Y5.186
X35.968 Y5.164
X35.937 Y5.147
X35.868 Y5.118
X35.835 Y5.108
X35.8 Y5.104
X7.666
X7.632 Y5.108
X7.599 Y5.118
X7.53 Y5.147
X7.498 Y5.164
X7.471 Y5.187
X7.425 Y5.234
X7.396 Y5.275
X7.118 Y5.806
X7.018 Y5.889
X6.697 Y6.132
X6.145 Y6.251
X0 Y6.253
X0.002 Y3.851
X1.742 Y3.852
G3 X2.047 Y4.316 Z-0.378 I0 J0.333
G1 X1.674 Y5.184 Z-0.491
G3 X1.036 Y5.052 Z-0.6 I-0.305 J-0.131
G1 Y5.043
X1.044 Y4.995
X1.066 Y4.951
X1.101 Y4.917
X1.144 Y4.895
X1.193 Y4.887
X6.038 Y4.888
X6.072 Y4.892
X6.226 Y4.926
X6.249 Y4.934
X6.271 Y4.947
X6.283 Y4.956
X6.301 Y4.974
X6.315 Y4.995
X6.328 Y5.031
Y5.069
X6.317 Y5.105
X6.314 Y5.11
X6.3 Y5.131
X6.281 Y5.149
X6.276 Y5.153
X6.254 Y5.166
X6.231 Y5.174
X6.05 Y5.213
X6.017 Y5.216
X1.193 Y5.217
X1.144 Y5.21
X1.101 Y5.188
X1.066 Y5.153
X1.044 Y5.109
X1.036 Y5.061
Y5.052
G2 X0.859 Y4.727 I-0.386 J0
G3 X0.963 Y4.371 I0.104 J-0.163
G1 X6.038 Y4.372
X6.112 Y4.376
X6.184 Y4.388
X6.366 Y4.429
X6.435 Y4.45
X6.5 Y4.48
X6.56 Y4.519
X6.618 Y4.563
X6.673 Y4.612
X6.721 Y4.668
X6.759 Y4.731
X6.793 Y4.795
G3 X6.793 Y5.308 I-0.492 J0.256
G1 X6.758 Y5.374
X6.719 Y5.438
X6.671 Y5.494
X6.615 Y5.543
X6.564 Y5.582
X6.503 Y5.621
X6.437 Y5.651
X6.368 Y5.672
X6.159 Y5.717
X6.089 Y5.728
X6.017 Y5.732
X0.732 Y5.734
G3 X0.52 Y5.521 I0 J-0.212
G1 X0.521 Y4.583
G3 X0.733 Y4.371 I0.212 J0
G1 X0.963
X0.98 Y4.373 Z-0.595
X0.996 Y4.38 Z-0.591
X1.016 Y4.396 Z-0.565
X1.022 Y4.403 Z-0.53
G0 Z4
X20.995 Y37.468
Z0.084
G1 X21.01 Y37.461 Z0.038 F80
X21.05 Y37.445 Z0.015
G3 X21.255 Y38.077 Z-0.135 I0.103 J0.316
X21.05 Y37.445 Z-0.285 I-0.103 J-0.316
X21.255 Y38.077 Z-0.435 I0.103 J0.316
X20.824 Y37.813 Z-0.518 I-0.103 J-0.316
X21.153 Y37.428 Z-0.6 I0.328 J-0.052
G1 X21.157
X21.192 Y37.434
X21.224 Y37.45
X21.25 Y37.474
X21.267 Y37.506
X21.269 Y37.512
X21.276 Y37.549
X21.271 Y37.587
X21.27 Y37.592
X21.254 Y37.625
X21.228 Y37.651
X21.195 Y37.668
X21.158 Y37.674
X16.512
X16.477 Y37.669
X16.445 Y37.653
X16.42 Y37.629
X16.403 Y37.597
X16.401 Y37.592
X16.394 Y37.551
X16.401 Y37.511
X16.403 Y37.506
X16.42 Y37.474
X16.445 Y37.45
X16.477 Y37.434
X16.512 Y37.428
X21.153
X21.199 Y37.422
X21.241 Y37.401
X21.276 Y37.37
X21.3 Y37.33
X21.32 Y37.299
X21.351 Y37.278
X21.387 Y37.27
X21.423 Y37.276
X21.455 Y37.296
X21.477 Y37.326
X21.492 Y37.367
X21.51 Y37.423
X21.526 Y37.482
X21.533 Y37.543
X21.529 Y37.604
X21.516 Y37.663
X21.509 Y37.687
X21.499 Y37.726
G3 X21.231 Y37.931 I-0.268 J-0.073
G1 X16.434
G3 X16.178 Y37.735 I0 J-0.266
G1 X16.16 Y37.68
G3 X16.16 Y37.422 I0.353 J-0.129
G1 X16.178 Y37.367
G3 X16.434 Y37.172 I0.256 J0.07
G1 X21.236
G3 X21.477 Y37.326 I0 J0.266
G2 X21.997 Y37.573 I0.41 J-0.191
G3 X22.569 Y37.501 I0.572 J2.256
G1 X35.803 Y37.498
X35.84 Y37.494
X35.875 Y37.483
X35.947 Y37.45
X35.98 Y37.431
X36.008 Y37.404
X36.056 Y37.348
X36.077 Y37.318
X36.091 Y37.284
X36.111 Y37.216
X36.119 Y37.166
X36.115 Y5.413
X36.111 Y5.378
X36.101 Y5.345
X36.077 Y5.288
X36.062 Y5.259
X36.042 Y5.234
X35.995 Y5.186
X35.968 Y5.164
X35.937 Y5.147
X35.868 Y5.118
X35.835 Y5.108
X35.8 Y5.104
X7.666
X7.632 Y5.108
X7.599 Y5.118
X7.53 Y5.147
X7.498 Y5.164
X7.471 Y5.187
X7.425 Y5.234
X7.396 Y5.275
X7.118 Y5.806
X7.018 Y5.889
X6.697 Y6.132
X6.145 Y6.251
X0 Y6.253
X0.002 Y3.851
X6.169 Y3.853
X6.697 Y3.971
X7.114 Y4.288
X7.396 Y4.828
X7.425 Y4.868
X7.471 Y4.916
X7.498 Y4.939
X7.53 Y4.956
X7.599 Y4.985
X7.632 Y4.995
X7.666 Y4.999
X36.219 Y5.001
Y37.601
X22.306 Y37.604
X22.272 Y37.607
X22.239 Y37.617
X22.166 Y37.647
X22.132 Y37.666
X22.102 Y37.693
X22.049 Y37.753
X22.027 Y37.786
X22.012 Y37.823
X21.991 Y37.899
X21.985 Y37.945
Y38.451
X15.684
X15.682 Y37.919
X15.678 Y37.882
X15.666 Y37.847
X15.632 Y37.771
X15.612 Y37.738
X15.586 Y37.71
X15.532 Y37.665
X15.506 Y37.646
X15.476 Y37.633
X15.322 Y37.579
X15.308 Y37.559
Y37.543
X15.321 Y37.524
X15.477 Y37.47
X15.506 Y37.457
X15.532 Y37.439
X15.584 Y37.395
X15.61 Y37.367
X15.63 Y37.334
X15.666 Y37.256
X15.678 Y37.221
X15.682 Y37.184
X15.684 Y36.651
X21.986
X21.988 Y37.184
X21.992 Y37.221
X22.003 Y37.255
X22.037 Y37.331
X22.059 Y37.367
X22.088 Y37.396
X22.152 Y37.447
X22.188 Y37.469
X22.227 Y37.482
X22.307 Y37.498
X22.342 Y37.501
X22.569
X22.595 Y37.508 Z-0.605
X22.614 Y37.528 Z-0.609
X22.62 Y37.554 Z-0.614
X22.613 Y37.58 Z-0.619
X22.593 Y37.598 Z-0.624
X22.566 Y37.604 Z-0.628
X21.15 Y37.531 Z-0.873
X21.125 Y37.523 Z-0.877
X21.108 Y37.504 Z-0.882
X21.102 Y37.478 Z-0.886
X21.109 Y37.453 Z-0.891
X21.128 Y37.435 Z-0.895
X21.153 Y37.428 Z-0.9
X21.157
X21.192 Y37.434
X21.224 Y37.45
X21.25 Y37.474
X21.267 Y37.506
X21.269 Y37.512
X21.276 Y37.549
X21.271 Y37.587
X21.27 Y37.592
X21.254 Y37.625
X21.228 Y37.651
X21.195 Y37.668
X21.158 Y37.674
X16.512
X16.477 Y37.669
X16.445 Y37.653
X16.42 Y37.629
X16.403 Y37.597
X16.401 Y37.592
X16.394 Y37.551
X16.401 Y37.511
X16.403 Y37.506
X16.42 Y37.474
X16.445 Y37.45
X16.477 Y37.434
X16.512 Y37.428
X21.153
X21.199 Y37.422
X21.241 Y37.401
X21.276 Y37.37
X21.3 Y37.33
X21.32 Y37.299
X21.351 Y37.278
X21.387 Y37.27
X21.423 Y37.276
X21.455 Y37.296
X21.477 Y37.326
X21.492 Y37.367
X21.51 Y37.423
X21.526 Y37.482
X21.533 Y37.543
X21.529 Y37.604
X21.516 Y37.663
X21.509 Y37.687
X21.499 Y37.726
G3 X21.231 Y37.931 I-0.268 J-0.073
G1 X16.434
G3 X16.178 Y37.735 I0 J-0.266
G1 X16.16 Y37.68
G3 X16.16 Y37.422 I0.353 J-0.129
G1 X16.178 Y37.367
G3 X16.434 Y37.172 I0.256 J0.07
G1 X21.236
G3 X21.477 Y37.326 I0 J0.266
G1 X21.478 Y37.343 Z-0.895
X21.475 Y37.36 Z-0.891
X21.463 Y37.383 Z-0.865
X21.457 Y37.39 Z-0.83
G0 Z4
X1.076 Y5.21
Z1.3
G1 Z-0.216 F80
X1.068 Y5.195 Z-0.262
X1.052 Y5.155 Z-0.285
G3 X1.685 Y4.95 Z-0.435 I0.316 J-0.103
X1.052 Y5.155 Z-0.585 I-0.316 J0.103
X1.685 Y4.95 Z-0.735 I0.316 J-0.103
X1.421 Y5.381 Z-0.817 I-0.316 J0.103
X1.036 Y5.052 Z-0.9 I-0.052 J-0.328
G1 Y5.043
X1.044 Y4.995
X1.066 Y4.951
X1.101 Y4.917
X1.144 Y4.895
X1.193 Y4.887
X6.037 Y4.888
X6.072 Y4.892
X6.225 Y4.926
X6.248 Y4.934
X6.27 Y4.947
X6.283 Y4.958
X6.302 Y4.975
X6.316 Y4.997
X6.328 Y5.032
Y5.07
X6.317 Y5.105
X6.303 Y5.126
X6.285 Y5.143
X6.274 Y5.152
X6.252 Y5.166
X6.227 Y5.174
X6.05 Y5.213
X6.016 Y5.216
X1.193 Y5.217
X1.144 Y5.21
X1.101 Y5.188
X1.066 Y5.153
X1.044 Y5.109
X1.036 Y5.061
Y5.052
G2 X0.859 Y4.727 I-0.386 J0
G3 X0.963 Y4.371 I0.104 J-0.163
G1 X6.038 Y4.372
X6.111 Y4.376
X6.184 Y4.389
X6.365 Y4.429
X6.434 Y4.45
X6.499 Y4.48
X6.559 Y4.52
X6.619 Y4.565
X6.674 Y4.614
X6.721 Y4.67
X6.76 Y4.732
X6.793 Y4.795
G3 X6.793 Y5.308 I-0.492 J0.256
G1 X6.761 Y5.369
X6.724 Y5.43
X6.678 Y5.484
X6.626 Y5.532
X6.569 Y5.576
X6.507 Y5.618
X6.438 Y5.65
X6.366 Y5.672
X6.159 Y5.717
X6.088 Y5.728
X6.017 Y5.732
X0.732 Y5.734
G3 X0.52 Y5.521 I0 J-0.212
G1 X0.521 Y4.583
G3 X0.733 Y4.371 I0.212 J0
G1 X0.963
G2 X1.352 Y4.111 I0 J-0.422
G3 X1.742 Y3.852 I0.389 J0.162
G1 X6.169 Y3.853
X6.696 Y3.971
X7.115 Y4.29
X7.396 Y4.828
X7.425 Y4.868
X7.471 Y4.916
X7.498 Y4.939
X7.53 Y4.956
X7.599 Y4.985
X7.632 Y4.995
X7.666 Y4.999
X36.219 Y5.001
Y37.601
X22.306 Y37.604
X22.272 Y37.607
X22.239 Y37.617
X22.166 Y37.647
X22.132 Y37.666
X22.102 Y37.693
X22.049 Y37.753
X22.027 Y37.786
X22.012 Y37.823
X21.991 Y37.899
X21.985 Y37.945
Y38.451
X15.684
X15.682 Y37.919
X15.678 Y37.882
X15.666 Y37.847
X15.632 Y37.771
X15.612 Y37.738
X15.586 Y37.71
X15.532 Y37.665
X15.506 Y37.646
X15.476 Y37.633
X15.323 Y37.579
X15.308 Y37.559
Y37.543
X15.321 Y37.524
X15.477 Y37.47
X15.506 Y37.457
X15.532 Y37.439
X15.584 Y37.395
X15.61 Y37.367
X15.63 Y37.334
X15.666 Y37.256
X15.678 Y37.221
X15.682 Y37.184
X15.684 Y36.651
X21.986
X21.988 Y37.184
X21.992 Y37.221
X22.003 Y37.255
X22.037 Y37.331
X22.059 Y37.367
X22.088 Y37.396
X22.152 Y37.447
X22.188 Y37.469
X22.227 Y37.482
X22.307 Y37.498
X22.342 Y37.501
X35.803 Y37.498
X35.84 Y37.494
X35.875 Y37.483
X35.947 Y37.45
X35.98 Y37.431
X36.008 Y37.404
X36.056 Y37.348
X36.077 Y37.318
X36.091 Y37.284
X36.111 Y37.216
X36.119 Y37.166
X36.115 Y5.413
X36.111 Y5.378
X36.101 Y5.345
X36.077 Y5.288
X36.062 Y5.259
X36.042 Y5.234
X35.995 Y5.186
X35.968 Y5.164
X35.937 Y5.147
X35.868 Y5.118
X35.835 Y5.108
X35.8 Y5.104
X7.666
X7.632 Y5.108
X7.599 Y5.118
X7.53 Y5.147
X7.498 Y5.164
X7.471 Y5.187
X7.425 Y5.234
X7.396 Y5.275
X7.12 Y5.804
X6.706 Y6.129
X6.145 Y6.251
X0 Y6.253
X0.002 Y3.851
X1.742 Y3.852
G3 X2.047 Y4.316 Z-0.978 I0 J0.333
G1 X1.674 Y5.184 Z-1.091
G3 X1.036 Y5.052 Z-1.2 I-0.305 J-0.131
G1 Y5.043
X1.044 Y4.995
X1.066 Y4.951
X1.101 Y4.917
X1.144 Y4.895
X1.193 Y4.887
X6.037 Y4.888
X6.071 Y4.892
X6.224 Y4.926
X6.247 Y4.934
X6.269 Y4.947
X6.284 Y4.959
X6.311 Y4.989
X6.327 Y5.026
X6.329 Y5.067
X6.316 Y5.105
X6.303 Y5.126
X6.285 Y5.143
X6.274 Y5.152
X6.252 Y5.166
X6.227 Y5.174
X6.05 Y5.213
X6.016 Y5.216
X1.193 Y5.217
X1.144 Y5.21
X1.101 Y5.188
X1.066 Y5.153
X1.044 Y5.109
X1.036 Y5.061
Y5.052
G2 X0.859 Y4.727 I-0.386 J0
G3 X0.963 Y4.371 I0.104 J-0.163
G1 X6.037 Y4.372
X6.111 Y4.376
X6.184 Y4.389
X6.365 Y4.429
X6.434 Y4.45
X6.499 Y4.48
X6.559 Y4.52
X6.62 Y4.567
X6.675 Y4.615
X6.722 Y4.671
X6.761 Y4.734
X6.793 Y4.795
G3 X6.793 Y5.308 I-0.492 J0.256
G1 X6.761 Y5.369
X6.724 Y5.43
X6.678 Y5.484
X6.626 Y5.532
X6.569 Y5.576
X6.507 Y5.618
X6.438 Y5.65
X6.366 Y5.672
X6.159 Y5.717
X6.088 Y5.728
X6.017 Y5.732
X0.732 Y5.734
G3 X0.52 Y5.521 I0 J-0.212
G1 X0.521 Y4.583
G3 X0.733 Y4.371 I0.212 J0
G1 X0.963
X0.98 Y4.373 Z-1.195
X0.996 Y4.38 Z-1.191
X1.016 Y4.396 Z-1.165
X1.022 Y4.403 Z-1.13
G0 Z4
X20.995 Y37.468
G1 Z-0.516 F80
X21.01 Y37.461 Z-0.562
X21.05 Y37.445 Z-0.585
G3 X21.255 Y38.077 Z-0.735 I0.103 J0.316
X21.05 Y37.445 Z-0.885 I-0.103 J-0.316
X21.255 Y38.077 Z-1.035 I0.103 J0.316
X20.824 Y37.813 Z-1.118 I-0.103 J-0.316
X21.153 Y37.428 Z-1.2 I0.328 J-0.052
G1 X21.157
X21.192 Y37.434
X21.224 Y37.45
X21.25 Y37.474
X21.267 Y37.506
X21.269 Y37.512
X21.276 Y37.549
X21.271 Y37.587
X21.27 Y37.592
X21.254 Y37.625
X21.228 Y37.651
X21.195 Y37.668
X21.158 Y37.674
X16.512
X16.477 Y37.669
X16.445 Y37.653
X16.42 Y37.629
X16.403 Y37.597
X16.401 Y37.592
X16.394 Y37.551
X16.401 Y37.511
X16.403 Y37.506
X16.42 Y37.474
X16.445 Y37.45
X16.477 Y37.434
X16.512 Y37.428
X21.153
X21.199 Y37.422
X21.241 Y37.401
X21.276 Y37.37
X21.3 Y37.33
X21.32 Y37.299
X21.351 Y37.278
X21.387 Y37.27
X21.423 Y37.276
X21.455 Y37.296
X21.477 Y37.326
X21.492 Y37.367
X21.51 Y37.423
X21.526 Y37.482
X21.533 Y37.543
X21.529 Y37.604
X21.516 Y37.663
X21.509 Y37.687
X21.499 Y37.726
G3 X21.231 Y37.931 I-0.268 J-0.073
G1 X16.434
G3 X16.178 Y37.735 I0 J-0.266
G1 X16.16 Y37.68
G3 X16.16 Y37.422 I0.353 J-0.129
G1 X16.178 Y37.367
G3 X16.434 Y37.172 I0.256 J0.07
G1 X21.236
G3 X21.477 Y37.326 I0 J0.266
G2 X21.997 Y37.573 I0.41 J-0.191
G3 X22.569 Y37.501 I0.572 J2.256
G1 X35.803 Y37.498
X35.84 Y37.494
X35.875 Y37.483
X35.947 Y37.45
X35.98 Y37.431
X36.008 Y37.404
X36.056 Y37.348
X36.077 Y37.318
X36.091 Y37.284
X36.111 Y37.216
X36.119 Y37.166
X36.115 Y5.413
X36.111 Y5.378
X36.101 Y5.345
X36.077 Y5.288
X36.062 Y5.259
X36.042 Y5.234
X35.995 Y5.186
X35.968 Y5.164
X35.937 Y5.147
X35.868 Y5.118
X35.835 Y5.108
X35.8 Y5.104
X7.666
X7.632 Y5.108
X7.599 Y5.118
X7.53 Y5.147
X7.498 Y5.164
X7.471 Y5.187
X7.425 Y5.234
X7.396 Y5.275
X7.12 Y5.804
X6.713 Y6.123
X6.675 Y6.136
X6.145 Y6.251
X0 Y6.253
X0.002 Y3.851
X6.169 Y3.853
X6.696 Y3.972
X7.116 Y4.292
X7.396 Y4.828
X7.425 Y4.868
X7.471 Y4.916
X7.498 Y4.939
X7.53 Y4.956
X7.599 Y4.985
X7.632 Y4.995
X7.666 Y4.999
X36.219 Y5.001
Y37.601
X22.306 Y37.604
X22.272 Y37.607
X22.239 Y37.617
X22.166 Y37.647
X22.132 Y37.666
X22.102 Y37.693
X22.049 Y37.753
X22.027 Y37.786
X22.012 Y37.823
X21.991 Y37.899
X21.985 Y37.945
Y38.451
X15.684
X15.682 Y37.919
X15.678 Y37.882
X15.666 Y37.847
X15.632 Y37.771
X15.612 Y37.738
X15.586 Y37.71
X15.532 Y37.665
X15.506 Y37.646
X15.476 Y37.633
X15.323 Y37.579
X15.308 Y37.559
Y37.542
X15.321 Y37.524
X15.477 Y37.47
X15.506 Y37.457
X15.532 Y37.439
X15.584 Y37.395
X15.61 Y37.367
X15.63 Y37.334
X15.666 Y37.256
X15.678 Y37.221
X15.682 Y37.184
X15.684 Y36.651
X21.986
X21.988 Y37.184
X21.992 Y37.221
X22.003 Y37.255
X22.037 Y37.331
X22.059 Y37.367
X22.088 Y37.396
X22.152 Y37.447
X22.188 Y37.469
X22.227 Y37.482
X22.307 Y37.498
X22.342 Y37.501
X22.569
X22.595 Y37.508 Z-1.205
X22.614 Y37.528 Z-1.209
X22.62 Y37.554 Z-1.214
X22.613 Y37.58 Z-1.219
X22.593 Y37.598 Z-1.224
X22.566 Y37.604 Z-1.228
X21.15 Y37.531 Z-1.473
X21.125 Y37.523 Z-1.477
X21.108 Y37.504 Z-1.482
X21.102 Y37.478 Z-1.486
X21.109 Y37.453 Z-1.491
X21.128 Y37.435 Z-1.495
X21.153 Y37.428 Z-1.5
X21.157
X21.192 Y37.434
X21.224 Y37.45
X21.25 Y37.474
X21.267 Y37.506
X21.269 Y37.512
X21.276 Y37.549
X21.271 Y37.587
X21.27 Y37.592
X21.254 Y37.625
X21.228 Y37.651
X21.195 Y37.668
X21.158 Y37.674
X16.512
X16.477 Y37.669
X16.445 Y37.653
X16.42 Y37.629
X16.403 Y37.597
X16.401 Y37.592
X16.394 Y37.551
X16.401 Y37.511
X16.403 Y37.506
X16.42 Y37.474
X16.445 Y37.45
X16.477 Y37.434
X16.512 Y37.428
X21.153
X21.199 Y37.422
X21.241 Y37.401
X21.276 Y37.37
X21.3 Y37.33
X21.32 Y37.299
X21.351 Y37.278
X21.387 Y37.27
X21.423 Y37.276
X21.455 Y37.296
X21.477 Y37.326
X21.492 Y37.367
X21.51 Y37.423
X21.526 Y37.482
X21.533 Y37.543
X21.529 Y37.604
X21.516 Y37.663
X21.509 Y37.687
X21.499 Y37.726
G3 X21.231 Y37.931 I-0.268 J-0.073
G1 X16.434
G3 X16.178 Y37.735 I0 J-0.266
G1 X16.16 Y37.68
G3 X16.16 Y37.422 I0.353 J-0.129
G1 X16.178 Y37.367
G3 X16.434 Y37.172 I0.256 J0.07
G1 X21.236
G3 X21.477 Y37.326 I0 J0.266
G1 X21.478 Y37.343 Z-1.495
X21.475 Y37.36 Z-1.491
X21.463 Y37.383 Z-1.465
X21.457 Y37.39 Z-1.43
G0 Z4
X1.076 Y5.21
G1 Z-0.816 F80
X1.068 Y5.195 Z-0.862
X1.052 Y5.155 Z-0.885
G3 X1.685 Y4.95 Z-1.035 I0.316 J-0.103
X1.052 Y5.155 Z-1.185 I-0.316 J0.103
X1.685 Y4.95 Z-1.335 I0.316 J-0.103
X1.421 Y5.381 Z-1.418 I-0.316 J0.103
X1.036 Y5.052 Z-1.5 I-0.052 J-0.328
G1 Y5.043
X1.044 Y4.995
X1.066 Y4.951
X1.101 Y4.917
X1.144 Y4.895
X1.193 Y4.887
X6.036 Y4.888
X6.071 Y4.892
X6.223 Y4.926
X6.246 Y4.935
X6.268 Y4.948
X6.283 Y4.96
X6.312 Y4.991
X6.327 Y5.03
Y5.072
X6.313 Y5.112
X6.285 Y5.144
X6.275 Y5.151
X6.253 Y5.165
X6.228 Y5.174
X6.049 Y5.213
X6.016 Y5.216
X1.193 Y5.217
X1.144 Y5.21
X1.101 Y5.188
X1.066 Y5.153
X1.044 Y5.109
X1.036 Y5.061
Y5.052
G2 X0.859 Y4.727 I-0.386 J0
G3 X0.963 Y4.371 I0.104 J-0.163
G1 X6.037 Y4.372
X6.111 Y4.377
X6.184 Y4.389
X6.364 Y4.429
X6.433 Y4.45
X6.498 Y4.481
X6.558 Y4.52
X6.621 Y4.569
X6.676 Y4.617
X6.723 Y4.673
X6.762 Y4.735
X6.793 Y4.795
G3 X6.793 Y5.308 I-0.492 J0.256
G1 X6.761 Y5.369
X6.724 Y5.43
X6.678 Y5.484
X6.626 Y5.532
X6.57 Y5.576
X6.507 Y5.618
X6.439 Y5.65
X6.367 Y5.671
X6.159 Y5.717
X6.088 Y5.728
X6.016 Y5.732
X0.732 Y5.734
G3 X0.52 Y5.521 I0 J-0.212
G1 X0.521 Y4.583
G3 X0.733 Y4.371 I0.212 J0
G1 X0.963
G2 X1.352 Y4.111 I0 J-0.422
G3 X1.742 Y3.852 I0.389 J0.162
G1 X6.169 Y3.853
X6.696 Y3.972
X7.117 Y4.294
X7.396 Y4.828
X7.425 Y4.868
X7.471 Y4.916
X7.498 Y4.939
X7.53 Y4.956
X7.599 Y4.985
X7.632 Y4.995
X7.666 Y4.999
X36.219 Y5.001
Y37.601
X22.306 Y37.604
X22.272 Y37.607
X22.239 Y37.617
X22.166 Y37.647
X22.132 Y37.666
X22.102 Y37.693
X22.049 Y37.753
X22.027 Y37.786
X22.012 Y37.823
X21.991 Y37.899
X21.985 Y37.945
Y38.451
X15.684
X15.682 Y37.919
X15.678 Y37.882
X15.666 Y37.847
X15.632 Y37.771
X15.612 Y37.738
X15.586 Y37.71
X15.532 Y37.665
X15.506 Y37.646
X15.476 Y37.633
X15.323 Y37.579
X15.309 Y37.559
Y37.542
X15.321 Y37.524
X15.477 Y37.47
X15.506 Y37.457
X15.532 Y37.439
X15.584 Y37.395
X15.61 Y37.367
X15.63 Y37.334
X15.666 Y37.256
X15.678 Y37.221
X15.682 Y37.184
X15.684 Y36.651
X21.986
X21.988 Y37.184
X21.992 Y37.221
X22.003 Y37.255
X22.037 Y37.331
X22.059 Y37.367
X22.088 Y37.396
X22.152 Y37.447
X22.188 Y37.469
X22.227 Y37.482
X22.307 Y37.498
X22.342 Y37.501
X35.803 Y37.498
X35.84 Y37.494
X35.875 Y37.483
X35.947 Y37.45
X35.98 Y37.431
X36.008 Y37.404
X36.056 Y37.348
X36.077 Y37.318
X36.091 Y37.284
X36.111 Y37.216
X36.119 Y37.166
X36.115 Y5.413
X36.111 Y5.378
X36.101 Y5.345
X36.077 Y5.288
X36.062 Y5.259
X36.042 Y5.234
X35.995 Y5.186
X35.968 Y5.164
X35.937 Y5.147
X35.868 Y5.118
X35.835 Y5.108
X35.8 Y5.104
X7.666
X7.632 Y5.108
X7.599 Y5.118
X7.53 Y5.147
X7.498 Y5.164
X7.471 Y5.187
X7.425 Y5.234
X7.396 Y5.275
X7.12 Y5.804
X6.714 Y6.123
X6.675 Y6.135
X6.145 Y6.251
X0 Y6.253
X0.002 Y3.851
X1.742 Y3.852
G3 X2.047 Y4.316 Z-1.578 I0 J0.333
G1 X1.674 Y5.184 Z-1.691
G3 X1.036 Y5.052 Z-1.8 I-0.305 J-0.131
G1 Y5.043
X1.044 Y4.995
X1.066 Y4.951
X1.101 Y4.917
X1.144 Y4.895
X1.193 Y4.887
X6.036 Y4.888
X6.07 Y4.892
X6.23 Y4.928
X6.254 Y4.937
X6.276 Y4.951
X6.284 Y4.957
X6.301 Y4.974
X6.315 Y4.994
X6.328 Y5.03
X6.329 Y5.069
X6.317 Y5.105
X6.303 Y5.126
X6.285 Y5.143
X6.275 Y5.151
X6.253 Y5.165
X6.228 Y5.173
X6.049 Y5.213
X6.015 Y5.216
X1.193 Y5.217
X1.144 Y5.21
X1.101 Y5.188
X1.066 Y5.153
X1.044 Y5.109
X1.036 Y5.061
Y5.052
G2 X0.859 Y4.727 I-0.386 J0
G3 X0.963 Y4.371 I0.104 J-0.163
G1 X6.036 Y4.372
X6.111 Y4.377
X6.184 Y4.389
X6.373 Y4.432
X6.444 Y4.454
X6.512 Y4.486
X6.574 Y4.528
X6.626 Y4.57
X6.678 Y4.617
X6.723 Y4.671
X6.759 Y4.731
X6.793 Y4.795
G3 X6.793 Y5.308 I-0.492 J0.256
G1 X6.761 Y5.369
X6.724 Y5.43
X6.678 Y5.484
X6.626 Y5.532
X6.57 Y5.575
X6.508 Y5.617
X6.44 Y5.649
X6.368 Y5.671
X6.159 Y5.717
X6.088 Y5.728
X6.016 Y5.732
X0.732 Y5.734
G3 X0.52 Y5.521 I0 J-0.212
G1 X0.521 Y4.583
G3 X0.733 Y4.371 I0.212 J0
G1 X0.963
X0.98 Y4.373 Z-1.795
X0.996 Y4.38 Z-1.791
X1.016 Y4.396 Z-1.765
X1.022 Y4.403 Z-1.73
G0 Z4
X20.995 Y37.468
G1 Z-1.116 F80
X21.01 Y37.461 Z-1.162
X21.05 Y37.445 Z-1.185
G3 X21.255 Y38.077 Z-1.335 I0.103 J0.316
X21.05 Y37.445 Z-1.485 I-0.103 J-0.316
X21.255 Y38.077 Z-1.635 I0.103 J0.316
X20.824 Y37.813 Z-1.718 I-0.103 J-0.316
X21.153 Y37.428 Z-1.8 I0.328 J-0.052
G1 X21.157
X21.192 Y37.434
X21.224 Y37.45
X21.25 Y37.474
X21.267 Y37.506
X21.269 Y37.512
X21.276 Y37.549
X21.271 Y37.587
X21.27 Y37.592
X21.254 Y37.625
X21.228 Y37.651
X21.195 Y37.668
X21.158 Y37.674
X16.512
X16.477 Y37.669
X16.445 Y37.653
X16.42 Y37.629
X16.403 Y37.597
X16.401 Y37.592
X16.394 Y37.551
X16.401 Y37.511
X16.403 Y37.506
X16.42 Y37.474
X16.445 Y37.45
X16.477 Y37.434
X16.512 Y37.428
X21.153
X21.199 Y37.422
X21.241 Y37.401
X21.276 Y37.37
X21.3 Y37.33
X21.32 Y37.299
X21.351 Y37.278
X21.387 Y37.27
X21.423 Y37.276
X21.455 Y37.296
X21.477 Y37.326
X21.492 Y37.367
X21.51 Y37.423
X21.526 Y37.482
X21.533 Y37.543
X21.529 Y37.604
X21.516 Y37.663
X21.509 Y37.687
X21.499 Y37.726
G3 X21.231 Y37.931 I-0.268 J-0.073
G1 X16.434
G3 X16.178 Y37.735 I0 J-0.266
G1 X16.16 Y37.68
G3 X16.16 Y37.422 I0.353 J-0.129
G1 X16.178 Y37.367
G3 X16.434 Y37.172 I0.256 J0.07
G1 X21.236
G3 X21.477 Y37.326 I0 J0.266
G2 X21.997 Y37.573 I0.41 J-0.191
G3 X22.569 Y37.501 I0.572 J2.256
G1 X35.803 Y37.498
X35.84 Y37.494
X35.875 Y37.483
X35.947 Y37.45
X35.98 Y37.431
X36.008 Y37.404
X36.056 Y37.348
X36.077 Y37.318
X36.091 Y37.284
X36.111 Y37.216
X36.119 Y37.166
X36.115 Y5.413
X36.111 Y5.378
X36.101 Y5.345
X36.077 Y5.288
X36.062 Y5.259
X36.042 Y5.234
X35.995 Y5.186
X35.968 Y5.164
X35.937 Y5.147
X35.868 Y5.118
X35.835 Y5.108
X35.8 Y5.104
X7.666
X7.632 Y5.108
X7.599 Y5.118
X7.53 Y5.147
X7.498 Y5.164
X7.471 Y5.187
X7.425 Y5.234
X7.396 Y5.275
X7.12 Y5.804
X6.714 Y6.123
X6.676 Y6.135
X6.144 Y6.251
X0 Y6.253
X0.002 Y3.851
X6.169 Y3.853
X6.698 Y3.973
X6.837 Y4.074
X7.119 Y4.298
X7.396 Y4.828
X7.425 Y4.868
X7.471 Y4.916
X7.498 Y4.939
X7.53 Y4.956
X7.599 Y4.985
X7.632 Y4.995
X7.666 Y4.999
X36.219 Y5.001
Y37.601
X22.306 Y37.604
X22.272 Y37.607
X22.239 Y37.617
X22.166 Y37.647
X22.132 Y37.666
X22.102 Y37.693
X22.049 Y37.753
X22.027 Y37.786
X22.012 Y37.823
X21.991 Y37.899
X21.985 Y37.945
Y38.451
X15.684
X15.682 Y37.919
X15.678 Y37.882
X15.666 Y37.847
X15.632 Y37.771
X15.612 Y37.738
X15.586 Y37.71
X15.532 Y37.665
X15.506 Y37.646
X15.477 Y37.633
X15.323 Y37.579
X15.309 Y37.56
Y37.542
X15.322 Y37.524
X15.477 Y37.47
X15.506 Y37.457
X15.532 Y37.439
X15.584 Y37.395
X15.61 Y37.367
X15.63 Y37.334
X15.666 Y37.256
X15.678 Y37.221
X15.682 Y37.184
X15.684 Y36.651
X21.986
X21.988 Y37.184
X21.992 Y37.221
X22.003 Y37.255
X22.037 Y37.331
X22.059 Y37.367
X22.088 Y37.396
X22.152 Y37.447
X22.188 Y37.469
X22.227 Y37.482
X22.307 Y37.498
X22.342 Y37.501
X22.569
X22.595 Y37.508 Z-1.803
X22.614 Y37.528 Z-1.806
X22.62 Y37.554 Z-1.809
X22.613 Y37.58 Z-1.813
X22.593 Y37.598 Z-1.816
X22.566 Y37.604 Z-1.819
X21.15 Y37.531 Z-1.982
X21.125 Y37.523 Z-1.985
X21.108 Y37.504 Z-1.988
X21.102 Y37.478 Z-1.991
X21.109 Y37.453 Z-1.994
X21.128 Y37.435 Z-1.997
X21.153 Y37.428 Z-2
X21.157
X21.192 Y37.434
X21.224 Y37.45
X21.25 Y37.474
X21.267 Y37.506
X21.269 Y37.512
X21.276 Y37.549
X21.271 Y37.587
X21.27 Y37.592
X21.254 Y37.625
X21.228 Y37.651
X21.195 Y37.668
X21.158 Y37.674
X16.512
X16.477 Y37.669
X16.445 Y37.653
X16.42 Y37.629
X16.403 Y37.597
X16.401 Y37.592
X16.394 Y37.551
X16.401 Y37.511
X16.403 Y37.506
X16.42 Y37.474
X16.445 Y37.45
X16.477 Y37.434
X16.512 Y37.428
X21.153
X21.199 Y37.422
X21.241 Y37.401
X21.276 Y37.37
X21.3 Y37.33
X21.32 Y37.299
X21.351 Y37.278
X21.387 Y37.27
X21.423 Y37.276
X21.455 Y37.296
X21.477 Y37.326
X21.492 Y37.367
X21.51 Y37.423
X21.526 Y37.482
X21.533 Y37.543
X21.529 Y37.604
X21.516 Y37.663
X21.509 Y37.687
X21.499 Y37.726
G3 X21.231 Y37.931 I-0.268 J-0.073
G1 X16.434
G3 X16.178 Y37.735 I0 J-0.266
G1 X16.16 Y37.68
G3 X16.16 Y37.422 I0.353 J-0.129
G1 X16.178 Y37.367
G3 X16.434 Y37.172 I0.256 J0.07
G1 X21.236
G3 X21.477 Y37.326 I0 J0.266
G1 X21.478 Y37.343 Z-1.995
X21.475 Y37.36 Z-1.991
X21.463 Y37.383 Z-1.965
X21.457 Y37.39 Z-1.93
G0 Z4
X1.379 Y4.72
G1 Z-1.416 F80
X1.396 Y4.721 Z-1.462
X1.438 Y4.727 Z-1.485
G3 X1.299 Y5.378 Z-1.635 I-0.069 J0.325
X1.438 Y4.727 Z-1.785 I0.069 J-0.325
X1.299 Y5.378 Z-1.935 I-0.069 J0.325
X1.036 Y5.052 Z-2 I0.069 J-0.325
G1 Y5.043
X1.044 Y4.995
X1.066 Y4.951
X1.101 Y4.917
X1.144 Y4.895
X1.193 Y4.887
X6.035 Y4.888
X6.07 Y4.892
X6.23 Y4.929
X6.255 Y4.937
X6.277 Y4.951
X6.284 Y4.957
X6.301 Y4.974
X6.315 Y4.994
X6.328 Y5.03
X6.329 Y5.069
X6.317 Y5.105
X6.303 Y5.126
X6.285 Y5.143
X6.276 Y5.151
X6.253 Y5.165
X6.229 Y5.173
X6.048 Y5.213
X6.015 Y5.216
X1.193 Y5.217
X1.144 Y5.21
X1.101 Y5.188
X1.066 Y5.153
X1.044 Y5.109
X1.036 Y5.061
Y5.052
G2 X0.859 Y4.727 I-0.386 J0
G3 X0.963 Y4.371 I0.104 J-0.163
G1 X6.036 Y4.372
X6.11 Y4.377
X6.184 Y4.389
X6.373 Y4.432
X6.445 Y4.454
X6.512 Y4.486
X6.574 Y4.528
X6.626 Y4.57
X6.678 Y4.617
X6.723 Y4.671
X6.759 Y4.731
X6.793 Y4.795
G3 X6.793 Y5.308 I-0.492 J0.256
G1 X6.761 Y5.369
X6.724 Y5.43
X6.678 Y5.484
X6.626 Y5.532
X6.571 Y5.575
X6.508 Y5.617
X6.441 Y5.649
X6.369 Y5.67
X6.159 Y5.717
X6.087 Y5.728
X6.015 Y5.732
X0.732 Y5.734
G3 X0.52 Y5.521 I0 J-0.212
G1 X0.521 Y4.583
G3 X0.733 Y4.371 I0.212 J0
G1 X0.963
G2 X1.352 Y4.111 I0 J-0.422
G3 X1.742 Y3.852 I0.389 J0.162
G1 X6.169 Y3.853
X6.698 Y3.973
X6.837 Y4.074
X7.119 Y4.298
X7.396 Y4.828
X7.425 Y4.868
X7.471 Y4.916
X7.498 Y4.939
X7.53 Y4.956
X7.599 Y4.985
X7.632 Y4.995
X7.666 Y4.999
X36.219 Y5.001
Y37.601
X22.306 Y37.604
X22.272 Y37.607
X22.239 Y37.617
X22.166 Y37.647
X22.132 Y37.666
X22.102 Y37.693
X22.049 Y37.753
X22.027 Y37.786
X22.012 Y37.823
X21.991 Y37.899
X21.985 Y37.945
Y38.451
X15.684
X15.682 Y37.919
X15.678 Y37.882
X15.666 Y37.847
X15.632 Y37.771
X15.612 Y37.738
X15.586 Y37.71
X15.532 Y37.665
X15.506 Y37.646
X15.477 Y37.633
X15.323 Y37.579
X15.309 Y37.559
Y37.543
X15.322 Y37.524
X15.477 Y37.47
X15.506 Y37.457
X15.532 Y37.439
X15.584 Y37.395
X15.61 Y37.367
X15.63 Y37.334
X15.666 Y37.256
X15.678 Y37.221
X15.682 Y37.184
X15.684 Y36.651
X21.986
X21.988 Y37.184
X21.992 Y37.221
X22.003 Y37.255
X22.037 Y37.331
X22.059 Y37.367
X22.088 Y37.396
X22.152 Y37.447
X22.188 Y37.469
X22.227 Y37.482
X22.307 Y37.498
X22.342 Y37.501
X35.803 Y37.498
X35.84 Y37.494
X35.875 Y37.483
X35.947 Y37.45
X35.98 Y37.431
X36.008 Y37.404
X36.056 Y37.348
X36.077 Y37.318
X36.091 Y37.284
X36.111 Y37.216
X36.119 Y37.166
X36.115 Y5.413
X36.111 Y5.378
X36.101 Y5.345
X36.077 Y5.288
X36.062 Y5.259
X36.042 Y5.234
X35.995 Y5.186
X35.968 Y5.164
X35.937 Y5.147
X35.868 Y5.118
X35.835 Y5.108
X35.8 Y5.104
X7.666
X7.632 Y5.108
X7.599 Y5.118
X7.53 Y5.147
X7.498 Y5.164
X7.471 Y5.187
X7.425 Y5.234
X7.396 Y5.275
X7.12 Y5.804
X6.714 Y6.122
X6.676 Y6.134
X6.144 Y6.251
X0 Y6.253
X0.002 Y3.851
X1.742 Y3.852
G3 X2.047 Y4.316 Z-2.078 I0 J0.333
G1 X1.674 Y5.184 Z-2.191
G3 X1.036 Y5.052 Z-2.3 I-0.305 J-0.131
G1 Y5.043
X1.044 Y4.995
X1.066 Y4.951
X1.101 Y4.917
X1.144 Y4.895
X1.193 Y4.887
X6.035 Y4.888
X6.07 Y4.892
X6.227 Y4.928
X6.251 Y4.937
X6.273 Y4.95
X6.278 Y4.954
X6.296 Y4.971
X6.309 Y4.993
X6.313 Y4.999
X6.324 Y5.033
Y5.07
X6.313 Y5.104
X6.31 Y5.11
X6.296 Y5.131
X6.278 Y5.149
X6.255 Y5.164
X6.229 Y5.173
X6.048 Y5.213
X6.014 Y5.216
X1.193 Y5.217
X1.144 Y5.21
X1.101 Y5.188
X1.066 Y5.153
X1.044 Y5.109
X1.036 Y5.061
Y5.052
G2 X0.859 Y4.727 I-0.386 J0
G3 X0.963 Y4.371 I0.104 J-0.163
G1 X6.035 Y4.372
X6.11 Y4.377
X6.184 Y4.389
X6.371 Y4.432
X6.441 Y4.453
X6.508 Y4.485
X6.57 Y4.527
X6.62 Y4.566
X6.673 Y4.615
X6.719 Y4.671
X6.757 Y4.733
X6.799 Y4.817
X6.829 Y4.891
X6.848 Y4.969
X6.853 Y5.048
X6.845 Y5.132
X6.824 Y5.214
X6.793 Y5.293
X6.757 Y5.369
X6.719 Y5.431
X6.673 Y5.487
X6.62 Y5.536
X6.571 Y5.574
X6.509 Y5.616
X6.441 Y5.648
X6.369 Y5.67
X6.159 Y5.716
X6.087 Y5.728
X6.015 Y5.732
X0.732 Y5.734
G3 X0.52 Y5.521 I0 J-0.212
G1 X0.521 Y4.583
G3 X0.733 Y4.371 I0.212 J0
G1 X0.963
G2 X1.352 Y4.111 I0 J-0.422
G3 X1.742 Y3.852 I0.389 J0.162
G1 X6.169 Y3.853
X6.705 Y3.975
X6.722 Y3.986
X7.118 Y4.298
X7.363 Y4.782
X7.374 Y4.86
X7.371 Y5.288
X7.365 Y5.317
X7.118 Y5.805
X6.715 Y6.122
X6.677 Y6.134
X6.144 Y6.251
X0 Y6.253
X0.002 Y3.851
X1.742 Y3.852
X1.77 Y3.858
X1.793 Y3.874
X1.808 Y3.899
X1.812 Y3.927
X1.804 Y3.954
X1.264 Y4.989 Z-2.5
X1.242 Y5.014
X1.212 Y5.026
X1.179 Y5.023
X1.152 Y5.006
X1.135 Y4.978
X1.132 Y4.946
X1.145 Y4.916
X1.17 Y4.895
X1.202 Y4.887
X6.035 Y4.888
X6.069 Y4.892
X6.227 Y4.928
X6.259 Y4.941
X6.286 Y4.962
X6.305 Y4.99
X6.31 Y4.999
X6.321 Y5.034
Y5.069
X6.31 Y5.104
X6.306 Y5.111
X6.286 Y5.139
X6.259 Y5.16
X6.227 Y5.173
X6.048 Y5.213
X6.014 Y5.216
X1.193 Y5.217
X1.144 Y5.21
X1.101 Y5.188
X1.066 Y5.153
X1.044 Y5.109
X1.036 Y5.061
Y5.043
X1.044 Y4.995
X1.066 Y4.951
X1.101 Y4.917
X1.144 Y4.895
X1.193 Y4.887
X1.202
G2 X1.589 Y4.629 I0 J-0.419
G3 X1.976 Y4.371 I0.387 J0.161
G1 X6.035 Y4.373
X6.11 Y4.377
X6.184 Y4.389
X6.371 Y4.432
X6.441 Y4.454
X6.508 Y4.486
X6.57 Y4.527
X6.616 Y4.564
X6.67 Y4.613
X6.716 Y4.67
X6.754 Y4.733
X6.788 Y4.801
X6.817 Y4.874
X6.835 Y4.95
X6.841 Y5.028
X6.84 Y5.081
X6.834 Y5.157
X6.816 Y5.232
X6.787 Y5.302
X6.754 Y5.369
X6.716 Y5.432
X6.67 Y5.489
X6.616 Y5.539
X6.571 Y5.574
X6.509 Y5.616
X6.441 Y5.648
X6.369 Y5.67
X6.159 Y5.716
X6.087 Y5.728
X6.014 Y5.732
X0.732 Y5.734
G3 X0.52 Y5.521 I0 J-0.212
G1 X0.521 Y4.583
G3 X0.733 Y4.371 I0.212 J0
G1 X1.976
G2 X2.365 Y4.112 I0 J-0.422
G3 X2.755 Y3.852 I0.389 J0.162
G1 X6.169 Y3.853
X6.705 Y3.976
X6.723 Y3.986
X7.116 Y4.297
X7.361 Y4.788
X7.358 Y5.322
X7.116 Y5.805
X6.715 Y6.122
X6.677 Y6.133
X6.144 Y6.251
X0 Y6.253
X0.002 Y3.851
X2.755 Y3.852
X2.772 Y3.854 Z-2.495
