(1001)
(T1  D=3 CR=0 - ZMIN=-4.5 - flat end mill)
G90 G94
G17
G21

(2D Pocket1)
T1
S500 M3
G54
M8
G0 X17.981 Y39.562
Z6
Z2
G1 Z1.8 F300
S15000
X20.768 Z1.2
X16.123 Z0.2
X18.446 Z-0.3
X18.731 Y39.662
X18.769 Y39.669
X18.807 Y39.662
X18.84 Y39.642
X18.864 Y39.612
X18.876 Y39.575
X18.873 Y39.536
X18.858 Y39.5
X18.83 Y39.473
X18.795 Y39.457
X18.756 Y39.455
X18.719 Y39.466
X18.688 Y39.49
X18.668 Y39.523
X18.661 Y39.562
S500
Y39.602 F1000
X18.655 Y39.647
X18.638 Y39.69
X18.61 Y39.726
X18.574 Y39.754
X18.531 Y39.771
X18.486 Y39.777
X18.405
X18.36 Y39.771
X18.318 Y39.754
X18.282 Y39.726
X18.254 Y39.69
X18.236 Y39.647
X18.23 Y39.602
Y13.665
G3 X18.661 Y13.665 I0.215 J0
G1 Y39.562
G2 X19.241 Y40.851 I1.724 J0
G3 X18.74 Y42.174 I-0.502 J0.566
G1 X16.153
G3 X15.834 Y41.854 I0 J-0.319
G1 Y11.316
G3 X16.153 Y10.997 I0.319 J0
G1 X20.738
G3 X21.058 Y11.316 I0 J0.319
G1 Y41.854
G3 X20.738 Y42.174 I-0.319 J0
G1 X18.74
G2 X16.938 Y43.375 I0 J1.951
G3 X15.137 Y44.575 I-1.801 J-0.751
G1 X13.432
Y8.595
X23.459
Y44.575
X15.137
G3 X14.961 Y44.281 I0 J-0.2
G1 X17.445 Y39.667
X17.477 Y39.623
X17.519 Y39.59
X17.568 Y39.569
X17.621 Y39.562
S15000
X18.446 Z-0.6 F300
X18.731 Y39.662
X18.769 Y39.669
X18.807 Y39.662
X18.84 Y39.642
X18.864 Y39.612
X18.876 Y39.575
X18.873 Y39.536
X18.858 Y39.5
X18.83 Y39.473
X18.795 Y39.457
X18.756 Y39.455
X18.719 Y39.466
X18.688 Y39.49
X18.668 Y39.523
X18.661 Y39.562
S500
Y39.602 F1000
X18.655 Y39.647
X18.638 Y39.69
X18.61 Y39.726
X18.574 Y39.754
X18.531 Y39.771
X18.486 Y39.777
X18.405
X18.36 Y39.771
X18.318 Y39.754
X18.282 Y39.726
X18.254 Y39.69
X18.236 Y39.647
X18.23 Y39.602
Y13.665
G3 X18.661 Y13.665 I0.215 J0
G1 Y39.562
G2 X19.241 Y40.851 I1.724 J0
G3 X18.74 Y42.174 I-0.502 J0.566
G1 X16.153
G3 X15.834 Y41.854 I0 J-0.319
G1 Y11.316
G3 X16.153 Y10.997 I0.319 J0
G1 X20.738
G3 X21.058 Y11.316 I0 J0.319
G1 Y41.854
G3 X20.738 Y42.174 I-0.319 J0
G1 X18.74
G2 X16.938 Y43.375 I0 J1.951
G3 X15.137 Y44.575 I-1.801 J-0.751
G1 X13.432
Y8.595
X23.459
Y44.575
X15.137
G3 X14.961 Y44.281 I0 J-0.2
G1 X17.445 Y39.667
X17.477 Y39.623
X17.519 Y39.59
X17.568 Y39.569
X17.621 Y39.562
S15000
X18.446 Z-0.9 F300
X18.731 Y39.662
X18.769 Y39.669
X18.807 Y39.662
X18.84 Y39.642
X18.864 Y39.612
X18.876 Y39.575
X18.873 Y39.536
X18.858 Y39.5
X18.83 Y39.473
X18.795 Y39.457
X18.756 Y39.455
X18.719 Y39.466
X18.688 Y39.49
X18.668 Y39.523
X18.661 Y39.562
S500
Y39.602 F1000
X18.655 Y39.647
X18.638 Y39.69
X18.61 Y39.726
X18.574 Y39.754
X18.531 Y39.771
X18.486 Y39.777
X18.405
X18.36 Y39.771
X18.318 Y39.754
X18.282 Y39.726
X18.254 Y39.69
X18.236 Y39.647
X18.23 Y39.602
Y13.665
G3 X18.661 Y13.665 I0.215 J0
G1 Y39.562
G2 X19.241 Y40.851 I1.724 J0
G3 X18.74 Y42.174 I-0.502 J0.566
G1 X16.153
G3 X15.834 Y41.854 I0 J-0.319
G1 Y11.316
G3 X16.153 Y10.997 I0.319 J0
G1 X20.738
G3 X21.058 Y11.316 I0 J0.319
G1 Y41.854
G3 X20.738 Y42.174 I-0.319 J0
G1 X18.74
G2 X16.938 Y43.375 I0 J1.951
G3 X15.137 Y44.575 I-1.801 J-0.751
G1 X13.432
Y8.595
X23.459
Y44.575
X15.137
G3 X14.961 Y44.281 I0 J-0.2
G1 X17.445 Y39.667
X17.477 Y39.623
X17.519 Y39.59
X17.568 Y39.569
X17.621 Y39.562
S15000
X18.446 Z-1.2 F300
X18.731 Y39.662
X18.769 Y39.669
X18.807 Y39.662
X18.84 Y39.642
X18.864 Y39.612
X18.876 Y39.575
X18.873 Y39.536
X18.858 Y39.5
X18.83 Y39.473
X18.795 Y39.457
X18.756 Y39.455
X18.719 Y39.466
X18.688 Y39.49
X18.668 Y39.523
X18.661 Y39.562
S500
Y39.602 F1000
X18.655 Y39.647
X18.638 Y39.69
X18.61 Y39.726
X18.574 Y39.754
X18.531 Y39.771
X18.486 Y39.777
X18.405
X18.36 Y39.771
X18.318 Y39.754
X18.282 Y39.726
X18.254 Y39.69
X18.236 Y39.647
X18.23 Y39.602
Y13.665
G3 X18.661 Y13.665 I0.215 J0
G1 Y39.562
G2 X19.241 Y40.851 I1.724 J0
G3 X18.74 Y42.174 I-0.502 J0.566
G1 X16.153
G3 X15.834 Y41.854 I0 J-0.319
G1 Y11.316
G3 X16.153 Y10.997 I0.319 J0
G1 X20.738
G3 X21.058 Y11.316 I0 J0.319
G1 Y41.854
G3 X20.738 Y42.174 I-0.319 J0
G1 X18.74
G2 X16.938 Y43.375 I0 J1.951
G3 X15.137 Y44.575 I-1.801 J-0.751
G1 X13.432
Y8.595
X23.459
Y44.575
X15.137
G3 X14.961 Y44.281 I0 J-0.2
G1 X17.445 Y39.667
X17.477 Y39.623
X17.519 Y39.59
X17.568 Y39.569
X17.621 Y39.562
S15000
X18.446 Z-1.5 F300
X18.731 Y39.662
X18.769 Y39.669
X18.807 Y39.662
X18.84 Y39.642
X18.864 Y39.612
X18.876 Y39.575
X18.873 Y39.536
X18.858 Y39.5
X18.83 Y39.473
X18.795 Y39.457
X18.756 Y39.455
X18.719 Y39.466
X18.688 Y39.49
X18.668 Y39.523
X18.661 Y39.562
S500
Y39.602 F1000
X18.655 Y39.647
X18.638 Y39.69
X18.61 Y39.726
X18.574 Y39.754
X18.531 Y39.771
X18.486 Y39.777
X18.405
X18.36 Y39.771
X18.318 Y39.754
X18.282 Y39.726
X18.254 Y39.69
X18.236 Y39.647
X18.23 Y39.602
Y13.665
G3 X18.661 Y13.665 I0.215 J0
G1 Y39.562
G2 X19.241 Y40.851 I1.724 J0
G3 X18.74 Y42.174 I-0.502 J0.566
G1 X16.153
G3 X15.834 Y41.854 I0 J-0.319
G1 Y11.316
G3 X16.153 Y10.997 I0.319 J0
G1 X20.738
G3 X21.058 Y11.316 I0 J0.319
G1 Y41.854
G3 X20.738 Y42.174 I-0.319 J0
G1 X18.74
G2 X16.938 Y43.375 I0 J1.951
G3 X15.137 Y44.575 I-1.801 J-0.751
G1 X13.432
Y8.595
X23.459
Y44.575
X15.137
G3 X14.961 Y44.281 I0 J-0.2
G1 X17.445 Y39.667
X17.477 Y39.623
X17.519 Y39.59
X17.568 Y39.569
X17.621 Y39.562
S15000
X18.446 Z-1.8 F300
X18.731 Y39.662
X18.769 Y39.669
X18.807 Y39.662
X18.84 Y39.642
X18.864 Y39.612
X18.876 Y39.575
X18.873 Y39.536
X18.858 Y39.5
X18.83 Y39.473
X18.795 Y39.457
X18.756 Y39.455
X18.719 Y39.466
X18.688 Y39.49
X18.668 Y39.523
X18.661 Y39.562
S500
Y39.602 F1000
X18.655 Y39.647
X18.638 Y39.69
X18.61 Y39.726
X18.574 Y39.754
X18.531 Y39.771
X18.486 Y39.777
X18.405
X18.36 Y39.771
X18.318 Y39.754
X18.282 Y39.726
X18.254 Y39.69
X18.236 Y39.647
X18.23 Y39.602
Y13.665
G3 X18.661 Y13.665 I0.215 J0
G1 Y39.562
G2 X19.241 Y40.851 I1.724 J0
G3 X18.74 Y42.174 I-0.502 J0.566
G1 X16.153
G3 X15.834 Y41.854 I0 J-0.319
G1 Y11.316
G3 X16.153 Y10.997 I0.319 J0
G1 X20.738
G3 X21.058 Y11.316 I0 J0.319
G1 Y41.854
G3 X20.738 Y42.174 I-0.319 J0
G1 X18.74
G2 X16.938 Y43.375 I0 J1.951
G3 X15.137 Y44.575 I-1.801 J-0.751
G1 X13.432
Y8.595
X23.459
Y44.575
X15.137
G3 X14.961 Y44.281 I0 J-0.2
G1 X17.445 Y39.667
X17.477 Y39.623
X17.519 Y39.59
X17.568 Y39.569
X17.621 Y39.562
S15000
X18.446 Z-2.1 F300
X18.731 Y39.662
X18.769 Y39.669
X18.807 Y39.662
X18.84 Y39.642
X18.864 Y39.612
X18.876 Y39.575
X18.873 Y39.536
X18.858 Y39.5
X18.83 Y39.473
X18.795 Y39.457
X18.756 Y39.455
X18.719 Y39.466
X18.688 Y39.49
X18.668 Y39.523
X18.661 Y39.562
S500
Y39.602 F1000
X18.655 Y39.647
X18.638 Y39.69
X18.61 Y39.726
X18.574 Y39.754
X18.531 Y39.771
X18.486 Y39.777
X18.405
X18.36 Y39.771
X18.318 Y39.754
X18.282 Y39.726
X18.254 Y39.69
X18.236 Y39.647
X18.23 Y39.602
Y13.665
G3 X18.661 Y13.665 I0.215 J0
G1 Y39.562
G2 X19.241 Y40.851 I1.724 J0
G3 X18.74 Y42.174 I-0.502 J0.566
G1 X16.153
G3 X15.834 Y41.854 I0 J-0.319
G1 Y11.316
G3 X16.153 Y10.997 I0.319 J0
G1 X20.738
G3 X21.058 Y11.316 I0 J0.319
G1 Y41.854
G3 X20.738 Y42.174 I-0.319 J0
G1 X18.74
G2 X16.938 Y43.375 I0 J1.951
G3 X15.137 Y44.575 I-1.801 J-0.751
G1 X13.432
Y8.595
X23.459
Y44.575
X15.137
G3 X14.961 Y44.281 I0 J-0.2
G1 X17.445 Y39.667
X17.477 Y39.623
X17.519 Y39.59
X17.568 Y39.569
X17.621 Y39.562
S15000
X18.446 Z-2.4 F300
X18.731 Y39.662
X18.769 Y39.669
X18.807 Y39.662
X18.84 Y39.642
X18.864 Y39.612
X18.876 Y39.575
X18.873 Y39.536
X18.858 Y39.5
X18.83 Y39.473
X18.795 Y39.457
X18.756 Y39.455
X18.719 Y39.466
X18.688 Y39.49
X18.668 Y39.523
X18.661 Y39.562
S500
Y39.602 F1000
X18.655 Y39.647
X18.638 Y39.69
X18.61 Y39.726
X18.574 Y39.754
X18.531 Y39.771
X18.486 Y39.777
X18.405
X18.36 Y39.771
X18.318 Y39.754
X18.282 Y39.726
X18.254 Y39.69
X18.236 Y39.647
X18.23 Y39.602
Y13.665
G3 X18.661 Y13.665 I0.215 J0
G1 Y39.562
G2 X19.241 Y40.851 I1.724 J0
G3 X18.74 Y42.174 I-0.502 J0.566
G1 X16.153
G3 X15.834 Y41.854 I0 J-0.319
G1 Y11.316
G3 X16.153 Y10.997 I0.319 J0
G1 X20.738
G3 X21.058 Y11.316 I0 J0.319
G1 Y41.854
G3 X20.738 Y42.174 I-0.319 J0
G1 X18.74
G2 X16.938 Y43.375 I0 J1.951
G3 X15.137 Y44.575 I-1.801 J-0.751
G1 X13.432
Y8.595
X23.459
Y44.575
X15.137
G3 X14.961 Y44.281 I0 J-0.2
G1 X17.445 Y39.667
X17.477 Y39.623
X17.519 Y39.59
X17.568 Y39.569
X17.621 Y39.562
S15000
X18.446 Z-2.7 F300
X18.731 Y39.662
X18.769 Y39.669
X18.807 Y39.662
X18.84 Y39.642
X18.864 Y39.612
X18.876 Y39.575
X18.873 Y39.536
X18.858 Y39.5
X18.83 Y39.473
X18.795 Y39.457
X18.756 Y39.455
X18.719 Y39.466
X18.688 Y39.49
X18.668 Y39.523
X18.661 Y39.562
S500
Y39.602 F1000
X18.655 Y39.647
X18.638 Y39.69
X18.61 Y39.726
X18.574 Y39.754
X18.531 Y39.771
X18.486 Y39.777
X18.405
X18.36 Y39.771
X18.318 Y39.754
X18.282 Y39.726
X18.254 Y39.69
X18.236 Y39.647
X18.23 Y39.602
Y13.665
G3 X18.661 Y13.665 I0.215 J0
G1 Y39.562
G2 X19.241 Y40.851 I1.724 J0
G3 X18.74 Y42.174 I-0.502 J0.566
G1 X16.153
G3 X15.834 Y41.854 I0 J-0.319
G1 Y11.316
G3 X16.153 Y10.997 I0.319 J0
G1 X20.738
G3 X21.058 Y11.316 I0 J0.319
G1 Y41.854
G3 X20.738 Y42.174 I-0.319 J0
G1 X18.74
G2 X16.938 Y43.375 I0 J1.951
G3 X15.137 Y44.575 I-1.801 J-0.751
G1 X13.432
Y8.595
X23.459
Y44.575
X15.137
G3 X14.961 Y44.281 I0 J-0.2
G1 X17.445 Y39.667
X17.477 Y39.623
X17.519 Y39.59
X17.568 Y39.569
X17.621 Y39.562
S15000
X18.446 Z-3 F300
X18.731 Y39.662
X18.769 Y39.669
X18.807 Y39.662
X18.84 Y39.642
X18.864 Y39.612
X18.876 Y39.575
X18.873 Y39.536
X18.858 Y39.5
X18.83 Y39.473
X18.795 Y39.457
X18.756 Y39.455
X18.719 Y39.466
X18.688 Y39.49
X18.668 Y39.523
X18.661 Y39.562
S500
Y39.602 F1000
X18.655 Y39.647
X18.638 Y39.69
X18.61 Y39.726
X18.574 Y39.754
X18.531 Y39.771
X18.486 Y39.777
X18.405
X18.36 Y39.771
X18.318 Y39.754
X18.282 Y39.726
X18.254 Y39.69
X18.236 Y39.647
X18.23 Y39.602
Y13.665
G3 X18.661 Y13.665 I0.215 J0
G1 Y39.562
G2 X19.241 Y40.851 I1.724 J0
G3 X18.74 Y42.174 I-0.502 J0.566
G1 X16.153
G3 X15.834 Y41.854 I0 J-0.319
G1 Y11.316
G3 X16.153 Y10.997 I0.319 J0
G1 X20.738
G3 X21.058 Y11.316 I0 J0.319
G1 Y41.854
G3 X20.738 Y42.174 I-0.319 J0
G1 X18.74
G2 X16.938 Y43.375 I0 J1.951
G3 X15.137 Y44.575 I-1.801 J-0.751
G1 X13.432
Y8.595
X23.459
Y44.575
X15.137
G3 X14.961 Y44.281 I0 J-0.2
G1 X17.445 Y39.667
X17.477 Y39.623
X17.519 Y39.59
X17.568 Y39.569
X17.621 Y39.562
S15000
X18.446 Z-3.3 F300
X18.731 Y39.662
X18.769 Y39.669
X18.807 Y39.662
X18.84 Y39.642
X18.864 Y39.612
X18.876 Y39.575
X18.873 Y39.536
X18.858 Y39.5
X18.83 Y39.473
X18.795 Y39.457
X18.756 Y39.455
X18.719 Y39.466
X18.688 Y39.49
X18.668 Y39.523
X18.661 Y39.562
S500
Y39.602 F1000
X18.655 Y39.647
X18.638 Y39.69
X18.61 Y39.726
X18.574 Y39.754
X18.531 Y39.771
X18.486 Y39.777
X18.405
X18.36 Y39.771
X18.318 Y39.754
X18.282 Y39.726
X18.254 Y39.69
X18.236 Y39.647
X18.23 Y39.602
Y13.665
G3 X18.661 Y13.665 I0.215 J0
G1 Y39.562
G2 X19.241 Y40.851 I1.724 J0
G3 X18.74 Y42.174 I-0.502 J0.566
G1 X16.153
G3 X15.834 Y41.854 I0 J-0.319
G1 Y11.316
G3 X16.153 Y10.997 I0.319 J0
G1 X20.738
G3 X21.058 Y11.316 I0 J0.319
G1 Y41.854
G3 X20.738 Y42.174 I-0.319 J0
G1 X18.74
G2 X16.938 Y43.375 I0 J1.951
G3 X15.137 Y44.575 I-1.801 J-0.751
G1 X13.432
Y8.595
X23.459
Y44.575
X15.137
G3 X14.961 Y44.281 I0 J-0.2
G1 X17.445 Y39.667
X17.477 Y39.623
X17.519 Y39.59
X17.568 Y39.569
X17.621 Y39.562
S15000
X18.446 Z-3.6 F300
X18.731 Y39.662
X18.769 Y39.669
X18.807 Y39.662
X18.84 Y39.642
X18.864 Y39.612
X18.876 Y39.575
X18.873 Y39.536
X18.858 Y39.5
X18.83 Y39.473
X18.795 Y39.457
X18.756 Y39.455
X18.719 Y39.466
X18.688 Y39.49
X18.668 Y39.523
X18.661 Y39.562
S500
Y39.602 F1000
X18.655 Y39.647
X18.638 Y39.69
X18.61 Y39.726
X18.574 Y39.754
X18.531 Y39.771
X18.486 Y39.777
X18.405
X18.36 Y39.771
X18.318 Y39.754
X18.282 Y39.726
X18.254 Y39.69
X18.236 Y39.647
X18.23 Y39.602
Y13.665
G3 X18.661 Y13.665 I0.215 J0
G1 Y39.562
G2 X19.241 Y40.851 I1.724 J0
G3 X18.74 Y42.174 I-0.502 J0.566
G1 X16.153
G3 X15.834 Y41.854 I0 J-0.319
G1 Y11.316
G3 X16.153 Y10.997 I0.319 J0
G1 X20.738
G3 X21.058 Y11.316 I0 J0.319
G1 Y41.854
G3 X20.738 Y42.174 I-0.319 J0
G1 X18.74
G2 X16.938 Y43.375 I0 J1.951
G3 X15.137 Y44.575 I-1.801 J-0.751
G1 X13.432
Y8.595
X23.459
Y44.575
X15.137
G3 X14.961 Y44.281 I0 J-0.2
G1 X17.445 Y39.667
X17.477 Y39.623
X17.519 Y39.59
X17.568 Y39.569
X17.621 Y39.562
S15000
X18.446 Z-3.9 F300
X18.731 Y39.662
X18.769 Y39.669
X18.807 Y39.662
X18.84 Y39.642
X18.864 Y39.612
X18.876 Y39.575
X18.873 Y39.536
X18.858 Y39.5
X18.83 Y39.473
X18.795 Y39.457
X18.756 Y39.455
X18.719 Y39.466
X18.688 Y39.49
X18.668 Y39.523
X18.661 Y39.562
S500
Y39.602 F1000
X18.655 Y39.647
X18.638 Y39.69
X18.61 Y39.726
X18.574 Y39.754
X18.531 Y39.771
X18.486 Y39.777
X18.405
X18.36 Y39.771
X18.318 Y39.754
X18.282 Y39.726
X18.254 Y39.69
X18.236 Y39.647
X18.23 Y39.602
Y13.665
G3 X18.661 Y13.665 I0.215 J0
G1 Y39.562
G2 X19.241 Y40.851 I1.724 J0
G3 X18.74 Y42.174 I-0.502 J0.566
G1 X16.153
G3 X15.834 Y41.854 I0 J-0.319
G1 Y11.316
G3 X16.153 Y10.997 I0.319 J0
G1 X20.738
G3 X21.058 Y11.316 I0 J0.319
G1 Y41.854
G3 X20.738 Y42.174 I-0.319 J0
G1 X18.74
G2 X16.938 Y43.375 I0 J1.951
G3 X15.137 Y44.575 I-1.801 J-0.751
G1 X13.432
Y8.595
X23.459
Y44.575
X15.137
G3 X14.961 Y44.281 I0 J-0.2
G1 X17.445 Y39.667
X17.477 Y39.623
X17.519 Y39.59
X17.568 Y39.569
X17.621 Y39.562
S15000
X18.446 Z-4.2 F300
X18.731 Y39.662
X18.769 Y39.669
X18.807 Y39.662
X18.84 Y39.642
X18.864 Y39.612
X18.876 Y39.575
X18.873 Y39.536
X18.858 Y39.5
X18.83 Y39.473
X18.795 Y39.457
X18.756 Y39.455
X18.719 Y39.466
X18.688 Y39.49
X18.668 Y39.523
X18.661 Y39.562
S500
Y39.602 F1000
X18.655 Y39.647
X18.638 Y39.69
X18.61 Y39.726
X18.574 Y39.754
X18.531 Y39.771
X18.486 Y39.777
X18.405
X18.36 Y39.771
X18.318 Y39.754
X18.282 Y39.726
X18.254 Y39.69
X18.236 Y39.647
X18.23 Y39.602
Y13.665
G3 X18.661 Y13.665 I0.215 J0
G1 Y39.562
G2 X19.241 Y40.851 I1.724 J0
G3 X18.74 Y42.174 I-0.502 J0.566
G1 X16.153
G3 X15.834 Y41.854 I0 J-0.319
G1 Y11.316
G3 X16.153 Y10.997 I0.319 J0
G1 X20.738
G3 X21.058 Y11.316 I0 J0.319
G1 Y41.854
G3 X20.738 Y42.174 I-0.319 J0
G1 X18.74
G2 X16.938 Y43.375 I0 J1.951
G3 X15.137 Y44.575 I-1.801 J-0.751
G1 X13.432
Y8.595
X23.459
Y44.575
X15.137
G3 X14.961 Y44.281 I0 J-0.2
G1 X17.445 Y39.667
X17.477 Y39.623
X17.519 Y39.59
X17.568 Y39.569
X17.621 Y39.562
S15000
X18.446 Z-4.5 F300
X18.731 Y39.662
X18.769 Y39.669
X18.807 Y39.662
X18.84 Y39.642
X18.864 Y39.612
X18.876 Y39.575
X18.873 Y39.536
X18.858 Y39.5
X18.83 Y39.473
X18.795 Y39.457
X18.756 Y39.455
X18.719 Y39.466
X18.688 Y39.49
X18.668 Y39.523
X18.661 Y39.562
S500
Y39.602 F1000
X18.655 Y39.647
X18.638 Y39.69
X18.61 Y39.726
X18.574 Y39.754
X18.531 Y39.771
X18.486 Y39.777
X18.405
X18.36 Y39.771
X18.318 Y39.754
X18.282 Y39.726
X18.254 Y39.69
X18.236 Y39.647
X18.23 Y39.602
Y13.665
G3 X18.661 Y13.665 I0.215 J0
G1 Y39.562
G2 X19.241 Y40.851 I1.724 J0
G3 X18.74 Y42.174 I-0.502 J0.566
G1 X16.153
G3 X15.834 Y41.854 I0 J-0.319
G1 Y11.316
G3 X16.153 Y10.997 I0.319 J0
G1 X20.738
G3 X21.058 Y11.316 I0 J0.319
G1 Y41.854
G3 X20.738 Y42.174 I-0.319 J0
G1 X18.74
G2 X16.938 Y43.375 I0 J1.951
G3 X15.137 Y44.575 I-1.801 J-0.751
G1 X13.432
Y8.595
X23.459
Y44.575
X15.137
G0 Z6
X17.914 Y49.481
Z2
G1 Z1.3 F300
Z-0.3
Y49.469
Y44.69 F1000
G3 X18.114 Y44.49 I0.2 J0
G1 X18.866 Y44.492
G3 X19.066 Y44.692 I-0.001 J0.2
G1 Y49.471
G3 X18.865 Y49.671 I-0.2 J0
G1 X15.716 Y49.659
G3 X15.517 Y49.459 I0.001 J-0.2
G1 Y44.68
G3 X15.717 Y44.48 I0.2 J0
G1 X21.263 Y44.485
G3 X21.463 Y44.685 I0 J0.2
G1 Y49.464
G3 X21.263 Y49.664 I-0.2 J0
G1 X13.321 Y49.666
G3 X13.121 Y49.466 I0 J-0.2
G1 Y7.116
G3 X13.44 Y6.797 I0.319 J0
G1 X23.54
G3 X23.859 Y7.116 I0 J0.319
G1 Y49.474
G3 X23.659 Y49.674 I-0.2 J0
G1 X10.919 Y49.661
G3 X10.719 Y49.461 I0 J-0.2
G1 Y4.395
X26.261
Y48.075
Y49.472
G3 X26.061 Y49.672 I-0.2 J0
G1 X18.114 Y49.681
G3 X17.914 Y49.481 I0 J-0.2
G1 Z-0.6 F300
Y49.469
Y44.69 F1000
G3 X18.114 Y44.49 I0.2 J0
G1 X18.866 Y44.492
G3 X19.066 Y44.692 I-0.001 J0.2
G1 Y49.471
G3 X18.865 Y49.671 I-0.2 J0
G1 X15.716 Y49.659
G3 X15.517 Y49.459 I0.001 J-0.2
G1 Y44.68
G3 X15.717 Y44.48 I0.2 J0
G1 X21.263 Y44.485
G3 X21.463 Y44.685 I0 J0.2
G1 Y49.464
G3 X21.263 Y49.664 I-0.2 J0
G1 X13.321 Y49.666
G3 X13.121 Y49.466 I0 J-0.2
G1 Y7.116
G3 X13.44 Y6.797 I0.319 J0
G1 X23.54
G3 X23.859 Y7.116 I0 J0.319
G1 Y49.474
G3 X23.659 Y49.674 I-0.2 J0
G1 X10.919 Y49.661
G3 X10.719 Y49.461 I0 J-0.2
G1 Y4.395
X26.261
Y48.075
Y49.472
G3 X26.061 Y49.672 I-0.2 J0
G1 X18.114 Y49.681
G3 X17.914 Y49.481 I0 J-0.2
G1 Z-0.9 F300
Y49.469
Y44.69 F1000
G3 X18.114 Y44.49 I0.2 J0
G1 X18.866 Y44.492
G3 X19.066 Y44.692 I-0.001 J0.2
G1 Y49.471
G3 X18.865 Y49.671 I-0.2 J0
G1 X15.716 Y49.659
G3 X15.517 Y49.459 I0.001 J-0.2
G1 Y44.68
G3 X15.717 Y44.48 I0.2 J0
G1 X21.263 Y44.485
G3 X21.463 Y44.685 I0 J0.2
G1 Y49.464
G3 X21.263 Y49.664 I-0.2 J0
G1 X13.321 Y49.666
G3 X13.121 Y49.466 I0 J-0.2
G1 Y7.116
G3 X13.44 Y6.797 I0.319 J0
G1 X23.54
G3 X23.859 Y7.116 I0 J0.319
G1 Y49.474
G3 X23.659 Y49.674 I-0.2 J0
G1 X10.919 Y49.661
G3 X10.719 Y49.461 I0 J-0.2
G1 Y4.395
X26.261
Y48.075
Y49.472
G3 X26.061 Y49.672 I-0.2 J0
G1 X18.114 Y49.681
G3 X17.914 Y49.481 I0 J-0.2
G1 Z-1.2 F300
Y49.469
Y44.69 F1000
G3 X18.114 Y44.49 I0.2 J0
G1 X18.866 Y44.492
G3 X19.066 Y44.692 I-0.001 J0.2
G1 Y49.471
G3 X18.865 Y49.671 I-0.2 J0
G1 X15.716 Y49.659
G3 X15.517 Y49.459 I0.001 J-0.2
G1 Y44.68
G3 X15.717 Y44.48 I0.2 J0
G1 X21.263 Y44.485
G3 X21.463 Y44.685 I0 J0.2
G1 Y49.464
G3 X21.263 Y49.664 I-0.2 J0
G1 X13.321 Y49.666
G3 X13.121 Y49.466 I0 J-0.2
G1 Y7.116
G3 X13.44 Y6.797 I0.319 J0
G1 X23.54
G3 X23.859 Y7.116 I0 J0.319
G1 Y49.474
G3 X23.659 Y49.674 I-0.2 J0
G1 X10.919 Y49.661
G3 X10.719 Y49.461 I0 J-0.2
G1 Y4.395
X26.261
Y48.075
Y49.472
G3 X26.061 Y49.672 I-0.2 J0
G1 X18.114 Y49.681
G3 X17.914 Y49.481 I0 J-0.2
G1 Z-1.5 F300
Y49.469
Y44.69 F1000
G3 X18.114 Y44.49 I0.2 J0
G1 X18.866 Y44.492
G3 X19.066 Y44.692 I-0.001 J0.2
G1 Y49.471
G3 X18.865 Y49.671 I-0.2 J0
G1 X15.716 Y49.659
G3 X15.517 Y49.459 I0.001 J-0.2
G1 Y44.68
G3 X15.717 Y44.48 I0.2 J0
G1 X21.263 Y44.485
G3 X21.463 Y44.685 I0 J0.2
G1 Y49.464
G3 X21.263 Y49.664 I-0.2 J0
G1 X13.321 Y49.666
G3 X13.121 Y49.466 I0 J-0.2
G1 Y7.116
G3 X13.44 Y6.797 I0.319 J0
G1 X23.54
G3 X23.859 Y7.116 I0 J0.319
G1 Y49.474
G3 X23.659 Y49.674 I-0.2 J0
G1 X10.919 Y49.661
G3 X10.719 Y49.461 I0 J-0.2
G1 Y4.395
X26.261
Y48.075
Y49.472
G3 X26.061 Y49.672 I-0.2 J0
G1 X18.114 Y49.681
G3 X17.914 Y49.481 I0 J-0.2
G1 Z-1.8 F300
Y49.469
Y44.69 F1000
G3 X18.114 Y44.49 I0.2 J0
G1 X18.866 Y44.492
G3 X19.066 Y44.692 I-0.001 J0.2
G1 Y49.471
G3 X18.865 Y49.671 I-0.2 J0
G1 X15.716 Y49.659
G3 X15.517 Y49.459 I0.001 J-0.2
G1 Y44.68
G3 X15.717 Y44.48 I0.2 J0
G1 X21.263 Y44.485
G3 X21.463 Y44.685 I0 J0.2
G1 Y49.464
G3 X21.263 Y49.664 I-0.2 J0
G1 X13.321 Y49.666
G3 X13.121 Y49.466 I0 J-0.2
G1 Y7.116
G3 X13.44 Y6.797 I0.319 J0
G1 X23.54
G3 X23.859 Y7.116 I0 J0.319
G1 Y49.474
G3 X23.659 Y49.674 I-0.2 J0
G1 X10.919 Y49.661
G3 X10.719 Y49.461 I0 J-0.2
G1 Y4.395
X26.261
Y48.075
Y49.472
G3 X26.061 Y49.672 I-0.2 J0
G1 X18.114 Y49.681
G3 X17.914 Y49.481 I0 J-0.2
G1 Z-2.1 F300
Y49.469
Y44.69 F1000
G3 X18.114 Y44.49 I0.2 J0
G1 X18.866 Y44.492
G3 X19.066 Y44.692 I-0.001 J0.2
G1 Y49.471
G3 X18.865 Y49.671 I-0.2 J0
G1 X15.716 Y49.659
G3 X15.517 Y49.459 I0.001 J-0.2
G1 Y44.68
G3 X15.717 Y44.48 I0.2 J0
G1 X21.263 Y44.485
G3 X21.463 Y44.685 I0 J0.2
G1 Y49.464
G3 X21.263 Y49.664 I-0.2 J0
G1 X13.321 Y49.666
G3 X13.121 Y49.466 I0 J-0.2
G1 Y7.116
G3 X13.44 Y6.797 I0.319 J0
G1 X23.54
G3 X23.859 Y7.116 I0 J0.319
G1 Y49.474
G3 X23.659 Y49.674 I-0.2 J0
G1 X10.919 Y49.661
G3 X10.719 Y49.461 I0 J-0.2
G1 Y4.395
X26.261
Y48.075
Y49.472
G3 X26.061 Y49.672 I-0.2 J0
G1 X18.114 Y49.681
G3 X17.914 Y49.481 I0 J-0.2
G1 Z-2.4 F300
Y49.469
Y44.69 F1000
G3 X18.114 Y44.49 I0.2 J0
G1 X18.866 Y44.492
G3 X19.066 Y44.692 I-0.001 J0.2
G1 Y49.471
G3 X18.865 Y49.671 I-0.2 J0
G1 X15.716 Y49.659
G3 X15.517 Y49.459 I0.001 J-0.2
G1 Y44.68
G3 X15.717 Y44.48 I0.2 J0
G1 X21.263 Y44.485
G3 X21.463 Y44.685 I0 J0.2
G1 Y49.464
G3 X21.263 Y49.664 I-0.2 J0
G1 X13.321 Y49.666
G3 X13.121 Y49.466 I0 J-0.2
G1 Y7.116
G3 X13.44 Y6.797 I0.319 J0
G1 X23.54
G3 X23.859 Y7.116 I0 J0.319
G1 Y49.474
G3 X23.659 Y49.674 I-0.2 J0
G1 X10.919 Y49.661
G3 X10.719 Y49.461 I0 J-0.2
G1 Y4.395
X26.261
Y48.075
Y49.472
G3 X26.061 Y49.672 I-0.2 J0
G1 X18.114 Y49.681
G3 X17.914 Y49.481 I0 J-0.2
G1 Z-2.7 F300
Y49.469
Y44.69 F1000
G3 X18.114 Y44.49 I0.2 J0
G1 X18.866 Y44.492
G3 X19.066 Y44.692 I-0.001 J0.2
G1 Y49.471
G3 X18.865 Y49.671 I-0.2 J0
G1 X15.716 Y49.659
G3 X15.517 Y49.459 I0.001 J-0.2
G1 Y44.68
G3 X15.717 Y44.48 I0.2 J0
G1 X21.263 Y44.485
G3 X21.463 Y44.685 I0 J0.2
G1 Y49.464
G3 X21.263 Y49.664 I-0.2 J0
G1 X13.321 Y49.666
G3 X13.121 Y49.466 I0 J-0.2
G1 Y7.116
G3 X13.44 Y6.797 I0.319 J0
G1 X23.54
G3 X23.859 Y7.116 I0 J0.319
G1 Y49.474
G3 X23.659 Y49.674 I-0.2 J0
G1 X10.919 Y49.661
G3 X10.719 Y49.461 I0 J-0.2
G1 Y4.395
X26.261
Y48.075
Y49.472
G3 X26.061 Y49.672 I-0.2 J0
G1 X18.114 Y49.681
G3 X17.914 Y49.481 I0 J-0.2
G1 Z-3 F300
Y49.469
Y44.69 F1000
G3 X18.114 Y44.49 I0.2 J0
G1 X18.866 Y44.492
G3 X19.066 Y44.692 I-0.001 J0.2
G1 Y49.471
G3 X18.865 Y49.671 I-0.2 J0
G1 X15.716 Y49.659
G3 X15.517 Y49.459 I0.001 J-0.2
G1 Y44.68
G3 X15.717 Y44.48 I0.2 J0
G1 X21.263 Y44.485
G3 X21.463 Y44.685 I0 J0.2
G1 Y49.464
G3 X21.263 Y49.664 I-0.2 J0
G1 X13.321 Y49.666
G3 X13.121 Y49.466 I0 J-0.2
G1 Y7.116
G3 X13.44 Y6.797 I0.319 J0
G1 X23.54
G3 X23.859 Y7.116 I0 J0.319
G1 Y49.474
G3 X23.659 Y49.674 I-0.2 J0
G1 X10.919 Y49.661
G3 X10.719 Y49.461 I0 J-0.2
G1 Y4.395
X26.261
Y48.075
Y49.472
G0 Z6
X42.992 Y42.1
Z2
G1 Z1.3 F300
Z-0.3
X42.969 Y42.101
X35.375 F1000
X35.35 Y42.095
X35.332 Y42.076
X35.325 Y42.051
X35.332 Y42.026
X35.35 Y42.008
X35.375 Y42.001
X41.575
X42.971
X42.982 Y42.051
X42.992 Y42.1
Z-0.6 F300
X42.969 Y42.101
X35.375 F1000
X35.35 Y42.095
X35.332 Y42.076
X35.325 Y42.051
X35.332 Y42.026
X35.35 Y42.008
X35.375 Y42.001
X41.575
X42.971
X42.982 Y42.051
X42.992 Y42.1
Z-0.9 F300
X42.969 Y42.101
X35.375 F1000
X35.35 Y42.095
X35.332 Y42.076
X35.325 Y42.051
X35.332 Y42.026
X35.35 Y42.008
X35.375 Y42.001
X41.575
X42.971
X42.982 Y42.051
X42.992 Y42.1
Z-1.2 F300
X42.969 Y42.101
X35.375 F1000
X35.35 Y42.095
X35.332 Y42.076
X35.325 Y42.051
X35.332 Y42.026
X35.35 Y42.008
X35.375 Y42.001
X41.575
X42.971
X42.982 Y42.051
X42.992 Y42.1
Z-1.5 F300
X42.969 Y42.101
X35.375 F1000
X35.35 Y42.095
X35.332 Y42.076
X35.325 Y42.051
X35.332 Y42.026
X35.35 Y42.008
X35.375 Y42.001
X41.575
X42.971
X42.982 Y42.051
X42.992 Y42.1
Z-1.8 F300
X42.969 Y42.101
X35.375 F1000
X35.35 Y42.095
X35.332 Y42.076
X35.325 Y42.051
X35.332 Y42.026
X35.35 Y42.008
X35.375 Y42.001
X41.575
X42.971
X42.982 Y42.051
X42.992 Y42.1
Z-2.1 F300
X42.969 Y42.101
X35.375 F1000
X35.35 Y42.095
X35.332 Y42.076
X35.325 Y42.051
X35.332 Y42.026
X35.35 Y42.008
X35.375 Y42.001
X41.575
X42.971
X42.982 Y42.051
X42.992 Y42.1
Z-2.4 F300
X42.969 Y42.101
X35.375 F1000
X35.35 Y42.095
X35.332 Y42.076
X35.325 Y42.051
X35.332 Y42.026
X35.35 Y42.008
X35.375 Y42.001
X41.575
X42.971
X42.982 Y42.051
X42.992 Y42.1
Z-2.7 F300
X42.969 Y42.101
X35.375 F1000
X35.35 Y42.095
X35.332 Y42.076
X35.325 Y42.051
X35.332 Y42.026
X35.35 Y42.008
X35.375 Y42.001
X41.575
X42.971
X42.982 Y42.051
X42.992 Y42.1
Z-3 F300
X42.969 Y42.101
X35.375 F1000
X35.35 Y42.095
X35.332 Y42.076
X35.325 Y42.051
X35.332 Y42.026
X35.35 Y42.008
X35.375 Y42.001
X41.575
X42.971
G0 Z6
X42.992 Y37.1
Z2
G1 Z1.3 F300
Z-0.3
X42.969 Y37.101
X35.375 F1000
X35.35 Y37.095
X35.332 Y37.076
X35.325 Y37.051
X35.332 Y37.026
X35.35 Y37.008
X35.375 Y37.001
X41.575
X42.971
X42.982 Y37.051
X42.992 Y37.1
Z-0.6 F300
X42.969 Y37.101
X35.375 F1000
X35.35 Y37.095
X35.332 Y37.076
X35.325 Y37.051
X35.332 Y37.026
X35.35 Y37.008
X35.375 Y37.001
X41.575
X42.971
X42.982 Y37.051
X42.992 Y37.1
Z-0.9 F300
X42.969 Y37.101
X35.375 F1000
X35.35 Y37.095
X35.332 Y37.076
X35.325 Y37.051
X35.332 Y37.026
X35.35 Y37.008
X35.375 Y37.001
X41.575
X42.971
X42.982 Y37.051
X42.992 Y37.1
Z-1.2 F300
X42.969 Y37.101
X35.375 F1000
X35.35 Y37.095
X35.332 Y37.076
X35.325 Y37.051
X35.332 Y37.026
X35.35 Y37.008
X35.375 Y37.001
X41.575
X42.971
X42.982 Y37.051
X42.992 Y37.1
Z-1.5 F300
X42.969 Y37.101
X35.375 F1000
X35.35 Y37.095
X35.332 Y37.076
X35.325 Y37.051
X35.332 Y37.026
X35.35 Y37.008
X35.375 Y37.001
X41.575
X42.971
X42.982 Y37.051
X42.992 Y37.1
Z-1.8 F300
X42.969 Y37.101
X35.375 F1000
X35.35 Y37.095
X35.332 Y37.076
X35.325 Y37.051
X35.332 Y37.026
X35.35 Y37.008
X35.375 Y37.001
X41.575
X42.971
X42.982 Y37.051
X42.992 Y37.1
Z-2.1 F300
X42.969 Y37.101
X35.375 F1000
X35.35 Y37.095
X35.332 Y37.076
X35.325 Y37.051
X35.332 Y37.026
X35.35 Y37.008
X35.375 Y37.001
X41.575
X42.971
X42.982 Y37.051
X42.992 Y37.1
Z-2.4 F300
X42.969 Y37.101
X35.375 F1000
X35.35 Y37.095
X35.332 Y37.076
X35.325 Y37.051
X35.332 Y37.026
X35.35 Y37.008
X35.375 Y37.001
X41.575
X42.971
X42.982 Y37.051
X42.992 Y37.1
Z-2.7 F300
X42.969 Y37.101
X35.375 F1000
X35.35 Y37.095
X35.332 Y37.076
X35.325 Y37.051
X35.332 Y37.026
X35.35 Y37.008
X35.375 Y37.001
X41.575
X42.971
X42.982 Y37.051
X42.992 Y37.1
Z-3 F300
X42.969 Y37.101
X35.375 F1000
X35.35 Y37.095
X35.332 Y37.076
X35.325 Y37.051
X35.332 Y37.026
X35.35 Y37.008
X35.375 Y37.001
X41.575
X42.971
G0 Z6
X42.992 Y32.1
Z2
G1 Z1.3 F300
Z-0.3
X42.969 Y32.101
X35.375 F1000
X35.35 Y32.095
X35.332 Y32.076
X35.325 Y32.051
X35.332 Y32.026
X35.35 Y32.008
X35.375 Y32.001
X41.575
X42.971
X42.982 Y32.051
X42.992 Y32.1
Z-0.6 F300
X42.969 Y32.101
X35.375 F1000
X35.35 Y32.095
X35.332 Y32.076
X35.325 Y32.051
X35.332 Y32.026
X35.35 Y32.008
X35.375 Y32.001
X41.575
X42.971
X42.982 Y32.051
X42.992 Y32.1
Z-0.9 F300
X42.969 Y32.101
X35.375 F1000
X35.35 Y32.095
X35.332 Y32.076
X35.325 Y32.051
X35.332 Y32.026
X35.35 Y32.008
X35.375 Y32.001
X41.575
X42.971
X42.982 Y32.051
X42.992 Y32.1
Z-1.2 F300
X42.969 Y32.101
X35.375 F1000
X35.35 Y32.095
X35.332 Y32.076
X35.325 Y32.051
X35.332 Y32.026
X35.35 Y32.008
X35.375 Y32.001
X41.575
X42.971
X42.982 Y32.051
X42.992 Y32.1
Z-1.5 F300
X42.969 Y32.101
X35.375 F1000
X35.35 Y32.095
X35.332 Y32.076
X35.325 Y32.051
X35.332 Y32.026
X35.35 Y32.008
X35.375 Y32.001
X41.575
X42.971
X42.982 Y32.051
X42.992 Y32.1
Z-1.8 F300
X42.969 Y32.101
X35.375 F1000
X35.35 Y32.095
X35.332 Y32.076
X35.325 Y32.051
X35.332 Y32.026
X35.35 Y32.008
X35.375 Y32.001
X41.575
X42.971
X42.982 Y32.051
X42.992 Y32.1
Z-2.1 F300
X42.969 Y32.101
X35.375 F1000
X35.35 Y32.095
X35.332 Y32.076
X35.325 Y32.051
X35.332 Y32.026
X35.35 Y32.008
X35.375 Y32.001
X41.575
X42.971
X42.982 Y32.051
X42.992 Y32.1
Z-2.4 F300
X42.969 Y32.101
X35.375 F1000
X35.35 Y32.095
X35.332 Y32.076
X35.325 Y32.051
X35.332 Y32.026
X35.35 Y32.008
X35.375 Y32.001
X41.575
X42.971
X42.982 Y32.051
X42.992 Y32.1
Z-2.7 F300
X42.969 Y32.101
X35.375 F1000
X35.35 Y32.095
X35.332 Y32.076
X35.325 Y32.051
X35.332 Y32.026
X35.35 Y32.008
X35.375 Y32.001
X41.575
X42.971
X42.982 Y32.051
X42.992 Y32.1
Z-3 F300
X42.969 Y32.101
X35.375 F1000
X35.35 Y32.095
X35.332 Y32.076
X35.325 Y32.051
X35.332 Y32.026
X35.35 Y32.008
X35.375 Y32.001
X41.575
X42.971
G0 Z6
X42.992 Y27.1
Z2
G1 Z1.3 F300
Z-0.3
X42.969 Y27.101
X35.375 F1000
X35.35 Y27.095
X35.331 Y27.076
X35.325 Y27.051
X35.332 Y27.026
X35.35 Y27.008
X35.375 Y27.001
X41.575
X42.971
X42.982 Y27.051
X42.992 Y27.1
Z-0.6 F300
X42.969 Y27.101
X35.375 F1000
X35.35 Y27.095
X35.331 Y27.076
X35.325 Y27.051
X35.332 Y27.026
X35.35 Y27.008
X35.375 Y27.001
X41.575
X42.971
X42.982 Y27.051
X42.992 Y27.1
Z-0.9 F300
X42.969 Y27.101
X35.375 F1000
X35.35 Y27.095
X35.331 Y27.076
X35.325 Y27.051
X35.332 Y27.026
X35.35 Y27.008
X35.375 Y27.001
X41.575
X42.971
X42.982 Y27.051
X42.992 Y27.1
Z-1.2 F300
X42.969 Y27.101
X35.375 F1000
X35.35 Y27.095
X35.331 Y27.076
X35.325 Y27.051
X35.332 Y27.026
X35.35 Y27.008
X35.375 Y27.001
X41.575
X42.971
X42.982 Y27.051
X42.992 Y27.1
Z-1.5 F300
X42.969 Y27.101
X35.375 F1000
X35.35 Y27.095
X35.331 Y27.076
X35.325 Y27.051
X35.332 Y27.026
X35.35 Y27.008
X35.375 Y27.001
X41.575
X42.971
X42.982 Y27.051
X42.992 Y27.1
Z-1.8 F300
X42.969 Y27.101
X35.375 F1000
X35.35 Y27.095
X35.331 Y27.076
X35.325 Y27.051
X35.332 Y27.026
X35.35 Y27.008
X35.375 Y27.001
X41.575
X42.971
X42.982 Y27.051
X42.992 Y27.1
Z-2.1 F300
X42.969 Y27.101
X35.375 F1000
X35.35 Y27.095
X35.331 Y27.076
X35.325 Y27.051
X35.332 Y27.026
X35.35 Y27.008
X35.375 Y27.001
X41.575
X42.971
X42.982 Y27.051
X42.992 Y27.1
Z-2.4 F300
X42.969 Y27.101
X35.375 F1000
X35.35 Y27.095
X35.331 Y27.076
X35.325 Y27.051
X35.332 Y27.026
X35.35 Y27.008
X35.375 Y27.001
X41.575
X42.971
X42.982 Y27.051
X42.992 Y27.1
Z-2.7 F300
X42.969 Y27.101
X35.375 F1000
X35.35 Y27.095
X35.331 Y27.076
X35.325 Y27.051
X35.332 Y27.026
X35.35 Y27.008
X35.375 Y27.001
X41.575
X42.971
X42.982 Y27.051
X42.992 Y27.1
Z-3 F300
X42.969 Y27.101
X35.375 F1000
X35.35 Y27.095
X35.331 Y27.076
X35.325 Y27.051
X35.332 Y27.026
X35.35 Y27.008
X35.375 Y27.001
X41.575
X42.971
G0 Z6
X42.992 Y22.1
Z2
G1 Z1.3 F300
Z-0.3
X42.969 Y22.101
X35.375 F1000
X35.35 Y22.095
X35.331 Y22.076
X35.325 Y22.051
X35.332 Y22.026
X35.35 Y22.008
X35.375 Y22.001
X41.575
X42.971
X42.982 Y22.051
X42.992 Y22.1
Z-0.6 F300
X42.969 Y22.101
X35.375 F1000
X35.35 Y22.095
X35.331 Y22.076
X35.325 Y22.051
X35.332 Y22.026
X35.35 Y22.008
X35.375 Y22.001
X41.575
X42.971
X42.982 Y22.051
X42.992 Y22.1
Z-0.9 F300
X42.969 Y22.101
X35.375 F1000
X35.35 Y22.095
X35.331 Y22.076
X35.325 Y22.051
X35.332 Y22.026
X35.35 Y22.008
X35.375 Y22.001
X41.575
X42.971
X42.982 Y22.051
X42.992 Y22.1
Z-1.2 F300
X42.969 Y22.101
X35.375 F1000
X35.35 Y22.095
X35.331 Y22.076
X35.325 Y22.051
X35.332 Y22.026
X35.35 Y22.008
X35.375 Y22.001
X41.575
X42.971
X42.982 Y22.051
X42.992 Y22.1
Z-1.5 F300
X42.969 Y22.101
X35.375 F1000
X35.35 Y22.095
X35.331 Y22.076
X35.325 Y22.051
X35.332 Y22.026
X35.35 Y22.008
X35.375 Y22.001
X41.575
X42.971
X42.982 Y22.051
X42.992 Y22.1
Z-1.8 F300
X42.969 Y22.101
X35.375 F1000
X35.35 Y22.095
X35.331 Y22.076
X35.325 Y22.051
X35.332 Y22.026
X35.35 Y22.008
X35.375 Y22.001
X41.575
X42.971
X42.982 Y22.051
X42.992 Y22.1
Z-2.1 F300
X42.969 Y22.101
X35.375 F1000
X35.35 Y22.095
X35.331 Y22.076
X35.325 Y22.051
X35.332 Y22.026
X35.35 Y22.008
X35.375 Y22.001
X41.575
X42.971
X42.982 Y22.051
X42.992 Y22.1
Z-2.4 F300
X42.969 Y22.101
X35.375 F1000
X35.35 Y22.095
X35.331 Y22.076
X35.325 Y22.051
X35.332 Y22.026
X35.35 Y22.008
X35.375 Y22.001
X41.575
X42.971
X42.982 Y22.051
X42.992 Y22.1
Z-2.7 F300
X42.969 Y22.101
X35.375 F1000
X35.35 Y22.095
X35.331 Y22.076
X35.325 Y22.051
X35.332 Y22.026
X35.35 Y22.008
X35.375 Y22.001
X41.575
X42.971
X42.982 Y22.051
X42.992 Y22.1
Z-3 F300
X42.969 Y22.101
X35.375 F1000
X35.35 Y22.095
X35.331 Y22.076
X35.325 Y22.051
X35.332 Y22.026
X35.35 Y22.008
X35.375 Y22.001
X41.575
X42.971
G0 Z6
X42.992 Y17.1
Z2
G1 Z1.3 F300
Z-0.3
X42.969 Y17.101
X35.375 F1000
X35.35 Y17.095
X35.331 Y17.076
X35.325 Y17.051
X35.332 Y17.026
X35.35 Y17.008
X35.375 Y17.001
X41.575
X42.971
X42.982 Y17.051
X42.992 Y17.1
Z-0.6 F300
X42.969 Y17.101
X35.375 F1000
X35.35 Y17.095
X35.331 Y17.076
X35.325 Y17.051
X35.332 Y17.026
X35.35 Y17.008
X35.375 Y17.001
X41.575
X42.971
X42.982 Y17.051
X42.992 Y17.1
Z-0.9 F300
X42.969 Y17.101
X35.375 F1000
X35.35 Y17.095
X35.331 Y17.076
X35.325 Y17.051
X35.332 Y17.026
X35.35 Y17.008
X35.375 Y17.001
X41.575
X42.971
X42.982 Y17.051
X42.992 Y17.1
Z-1.2 F300
X42.969 Y17.101
X35.375 F1000
X35.35 Y17.095
X35.331 Y17.076
X35.325 Y17.051
X35.332 Y17.026
X35.35 Y17.008
X35.375 Y17.001
X41.575
X42.971
X42.982 Y17.051
X42.992 Y17.1
Z-1.5 F300
X42.969 Y17.101
X35.375 F1000
X35.35 Y17.095
X35.331 Y17.076
X35.325 Y17.051
X35.332 Y17.026
X35.35 Y17.008
X35.375 Y17.001
X41.575
X42.971
X42.982 Y17.051
X42.992 Y17.1
Z-1.8 F300
X42.969 Y17.101
X35.375 F1000
X35.35 Y17.095
X35.331 Y17.076
X35.325 Y17.051
X35.332 Y17.026
X35.35 Y17.008
X35.375 Y17.001
X41.575
X42.971
X42.982 Y17.051
X42.992 Y17.1
Z-2.1 F300
X42.969 Y17.101
X35.375 F1000
X35.35 Y17.095
X35.331 Y17.076
X35.325 Y17.051
X35.332 Y17.026
X35.35 Y17.008
X35.375 Y17.001
X41.575
X42.971
X42.982 Y17.051
X42.992 Y17.1
Z-2.4 F300
X42.969 Y17.101
X35.375 F1000
X35.35 Y17.095
X35.331 Y17.076
X35.325 Y17.051
X35.332 Y17.026
X35.35 Y17.008
X35.375 Y17.001
X41.575
X42.971
X42.982 Y17.051
X42.992 Y17.1
Z-2.7 F300
X42.969 Y17.101
X35.375 F1000
X35.35 Y17.095
X35.331 Y17.076
X35.325 Y17.051
X35.332 Y17.026
X35.35 Y17.008
X35.375 Y17.001
X41.575
X42.971
X42.982 Y17.051
X42.992 Y17.1
Z-3 F300
X42.969 Y17.101
X35.375 F1000
X35.35 Y17.095
X35.331 Y17.076
X35.325 Y17.051
X35.332 Y17.026
X35.35 Y17.008
X35.375 Y17.001
X41.575
X42.971
G0 Z6
X42.992 Y12.1
Z2
G1 Z1.3 F300
Z-0.3
X42.969 Y12.101
X35.375 F1000
X35.35 Y12.095
X35.332 Y12.076
X35.325 Y12.051
X35.332 Y12.026
X35.35 Y12.008
X35.375 Y12.001
X41.575
X42.971
X42.982 Y12.051
X42.992 Y12.1
Z-0.6 F300
X42.969 Y12.101
X35.375 F1000
X35.35 Y12.095
X35.332 Y12.076
X35.325 Y12.051
X35.332 Y12.026
X35.35 Y12.008
X35.375 Y12.001
X41.575
X42.971
X42.982 Y12.051
X42.992 Y12.1
Z-0.9 F300
X42.969 Y12.101
X35.375 F1000
X35.35 Y12.095
X35.332 Y12.076
X35.325 Y12.051
X35.332 Y12.026
X35.35 Y12.008
X35.375 Y12.001
X41.575
X42.971
X42.982 Y12.051
X42.992 Y12.1
Z-1.2 F300
X42.969 Y12.101
X35.375 F1000
X35.35 Y12.095
X35.332 Y12.076
X35.325 Y12.051
X35.332 Y12.026
X35.35 Y12.008
X35.375 Y12.001
X41.575
X42.971
X42.982 Y12.051
X42.992 Y12.1
Z-1.5 F300
X42.969 Y12.101
X35.375 F1000
X35.35 Y12.095
X35.332 Y12.076
X35.325 Y12.051
X35.332 Y12.026
X35.35 Y12.008
X35.375 Y12.001
X41.575
X42.971
X42.982 Y12.051
X42.992 Y12.1
Z-1.8 F300
X42.969 Y12.101
X35.375 F1000
X35.35 Y12.095
X35.332 Y12.076
X35.325 Y12.051
X35.332 Y12.026
X35.35 Y12.008
X35.375 Y12.001
X41.575
X42.971
X42.982 Y12.051
X42.992 Y12.1
Z-2.1 F300
X42.969 Y12.101
X35.375 F1000
X35.35 Y12.095
X35.332 Y12.076
X35.325 Y12.051
X35.332 Y12.026
X35.35 Y12.008
X35.375 Y12.001
X41.575
X42.971
X42.982 Y12.051
X42.992 Y12.1
Z-2.4 F300
X42.969 Y12.101
X35.375 F1000
X35.35 Y12.095
X35.332 Y12.076
X35.325 Y12.051
X35.332 Y12.026
X35.35 Y12.008
X35.375 Y12.001
X41.575
X42.971
X42.982 Y12.051
X42.992 Y12.1
Z-2.7 F300
X42.969 Y12.101
X35.375 F1000
X35.35 Y12.095
X35.332 Y12.076
X35.325 Y12.051
X35.332 Y12.026
X35.35 Y12.008
X35.375 Y12.001
X41.575
X42.971
X42.982 Y12.051
X42.992 Y12.1
Z-3 F300
X42.969 Y12.101
X35.375 F1000
X35.35 Y12.095
X35.332 Y12.076
X35.325 Y12.051
X35.332 Y12.026
X35.35 Y12.008
X35.375 Y12.001
X41.575
X42.971
G0 Z6
X42.992 Y7.1
Z2
G1 Z1.3 F300
Z-0.3
X42.969 Y7.101
X35.375 F1000
X35.35 Y7.095
X35.332 Y7.076
X35.325 Y7.051
X35.332 Y7.026
X35.35 Y7.008
X35.375 Y7.001
X41.575
X42.971
X42.982 Y7.051
X42.992 Y7.1
Z-0.6 F300
X42.969 Y7.101
X35.375 F1000
X35.35 Y7.095
X35.332 Y7.076
X35.325 Y7.051
X35.332 Y7.026
X35.35 Y7.008
X35.375 Y7.001
X41.575
X42.971
X42.982 Y7.051
X42.992 Y7.1
Z-0.9 F300
X42.969 Y7.101
X35.375 F1000
X35.35 Y7.095
X35.332 Y7.076
X35.325 Y7.051
X35.332 Y7.026
X35.35 Y7.008
X35.375 Y7.001
X41.575
X42.971
X42.982 Y7.051
X42.992 Y7.1
Z-1.2 F300
X42.969 Y7.101
X35.375 F1000
X35.35 Y7.095
X35.332 Y7.076
X35.325 Y7.051
X35.332 Y7.026
X35.35 Y7.008
X35.375 Y7.001
X41.575
X42.971
X42.982 Y7.051
X42.992 Y7.1
Z-1.5 F300
X42.969 Y7.101
X35.375 F1000
X35.35 Y7.095
X35.332 Y7.076
X35.325 Y7.051
X35.332 Y7.026
X35.35 Y7.008
X35.375 Y7.001
X41.575
X42.971
X42.982 Y7.051
X42.992 Y7.1
Z-1.8 F300
X42.969 Y7.101
X35.375 F1000
X35.35 Y7.095
X35.332 Y7.076
X35.325 Y7.051
X35.332 Y7.026
X35.35 Y7.008
X35.375 Y7.001
X41.575
X42.971
X42.982 Y7.051
X42.992 Y7.1
Z-2.1 F300
X42.969 Y7.101
X35.375 F1000
X35.35 Y7.095
X35.332 Y7.076
X35.325 Y7.051
X35.332 Y7.026
X35.35 Y7.008
X35.375 Y7.001
X41.575
X42.971
X42.982 Y7.051
X42.992 Y7.1
Z-2.4 F300
X42.969 Y7.101
X35.375 F1000
X35.35 Y7.095
X35.332 Y7.076
X35.325 Y7.051
X35.332 Y7.026
X35.35 Y7.008
X35.375 Y7.001
X41.575
X42.971
X42.982 Y7.051
X42.992 Y7.1
Z-2.7 F300
X42.969 Y7.101
X35.375 F1000
X35.35 Y7.095
X35.332 Y7.076
X35.325 Y7.051
X35.332 Y7.026
X35.35 Y7.008
X35.375 Y7.001
X41.575
X42.971
X42.982 Y7.051
X42.992 Y7.1
Z-3 F300
X42.969 Y7.101
X35.375 F1000
X35.35 Y7.095
X35.332 Y7.076
X35.325 Y7.051
X35.332 Y7.026
X35.35 Y7.008
X35.375 Y7.001
X41.575
X42.971
G0 Z6
X42.992 Y2.1
Z2
G1 Z1.3 F300
Z-0.3
X42.969 Y2.101
X35.375 F1000
X35.35 Y2.095
X35.331 Y2.076
X35.325 Y2.051
X35.331 Y2.026
X35.35 Y2.008
X35.375 Y2.001
X41.575
X42.971
X42.982 Y2.051
X42.992 Y2.1
Z-0.6 F300
X42.969 Y2.101
X35.375 F1000
X35.35 Y2.095
X35.331 Y2.076
X35.325 Y2.051
X35.331 Y2.026
X35.35 Y2.008
X35.375 Y2.001
X41.575
X42.971
X42.982 Y2.051
X42.992 Y2.1
Z-0.9 F300
X42.969 Y2.101
X35.375 F1000
X35.35 Y2.095
X35.331 Y2.076
X35.325 Y2.051
X35.331 Y2.026
X35.35 Y2.008
X35.375 Y2.001
X41.575
X42.971
X42.982 Y2.051
X42.992 Y2.1
Z-1.2 F300
X42.969 Y2.101
X35.375 F1000
X35.35 Y2.095
X35.331 Y2.076
X35.325 Y2.051
X35.331 Y2.026
X35.35 Y2.008
X35.375 Y2.001
X41.575
X42.971
X42.982 Y2.051
X42.992 Y2.1
Z-1.5 F300
X42.969 Y2.101
X35.375 F1000
X35.35 Y2.095
X35.331 Y2.076
X35.325 Y2.051
X35.331 Y2.026
X35.35 Y2.008
X35.375 Y2.001
X41.575
X42.971
X42.982 Y2.051
X42.992 Y2.1
Z-1.8 F300
X42.969 Y2.101
X35.375 F1000
X35.35 Y2.095
X35.331 Y2.076
X35.325 Y2.051
X35.331 Y2.026
X35.35 Y2.008
X35.375 Y2.001
X41.575
X42.971
X42.982 Y2.051
X42.992 Y2.1
Z-2.1 F300
X42.969 Y2.101
X35.375 F1000
X35.35 Y2.095
X35.331 Y2.076
X35.325 Y2.051
X35.331 Y2.026
X35.35 Y2.008
X35.375 Y2.001
X41.575
X42.971
X42.982 Y2.051
X42.992 Y2.1
Z-2.4 F300
X42.969 Y2.101
X35.375 F1000
X35.35 Y2.095
X35.331 Y2.076
X35.325 Y2.051
X35.331 Y2.026
X35.35 Y2.008
X35.375 Y2.001
X41.575
X42.971
X42.982 Y2.051
X42.992 Y2.1
Z-2.7 F300
X42.969 Y2.101
X35.375 F1000
X35.35 Y2.095
X35.331 Y2.076
X35.325 Y2.051
X35.331 Y2.026
X35.35 Y2.008
X35.375 Y2.001
X41.575
X42.971
X42.982 Y2.051
X42.992 Y2.1
Z-3 F300
X42.969 Y2.101
X35.375 F1000
X35.35 Y2.095
X35.331 Y2.076
X35.325 Y2.051
X35.331 Y2.026
X35.35 Y2.008
X35.375 Y2.001
X41.575
X42.971
G0 Z6
M9
M5
M30
