(1001)
(T1  D=3 CR=0 - ZMIN=-7.8 - flat end mill)
G90 G94
G17
G21

(2D Contour1 3)
T1
S500 M3
G54
M8
G0 X-19.287 Y-4.5
Z6
Z2
G1 Z1.3 F300
Z-0.3
X-38.575 F1000
G2 X-43.075 Y0 I0 J4.5
G1 Y43.075
G2 X-38.575 Y47.575 I4.5 J0
G1 X0
G2 X4.5 Y43.075 I0 J-4.5
G1 Y0
G2 X0 Y-4.5 I-4.5 J0
G1 X-19.287
Z-0.6 F300
X-38.575 F1000
G2 X-43.075 Y0 I0 J4.5
G1 Y43.075
G2 X-38.575 Y47.575 I4.5 J0
G1 X0
G2 X4.5 Y43.075 I0 J-4.5
G1 Y0
G2 X0 Y-4.5 I-4.5 J0
G1 X-19.287
Z-0.9 F300
X-38.575 F1000
G2 X-43.075 Y0 I0 J4.5
G1 Y43.075
G2 X-38.575 Y47.575 I4.5 J0
G1 X0
G2 X4.5 Y43.075 I0 J-4.5
G1 Y0
G2 X0 Y-4.5 I-4.5 J0
G1 X-19.287
Z-1.2 F300
X-38.575 F1000
G2 X-43.075 Y0 I0 J4.5
G1 Y43.075
G2 X-38.575 Y47.575 I4.5 J0
G1 X0
G2 X4.5 Y43.075 I0 J-4.5
G1 Y0
G2 X0 Y-4.5 I-4.5 J0
G1 X-19.287
Z-1.5 F300
X-38.575 F1000
G2 X-43.075 Y0 I0 J4.5
G1 Y43.075
G2 X-38.575 Y47.575 I4.5 J0
G1 X0
G2 X4.5 Y43.075 I0 J-4.5
G1 Y0
G2 X0 Y-4.5 I-4.5 J0
G1 X-19.287
Z-1.8 F300
X-38.575 F1000
G2 X-43.075 Y0 I0 J4.5
G1 Y43.075
G2 X-38.575 Y47.575 I4.5 J0
G1 X0
G2 X4.5 Y43.075 I0 J-4.5
G1 Y0
G2 X0 Y-4.5 I-4.5 J0
G1 X-19.287
Z-2.1 F300
X-38.575 F1000
G2 X-43.075 Y0 I0 J4.5
G1 Y43.075
G2 X-38.575 Y47.575 I4.5 J0
G1 X0
G2 X4.5 Y43.075 I0 J-4.5
G1 Y0
G2 X0 Y-4.5 I-4.5 J0
G1 X-19.287
Z-2.4 F300
X-38.575 F1000
G2 X-43.075 Y0 I0 J4.5
G1 Y43.075
G2 X-38.575 Y47.575 I4.5 J0
G1 X0
G2 X4.5 Y43.075 I0 J-4.5
G1 Y0
G2 X0 Y-4.5 I-4.5 J0
G1 X-19.287
Z-2.7 F300
X-38.575 F1000
G2 X-43.075 Y0 I0 J4.5
G1 Y43.075
G2 X-38.575 Y47.575 I4.5 J0
G1 X0
G2 X4.5 Y43.075 I0 J-4.5
G1 Y0
G2 X0 Y-4.5 I-4.5 J0
G1 X-19.287
Z-3 F300
X-38.575 F1000
G2 X-43.075 Y0 I0 J4.5
G1 Y43.075
G2 X-38.575 Y47.575 I4.5 J0
G1 X0
G2 X4.5 Y43.075 I0 J-4.5
G1 Y0
G2 X0 Y-4.5 I-4.5 J0
G1 X-19.287
Z-3.3 F300
X-38.575 F1000
G2 X-43.075 Y0 I0 J4.5
G1 Y43.075
G2 X-38.575 Y47.575 I4.5 J0
G1 X0
G2 X4.5 Y43.075 I0 J-4.5
G1 Y0
G2 X0 Y-4.5 I-4.5 J0
G1 X-19.287
Z-3.6 F300
X-38.575 F1000
G2 X-43.075 Y0 I0 J4.5
G1 Y43.075
G2 X-38.575 Y47.575 I4.5 J0
G1 X0
G2 X4.5 Y43.075 I0 J-4.5
G1 Y0
G2 X0 Y-4.5 I-4.5 J0
G1 X-19.287
Z-3.9 F300
X-38.575 F1000
G2 X-43.075 Y0 I0 J4.5
G1 Y43.075
G2 X-38.575 Y47.575 I4.5 J0
G1 X0
G2 X4.5 Y43.075 I0 J-4.5
G1 Y0
G2 X0 Y-4.5 I-4.5 J0
G1 X-19.287
Z-4.2 F300
X-38.575 F1000
G2 X-43.075 Y0 I0 J4.5
G1 Y43.075
G2 X-38.575 Y47.575 I4.5 J0
G1 X0
G2 X4.5 Y43.075 I0 J-4.5
G1 Y0
G2 X0 Y-4.5 I-4.5 J0
G1 X-19.287
Z-4.5 F300
X-38.575 F1000
G2 X-43.075 Y0 I0 J4.5
G1 Y43.075
G2 X-38.575 Y47.575 I4.5 J0
G1 X0
G2 X4.5 Y43.075 I0 J-4.5
G1 Y0
G2 X0 Y-4.5 I-4.5 J0
G1 X-19.287
Z-4.8 F300
X-38.575 F1000
G2 X-43.075 Y0 I0 J4.5
G1 Y43.075
G2 X-38.575 Y47.575 I4.5 J0
G1 X0
G2 X4.5 Y43.075 I0 J-4.5
G1 Y0
G2 X0 Y-4.5 I-4.5 J0
G1 X-19.287
Z-5.1 F300
X-38.575 F1000
G2 X-43.075 Y0 I0 J4.5
G1 Y43.075
G2 X-38.575 Y47.575 I4.5 J0
G1 X0
G2 X4.5 Y43.075 I0 J-4.5
G1 Y0
G2 X0 Y-4.5 I-4.5 J0
G1 X-19.287
Z-5.4 F300
X-38.575 F1000
G2 X-43.075 Y0 I0 J4.5
G1 Y43.075
G2 X-38.575 Y47.575 I4.5 J0
G1 X0
G2 X4.5 Y43.075 I0 J-4.5
G1 Y0
G2 X0 Y-4.5 I-4.5 J0
G1 X-19.287
Z-5.7 F300
X-38.575 F1000
G2 X-43.075 Y0 I0 J4.5
G1 Y43.075
G2 X-38.575 Y47.575 I4.5 J0
G1 X0
G2 X4.5 Y43.075 I0 J-4.5
G1 Y0
G2 X0 Y-4.5 I-4.5 J0
G1 X-19.287
Z-6 F300
X-38.575 F1000
G2 X-43.075 Y0 I0 J4.5
G1 Y43.075
G2 X-38.575 Y47.575 I4.5 J0
G1 X0
G2 X4.5 Y43.075 I0 J-4.5
G1 Y0
G2 X0 Y-4.5 I-4.5 J0
G1 X-19.287
Z-6.3 F300
X-38.575 F1000
G2 X-43.075 Y0 I0 J4.5
G1 Y43.075
G2 X-38.575 Y47.575 I4.5 J0
G1 X0
G2 X4.5 Y43.075 I0 J-4.5
G1 Y0
G2 X0 Y-4.5 I-4.5 J0
G1 X-19.287
Z-6.6 F300
X-38.575 F1000
G2 X-43.075 Y0 I0 J4.5
G1 Y43.075
G2 X-38.575 Y47.575 I4.5 J0
G1 X0
G2 X4.5 Y43.075 I0 J-4.5
G1 Y0
G2 X0 Y-4.5 I-4.5 J0
G1 X-19.287
Z-6.8 F300
X-22.287 F1000
Z-6.9 F300
X-38.575 F1000
G2 X-43.075 Y0 I0 J4.5
G1 Y18.538
Z-6.8
Y24.538
Z-6.9 F300
Y43.075 F1000
G2 X-38.575 Y47.575 I4.5 J0
G1 X-22.287
Z-6.8
X-16.287
Z-6.9 F300
X0 F1000
G2 X4.5 Y43.075 I0 J-4.5
G1 Y24.538
Z-6.8
Y18.538
Z-6.9 F300
Y0 F1000
G2 X0 Y-4.5 I-4.5 J0
G1 X-16.287
Z-6.8
X-19.287
X-22.287
Z-7.2 F300
X-38.575 F1000
G2 X-43.075 Y0 I0 J4.5
G1 Y18.538
Z-6.8
Y24.538
Z-7.2 F300
Y43.075 F1000
G2 X-38.575 Y47.575 I4.5 J0
G1 X-22.287
Z-6.8
X-16.287
Z-7.2 F300
X0 F1000
G2 X4.5 Y43.075 I0 J-4.5
G1 Y24.538
Z-6.8
Y18.538
Z-7.2 F300
Y0 F1000
G2 X0 Y-4.5 I-4.5 J0
G1 X-16.287
Z-6.8
X-19.287
X-22.287
Z-7.5 F300
X-38.575 F1000
G2 X-43.075 Y0 I0 J4.5
G1 Y18.538
Z-6.8
Y24.538
Z-7.5 F300
Y43.075 F1000
G2 X-38.575 Y47.575 I4.5 J0
G1 X-22.287
Z-6.8
X-16.287
Z-7.5 F300
X0 F1000
G2 X4.5 Y43.075 I0 J-4.5
G1 Y24.538
Z-6.8
Y18.538
Z-7.5 F300
Y0 F1000
G2 X0 Y-4.5 I-4.5 J0
G1 X-16.287
Z-6.8
X-19.287
X-22.287
Z-7.8 F300
X-38.575 F1000
G2 X-43.075 Y0 I0 J4.5
G1 Y18.538
Z-6.8
Y24.538
Z-7.8 F300
Y43.075 F1000
G2 X-38.575 Y47.575 I4.5 J0
G1 X-22.287
Z-6.8
X-16.287
Z-7.8 F300
X0 F1000
G2 X4.5 Y43.075 I0 J-4.5
G1 Y24.538
Z-6.8
Y18.538
Z-7.8 F300
Y0 F1000
G2 X0 Y-4.5 I-4.5 J0
G1 X-16.287
Z-6.8
X-19.287
G0 Z6
M9
M5
M30
