(1001)
(T4  D=3 CR=0 - ZMIN=-18 - flat end mill)
G90 G94
G17
G21

(2D Pocket2)
T4
S15000 M3
G54
M8
G0 X100.962 Y149.389
Z6
Z2
G1 Z1.3 F700
Z-0.3
Y149.378
Y120.107
G3 X101.225 Y119.983 I0.161 J0
G2 X101.764 Y120.42 I40.284 J-49.121
G3 X101.922 Y120.749 I-0.264 J0.329
G1 Y149.375
G3 X101.721 Y149.575 I-0.2 J0
G1 X100.177 Y149.569
G3 X99.978 Y149.369 I0.001 J-0.2
G1 Y117.965
G3 X100.237 Y117.848 I0.156 J0
G2 X102.551 Y119.789 I37.571 J-42.441
G3 X102.906 Y120.527 I-0.589 J0.738
G1 Y149.371
G3 X102.706 Y149.571 I-0.2 J0
G1 X98.224 Y149.572
G3 X98.023 Y149.372 I0 J-0.2
G1 Y113.368
G3 X98.276 Y113.267 I0.147 J0
G2 X104.506 Y118.837 I40.171 J-38.66
G3 X104.861 Y119.558 I-0.556 J0.721
G1 Y149.379
G3 X104.661 Y149.579 I-0.2 J0
G1 X96.323 Y149.57
G3 X96.123 Y149.37 I0 J-0.2
G1 Y108.313
G3 X96.367 Y108.227 I0.137 J0
G2 X106.408 Y117.892 I42.866 J-34.483
G3 X106.761 Y118.596 I-0.525 J0.704
G1 Y149.376
G3 X106.561 Y149.576 I-0.2 J0
G1 X94.486 Y149.574
G3 X94.286 Y149.374 I0 J-0.2
G1 Y102.583
X94.292 Y102.543
X94.311 Y102.507
X94.34 Y102.479
X94.377 Y102.461
X94.417 Y102.456
X94.457 Y102.464
X94.493 Y102.484
X94.52 Y102.515
G2 X108.246 Y116.958 I44.085 J-28.152
G3 X108.599 Y117.646 I-0.494 J0.688
G1 Y149.385
G3 X108.399 Y149.585 I-0.2 J0
G1 X92.217 Y149.57
G3 X92.017 Y149.37 I0 J-0.2
G1 Y100.225
G3 X92.337 Y99.906 I0.319 J0
G1 X95.16
G3 X95.784 Y100.257 I0 J0.73
G2 X110.514 Y115.775 I43.091 J-26.152
G3 X110.867 Y116.444 I-0.455 J0.668
G1 Y149.377
G3 X110.667 Y149.577 I-0.2 J0
G1 X89.821
G3 X89.621 Y149.377 I0 J-0.2
G1 Y97.829
G3 X89.94 Y97.509 I0.319 J0
G1 X96.551
G3 X97.153 Y97.86 I0 J0.693
G2 X112.912 Y114.49 I41.589 J-23.629
G3 X113.264 Y115.135 I-0.416 J0.645
G1 Y149.381
G3 X113.064 Y149.581 I-0.2 J0
G1 X87.424 Y149.584
G3 X87.224 Y149.384 I0 J-0.2
G1 Y95.432
G3 X87.543 Y95.113 I0.319 J0
G1 X97.989
G3 X98.567 Y95.459 I0 J0.655
G2 X101.75 Y100.602 I41.925 J-22.395
X115.312 Y113.163 I37.25 J-26.615
G3 X115.66 Y113.783 I-0.377 J0.62
G1 Y149.376
G3 X115.46 Y149.576 I-0.2 J0
G1 X85.027 Y149.574
G3 X84.827 Y149.374 I0 J-0.2
G1 Y93.035
G3 X85.147 Y92.716 I0.319 J0
G1 X99.48
G3 X100.034 Y93.061 I0 J0.618
G2 X107.45 Y103.765 I39.256 J-19.276
X117.708 Y111.787 I31.551 J-29.779
G3 X118.057 Y112.384 I-0.336 J0.597
G1 Y149.373
G3 X117.857 Y149.573 I-0.2 J0
G1 X82.631 Y149.581
G3 X82.431 Y149.381 I0 J-0.2
G1 Y90.639
G3 X82.75 Y90.319 I0.319 J0
G1 X101.028
G3 X101.558 Y90.662 I0 J0.58
G2 X104.766 Y96.527 I38.619 J-17.319
X120.106 Y110.36 I34.234 J-22.541
G3 X120.454 Y110.932 I-0.296 J0.572
G1 Y149.385
G3 X120.254 Y149.585 I-0.2 J0
G1 X80.234 Y149.571
G3 X80.034 Y149.371 I0 J-0.2
G1 Y88.242
G3 X80.353 Y87.923 I0.319 J0
G1 X102.643
G3 X103.147 Y88.265 I0 J0.543
G2 X122.506 Y108.875 I35.853 J-14.279
G3 X122.85 Y109.42 I-0.258 J0.545
G1 Y149.371
G3 X122.65 Y149.571 I-0.2 J0
G1 X77.837 Y149.578
G3 X77.637 Y149.378 I0 J-0.2
G1 Y85.845
G3 X77.957 Y85.526 I0.319 J0
G1 X104.333
G3 X104.81 Y85.865 I0 J0.505
G2 X107.843 Y92.406 I34.726 J-12.127
X123.77 Y106.821 I31.157 J-18.42
G1 X123.815 Y106.849
X123.85 Y106.889
X123.875 Y106.936
X125.236 Y110.803
X125.244 Y110.836
X125.247 Y110.87
Y149.374
G3 X124.049 Y149.374 I-0.599 J0
G1 Y130.122
X124.648 Y110.87
G3 X125.025 Y110.332 I0.599 J0.019
G1 X126.823 Y109.616
G3 X127.644 Y110.173 I0.222 J0.557
G1 Y149.383
Y149.395
G0 Z4
X75.241 Y149.397
Z2
G1 Z1.3 F700
Z-0.3
Y149.385
Y83.449
G3 X75.56 Y83.129 I0.319 J0
G1 X106.11
G3 X106.559 Y83.466 I0 J0.467
G2 X127.305 Y105.697 I32.445 J-9.482
G3 X127.644 Y106.184 I-0.181 J0.488
G1 Y106.571
Y106.583
G0 Z4
X72.844 Y149.387
Z2
G1 Z1.3 F700
Z-0.3
Y149.375
Y81.052
G3 X73.163 Y80.733 I0.319 J0
G1 X107.988
G3 X108.407 Y81.067 I0 J0.43
G2 X129.702 Y103.98 I30.44 J-6.938
G3 X130.04 Y104.438 I-0.14 J0.458
G1 Y149.37
Y149.393
G0 Z4
X70.443 Y149.394
Z2
G1 Z1.3 F700
Z-0.3
X70.442 Y149.37
Y78.331
X110.328
G2 X132.442 Y102.235 I28.672 J-4.345
G1 Y147.986
Y149.383
G3 X131.017 Y150.808 Z-0.32 I-1.425 J0 F333.3
G1 X102.387 Y150.803 Z-0.58
G3 X100.962 Y149.378 Z-0.6 I0 J-1.425
G1 Y120.107 F700
G3 X101.225 Y119.983 I0.161 J0
G2 X101.764 Y120.42 I40.284 J-49.121
G3 X101.922 Y120.749 I-0.264 J0.329
G1 Y149.375
G3 X101.721 Y149.575 I-0.2 J0
G1 X100.177 Y149.569
G3 X99.978 Y149.369 I0.001 J-0.2
G1 Y117.965
G3 X100.237 Y117.848 I0.156 J0
G2 X102.551 Y119.789 I37.571 J-42.441
G3 X102.906 Y120.527 I-0.589 J0.738
G1 Y149.371
G3 X102.706 Y149.571 I-0.2 J0
G1 X98.224 Y149.572
G3 X98.023 Y149.372 I0 J-0.2
G1 Y113.368
G3 X98.276 Y113.267 I0.147 J0
G2 X104.506 Y118.837 I40.171 J-38.66
G3 X104.861 Y119.558 I-0.556 J0.721
G1 Y149.379
G3 X104.661 Y149.579 I-0.2 J0
G1 X96.323 Y149.57
G3 X96.123 Y149.37 I0 J-0.2
G1 Y108.313
G3 X96.367 Y108.227 I0.137 J0
G2 X106.408 Y117.892 I42.866 J-34.483
G3 X106.761 Y118.596 I-0.525 J0.704
G1 Y149.376
G3 X106.561 Y149.576 I-0.2 J0
G1 X94.486 Y149.574
G3 X94.286 Y149.374 I0 J-0.2
G1 Y102.583
X94.292 Y102.543
X94.311 Y102.507
X94.34 Y102.479
X94.377 Y102.461
X94.417 Y102.456
X94.457 Y102.464
X94.493 Y102.484
X94.52 Y102.515
G2 X108.246 Y116.958 I44.085 J-28.152
G3 X108.599 Y117.646 I-0.494 J0.688
G1 Y149.385
G3 X108.399 Y149.585 I-0.2 J0
G1 X92.217 Y149.57
G3 X92.017 Y149.37 I0 J-0.2
G1 Y100.225
G3 X92.337 Y99.906 I0.319 J0
G1 X95.16
G3 X95.784 Y100.257 I0 J0.73
G2 X110.514 Y115.775 I43.091 J-26.152
G3 X110.867 Y116.444 I-0.455 J0.668
G1 Y149.377
G3 X110.667 Y149.577 I-0.2 J0
G1 X89.821
G3 X89.621 Y149.377 I0 J-0.2
G1 Y97.829
G3 X89.94 Y97.509 I0.319 J0
G1 X96.551
G3 X97.153 Y97.86 I0 J0.693
G2 X112.912 Y114.49 I41.589 J-23.629
G3 X113.264 Y115.135 I-0.416 J0.645
G1 Y149.381
G3 X113.064 Y149.581 I-0.2 J0
G1 X87.424 Y149.584
G3 X87.224 Y149.384 I0 J-0.2
G1 Y95.432
G3 X87.543 Y95.113 I0.319 J0
G1 X97.989
G3 X98.567 Y95.459 I0 J0.655
G2 X101.75 Y100.602 I41.925 J-22.395
X115.312 Y113.163 I37.25 J-26.615
G3 X115.66 Y113.783 I-0.377 J0.62
G1 Y149.376
G3 X115.46 Y149.576 I-0.2 J0
G1 X85.027 Y149.574
G3 X84.827 Y149.374 I0 J-0.2
G1 Y93.035
G3 X85.147 Y92.716 I0.319 J0
G1 X99.48
G3 X100.034 Y93.061 I0 J0.618
G2 X107.45 Y103.765 I39.256 J-19.276
X117.708 Y111.787 I31.551 J-29.779
G3 X118.057 Y112.384 I-0.336 J0.597
G1 Y149.373
G3 X117.857 Y149.573 I-0.2 J0
G1 X82.631 Y149.581
G3 X82.431 Y149.381 I0 J-0.2
G1 Y90.639
G3 X82.75 Y90.319 I0.319 J0
G1 X101.028
G3 X101.558 Y90.662 I0 J0.58
G2 X104.766 Y96.527 I38.619 J-17.319
X120.106 Y110.36 I34.234 J-22.541
G3 X120.454 Y110.932 I-0.296 J0.572
G1 Y149.385
G3 X120.254 Y149.585 I-0.2 J0
G1 X80.234 Y149.571
G3 X80.034 Y149.371 I0 J-0.2
G1 Y88.242
G3 X80.353 Y87.923 I0.319 J0
G1 X102.643
G3 X103.147 Y88.265 I0 J0.543
G2 X122.506 Y108.875 I35.853 J-14.279
G3 X122.85 Y109.42 I-0.258 J0.545
G1 Y149.371
G3 X122.65 Y149.571 I-0.2 J0
G1 X77.837 Y149.578
G3 X77.637 Y149.378 I0 J-0.2
G1 Y85.845
G3 X77.957 Y85.526 I0.319 J0
G1 X104.333
G3 X104.81 Y85.865 I0 J0.505
G2 X107.843 Y92.406 I34.726 J-12.127
X123.77 Y106.821 I31.157 J-18.42
G1 X123.815 Y106.849
X123.85 Y106.889
X123.875 Y106.936
X125.236 Y110.803
X125.244 Y110.836
X125.247 Y110.87
Y149.374
G3 X124.049 Y149.374 I-0.599 J0
G1 Y130.122
X124.648 Y110.87
G3 X125.025 Y110.332 I0.599 J0.019
G1 X126.823 Y109.616
G3 X127.644 Y110.173 I0.222 J0.557
G1 Y149.383
Y149.395
G0 Z4
X75.241 Y149.397
Z2
G1 Z1 F700
Z-0.6
Y149.385
Y83.449
G3 X75.56 Y83.129 I0.319 J0
G1 X106.11
G3 X106.559 Y83.466 I0 J0.467
G2 X127.305 Y105.697 I32.445 J-9.482
G3 X127.644 Y106.184 I-0.181 J0.488
G1 Y106.571
Y106.583
G0 Z4
X72.844 Y149.387
Z2
G1 Z1 F700
Z-0.6
Y149.375
Y81.052
G3 X73.163 Y80.733 I0.319 J0
G1 X107.988
G3 X108.407 Y81.067 I0 J0.43
G2 X129.702 Y103.98 I30.44 J-6.938
G3 X130.04 Y104.438 I-0.14 J0.458
G1 Y149.37
Y149.393
G0 Z4
X70.443 Y149.394
Z2
G1 Z1 F700
Z-0.6
X70.442 Y149.37
Y78.331
X110.328
G2 X132.442 Y102.235 I28.672 J-4.345
G1 Y147.986
Y149.383
G3 X131.017 Y150.808 Z-0.62 I-1.425 J0 F333.3
G1 X102.387 Y150.803 Z-0.88
G3 X100.962 Y149.378 Z-0.9 I0 J-1.425
G1 Y120.107 F700
G3 X101.225 Y119.983 I0.161 J0
G2 X101.764 Y120.42 I40.284 J-49.121
G3 X101.922 Y120.749 I-0.264 J0.329
G1 Y149.375
G3 X101.721 Y149.575 I-0.2 J0
G1 X100.177 Y149.569
G3 X99.978 Y149.369 I0.001 J-0.2
G1 Y117.965
G3 X100.237 Y117.848 I0.156 J0
G2 X102.551 Y119.789 I37.571 J-42.441
G3 X102.906 Y120.527 I-0.589 J0.738
G1 Y149.371
G3 X102.706 Y149.571 I-0.2 J0
G1 X98.224 Y149.572
G3 X98.023 Y149.372 I0 J-0.2
G1 Y113.368
G3 X98.276 Y113.267 I0.147 J0
G2 X104.506 Y118.837 I40.171 J-38.66
G3 X104.861 Y119.558 I-0.556 J0.721
G1 Y149.379
G3 X104.661 Y149.579 I-0.2 J0
G1 X96.323 Y149.57
G3 X96.123 Y149.37 I0 J-0.2
G1 Y108.313
G3 X96.367 Y108.227 I0.137 J0
G2 X106.408 Y117.892 I42.866 J-34.483
G3 X106.761 Y118.596 I-0.525 J0.704
G1 Y149.376
G3 X106.561 Y149.576 I-0.2 J0
G1 X94.486 Y149.574
G3 X94.286 Y149.374 I0 J-0.2
G1 Y102.583
X94.292 Y102.543
X94.311 Y102.507
X94.34 Y102.479
X94.377 Y102.461
X94.417 Y102.456
X94.457 Y102.464
X94.493 Y102.484
X94.52 Y102.515
G2 X108.246 Y116.958 I44.085 J-28.152
G3 X108.599 Y117.646 I-0.494 J0.688
G1 Y149.385
G3 X108.399 Y149.585 I-0.2 J0
G1 X92.217 Y149.57
G3 X92.017 Y149.37 I0 J-0.2
G1 Y100.225
G3 X92.337 Y99.906 I0.319 J0
G1 X95.16
G3 X95.784 Y100.257 I0 J0.73
G2 X110.514 Y115.775 I43.091 J-26.152
G3 X110.867 Y116.444 I-0.455 J0.668
G1 Y149.377
G3 X110.667 Y149.577 I-0.2 J0
G1 X89.821
G3 X89.621 Y149.377 I0 J-0.2
G1 Y97.829
G3 X89.94 Y97.509 I0.319 J0
G1 X96.551
G3 X97.153 Y97.86 I0 J0.693
G2 X112.912 Y114.49 I41.589 J-23.629
G3 X113.264 Y115.135 I-0.416 J0.645
G1 Y149.381
G3 X113.064 Y149.581 I-0.2 J0
G1 X87.424 Y149.584
G3 X87.224 Y149.384 I0 J-0.2
G1 Y95.432
G3 X87.543 Y95.113 I0.319 J0
G1 X97.989
G3 X98.567 Y95.459 I0 J0.655
G2 X101.75 Y100.602 I41.925 J-22.395
X115.312 Y113.163 I37.25 J-26.615
G3 X115.66 Y113.783 I-0.377 J0.62
G1 Y149.376
G3 X115.46 Y149.576 I-0.2 J0
G1 X85.027 Y149.574
G3 X84.827 Y149.374 I0 J-0.2
G1 Y93.035
G3 X85.147 Y92.716 I0.319 J0
G1 X99.48
G3 X100.034 Y93.061 I0 J0.618
G2 X107.45 Y103.765 I39.256 J-19.276
X117.708 Y111.787 I31.551 J-29.779
G3 X118.057 Y112.384 I-0.336 J0.597
G1 Y149.373
G3 X117.857 Y149.573 I-0.2 J0
G1 X82.631 Y149.581
G3 X82.431 Y149.381 I0 J-0.2
G1 Y90.639
G3 X82.75 Y90.319 I0.319 J0
G1 X101.028
G3 X101.558 Y90.662 I0 J0.58
G2 X104.766 Y96.527 I38.619 J-17.319
X120.106 Y110.36 I34.234 J-22.541
G3 X120.454 Y110.932 I-0.296 J0.572
G1 Y149.385
G3 X120.254 Y149.585 I-0.2 J0
G1 X80.234 Y149.571
G3 X80.034 Y149.371 I0 J-0.2
G1 Y88.242
G3 X80.353 Y87.923 I0.319 J0
G1 X102.643
G3 X103.147 Y88.265 I0 J0.543
G2 X122.506 Y108.875 I35.853 J-14.279
G3 X122.85 Y109.42 I-0.258 J0.545
G1 Y149.371
G3 X122.65 Y149.571 I-0.2 J0
G1 X77.837 Y149.578
G3 X77.637 Y149.378 I0 J-0.2
G1 Y85.845
G3 X77.957 Y85.526 I0.319 J0
G1 X104.333
G3 X104.81 Y85.865 I0 J0.505
G2 X107.843 Y92.406 I34.726 J-12.127
X123.77 Y106.821 I31.157 J-18.42
G1 X123.815 Y106.849
X123.85 Y106.889
X123.875 Y106.936
X125.236 Y110.803
X125.244 Y110.836
X125.247 Y110.87
Y149.374
G3 X124.049 Y149.374 I-0.599 J0
G1 Y130.122
X124.648 Y110.87
G3 X125.025 Y110.332 I0.599 J0.019
G1 X126.823 Y109.616
G3 X127.644 Y110.173 I0.222 J0.557
G1 Y149.383
Y149.395
G0 Z4
X75.241 Y149.397
Z2
G1 Z0.7 F700
Z-0.9
Y149.385
Y83.449
G3 X75.56 Y83.129 I0.319 J0
G1 X106.11
G3 X106.559 Y83.466 I0 J0.467
G2 X127.305 Y105.697 I32.445 J-9.482
G3 X127.644 Y106.184 I-0.181 J0.488
G1 Y106.571
Y106.583
G0 Z4
X72.844 Y149.387
Z2
G1 Z0.7 F700
Z-0.9
Y149.375
Y81.052
G3 X73.163 Y80.733 I0.319 J0
G1 X107.988
G3 X108.407 Y81.067 I0 J0.43
G2 X129.702 Y103.98 I30.44 J-6.938
G3 X130.04 Y104.438 I-0.14 J0.458
G1 Y149.37
Y149.393
G0 Z4
X70.443 Y149.394
Z2
G1 Z0.7 F700
Z-0.9
X70.442 Y149.37
Y78.331
X110.328
G2 X132.442 Y102.235 I28.672 J-4.345
G1 Y147.986
Y149.383
G3 X131.017 Y150.808 Z-0.907 I-1.425 J0 F333.3
G1 X102.387 Y150.803 Z-0.993
G3 X100.962 Y149.378 Z-1 I0 J-1.425
G1 Y120.107 F700
G3 X101.225 Y119.983 I0.161 J0
G2 X101.764 Y120.42 I40.284 J-49.121
G3 X101.922 Y120.749 I-0.264 J0.329
G1 Y149.375
G3 X101.721 Y149.575 I-0.2 J0
G1 X100.177 Y149.569
G3 X99.978 Y149.369 I0.001 J-0.2
G1 Y117.965
G3 X100.237 Y117.848 I0.156 J0
G2 X102.551 Y119.789 I37.571 J-42.441
G3 X102.906 Y120.527 I-0.589 J0.738
G1 Y149.371
G3 X102.706 Y149.571 I-0.2 J0
G1 X98.224 Y149.572
G3 X98.023 Y149.372 I0 J-0.2
G1 Y113.368
G3 X98.276 Y113.267 I0.147 J0
G2 X104.506 Y118.837 I40.171 J-38.66
G3 X104.861 Y119.558 I-0.556 J0.721
G1 Y149.379
G3 X104.661 Y149.579 I-0.2 J0
G1 X96.323 Y149.57
G3 X96.123 Y149.37 I0 J-0.2
G1 Y108.313
G3 X96.367 Y108.227 I0.137 J0
G2 X106.408 Y117.892 I42.866 J-34.483
G3 X106.761 Y118.596 I-0.525 J0.704
G1 Y149.376
G3 X106.561 Y149.576 I-0.2 J0
G1 X94.486 Y149.574
G3 X94.286 Y149.374 I0 J-0.2
G1 Y102.583
X94.292 Y102.543
X94.311 Y102.507
X94.34 Y102.479
X94.377 Y102.461
X94.417 Y102.456
X94.457 Y102.464
X94.493 Y102.484
X94.52 Y102.515
G2 X108.246 Y116.958 I44.085 J-28.152
G3 X108.599 Y117.646 I-0.494 J0.688
G1 Y149.385
G3 X108.399 Y149.585 I-0.2 J0
G1 X92.217 Y149.57
G3 X92.017 Y149.37 I0 J-0.2
G1 Y100.225
G3 X92.337 Y99.906 I0.319 J0
G1 X95.16
G3 X95.784 Y100.257 I0 J0.73
G2 X110.514 Y115.775 I43.091 J-26.152
G3 X110.867 Y116.444 I-0.455 J0.668
G1 Y149.377
G3 X110.667 Y149.577 I-0.2 J0
G1 X89.821
G3 X89.621 Y149.377 I0 J-0.2
G1 Y97.829
G3 X89.94 Y97.509 I0.319 J0
G1 X96.551
G3 X97.153 Y97.86 I0 J0.693
G2 X112.912 Y114.49 I41.589 J-23.629
G3 X113.264 Y115.135 I-0.416 J0.645
G1 Y149.381
G3 X113.064 Y149.581 I-0.2 J0
G1 X87.424 Y149.584
G3 X87.224 Y149.384 I0 J-0.2
G1 Y95.432
G3 X87.543 Y95.113 I0.319 J0
G1 X97.989
G3 X98.567 Y95.459 I0 J0.655
G2 X101.75 Y100.602 I41.925 J-22.395
X115.312 Y113.163 I37.25 J-26.615
G3 X115.66 Y113.783 I-0.377 J0.62
G1 Y149.376
G3 X115.46 Y149.576 I-0.2 J0
G1 X85.027 Y149.574
G3 X84.827 Y149.374 I0 J-0.2
G1 Y93.035
G3 X85.147 Y92.716 I0.319 J0
G1 X99.48
G3 X100.034 Y93.061 I0 J0.618
G2 X107.45 Y103.765 I39.256 J-19.276
X117.708 Y111.787 I31.551 J-29.779
G3 X118.057 Y112.384 I-0.336 J0.597
G1 Y149.373
G3 X117.857 Y149.573 I-0.2 J0
G1 X82.631 Y149.581
G3 X82.431 Y149.381 I0 J-0.2
G1 Y90.639
G3 X82.75 Y90.319 I0.319 J0
G1 X101.028
G3 X101.558 Y90.662 I0 J0.58
G2 X104.766 Y96.527 I38.619 J-17.319
X120.106 Y110.36 I34.234 J-22.541
G3 X120.454 Y110.932 I-0.296 J0.572
G1 Y149.385
G3 X120.254 Y149.585 I-0.2 J0
G1 X80.234 Y149.571
G3 X80.034 Y149.371 I0 J-0.2
G1 Y88.242
G3 X80.353 Y87.923 I0.319 J0
G1 X102.643
G3 X103.147 Y88.265 I0 J0.543
G2 X122.506 Y108.875 I35.853 J-14.279
G3 X122.85 Y109.42 I-0.258 J0.545
G1 Y149.371
G3 X122.65 Y149.571 I-0.2 J0
G1 X77.837 Y149.578
G3 X77.637 Y149.378 I0 J-0.2
G1 Y85.845
G3 X77.957 Y85.526 I0.319 J0
G1 X104.333
G3 X104.81 Y85.865 I0 J0.505
G2 X107.843 Y92.406 I34.726 J-12.127
X123.77 Y106.821 I31.157 J-18.42
G1 X123.815 Y106.849
X123.85 Y106.889
X123.875 Y106.936
X125.236 Y110.803
X125.244 Y110.836
X125.247 Y110.87
Y149.374
G3 X124.049 Y149.374 I-0.599 J0
G1 Y130.122
X124.648 Y110.87
G3 X125.025 Y110.332 I0.599 J0.019
G1 X126.823 Y109.616
G3 X127.644 Y110.173 I0.222 J0.557
G1 Y149.383
Y149.395
G0 Z4
X75.241 Y149.397
Z2
G1 Z0.4 F700
Z-1
Y149.385
Y83.449
G3 X75.56 Y83.129 I0.319 J0
G1 X106.11
G3 X106.559 Y83.466 I0 J0.467
G2 X127.305 Y105.697 I32.445 J-9.482
G3 X127.644 Y106.184 I-0.181 J0.488
G1 Y106.571
Y106.583
G0 Z4
X72.844 Y149.387
Z2
G1 Z0.4 F700
Z-1
Y149.375
Y81.052
G3 X73.163 Y80.733 I0.319 J0
G1 X107.988
G3 X108.407 Y81.067 I0 J0.43
G2 X129.702 Y103.98 I30.44 J-6.938
G3 X130.04 Y104.438 I-0.14 J0.458
G1 Y149.37
Y149.393
G0 Z4
X70.443 Y149.394
Z2
G1 Z0.4 F700
Z-1
X70.442 Y149.37
Y78.331
X110.328
G2 X132.442 Y102.235 I28.672 J-4.345
G1 Y147.986
Y149.383
G0 Z6
X103.713 Y-1.405
Z2
G1 Z1.3 F700
Z-0.3
Y-1.393
Y24.591
G3 X103.357 Y25.292 I-0.868 J0
G2 X102.053 Y26.274 I34.432 J47.09
G3 X101.788 Y26.143 I-0.101 J-0.13
G1 Y-1.389
G3 X101.988 Y-1.589 I0.2 J0
G1 X105.51 Y-1.588
G3 X105.71 Y-1.388 I0 J0.2
G1 Y25.631
G3 X105.355 Y26.316 I-0.837 J0
G2 X102.641 Y28.352 I33.141 J47.003
X100.049 Y30.543 I36.389 J45.672
G3 X99.79 Y30.428 I-0.104 J-0.115
G1 Y-1.395
G3 X99.991 Y-1.595 I0.2 J0
G1 X107.46 Y-1.585
G3 X107.66 Y-1.385 I0 J0.2
G1 Y26.668
G3 X107.306 Y27.336 I-0.807 J0
G2 X98.092 Y35.162 I31.747 J46.712
G3 X97.841 Y35.062 I-0.106 J-0.1
G1 Y-1.389
G3 X98.041 Y-1.589 I0.2 J0
G1 X109.354 Y-1.595
G3 X109.554 Y-1.395 I0 J0.2
G1 Y27.699
G3 X109.203 Y28.349 I-0.777 J0
G2 X102.211 Y33.772 I30.333 J46.328
X96.189 Y40.254 I36.787 J40.213
G3 X95.946 Y40.17 I-0.107 J-0.084
G1 Y-1.397
G3 X96.146 Y-1.597 I0.2 J0
G1 X111.186 Y-1.592
G3 X111.386 Y-1.392 I0 J0.2
G1 Y28.716
G3 X111.035 Y29.35 I-0.749 J0
G2 X101.744 Y36.752 I28.452 J45.247
X94.348 Y46.048 I37.255 J37.233
G1 X94.321 Y46.078
X94.286 Y46.099
X94.246 Y46.107
X94.206 Y46.102
X94.169 Y46.085
X94.14 Y46.057
X94.121 Y46.021
X94.115 Y45.981
Y-1.392
G3 X94.315 Y-1.592 I0.2 J0
G1 X113.283 Y-1.586
G3 X113.483 Y-1.386 I0 J0.2
G1 Y29.911
G3 X113.133 Y30.527 I-0.718 J0
G2 X95.371 Y48.406 I25.832 J43.424
G3 X94.76 Y48.756 I-0.611 J-0.358
G1 X92.337
G3 X92.017 Y48.437 I0 J-0.319
G1 Y-1.393
G3 X92.217 Y-1.593 I0.2 J0
G1 X115.68
G3 X115.88 Y-1.393 I0 J0.2
G1 Y31.317
G3 X115.532 Y31.91 I-0.68 J0
G2 X112.744 Y33.591 I25.065 J44.725
X96.767 Y50.803 I26.256 J40.395
G3 X96.177 Y51.153 I-0.59 J-0.323
G1 X89.94
G3 X89.621 Y50.834 I0 J-0.319
G1 Y-1.386
G3 X89.821 Y-1.586 I0.2 J0
G1 X118.077 Y-1.583
G3 X118.276 Y-1.383 I0 J0.2
G1 Y32.77
G3 X117.928 Y33.343 I-0.644 J0
G2 X98.208 Y53.204 I20.868 J40.441
G3 X97.642 Y53.55 I-0.565 J-0.289
G1 X87.543
G3 X87.224 Y53.23 I0 J-0.319
G1 Y-1.395
G3 X87.424 Y-1.595 I0.2 J0
G1 X120.473 Y-1.59
G3 X120.673 Y-1.39 I0 J0.2
G1 Y34.277
G3 X120.326 Y34.826 I-0.607 J0
G2 X99.703 Y55.603 I18.473 J38.961
G3 X99.161 Y55.946 I-0.542 J-0.255
G1 X85.147
G3 X84.827 Y55.627 I0 J-0.319
G1 Y-1.388
G3 X85.027 Y-1.588 I0.2 J0
G1 X122.87 Y-1.597
G3 X123.07 Y-1.397 I0 J0.2
G1 Y35.844
G3 X122.726 Y36.367 I-0.57 J0
G2 X101.258 Y57.999 I16.212 J37.557
G3 X100.74 Y58.343 I-0.518 J-0.219
G1 X82.75
G3 X82.431 Y58.024 I0 J-0.319
G1 Y-1.398
G3 X82.631 Y-1.598 I0.2 J0
G1 X125.266 Y-1.587
G3 X125.466 Y-1.387 I0 J0.2
G1 Y37.428
X125.46 Y37.48
X125.44 Y37.528
X125.408 Y37.569
X125.367 Y37.601
X123.813 Y38.505
G2 X111.602 Y46.808 I14.953 J35.122
X102.879 Y60.4 I27.397 J27.178
G3 X102.388 Y60.74 I-0.492 J-0.187
G1 X80.353
G3 X80.034 Y60.42 I0 J-0.319
G1 Y-1.391
G3 X80.234 Y-1.591 I0.2 J0
G1 X127.663 Y-1.594
G3 X127.863 Y-1.394 I0 J0.2
G1 Y38.237
X127.857 Y38.285
X127.84 Y38.33
X127.812 Y38.37
X127.776 Y38.402
X123.71 Y41.175
G2 X104.578 Y62.797 I15.219 J32.742
G3 X104.112 Y63.136 I-0.466 J-0.15
G1 X77.957
G3 X77.637 Y62.817 I0 J-0.319
G1 Y-1.384
Y-1.408
G0 Z4
X130.26
Z2
G1 Z1.3 F700
Z-0.3
Y-1.385
Y40.987
G3 X129.923 Y41.43 I-0.459 J0
G2 X106.365 Y65.197 I8.972 J32.453
G3 X105.927 Y65.533 I-0.438 J-0.117
G1 X75.56
G3 X75.241 Y65.214 I0 J-0.319
G1 Y-1.394
Y-1.406
G0 Z4
X132.656 Y-1.403
Z2
G1 Z1.3 F700
Z-0.3
Y-1.392
Y42.89
G3 X132.326 Y43.302 I-0.422 J0
G2 X128.62 Y44.35 I7.107 J32.211
X108.255 Y67.599 I10.38 J29.636
G3 X107.848 Y67.93 I-0.407 J-0.086
G1 X73.163
G3 X72.844 Y67.61 I0 J-0.319
G1 Y-1.387
Y-1.411
G0 Z4
X135.057 Y-1.41
Z2
G1 Z1.3 F700
Z-0.3
X135.058 Y-1.386
Y45.255
G2 X110.231 Y70.331 I3.942 J28.731
G1 X70.442
Y0
Y-1.397
G3 X71.868 Y-2.822 Z-0.319 I1.425 J0 F333.3
G1 X102.288 Y-2.818 Z-0.581
G3 X103.713 Y-1.393 Z-0.6 I0 J1.425
G1 Y24.591 F700
G3 X103.357 Y25.292 I-0.868 J0
G2 X102.053 Y26.274 I34.432 J47.09
G3 X101.788 Y26.143 I-0.101 J-0.13
G1 Y-1.389
G3 X101.988 Y-1.589 I0.2 J0
G1 X105.51 Y-1.588
G3 X105.71 Y-1.388 I0 J0.2
G1 Y25.631
G3 X105.355 Y26.316 I-0.837 J0
G2 X102.641 Y28.352 I33.141 J47.003
X100.049 Y30.543 I36.389 J45.672
G3 X99.79 Y30.428 I-0.104 J-0.115
G1 Y-1.395
G3 X99.991 Y-1.595 I0.2 J0
G1 X107.46 Y-1.585
G3 X107.66 Y-1.385 I0 J0.2
G1 Y26.668
G3 X107.306 Y27.336 I-0.807 J0
G2 X98.092 Y35.162 I31.747 J46.712
G3 X97.841 Y35.062 I-0.106 J-0.1
G1 Y-1.389
G3 X98.041 Y-1.589 I0.2 J0
G1 X109.354 Y-1.595
G3 X109.554 Y-1.395 I0 J0.2
G1 Y27.699
G3 X109.203 Y28.349 I-0.777 J0
G2 X102.211 Y33.772 I30.333 J46.328
X96.189 Y40.254 I36.787 J40.213
G3 X95.946 Y40.17 I-0.107 J-0.084
G1 Y-1.397
G3 X96.146 Y-1.597 I0.2 J0
G1 X111.186 Y-1.592
G3 X111.386 Y-1.392 I0 J0.2
G1 Y28.716
G3 X111.035 Y29.35 I-0.749 J0
G2 X101.744 Y36.752 I28.452 J45.247
X94.348 Y46.048 I37.255 J37.233
G1 X94.321 Y46.078
X94.286 Y46.099
X94.246 Y46.107
X94.206 Y46.102
X94.169 Y46.085
X94.14 Y46.057
X94.121 Y46.021
X94.115 Y45.981
Y-1.392
G3 X94.315 Y-1.592 I0.2 J0
G1 X113.283 Y-1.586
G3 X113.483 Y-1.386 I0 J0.2
G1 Y29.911
G3 X113.133 Y30.527 I-0.718 J0
G2 X95.371 Y48.406 I25.832 J43.424
G3 X94.76 Y48.756 I-0.611 J-0.358
G1 X92.337
G3 X92.017 Y48.437 I0 J-0.319
G1 Y-1.393
G3 X92.217 Y-1.593 I0.2 J0
G1 X115.68
G3 X115.88 Y-1.393 I0 J0.2
G1 Y31.317
G3 X115.532 Y31.91 I-0.68 J0
G2 X112.744 Y33.591 I25.065 J44.725
X96.767 Y50.803 I26.256 J40.395
G3 X96.177 Y51.153 I-0.59 J-0.323
G1 X89.94
G3 X89.621 Y50.834 I0 J-0.319
G1 Y-1.386
G3 X89.821 Y-1.586 I0.2 J0
G1 X118.077 Y-1.583
G3 X118.276 Y-1.383 I0 J0.2
G1 Y32.77
G3 X117.928 Y33.343 I-0.644 J0
G2 X98.208 Y53.204 I20.868 J40.441
G3 X97.642 Y53.55 I-0.565 J-0.289
G1 X87.543
G3 X87.224 Y53.23 I0 J-0.319
G1 Y-1.395
G3 X87.424 Y-1.595 I0.2 J0
G1 X120.473 Y-1.59
G3 X120.673 Y-1.39 I0 J0.2
G1 Y34.277
G3 X120.326 Y34.826 I-0.607 J0
G2 X99.703 Y55.603 I18.473 J38.961
G3 X99.161 Y55.946 I-0.542 J-0.255
G1 X85.147
G3 X84.827 Y55.627 I0 J-0.319
G1 Y-1.388
G3 X85.027 Y-1.588 I0.2 J0
G1 X122.87 Y-1.597
G3 X123.07 Y-1.397 I0 J0.2
G1 Y35.844
G3 X122.726 Y36.367 I-0.57 J0
G2 X101.258 Y57.999 I16.212 J37.557
G3 X100.74 Y58.343 I-0.518 J-0.219
G1 X82.75
G3 X82.431 Y58.024 I0 J-0.319
G1 Y-1.398
G3 X82.631 Y-1.598 I0.2 J0
G1 X125.266 Y-1.587
G3 X125.466 Y-1.387 I0 J0.2
G1 Y37.428
X125.46 Y37.48
X125.44 Y37.528
X125.408 Y37.569
X125.367 Y37.601
X123.813 Y38.505
G2 X111.602 Y46.808 I14.953 J35.122
X102.879 Y60.4 I27.397 J27.178
G3 X102.388 Y60.74 I-0.492 J-0.187
G1 X80.353
G3 X80.034 Y60.42 I0 J-0.319
G1 Y-1.391
G3 X80.234 Y-1.591 I0.2 J0
G1 X127.663 Y-1.594
G3 X127.863 Y-1.394 I0 J0.2
G1 Y38.237
X127.857 Y38.285
X127.84 Y38.33
X127.812 Y38.37
X127.776 Y38.402
X123.71 Y41.175
G2 X104.578 Y62.797 I15.219 J32.742
G3 X104.112 Y63.136 I-0.466 J-0.15
G1 X77.957
G3 X77.637 Y62.817 I0 J-0.319
G1 Y-1.384
Y-1.408
G0 Z4
X130.26
Z2
G1 Z1 F700
Z-0.6
Y-1.385
Y40.987
G3 X129.923 Y41.43 I-0.459 J0
G2 X106.365 Y65.197 I8.972 J32.453
G3 X105.927 Y65.533 I-0.438 J-0.117
G1 X75.56
G3 X75.241 Y65.214 I0 J-0.319
G1 Y-1.394
Y-1.406
G0 Z4
X132.656 Y-1.403
Z2
G1 Z1 F700
Z-0.6
Y-1.392
Y42.89
G3 X132.326 Y43.302 I-0.422 J0
G2 X128.62 Y44.35 I7.107 J32.211
X108.255 Y67.599 I10.38 J29.636
G3 X107.848 Y67.93 I-0.407 J-0.086
G1 X73.163
G3 X72.844 Y67.61 I0 J-0.319
G1 Y-1.387
Y-1.411
G0 Z4
X135.057 Y-1.41
Z2
G1 Z1 F700
Z-0.6
X135.058 Y-1.386
Y45.255
G2 X110.231 Y70.331 I3.942 J28.731
G1 X70.442
Y0
Y-1.397
G3 X71.868 Y-2.822 Z-0.619 I1.425 J0 F333.3
G1 X102.288 Y-2.818 Z-0.881
G3 X103.713 Y-1.393 Z-0.9 I0 J1.425
G1 Y24.591 F700
G3 X103.357 Y25.292 I-0.868 J0
G2 X102.053 Y26.274 I34.432 J47.09
G3 X101.788 Y26.143 I-0.101 J-0.13
G1 Y-1.389
G3 X101.988 Y-1.589 I0.2 J0
G1 X105.51 Y-1.588
G3 X105.71 Y-1.388 I0 J0.2
G1 Y25.631
G3 X105.355 Y26.316 I-0.837 J0
G2 X102.641 Y28.352 I33.141 J47.003
X100.049 Y30.543 I36.389 J45.672
G3 X99.79 Y30.428 I-0.104 J-0.115
G1 Y-1.395
G3 X99.991 Y-1.595 I0.2 J0
G1 X107.46 Y-1.585
G3 X107.66 Y-1.385 I0 J0.2
G1 Y26.668
G3 X107.306 Y27.336 I-0.807 J0
G2 X98.092 Y35.162 I31.747 J46.712
G3 X97.841 Y35.062 I-0.106 J-0.1
G1 Y-1.389
G3 X98.041 Y-1.589 I0.2 J0
G1 X109.354 Y-1.595
G3 X109.554 Y-1.395 I0 J0.2
G1 Y27.699
G3 X109.203 Y28.349 I-0.777 J0
G2 X102.211 Y33.772 I30.333 J46.328
X96.189 Y40.254 I36.787 J40.213
G3 X95.946 Y40.17 I-0.107 J-0.084
G1 Y-1.397
G3 X96.146 Y-1.597 I0.2 J0
G1 X111.186 Y-1.592
G3 X111.386 Y-1.392 I0 J0.2
G1 Y28.716
G3 X111.035 Y29.35 I-0.749 J0
G2 X101.744 Y36.752 I28.452 J45.247
X94.348 Y46.048 I37.255 J37.233
G1 X94.321 Y46.078
X94.286 Y46.099
X94.246 Y46.107
X94.206 Y46.102
X94.169 Y46.085
X94.14 Y46.057
X94.121 Y46.021
X94.115 Y45.981
Y-1.392
G3 X94.315 Y-1.592 I0.2 J0
G1 X113.283 Y-1.586
G3 X113.483 Y-1.386 I0 J0.2
G1 Y29.911
G3 X113.133 Y30.527 I-0.718 J0
G2 X95.371 Y48.406 I25.832 J43.424
G3 X94.76 Y48.756 I-0.611 J-0.358
G1 X92.337
G3 X92.017 Y48.437 I0 J-0.319
G1 Y-1.393
G3 X92.217 Y-1.593 I0.2 J0
G1 X115.68
G3 X115.88 Y-1.393 I0 J0.2
G1 Y31.317
G3 X115.532 Y31.91 I-0.68 J0
G2 X112.744 Y33.591 I25.065 J44.725
X96.767 Y50.803 I26.256 J40.395
G3 X96.177 Y51.153 I-0.59 J-0.323
G1 X89.94
G3 X89.621 Y50.834 I0 J-0.319
G1 Y-1.386
G3 X89.821 Y-1.586 I0.2 J0
G1 X118.077 Y-1.583
G3 X118.276 Y-1.383 I0 J0.2
G1 Y32.77
G3 X117.928 Y33.343 I-0.644 J0
G2 X98.208 Y53.204 I20.868 J40.441
G3 X97.642 Y53.55 I-0.565 J-0.289
G1 X87.543
G3 X87.224 Y53.23 I0 J-0.319
G1 Y-1.395
G3 X87.424 Y-1.595 I0.2 J0
G1 X120.473 Y-1.59
G3 X120.673 Y-1.39 I0 J0.2
G1 Y34.277
G3 X120.326 Y34.826 I-0.607 J0
G2 X99.703 Y55.603 I18.473 J38.961
G3 X99.161 Y55.946 I-0.542 J-0.255
G1 X85.147
G3 X84.827 Y55.627 I0 J-0.319
G1 Y-1.388
G3 X85.027 Y-1.588 I0.2 J0
G1 X122.87 Y-1.597
G3 X123.07 Y-1.397 I0 J0.2
G1 Y35.844
G3 X122.726 Y36.367 I-0.57 J0
G2 X101.258 Y57.999 I16.212 J37.557
G3 X100.74 Y58.343 I-0.518 J-0.219
G1 X82.75
G3 X82.431 Y58.024 I0 J-0.319
G1 Y-1.398
G3 X82.631 Y-1.598 I0.2 J0
G1 X125.266 Y-1.587
G3 X125.466 Y-1.387 I0 J0.2
G1 Y37.428
X125.46 Y37.48
X125.44 Y37.528
X125.408 Y37.569
X125.367 Y37.601
X123.813 Y38.505
G2 X111.602 Y46.808 I14.953 J35.122
X102.879 Y60.4 I27.397 J27.178
G3 X102.388 Y60.74 I-0.492 J-0.187
G1 X80.353
G3 X80.034 Y60.42 I0 J-0.319
G1 Y-1.391
G3 X80.234 Y-1.591 I0.2 J0
G1 X127.663 Y-1.594
G3 X127.863 Y-1.394 I0 J0.2
G1 Y38.237
X127.857 Y38.285
X127.84 Y38.33
X127.812 Y38.37
X127.776 Y38.402
X123.71 Y41.175
G2 X104.578 Y62.797 I15.219 J32.742
G3 X104.112 Y63.136 I-0.466 J-0.15
G1 X77.957
G3 X77.637 Y62.817 I0 J-0.319
G1 Y-1.384
Y-1.408
G0 Z4
X130.26
Z2
G1 Z0.7 F700
Z-0.9
Y-1.385
Y40.987
G3 X129.923 Y41.43 I-0.459 J0
G2 X106.365 Y65.197 I8.972 J32.453
G3 X105.927 Y65.533 I-0.438 J-0.117
G1 X75.56
G3 X75.241 Y65.214 I0 J-0.319
G1 Y-1.394
Y-1.406
G0 Z4
X132.656 Y-1.403
Z2
G1 Z0.7 F700
Z-0.9
Y-1.392
Y42.89
G3 X132.326 Y43.302 I-0.422 J0
G2 X128.62 Y44.35 I7.107 J32.211
X108.255 Y67.599 I10.38 J29.636
G3 X107.848 Y67.93 I-0.407 J-0.086
G1 X73.163
G3 X72.844 Y67.61 I0 J-0.319
G1 Y-1.387
Y-1.411
G0 Z4
X135.057 Y-1.41
Z2
G1 Z0.7 F700
Z-0.9
X135.058 Y-1.386
Y45.255
G2 X110.231 Y70.331 I3.942 J28.731
G1 X70.442
Y0
Y-1.397
G3 X71.868 Y-2.822 Z-0.906 I1.425 J0 F333.3
G1 X102.288 Y-2.818 Z-0.994
G3 X103.713 Y-1.393 Z-1 I0 J1.425
G1 Y24.591 F700
G3 X103.357 Y25.292 I-0.868 J0
G2 X102.053 Y26.274 I34.432 J47.09
G3 X101.788 Y26.143 I-0.101 J-0.13
G1 Y-1.389
G3 X101.988 Y-1.589 I0.2 J0
G1 X105.51 Y-1.588
G3 X105.71 Y-1.388 I0 J0.2
G1 Y25.631
G3 X105.355 Y26.316 I-0.837 J0
G2 X102.641 Y28.352 I33.141 J47.003
X100.049 Y30.543 I36.389 J45.672
G3 X99.79 Y30.428 I-0.104 J-0.115
G1 Y-1.395
G3 X99.991 Y-1.595 I0.2 J0
G1 X107.46 Y-1.585
G3 X107.66 Y-1.385 I0 J0.2
G1 Y26.668
G3 X107.306 Y27.336 I-0.807 J0
G2 X98.092 Y35.162 I31.747 J46.712
G3 X97.841 Y35.062 I-0.106 J-0.1
G1 Y-1.389
G3 X98.041 Y-1.589 I0.2 J0
G1 X109.354 Y-1.595
G3 X109.554 Y-1.395 I0 J0.2
G1 Y27.699
G3 X109.203 Y28.349 I-0.777 J0
G2 X102.211 Y33.772 I30.333 J46.328
X96.189 Y40.254 I36.787 J40.213
G3 X95.946 Y40.17 I-0.107 J-0.084
G1 Y-1.397
G3 X96.146 Y-1.597 I0.2 J0
G1 X111.186 Y-1.592
G3 X111.386 Y-1.392 I0 J0.2
G1 Y28.716
G3 X111.035 Y29.35 I-0.749 J0
G2 X101.744 Y36.752 I28.452 J45.247
X94.348 Y46.048 I37.255 J37.233
G1 X94.321 Y46.078
X94.286 Y46.099
X94.246 Y46.107
X94.206 Y46.102
X94.169 Y46.085
X94.14 Y46.057
X94.121 Y46.021
X94.115 Y45.981
Y-1.392
G3 X94.315 Y-1.592 I0.2 J0
G1 X113.283 Y-1.586
G3 X113.483 Y-1.386 I0 J0.2
G1 Y29.911
G3 X113.133 Y30.527 I-0.718 J0
G2 X95.371 Y48.406 I25.832 J43.424
G3 X94.76 Y48.756 I-0.611 J-0.358
G1 X92.337
G3 X92.017 Y48.437 I0 J-0.319
G1 Y-1.393
G3 X92.217 Y-1.593 I0.2 J0
G1 X115.68
G3 X115.88 Y-1.393 I0 J0.2
G1 Y31.317
G3 X115.532 Y31.91 I-0.68 J0
G2 X112.744 Y33.591 I25.065 J44.725
X96.767 Y50.803 I26.256 J40.395
G3 X96.177 Y51.153 I-0.59 J-0.323
G1 X89.94
G3 X89.621 Y50.834 I0 J-0.319
G1 Y-1.386
G3 X89.821 Y-1.586 I0.2 J0
G1 X118.077 Y-1.583
G3 X118.276 Y-1.383 I0 J0.2
G1 Y32.77
G3 X117.928 Y33.343 I-0.644 J0
G2 X98.208 Y53.204 I20.868 J40.441
G3 X97.642 Y53.55 I-0.565 J-0.289
G1 X87.543
G3 X87.224 Y53.23 I0 J-0.319
G1 Y-1.395
G3 X87.424 Y-1.595 I0.2 J0
G1 X120.473 Y-1.59
G3 X120.673 Y-1.39 I0 J0.2
G1 Y34.277
G3 X120.326 Y34.826 I-0.607 J0
G2 X99.703 Y55.603 I18.473 J38.961
G3 X99.161 Y55.946 I-0.542 J-0.255
G1 X85.147
G3 X84.827 Y55.627 I0 J-0.319
G1 Y-1.388
G3 X85.027 Y-1.588 I0.2 J0
G1 X122.87 Y-1.597
G3 X123.07 Y-1.397 I0 J0.2
G1 Y35.844
G3 X122.726 Y36.367 I-0.57 J0
G2 X101.258 Y57.999 I16.212 J37.557
G3 X100.74 Y58.343 I-0.518 J-0.219
G1 X82.75
G3 X82.431 Y58.024 I0 J-0.319
G1 Y-1.398
G3 X82.631 Y-1.598 I0.2 J0
G1 X125.266 Y-1.587
G3 X125.466 Y-1.387 I0 J0.2
G1 Y37.428
X125.46 Y37.48
X125.44 Y37.528
X125.408 Y37.569
X125.367 Y37.601
X123.813 Y38.505
G2 X111.602 Y46.808 I14.953 J35.122
X102.879 Y60.4 I27.397 J27.178
G3 X102.388 Y60.74 I-0.492 J-0.187
G1 X80.353
G3 X80.034 Y60.42 I0 J-0.319
G1 Y-1.391
G3 X80.234 Y-1.591 I0.2 J0
G1 X127.663 Y-1.594
G3 X127.863 Y-1.394 I0 J0.2
G1 Y38.237
X127.857 Y38.285
X127.84 Y38.33
X127.812 Y38.37
X127.776 Y38.402
X123.71 Y41.175
G2 X104.578 Y62.797 I15.219 J32.742
G3 X104.112 Y63.136 I-0.466 J-0.15
G1 X77.957
G3 X77.637 Y62.817 I0 J-0.319
G1 Y-1.384
Y-1.408
G0 Z4
X130.26
Z2
G1 Z0.4 F700
Z-1
Y-1.385
Y40.987
G3 X129.923 Y41.43 I-0.459 J0
G2 X106.365 Y65.197 I8.972 J32.453
G3 X105.927 Y65.533 I-0.438 J-0.117
G1 X75.56
G3 X75.241 Y65.214 I0 J-0.319
G1 Y-1.394
Y-1.406
G0 Z4
X132.656 Y-1.403
Z2
G1 Z0.4 F700
Z-1
Y-1.392
Y42.89
G3 X132.326 Y43.302 I-0.422 J0
G2 X128.62 Y44.35 I7.107 J32.211
X108.255 Y67.599 I10.38 J29.636
G3 X107.848 Y67.93 I-0.407 J-0.086
G1 X73.163
G3 X72.844 Y67.61 I0 J-0.319
G1 Y-1.387
Y-1.411
G0 Z4
X135.057 Y-1.41
Z2
G1 Z0.4 F700
Z-1
X135.058 Y-1.386
Y45.255
G2 X110.231 Y70.331 I3.942 J28.731
G1 X70.442
Y0
Y-1.397
G0 Z6
X176.139 Y-1.402
Z2
G1 Z1.3 F700
Z-0.3
Y-1.39
Y26.14
G3 X175.874 Y26.271 I-0.165 J0
G2 X174.6 Y25.313 I-38.998 J50.541
G3 X174.245 Y24.613 I0.512 J-0.7
G1 Y-1.387
G3 X174.445 Y-1.587 I0.2 J0
G1 X177.937 Y-1.586
G3 X178.137 Y-1.386 I0 J0.2
G1 Y30.421
G3 X177.879 Y30.537 I-0.155 J0
G2 X175.301 Y28.361 I-39.338 J43.996
X172.601 Y26.338 I-36.257 J45.571
G3 X172.247 Y25.654 I0.482 J-0.684
G1 Y-1.389
G3 X172.447 Y-1.589 I0.2 J0
G1 X179.888 Y-1.584
G3 X180.088 Y-1.384 I0 J0.2
G1 Y35.05
G3 X179.836 Y35.15 I-0.146 J0
G2 X170.649 Y27.359 I-40.274 J38.174
G3 X170.296 Y26.692 I0.453 J-0.667
G1 Y-1.395
G3 X170.496 Y-1.595 I0.2 J0
G1 X181.783
G3 X181.983 Y-1.395 I0 J0.2
G1 Y40.152
G3 X181.74 Y40.236 I-0.136 J0
G2 X168.752 Y28.373 I-42.778 J33.791
G3 X168.401 Y27.723 I0.425 J-0.65
G1 Y-1.39
G3 X168.601 Y-1.59 I0.2 J0
G1 X183.615 Y-1.592
G3 X183.815 Y-1.392 I0 J0.2
G1 Y45.954
X183.808 Y45.994
X183.79 Y46.03
X183.76 Y46.058
X183.724 Y46.075
X183.683 Y46.08
X183.644 Y46.072
X183.608 Y46.052
X183.582 Y46.021
G2 X166.92 Y29.376 I-44.645 J28.028
G3 X166.569 Y28.742 I0.398 J-0.634
G1 Y-1.398
G3 X166.769 Y-1.598 I0.2 J0
G1 X185.667 Y-1.591
G3 X185.867 Y-1.391 I0 J0.2
G1 Y48.437
G3 X185.548 Y48.756 I-0.319 J0
G1 X183.24
G3 X182.629 Y48.406 I0 J-0.708
G2 X164.867 Y30.527 I-43.597 J25.548
G3 X164.517 Y29.911 I0.367 J-0.617
G1 Y-1.391
G3 X164.717 Y-1.591 I0.2 J0
G1 X188.064 Y-1.598
G3 X188.264 Y-1.398 I0 J0.2
G1 Y50.834
G3 X187.945 Y51.153 I-0.319 J0
G1 X181.823
G3 X181.233 Y50.803 I0 J-0.672
G2 X162.468 Y31.91 I-42.027 J22.977
G3 X162.12 Y31.317 I0.332 J-0.593
G1 Y-1.398
G3 X162.32 Y-1.598 I0.2 J0
G1 X190.461 Y-1.588
G3 X190.66 Y-1.388 I0 J0.2
G1 Y53.23
G3 X190.341 Y53.55 I-0.319 J0
G1 X180.358
G3 X179.792 Y53.204 I0 J-0.635
G2 X176.189 Y47.286 I-41.578 J21.261
X160.072 Y33.343 I-37.189 J26.7
G3 X159.724 Y32.77 I0.295 J-0.572
G1 Y-1.392
G3 X159.923 Y-1.592 I0.2 J0
G1 X192.857 Y-1.595
G3 X193.057 Y-1.395 I0 J0.2
G1 Y55.627
G3 X192.738 Y55.946 I-0.319 J0
G1 X178.839
G3 X178.297 Y55.603 I0 J-0.599
G2 X174.699 Y49.333 I-40.463 J19.052
X157.674 Y34.826 I-35.7 J24.654
G3 X157.327 Y34.277 I0.26 J-0.548
G1 Y-1.399
G3 X157.527 Y-1.599 I0.2 J0
G1 X195.254 Y-1.586
G3 X195.454 Y-1.386 I0 J0.2
G1 Y58.024
G3 X195.134 Y58.343 I-0.319 J0
G1 X177.26
G3 X176.742 Y57.999 I0 J-0.563
G2 X155.274 Y36.367 I-37.639 J15.885
G3 X154.93 Y35.844 I0.226 J-0.523
G1 Y-1.398
G3 X155.13 Y-1.598 I0.2 J0
G1 X197.65 Y-1.593
G3 X197.85 Y-1.393 I0 J0.2
G1 Y60.42
G3 X197.531 Y60.74 I-0.319 J0
G1 X175.613
G3 X175.121 Y60.4 I0 J-0.526
G2 X173.633 Y56.962 I-38.308 J14.532
X154.186 Y38.508 I-34.634 J17.025
G1 X152.632 Y37.6
X152.591 Y37.568
X152.56 Y37.527
X152.54 Y37.479
X152.534 Y37.427
Y-1.396
G3 X153.732 Y-1.396 I0.599 J0
G1 Y18.015
X153.133 Y37.427
G3 X152.783 Y37.954 I-0.599 J-0.018
G1 X150.985 Y38.774
G3 X150.137 Y38.229 I-0.249 J-0.545
G1 Y-1.385
Y-1.409
G0 Z4
X200.247 Y-1.411
Z2
G1 Z1.3 F700
Z-0.3
Y-1.4
Y62.817
G3 X199.928 Y63.136 I-0.319 J0
G1 X173.888
G3 X173.422 Y62.797 I0 J-0.49
G2 X154.3 Y41.172 I-34.256 J11.025
G1 X154.278 Y41.162
G0 Z4
X202.644 Y-1.401
Z2
G1 Z1.3 F700
Z-0.3
Y-1.39
Y65.214
G3 X202.324 Y65.533 I-0.319 J0
G1 X172.073
G3 X171.635 Y65.197 I0 J-0.453
G2 X148.077 Y41.43 I-32.533 J8.688
G3 X147.74 Y40.987 I0.122 J-0.442
G1 Y-1.387
Y-1.411
G0 Z4
X205.04 Y-1.408
Z2
G1 Z1.3 F700
Z-0.3
Y-1.397
Y67.61
G3 X204.721 Y67.93 I-0.319 J0
G1 X170.152
G3 X169.745 Y67.599 I0 J-0.416
G2 X168.732 Y63.884 I-32.181 J6.778
X145.674 Y43.302 I-29.733 J10.102
G3 X145.344 Y42.89 I0.091 J-0.412
G1 Y-1.386
Y-1.409
G0 Z4
X207.441 Y-1.415
Z2
G1 Z1.3 F700
Z-0.3
X207.442 Y-1.391
Y70.331
X167.769
G2 X142.942 Y45.255 I-28.769 J3.655
G1 Y0
Y-1.397
G3 X144.367 Y-2.822 Z-0.319 I1.425 J0 F333.3
G1 X174.714 Y-2.815 Z-0.581
G3 X176.139 Y-1.39 Z-0.6 I0 J1.425
G1 Y26.14 F700
G3 X175.874 Y26.271 I-0.165 J0
G2 X174.6 Y25.313 I-38.998 J50.541
G3 X174.245 Y24.613 I0.512 J-0.7
G1 Y-1.387
G3 X174.445 Y-1.587 I0.2 J0
G1 X177.937 Y-1.586
G3 X178.137 Y-1.386 I0 J0.2
G1 Y30.421
G3 X177.879 Y30.537 I-0.155 J0
G2 X175.301 Y28.361 I-39.338 J43.996
X172.601 Y26.338 I-36.257 J45.571
G3 X172.247 Y25.654 I0.482 J-0.684
G1 Y-1.389
G3 X172.447 Y-1.589 I0.2 J0
G1 X179.888 Y-1.584
G3 X180.088 Y-1.384 I0 J0.2
G1 Y35.05
G3 X179.836 Y35.15 I-0.146 J0
G2 X170.649 Y27.359 I-40.274 J38.174
G3 X170.296 Y26.692 I0.453 J-0.667
G1 Y-1.395
G3 X170.496 Y-1.595 I0.2 J0
G1 X181.783
G3 X181.983 Y-1.395 I0 J0.2
G1 Y40.152
G3 X181.74 Y40.236 I-0.136 J0
G2 X168.752 Y28.373 I-42.778 J33.791
G3 X168.401 Y27.723 I0.425 J-0.65
G1 Y-1.39
G3 X168.601 Y-1.59 I0.2 J0
G1 X183.615 Y-1.592
G3 X183.815 Y-1.392 I0 J0.2
G1 Y45.954
X183.808 Y45.994
X183.79 Y46.03
X183.76 Y46.058
X183.724 Y46.075
X183.683 Y46.08
X183.644 Y46.072
X183.608 Y46.052
X183.582 Y46.021
G2 X166.92 Y29.376 I-44.645 J28.028
G3 X166.569 Y28.742 I0.398 J-0.634
G1 Y-1.398
G3 X166.769 Y-1.598 I0.2 J0
G1 X185.667 Y-1.591
G3 X185.867 Y-1.391 I0 J0.2
G1 Y48.437
G3 X185.548 Y48.756 I-0.319 J0
G1 X183.24
G3 X182.629 Y48.406 I0 J-0.708
G2 X164.867 Y30.527 I-43.597 J25.548
G3 X164.517 Y29.911 I0.367 J-0.617
G1 Y-1.391
G3 X164.717 Y-1.591 I0.2 J0
G1 X188.064 Y-1.598
G3 X188.264 Y-1.398 I0 J0.2
G1 Y50.834
G3 X187.945 Y51.153 I-0.319 J0
G1 X181.823
G3 X181.233 Y50.803 I0 J-0.672
G2 X162.468 Y31.91 I-42.027 J22.977
G3 X162.12 Y31.317 I0.332 J-0.593
G1 Y-1.398
G3 X162.32 Y-1.598 I0.2 J0
G1 X190.461 Y-1.588
G3 X190.66 Y-1.388 I0 J0.2
G1 Y53.23
G3 X190.341 Y53.55 I-0.319 J0
G1 X180.358
G3 X179.792 Y53.204 I0 J-0.635
G2 X176.189 Y47.286 I-41.578 J21.261
X160.072 Y33.343 I-37.189 J26.7
G3 X159.724 Y32.77 I0.295 J-0.572
G1 Y-1.392
G3 X159.923 Y-1.592 I0.2 J0
G1 X192.857 Y-1.595
G3 X193.057 Y-1.395 I0 J0.2
G1 Y55.627
G3 X192.738 Y55.946 I-0.319 J0
G1 X178.839
G3 X178.297 Y55.603 I0 J-0.599
G2 X174.699 Y49.333 I-40.463 J19.052
X157.674 Y34.826 I-35.7 J24.654
G3 X157.327 Y34.277 I0.26 J-0.548
G1 Y-1.399
G3 X157.527 Y-1.599 I0.2 J0
G1 X195.254 Y-1.586
G3 X195.454 Y-1.386 I0 J0.2
G1 Y58.024
G3 X195.134 Y58.343 I-0.319 J0
G1 X177.26
G3 X176.742 Y57.999 I0 J-0.563
G2 X155.274 Y36.367 I-37.639 J15.885
G3 X154.93 Y35.844 I0.226 J-0.523
G1 Y-1.398
G3 X155.13 Y-1.598 I0.2 J0
G1 X197.65 Y-1.593
G3 X197.85 Y-1.393 I0 J0.2
G1 Y60.42
G3 X197.531 Y60.74 I-0.319 J0
G1 X175.613
G3 X175.121 Y60.4 I0 J-0.526
G2 X173.633 Y56.962 I-38.308 J14.532
X154.186 Y38.508 I-34.634 J17.025
G1 X152.632 Y37.6
X152.591 Y37.568
X152.56 Y37.527
X152.54 Y37.479
X152.534 Y37.427
Y-1.396
G3 X153.732 Y-1.396 I0.599 J0
G1 Y18.015
X153.133 Y37.427
G3 X152.783 Y37.954 I-0.599 J-0.018
G1 X150.985 Y38.774
G3 X150.137 Y38.229 I-0.249 J-0.545
G1 Y-1.385
Y-1.409
G0 Z4
X200.247 Y-1.411
Z2
G1 Z1 F700
Z-0.6
Y-1.4
Y62.817
G3 X199.928 Y63.136 I-0.319 J0
G1 X173.888
G3 X173.422 Y62.797 I0 J-0.49
G2 X154.3 Y41.172 I-34.256 J11.025
G1 X154.278 Y41.162
G0 Z4
X202.644 Y-1.401
Z2
G1 Z1 F700
Z-0.6
Y-1.39
Y65.214
G3 X202.324 Y65.533 I-0.319 J0
G1 X172.073
G3 X171.635 Y65.197 I0 J-0.453
G2 X148.077 Y41.43 I-32.533 J8.688
G3 X147.74 Y40.987 I0.122 J-0.442
G1 Y-1.387
Y-1.411
G0 Z4
X205.04 Y-1.408
Z2
G1 Z1 F700
Z-0.6
Y-1.397
Y67.61
G3 X204.721 Y67.93 I-0.319 J0
G1 X170.152
G3 X169.745 Y67.599 I0 J-0.416
G2 X168.732 Y63.884 I-32.181 J6.778
X145.674 Y43.302 I-29.733 J10.102
G3 X145.344 Y42.89 I0.091 J-0.412
G1 Y-1.386
Y-1.409
G0 Z4
X207.441 Y-1.415
Z2
G1 Z1 F700
Z-0.6
X207.442 Y-1.391
Y70.331
X167.769
G2 X142.942 Y45.255 I-28.769 J3.655
G1 Y0
Y-1.397
G3 X144.367 Y-2.822 Z-0.619 I1.425 J0 F333.3
G1 X174.714 Y-2.815 Z-0.881
G3 X176.139 Y-1.39 Z-0.9 I0 J1.425
G1 Y26.14 F700
G3 X175.874 Y26.271 I-0.165 J0
G2 X174.6 Y25.313 I-38.998 J50.541
G3 X174.245 Y24.613 I0.512 J-0.7
G1 Y-1.387
G3 X174.445 Y-1.587 I0.2 J0
G1 X177.937 Y-1.586
G3 X178.137 Y-1.386 I0 J0.2
G1 Y30.421
G3 X177.879 Y30.537 I-0.155 J0
G2 X175.301 Y28.361 I-39.338 J43.996
X172.601 Y26.338 I-36.257 J45.571
G3 X172.247 Y25.654 I0.482 J-0.684
G1 Y-1.389
G3 X172.447 Y-1.589 I0.2 J0
G1 X179.888 Y-1.584
G3 X180.088 Y-1.384 I0 J0.2
G1 Y35.05
G3 X179.836 Y35.15 I-0.146 J0
G2 X170.649 Y27.359 I-40.274 J38.174
G3 X170.296 Y26.692 I0.453 J-0.667
G1 Y-1.395
G3 X170.496 Y-1.595 I0.2 J0
G1 X181.783
G3 X181.983 Y-1.395 I0 J0.2
G1 Y40.152
G3 X181.74 Y40.236 I-0.136 J0
G2 X168.752 Y28.373 I-42.778 J33.791
G3 X168.401 Y27.723 I0.425 J-0.65
G1 Y-1.39
G3 X168.601 Y-1.59 I0.2 J0
G1 X183.615 Y-1.592
G3 X183.815 Y-1.392 I0 J0.2
G1 Y45.954
X183.808 Y45.994
X183.79 Y46.03
X183.76 Y46.058
X183.724 Y46.075
X183.683 Y46.08
X183.644 Y46.072
X183.608 Y46.052
X183.582 Y46.021
G2 X166.92 Y29.376 I-44.645 J28.028
G3 X166.569 Y28.742 I0.398 J-0.634
G1 Y-1.398
G3 X166.769 Y-1.598 I0.2 J0
G1 X185.667 Y-1.591
G3 X185.867 Y-1.391 I0 J0.2
G1 Y48.437
G3 X185.548 Y48.756 I-0.319 J0
G1 X183.24
G3 X182.629 Y48.406 I0 J-0.708
G2 X164.867 Y30.527 I-43.597 J25.548
G3 X164.517 Y29.911 I0.367 J-0.617
G1 Y-1.391
G3 X164.717 Y-1.591 I0.2 J0
G1 X188.064 Y-1.598
G3 X188.264 Y-1.398 I0 J0.2
G1 Y50.834
G3 X187.945 Y51.153 I-0.319 J0
G1 X181.823
G3 X181.233 Y50.803 I0 J-0.672
G2 X162.468 Y31.91 I-42.027 J22.977
G3 X162.12 Y31.317 I0.332 J-0.593
G1 Y-1.398
G3 X162.32 Y-1.598 I0.2 J0
G1 X190.461 Y-1.588
G3 X190.66 Y-1.388 I0 J0.2
G1 Y53.23
G3 X190.341 Y53.55 I-0.319 J0
G1 X180.358
G3 X179.792 Y53.204 I0 J-0.635
G2 X176.189 Y47.286 I-41.578 J21.261
X160.072 Y33.343 I-37.189 J26.7
G3 X159.724 Y32.77 I0.295 J-0.572
G1 Y-1.392
G3 X159.923 Y-1.592 I0.2 J0
G1 X192.857 Y-1.595
G3 X193.057 Y-1.395 I0 J0.2
G1 Y55.627
G3 X192.738 Y55.946 I-0.319 J0
G1 X178.839
G3 X178.297 Y55.603 I0 J-0.599
G2 X174.699 Y49.333 I-40.463 J19.052
X157.674 Y34.826 I-35.7 J24.654
G3 X157.327 Y34.277 I0.26 J-0.548
G1 Y-1.399
G3 X157.527 Y-1.599 I0.2 J0
G1 X195.254 Y-1.586
G3 X195.454 Y-1.386 I0 J0.2
G1 Y58.024
G3 X195.134 Y58.343 I-0.319 J0
G1 X177.26
G3 X176.742 Y57.999 I0 J-0.563
G2 X155.274 Y36.367 I-37.639 J15.885
G3 X154.93 Y35.844 I0.226 J-0.523
G1 Y-1.398
G3 X155.13 Y-1.598 I0.2 J0
G1 X197.65 Y-1.593
G3 X197.85 Y-1.393 I0 J0.2
G1 Y60.42
G3 X197.531 Y60.74 I-0.319 J0
G1 X175.613
G3 X175.121 Y60.4 I0 J-0.526
G2 X173.633 Y56.962 I-38.308 J14.532
X154.186 Y38.508 I-34.634 J17.025
G1 X152.632 Y37.6
X152.591 Y37.568
X152.56 Y37.527
X152.54 Y37.479
X152.534 Y37.427
Y-1.396
G3 X153.732 Y-1.396 I0.599 J0
G1 Y18.015
X153.133 Y37.427
G3 X152.783 Y37.954 I-0.599 J-0.018
G1 X150.985 Y38.774
G3 X150.137 Y38.229 I-0.249 J-0.545
G1 Y-1.385
Y-1.409
G0 Z4
X200.247 Y-1.411
Z2
G1 Z0.7 F700
Z-0.9
Y-1.4
Y62.817
G3 X199.928 Y63.136 I-0.319 J0
G1 X173.888
G3 X173.422 Y62.797 I0 J-0.49
G2 X154.3 Y41.172 I-34.256 J11.025
G1 X154.278 Y41.162
G0 Z4
X202.644 Y-1.401
Z2
G1 Z0.7 F700
Z-0.9
Y-1.39
Y65.214
G3 X202.324 Y65.533 I-0.319 J0
G1 X172.073
G3 X171.635 Y65.197 I0 J-0.453
G2 X148.077 Y41.43 I-32.533 J8.688
G3 X147.74 Y40.987 I0.122 J-0.442
G1 Y-1.387
Y-1.411
G0 Z4
X205.04 Y-1.408
Z2
G1 Z0.7 F700
Z-0.9
Y-1.397
Y67.61
G3 X204.721 Y67.93 I-0.319 J0
G1 X170.152
G3 X169.745 Y67.599 I0 J-0.416
G2 X168.732 Y63.884 I-32.181 J6.778
X145.674 Y43.302 I-29.733 J10.102
G3 X145.344 Y42.89 I0.091 J-0.412
G1 Y-1.386
Y-1.409
G0 Z4
X207.441 Y-1.415
Z2
G1 Z0.7 F700
Z-0.9
X207.442 Y-1.391
Y70.331
X167.769
G2 X142.942 Y45.255 I-28.769 J3.655
G1 Y0
Y-1.397
G3 X144.367 Y-2.822 Z-0.906 I1.425 J0 F333.3
G1 X174.714 Y-2.815 Z-0.994
G3 X176.139 Y-1.39 Z-1 I0 J1.425
G1 Y26.14 F700
G3 X175.874 Y26.271 I-0.165 J0
G2 X174.6 Y25.313 I-38.998 J50.541
G3 X174.245 Y24.613 I0.512 J-0.7
G1 Y-1.387
G3 X174.445 Y-1.587 I0.2 J0
G1 X177.937 Y-1.586
G3 X178.137 Y-1.386 I0 J0.2
G1 Y30.421
G3 X177.879 Y30.537 I-0.155 J0
G2 X175.301 Y28.361 I-39.338 J43.996
X172.601 Y26.338 I-36.257 J45.571
G3 X172.247 Y25.654 I0.482 J-0.684
G1 Y-1.389
G3 X172.447 Y-1.589 I0.2 J0
G1 X179.888 Y-1.584
G3 X180.088 Y-1.384 I0 J0.2
G1 Y35.05
G3 X179.836 Y35.15 I-0.146 J0
G2 X170.649 Y27.359 I-40.274 J38.174
G3 X170.296 Y26.692 I0.453 J-0.667
G1 Y-1.395
G3 X170.496 Y-1.595 I0.2 J0
G1 X181.783
G3 X181.983 Y-1.395 I0 J0.2
G1 Y40.152
G3 X181.74 Y40.236 I-0.136 J0
G2 X168.752 Y28.373 I-42.778 J33.791
G3 X168.401 Y27.723 I0.425 J-0.65
G1 Y-1.39
G3 X168.601 Y-1.59 I0.2 J0
G1 X183.615 Y-1.592
G3 X183.815 Y-1.392 I0 J0.2
G1 Y45.954
X183.808 Y45.994
X183.79 Y46.03
X183.76 Y46.058
X183.724 Y46.075
X183.683 Y46.08
X183.644 Y46.072
X183.608 Y46.052
X183.582 Y46.021
G2 X166.92 Y29.376 I-44.645 J28.028
G3 X166.569 Y28.742 I0.398 J-0.634
G1 Y-1.398
G3 X166.769 Y-1.598 I0.2 J0
G1 X185.667 Y-1.591
G3 X185.867 Y-1.391 I0 J0.2
G1 Y48.437
G3 X185.548 Y48.756 I-0.319 J0
G1 X183.24
G3 X182.629 Y48.406 I0 J-0.708
G2 X164.867 Y30.527 I-43.597 J25.548
G3 X164.517 Y29.911 I0.367 J-0.617
G1 Y-1.391
G3 X164.717 Y-1.591 I0.2 J0
G1 X188.064 Y-1.598
G3 X188.264 Y-1.398 I0 J0.2
G1 Y50.834
G3 X187.945 Y51.153 I-0.319 J0
G1 X181.823
G3 X181.233 Y50.803 I0 J-0.672
G2 X162.468 Y31.91 I-42.027 J22.977
G3 X162.12 Y31.317 I0.332 J-0.593
G1 Y-1.398
G3 X162.32 Y-1.598 I0.2 J0
G1 X190.461 Y-1.588
G3 X190.66 Y-1.388 I0 J0.2
G1 Y53.23
G3 X190.341 Y53.55 I-0.319 J0
G1 X180.358
G3 X179.792 Y53.204 I0 J-0.635
G2 X176.189 Y47.286 I-41.578 J21.261
X160.072 Y33.343 I-37.189 J26.7
G3 X159.724 Y32.77 I0.295 J-0.572
G1 Y-1.392
G3 X159.923 Y-1.592 I0.2 J0
G1 X192.857 Y-1.595
G3 X193.057 Y-1.395 I0 J0.2
G1 Y55.627
G3 X192.738 Y55.946 I-0.319 J0
G1 X178.839
G3 X178.297 Y55.603 I0 J-0.599
G2 X174.699 Y49.333 I-40.463 J19.052
X157.674 Y34.826 I-35.7 J24.654
G3 X157.327 Y34.277 I0.26 J-0.548
G1 Y-1.399
G3 X157.527 Y-1.599 I0.2 J0
G1 X195.254 Y-1.586
G3 X195.454 Y-1.386 I0 J0.2
G1 Y58.024
G3 X195.134 Y58.343 I-0.319 J0
G1 X177.26
G3 X176.742 Y57.999 I0 J-0.563
G2 X155.274 Y36.367 I-37.639 J15.885
G3 X154.93 Y35.844 I0.226 J-0.523
G1 Y-1.398
G3 X155.13 Y-1.598 I0.2 J0
G1 X197.65 Y-1.593
G3 X197.85 Y-1.393 I0 J0.2
G1 Y60.42
G3 X197.531 Y60.74 I-0.319 J0
G1 X175.613
G3 X175.121 Y60.4 I0 J-0.526
G2 X173.633 Y56.962 I-38.308 J14.532
X154.186 Y38.508 I-34.634 J17.025
G1 X152.632 Y37.6
X152.591 Y37.568
X152.56 Y37.527
X152.54 Y37.479
X152.534 Y37.427
Y-1.396
G3 X153.732 Y-1.396 I0.599 J0
G1 Y18.015
X153.133 Y37.427
G3 X152.783 Y37.954 I-0.599 J-0.018
G1 X150.985 Y38.774
G3 X150.137 Y38.229 I-0.249 J-0.545
G1 Y-1.385
Y-1.409
G0 Z4
X200.247 Y-1.411
Z2
G1 Z0.4 F700
Z-1
Y-1.4
Y62.817
G3 X199.928 Y63.136 I-0.319 J0
G1 X173.888
G3 X173.422 Y62.797 I0 J-0.49
G2 X154.3 Y41.172 I-34.256 J11.025
G1 X154.278 Y41.162
G0 Z4
X202.644 Y-1.401
Z2
G1 Z0.4 F700
Z-1
Y-1.39
Y65.214
G3 X202.324 Y65.533 I-0.319 J0
G1 X172.073
G3 X171.635 Y65.197 I0 J-0.453
G2 X148.077 Y41.43 I-32.533 J8.688
G3 X147.74 Y40.987 I0.122 J-0.442
G1 Y-1.387
Y-1.411
G0 Z4
X205.04 Y-1.408
Z2
G1 Z0.4 F700
Z-1
Y-1.397
Y67.61
G3 X204.721 Y67.93 I-0.319 J0
G1 X170.152
G3 X169.745 Y67.599 I0 J-0.416
G2 X168.732 Y63.884 I-32.181 J6.778
X145.674 Y43.302 I-29.733 J10.102
G3 X145.344 Y42.89 I0.091 J-0.412
G1 Y-1.386
Y-1.409
G0 Z4
X207.441 Y-1.415
Z2
G1 Z0.4 F700
Z-1
X207.442 Y-1.391
Y70.331
X167.769
G2 X142.942 Y45.255 I-28.769 J3.655
G1 Y0
Y-1.397
G0 Z6
X141.487 Y74.547
Z2
G1 Z1.3 F700
Z-0.3
X147.109
G3 X147.394 Y74.863 I0 J0.287
X144.639 Y80.233 I-8.32 J-0.877
X140.633 Y82.222 I-5.639 J-6.329
X137.939 Y81.275 I-1.085 J-1.218
X138.069 Y78.422 I6.691 J-1.126
G1 X138.082 Y78.392
X138.104 Y78.368
X138.133 Y78.353
X138.166 Y78.347
X139.834
X139.871 Y78.354
X139.902 Y78.373
X139.924 Y78.403
X139.934 Y78.438
X139.931 Y78.475
X139.914 Y78.508
X139.887 Y78.533
X139.853 Y78.546
G3 X139.428 Y78.592 I-0.504 J-2.662
X138.572 Y78.592 I-0.428 J-14.761
X138.147 Y78.546 I0.078 J-2.708
G1 X138.116 Y78.535
X138.091 Y78.514
X138.073 Y78.486
X138.066 Y78.455
X138.069 Y78.422
G3 X138.657 Y77.276 I2.893 J0.761
X139.823 Y76.728 I1.166 J0.965
G1 X144.313
G3 X144.48 Y77.01 I0 J0.191
X142.175 Y79.353 I-5.341 J-2.948
X135.825 Y79.353 I-3.175 J-5.532
X133.52 Y77.01 I3.037 J-5.291
X133.687 Y76.728 I0.167 J-0.092
G1 X139.823
X139.871 Y76.722
X139.917 Y76.704
X139.957 Y76.676
X139.989 Y76.64
X141.345 Y74.635
X141.377 Y74.598
X141.417 Y74.57
X141.462 Y74.553
X141.51 Y74.547
X147.109
G3 X147.394 Y74.863 I0 J0.287
X144.639 Y80.233 I-8.32 J-0.877
X133.361 Y80.233 I-5.639 J-6.329
X130.606 Y74.863 I5.566 J-6.246
X130.891 Y74.547 I0.285 J-0.03
G1 X136.495
X136.547 Y74.54
X136.594 Y74.521
X140.696 Y72.186
X140.743 Y72.166
X140.795 Y72.16
X149.339
G3 X149.723 Y72.494 I0 J0.388
X139 Y84.768 I-10.691 J1.48
X128.277 Y72.494 I0 J-10.821
X128.661 Y72.16 I0.384 J0.053
G1 X137.21
G2 X139.082 Y70.911 I0 J-2.028
G3 X140.955 Y69.663 I1.872 J0.78
G1 X151.245
G3 X151.715 Y70.008 I0 J0.493
X139 Y87.264 I-12.667 J3.979
X126.285 Y70.008 I0 J-13.313
X126.755 Y69.663 I0.47 J0.148
G1 X140.955
G2 X142.877 Y68.381 I0 J-2.083
G3 X144.8 Y67.1 I1.923 J0.801
G1 X152.934
G3 X153.48 Y67.452 I0 J0.6
X152.345 Y82.564 I-14.377 J6.519
X139 Y89.828 I-13.304 J-8.551
X124.52 Y67.452 I0 J-15.873
X125.066 Y67.1 I0.546 J0.248
G1 X144.8
G2 X146.76 Y65.793 I0 J-2.123
G3 X148.72 Y64.486 I1.96 J0.817
G1 X154.874
G3 X139 Y92.486 I-15.874 J9.5
X123.126 Y64.486 I0 J-18.5
G1 X139
X148.72
G3 X149.799 Y66.842 Z-0.35 I0 J1.425 F333.3
G1 X140.079 Y78.104 Z-0.581
G3 X139 Y78.598 Z-0.6 I-1.079 J-0.931
X138.572 Y78.592 I0 J-14.767 F700
X138.147 Y78.546 I0.078 J-2.708
G1 X138.113 Y78.533
X138.086 Y78.508
X138.069 Y78.475
X138.066 Y78.438
X138.076 Y78.403
X138.098 Y78.373
X138.129 Y78.354
X138.166 Y78.347
X139.834
X139.871 Y78.354
X139.902 Y78.373
X139.924 Y78.403
X139.934 Y78.438
X139.931 Y78.475
X139.914 Y78.508
X139.887 Y78.533
X139.853 Y78.546
G3 X139.428 Y78.592 I-0.504 J-2.662
X139 Y78.598 I-0.428 J-14.761
G2 X137.882 Y79.286 I0 J1.253
G3 X136.654 Y79.753 I-0.869 J-0.439
X135.825 Y79.353 I2.346 J-5.932
X133.52 Y77.01 I3.037 J-5.291
X133.687 Y76.728 I0.167 J-0.092
G1 X144.313
G3 X144.48 Y77.01 I0 J0.191
X142.175 Y79.353 I-5.341 J-2.948
X136.654 Y79.753 I-3.175 J-5.532
X136.586 Y79.426 I0.074 J-0.186
G1 X141.368 Y74.606
X141.41 Y74.574
X141.458 Y74.554
X141.51 Y74.547
X147.109
G3 X147.394 Y74.863 I0 J0.287
X144.639 Y80.233 I-8.32 J-0.877
X133.361 Y80.233 I-5.639 J-6.329
X130.606 Y74.863 I5.566 J-6.246
X130.891 Y74.547 I0.285 J-0.03
G1 X136.495
X136.547 Y74.54
X136.594 Y74.521
X140.696 Y72.186
X140.743 Y72.166
X140.795 Y72.16
X149.339
G3 X149.723 Y72.494 I0 J0.388
X139 Y84.768 I-10.691 J1.48
X128.277 Y72.494 I0 J-10.821
X128.661 Y72.16 I0.384 J0.053
G1 X137.21
G2 X139.082 Y70.911 I0 J-2.028
G3 X140.955 Y69.663 I1.872 J0.78
G1 X151.245
G3 X151.715 Y70.008 I0 J0.493
X139 Y87.264 I-12.667 J3.979
X126.285 Y70.008 I0 J-13.313
X126.755 Y69.663 I0.47 J0.148
G1 X140.955
G2 X142.877 Y68.381 I0 J-2.083
G3 X144.8 Y67.1 I1.923 J0.801
G1 X152.934
G3 X153.48 Y67.452 I0 J0.6
X152.345 Y82.564 I-14.377 J6.519
X139 Y89.828 I-13.304 J-8.551
X124.52 Y67.452 I0 J-15.873
X125.066 Y67.1 I0.546 J0.248
G1 X144.8
G2 X146.76 Y65.793 I0 J-2.123
G3 X148.72 Y64.486 I1.96 J0.817
G1 X154.874
G3 X139 Y92.486 I-15.874 J9.5
X123.126 Y64.486 I0 J-18.5
G1 X139
X148.72
G3 X149.799 Y66.842 Z-0.65 I0 J1.425 F333.3
G1 X140.079 Y78.104 Z-0.881
G3 X139 Y78.598 Z-0.9 I-1.079 J-0.931
X138.572 Y78.592 I0 J-14.767 F700
X138.147 Y78.546 I0.078 J-2.708
G1 X138.113 Y78.533
X138.086 Y78.508
X138.069 Y78.475
X138.066 Y78.438
X138.076 Y78.403
X138.098 Y78.373
X138.129 Y78.354
X138.166 Y78.347
X139.834
X139.871 Y78.354
X139.902 Y78.373
X139.924 Y78.403
X139.934 Y78.438
X139.931 Y78.475
X139.914 Y78.508
X139.887 Y78.533
X139.853 Y78.546
G3 X139.428 Y78.592 I-0.504 J-2.662
X139 Y78.598 I-0.428 J-14.761
G2 X137.882 Y79.286 I0 J1.253
G3 X136.654 Y79.753 I-0.869 J-0.439
X135.825 Y79.353 I2.346 J-5.932
X133.52 Y77.01 I3.037 J-5.291
X133.687 Y76.728 I0.167 J-0.092
G1 X144.313
G3 X144.48 Y77.01 I0 J0.191
X142.175 Y79.353 I-5.341 J-2.948
X136.654 Y79.753 I-3.175 J-5.532
X136.586 Y79.426 I0.074 J-0.186
G1 X141.368 Y74.606
X141.41 Y74.574
X141.458 Y74.554
X141.51 Y74.547
X147.109
G3 X147.394 Y74.863 I0 J0.287
X144.639 Y80.233 I-8.32 J-0.877
X133.361 Y80.233 I-5.639 J-6.329
X130.606 Y74.863 I5.566 J-6.246
X130.891 Y74.547 I0.285 J-0.03
G1 X136.495
X136.547 Y74.54
X136.594 Y74.521
X140.696 Y72.186
X140.743 Y72.166
X140.795 Y72.16
X149.339
G3 X149.723 Y72.494 I0 J0.388
X139 Y84.768 I-10.691 J1.48
X128.277 Y72.494 I0 J-10.821
X128.661 Y72.16 I0.384 J0.053
G1 X137.21
G2 X139.082 Y70.911 I0 J-2.028
G3 X140.955 Y69.663 I1.872 J0.78
G1 X151.245
G3 X151.715 Y70.008 I0 J0.493
X139 Y87.264 I-12.667 J3.979
X126.285 Y70.008 I0 J-13.313
X126.755 Y69.663 I0.47 J0.148
G1 X140.955
G2 X142.877 Y68.381 I0 J-2.083
G3 X144.8 Y67.1 I1.923 J0.801
G1 X152.934
G3 X153.48 Y67.452 I0 J0.6
X152.345 Y82.564 I-14.377 J6.519
X139 Y89.828 I-13.304 J-8.551
X124.52 Y67.452 I0 J-15.873
X125.066 Y67.1 I0.546 J0.248
G1 X144.8
G2 X146.76 Y65.793 I0 J-2.123
G3 X148.72 Y64.486 I1.96 J0.817
G1 X154.874
G3 X139 Y92.486 I-15.874 J9.5
X123.126 Y64.486 I0 J-18.5
G1 X139
X148.72
G3 X149.799 Y66.842 Z-0.917 I0 J1.425 F333.3
G1 X140.079 Y78.104 Z-0.994
G3 X139 Y78.598 Z-1 I-1.079 J-0.931
X138.572 Y78.592 I0 J-14.767 F700
X138.147 Y78.546 I0.078 J-2.708
G1 X138.113 Y78.533
X138.086 Y78.508
X138.069 Y78.475
X138.066 Y78.438
X138.076 Y78.403
X138.098 Y78.373
X138.129 Y78.354
X138.166 Y78.347
X139.834
X139.871 Y78.354
X139.902 Y78.373
X139.924 Y78.403
X139.934 Y78.438
X139.931 Y78.475
X139.914 Y78.508
X139.887 Y78.533
X139.853 Y78.546
G3 X139.428 Y78.592 I-0.504 J-2.662
X139 Y78.598 I-0.428 J-14.761
G2 X137.882 Y79.286 I0 J1.253
G3 X136.654 Y79.753 I-0.869 J-0.439
X135.825 Y79.353 I2.346 J-5.932
X133.52 Y77.01 I3.037 J-5.291
X133.687 Y76.728 I0.167 J-0.092
G1 X144.313
G3 X144.48 Y77.01 I0 J0.191
X142.175 Y79.353 I-5.341 J-2.948
X136.654 Y79.753 I-3.175 J-5.532
X136.586 Y79.426 I0.074 J-0.186
G1 X141.368 Y74.606
X141.41 Y74.574
X141.458 Y74.554
X141.51 Y74.547
X147.109
G3 X147.394 Y74.863 I0 J0.287
X144.639 Y80.233 I-8.32 J-0.877
X133.361 Y80.233 I-5.639 J-6.329
X130.606 Y74.863 I5.566 J-6.246
X130.891 Y74.547 I0.285 J-0.03
G1 X136.495
X136.547 Y74.54
X136.594 Y74.521
X140.696 Y72.186
X140.743 Y72.166
X140.795 Y72.16
X149.339
G3 X149.723 Y72.494 I0 J0.388
X139 Y84.768 I-10.691 J1.48
X128.277 Y72.494 I0 J-10.821
X128.661 Y72.16 I0.384 J0.053
G1 X137.21
G2 X139.082 Y70.911 I0 J-2.028
G3 X140.955 Y69.663 I1.872 J0.78
G1 X151.245
G3 X151.715 Y70.008 I0 J0.493
X139 Y87.264 I-12.667 J3.979
X126.285 Y70.008 I0 J-13.313
X126.755 Y69.663 I0.47 J0.148
G1 X140.955
G2 X142.877 Y68.381 I0 J-2.083
G3 X144.8 Y67.1 I1.923 J0.801
G1 X152.934
G3 X153.48 Y67.452 I0 J0.6
X152.345 Y82.564 I-14.377 J6.519
X139 Y89.828 I-13.304 J-8.551
X124.52 Y67.452 I0 J-15.873
X125.066 Y67.1 I0.546 J0.248
G1 X144.8
G2 X146.76 Y65.793 I0 J-2.123
G3 X148.72 Y64.486 I1.96 J0.817
G1 X154.874
G3 X139 Y92.486 I-15.874 J9.5
X123.126 Y64.486 I0 J-18.5
G1 X139
X148.72
G0 Z6
X175.948 Y149.387
Z2
G1 Z1.3 F700
Z-0.3
Y149.375
Y120.835
G3 X176.107 Y120.505 I0.422 J0
G2 X176.673 Y120.047 I-33.149 J-41.595
G3 X176.936 Y120.172 I0.102 J0.125
G1 Y149.37
G3 X176.737 Y149.57 I-0.2 J0
G1 X175.136 Y149.579
G3 X174.934 Y149.379 I-0.001 J-0.2
G1 Y120.595
G3 X175.291 Y119.859 I0.939 J0
G2 X177.69 Y117.854 I-36.677 J-46.338
G3 X177.95 Y117.972 I0.103 J0.117
G1 Y149.374
G3 X177.75 Y149.574 I-0.2 J0
G1 X173.18 Y149.582
G3 X172.979 Y149.382 I0 J-0.2
G1 Y119.623
G3 X173.335 Y118.903 I0.906 J0
G2 X179.652 Y113.278 I-34.211 J-44.78
G3 X179.905 Y113.38 I0.105 J0.102
G1 Y149.376
G3 X179.705 Y149.577 I-0.2 J0
G1 X171.279 Y149.581
G3 X171.078 Y149.381 I0 J-0.2
G1 Y118.657
G3 X171.434 Y117.954 I0.874 J0
G2 X181.561 Y108.245 I-32.339 J-43.869
G3 X181.806 Y108.331 I0.107 J0.086
G1 Y149.376
G3 X181.606 Y149.576 I-0.2 J0
G1 X169.44 Y149.585
G3 X169.24 Y149.385 I0 J-0.2
G1 Y117.703
G3 X169.594 Y117.016 I0.842 J0
G2 X183.41 Y102.541 I-30.601 J-43.037
G1 X183.437 Y102.511
X183.472 Y102.491
X183.512 Y102.483
X183.553 Y102.488
X183.589 Y102.505
X183.619 Y102.534
X183.637 Y102.57
X183.644 Y102.61
Y149.377
G3 X183.444 Y149.577 I-0.2 J0
G1 X167.217 Y149.57
G3 X167.017 Y149.37 I0 J-0.2
G1 Y116.52
G3 X167.371 Y115.854 I0.804 J0
G2 X182.217 Y100.256 I-28.148 J-41.655
G3 X182.84 Y99.906 I0.623 J0.38
G1 X185.548
G3 X185.867 Y100.225 I0 J0.319
G1 Y149.382
G3 X185.667 Y149.582 I-0.2 J0
G1 X164.82 Y149.577
G3 X164.62 Y149.377 I0 J-0.2
G1 Y115.207
G3 X164.973 Y114.563 I0.763 J0
G2 X180.847 Y97.86 I-25.677 J-40.296
G3 X181.449 Y97.509 I0.602 J0.342
G1 X187.945
G3 X188.264 Y97.829 I0 J0.319
G1 Y149.375
G3 X188.064 Y149.575 I-0.2 J0
G1 X162.424 Y149.584
G3 X162.224 Y149.384 I0 J-0.2
G1 Y113.85
G3 X162.574 Y113.231 I0.722 J0
G2 X179.433 Y95.46 I-23.572 J-39.243
G3 X180.011 Y95.113 I0.578 J0.308
G1 X190.341
G3 X190.66 Y95.432 I0 J0.319
G1 Y149.385
G3 X190.46 Y149.585 I-0.2 J0
G1 X160.027 Y149.574
G3 X159.827 Y149.374 I0 J-0.2
G1 Y112.447
G3 X160.177 Y111.851 I0.681 J0
G2 X177.966 Y93.062 I-21.002 J-37.699
G3 X178.52 Y92.716 I0.555 J0.272
G1 X192.738
G3 X193.057 Y93.035 I0 J0.319
G1 Y149.378
G3 X192.857 Y149.578 I-0.2 J0
G1 X157.63 Y149.581
G3 X157.43 Y149.381 I0 J-0.2
G1 Y110.989
G3 X157.778 Y110.42 I0.64 J0
G2 X176.442 Y90.662 I-18.653 J-36.315
G3 X176.971 Y90.319 I0.529 J0.237
G1 X195.134
G3 X195.454 Y90.639 I0 J0.319
G1 Y149.371
G3 X195.254 Y149.571 I-0.2 J0
G1 X155.234
G3 X155.034 Y149.371 I0 J-0.2
G1 Y109.472
G3 X155.379 Y108.929 I0.599 J0
G2 X174.852 Y88.265 I-16.353 J-34.919
G3 X175.357 Y87.923 I0.504 J0.2
G1 X197.531
G3 X197.85 Y88.242 I0 J0.319
G1 Y149.381
G3 X197.65 Y149.581 I-0.2 J0
G1 X152.837 Y149.578
G3 X152.637 Y149.378 I0 J-0.2
G1 Y111.228
X152.644 Y111.173
X153.796 Y107.098
X153.813 Y107.058
X153.837 Y107.022
X153.869 Y106.992
X153.907 Y106.97
G2 X173.19 Y85.865 I-14.812 J-32.895
G3 X173.667 Y85.526 I0.477 J0.166
G1 X199.928
G3 X200.247 Y85.845 I0 J0.319
G1 Y149.374
Y149.397
G0 Z4
X150.24
Z2
G1 Z1.3 F700
Z-0.3
Y149.385
Y110.528
Y106.914
Y106.224
G3 X150.579 Y105.739 I0.517 J0
G2 X157.247 Y102.435 I-11.933 J-32.467
X171.441 Y83.466 I-18.247 J-28.449
G3 X171.89 Y83.129 I0.449 J0.131
G1 X202.324
G3 X202.644 Y83.449 I0 J0.319
G1 Y149.383
Y149.395
G0 Z4
X147.844 Y149.387
Z2
G1 Z1.3 F700
Z-0.3
Y149.375
Y104.471
G3 X148.18 Y104.016 I0.476 J0
G2 X161.966 Y95.416 I-9.292 J-30.245
X169.593 Y81.067 I-22.641 J-21.235
G3 X170.012 Y80.733 I0.419 J0.095
G1 X204.721
G3 X205.04 Y81.052 I0 J0.319
G1 Y149.376
Y149.388
G0 Z4
X145.443 Y149.394
Z2
G1 Z1.3 F700
Z-0.3
X145.442 Y149.37
Y102.261
G2 X167.672 Y78.331 I-6.442 J-28.275
G1 X207.442
Y147.986
Y149.383
G3 X206.017 Y150.808 Z-0.32 I-1.425 J0 F333.3
G1 X177.372 Y150.8 Z-0.58
G3 X175.948 Y149.375 Z-0.6 I0 J-1.425
G1 Y120.835 F700
G3 X176.107 Y120.505 I0.422 J0
G2 X176.673 Y120.047 I-33.149 J-41.595
G3 X176.936 Y120.172 I0.102 J0.125
G1 Y149.37
G3 X176.737 Y149.57 I-0.2 J0
G1 X175.136 Y149.579
G3 X174.934 Y149.379 I-0.001 J-0.2
G1 Y120.595
G3 X175.291 Y119.859 I0.939 J0
G2 X177.69 Y117.854 I-36.677 J-46.338
G3 X177.95 Y117.972 I0.103 J0.117
G1 Y149.374
G3 X177.75 Y149.574 I-0.2 J0
G1 X173.18 Y149.582
G3 X172.979 Y149.382 I0 J-0.2
G1 Y119.623
G3 X173.335 Y118.903 I0.906 J0
G2 X179.652 Y113.278 I-34.211 J-44.78
G3 X179.905 Y113.38 I0.105 J0.102
G1 Y149.376
G3 X179.705 Y149.577 I-0.2 J0
G1 X171.279 Y149.581
G3 X171.078 Y149.381 I0 J-0.2
G1 Y118.657
G3 X171.434 Y117.954 I0.874 J0
G2 X181.561 Y108.245 I-32.339 J-43.869
G3 X181.806 Y108.331 I0.107 J0.086
G1 Y149.376
G3 X181.606 Y149.576 I-0.2 J0
G1 X169.44 Y149.585
G3 X169.24 Y149.385 I0 J-0.2
G1 Y117.703
G3 X169.594 Y117.016 I0.842 J0
G2 X183.41 Y102.541 I-30.601 J-43.037
G1 X183.437 Y102.511
X183.472 Y102.491
X183.512 Y102.483
X183.553 Y102.488
X183.589 Y102.505
X183.619 Y102.534
X183.637 Y102.57
X183.644 Y102.61
Y149.377
G3 X183.444 Y149.577 I-0.2 J0
G1 X167.217 Y149.57
G3 X167.017 Y149.37 I0 J-0.2
G1 Y116.52
G3 X167.371 Y115.854 I0.804 J0
G2 X182.217 Y100.256 I-28.148 J-41.655
G3 X182.84 Y99.906 I0.623 J0.38
G1 X185.548
G3 X185.867 Y100.225 I0 J0.319
G1 Y149.382
G3 X185.667 Y149.582 I-0.2 J0
G1 X164.82 Y149.577
G3 X164.62 Y149.377 I0 J-0.2
G1 Y115.207
G3 X164.973 Y114.563 I0.763 J0
G2 X180.847 Y97.86 I-25.677 J-40.296
G3 X181.449 Y97.509 I0.602 J0.342
G1 X187.945
G3 X188.264 Y97.829 I0 J0.319
G1 Y149.375
G3 X188.064 Y149.575 I-0.2 J0
G1 X162.424 Y149.584
G3 X162.224 Y149.384 I0 J-0.2
G1 Y113.85
G3 X162.574 Y113.231 I0.722 J0
G2 X179.433 Y95.46 I-23.572 J-39.243
G3 X180.011 Y95.113 I0.578 J0.308
G1 X190.341
G3 X190.66 Y95.432 I0 J0.319
G1 Y149.385
G3 X190.46 Y149.585 I-0.2 J0
G1 X160.027 Y149.574
G3 X159.827 Y149.374 I0 J-0.2
G1 Y112.447
G3 X160.177 Y111.851 I0.681 J0
G2 X177.966 Y93.062 I-21.002 J-37.699
G3 X178.52 Y92.716 I0.555 J0.272
G1 X192.738
G3 X193.057 Y93.035 I0 J0.319
G1 Y149.378
G3 X192.857 Y149.578 I-0.2 J0
G1 X157.63 Y149.581
G3 X157.43 Y149.381 I0 J-0.2
G1 Y110.989
G3 X157.778 Y110.42 I0.64 J0
G2 X176.442 Y90.662 I-18.653 J-36.315
G3 X176.971 Y90.319 I0.529 J0.237
G1 X195.134
G3 X195.454 Y90.639 I0 J0.319
G1 Y149.371
G3 X195.254 Y149.571 I-0.2 J0
G1 X155.234
G3 X155.034 Y149.371 I0 J-0.2
G1 Y109.472
G3 X155.379 Y108.929 I0.599 J0
G2 X174.852 Y88.265 I-16.353 J-34.919
G3 X175.357 Y87.923 I0.504 J0.2
G1 X197.531
G3 X197.85 Y88.242 I0 J0.319
G1 Y149.381
G3 X197.65 Y149.581 I-0.2 J0
G1 X152.837 Y149.578
G3 X152.637 Y149.378 I0 J-0.2
G1 Y111.228
X152.644 Y111.173
X153.796 Y107.098
X153.813 Y107.058
X153.837 Y107.022
X153.869 Y106.992
X153.907 Y106.97
G2 X173.19 Y85.865 I-14.812 J-32.895
G3 X173.667 Y85.526 I0.477 J0.166
G1 X199.928
G3 X200.247 Y85.845 I0 J0.319
G1 Y149.374
Y149.397
G0 Z4
X150.24
Z2
G1 Z1 F700
Z-0.6
Y149.385
Y110.528
Y106.914
Y106.224
G3 X150.579 Y105.739 I0.517 J0
G2 X157.247 Y102.435 I-11.933 J-32.467
X171.441 Y83.466 I-18.247 J-28.449
G3 X171.89 Y83.129 I0.449 J0.131
G1 X202.324
G3 X202.644 Y83.449 I0 J0.319
G1 Y149.383
Y149.395
G0 Z4
X147.844 Y149.387
Z2
G1 Z1 F700
Z-0.6
Y149.375
Y104.471
G3 X148.18 Y104.016 I0.476 J0
G2 X161.966 Y95.416 I-9.292 J-30.245
X169.593 Y81.067 I-22.641 J-21.235
G3 X170.012 Y80.733 I0.419 J0.095
G1 X204.721
G3 X205.04 Y81.052 I0 J0.319
G1 Y149.376
Y149.388
G0 Z4
X145.443 Y149.394
Z2
G1 Z1 F700
Z-0.6
X145.442 Y149.37
Y102.261
G2 X167.672 Y78.331 I-6.442 J-28.275
G1 X207.442
Y147.986
Y149.383
G3 X206.017 Y150.808 Z-0.62 I-1.425 J0 F333.3
G1 X177.372 Y150.8 Z-0.88
G3 X175.948 Y149.375 Z-0.9 I0 J-1.425
G1 Y120.835 F700
G3 X176.107 Y120.505 I0.422 J0
G2 X176.673 Y120.047 I-33.149 J-41.595
G3 X176.936 Y120.172 I0.102 J0.125
G1 Y149.37
G3 X176.737 Y149.57 I-0.2 J0
G1 X175.136 Y149.579
G3 X174.934 Y149.379 I-0.001 J-0.2
G1 Y120.595
G3 X175.291 Y119.859 I0.939 J0
G2 X177.69 Y117.854 I-36.677 J-46.338
G3 X177.95 Y117.972 I0.103 J0.117
G1 Y149.374
G3 X177.75 Y149.574 I-0.2 J0
G1 X173.18 Y149.582
G3 X172.979 Y149.382 I0 J-0.2
G1 Y119.623
G3 X173.335 Y118.903 I0.906 J0
G2 X179.652 Y113.278 I-34.211 J-44.78
G3 X179.905 Y113.38 I0.105 J0.102
G1 Y149.376
G3 X179.705 Y149.577 I-0.2 J0
G1 X171.279 Y149.581
G3 X171.078 Y149.381 I0 J-0.2
G1 Y118.657
G3 X171.434 Y117.954 I0.874 J0
G2 X181.561 Y108.245 I-32.339 J-43.869
G3 X181.806 Y108.331 I0.107 J0.086
G1 Y149.376
G3 X181.606 Y149.576 I-0.2 J0
G1 X169.44 Y149.585
G3 X169.24 Y149.385 I0 J-0.2
G1 Y117.703
G3 X169.594 Y117.016 I0.842 J0
G2 X183.41 Y102.541 I-30.601 J-43.037
G1 X183.437 Y102.511
X183.472 Y102.491
X183.512 Y102.483
X183.553 Y102.488
X183.589 Y102.505
X183.619 Y102.534
X183.637 Y102.57
X183.644 Y102.61
Y149.377
G3 X183.444 Y149.577 I-0.2 J0
G1 X167.217 Y149.57
G3 X167.017 Y149.37 I0 J-0.2
G1 Y116.52
G3 X167.371 Y115.854 I0.804 J0
G2 X182.217 Y100.256 I-28.148 J-41.655
G3 X182.84 Y99.906 I0.623 J0.38
G1 X185.548
G3 X185.867 Y100.225 I0 J0.319
G1 Y149.382
G3 X185.667 Y149.582 I-0.2 J0
G1 X164.82 Y149.577
G3 X164.62 Y149.377 I0 J-0.2
G1 Y115.207
G3 X164.973 Y114.563 I0.763 J0
G2 X180.847 Y97.86 I-25.677 J-40.296
G3 X181.449 Y97.509 I0.602 J0.342
G1 X187.945
G3 X188.264 Y97.829 I0 J0.319
G1 Y149.375
G3 X188.064 Y149.575 I-0.2 J0
G1 X162.424 Y149.584
G3 X162.224 Y149.384 I0 J-0.2
G1 Y113.85
G3 X162.574 Y113.231 I0.722 J0
G2 X179.433 Y95.46 I-23.572 J-39.243
G3 X180.011 Y95.113 I0.578 J0.308
G1 X190.341
G3 X190.66 Y95.432 I0 J0.319
G1 Y149.385
G3 X190.46 Y149.585 I-0.2 J0
G1 X160.027 Y149.574
G3 X159.827 Y149.374 I0 J-0.2
G1 Y112.447
G3 X160.177 Y111.851 I0.681 J0
G2 X177.966 Y93.062 I-21.002 J-37.699
G3 X178.52 Y92.716 I0.555 J0.272
G1 X192.738
G3 X193.057 Y93.035 I0 J0.319
G1 Y149.378
G3 X192.857 Y149.578 I-0.2 J0
G1 X157.63 Y149.581
G3 X157.43 Y149.381 I0 J-0.2
G1 Y110.989
G3 X157.778 Y110.42 I0.64 J0
G2 X176.442 Y90.662 I-18.653 J-36.315
G3 X176.971 Y90.319 I0.529 J0.237
G1 X195.134
G3 X195.454 Y90.639 I0 J0.319
G1 Y149.371
G3 X195.254 Y149.571 I-0.2 J0
G1 X155.234
G3 X155.034 Y149.371 I0 J-0.2
G1 Y109.472
G3 X155.379 Y108.929 I0.599 J0
G2 X174.852 Y88.265 I-16.353 J-34.919
G3 X175.357 Y87.923 I0.504 J0.2
G1 X197.531
G3 X197.85 Y88.242 I0 J0.319
G1 Y149.381
G3 X197.65 Y149.581 I-0.2 J0
G1 X152.837 Y149.578
G3 X152.637 Y149.378 I0 J-0.2
G1 Y111.228
X152.644 Y111.173
X153.796 Y107.098
X153.813 Y107.058
X153.837 Y107.022
X153.869 Y106.992
X153.907 Y106.97
G2 X173.19 Y85.865 I-14.812 J-32.895
G3 X173.667 Y85.526 I0.477 J0.166
G1 X199.928
G3 X200.247 Y85.845 I0 J0.319
G1 Y149.374
Y149.397
G0 Z4
X150.24
Z2
G1 Z0.7 F700
Z-0.9
Y149.385
Y110.528
Y106.914
Y106.224
G3 X150.579 Y105.739 I0.517 J0
G2 X157.247 Y102.435 I-11.933 J-32.467
X171.441 Y83.466 I-18.247 J-28.449
G3 X171.89 Y83.129 I0.449 J0.131
G1 X202.324
G3 X202.644 Y83.449 I0 J0.319
G1 Y149.383
Y149.395
G0 Z4
X147.844 Y149.387
Z2
G1 Z0.7 F700
Z-0.9
Y149.375
Y104.471
G3 X148.18 Y104.016 I0.476 J0
G2 X161.966 Y95.416 I-9.292 J-30.245
X169.593 Y81.067 I-22.641 J-21.235
G3 X170.012 Y80.733 I0.419 J0.095
G1 X204.721
G3 X205.04 Y81.052 I0 J0.319
G1 Y149.376
Y149.388
G0 Z4
X145.443 Y149.394
Z2
G1 Z0.7 F700
Z-0.9
X145.442 Y149.37
Y102.261
G2 X167.672 Y78.331 I-6.442 J-28.275
G1 X207.442
Y147.986
Y149.383
G3 X206.017 Y150.808 Z-0.907 I-1.425 J0 F333.3
G1 X177.372 Y150.8 Z-0.993
G3 X175.948 Y149.375 Z-1 I0 J-1.425
G1 Y120.835 F700
G3 X176.107 Y120.505 I0.422 J0
G2 X176.673 Y120.047 I-33.149 J-41.595
G3 X176.936 Y120.172 I0.102 J0.125
G1 Y149.37
G3 X176.737 Y149.57 I-0.2 J0
G1 X175.136 Y149.579
G3 X174.934 Y149.379 I-0.001 J-0.2
G1 Y120.595
G3 X175.291 Y119.859 I0.939 J0
G2 X177.69 Y117.854 I-36.677 J-46.338
G3 X177.95 Y117.972 I0.103 J0.117
G1 Y149.374
G3 X177.75 Y149.574 I-0.2 J0
G1 X173.18 Y149.582
G3 X172.979 Y149.382 I0 J-0.2
G1 Y119.623
G3 X173.335 Y118.903 I0.906 J0
G2 X179.652 Y113.278 I-34.211 J-44.78
G3 X179.905 Y113.38 I0.105 J0.102
G1 Y149.376
G3 X179.705 Y149.577 I-0.2 J0
G1 X171.279 Y149.581
G3 X171.078 Y149.381 I0 J-0.2
G1 Y118.657
G3 X171.434 Y117.954 I0.874 J0
G2 X181.561 Y108.245 I-32.339 J-43.869
G3 X181.806 Y108.331 I0.107 J0.086
G1 Y149.376
G3 X181.606 Y149.576 I-0.2 J0
G1 X169.44 Y149.585
G3 X169.24 Y149.385 I0 J-0.2
G1 Y117.703
G3 X169.594 Y117.016 I0.842 J0
G2 X183.41 Y102.541 I-30.601 J-43.037
G1 X183.437 Y102.511
X183.472 Y102.491
X183.512 Y102.483
X183.553 Y102.488
X183.589 Y102.505
X183.619 Y102.534
X183.637 Y102.57
X183.644 Y102.61
Y149.377
G3 X183.444 Y149.577 I-0.2 J0
G1 X167.217 Y149.57
G3 X167.017 Y149.37 I0 J-0.2
G1 Y116.52
G3 X167.371 Y115.854 I0.804 J0
G2 X182.217 Y100.256 I-28.148 J-41.655
G3 X182.84 Y99.906 I0.623 J0.38
G1 X185.548
G3 X185.867 Y100.225 I0 J0.319
G1 Y149.382
G3 X185.667 Y149.582 I-0.2 J0
G1 X164.82 Y149.577
G3 X164.62 Y149.377 I0 J-0.2
G1 Y115.207
G3 X164.973 Y114.563 I0.763 J0
G2 X180.847 Y97.86 I-25.677 J-40.296
G3 X181.449 Y97.509 I0.602 J0.342
G1 X187.945
G3 X188.264 Y97.829 I0 J0.319
G1 Y149.375
G3 X188.064 Y149.575 I-0.2 J0
G1 X162.424 Y149.584
G3 X162.224 Y149.384 I0 J-0.2
G1 Y113.85
G3 X162.574 Y113.231 I0.722 J0
G2 X179.433 Y95.46 I-23.572 J-39.243
G3 X180.011 Y95.113 I0.578 J0.308
G1 X190.341
G3 X190.66 Y95.432 I0 J0.319
G1 Y149.385
G3 X190.46 Y149.585 I-0.2 J0
G1 X160.027 Y149.574
G3 X159.827 Y149.374 I0 J-0.2
G1 Y112.447
G3 X160.177 Y111.851 I0.681 J0
G2 X177.966 Y93.062 I-21.002 J-37.699
G3 X178.52 Y92.716 I0.555 J0.272
G1 X192.738
G3 X193.057 Y93.035 I0 J0.319
G1 Y149.378
G3 X192.857 Y149.578 I-0.2 J0
G1 X157.63 Y149.581
G3 X157.43 Y149.381 I0 J-0.2
G1 Y110.989
G3 X157.778 Y110.42 I0.64 J0
G2 X176.442 Y90.662 I-18.653 J-36.315
G3 X176.971 Y90.319 I0.529 J0.237
G1 X195.134
G3 X195.454 Y90.639 I0 J0.319
G1 Y149.371
G3 X195.254 Y149.571 I-0.2 J0
G1 X155.234
G3 X155.034 Y149.371 I0 J-0.2
G1 Y109.472
G3 X155.379 Y108.929 I0.599 J0
G2 X174.852 Y88.265 I-16.353 J-34.919
G3 X175.357 Y87.923 I0.504 J0.2
G1 X197.531
G3 X197.85 Y88.242 I0 J0.319
G1 Y149.381
G3 X197.65 Y149.581 I-0.2 J0
G1 X152.837 Y149.578
G3 X152.637 Y149.378 I0 J-0.2
G1 Y111.228
X152.644 Y111.173
X153.796 Y107.098
X153.813 Y107.058
X153.837 Y107.022
X153.869 Y106.992
X153.907 Y106.97
G2 X173.19 Y85.865 I-14.812 J-32.895
G3 X173.667 Y85.526 I0.477 J0.166
G1 X199.928
G3 X200.247 Y85.845 I0 J0.319
G1 Y149.374
Y149.397
G0 Z4
X150.24
Z2
G1 Z0.4 F700
Z-1
Y149.385
Y110.528
Y106.914
Y106.224
G3 X150.579 Y105.739 I0.517 J0
G2 X157.247 Y102.435 I-11.933 J-32.467
X171.441 Y83.466 I-18.247 J-28.449
G3 X171.89 Y83.129 I0.449 J0.131
G1 X202.324
G3 X202.644 Y83.449 I0 J0.319
G1 Y149.383
Y149.395
G0 Z4
X147.844 Y149.387
Z2
G1 Z0.4 F700
Z-1
Y149.375
Y104.471
G3 X148.18 Y104.016 I0.476 J0
G2 X161.966 Y95.416 I-9.292 J-30.245
X169.593 Y81.067 I-22.641 J-21.235
G3 X170.012 Y80.733 I0.419 J0.095
G1 X204.721
G3 X205.04 Y81.052 I0 J0.319
G1 Y149.376
Y149.388
G0 Z4
X145.443 Y149.394
Z2
G1 Z0.4 F700
Z-1
X145.442 Y149.37
Y102.261
G2 X167.672 Y78.331 I-6.442 J-28.275
G1 X207.442
Y147.986
Y149.383
G0 Z6

(2D Pocket2 2)
X245.51 Y79.686
Z6
Z2
G1 Z1.8 F700
G3 X244.478 Y81.7 Z0.848 I-1.287 J0.612 F333.3
X242.949 Y79.661 Z-0.3 I-0.255 J-1.402
X250.309 Y81.398 I3.475 J1.737 F700
G2 X250.332 Y82.308 I18.404 J0
G3 X250.354 Y83.218 I-18.381 J0.91
X250.016 Y83.771 I-0.622 J0
G2 X249.37 Y84.112 I14.17 J27.645
X248.755 Y84.506 I2.38 J4.387
G3 X242.949 Y79.661 I-2.331 J-3.108
G2 X242.818 Y77.684 I-1.753 J-0.876
G3 X243.274 Y75.757 I1.112 J-0.754
X252.885 Y81.398 I3.15 J5.642
G2 X252.908 Y83.271 I77.998 J0
G3 X252.93 Y85.144 I-77.965 J1.873
X252.606 Y85.55 I-0.416 J0
G2 X251.4 Y85.937 I1.587 J7.032
X250.301 Y86.567 I2.001 J4.762
G3 X241.007 Y84.919 I-3.877 J-5.169
X243.274 Y75.757 I5.417 J-3.521
G2 X244.249 Y74.029 I-0.928 J-1.662
G3 X245.555 Y72.537 I1.448 J-0.05
X255.327 Y81.398 I0.869 J8.861
G2 X255.349 Y84.62 I235.429 J0
G3 X255.371 Y87.841 I-235.352 J3.222
X255.09 Y88.041 I-0.212 J0
G2 X253.369 Y87.866 I-1.23 J3.542
X251.767 Y88.52 I0.448 J3.387
G3 X241.081 Y74.276 I-5.343 J-7.122
X245.555 Y72.537 I5.343 J7.122
G0 Z4
X260.31 Y20.902
Z2
G1 Z1.8 F700
G3 X259.159 Y22.85 Z0.848 I-1.321 J0.534 F333.3
X257.754 Y20.723 Z-0.3 I-0.17 J-1.415
X259.289 Y20.082 I1.187 J0.685 F700
X260.305 Y21.399 I-0.345 J1.317
G1 X260.312 Y21.627
X260.32 Y21.855
G3 X259.981 Y22.41 I-0.625 J0
G1 X259.797 Y22.501
X259.705 Y22.546
X259.616 Y22.595
G3 X257.967 Y22.373 I-0.681 J-1.179
X257.754 Y20.723 I0.976 J-0.964
G2 X257.808 Y18.984 I-1.592 J-0.919
G3 X258.677 Y17.478 I0.934 J-0.465
X262.852 Y21.399 I0.247 J3.92
G2 X262.875 Y22.587 I31.421 J0
G3 X262.897 Y23.776 I-31.399 J1.189
X262.572 Y24.185 I-0.419 J0
G2 X261.708 Y24.429 I2.038 J8.849
X260.888 Y24.8 I1.451 J4.301
G3 X256.96 Y17.996 I-1.964 J-3.402
X258.677 Y17.478 I1.964 J3.402
G2 X260.246 Y16.416 I-0.117 J-1.864
G3 X262.052 Y15.843 I1.17 J0.556
X265.299 Y21.399 I-3.128 J5.555
G2 X265.322 Y23.929 I145.215 J0
G3 X265.344 Y26.46 I-145.192 J2.531
X265.062 Y26.662 I-0.214 J0
G2 X263.56 Y26.474 I-1.221 J3.647
X262.112 Y26.919 I0.248 J3.38
G3 X255.736 Y15.877 I-3.188 J-5.521
X262.052 Y15.843 I3.188 J5.521
G0 Z4
X258.428 Y130.011
Z2
G1 Z1.8 F700
G3 X259.495 Y132.654 Z0.171 I0.533 J1.321 F333.3
X258.249 Y132.566 Z-0.3 I-0.533 J-1.321
X257.556 Y131.378 I0.693 J-1.201 F700
X258.238 Y130.183 I1.367 J-0.012
X258.914 Y130.001 I0.674 J1.164
X259.47 Y130.13 I-0.002 J1.279
X259.981 Y130.385 I-10.249 J21.121
X260.32 Y130.941 I-0.286 J0.555
G1 X260.312 Y131.169
X260.305 Y131.397
G3 X259.615 Y132.575 I-1.35 J0
X258.249 Y132.566 I-0.675 J-1.205
G2 X256.508 Y132.513 I-0.92 J1.594
G3 X254.997 Y131.647 I-0.467 J-0.937
X256.948 Y127.974 I3.936 J-0.264
G2 X257.212 Y127.8 I-1.369 J-2.372
G3 X257.467 Y127.613 I17.469 J23.512
X258.296 Y127.391 I0.704 J0.969
X259.624 Y127.557 I-3.509 J33.479
X260.888 Y127.996 I-0.509 J3.509
G2 X261.707 Y128.366 I2.271 J-3.932
X262.572 Y128.611 I2.902 J-8.6
G3 X262.897 Y129.019 I-0.094 J0.408
X262.875 Y130.208 I-31.425 J0
G2 X262.852 Y131.397 I31.368 J1.188
G3 X256.96 Y134.799 I-3.928 J0
X254.997 Y131.647 I1.972 J-3.416
G2 X253.934 Y130.087 I-1.859 J0.125
G3 X253.359 Y128.289 I0.552 J-1.168
X255.737 Y125.876 I5.566 J3.108
G2 X256.387 Y125.367 I-1.468 J-2.542
X256.904 Y124.724 I-3.369 J-3.235
G3 X257.338 Y124.607 I0.284 J0.189
G2 X258.107 Y124.906 I2.067 J-4.185
X258.924 Y125.022 I0.817 J-2.821
G3 X261.948 Y125.826 I-0.001 J6.089
G2 X265.062 Y126.133 I1.9 J-3.319
G3 X265.344 Y126.336 I0.068 J0.203
X265.322 Y128.866 I-145.215 J0
G2 X265.299 Y131.397 I145.192 J2.531
G3 X255.737 Y136.918 I-6.375 J0
X253.359 Y128.289 I3.188 J-5.521
G2 X253.285 Y126.548 I-1.452 J-0.811
G3 X253.537 Y124.823 I1.072 J-0.724
X254.675 Y124.036 I5.387 J6.574
G2 X255.425 Y122.737 I-0.75 J-1.299
G1 Y91.397
G2 X253.025 Y90.197 I-1.5 J0
G3 X239.823 Y72.599 I-6.601 J-8.799
X257.424 Y81.398 I6.601 J8.799
G1 Y121.397
G2 X258.924 Y122.897 I1.5 J0
G3 X263.175 Y124.037 I-0.001 J8.5
G2 X265.425 Y122.738 I0.75 J-1.299
G1 Y30.058
G2 X263.175 Y28.759 I-1.5 J0
G3 X254.673 Y14.037 I-4.251 J-7.361
X267.424 Y21.399 I4.251 J7.361
G1 Y131.397
G3 X254.674 Y138.758 I-8.5 J0
X253.537 Y124.823 I4.25 J-7.361
X255.533 Y125.011 Z-0.35 I0.903 J1.102 F333.3
G1 X260.055 Y130.418 Z-0.51
G3 X258.249 Y132.566 Z-0.6 I-1.093 J0.914
X257.556 Y131.378 I0.693 J-1.201 F700
X258.238 Y130.183 I1.367 J-0.012
X258.914 Y130.001 I0.674 J1.164
X259.47 Y130.13 I-0.002 J1.279
X259.981 Y130.385 I-10.249 J21.121
X260.32 Y130.941 I-0.286 J0.555
G1 X260.312 Y131.169
X260.305 Y131.397
G3 X259.615 Y132.575 I-1.35 J0
X258.249 Y132.566 I-0.675 J-1.205
G2 X256.508 Y132.513 I-0.92 J1.594
G3 X254.997 Y131.647 I-0.467 J-0.937
X256.948 Y127.974 I3.936 J-0.264
G2 X257.212 Y127.8 I-1.369 J-2.372
G3 X257.467 Y127.613 I17.469 J23.512
X258.296 Y127.391 I0.704 J0.969
X259.624 Y127.557 I-3.509 J33.479
X260.888 Y127.996 I-0.509 J3.509
G2 X261.707 Y128.366 I2.271 J-3.932
X262.572 Y128.611 I2.902 J-8.6
G3 X262.897 Y129.019 I-0.094 J0.408
X262.875 Y130.208 I-31.425 J0
G2 X262.852 Y131.397 I31.368 J1.188
G3 X256.96 Y134.799 I-3.928 J0
X254.997 Y131.647 I1.972 J-3.416
G2 X253.934 Y130.087 I-1.859 J0.125
G3 X253.359 Y128.289 I0.552 J-1.168
X255.737 Y125.876 I5.566 J3.108
G2 X256.387 Y125.367 I-1.468 J-2.542
X256.904 Y124.724 I-3.369 J-3.235
G3 X257.338 Y124.607 I0.284 J0.189
G2 X258.107 Y124.906 I2.067 J-4.185
X258.924 Y125.022 I0.817 J-2.821
G3 X261.948 Y125.826 I-0.001 J6.089
G2 X265.062 Y126.133 I1.9 J-3.319
G3 X265.344 Y126.336 I0.068 J0.203
X265.322 Y128.866 I-145.215 J0
G2 X265.299 Y131.397 I145.192 J2.531
G3 X255.737 Y136.918 I-6.375 J0
X253.359 Y128.289 I3.188 J-5.521
G0 Z4
X245.51 Y79.686
Z2
G1 Z1.5 F700
G3 X244.478 Y81.7 Z0.548 I-1.287 J0.612 F333.3
X242.949 Y79.661 Z-0.6 I-0.255 J-1.402
X250.309 Y81.398 I3.475 J1.737 F700
G2 X250.332 Y82.308 I18.404 J0
G3 X250.354 Y83.218 I-18.381 J0.91
X250.016 Y83.771 I-0.622 J0
G2 X249.37 Y84.112 I14.17 J27.645
X248.755 Y84.506 I2.38 J4.387
G3 X242.949 Y79.661 I-2.331 J-3.108
G2 X242.818 Y77.684 I-1.753 J-0.876
G3 X243.274 Y75.757 I1.112 J-0.754
X252.885 Y81.398 I3.15 J5.642
G2 X252.908 Y83.271 I77.998 J0
G3 X252.93 Y85.144 I-77.965 J1.873
X252.606 Y85.55 I-0.416 J0
G2 X251.4 Y85.937 I1.587 J7.032
X250.301 Y86.567 I2.001 J4.762
G3 X241.007 Y84.919 I-3.877 J-5.169
X243.274 Y75.757 I5.417 J-3.521
G2 X244.249 Y74.029 I-0.928 J-1.662
G3 X245.555 Y72.537 I1.448 J-0.05
X255.327 Y81.398 I0.869 J8.861
G2 X255.349 Y84.62 I235.429 J0
G3 X255.371 Y87.841 I-235.352 J3.222
X255.09 Y88.041 I-0.212 J0
G2 X253.369 Y87.866 I-1.23 J3.542
X251.767 Y88.52 I0.448 J3.387
G3 X241.081 Y74.276 I-5.343 J-7.122
X245.555 Y72.537 I5.343 J7.122
G0 Z4
X260.31 Y20.902
Z2
G1 Z1.5 F700
G3 X259.159 Y22.85 Z0.548 I-1.321 J0.534 F333.3
X257.754 Y20.723 Z-0.6 I-0.17 J-1.415
X259.289 Y20.082 I1.187 J0.685 F700
X260.305 Y21.399 I-0.345 J1.317
G1 X260.312 Y21.627
X260.32 Y21.855
G3 X259.981 Y22.41 I-0.625 J0
G1 X259.797 Y22.501
X259.705 Y22.546
X259.616 Y22.595
G3 X257.967 Y22.373 I-0.681 J-1.179
X257.754 Y20.723 I0.976 J-0.964
G2 X257.808 Y18.984 I-1.592 J-0.919
G3 X258.677 Y17.478 I0.934 J-0.465
X262.852 Y21.399 I0.247 J3.92
G2 X262.875 Y22.587 I31.421 J0
G3 X262.897 Y23.776 I-31.399 J1.189
X262.572 Y24.185 I-0.419 J0
G2 X261.708 Y24.429 I2.038 J8.849
X260.888 Y24.8 I1.451 J4.301
G3 X256.96 Y17.996 I-1.964 J-3.402
X258.677 Y17.478 I1.964 J3.402
G2 X260.246 Y16.416 I-0.117 J-1.864
G3 X262.052 Y15.843 I1.17 J0.556
X265.299 Y21.399 I-3.128 J5.555
G2 X265.322 Y23.929 I145.215 J0
G3 X265.344 Y26.46 I-145.192 J2.531
X265.062 Y26.662 I-0.214 J0
G2 X263.56 Y26.474 I-1.221 J3.647
X262.112 Y26.919 I0.248 J3.38
G3 X255.736 Y15.877 I-3.188 J-5.521
X262.052 Y15.843 I3.188 J5.521
G2 X263.794 Y15.775 I0.816 J-1.449
G3 X265.517 Y16.033 I0.72 J1.075
X267.424 Y21.399 I-6.593 J5.365
G1 Y131.397
G3 X254.674 Y138.758 I-8.5 J0
X254.675 Y124.036 I4.25 J-7.361
G2 X255.425 Y122.737 I-0.75 J-1.299
G1 Y91.397
G2 X253.025 Y90.197 I-1.5 J0
G3 X239.823 Y72.599 I-6.601 J-8.799
X257.424 Y81.398 I6.601 J8.799
G1 Y121.397
G2 X258.924 Y122.897 I1.5 J0
G3 X263.175 Y124.037 I-0.001 J8.5
G2 X265.425 Y122.738 I0.75 J-1.299
G1 Y30.058
G2 X263.175 Y28.759 I-1.5 J0
G3 X254.673 Y14.037 I-4.251 J-7.361
X265.517 Y16.033 I4.251 J7.361
X265.322 Y18.029 Z-0.65 I-1.105 J0.899 F333.3
G1 X259.899 Y22.532 Z-0.81
G3 X257.754 Y20.723 Z-0.9 I-0.91 J-1.096
X259.289 Y20.082 I1.187 J0.685 F700
X260.305 Y21.399 I-0.345 J1.317
G1 X260.312 Y21.627
X260.32 Y21.855
G3 X259.981 Y22.41 I-0.625 J0
G1 X259.797 Y22.501
X259.705 Y22.546
X259.616 Y22.595
G3 X257.967 Y22.373 I-0.681 J-1.179
X257.754 Y20.723 I0.976 J-0.964
G2 X257.808 Y18.984 I-1.592 J-0.919
G3 X258.677 Y17.478 I0.934 J-0.465
X262.852 Y21.399 I0.247 J3.92
G2 X262.875 Y22.587 I31.421 J0
G3 X262.897 Y23.776 I-31.399 J1.189
X262.572 Y24.185 I-0.419 J0
G2 X261.708 Y24.429 I2.038 J8.849
X260.888 Y24.8 I1.451 J4.301
G3 X256.96 Y17.996 I-1.964 J-3.402
X258.677 Y17.478 I1.964 J3.402
G2 X260.246 Y16.416 I-0.117 J-1.864
G3 X262.052 Y15.843 I1.17 J0.556
X265.299 Y21.399 I-3.128 J5.555
G2 X265.322 Y23.929 I145.215 J0
G3 X265.344 Y26.46 I-145.192 J2.531
X265.062 Y26.662 I-0.214 J0
G2 X263.56 Y26.474 I-1.221 J3.647
X262.112 Y26.919 I0.248 J3.38
G3 X255.736 Y15.877 I-3.188 J-5.521
X262.052 Y15.843 I3.188 J5.521
G0 Z4
X245.51 Y79.686
Z2
G1 Z1.2 F700
G3 X244.478 Y81.7 Z0.248 I-1.287 J0.612 F333.3
X242.949 Y79.661 Z-0.9 I-0.255 J-1.402
X250.309 Y81.398 I3.475 J1.737 F700
G2 X250.332 Y82.308 I18.404 J0
G3 X250.354 Y83.218 I-18.381 J0.91
X250.016 Y83.771 I-0.622 J0
G2 X249.37 Y84.112 I14.17 J27.645
X248.755 Y84.506 I2.38 J4.387
G3 X242.949 Y79.661 I-2.331 J-3.108
G2 X242.818 Y77.684 I-1.753 J-0.876
G3 X243.274 Y75.757 I1.112 J-0.754
X252.885 Y81.398 I3.15 J5.642
G2 X252.908 Y83.271 I77.998 J0
G3 X252.93 Y85.144 I-77.965 J1.873
X252.606 Y85.55 I-0.416 J0
G2 X251.4 Y85.937 I1.587 J7.032
X250.301 Y86.567 I2.001 J4.762
G3 X241.007 Y84.919 I-3.877 J-5.169
X243.274 Y75.757 I5.417 J-3.521
G2 X244.249 Y74.029 I-0.928 J-1.662
G3 X245.555 Y72.537 I1.448 J-0.05
X255.327 Y81.398 I0.869 J8.861
G2 X255.349 Y84.62 I235.429 J0
G3 X255.371 Y87.841 I-235.352 J3.222
X255.09 Y88.041 I-0.212 J0
G2 X253.369 Y87.866 I-1.23 J3.542
X251.767 Y88.52 I0.448 J3.387
G3 X241.081 Y74.276 I-5.343 J-7.122
X245.555 Y72.537 I5.343 J7.122
G0 Z4
X258.428 Y130.011
Z2
G1 Z1.2 F700
G3 X259.495 Y132.654 Z-0.429 I0.533 J1.321 F333.3
X258.249 Y132.566 Z-0.9 I-0.533 J-1.321
X257.556 Y131.378 I0.693 J-1.201 F700
X258.238 Y130.183 I1.367 J-0.012
X258.914 Y130.001 I0.674 J1.164
X259.47 Y130.13 I-0.002 J1.279
X259.981 Y130.385 I-10.249 J21.121
X260.32 Y130.941 I-0.286 J0.555
G1 X260.312 Y131.169
X260.305 Y131.397
G3 X259.615 Y132.575 I-1.35 J0
X258.249 Y132.566 I-0.675 J-1.205
G2 X256.508 Y132.513 I-0.92 J1.594
G3 X254.997 Y131.647 I-0.467 J-0.937
X256.948 Y127.974 I3.936 J-0.264
G2 X257.212 Y127.8 I-1.369 J-2.372
G3 X257.467 Y127.613 I17.469 J23.512
X258.296 Y127.391 I0.704 J0.969
X259.624 Y127.557 I-3.509 J33.479
X260.888 Y127.996 I-0.509 J3.509
G2 X261.707 Y128.366 I2.271 J-3.932
X262.572 Y128.611 I2.902 J-8.6
G3 X262.897 Y129.019 I-0.094 J0.408
X262.875 Y130.208 I-31.425 J0
G2 X262.852 Y131.397 I31.368 J1.188
G3 X256.96 Y134.799 I-3.928 J0
X254.997 Y131.647 I1.972 J-3.416
G2 X253.934 Y130.087 I-1.859 J0.125
G3 X253.359 Y128.289 I0.552 J-1.168
X255.737 Y125.876 I5.566 J3.108
G2 X256.387 Y125.367 I-1.468 J-2.542
X256.904 Y124.724 I-3.369 J-3.235
G3 X257.338 Y124.607 I0.284 J0.189
G2 X258.107 Y124.906 I2.067 J-4.185
X258.924 Y125.022 I0.817 J-2.821
G3 X261.948 Y125.826 I-0.001 J6.089
G2 X265.062 Y126.133 I1.9 J-3.319
G3 X265.344 Y126.336 I0.068 J0.203
X265.322 Y128.866 I-145.215 J0
G2 X265.299 Y131.397 I145.192 J2.531
G3 X255.737 Y136.918 I-6.375 J0
X253.359 Y128.289 I3.188 J-5.521
G2 X253.285 Y126.548 I-1.452 J-0.811
G3 X253.537 Y124.823 I1.072 J-0.724
X254.675 Y124.036 I5.387 J6.574
G2 X255.425 Y122.737 I-0.75 J-1.299
G1 Y91.397
G2 X253.025 Y90.197 I-1.5 J0
G3 X239.823 Y72.599 I-6.601 J-8.799
X257.424 Y81.398 I6.601 J8.799
G1 Y121.397
G2 X258.924 Y122.897 I1.5 J0
G3 X263.175 Y124.037 I-0.001 J8.5
G2 X265.425 Y122.738 I0.75 J-1.299
G1 Y30.058
G2 X263.175 Y28.759 I-1.5 J0
G3 X254.673 Y14.037 I-4.251 J-7.361
X267.424 Y21.399 I4.251 J7.361
G1 Y131.397
G3 X254.674 Y138.758 I-8.5 J0
X253.537 Y124.823 I4.25 J-7.361
X255.533 Y125.011 Z-0.95 I0.903 J1.102 F333.3
G1 X260.055 Y130.418 Z-1.11
G3 X258.249 Y132.566 Z-1.2 I-1.093 J0.914
X257.556 Y131.378 I0.693 J-1.201 F700
X258.238 Y130.183 I1.367 J-0.012
X258.914 Y130.001 I0.674 J1.164
X259.47 Y130.13 I-0.002 J1.279
X259.981 Y130.385 I-10.249 J21.121
X260.32 Y130.941 I-0.286 J0.555
G1 X260.312 Y131.169
X260.305 Y131.397
G3 X259.615 Y132.575 I-1.35 J0
X258.249 Y132.566 I-0.675 J-1.205
G2 X256.508 Y132.513 I-0.92 J1.594
G3 X254.997 Y131.647 I-0.467 J-0.937
X256.948 Y127.974 I3.936 J-0.264
G2 X257.212 Y127.8 I-1.369 J-2.372
G3 X257.467 Y127.613 I17.469 J23.512
X258.296 Y127.391 I0.704 J0.969
X259.624 Y127.557 I-3.509 J33.479
X260.888 Y127.996 I-0.509 J3.509
G2 X261.707 Y128.366 I2.271 J-3.932
X262.572 Y128.611 I2.902 J-8.6
G3 X262.897 Y129.019 I-0.094 J0.408
X262.875 Y130.208 I-31.425 J0
G2 X262.852 Y131.397 I31.368 J1.188
G3 X256.96 Y134.799 I-3.928 J0
X254.997 Y131.647 I1.972 J-3.416
G2 X253.934 Y130.087 I-1.859 J0.125
G3 X253.359 Y128.289 I0.552 J-1.168
X255.737 Y125.876 I5.566 J3.108
G2 X256.387 Y125.367 I-1.468 J-2.542
X256.904 Y124.724 I-3.369 J-3.235
G3 X257.338 Y124.607 I0.284 J0.189
G2 X258.107 Y124.906 I2.067 J-4.185
X258.924 Y125.022 I0.817 J-2.821
G3 X261.948 Y125.826 I-0.001 J6.089
G2 X265.062 Y126.133 I1.9 J-3.319
G3 X265.344 Y126.336 I0.068 J0.203
X265.322 Y128.866 I-145.215 J0
G2 X265.299 Y131.397 I145.192 J2.531
G3 X255.737 Y136.918 I-6.375 J0
X253.359 Y128.289 I3.188 J-5.521
G0 Z4
X245.51 Y79.686
Z2
G1 Z0.9 F700
G3 X244.478 Y81.7 Z-0.052 I-1.287 J0.612 F333.3
X242.949 Y79.661 Z-1.2 I-0.255 J-1.402
X250.309 Y81.398 I3.475 J1.737 F700
G2 X250.332 Y82.308 I18.404 J0
G3 X250.354 Y83.218 I-18.381 J0.91
X250.016 Y83.771 I-0.622 J0
G2 X249.37 Y84.112 I14.17 J27.645
X248.755 Y84.506 I2.38 J4.387
G3 X242.949 Y79.661 I-2.331 J-3.108
G2 X242.818 Y77.684 I-1.753 J-0.876
G3 X243.274 Y75.757 I1.112 J-0.754
X252.885 Y81.398 I3.15 J5.642
G2 X252.908 Y83.271 I77.998 J0
G3 X252.93 Y85.144 I-77.965 J1.873
X252.606 Y85.55 I-0.416 J0
G2 X251.4 Y85.937 I1.587 J7.032
X250.301 Y86.567 I2.001 J4.762
G3 X241.007 Y84.919 I-3.877 J-5.169
X243.274 Y75.757 I5.417 J-3.521
G2 X244.249 Y74.029 I-0.928 J-1.662
G3 X245.555 Y72.537 I1.448 J-0.05
X255.327 Y81.398 I0.869 J8.861
G2 X255.349 Y84.62 I235.429 J0
G3 X255.371 Y87.841 I-235.352 J3.222
X255.09 Y88.041 I-0.212 J0
G2 X253.369 Y87.866 I-1.23 J3.542
X251.767 Y88.52 I0.448 J3.387
G3 X241.081 Y74.276 I-5.343 J-7.122
X245.555 Y72.537 I5.343 J7.122
G0 Z4
X260.31 Y20.902
Z2
G1 Z0.9 F700
G3 X259.159 Y22.85 Z-0.052 I-1.321 J0.534 F333.3
X257.754 Y20.723 Z-1.2 I-0.17 J-1.415
X259.289 Y20.082 I1.187 J0.685 F700
X260.305 Y21.399 I-0.345 J1.317
G1 X260.312 Y21.627
X260.32 Y21.855
G3 X259.981 Y22.41 I-0.625 J0
G1 X259.797 Y22.501
X259.705 Y22.546
X259.616 Y22.595
G3 X257.967 Y22.373 I-0.681 J-1.179
X257.754 Y20.723 I0.976 J-0.964
G2 X257.808 Y18.984 I-1.592 J-0.919
G3 X258.677 Y17.478 I0.934 J-0.465
X262.852 Y21.399 I0.247 J3.92
G2 X262.875 Y22.587 I31.421 J0
G3 X262.897 Y23.776 I-31.399 J1.189
X262.572 Y24.185 I-0.419 J0
G2 X261.708 Y24.429 I2.038 J8.849
X260.888 Y24.8 I1.451 J4.301
G3 X256.96 Y17.996 I-1.964 J-3.402
X258.677 Y17.478 I1.964 J3.402
G2 X260.246 Y16.416 I-0.117 J-1.864
G3 X262.052 Y15.843 I1.17 J0.556
X265.299 Y21.399 I-3.128 J5.555
G2 X265.322 Y23.929 I145.215 J0
G3 X265.344 Y26.46 I-145.192 J2.531
X265.062 Y26.662 I-0.214 J0
G2 X263.56 Y26.474 I-1.221 J3.647
X262.112 Y26.919 I0.248 J3.38
G3 X255.736 Y15.877 I-3.188 J-5.521
X262.052 Y15.843 I3.188 J5.521
G2 X263.794 Y15.775 I0.816 J-1.449
G3 X265.517 Y16.033 I0.72 J1.075
X267.424 Y21.399 I-6.593 J5.365
G1 Y131.397
G3 X254.674 Y138.758 I-8.5 J0
X254.675 Y124.036 I4.25 J-7.361
G2 X255.425 Y122.737 I-0.75 J-1.299
G1 Y91.397
G2 X253.025 Y90.197 I-1.5 J0
G3 X239.823 Y72.599 I-6.601 J-8.799
X257.424 Y81.398 I6.601 J8.799
G1 Y121.397
G2 X258.924 Y122.897 I1.5 J0
G3 X263.175 Y124.037 I-0.001 J8.5
G2 X265.425 Y122.738 I0.75 J-1.299
G1 Y30.058
G2 X263.175 Y28.759 I-1.5 J0
G3 X254.673 Y14.037 I-4.251 J-7.361
X265.517 Y16.033 I4.251 J7.361
X265.322 Y18.029 Z-1.25 I-1.105 J0.899 F333.3
G1 X259.899 Y22.532 Z-1.41
G3 X257.754 Y20.723 Z-1.5 I-0.91 J-1.096
X259.289 Y20.082 I1.187 J0.685 F700
X260.305 Y21.399 I-0.345 J1.317
G1 X260.312 Y21.627
X260.32 Y21.855
G3 X259.981 Y22.41 I-0.625 J0
G1 X259.797 Y22.501
X259.705 Y22.546
X259.616 Y22.595
G3 X257.967 Y22.373 I-0.681 J-1.179
X257.754 Y20.723 I0.976 J-0.964
G2 X257.808 Y18.984 I-1.592 J-0.919
G3 X258.677 Y17.478 I0.934 J-0.465
X262.852 Y21.399 I0.247 J3.92
G2 X262.875 Y22.587 I31.421 J0
G3 X262.897 Y23.776 I-31.399 J1.189
X262.572 Y24.185 I-0.419 J0
G2 X261.708 Y24.429 I2.038 J8.849
X260.888 Y24.8 I1.451 J4.301
G3 X256.96 Y17.996 I-1.964 J-3.402
X258.677 Y17.478 I1.964 J3.402
G2 X260.246 Y16.416 I-0.117 J-1.864
G3 X262.052 Y15.843 I1.17 J0.556
X265.299 Y21.399 I-3.128 J5.555
G2 X265.322 Y23.929 I145.215 J0
G3 X265.344 Y26.46 I-145.192 J2.531
X265.062 Y26.662 I-0.214 J0
G2 X263.56 Y26.474 I-1.221 J3.647
X262.112 Y26.919 I0.248 J3.38
G3 X255.736 Y15.877 I-3.188 J-5.521
X262.052 Y15.843 I3.188 J5.521
G0 Z4
X245.51 Y79.686
Z2
G1 Z0.6 F700
G3 X244.478 Y81.7 Z-0.352 I-1.287 J0.612 F333.3
X242.949 Y79.661 Z-1.5 I-0.255 J-1.402
X250.309 Y81.398 I3.475 J1.737 F700
G2 X250.332 Y82.308 I18.404 J0
G3 X250.354 Y83.218 I-18.381 J0.91
X250.016 Y83.771 I-0.622 J0
G2 X249.37 Y84.112 I14.17 J27.645
X248.755 Y84.506 I2.38 J4.387
G3 X242.949 Y79.661 I-2.331 J-3.108
G2 X242.818 Y77.684 I-1.753 J-0.876
G3 X243.274 Y75.757 I1.112 J-0.754
X252.885 Y81.398 I3.15 J5.642
G2 X252.908 Y83.271 I77.998 J0
G3 X252.93 Y85.144 I-77.965 J1.873
X252.606 Y85.55 I-0.416 J0
G2 X251.4 Y85.937 I1.587 J7.032
X250.301 Y86.567 I2.001 J4.762
G3 X241.007 Y84.919 I-3.877 J-5.169
X243.274 Y75.757 I5.417 J-3.521
G2 X244.249 Y74.029 I-0.928 J-1.662
G3 X245.555 Y72.537 I1.448 J-0.05
X255.327 Y81.398 I0.869 J8.861
G2 X255.349 Y84.62 I235.429 J0
G3 X255.371 Y87.841 I-235.352 J3.222
X255.09 Y88.041 I-0.212 J0
G2 X253.369 Y87.866 I-1.23 J3.542
X251.767 Y88.52 I0.448 J3.387
G3 X241.081 Y74.276 I-5.343 J-7.122
X245.555 Y72.537 I5.343 J7.122
G0 Z4
X258.428 Y130.011
Z2
G1 Z0.6 F700
G3 X259.495 Y132.654 Z-1.029 I0.533 J1.321 F333.3
X258.249 Y132.566 Z-1.5 I-0.533 J-1.321
X257.556 Y131.378 I0.693 J-1.201 F700
X258.238 Y130.183 I1.367 J-0.012
X258.914 Y130.001 I0.674 J1.164
X259.47 Y130.13 I-0.002 J1.279
X259.981 Y130.385 I-10.249 J21.121
X260.32 Y130.941 I-0.286 J0.555
G1 X260.312 Y131.169
X260.305 Y131.397
G3 X259.615 Y132.575 I-1.35 J0
X258.249 Y132.566 I-0.675 J-1.205
G2 X256.508 Y132.513 I-0.92 J1.594
G3 X254.997 Y131.647 I-0.467 J-0.937
X256.948 Y127.974 I3.936 J-0.264
G2 X257.212 Y127.8 I-1.369 J-2.372
G3 X257.467 Y127.613 I17.469 J23.512
X258.296 Y127.391 I0.704 J0.969
X259.624 Y127.557 I-3.509 J33.479
X260.888 Y127.996 I-0.509 J3.509
G2 X261.707 Y128.366 I2.271 J-3.932
X262.572 Y128.611 I2.902 J-8.6
G3 X262.897 Y129.019 I-0.094 J0.408
X262.875 Y130.208 I-31.425 J0
G2 X262.852 Y131.397 I31.368 J1.188
G3 X256.96 Y134.799 I-3.928 J0
X254.997 Y131.647 I1.972 J-3.416
G2 X253.934 Y130.087 I-1.859 J0.125
G3 X253.359 Y128.289 I0.552 J-1.168
X255.737 Y125.876 I5.566 J3.108
G2 X256.387 Y125.367 I-1.468 J-2.542
X256.904 Y124.724 I-3.369 J-3.235
G3 X257.338 Y124.607 I0.284 J0.189
G2 X258.107 Y124.906 I2.067 J-4.185
X258.924 Y125.022 I0.817 J-2.821
G3 X261.948 Y125.826 I-0.001 J6.089
G2 X265.062 Y126.133 I1.9 J-3.319
G3 X265.344 Y126.336 I0.068 J0.203
X265.322 Y128.866 I-145.215 J0
G2 X265.299 Y131.397 I145.192 J2.531
G3 X255.737 Y136.918 I-6.375 J0
X253.359 Y128.289 I3.188 J-5.521
G2 X253.285 Y126.548 I-1.452 J-0.811
G3 X253.537 Y124.823 I1.072 J-0.724
X254.675 Y124.036 I5.387 J6.574
G2 X255.425 Y122.737 I-0.75 J-1.299
G1 Y91.397
G2 X253.025 Y90.197 I-1.5 J0
G3 X239.823 Y72.599 I-6.601 J-8.799
X257.424 Y81.398 I6.601 J8.799
G1 Y121.397
G2 X258.924 Y122.897 I1.5 J0
G3 X263.175 Y124.037 I-0.001 J8.5
G2 X265.425 Y122.738 I0.75 J-1.299
G1 Y30.058
G2 X263.175 Y28.759 I-1.5 J0
G3 X254.673 Y14.037 I-4.251 J-7.361
X267.424 Y21.399 I4.251 J7.361
G1 Y131.397
G3 X254.674 Y138.758 I-8.5 J0
X253.537 Y124.823 I4.25 J-7.361
X255.533 Y125.011 Z-1.55 I0.903 J1.102 F333.3
G1 X260.055 Y130.418 Z-1.71
G3 X258.249 Y132.566 Z-1.8 I-1.093 J0.914
X257.556 Y131.378 I0.693 J-1.201 F700
X258.238 Y130.183 I1.367 J-0.012
X258.914 Y130.001 I0.674 J1.164
X259.47 Y130.13 I-0.002 J1.279
X259.981 Y130.385 I-10.249 J21.121
X260.32 Y130.941 I-0.286 J0.555
G1 X260.312 Y131.169
X260.305 Y131.397
G3 X259.615 Y132.575 I-1.35 J0
X258.249 Y132.566 I-0.675 J-1.205
G2 X256.508 Y132.513 I-0.92 J1.594
G3 X254.997 Y131.647 I-0.467 J-0.937
X256.948 Y127.974 I3.936 J-0.264
G2 X257.212 Y127.8 I-1.369 J-2.372
G3 X257.467 Y127.613 I17.469 J23.512
X258.296 Y127.391 I0.704 J0.969
X259.624 Y127.557 I-3.509 J33.479
X260.888 Y127.996 I-0.509 J3.509
G2 X261.707 Y128.366 I2.271 J-3.932
X262.572 Y128.611 I2.902 J-8.6
G3 X262.897 Y129.019 I-0.094 J0.408
X262.875 Y130.208 I-31.425 J0
G2 X262.852 Y131.397 I31.368 J1.188
G3 X256.96 Y134.799 I-3.928 J0
X254.997 Y131.647 I1.972 J-3.416
G2 X253.934 Y130.087 I-1.859 J0.125
G3 X253.359 Y128.289 I0.552 J-1.168
X255.737 Y125.876 I5.566 J3.108
G2 X256.387 Y125.367 I-1.468 J-2.542
X256.904 Y124.724 I-3.369 J-3.235
G3 X257.338 Y124.607 I0.284 J0.189
G2 X258.107 Y124.906 I2.067 J-4.185
X258.924 Y125.022 I0.817 J-2.821
G3 X261.948 Y125.826 I-0.001 J6.089
G2 X265.062 Y126.133 I1.9 J-3.319
G3 X265.344 Y126.336 I0.068 J0.203
X265.322 Y128.866 I-145.215 J0
G2 X265.299 Y131.397 I145.192 J2.531
G3 X255.737 Y136.918 I-6.375 J0
X253.359 Y128.289 I3.188 J-5.521
G0 Z4
X245.51 Y79.686
Z2
G1 Z0.3 F700
G3 X244.478 Y81.7 Z-0.652 I-1.287 J0.612 F333.3
X242.949 Y79.661 Z-1.8 I-0.255 J-1.402
X250.309 Y81.398 I3.475 J1.737 F700
G2 X250.332 Y82.308 I18.404 J0
G3 X250.354 Y83.218 I-18.381 J0.91
X250.016 Y83.771 I-0.622 J0
G2 X249.37 Y84.112 I14.17 J27.645
X248.755 Y84.506 I2.38 J4.387
G3 X242.949 Y79.661 I-2.331 J-3.108
G2 X242.818 Y77.684 I-1.753 J-0.876
G3 X243.274 Y75.757 I1.112 J-0.754
X252.885 Y81.398 I3.15 J5.642
G2 X252.908 Y83.271 I77.998 J0
G3 X252.93 Y85.144 I-77.965 J1.873
X252.606 Y85.55 I-0.416 J0
G2 X251.4 Y85.937 I1.587 J7.032
X250.301 Y86.567 I2.001 J4.762
G3 X241.007 Y84.919 I-3.877 J-5.169
X243.274 Y75.757 I5.417 J-3.521
G2 X244.249 Y74.029 I-0.928 J-1.662
G3 X245.555 Y72.537 I1.448 J-0.05
X255.327 Y81.398 I0.869 J8.861
G2 X255.349 Y84.62 I235.429 J0
G3 X255.371 Y87.841 I-235.352 J3.222
X255.09 Y88.041 I-0.212 J0
G2 X253.369 Y87.866 I-1.23 J3.542
X251.767 Y88.52 I0.448 J3.387
G3 X241.081 Y74.276 I-5.343 J-7.122
X245.555 Y72.537 I5.343 J7.122
G0 Z4
X260.31 Y20.902
Z2
G1 Z0.3 F700
G3 X259.159 Y22.85 Z-0.652 I-1.321 J0.534 F333.3
X257.754 Y20.723 Z-1.8 I-0.17 J-1.415
X259.289 Y20.082 I1.187 J0.685 F700
X260.305 Y21.399 I-0.345 J1.317
G1 X260.312 Y21.627
X260.32 Y21.855
G3 X259.981 Y22.41 I-0.625 J0
G1 X259.797 Y22.501
X259.705 Y22.546
X259.616 Y22.595
G3 X257.967 Y22.373 I-0.681 J-1.179
X257.754 Y20.723 I0.976 J-0.964
G2 X257.808 Y18.984 I-1.592 J-0.919
G3 X258.677 Y17.478 I0.934 J-0.465
X262.852 Y21.399 I0.247 J3.92
G2 X262.875 Y22.587 I31.421 J0
G3 X262.897 Y23.776 I-31.399 J1.189
X262.572 Y24.185 I-0.419 J0
G2 X261.708 Y24.429 I2.038 J8.849
X260.888 Y24.8 I1.451 J4.301
G3 X256.96 Y17.996 I-1.964 J-3.402
X258.677 Y17.478 I1.964 J3.402
G2 X260.246 Y16.416 I-0.117 J-1.864
G3 X262.052 Y15.843 I1.17 J0.556
X265.299 Y21.399 I-3.128 J5.555
G2 X265.322 Y23.929 I145.215 J0
G3 X265.344 Y26.46 I-145.192 J2.531
X265.062 Y26.662 I-0.214 J0
G2 X263.56 Y26.474 I-1.221 J3.647
X262.112 Y26.919 I0.248 J3.38
G3 X255.736 Y15.877 I-3.188 J-5.521
X262.052 Y15.843 I3.188 J5.521
G2 X263.794 Y15.775 I0.816 J-1.449
G3 X265.517 Y16.033 I0.72 J1.075
X267.424 Y21.399 I-6.593 J5.365
G1 Y131.397
G3 X254.674 Y138.758 I-8.5 J0
X254.675 Y124.036 I4.25 J-7.361
G2 X255.425 Y122.737 I-0.75 J-1.299
G1 Y91.397
G2 X253.025 Y90.197 I-1.5 J0
G3 X239.823 Y72.599 I-6.601 J-8.799
X257.424 Y81.398 I6.601 J8.799
G1 Y121.397
G2 X258.924 Y122.897 I1.5 J0
G3 X263.175 Y124.037 I-0.001 J8.5
G2 X265.425 Y122.738 I0.75 J-1.299
G1 Y30.058
G2 X263.175 Y28.759 I-1.5 J0
G3 X254.673 Y14.037 I-4.251 J-7.361
X265.517 Y16.033 I4.251 J7.361
X265.322 Y18.029 Z-1.85 I-1.105 J0.899 F333.3
G1 X259.899 Y22.532 Z-2.01
G3 X257.754 Y20.723 Z-2.1 I-0.91 J-1.096
X259.289 Y20.082 I1.187 J0.685 F700
X260.305 Y21.399 I-0.345 J1.317
G1 X260.312 Y21.627
X260.32 Y21.855
G3 X259.981 Y22.41 I-0.625 J0
G1 X259.797 Y22.501
X259.705 Y22.546
X259.616 Y22.595
G3 X257.967 Y22.373 I-0.681 J-1.179
X257.754 Y20.723 I0.976 J-0.964
G2 X257.808 Y18.984 I-1.592 J-0.919
G3 X258.677 Y17.478 I0.934 J-0.465
X262.852 Y21.399 I0.247 J3.92
G2 X262.875 Y22.587 I31.421 J0
G3 X262.897 Y23.776 I-31.399 J1.189
X262.572 Y24.185 I-0.419 J0
G2 X261.708 Y24.429 I2.038 J8.849
X260.888 Y24.8 I1.451 J4.301
G3 X256.96 Y17.996 I-1.964 J-3.402
X258.677 Y17.478 I1.964 J3.402
G2 X260.246 Y16.416 I-0.117 J-1.864
G3 X262.052 Y15.843 I1.17 J0.556
X265.299 Y21.399 I-3.128 J5.555
G2 X265.322 Y23.929 I145.215 J0
G3 X265.344 Y26.46 I-145.192 J2.531
X265.062 Y26.662 I-0.214 J0
G2 X263.56 Y26.474 I-1.221 J3.647
X262.112 Y26.919 I0.248 J3.38
G3 X255.736 Y15.877 I-3.188 J-5.521
X262.052 Y15.843 I3.188 J5.521
G0 Z4
X245.51 Y79.686
Z2
G1 Z0 F700
G3 X244.478 Y81.7 Z-0.952 I-1.287 J0.612 F333.3
X242.949 Y79.661 Z-2.1 I-0.255 J-1.402
X250.309 Y81.398 I3.475 J1.737 F700
G2 X250.332 Y82.308 I18.404 J0
G3 X250.354 Y83.218 I-18.381 J0.91
X250.016 Y83.771 I-0.622 J0
G2 X249.37 Y84.112 I14.17 J27.645
X248.755 Y84.506 I2.38 J4.387
G3 X242.949 Y79.661 I-2.331 J-3.108
G2 X242.818 Y77.684 I-1.753 J-0.876
G3 X243.274 Y75.757 I1.112 J-0.754
X252.885 Y81.398 I3.15 J5.642
G2 X252.908 Y83.271 I77.998 J0
G3 X252.93 Y85.144 I-77.965 J1.873
X252.606 Y85.55 I-0.416 J0
G2 X251.4 Y85.937 I1.587 J7.032
X250.301 Y86.567 I2.001 J4.762
G3 X241.007 Y84.919 I-3.877 J-5.169
X243.274 Y75.757 I5.417 J-3.521
G2 X244.249 Y74.029 I-0.928 J-1.662
G3 X245.555 Y72.537 I1.448 J-0.05
X255.327 Y81.398 I0.869 J8.861
G2 X255.349 Y84.62 I235.429 J0
G3 X255.371 Y87.841 I-235.352 J3.222
X255.09 Y88.041 I-0.212 J0
G2 X253.369 Y87.866 I-1.23 J3.542
X251.767 Y88.52 I0.448 J3.387
G3 X241.081 Y74.276 I-5.343 J-7.122
X245.555 Y72.537 I5.343 J7.122
G0 Z4
X258.428 Y130.011
Z2
G1 Z0 F700
G3 X259.495 Y132.654 Z-1.629 I0.533 J1.321 F333.3
X258.249 Y132.566 Z-2.1 I-0.533 J-1.321
X257.556 Y131.378 I0.693 J-1.201 F700
X258.238 Y130.183 I1.367 J-0.012
X258.914 Y130.001 I0.674 J1.164
X259.47 Y130.13 I-0.002 J1.279
X259.981 Y130.385 I-10.249 J21.121
X260.32 Y130.941 I-0.286 J0.555
G1 X260.312 Y131.169
X260.305 Y131.397
G3 X259.615 Y132.575 I-1.35 J0
X258.249 Y132.566 I-0.675 J-1.205
G2 X256.508 Y132.513 I-0.92 J1.594
G3 X254.997 Y131.647 I-0.467 J-0.937
X256.948 Y127.974 I3.936 J-0.264
G2 X257.212 Y127.8 I-1.369 J-2.372
G3 X257.467 Y127.613 I17.469 J23.512
X258.296 Y127.391 I0.704 J0.969
X259.624 Y127.557 I-3.509 J33.479
X260.888 Y127.996 I-0.509 J3.509
G2 X261.707 Y128.366 I2.271 J-3.932
X262.572 Y128.611 I2.902 J-8.6
G3 X262.897 Y129.019 I-0.094 J0.408
X262.875 Y130.208 I-31.425 J0
G2 X262.852 Y131.397 I31.368 J1.188
G3 X256.96 Y134.799 I-3.928 J0
X254.997 Y131.647 I1.972 J-3.416
G2 X253.934 Y130.087 I-1.859 J0.125
G3 X253.359 Y128.289 I0.552 J-1.168
X255.737 Y125.876 I5.566 J3.108
G2 X256.387 Y125.367 I-1.468 J-2.542
X256.904 Y124.724 I-3.369 J-3.235
G3 X257.338 Y124.607 I0.284 J0.189
G2 X258.107 Y124.906 I2.067 J-4.185
X258.924 Y125.022 I0.817 J-2.821
G3 X261.948 Y125.826 I-0.001 J6.089
G2 X265.062 Y126.133 I1.9 J-3.319
G3 X265.344 Y126.336 I0.068 J0.203
X265.322 Y128.866 I-145.215 J0
G2 X265.299 Y131.397 I145.192 J2.531
G3 X255.737 Y136.918 I-6.375 J0
X253.359 Y128.289 I3.188 J-5.521
G2 X253.285 Y126.548 I-1.452 J-0.811
G3 X253.537 Y124.823 I1.072 J-0.724
X254.675 Y124.036 I5.387 J6.574
G2 X255.425 Y122.737 I-0.75 J-1.299
G1 Y91.397
G2 X253.025 Y90.197 I-1.5 J0
G3 X239.823 Y72.599 I-6.601 J-8.799
X257.424 Y81.398 I6.601 J8.799
G1 Y121.397
G2 X258.924 Y122.897 I1.5 J0
G3 X263.175 Y124.037 I-0.001 J8.5
G2 X265.425 Y122.738 I0.75 J-1.299
G1 Y30.058
G2 X263.175 Y28.759 I-1.5 J0
G3 X254.673 Y14.037 I-4.251 J-7.361
X267.424 Y21.399 I4.251 J7.361
G1 Y131.397
G3 X254.674 Y138.758 I-8.5 J0
X253.537 Y124.823 I4.25 J-7.361
X255.533 Y125.011 Z-2.15 I0.903 J1.102 F333.3
G1 X260.055 Y130.418 Z-2.31
G3 X258.249 Y132.566 Z-2.4 I-1.093 J0.914
X257.556 Y131.378 I0.693 J-1.201 F700
X258.238 Y130.183 I1.367 J-0.012
X258.914 Y130.001 I0.674 J1.164
X259.47 Y130.13 I-0.002 J1.279
X259.981 Y130.385 I-10.249 J21.121
X260.32 Y130.941 I-0.286 J0.555
G1 X260.312 Y131.169
X260.305 Y131.397
G3 X259.615 Y132.575 I-1.35 J0
X258.249 Y132.566 I-0.675 J-1.205
G2 X256.508 Y132.513 I-0.92 J1.594
G3 X254.997 Y131.647 I-0.467 J-0.937
X256.948 Y127.974 I3.936 J-0.264
G2 X257.212 Y127.8 I-1.369 J-2.372
G3 X257.467 Y127.613 I17.469 J23.512
X258.296 Y127.391 I0.704 J0.969
X259.624 Y127.557 I-3.509 J33.479
X260.888 Y127.996 I-0.509 J3.509
G2 X261.707 Y128.366 I2.271 J-3.932
X262.572 Y128.611 I2.902 J-8.6
G3 X262.897 Y129.019 I-0.094 J0.408
X262.875 Y130.208 I-31.425 J0
G2 X262.852 Y131.397 I31.368 J1.188
G3 X256.96 Y134.799 I-3.928 J0
X254.997 Y131.647 I1.972 J-3.416
G2 X253.934 Y130.087 I-1.859 J0.125
G3 X253.359 Y128.289 I0.552 J-1.168
X255.737 Y125.876 I5.566 J3.108
G2 X256.387 Y125.367 I-1.468 J-2.542
X256.904 Y124.724 I-3.369 J-3.235
G3 X257.338 Y124.607 I0.284 J0.189
G2 X258.107 Y124.906 I2.067 J-4.185
X258.924 Y125.022 I0.817 J-2.821
G3 X261.948 Y125.826 I-0.001 J6.089
G2 X265.062 Y126.133 I1.9 J-3.319
G3 X265.344 Y126.336 I0.068 J0.203
X265.322 Y128.866 I-145.215 J0
G2 X265.299 Y131.397 I145.192 J2.531
G3 X255.737 Y136.918 I-6.375 J0
X253.359 Y128.289 I3.188 J-5.521
G0 Z4
X245.51 Y79.686
Z2
G1 Z-0.3 F700
G3 X244.478 Y81.7 Z-1.252 I-1.287 J0.612 F333.3
X242.949 Y79.661 Z-2.4 I-0.255 J-1.402
X250.309 Y81.398 I3.475 J1.737 F700
G2 X250.332 Y82.308 I18.404 J0
G3 X250.354 Y83.218 I-18.381 J0.91
X250.016 Y83.771 I-0.622 J0
G2 X249.37 Y84.112 I14.17 J27.645
X248.755 Y84.506 I2.38 J4.387
G3 X242.949 Y79.661 I-2.331 J-3.108
G2 X242.818 Y77.684 I-1.753 J-0.876
G3 X243.274 Y75.757 I1.112 J-0.754
X252.885 Y81.398 I3.15 J5.642
G2 X252.908 Y83.271 I77.998 J0
G3 X252.93 Y85.144 I-77.965 J1.873
X252.606 Y85.55 I-0.416 J0
G2 X251.4 Y85.937 I1.587 J7.032
X250.301 Y86.567 I2.001 J4.762
G3 X241.007 Y84.919 I-3.877 J-5.169
X243.274 Y75.757 I5.417 J-3.521
G2 X244.249 Y74.029 I-0.928 J-1.662
G3 X245.555 Y72.537 I1.448 J-0.05
X255.327 Y81.398 I0.869 J8.861
G2 X255.349 Y84.62 I235.429 J0
G3 X255.371 Y87.841 I-235.352 J3.222
X255.09 Y88.041 I-0.212 J0
G2 X253.369 Y87.866 I-1.23 J3.542
X251.767 Y88.52 I0.448 J3.387
G3 X241.081 Y74.276 I-5.343 J-7.122
X245.555 Y72.537 I5.343 J7.122
G0 Z4
X260.31 Y20.902
Z2
G1 Z-0.3 F700
G3 X259.159 Y22.85 Z-1.252 I-1.321 J0.534 F333.3
X257.754 Y20.723 Z-2.4 I-0.17 J-1.415
X259.289 Y20.082 I1.187 J0.685 F700
X260.305 Y21.399 I-0.345 J1.317
G1 X260.312 Y21.627
X260.32 Y21.855
G3 X259.981 Y22.41 I-0.625 J0
G1 X259.797 Y22.501
X259.705 Y22.546
X259.616 Y22.595
G3 X257.967 Y22.373 I-0.681 J-1.179
X257.754 Y20.723 I0.976 J-0.964
G2 X257.808 Y18.984 I-1.592 J-0.919
G3 X258.677 Y17.478 I0.934 J-0.465
X262.852 Y21.399 I0.247 J3.92
G2 X262.875 Y22.587 I31.421 J0
G3 X262.897 Y23.776 I-31.399 J1.189
X262.572 Y24.185 I-0.419 J0
G2 X261.708 Y24.429 I2.038 J8.849
X260.888 Y24.8 I1.451 J4.301
G3 X256.96 Y17.996 I-1.964 J-3.402
X258.677 Y17.478 I1.964 J3.402
G2 X260.246 Y16.416 I-0.117 J-1.864
G3 X262.052 Y15.843 I1.17 J0.556
X265.299 Y21.399 I-3.128 J5.555
G2 X265.322 Y23.929 I145.215 J0
G3 X265.344 Y26.46 I-145.192 J2.531
X265.062 Y26.662 I-0.214 J0
G2 X263.56 Y26.474 I-1.221 J3.647
X262.112 Y26.919 I0.248 J3.38
G3 X255.736 Y15.877 I-3.188 J-5.521
X262.052 Y15.843 I3.188 J5.521
G2 X263.794 Y15.775 I0.816 J-1.449
G3 X265.517 Y16.033 I0.72 J1.075
X267.424 Y21.399 I-6.593 J5.365
G1 Y131.397
G3 X254.674 Y138.758 I-8.5 J0
X254.675 Y124.036 I4.25 J-7.361
G2 X255.425 Y122.737 I-0.75 J-1.299
G1 Y91.397
G2 X253.025 Y90.197 I-1.5 J0
G3 X239.823 Y72.599 I-6.601 J-8.799
X257.424 Y81.398 I6.601 J8.799
G1 Y121.397
G2 X258.924 Y122.897 I1.5 J0
G3 X263.175 Y124.037 I-0.001 J8.5
G2 X265.425 Y122.738 I0.75 J-1.299
G1 Y30.058
G2 X263.175 Y28.759 I-1.5 J0
G3 X254.673 Y14.037 I-4.251 J-7.361
X265.517 Y16.033 I4.251 J7.361
X265.322 Y18.029 Z-2.45 I-1.105 J0.899 F333.3
G1 X259.899 Y22.532 Z-2.61
G3 X257.754 Y20.723 Z-2.7 I-0.91 J-1.096
X259.289 Y20.082 I1.187 J0.685 F700
X260.305 Y21.399 I-0.345 J1.317
G1 X260.312 Y21.627
X260.32 Y21.855
G3 X259.981 Y22.41 I-0.625 J0
G1 X259.797 Y22.501
X259.705 Y22.546
X259.616 Y22.595
G3 X257.967 Y22.373 I-0.681 J-1.179
X257.754 Y20.723 I0.976 J-0.964
G2 X257.808 Y18.984 I-1.592 J-0.919
G3 X258.677 Y17.478 I0.934 J-0.465
X262.852 Y21.399 I0.247 J3.92
G2 X262.875 Y22.587 I31.421 J0
G3 X262.897 Y23.776 I-31.399 J1.189
X262.572 Y24.185 I-0.419 J0
G2 X261.708 Y24.429 I2.038 J8.849
X260.888 Y24.8 I1.451 J4.301
G3 X256.96 Y17.996 I-1.964 J-3.402
X258.677 Y17.478 I1.964 J3.402
G2 X260.246 Y16.416 I-0.117 J-1.864
G3 X262.052 Y15.843 I1.17 J0.556
X265.299 Y21.399 I-3.128 J5.555
G2 X265.322 Y23.929 I145.215 J0
G3 X265.344 Y26.46 I-145.192 J2.531
X265.062 Y26.662 I-0.214 J0
G2 X263.56 Y26.474 I-1.221 J3.647
X262.112 Y26.919 I0.248 J3.38
G3 X255.736 Y15.877 I-3.188 J-5.521
X262.052 Y15.843 I3.188 J5.521
G0 Z4
