(1001)
(T4  D=3 CR=0 - ZMIN=-18 - flat end mill)
G90 G94
G17
G21

(Pocket2)
T4
S15000 M3
G54
M8
G0 X21.012 Y63.986
Z7
Z3
G1 Z2.05 F333.3
X26.143 Z1.608
G3 X26.143 Y64.286 I0 J0.15
G1 X20.811 Z1.149
G3 X20.811 Y63.986 I0 J-0.15
G1 X26.143 Z0.689
G3 X26.143 Y64.286 I0 J0.15
G1 X20.811 Z0.23
G3 X20.811 Y63.986 I0 J-0.15
G1 X23.477 Z0
X23.517 Y63.978
X23.55 Y63.956
X23.573 Y63.922
X23.581 Y63.883
X23.582 Y63.674
X23.576 Y63.637
X23.557 Y63.605
X23.527 Y63.582
X23.491 Y63.57
X23.454 Y63.573
X23.419 Y63.588
X23.393 Y63.614
X23.377 Y63.648
X23.375 Y63.686
X23.386 Y63.722
X23.409 Y63.751
X23.441 Y63.771
X23.478 Y63.778
X141.048 Y64.085 F700
G2 X143.021 Y62.105 I0 J-1.973
G1 Y-62.312
G2 X141.048 Y-64.284 I-1.972 J0
G1 X-81.729
G2 X-83.702 Y-62.312 I0 J1.973
G1 X-83.576 Y7.257
X-83.579 Y7.3
X-83.586 Y7.342
X-83.632 Y7.535
X-83.648 Y7.587
X-83.671 Y7.635
X-83.701 Y7.679
X-83.725 Y7.71
X-83.763 Y7.751
X-83.807 Y7.787
X-83.855 Y7.815
X-83.893 Y7.833
X-83.945 Y7.853
X-83.999 Y7.866
X-84.055 Y7.87
X-84.093
X-84.148 Y7.865
X-84.203 Y7.853
X-84.254 Y7.832
X-84.287 Y7.816
X-84.336 Y7.788
X-84.379 Y7.753
X-84.417 Y7.712
X-84.442 Y7.68
X-84.472 Y7.635
X-84.495 Y7.587
X-84.511 Y7.536
X-84.557 Y7.342
X-84.564 Y7.3
X-84.567 Y7.257
X-84.568 Y-64.251
G3 X-83.669 Y-65.15 I0.899 J0
G1 X142.99
G3 X143.889 Y-64.251 I0 J0.899
G1 X143.885 Y64.054
G3 X142.986 Y64.953 I-0.899 J0
G1 X23.401 Y64.513
G2 X21.44 Y64.759 I3.393 J35.055
G3 X19.484 Y65.043 I-18.099 J-117.675
G2 X17.78 Y67.005 I0.267 J1.954
X17.843 Y69.789 I60.459 J0.013
G3 X17.907 Y72.573 I-60.414 J2.772
X17.536 Y72.944 I-0.371 J0
G1 X17.284
G3 X16.913 Y72.573 I0 J-0.371
G1 X16.915 Y65.105
G3 X17.492 Y64.441 I0.671 J0
X20.408 Y64.078 I13.47 J96.386
X23.33 Y63.777 I26.155 J239.741
G1 X23.478 Y63.778
G2 X24.374 Y63.185 I0.003 J-0.97
G3 X25.271 Y62.591 I0.893 J0.375
G1 X109.687 Y62.905
X141.048
G2 X141.621 Y62.639 I0 J-0.75
G1 X141.664 Y62.588
G2 X141.841 Y62.104 I-0.573 J-0.484
G1 Y-62.312
G2 X141.613 Y-62.85 I-0.75 J0
G1 X141.571 Y-62.892
G2 X141.048 Y-63.104 I-0.522 J0.538
G1 X-81.729
G2 X-82.251 Y-62.892 I0 J0.75
G1 X-82.294 Y-62.85
G2 X-82.521 Y-62.312 I0.522 J0.538
G1 X-82.524 Y7.415
X-82.528 Y7.437
X-82.68 Y8.082
X-83.047 Y8.551
X-83.105 Y8.618
X-83.118 Y8.627
X-83.711 Y8.913
X-83.732 Y8.919
X-83.791 Y8.923
X-84.403 Y8.921
X-84.414 Y8.919
X-84.539 Y8.864
X-85.026 Y8.627
X-85.038 Y8.618
X-85.083 Y8.566
X-85.463 Y8.083
X-85.615 Y7.437
X-85.619 Y7.415
X-85.62 Y-66.185
X-85.618 Y-66.2
X-85.603 Y-66.202
X144.922
X144.937 Y-66.2
X144.941 Y-66.159
X144.937 Y66.001
X144.896 Y66.005
X107.522 Y66.001
X23.59 Y65.685
X23.486 Y65.692
X19.645 Y66.213
G2 X19.139 Y66.515 I0.101 J0.743
G1 X19.103 Y66.564
G2 X18.96 Y67.005 I0.607 J0.441
G1 X18.959 Y73.982
X18.956 Y73.996
X15.863
X15.861 Y73.987
X15.863 Y63.609
X17.624 Y63.36
X23.023 Y62.621
X23.405 Y62.584
X25.271 Y62.591
X25.317 Y62.595 Z0.007
X25.362 Y62.606 Z0.015
X25.401 Y62.621 Z0.036
X25.437 Y62.642 Z0.057
X25.488 Y62.685 Z0.124
X25.515 Y62.718 Z0.207
X25.523 Y62.73 Z0.3
G0 Z5
X23.423 Y64.085
Z2
G1 Z-1 F333.3
X109.687 Y64.405 F700
X141.896 Y64.403
X141.965 Y64.4
X142.034 Y64.39
X142.196 Y64.36
X142.28 Y64.34
X142.36 Y64.31
X142.523 Y64.238
X142.589 Y64.205
X142.652 Y64.166
X142.748 Y64.099
X142.801 Y64.057
X142.851 Y64.012
X142.958 Y63.903
X143.006 Y63.851
X143.048 Y63.794
X143.121 Y63.685
X143.16 Y63.62
X143.192 Y63.55
X143.259 Y63.388
X143.286 Y63.307
X143.305 Y63.224
X143.331 Y63.062
X143.338 Y63.002
X143.34 Y62.942
X143.339 Y-63.163
X143.335 Y-63.234
X143.325 Y-63.304
X143.294 Y-63.467
X143.273 Y-63.55
X143.243 Y-63.631
X143.17 Y-63.793
X143.132 Y-63.867
X143.087 Y-63.936
X142.995 Y-64.058
X142.948 Y-64.116
X142.896 Y-64.168
X142.789 Y-64.264
X142.734 Y-64.308
X142.676 Y-64.348
X142.555 Y-64.421
X142.486 Y-64.458
X142.414 Y-64.487
X142.251 Y-64.544
X142.184 Y-64.564
X142.114 Y-64.577
X142.006 Y-64.593
X141.951 Y-64.599
X141.896 Y-64.601
X-82.577
X-82.646 Y-64.598
X-82.714 Y-64.589
X-82.877 Y-64.558
X-82.96 Y-64.538
X-83.041 Y-64.508
X-83.204 Y-64.436
X-83.28 Y-64.398
X-83.351 Y-64.35
X-83.483 Y-64.252
X-83.546 Y-64.199
X-83.602 Y-64.141
X-83.708 Y-64.018
X-83.758 Y-63.952
X-83.801 Y-63.882
X-83.881 Y-63.732
X-83.916 Y-63.656
X-83.943 Y-63.576
X-83.987 Y-63.413
X-84.003 Y-63.336
X-84.012 Y-63.257
X-84.02 Y-63.094
X-84.022 Y-63.055
Y7.23
X-84.063 Y7.418
X-84.071 Y7.422
X-84.079 Y7.418
X-84.122 Y7.229
Y-64.703
X143.441
Y64.505
X107.522 Y64.501
X23.481 Y64.187
X23.378 Y64.193
X19.366 Y64.737
X19.358 Y64.738
X18.653 Y64.841
X18.564 Y64.86
X18.478 Y64.889
X18.312 Y64.956
X18.238 Y64.992
X18.168 Y65.035
X18.046 Y65.119
X17.989 Y65.163
X17.937 Y65.212
X17.84 Y65.311
X17.79 Y65.368
X17.745 Y65.431
X17.655 Y65.572
X17.613 Y65.646
X17.58 Y65.725
X17.522 Y65.887
X17.499 Y65.968
X17.484 Y66.051
X17.465 Y66.214
X17.46 Y66.301
X17.462 Y74
X17.36
Y73.993
Y64.911
X23.42 Y64.085
X23.423
X23.49 Y64.086 Z-0.992
X23.553 Z-0.97
X23.61 Z-0.935
X23.658 Z-0.887
X23.693 Z-0.83
X23.716 Y64.087 Z-0.767
X23.723 Z-0.7
G0 Z5
X23.412
Z1
G1 Z-2 F333.3
X23.415 F700
X109.687 Y64.405
X141.896 Y64.403
X141.965 Y64.4
X142.034 Y64.39
X142.196 Y64.36
X142.28 Y64.34
X142.36 Y64.31
X142.523 Y64.238
X142.589 Y64.205
X142.652 Y64.166
X142.748 Y64.099
X142.801 Y64.057
X142.851 Y64.012
X142.958 Y63.903
X143.006 Y63.851
X143.048 Y63.794
X143.121 Y63.685
X143.16 Y63.62
X143.192 Y63.55
X143.259 Y63.388
X143.286 Y63.307
X143.305 Y63.224
X143.331 Y63.062
X143.338 Y63.002
X143.34 Y62.942
X143.339 Y-63.163
X143.335 Y-63.234
X143.325 Y-63.304
X143.294 Y-63.467
X143.273 Y-63.55
X143.243 Y-63.631
X143.17 Y-63.793
X143.132 Y-63.867
X143.087 Y-63.936
X142.995 Y-64.058
X142.948 Y-64.116
X142.896 Y-64.168
X142.789 Y-64.264
X142.734 Y-64.308
X142.676 Y-64.348
X142.555 Y-64.421
X142.486 Y-64.458
X142.414 Y-64.487
X142.251 Y-64.544
X142.184 Y-64.564
X142.114 Y-64.577
X142.006 Y-64.593
X141.951 Y-64.599
X141.896 Y-64.601
X-82.577
X-82.646 Y-64.598
X-82.714 Y-64.589
X-82.877 Y-64.558
X-82.96 Y-64.538
X-83.041 Y-64.508
X-83.204 Y-64.436
X-83.28 Y-64.398
X-83.351 Y-64.35
X-83.483 Y-64.252
X-83.546 Y-64.199
X-83.602 Y-64.141
X-83.708 Y-64.018
X-83.758 Y-63.952
X-83.801 Y-63.882
X-83.881 Y-63.732
X-83.916 Y-63.656
X-83.943 Y-63.576
X-83.987 Y-63.413
X-84.003 Y-63.336
X-84.012 Y-63.257
X-84.02 Y-63.094
X-84.022 Y-63.055
Y7.23
X-84.063 Y7.418
X-84.071 Y7.422
X-84.079 Y7.418
X-84.122 Y7.229
Y-64.703
X143.441
Y64.505
X107.522 Y64.501
X23.481 Y64.187
X23.378 Y64.193
X19.366 Y64.737
X19.358 Y64.738
X18.653 Y64.841
X18.564 Y64.86
X18.478 Y64.889
X18.312 Y64.956
X18.238 Y64.992
X18.168 Y65.035
X18.046 Y65.119
X17.989 Y65.163
X17.937 Y65.212
X17.84 Y65.311
X17.79 Y65.368
X17.745 Y65.431
X17.655 Y65.572
X17.613 Y65.646
X17.58 Y65.725
X17.522 Y65.887
X17.499 Y65.968
X17.484 Y66.051
X17.465 Y66.214
X17.46 Y66.301
X17.462 Y74
X17.36
Y73.993
Y64.91
X23.033 Y64.134
X23.412 Y64.087
X23.415
X23.481 Z-1.992
X23.544 Z-1.969
X23.6 Z-1.933
X23.647 Z-1.886
X23.683 Y64.088 Z-1.829
X23.704 Z-1.766
X23.712 Z-1.7
G0 Z5
X23.411
Z3
G1 Z0 F333.3
Z-3
X23.414 F700
X109.687 Y64.405
X141.896 Y64.403
X141.965 Y64.4
X142.034 Y64.39
X142.196 Y64.36
X142.28 Y64.34
X142.36 Y64.31
X142.523 Y64.238
X142.589 Y64.205
X142.652 Y64.166
X142.748 Y64.099
X142.801 Y64.057
X142.851 Y64.012
X142.958 Y63.903
X143.006 Y63.851
X143.048 Y63.794
X143.121 Y63.685
X143.16 Y63.62
X143.192 Y63.55
X143.259 Y63.388
X143.286 Y63.307
X143.305 Y63.224
X143.331 Y63.062
X143.338 Y63.002
X143.34 Y62.942
X143.339 Y-63.163
X143.335 Y-63.234
X143.325 Y-63.304
X143.294 Y-63.467
X143.273 Y-63.55
X143.243 Y-63.631
X143.17 Y-63.793
X143.132 Y-63.867
X143.087 Y-63.936
X142.995 Y-64.058
X142.948 Y-64.116
X142.896 Y-64.168
X142.789 Y-64.264
X142.734 Y-64.308
X142.676 Y-64.348
X142.555 Y-64.421
X142.486 Y-64.458
X142.414 Y-64.487
X142.251 Y-64.544
X142.184 Y-64.564
X142.114 Y-64.577
X142.006 Y-64.593
X141.951 Y-64.599
X141.896 Y-64.601
X-82.577
X-82.646 Y-64.598
X-82.714 Y-64.589
X-82.877 Y-64.558
X-82.96 Y-64.538
X-83.041 Y-64.508
X-83.204 Y-64.436
X-83.28 Y-64.398
X-83.351 Y-64.35
X-83.483 Y-64.252
X-83.546 Y-64.199
X-83.602 Y-64.141
X-83.708 Y-64.018
X-83.758 Y-63.952
X-83.801 Y-63.882
X-83.881 Y-63.732
X-83.916 Y-63.656
X-83.943 Y-63.576
X-83.987 Y-63.413
X-84.003 Y-63.336
X-84.012 Y-63.257
X-84.02 Y-63.094
X-84.022 Y-63.055
Y7.23
X-84.063 Y7.418
X-84.071 Y7.422
X-84.079 Y7.418
X-84.122 Y7.229
Y-64.703
X143.441
Y64.505
X107.522 Y64.501
X23.481 Y64.187
X23.378 Y64.193
X19.366 Y64.737
X19.358 Y64.738
X18.653 Y64.841
X18.564 Y64.86
X18.478 Y64.889
X18.312 Y64.956
X18.238 Y64.992
X18.168 Y65.035
X18.046 Y65.119
X17.989 Y65.163
X17.937 Y65.212
X17.84 Y65.311
X17.79 Y65.368
X17.745 Y65.431
X17.655 Y65.572
X17.613 Y65.646
X17.58 Y65.725
X17.522 Y65.887
X17.499 Y65.968
X17.484 Y66.051
X17.465 Y66.214
X17.46 Y66.301
X17.462 Y74
X17.36
Y73.993
Y64.91
X23.032 Y64.134
X23.411 Y64.088
X23.414
X23.48 Z-2.992
X23.543 Z-2.969
X23.599 Z-2.933
X23.646 Y64.089 Z-2.886
X23.682 Z-2.829
X23.704 Z-2.766
X23.711 Z-2.7
G0 Z5
X23.424 Y64.122
G1 Z-1 F333.3
Z-4
X23.431 Y64.13 F700
X23.429 Y64.144
X23.416 Y64.154
X23.412 Y64.156
X23.402 Y64.154
X23.396 Y64.15
X23.391 Y64.144
X23.388 Y64.132
X23.395 Y64.118
X23.402 Y64.112
X23.408 Y64.11
X23.416 Y64.112
X23.424 Y64.122
X23.431 Y64.13 Z-3.999
X23.429 Y64.144 Z-3.996
X23.416 Y64.154 Z-3.986
X23.412 Y64.156 Z-3.982
X23.402 Y64.154 Z-3.971
X23.396 Y64.15 Z-3.958
X23.393 Y64.146 Z-3.932
G0 Z5
X23.43 Y64.135
G1 Z-2 F333.3
Z-5
X23.429 Y64.144 F700
X23.416 Y64.154
X23.412 Y64.156
X23.402 Y64.154
X23.396 Y64.151
X23.391 Y64.143
X23.388 Y64.132
X23.395 Y64.118
X23.402 Y64.112
X23.417 Y64.113
X23.423 Y64.116
X23.43 Y64.126
Y64.135
X23.429 Y64.144 Z-4.999
X23.416 Y64.154 Z-4.995
X23.412 Y64.156 Z-4.993
X23.402 Y64.154 Z-4.987
X23.396 Y64.151 Z-4.981
X23.391 Y64.143 Z-4.971
X23.389 Y64.135 Z-4.955
X23.388 Y64.132 Z-4.938
Z-4.932
G0 Z5
X23.424 Y64.146
G1 Z-3 F333.3
Z-6
X23.416 Y64.154 F700
X23.412 Y64.156
X23.404 Y64.154
X23.397 Y64.15
X23.39 Y64.142
X23.388 Y64.132
X23.395 Y64.118
X23.402 Y64.112
X23.409 Y64.11
X23.415 Y64.111
X23.423 Y64.116
X23.429 Y64.124
X23.432 Y64.137
X23.424 Y64.146
X23.416 Y64.154 Z-5.999
X23.412 Y64.156 Z-5.998
X23.404 Y64.154 Z-5.996
X23.397 Y64.15 Z-5.991
X23.39 Y64.142 Z-5.985
X23.388 Y64.132 Z-5.974
X23.393 Y64.122 Z-5.954
X23.394 Y64.119 Z-5.932
G0 Z5
X23.42 Y64.12
G1 Z-4 F333.3
Z-7
X23.429 Y64.129 F700
X23.432 Y64.14
X23.419 Y64.152
X23.411 Y64.155
X23.395 Y64.146
X23.391 Y64.141
X23.389 Y64.132
Y64.124
X23.401 Y64.113
X23.411 Y64.11
X23.42 Y64.12
X23.429 Y64.129 Z-6.999
X23.432 Y64.14 Z-6.996
X23.419 Y64.152 Z-6.985
X23.411 Y64.155 Z-6.977
X23.401 Y64.149 Z-6.957
X23.397 Y64.147 Z-6.934
G0 Z5
X23.427 Y64.128
G1 Z-5 F333.3
Z-8
X23.43 Y64.138 F700
X23.423 Y64.15
X23.412 Y64.153
X23.402 Y64.151
X23.392 Y64.14
X23.393 Y64.12
X23.399 Y64.116
X23.41 Y64.112
X23.416 Y64.113
X23.423 Y64.117
X23.427 Y64.128
X23.43 Y64.138 Z-7.999
X23.423 Y64.15 Z-7.995
X23.412 Y64.153 Z-7.989
X23.402 Y64.151 Z-7.98
X23.396 Y64.144 Z-7.966
X23.392 Y64.14 Z-7.951
Y64.138 Z-7.937
G0 Z5
X23.425 Y64.125
G1 Z-6 F333.3
Z-9
X23.429 Y64.138 F700
X23.428 Y64.143
X23.416 Y64.154
X23.406 Y64.155
X23.393 Y64.14
X23.391 Y64.132
Y64.124
X23.396 Y64.116
X23.409 Y64.11
X23.423 Y64.118
X23.425 Y64.125
X23.429 Y64.138 Z-8.999
X23.428 Y64.143 Z-8.997
X23.416 Y64.154 Z-8.99
X23.406 Y64.155 Z-8.982
X23.397 Y64.144 Z-8.961
X23.393 Y64.14 Z-8.936
G0 Z5
X23.424 Y64.127
G1 Z-7 F333.3
Z-10
X23.427 Y64.136 F700
X23.425 Y64.146
X23.418 Y64.152
X23.408
X23.402 Y64.149
X23.394 Y64.139
X23.391 Y64.127
X23.392 Y64.122
X23.41 Y64.114
X23.422 Y64.119
X23.424 Y64.127
X23.427 Y64.136 Z-9.999
X23.425 Y64.146 Z-9.997
X23.418 Y64.152 Z-9.992
X23.408 Z-9.985
X23.402 Y64.149 Z-9.978
X23.396 Y64.142 Z-9.963
X23.394 Y64.139 Z-9.947
Z-9.941
G0 Z5
X23.421 Y64.128
G1 Z-8 F333.3
Z-11
X23.424 Y64.139 F700
X23.413 Y64.15
X23.4 Y64.144
X23.395 Y64.138
X23.393 Y64.127
X23.399 Y64.12
X23.405 Y64.117
X23.418
X23.421 Y64.128
X23.424 Y64.139 Z-10.999
X23.413 Y64.15 Z-10.992
X23.4 Y64.144 Z-10.977
X23.395 Y64.138 Z-10.959
Y64.137 Z-10.95
G0 Z5
X23.413 Y64.145
G1 Z-9 F333.3
Z-12
X23.408 Y64.146 F700
X23.401 Y64.142
X23.399 Y64.13
X23.411 Y64.119
X23.42 Y64.124
X23.422 Y64.136
X23.421 Y64.143
X23.413 Y64.145
Z-11.7
G0 Z5
Y64.125
G1 Z-10 F333.3
Z-13
X23.419 Y64.127 F700
X23.418 Y64.138
X23.407 Y64.143
X23.401 Y64.136
X23.403 Y64.127
X23.409 Y64.124
X23.413 Y64.125
Z-12.7
G0 Z5
X23.419 Y64.134
G1 Z-11 F333.3
Z-14
X23.418 Y64.138 F700
X23.407 Y64.143
X23.401 Y64.136
X23.402 Y64.129
X23.413 Y64.124
X23.419 Y64.127
Y64.134
Z-13.7
Z-12
Z-15 F333.3
X23.418 Y64.138 F700
X23.407 Y64.143
X23.401 Y64.136
X23.402 Y64.129
X23.413 Y64.124
X23.419 Y64.127
Y64.134
Z-14.7
Z-13
Z-16 F333.3
X23.418 Y64.138 F700
X23.407 Y64.143
X23.401 Y64.136
X23.402 Y64.129
X23.413 Y64.124
X23.419 Y64.127
Y64.134
Z-15.7
Z-14
Z-17 F333.3
X23.418 Y64.138 F700
X23.407 Y64.143
X23.401 Y64.136
X23.402 Y64.129
X23.413 Y64.124
X23.419 Y64.127
Y64.134
Z-16.7
Z-15
Z-18 F333.3
X23.418 Y64.138 F700
X23.407 Y64.143
X23.401 Y64.136
X23.402 Y64.129
X23.413 Y64.124
X23.419 Y64.127
Y64.134
Z-17.7
G0 Z5
X17.36 Y73.949
G1 Z-1 F333.3
Z-4
Y70.174 F700
X17.401 Y69.986
X17.414 Y69.98
X17.46 Y70.174
X17.462 Y73.954
Y74
X17.36
Y73.993
Y73.949
G19 G2 Y73.649 Z-3.7 J0 K0.3
G0 Z5
X-84.071 Y7.404
G1 Z-1 F333.3
Z-4
X-84.063 Y7.405 F700
X-84.062 Y7.418
X-84.071 Y7.422
X-84.081 Y7.417
X-84.08 Y7.404
X-84.071
Z-3.7
G0 Z5
G1 Z-2 F333.3
Z-5
X-84.063 Y7.405 F700
X-84.062 Y7.417
X-84.072 Y7.422
X-84.081 Y7.417
X-84.08 Y7.404
X-84.071
Z-4.7
G0 Z5
G1 Z-3 F333.3
Z-6
X-84.063 Y7.405 F700
Y7.416
X-84.072 Y7.421
X-84.08 Y7.417
X-84.081 Y7.411
X-84.08 Y7.404
X-84.071
Z-5.7
G0 Z5
Y7.405
G1 Z-4 F333.3
Z-7
X-84.062 Y7.406 F700
X-84.067 Y7.42
X-84.076
X-84.082 Y7.413
X-84.08 Y7.404
X-84.071 Y7.405
Z-6.7
G0 Z5
X-84.067 Y7.411
G1 Z-5 F333.3
Z-8
X-84.066 Y7.416 F700
X-84.07 Y7.421
X-84.077 Y7.42
X-84.081 Y7.41
X-84.075 Y7.403
X-84.067
Y7.411
Z-7.7
G0 Z5
X-84.075 Y7.405
G1 Z-6 F333.3
Z-9
X-84.068 Y7.403 F700
X-84.064 Y7.408
X-84.067 Y7.417
X-84.073 Y7.421
X-84.079 Y7.418
X-84.082 Y7.408
X-84.075 Y7.405
Z-8.7
G0 Z5
X-84.079 Y7.415
G1 Z-7 F333.3
Z-10
X-84.081 Y7.412 F700
X-84.079 Y7.404
X-84.069 Y7.402
X-84.065 Y7.408
X-84.066 Y7.416
X-84.076 Y7.42
X-84.079 Y7.415
Z-9.7
G0 Z5
X-84.073 Y7.408
G1 Z-8 F333.3
Z-11
X-84.066 Y7.409 F700
X-84.077 Y7.418
X-84.08 Y7.407
X-84.073 Y7.408
Z-10.7
G0 Z5
X-84.071 Y7.41
G1 Z-9 F333.3
Z-12
X-84.07 Y7.411 F700
X-84.075 Y7.409
X-84.071 Y7.41
Z-11.7
G0 Z5
G1 Z-10 F333.3
Z-13
X-84.07 Y7.411 F700
X-84.068 Y7.413
X-84.072 Y7.414
X-84.074 Y7.412
X-84.072 Y7.41
X-84.071
Z-12.7
Z-11
Z-14 F333.3
X-84.07 Y7.411 F700
X-84.068 Y7.413
X-84.072 Y7.414
X-84.074 Y7.412
X-84.072 Y7.41
X-84.071
Z-13.7
G0 Z5
Y7.414
G1 Z-12 F333.3
Z-15
X-84.072 F700
X-84.074 Y7.412
X-84.072 Y7.41
X-84.07 Y7.411
X-84.068 Y7.413
X-84.071 Y7.414
Z-14.7
Z-13
Z-16 F333.3
X-84.072 F700
X-84.074 Y7.412
X-84.072 Y7.41
X-84.07 Y7.411
X-84.068 Y7.413
X-84.071 Y7.414
Z-15.7
Z-14
Z-17 F333.3
X-84.072 F700
X-84.074 Y7.412
X-84.072 Y7.41
X-84.07 Y7.411
X-84.068 Y7.413
X-84.071 Y7.414
Z-16.7
Z-15
Z-18 F333.3
X-84.072 F700
X-84.074 Y7.412
X-84.072 Y7.41
X-84.07 Y7.411
X-84.068 Y7.413
X-84.071 Y7.414
Z-17.7
G0 Z5
X-43.516 Y-52.497
Z2.05
G1 X-44.458 Z1.969 F333.3
G17 G3 X-44.458 Y-52.797 I0 J-0.15
G1 X-39.125 Z1.509
G3 X-39.125 Y-52.497 I0 J0.15
G1 X-44.458 Z1.05
G3 X-44.458 Y-52.797 I0 J-0.15
G1 X-39.125 Z0.591
G3 X-39.125 Y-52.497 I0 J0.15
G1 X-44.458 Z0.131
G3 X-44.458 Y-52.797 I0 J-0.15
G1 X-42.934 Z0
G3 X-42.607 Y-52.433 I0 J0.329
G1 X-42.647 Y-52.064
G2 X-41.993 Y-51.992 I0.327 J0.036
X-42.552 Y-52.262 I-0.327 J-0.036
X-43.195 Y-50.718 I1.531 J1.544 F700
G1 X-43.068 Y72.18
G3 X-43.61 Y72.18 I-0.271 J0
G1 X-43.611 Y-52.653
G3 X-42.94 Y-53.324 I0.671 J0
G1 X105.762 Y-53.322
G3 X105.762 Y-52.78 I0 J0.271
G1 X-40.987 Y-52.906
G2 X-42.544 Y-52.269 I0 J2.223
G1 X-42.552 Y-52.262
G2 X-42.476 Y-50.658 I0.761 J0.768
G3 X-41.79 Y-49.207 I-1.191 J1.451
G1 X-41.791 Y73.982
X-41.794 Y73.996
X-41.811 Y73.999
X-44.877 Y73.998
X-44.886 Y73.996
X-44.888 Y-54.588
X-44.886 Y-54.596
X-44.719 Y-54.601
X106.147 Y-54.598
X106.278 Y-54.573
X106.835 Y-54.44
X106.845 Y-54.435
X107.382 Y-53.997
X107.415 Y-53.939
X107.565 Y-53.606
G2 X107.842 Y-53.285 I0.684 J-0.308
G1 X107.956 Y-53.211
X107.961 Y-53.206
X107.964 Y-53.19
X107.962 Y-52.899
X107.894 Y-52.852
X107.841 Y-52.815
X107.792 Y-52.773
X107.733 Y-52.719
G2 X107.558 Y-52.479 I0.507 J0.553
G1 X107.393 Y-52.12
X107.389 Y-52.114
X107.316 Y-52.047
X106.846 Y-51.667
X106.836 Y-51.662
X106.16 Y-51.503
X-40.987 Y-51.501
G2 X-41.381 Y-51.389 I0 J0.75
G1 X-41.435 Y-51.356
G2 X-41.79 Y-50.718 I0.395 J0.638
G1 Y-49.207
X-41.793 Y-49.161 Z0.007
X-41.804 Y-49.116 Z0.015
X-41.82 Y-49.077 Z0.036
X-41.84 Y-49.041 Z0.057
X-41.883 Y-48.99 Z0.124
X-41.916 Y-48.963 Z0.207
X-41.928 Y-48.955 Z0.3
G0 Z5
X-42.766 Y-52.829
Z2
G1 Z-0.7 F333.3
X-42.763 Y-52.815 Z-0.793
X-42.76 Y-52.772 Z-0.876
X-42.767 Y-52.706 Z-0.943
X-42.778 Y-52.666 Z-0.964
X-42.796 Y-52.628 Z-0.985
X-42.821 Y-52.589 Z-0.993
X-42.851 Y-52.555 Z-1
X-42.889 Y-52.518 F700
X-42.947 Y-52.456
X-42.997 Y-52.388
X-43.09 Y-52.244
X-43.132 Y-52.171
X-43.165 Y-52.093
X-43.223 Y-51.937
X-43.247 Y-51.858
X-43.262 Y-51.777
X-43.283 Y-51.614
X-43.29 Y-51.517
X-43.288 Y74
X-43.393
X-43.39 Y73.908
Y73.884
Y-53.101
X105.973
X106.165 Y-53.058
X106.168 Y-53.045
X105.973 Y-53.001
X-41.847 Y-52.999
X-41.915 Y-52.996
X-41.982 Y-52.986
X-42.135 Y-52.959
X-42.206 Y-52.942
X-42.275 Y-52.918
X-42.404 Y-52.868
X-42.467 Y-52.839
X-42.528 Y-52.804
X-42.648 Y-52.729
X-42.711 Y-52.684
X-42.769 Y-52.634
X-42.851 Y-52.555
X-42.889 Y-52.518 Z-0.995
X-42.951 Y-52.45 Z-0.963
X-42.997 Y-52.388 Z-0.902
X-43.015 Y-52.36 Z-0.858
X-43.028 Y-52.339 Z-0.808
X-43.036 Y-52.326 Z-0.755
X-43.039 Y-52.322 Z-0.7
G0 Z5
X-42.766 Y-52.829
Z1
G1 Z-1.7 F333.3
X-42.763 Y-52.815 Z-1.793
X-42.76 Y-52.772 Z-1.876
X-42.767 Y-52.706 Z-1.943
X-42.778 Y-52.666 Z-1.964
X-42.796 Y-52.628 Z-1.985
X-42.821 Y-52.589 Z-1.993
X-42.851 Y-52.555 Z-2
X-42.889 Y-52.518 F700
X-42.947 Y-52.456
X-42.997 Y-52.388
X-43.09 Y-52.244
X-43.132 Y-52.171
X-43.165 Y-52.093
X-43.223 Y-51.937
X-43.247 Y-51.858
X-43.262 Y-51.777
X-43.283 Y-51.614
X-43.29 Y-51.517
X-43.288 Y74
X-43.393
X-43.39 Y73.908
Y73.884
Y-51.517
Y-53.101
X105.973
X106.165 Y-53.058
X106.168 Y-53.045
X105.973 Y-53.001
X-41.847 Y-52.999
X-41.915 Y-52.996
X-41.982 Y-52.986
X-42.135 Y-52.959
X-42.206 Y-52.942
X-42.275 Y-52.918
X-42.404 Y-52.868
X-42.467 Y-52.839
X-42.528 Y-52.804
X-42.648 Y-52.729
X-42.711 Y-52.684
X-42.769 Y-52.634
X-42.851 Y-52.555
X-42.889 Y-52.518 Z-1.995
X-42.951 Y-52.45 Z-1.963
X-42.997 Y-52.388 Z-1.902
X-43.015 Y-52.36 Z-1.858
X-43.028 Y-52.339 Z-1.808
X-43.036 Y-52.326 Z-1.755
X-43.039 Y-52.322 Z-1.7
G0 Z5
X-42.766 Y-52.829
Z3
G1 Z0 F333.3
Z-2.7
X-42.763 Y-52.815 Z-2.793
X-42.76 Y-52.772 Z-2.876
X-42.767 Y-52.706 Z-2.943
X-42.778 Y-52.666 Z-2.964
X-42.796 Y-52.628 Z-2.985
X-42.821 Y-52.589 Z-2.993
X-42.851 Y-52.555 Z-3
X-42.889 Y-52.518 F700
X-42.947 Y-52.456
X-42.997 Y-52.388
X-43.09 Y-52.244
X-43.132 Y-52.171
X-43.165 Y-52.093
X-43.223 Y-51.937
X-43.247 Y-51.858
X-43.262 Y-51.777
X-43.283 Y-51.614
X-43.29 Y-51.517
X-43.288 Y74
X-43.393
X-43.39 Y73.908
Y73.884
Y-51.517
Y-53.101
X105.973
X106.165 Y-53.058
X106.168 Y-53.045
X105.973 Y-53.001
X-41.847 Y-52.999
X-41.915 Y-52.996
X-41.982 Y-52.986
X-42.135 Y-52.959
X-42.206 Y-52.942
X-42.275 Y-52.918
X-42.404 Y-52.868
X-42.467 Y-52.839
X-42.528 Y-52.804
X-42.648 Y-52.729
X-42.711 Y-52.684
X-42.769 Y-52.634
X-42.851 Y-52.555
X-42.889 Y-52.518 Z-2.995
X-42.951 Y-52.45 Z-2.963
X-42.997 Y-52.388 Z-2.902
X-43.015 Y-52.36 Z-2.858
X-43.028 Y-52.339 Z-2.808
X-43.036 Y-52.326 Z-2.755
X-43.039 Y-52.322 Z-2.7
G0 Z5
X-43.391 Y73.947
G1 Z-1 F333.3
Z-4
X-43.39 Y73.908 F700
Y73.885
X-43.385 Y69.152
X-43.347 Y68.992
X-43.332 Y68.994
X-43.29 Y69.17
X-43.288 Y74
X-43.393
X-43.391 Y73.947
X-43.39 Y73.908 Z-3.997
Y73.885 Z-3.994
Y73.821 Z-3.972
Y73.763 Z-3.937
Y73.714 Z-3.889
Y73.677 Z-3.832
Y73.655 Z-3.768
Y73.647 Z-3.7
G0 Z5
X106.156 Y-53.043
G1 Z-1 F333.3
Z-4
X106.15 Y-53.046 F700
Y-53.056
X106.159 Y-53.061
X106.168 Y-53.055
Y-53.045
X106.159 Y-53.041
X106.156 Y-53.043
Z-3.7
Z-2
Z-5 F333.3
X106.15 Y-53.046 F700
Y-53.056
X106.159 Y-53.061
X106.168 Y-53.055
Y-53.045
X106.159 Y-53.041
X106.156 Y-53.043
Z-4.7
Z-3
Z-6 F333.3
X106.15 Y-53.046 F700
Y-53.056
X106.159 Y-53.061
X106.168 Y-53.055
Y-53.045
X106.159 Y-53.041
X106.156 Y-53.043
Z-5.7
Z-4
Z-7 F333.3
X106.15 Y-53.046 F700
Y-53.056
X106.159 Y-53.061
X106.168 Y-53.055
Y-53.045
X106.159 Y-53.041
X106.156 Y-53.043
Z-6.7
Z-5
Z-8 F333.3
X106.15 Y-53.046 F700
Y-53.056
X106.159 Y-53.061
X106.168 Y-53.055
Y-53.045
X106.159 Y-53.041
X106.156 Y-53.043
Z-7.7
Z-6
Z-9 F333.3
X106.15 Y-53.046 F700
Y-53.056
X106.159 Y-53.061
X106.168 Y-53.055
Y-53.045
X106.159 Y-53.041
X106.156 Y-53.043
Z-8.7
Z-7
Z-10 F333.3
X106.15 Y-53.046 F700
Y-53.056
X106.159 Y-53.061
X106.168 Y-53.055
Y-53.045
X106.159 Y-53.041
X106.156 Y-53.043
Z-9.7
G0 Z5
X106.155 Y-53.049
G1 Z-8 F333.3
Z-11
X106.151 Y-53.058 F700
X106.158 Y-53.059
X106.166 Y-53.057
X106.168 Y-53.045
X106.158 Y-53.043
X106.155 Y-53.049
Z-10.7
G0 Z5
X106.159 Y-53.047
G1 Z-9 F333.3
Z-12
X106.154 Y-53.044 F700
X106.15 Y-53.051
X106.153 Y-53.057
X106.169 Y-53.053
X106.159 Y-53.047
Z-11.7
G0 Z5
X106.152 Y-53.054
G1 Z-10 F333.3
Z-13
X106.156 Y-53.061 F700
X106.161 Y-53.06
X106.169 Y-53.054
X106.168 Y-53.046
X106.163 Y-53.042
X106.156 Y-53.04
X106.151 Y-53.044
Y-53.051
X106.152 Y-53.054
X106.156 Y-53.061 Z-12.999
X106.161 Y-53.06 Z-12.997
X106.169 Y-53.054 Z-12.989
X106.168 Y-53.046 Z-12.969
G0 Z5
X106.153 Y-53.052
G1 Z-11 F333.3
Z-14
X106.156 Y-53.061 F700
X106.17 Y-53.051
X106.16 Y-53.041
X106.151 Y-53.045
X106.153 Y-53.052
Z-13.7
G0 Z5
X106.159 Y-53.054
G1 Z-12 F333.3
Z-15
X106.17 Y-53.05 F700
X106.16 Y-53.043
X106.152 Y-53.048
X106.151 Y-53.057
X106.159 Y-53.054
Z-14.7
G0 Z5
X106.154 Y-53.052
G1 Z-13 F333.3
Z-16
Y-53.058 F700
X106.16 Y-53.06
X106.168 Y-53.055
X106.17 Y-53.051
X106.168 Y-53.046
X106.159 Y-53.044
X106.154 Y-53.045
Y-53.052
Z-15.7
G0 Z5
X106.165 Y-53.049
G1 Z-14 F333.3
Z-17
X106.161 Y-53.043 F700
X106.151 Y-53.052
X106.155 Y-53.057
X106.169 Y-53.055
X106.165 Y-53.049
Z-16.7
G0 Z5
G1 Z-15 F333.3
Z-18
X106.161 Y-53.043 F700
X106.151 Y-53.052
X106.155 Y-53.057
X106.169 Y-53.055
X106.165 Y-53.049
Z-17.7
G0 Z5
X-36.015 Y-46.217
Z2.05
G1 X-36.956 Z1.969 F333.3
G3 X-36.956 Y-46.517 I0 J-0.15
G1 X-31.624 Z1.509
G3 X-31.624 Y-46.217 I0 J0.15
G1 X-36.956 Z1.05
G3 X-36.956 Y-46.517 I0 J-0.15
G1 X-31.624 Z0.591
G3 X-31.624 Y-46.217 I0 J0.15
G1 X-36.956 Z0.131
G3 X-36.956 Y-46.517 I0 J-0.15
G1 X-35.433 Z0
G3 X-34.994 Y-46.059 I0 J0.439
G1 X-35.017 Y-45.538
G2 X-34.141 Y-45.499 I0.438 J0.019
X-34.89 Y-45.828 I-0.438 J-0.019
G1 X-34.895 Y-45.823 F700
G2 X-35.47 Y-44.42 I1.421 J1.402
G1 X-35.344 Y72.575
G3 X-35.715 Y72.946 I-0.371 J0
G1 X-35.967
G3 X-36.338 Y72.575 I0 J-0.371
G1 X-36.336 Y-46.372
G3 X-35.437 Y-47.271 I0.899 J0
G1 X105.759 Y-47.27
G3 X106.658 Y-46.371 I0 J0.899
G1 X106.646 Y40.851
X106.65 Y40.948
X106.663 Y41.044
X106.701 Y41.234
G3 X106.651 Y41.583 I-0.487 J0.109
G1 X106.622 Y41.639
G3 X105.691 Y41.531 I-0.445 J-0.226
X105.669 Y41.194 I0.959 J-0.233
G2 X105.685 Y40.856 I-3.034 J-0.321
G1 X105.79 Y-44.42
G2 X103.799 Y-46.407 I-1.987 J0
G1 X-33.496
G2 X-34.89 Y-45.828 I0 J1.965
X-34.844 Y-44.488 I0.652 J0.648
G3 X-34.29 Y-43.268 I-1.069 J1.221
G1 X-34.291 Y73.982
X-34.294 Y73.996
X-34.319 Y74
X-37.385 Y73.996
X-37.39 Y73.873
X-37.388 Y-48.309
X-37.386 Y-48.323
X107.706 Y-48.322
X107.71 Y-48.282
Y40.841
G2 X107.914 Y41.356 I0.75 J0
G1 X107.968 Y41.413
X107.971 Y41.42
X107.958 Y41.711
X107.956 Y41.721
X107.925 Y41.741
G2 X107.67 Y41.951 I0.337 J0.67
G1 X107.637 Y41.993
X107.591 Y42.059
X107.552 Y42.13
X107.363 Y42.527
X107.348 Y42.546
X106.752 Y42.986
X106.742 Y42.99
X106.731 Y42.993
X106.019 Y43.097
X105.998 Y43.096
X105.299 Y42.843
X105.294 Y42.839
X104.799 Y42.29
X104.796 Y42.284
X104.774 Y42.213
X104.616 Y41.562
X104.61 Y40.514
Y-44.42
G2 X104.37 Y-44.97 I-0.75 J0
G1 X104.309 Y-45.027
G2 X103.799 Y-45.227 I-0.51 J0.55
G1 X-33.496
G2 X-34.091 Y-44.934 I0 J0.75
G1 X-34.134 Y-44.878
G2 X-34.29 Y-44.42 I0.594 J0.457
G1 Y-43.268
X-34.293 Y-43.221 Z0.007
X-34.304 Y-43.176 Z0.015
X-34.32 Y-43.138 Z0.036
X-34.34 Y-43.101 Z0.057
X-34.383 Y-43.05 Z0.124
X-34.416 Y-43.023 Z0.207
X-34.428 Y-43.015 Z0.3
G0 Z5
X-35.752 Y-46.258
Z2
G1 Z-0.7 F333.3
X-35.764 Y-46.267 Z-0.793
X-35.797 Y-46.294 Z-0.876
X-35.84 Y-46.344 Z-0.943
X-35.86 Y-46.381 Z-0.964
X-35.876 Y-46.419 Z-0.985
X-35.886 Y-46.465 Z-0.993
X-35.89 Y-46.511 Z-1
Y-46.827 F700
X106.21
X106.213 Y41.329
X106.221 Y41.435
X106.161 Y41.561
X106.156 Y41.556
X106.111 Y41.377
X106.11 Y41.361
X106.108 Y-45.287
X106.105 Y-45.355
X106.096 Y-45.422
X106.069 Y-45.569
X106.051 Y-45.643
X106.026 Y-45.715
X105.969 Y-45.858
X105.934 Y-45.932
X105.891 Y-46.002
X105.793 Y-46.145
X105.746 Y-46.206
X105.693 Y-46.262
X105.597 Y-46.354
X105.543 Y-46.402
X105.485 Y-46.443
X105.356 Y-46.526
X105.29 Y-46.564
X105.221 Y-46.595
X105.08 Y-46.649
X105.005 Y-46.674
X104.928 Y-46.69
X104.765 Y-46.717
X104.706 Y-46.724
X104.647 Y-46.726
X-34.375 Y-46.722
X-34.459 Y-46.717
X-34.542 Y-46.703
X-34.705 Y-46.666
X-34.788 Y-46.642
X-34.869 Y-46.608
X-35.031 Y-46.528
X-35.1 Y-46.489
X-35.164 Y-46.444
X-35.269 Y-46.362
X-35.321 Y-46.317
X-35.368 Y-46.267
X-35.461 Y-46.161
X-35.503 Y-46.109
X-35.54 Y-46.053
X-35.606 Y-45.945
X-35.641 Y-45.879
X-35.669 Y-45.809
X-35.727 Y-45.647
X-35.748 Y-45.579
X-35.762 Y-45.51
X-35.779 Y-45.402
X-35.785 Y-45.345
X-35.787 Y-45.287
X-35.788 Y74
X-35.891
X-35.89 Y-46.511
G19 G2 Y-46.811 Z-0.7 J0 K0.3
G0 Z5
X-35.27 Y-46.569
Z1
G1 Z-1.7 F333.3
X-35.267 Y-46.555 Z-1.793
X-35.262 Y-46.513 Z-1.876
X-35.267 Y-46.447 Z-1.943
X-35.277 Y-46.406 Z-1.964
X-35.293 Y-46.367 Z-1.985
X-35.316 Y-46.328 Z-1.993
X-35.346 Y-46.292 Z-2
X-35.368 Y-46.267 F700
X-35.461 Y-46.161
X-35.503 Y-46.109
X-35.54 Y-46.053
X-35.606 Y-45.945
X-35.641 Y-45.879
X-35.669 Y-45.809
X-35.727 Y-45.647
X-35.748 Y-45.579
X-35.762 Y-45.51
X-35.779 Y-45.402
X-35.785 Y-45.345
X-35.787 Y-45.287
X-35.788 Y74
X-35.891
X-35.89 Y-46.827
X106.21
X106.213 Y41.329
X106.221 Y41.435
X106.161 Y41.561
X106.156 Y41.556
X106.111 Y41.377
X106.11 Y41.361
X106.108 Y-45.287
X106.105 Y-45.355
X106.096 Y-45.422
X106.069 Y-45.569
X106.051 Y-45.643
X106.026 Y-45.715
X105.969 Y-45.858
X105.934 Y-45.932
X105.891 Y-46.002
X105.793 Y-46.145
X105.746 Y-46.206
X105.693 Y-46.262
X105.597 Y-46.354
X105.543 Y-46.402
X105.485 Y-46.443
X105.356 Y-46.526
X105.29 Y-46.564
X105.221 Y-46.595
X105.08 Y-46.649
X105.005 Y-46.674
X104.928 Y-46.69
X104.765 Y-46.717
X104.706 Y-46.724
X104.647 Y-46.726
X-34.375 Y-46.722
X-34.459 Y-46.717
X-34.542 Y-46.703
X-34.705 Y-46.666
X-34.788 Y-46.642
X-34.869 Y-46.608
X-35.031 Y-46.528
X-35.1 Y-46.489
X-35.164 Y-46.444
X-35.269 Y-46.362
X-35.346 Y-46.292
X-35.368 Y-46.267 Z-1.998
X-35.401 Y-46.23 Z-1.988
X-35.432 Y-46.194 Z-1.97
X-35.461 Y-46.161 Z-1.944
X-35.503 Y-46.109 Z-1.877
X-35.528 Y-46.073 Z-1.793
X-35.536 Y-46.06 Z-1.7
G0 Z5
X-35.27 Y-46.569
Z3
G1 Z0 F333.3
Z-2.7
X-35.267 Y-46.555 Z-2.793
X-35.262 Y-46.513 Z-2.876
X-35.267 Y-46.447 Z-2.943
X-35.277 Y-46.406 Z-2.964
X-35.293 Y-46.367 Z-2.985
X-35.316 Y-46.328 Z-2.993
X-35.346 Y-46.292 Z-3
X-35.368 Y-46.267 F700
X-35.461 Y-46.161
X-35.503 Y-46.109
X-35.54 Y-46.053
X-35.606 Y-45.945
X-35.641 Y-45.879
X-35.669 Y-45.809
X-35.727 Y-45.647
X-35.748 Y-45.579
X-35.762 Y-45.51
X-35.779 Y-45.402
X-35.785 Y-45.345
X-35.787 Y-45.287
X-35.788 Y74
X-35.891
X-35.89 Y-46.827
X106.21
X106.213 Y41.329
X106.221 Y41.435
X106.161 Y41.561
X106.156 Y41.556
X106.111 Y41.377
X106.11 Y41.361
X106.108 Y-45.287
X106.105 Y-45.355
X106.096 Y-45.422
X106.069 Y-45.569
X106.051 Y-45.643
X106.026 Y-45.715
X105.969 Y-45.858
X105.934 Y-45.932
X105.891 Y-46.002
X105.793 Y-46.145
X105.746 Y-46.206
X105.693 Y-46.262
X105.597 Y-46.354
X105.543 Y-46.402
X105.485 Y-46.443
X105.356 Y-46.526
X105.29 Y-46.564
X105.221 Y-46.595
X105.08 Y-46.649
X105.005 Y-46.674
X104.928 Y-46.69
X104.765 Y-46.717
X104.706 Y-46.724
X104.647 Y-46.726
X-34.375 Y-46.722
X-34.459 Y-46.717
X-34.542 Y-46.703
X-34.705 Y-46.666
X-34.788 Y-46.642
X-34.869 Y-46.608
X-35.031 Y-46.528
X-35.1 Y-46.489
X-35.164 Y-46.444
X-35.269 Y-46.362
X-35.346 Y-46.292
X-35.368 Y-46.267 Z-2.998
X-35.401 Y-46.23 Z-2.988
X-35.432 Y-46.194 Z-2.97
X-35.461 Y-46.161 Z-2.944
X-35.503 Y-46.109 Z-2.877
X-35.528 Y-46.073 Z-2.793
X-35.536 Y-46.06 Z-2.7
G0 Z5
X-35.891 Y73.948
G1 Z-1 F333.3
Z-4
X-35.885 Y69.148 F700
X-35.85 Y68.995
X-35.847 Y68.991
X-35.842 Y68.989
X-35.837
X-35.833 Y68.991
X-35.83 Y68.995
X-35.795 Y69.148
X-35.788 Y74
X-35.891
Y73.948
Y73.881 Z-3.992
Y73.818 Z-3.97
Y73.761 Z-3.935
Y73.714 Z-3.887
Y73.678 Z-3.83
Y73.656 Z-3.767
Y73.648 Z-3.7
G0 Z5
X106.159 Y41.558
G1 Z-1 F333.3
Z-4
X106.161 Y41.555 F700
X106.162
X106.163 Y41.556
Y41.557
X106.161 Y41.561
X106.16
X106.158 Y41.559
X106.159 Y41.558
Z-3.7
Z-2
Z-5 F333.3
X106.161 Y41.555 F700
X106.162
X106.163 Y41.556
Y41.557
X106.161 Y41.561
X106.16
X106.158 Y41.559
X106.159 Y41.558
Z-4.7
Z-3
Z-6 F333.3
X106.161 Y41.555 F700
X106.162
X106.163 Y41.556
Y41.557
X106.161 Y41.561
X106.16
X106.158 Y41.559
X106.159 Y41.558
Z-5.7
G0 Z5
X106.162 Y41.559
G1 Z-4 F333.3
Z-7
X106.161 Y41.561 F700
X106.16
X106.158 Y41.559
X106.161 Y41.555
X106.162
X106.163 Y41.556
Y41.557
X106.162 Y41.559
Z-6.7
Z-5
Z-8 F333.3
X106.161 Y41.561 F700
X106.16
X106.158 Y41.559
X106.161 Y41.555
X106.162
X106.163 Y41.556
Y41.557
X106.162 Y41.559
Z-7.7
Z-6
Z-9 F333.3
X106.161 Y41.561 F700
X106.16
X106.158 Y41.559
X106.161 Y41.555
X106.162
X106.163 Y41.556
Y41.557
X106.162 Y41.559
Z-8.7
G0 Z5
X106.159 Y41.558
G1 Z-7 F333.3
Z-10
X106.161 Y41.555 F700
X106.162
X106.163 Y41.556
Y41.557
X106.161 Y41.561
X106.16
X106.158 Y41.559
X106.159 Y41.558
Z-9.7
G0 Z5
X106.16 Y41.557
G1 Z-8 F333.3
Z-11
X106.161 Y41.555 F700
X106.162
X106.163 Y41.556
Y41.557
X106.162 Y41.559
X106.159 Y41.56
X106.158 Y41.559
X106.16 Y41.557
Z-10.7
G0 Z5
X106.161 Y41.556
G1 Z-9 F333.3
Z-12
X106.162 F700
X106.163 Y41.557
X106.159 Y41.558
X106.161 Y41.556
Z-11.7
G0 Z5
Y41.558
G1 Z-10 F333.3
Z-13
X106.16 Y41.559 F700
X106.159 Y41.558
X106.16 Y41.557
X106.162
X106.161 Y41.558
Z-12.7
G0 Z5
X106.159 Y41.557
G1 Z-11 F333.3
Z-14
X106.158 F700
Y41.556
X106.159
X106.162 Y41.558
X106.159 Y41.557
Z-13.7
G0 Z5
X106.161 Y41.558
G1 Z-12 F333.3
Z-15
X106.16 Y41.559 F700
X106.158 Y41.557
X106.162 Y41.555
X106.163 Y41.556
X106.161 Y41.558
Z-14.7
G0 Z5
G1 Z-13 F333.3
Z-16
X106.159 Y41.557 F700
X106.162 Y41.556
X106.163 Y41.557
X106.162 Y41.559
X106.161 Y41.558
Z-15.7
G0 Z5
X106.162
G1 Z-14 F333.3
Z-17
X106.161 F700
X106.16 Y41.557
X106.163 Y41.556
Y41.557
Y41.558
X106.162
Z-16.7
G0 Z5
X106.163
G1 Z-15 F333.3
Z-18
X106.161 F700
X106.16 Y41.557
X106.163 Y41.556
Y41.557
Y41.558
Z-17.7
G0 Z5
X26.24 Y-20.877
Z2.05
G1 X27.181 Z1.969 F333.3
G17 G3 X27.181 Y-20.577 I0 J0.15
G1 X21.849 Z1.509
G3 X21.849 Y-20.877 I0 J-0.15
G1 X27.181 Z1.05
G3 X27.181 Y-20.577 I0 J0.15
G1 X21.849 Z0.591
G3 X21.849 Y-20.877 I0 J-0.15
G1 X27.181 Z0.131
G3 X27.181 Y-20.577 I0 J0.15
G1 X25.658 Z0
X25.599 Y-20.572
X25.543 Y-20.558
X24.729 Y-20.27
G2 X24.959 Y-19.62 I0.115 J0.325
X25.092 Y-20.184 I-0.115 J-0.325
X23.7 Y-20.776 I-1.392 J1.338 F700
G1 X-7.516 Y-20.65
G3 X-8.415 Y-21.549 I0 J-0.899
G1 Y-39.234
G3 X-7.516 Y-40.133 I0.899 J0
G1 X99.404 Y-40.135
G3 X100.303 Y-39.236 I0 J0.899
G1 X100.175 Y46.252
G2 X100.76 Y47.646 I1.953 J0
X102.158 Y48.217 I1.399 J-1.425
G1 X110.301
G2 X111.703 Y47.647 I0 J-2.009
X112.291 Y46.252 I-1.36 J-1.395
G3 X112.364 Y43.982 I35.563 J0.001
G2 X112.069 Y41.73 I-5.878 J-0.376
G3 X112.069 Y41.413 I0.473 J-0.159
G2 X112.147 Y41.131 I-2.769 J-0.925
X112.18 Y40.841 I-1.283 J-0.29
G1 X112.162 Y-50.175
G3 X112.566 Y-50.545 I0.371 J0
G1 X112.671 Y-50.538
X112.775
G3 X113.157 Y-50.168 I0.01 J0.371
G1 X113.155 Y48.184
G3 X112.256 Y49.082 I-0.899 J0
G1 X100.209 Y49.081
G3 X99.31 Y48.182 I0 J-0.899
G1 X99.438 Y-37.303
G2 X98.855 Y-38.697 I-1.957 J0
X97.457 Y-39.27 I-1.398 J1.417
G1 X-5.573
G2 X-7.55 Y-37.303 I0 J1.976
G1 Y-23.489
G2 X-5.574 Y-21.514 I1.975 J0
G1 X25.675 Y-21.64
G3 X26.57 Y-20.733 I0 J0.895
G1 X26.506 Y-15.933
X26.503 Y-15.891
X26.495 Y-15.85
X26.447 Y-15.654
X26.43 Y-15.602
X26.406 Y-15.554
X26.375 Y-15.509
X26.349 Y-15.477
X26.31 Y-15.436
X26.264 Y-15.401
X26.214 Y-15.373
X26.178 Y-15.357
X26.128 Y-15.338
X26.075 Y-15.327
X26.021 Y-15.324
X25.983
X25.926 Y-15.329
X25.871 Y-15.342
X25.819 Y-15.364
X25.786 Y-15.38
X25.739 Y-15.409
X25.696 Y-15.444
X25.659 Y-15.485
X25.635 Y-15.516
X25.605 Y-15.562
X25.582 Y-15.612
X25.567 Y-15.665
X25.54 Y-15.792
X25.52 Y-15.92
G3 X25.532 Y-16.632 I3.076 J-0.306
G2 X25.584 Y-17.343 I-5.954 J-0.791
G3 X25.624 Y-18.78 I50.189 J0.67
G2 X25.139 Y-20.133 I-1.907 J-0.08
G1 X25.092 Y-20.184
X25.063 Y-20.219 Z0.007
X25.039 Y-20.259 Z0.015
X25.023 Y-20.298 Z0.036
X25.013 Y-20.338 Z0.057
X25.009 Y-20.404 Z0.124
X25.013 Y-20.447 Z0.207
X25.016 Y-20.461 Z0.3
G0 Z5
X112.834 Y-58.788
Z2.05
G1 X113.775 Z1.969 F333.3
G3 X113.775 Y-58.488 I0 J0.15
G1 X108.443 Z1.509
G3 X108.443 Y-58.788 I0 J-0.15
G1 X113.775 Z1.05
G3 X113.775 Y-58.488 I0 J0.15
G1 X108.443 Z0.591
G3 X108.443 Y-58.788 I0 J-0.15
G1 X113.775 Z0.131
G3 X113.775 Y-58.488 I0 J0.15
G1 X112.252 Z0
X112.192 Y-58.483
X112.134 Y-58.468
X111.256 Y-58.172
G2 X111.492 Y-57.475 I0.118 J0.348
X111.644 Y-58.074 I-0.118 J-0.348
X110.301 Y-58.659 I-1.343 J1.247 F700
G1 X-63.5 Y-58.708
G2 X-64.888 Y-58.118 I0 J1.929
X-65.453 Y-56.72 I1.448 J1.397
G3 X-65.491 Y-54.956 I-39.625 J0.025
G2 X-65.252 Y-53.207 I4.929 J0.217
G3 X-65.252 Y-52.896 I-0.475 J0.155
G2 X-65.328 Y-52.619 I2.8 J0.92
X-65.36 Y-52.334 I1.278 J0.286
G1 Y40.841
G2 X-65.327 Y41.132 I1.316 J0
X-65.249 Y41.413 I2.846 J-0.644
G3 X-65.249 Y41.73 I-0.474 J0.158
G2 X-65.328 Y42.012 I2.758 J0.926
X-65.361 Y42.304 I1.285 J0.292
G1 X-65.344 Y72.239
G3 X-66.336 Y72.239 I-0.496 J0
G1 Y-58.674
G3 X-65.437 Y-59.573 I0.899 J0
G1 X112.258 Y-59.543
G3 X113.157 Y-58.644 I0 J0.899
G1 Y-56.054
G3 X112.776 Y-55.684 I-0.371 J0
G1 X112.671
X112.566 Y-55.677
G3 X112.162 Y-56.047 I-0.033 J-0.369
X112.173 Y-56.373 I5.227 J0.001
G2 X112.183 Y-56.7 I-5.18 J-0.327
X111.648 Y-58.069 I-2.02 J0
G1 X111.644 Y-58.074
G2 X110.339 Y-58.046 I-0.64 J0.594
G3 X109.155 Y-57.499 I-1.184 J-1.008
G1 X-63.5 Y-57.527
G2 X-64.113 Y-57.209 I0 J0.75
G1 X-64.152 Y-57.154
G2 X-64.29 Y-56.721 I0.612 J0.433
G1 X-64.288 Y-53.766
G2 X-64.077 Y-53.246 I0.75 J0
G1 X-64.035 Y-53.202
X-64.03 Y-53.082
X-64.033 Y-52.907
X-64.035 Y-52.899
X-64.069 Y-52.864
G2 X-64.289 Y-52.334 I0.53 J0.531
G1 Y40.841
G2 X-64.084 Y41.356 I0.75 J0
G1 X-64.033 Y41.41
X-64.032 Y41.697
X-64.035 Y41.709
X-64.068 Y41.748
X-64.127 Y41.821
X-64.175 Y41.901
X-64.204 Y41.955
G2 X-64.29 Y42.304 I0.664 J0.349
G1 X-64.291 Y73.982
X-64.294 Y73.996
X-64.311 Y73.999
X-67.378 Y73.998
X-67.386 Y73.996
X-67.388 Y73.982
X-67.389 Y-60.608
X-67.386 Y-60.624
X-67.374 Y-60.626
X114.201 Y-60.596
X114.21 Y-60.566
X114.208 Y50.129
X114.186 Y50.136
X98.267 Y50.134
X98.26 Y50.132
X98.257 Y50.113
X98.256 Y-37.303
G2 X97.945 Y-37.912 I-0.75 J0
G1 X97.895 Y-37.947
G2 X97.457 Y-38.089 I-0.439 J0.608
G1 X-5.573
G2 X-6.04 Y-37.927 I0 J0.75
G1 X-6.085 Y-37.891
G2 X-6.369 Y-37.303 I0.466 J0.588
G1 Y-23.489
G2 X-6.14 Y-22.95 I0.75 J0
G1 X-6.095 Y-22.906
G2 X-5.574 Y-22.695 I0.522 J-0.539
G1 X27.637 Y-22.693
X27.646 Y-22.691
X27.649 Y-22.661
X27.557 Y-15.767
X27.553 Y-15.744
X27.395 Y-15.1
X27.388 Y-15.087
X26.965 Y-14.566
X26.959 Y-14.56
X26.925 Y-14.54
X26.327 Y-14.268
X25.656 Y-14.274
X25.642 Y-14.276
X25.626 Y-14.282
X25.022 Y-14.586
X24.608 Y-15.125
X24.604 Y-15.135
X24.459 Y-15.808
X24.458 Y-15.832
X24.497 Y-18.782
G2 X24.306 Y-19.292 I-0.75 J-0.01
G1 X24.259 Y-19.345
G2 X23.7 Y-19.595 I-0.559 J0.5
G1 X-9.459 Y-19.597
X-9.465 Y-19.599
X-9.468 Y-19.617
Y-41.165
X-9.465 Y-41.185
X101.341 Y-41.188
X101.347 Y-41.187
X101.356 Y-40.085
Y46.252
G2 X101.697 Y46.881 I0.75 J0
G1 X101.749 Y46.915
G2 X102.158 Y47.036 I0.409 J-0.628
G1 X110.301
G2 X110.675 Y46.936 I0 J-0.75
G1 X110.734 Y46.902
G2 X111.11 Y46.252 I-0.374 J-0.65
G1 Y42.304
G2 X111.023 Y41.953 I-0.75 J0
G1 X110.994 Y41.899
X110.955 Y41.833
X110.909 Y41.772
X110.854 Y41.705
X110.85 Y41.595
X110.855 Y41.408
X110.865 Y41.396
X110.879 Y41.382
G2 X111.109 Y40.841 I-0.52 J-0.54
G1 Y-52.329
G2 X110.914 Y-52.834 I-0.75 J0
G1 X110.855 Y-52.898
X110.851 Y-53.185
X110.854 Y-53.2
X110.898 Y-53.252
X110.935 Y-53.3
X110.968 Y-53.35
X111.001 Y-53.404
G2 X111.109 Y-53.791 I-0.642 J-0.388
G1 X111.11 Y-56.7
G2 X110.835 Y-57.28 I-0.75 J0
G1 X110.776 Y-57.328
G2 X110.301 Y-57.498 I-0.475 J0.58
G1 X109.155 Y-57.499
G3 X109.126 Y-57.796 I0 J-0.15
G1 X109.931 Y-57.957
X109.975 Y-57.959
X110.018 Y-57.949
X110.056 Y-57.926
X111.775 Y-56.523
X111.808 Y-56.487
X112.828 Y-54.861
G3 X112.705 Y-54.631 I-0.127 J0.08
G1 X112.604 Y-54.622
X112.224 Y-54.559
G2 X111.884 Y-54.41 I0.122 J0.74
G1 X111.598 Y-54.186
G2 X111.411 Y-53.972 I0.462 J0.591
G1 X111.368 Y-53.897
X111.327 Y-53.816
X111.168 Y-53.445
X111.142 Y-53.382
G2 X111.132 Y-52.816 I0.69 J0.295
G1 X111.159 Y-52.747
X111.191 Y-52.676
X111.398 Y-52.272
G2 X111.597 Y-52.029 I0.667 J-0.343
G1 X111.7 Y-51.947
X111.738 Y-51.918
X111.915 Y-51.794
X111.969 Y-51.759
X112.025 Y-51.73
X112.079 Y-51.704
X112.152 Y-51.674
X112.228 Y-51.652
X112.306 Y-51.638
X112.631 Y-51.597
X112.738 Y-51.591
X112.846 Y-51.6
X112.9 Y-51.609
X112.977 Y-51.626
X113.053 Y-51.651
X113.378 Y-51.778
G2 X113.665 Y-51.978 I-0.273 J-0.699
G1 X113.872 Y-52.209
X113.922 Y-52.273
X113.961 Y-52.327
G2 X114.078 Y-52.582 I-0.61 J-0.436
G1 X114.159 Y-52.907
G2 X114.171 Y-53.207 I-0.728 J-0.18
G1 X114.154 Y-53.315
X114.14 Y-53.38
X114.071 Y-53.651
G2 X113.943 Y-53.918 I-0.727 J0.185
G1 X113.903 Y-53.972
X113.854 Y-54.03
X113.656 Y-54.245
X113.591 Y-54.307
X113.519 Y-54.361
X113.465 Y-54.397
X113.381 Y-54.445
X113.292 Y-54.482
X112.966 Y-54.592
G2 X112.705 Y-54.631 I-0.241 J0.71
G1 X112.659 Y-54.634 Z0.007
X112.614 Y-54.643 Z0.015
X112.575 Y-54.657 Z0.036
X112.538 Y-54.677 Z0.057
X112.486 Y-54.718 Z0.124
X112.458 Y-54.75 Z0.207
X112.449 Y-54.762 Z0.3
G0 Z5
X112.572 Y-59.033
Z2
G1 Z-0.7 F333.3
X112.584 Y-59.025 Z-0.793
X112.617 Y-58.998 Z-0.876
X112.66 Y-58.947 Z-0.943
X112.68 Y-58.911 Z-0.964
X112.696 Y-58.872 Z-0.985
X112.707 Y-58.827 Z-0.993
X112.71 Y-58.781 Z-1
Y-54.631 F700
X112.607 Y-54.622
X112.605 Y-57.586
X112.6 Y-57.669
X112.586 Y-57.75
X112.552 Y-57.904
X112.533 Y-57.972
X112.508 Y-58.038
X112.457 Y-58.154
X112.43 Y-58.211
X112.397 Y-58.265
X112.327 Y-58.372
X112.287 Y-58.428
X112.241 Y-58.48
X112.138 Y-58.587
X112.083 Y-58.64
X112.022 Y-58.686
X111.892 Y-58.775
X111.824 Y-58.817
X111.751 Y-58.852
X111.6 Y-58.914
X111.522 Y-58.941
X111.442 Y-58.959
X111.279 Y-58.986
X111.216 Y-58.994
X111.153 Y-58.997
X-64.359 Y-59.024
X-64.435 Y-59.02
X-64.51 Y-59.008
X-64.672 Y-58.975
X-64.756 Y-58.952
X-64.836 Y-58.921
X-64.999 Y-58.845
X-65.078 Y-58.803
X-65.151 Y-58.752
X-65.289 Y-58.642
X-65.352 Y-58.586
X-65.408 Y-58.524
X-65.506 Y-58.401
X-65.551 Y-58.339
X-65.589 Y-58.273
X-65.656 Y-58.141
X-65.688 Y-58.069
X-65.713 Y-57.994
X-65.756 Y-57.831
X-65.773 Y-57.749
X-65.781 Y-57.666
X-65.789 Y-57.449
X-65.79 Y-57.421
X-65.788 Y-53.304
X-65.786 Y-53.239
X-65.777 Y-53.175
X-65.757 Y-53.057
X-65.772 Y-52.981
X-65.779 Y-52.904
X-65.789 Y-52.687
X-65.79 Y-52.654
X-65.787 Y41.329
X-65.783 Y41.406
X-65.771 Y41.482
X-65.755 Y41.555
X-65.764 Y41.59
X-65.779 Y41.674
X-65.784 Y41.76
X-65.79 Y43.981
X-65.788 Y74
X-65.891
X-65.89 Y-59.127
X112.71 Y-59.098
Y-58.781
G19 G3 Y-58.481 Z-0.7 J0 K0.3
G0 Z5
X112.438 Y-58.474
Z1
G1 Z-1.7 F333.3
X112.423 Y-58.472 Z-1.793
X112.381 Y-58.469 Z-1.876
X112.315 Y-58.476 Z-1.943
X112.275 Y-58.488 Z-1.964
X112.237 Y-58.505 Z-1.985
X112.198 Y-58.53 Z-1.993
X112.164 Y-58.561 Z-2
X112.138 Y-58.587 F700
X112.083 Y-58.64
X112.022 Y-58.686
X111.892 Y-58.775
X111.824 Y-58.817
X111.751 Y-58.852
X111.6 Y-58.914
X111.522 Y-58.941
X111.442 Y-58.959
X111.279 Y-58.986
X111.216 Y-58.994
X111.153 Y-58.997
X-64.359 Y-59.024
X-64.435 Y-59.02
X-64.51 Y-59.008
X-64.672 Y-58.975
X-64.756 Y-58.952
X-64.836 Y-58.921
X-64.999 Y-58.845
X-65.078 Y-58.803
X-65.151 Y-58.752
X-65.289 Y-58.642
X-65.352 Y-58.586
X-65.408 Y-58.524
X-65.506 Y-58.401
X-65.551 Y-58.339
X-65.589 Y-58.273
X-65.656 Y-58.141
X-65.688 Y-58.069
X-65.713 Y-57.994
X-65.756 Y-57.831
X-65.773 Y-57.749
X-65.781 Y-57.666
X-65.789 Y-57.449
X-65.79 Y-57.421
X-65.788 Y-53.304
X-65.786 Y-53.239
X-65.777 Y-53.175
X-65.757 Y-53.057
X-65.772 Y-52.981
X-65.779 Y-52.904
X-65.789 Y-52.687
X-65.79 Y-52.654
X-65.787 Y41.329
X-65.783 Y41.406
X-65.771 Y41.482
X-65.755 Y41.555
X-65.764 Y41.59
X-65.779 Y41.674
X-65.784 Y41.76
X-65.79 Y43.981
X-65.788 Y74
X-65.891
X-65.89 Y-59.127
X112.71 Y-59.098
Y-54.631
X112.607 Y-54.622
X112.605 Y-57.586
X112.6 Y-57.669
X112.586 Y-57.75
X112.552 Y-57.904
X112.533 Y-57.972
X112.508 Y-58.038
X112.457 Y-58.154
X112.43 Y-58.211
X112.397 Y-58.265
X112.327 Y-58.372
X112.287 Y-58.428
X112.241 Y-58.48
X112.164 Y-58.561
X112.138 Y-58.587 Z-1.998
X112.079 Y-58.643 Z-1.976
X112.022 Y-58.686 Z-1.933
X111.984 Y-58.713 Z-1.885
X111.955 Y-58.732 Z-1.829
X111.937 Y-58.745 Z-1.766
X111.931 Y-58.749 Z-1.7
G0 Z5
X112.438 Y-58.474
Z3
G1 Z0 F333.3
Z-2.7
X112.423 Y-58.472 Z-2.793
X112.381 Y-58.469 Z-2.876
X112.315 Y-58.476 Z-2.943
X112.275 Y-58.488 Z-2.964
X112.237 Y-58.505 Z-2.985
X112.198 Y-58.53 Z-2.993
X112.164 Y-58.561 Z-3
X112.138 Y-58.587 F700
X112.083 Y-58.64
X112.022 Y-58.686
X111.892 Y-58.775
X111.824 Y-58.817
X111.751 Y-58.852
X111.6 Y-58.914
X111.522 Y-58.941
X111.442 Y-58.959
X111.279 Y-58.986
X111.216 Y-58.994
X111.153 Y-58.997
X-64.359 Y-59.024
X-64.435 Y-59.02
X-64.51 Y-59.008
X-64.672 Y-58.975
X-64.756 Y-58.952
X-64.836 Y-58.921
X-64.999 Y-58.845
X-65.078 Y-58.803
X-65.151 Y-58.752
X-65.289 Y-58.642
X-65.352 Y-58.586
X-65.408 Y-58.524
X-65.506 Y-58.401
X-65.551 Y-58.339
X-65.589 Y-58.273
X-65.656 Y-58.141
X-65.688 Y-58.069
X-65.713 Y-57.994
X-65.756 Y-57.831
X-65.773 Y-57.749
X-65.781 Y-57.666
X-65.789 Y-57.449
X-65.79 Y-57.421
X-65.788 Y-53.304
X-65.786 Y-53.239
X-65.777 Y-53.175
X-65.757 Y-53.057
X-65.772 Y-52.981
X-65.779 Y-52.904
X-65.789 Y-52.687
X-65.79 Y-52.654
X-65.787 Y41.329
X-65.783 Y41.406
X-65.771 Y41.482
X-65.755 Y41.555
X-65.764 Y41.59
X-65.779 Y41.674
X-65.784 Y41.76
X-65.79 Y43.981
X-65.788 Y74
X-65.891
X-65.89 Y-59.127
X112.71 Y-59.098
Y-54.631
X112.607 Y-54.622
X112.605 Y-57.586
X112.6 Y-57.669
X112.586 Y-57.75
X112.552 Y-57.904
X112.533 Y-57.972
X112.508 Y-58.038
X112.457 Y-58.154
X112.43 Y-58.211
X112.397 Y-58.265
X112.327 Y-58.372
X112.287 Y-58.428
X112.241 Y-58.48
X112.164 Y-58.561
X112.138 Y-58.587 Z-2.998
X112.079 Y-58.643 Z-2.976
X112.022 Y-58.686 Z-2.933
X111.984 Y-58.713 Z-2.885
X111.955 Y-58.732 Z-2.829
X111.937 Y-58.745 Z-2.766
X111.931 Y-58.749 Z-2.7
G0 Z5
X99.601 Y-39.07
Z2
G1 Z-0.7 F333.3
X99.587 Y-39.066 Z-0.793
X99.545 Y-39.061 Z-0.876
X99.479 Y-39.065 Z-0.943
X99.438 Y-39.075 Z-0.964
X99.399 Y-39.09 Z-0.985
X99.359 Y-39.113 Z-0.993
X99.323 Y-39.142 Z-1
X99.304 Y-39.16 F700
X99.183 Y-39.266
X99.125 Y-39.312
X99.063 Y-39.352
X98.945 Y-39.42
X98.878 Y-39.454
X98.807 Y-39.482
X98.647 Y-39.535
X98.581 Y-39.554
X98.512 Y-39.566
X98.404 Y-39.581
X98.303 Y-39.588
X-6.451 Y-39.584
X-6.531 Y-39.58
X-6.61 Y-39.568
X-6.76 Y-39.535
X-6.832 Y-39.516
X-6.901 Y-39.49
X-7.03 Y-39.433
X-7.1 Y-39.399
X-7.166 Y-39.357
X-7.304 Y-39.258
X-7.364 Y-39.211
X-7.418 Y-39.159
X-7.508 Y-39.062
X-7.553 Y-39.009
X-7.593 Y-38.952
X-7.67 Y-38.831
X-7.705 Y-38.769
X-7.735 Y-38.705
X-7.786 Y-38.575
X-7.81 Y-38.503
X-7.827 Y-38.429
X-7.856 Y-38.267
X-7.864 Y-38.202
X-7.867 Y-38.137
Y-22.644
X-7.864 Y-22.578
X-7.855 Y-22.512
X-7.826 Y-22.349
X-7.806 Y-22.266
X-7.777 Y-22.186
X-7.707 Y-22.023
X-7.668 Y-21.946
X-7.62 Y-21.873
X-7.52 Y-21.737
X-7.474 Y-21.682
X-7.424 Y-21.631
X-7.338 Y-21.552
X-7.29 Y-21.512
X-7.24 Y-21.476
X-7.132 Y-21.405
X-7.066 Y-21.367
X-6.997 Y-21.336
X-6.834 Y-21.272
X-6.753 Y-21.245
X-6.67 Y-21.228
X-6.507 Y-21.204
X-6.452 Y-21.198
X-6.397 Y-21.196
X26.13 Y-21.195
X26.06 Y-15.964
X26.016 Y-15.775
X26.011 Y-15.768
X26.005
X25.96 Y-15.953
X26.005 Y-19.656
X26.002 Y-19.73
X25.992 Y-19.804
X25.966 Y-19.941
X25.951 Y-20.007
X25.929 Y-20.071
X25.881 Y-20.195
X25.853 Y-20.259
X25.82 Y-20.32
X25.743 Y-20.443
X25.703 Y-20.502
X25.657 Y-20.557
X25.562 Y-20.661
X25.508 Y-20.713
X25.45 Y-20.76
X25.323 Y-20.852
X25.261 Y-20.892
X25.196 Y-20.927
X25.069 Y-20.985
X25.003 Y-21.011
X24.935 Y-21.031
X24.796 Y-21.065
X24.715 Y-21.081
X24.633 Y-21.087
X24.253 Y-21.095
X24.238
X-7.969
Y-39.689
X99.856
X99.857 Y47.071
X99.86 Y47.129
X99.866 Y47.187
X99.892 Y47.35
X99.91 Y47.433
X99.937 Y47.514
X100.003 Y47.676
X100.039 Y47.753
X100.083 Y47.825
X100.176 Y47.959
X100.226 Y48.022
X100.282 Y48.08
X100.398 Y48.188
X100.453 Y48.233
X100.511 Y48.274
X100.617 Y48.34
X100.682 Y48.376
X100.751 Y48.406
X100.914 Y48.467
X100.995 Y48.492
X101.078 Y48.508
X101.24 Y48.53
X101.339 Y48.536
X111.153 Y48.535
X111.216 Y48.532
X111.278 Y48.525
X111.441 Y48.497
X111.52 Y48.479
X111.597 Y48.453
X111.744 Y48.393
X111.812 Y48.362
X111.877 Y48.324
X111.993 Y48.247
X112.058 Y48.199
X112.116 Y48.145
X112.242 Y48.017
X112.297 Y47.954
X112.344 Y47.885
X112.426 Y47.753
X112.462 Y47.687
X112.491 Y47.618
X112.54 Y47.484
X112.561 Y47.417
X112.576 Y47.348
X112.598 Y47.214
X112.606 Y47.153
X112.608 Y47.091
Y41.803
X112.605 Y41.736
X112.596 Y41.669
X112.577 Y41.565
X112.594 Y41.473
X112.603 Y41.403
X112.608 Y41.313
X112.606 Y-51.6
X112.631 Y-51.597
X112.71 Y-51.591
Y48.636
X101.339
X99.756
X99.755 Y-38.137
X99.752 Y-38.202
X99.744 Y-38.267
X99.715 Y-38.429
X99.696 Y-38.51
X99.668 Y-38.589
X99.604 Y-38.743
X99.566 Y-38.82
X99.52 Y-38.892
X99.417 Y-39.035
X99.373 Y-39.091
X99.323 Y-39.142
X99.304 Y-39.16 Z-0.999
X99.261 Y-39.197 Z-0.988
X99.22 Y-39.233 Z-0.967
X99.183 Y-39.266 Z-0.935
X99.136 Y-39.304 Z-0.869
X99.104 Y-39.327 Z-0.789
X99.093 Y-39.334 Z-0.7
G0 Z5
X99.601 Y-39.07
Z1
G1 Z-1.7 F333.3
X99.587 Y-39.066 Z-1.793
X99.545 Y-39.061 Z-1.876
X99.479 Y-39.065 Z-1.943
X99.438 Y-39.075 Z-1.964
X99.399 Y-39.09 Z-1.985
X99.359 Y-39.113 Z-1.993
X99.323 Y-39.142 Z-2
X99.304 Y-39.16 F700
X99.183 Y-39.266
X99.125 Y-39.312
X99.063 Y-39.352
X98.945 Y-39.42
X98.878 Y-39.454
X98.807 Y-39.482
X98.647 Y-39.535
X98.581 Y-39.554
X98.512 Y-39.566
X98.404 Y-39.581
X98.303 Y-39.588
X-6.451 Y-39.584
X-6.531 Y-39.58
X-6.61 Y-39.568
X-6.76 Y-39.535
X-6.832 Y-39.516
X-6.901 Y-39.49
X-7.03 Y-39.433
X-7.1 Y-39.399
X-7.166 Y-39.357
X-7.304 Y-39.258
X-7.364 Y-39.211
X-7.418 Y-39.159
X-7.508 Y-39.062
X-7.553 Y-39.009
X-7.593 Y-38.952
X-7.67 Y-38.831
X-7.705 Y-38.769
X-7.735 Y-38.705
X-7.786 Y-38.575
X-7.81 Y-38.503
X-7.827 Y-38.429
X-7.856 Y-38.267
X-7.864 Y-38.202
X-7.867 Y-38.137
Y-22.644
X-7.864 Y-22.578
X-7.855 Y-22.512
X-7.826 Y-22.349
X-7.806 Y-22.266
X-7.777 Y-22.186
X-7.707 Y-22.023
X-7.668 Y-21.946
X-7.62 Y-21.873
X-7.52 Y-21.737
X-7.474 Y-21.682
X-7.424 Y-21.631
X-7.338 Y-21.552
X-7.29 Y-21.512
X-7.24 Y-21.476
X-7.132 Y-21.405
X-7.066 Y-21.367
X-6.997 Y-21.336
X-6.834 Y-21.272
X-6.753 Y-21.245
X-6.67 Y-21.228
X-6.507 Y-21.204
X-6.452 Y-21.198
X-6.397 Y-21.196
X26.13 Y-21.195
X26.06 Y-15.964
X26.016 Y-15.775
X26.011 Y-15.768
X26.005
X25.96 Y-15.953
X26.005 Y-19.656
X26.002 Y-19.73
X25.992 Y-19.804
X25.966 Y-19.941
X25.951 Y-20.007
X25.929 Y-20.071
X25.881 Y-20.195
X25.853 Y-20.259
X25.82 Y-20.32
X25.743 Y-20.443
X25.703 Y-20.502
X25.657 Y-20.557
X25.562 Y-20.661
X25.508 Y-20.713
X25.45 Y-20.76
X25.323 Y-20.852
X25.261 Y-20.892
X25.196 Y-20.927
X25.069 Y-20.985
X25.003 Y-21.011
X24.935 Y-21.031
X24.796 Y-21.065
X24.715 Y-21.081
X24.633 Y-21.087
X24.253 Y-21.095
X24.238
X-7.969
Y-39.689
X99.856
X99.857 Y47.071
X99.86 Y47.129
X99.866 Y47.187
X99.892 Y47.35
X99.91 Y47.433
X99.937 Y47.514
X100.003 Y47.676
X100.039 Y47.753
X100.083 Y47.825
X100.176 Y47.959
X100.226 Y48.022
X100.282 Y48.08
X100.398 Y48.188
X100.453 Y48.233
X100.511 Y48.274
X100.617 Y48.34
X100.682 Y48.376
X100.751 Y48.406
X100.914 Y48.467
X100.995 Y48.492
X101.078 Y48.508
X101.24 Y48.53
X101.339 Y48.536
X111.153 Y48.535
X111.216 Y48.532
X111.278 Y48.525
X111.441 Y48.497
X111.52 Y48.479
X111.597 Y48.453
X111.744 Y48.393
X111.812 Y48.362
X111.877 Y48.324
X111.993 Y48.247
X112.058 Y48.199
X112.116 Y48.145
X112.242 Y48.017
X112.297 Y47.954
X112.344 Y47.885
X112.426 Y47.753
X112.462 Y47.687
X112.491 Y47.618
X112.54 Y47.484
X112.561 Y47.417
X112.576 Y47.348
X112.598 Y47.214
X112.606 Y47.153
X112.608 Y47.091
Y41.803
X112.605 Y41.736
X112.596 Y41.669
X112.577 Y41.565
X112.594 Y41.473
X112.603 Y41.403
X112.608 Y41.313
X112.606 Y-51.6
X112.631 Y-51.597
X112.71 Y-51.591
Y48.636
X99.756
X99.755 Y-38.137
X99.752 Y-38.202
X99.744 Y-38.267
X99.715 Y-38.429
X99.696 Y-38.51
X99.668 Y-38.589
X99.604 Y-38.743
X99.566 Y-38.82
X99.52 Y-38.892
X99.417 Y-39.035
X99.373 Y-39.091
X99.323 Y-39.142
X99.304 Y-39.16 Z-1.999
X99.261 Y-39.197 Z-1.988
X99.22 Y-39.233 Z-1.967
X99.183 Y-39.266 Z-1.935
X99.136 Y-39.304 Z-1.869
X99.104 Y-39.327 Z-1.789
X99.093 Y-39.334 Z-1.7
G0 Z5
X99.601 Y-39.07
Z3
G1 Z0 F333.3
Z-2.7
X99.587 Y-39.066 Z-2.793
X99.545 Y-39.061 Z-2.876
X99.479 Y-39.065 Z-2.943
X99.438 Y-39.075 Z-2.964
X99.399 Y-39.09 Z-2.985
X99.359 Y-39.113 Z-2.993
X99.323 Y-39.142 Z-3
X99.304 Y-39.16 F700
X99.183 Y-39.266
X99.125 Y-39.312
X99.063 Y-39.352
X98.945 Y-39.42
X98.878 Y-39.454
X98.807 Y-39.482
X98.647 Y-39.535
X98.581 Y-39.554
X98.512 Y-39.566
X98.404 Y-39.581
X98.303 Y-39.588
X-6.451 Y-39.584
X-6.531 Y-39.58
X-6.61 Y-39.568
X-6.76 Y-39.535
X-6.832 Y-39.516
X-6.901 Y-39.49
X-7.03 Y-39.433
X-7.1 Y-39.399
X-7.166 Y-39.357
X-7.304 Y-39.258
X-7.364 Y-39.211
X-7.418 Y-39.159
X-7.508 Y-39.062
X-7.553 Y-39.009
X-7.593 Y-38.952
X-7.67 Y-38.831
X-7.705 Y-38.769
X-7.735 Y-38.705
X-7.786 Y-38.575
X-7.81 Y-38.503
X-7.827 Y-38.429
X-7.856 Y-38.267
X-7.864 Y-38.202
X-7.867 Y-38.137
Y-22.644
X-7.864 Y-22.578
X-7.855 Y-22.512
X-7.826 Y-22.349
X-7.806 Y-22.266
X-7.777 Y-22.186
X-7.707 Y-22.023
X-7.668 Y-21.946
X-7.62 Y-21.873
X-7.52 Y-21.737
X-7.474 Y-21.682
X-7.424 Y-21.631
X-7.338 Y-21.552
X-7.29 Y-21.512
X-7.24 Y-21.476
X-7.132 Y-21.405
X-7.066 Y-21.367
X-6.997 Y-21.336
X-6.834 Y-21.272
X-6.753 Y-21.245
X-6.67 Y-21.228
X-6.507 Y-21.204
X-6.452 Y-21.198
X-6.397 Y-21.196
X26.13 Y-21.195
X26.06 Y-15.964
X26.016 Y-15.775
X26.011 Y-15.768
X26.005
X25.96 Y-15.953
X26.005 Y-19.656
X26.002 Y-19.73
X25.992 Y-19.804
X25.966 Y-19.941
X25.951 Y-20.007
X25.929 Y-20.071
X25.881 Y-20.195
X25.853 Y-20.259
X25.82 Y-20.32
X25.743 Y-20.443
X25.703 Y-20.502
X25.657 Y-20.557
X25.562 Y-20.661
X25.508 Y-20.713
X25.45 Y-20.76
X25.323 Y-20.852
X25.261 Y-20.892
X25.196 Y-20.927
X25.069 Y-20.985
X25.003 Y-21.011
X24.935 Y-21.031
X24.796 Y-21.065
X24.715 Y-21.081
X24.633 Y-21.087
X24.253 Y-21.095
X24.238
X-7.969
Y-39.689
X99.856
X99.857 Y47.071
X99.86 Y47.129
X99.866 Y47.187
X99.892 Y47.35
X99.91 Y47.433
X99.937 Y47.514
X100.003 Y47.676
X100.039 Y47.753
X100.083 Y47.825
X100.176 Y47.959
X100.226 Y48.022
X100.282 Y48.08
X100.398 Y48.188
X100.453 Y48.233
X100.511 Y48.274
X100.617 Y48.34
X100.682 Y48.376
X100.751 Y48.406
X100.914 Y48.467
X100.995 Y48.492
X101.078 Y48.508
X101.24 Y48.53
X101.339 Y48.536
X111.153 Y48.535
X111.216 Y48.532
X111.278 Y48.525
X111.441 Y48.497
X111.52 Y48.479
X111.597 Y48.453
X111.744 Y48.393
X111.812 Y48.362
X111.877 Y48.324
X111.993 Y48.247
X112.058 Y48.199
X112.116 Y48.145
X112.242 Y48.017
X112.297 Y47.954
X112.344 Y47.885
X112.426 Y47.753
X112.462 Y47.687
X112.491 Y47.618
X112.54 Y47.484
X112.561 Y47.417
X112.576 Y47.348
X112.598 Y47.214
X112.606 Y47.153
X112.608 Y47.091
Y41.803
X112.605 Y41.736
X112.596 Y41.669
X112.577 Y41.565
X112.594 Y41.473
X112.603 Y41.403
X112.608 Y41.313
X112.606 Y-51.6
X112.631 Y-51.597
X112.71 Y-51.591
Y48.636
X99.756
X99.755 Y-38.137
X99.752 Y-38.202
X99.744 Y-38.267
X99.715 Y-38.429
X99.696 Y-38.51
X99.668 Y-38.589
X99.604 Y-38.743
X99.566 Y-38.82
X99.52 Y-38.892
X99.417 Y-39.035
X99.373 Y-39.091
X99.323 Y-39.142
X99.304 Y-39.16 Z-2.999
X99.261 Y-39.197 Z-2.988
X99.22 Y-39.233 Z-2.967
X99.183 Y-39.266 Z-2.935
X99.136 Y-39.304 Z-2.869
X99.104 Y-39.327 Z-2.789
X99.093 Y-39.334 Z-2.7
G0 Z5
X26 Y-15.78
G1 Z-1 F333.3
Z-4
X25.996 Y-15.791 F700
X26.014 Y-15.796
X26.019 Y-15.79
X26.02 Y-15.784
X26.019 Y-15.778
X26.011 Y-15.768
X26.005
X26 Y-15.78
X25.996 Y-15.791 Z-3.998
X26.014 Y-15.796 Z-3.987
X26.019 Y-15.79 Z-3.976
Y-15.787 Z-3.96
G0 Z5
X26 Y-15.78
G1 Z-2 F333.3
Z-5
X25.996 Y-15.791 F700
X26.014 Y-15.795
X26.019 Y-15.79
X26.02 Y-15.784
X26.019 Y-15.778
X26.011 Y-15.768
X26.005
X26 Y-15.78
X25.996 Y-15.791 Z-4.998
X26.014 Y-15.795 Z-4.987
X26.019 Y-15.79 Z-4.976
X26.02 Y-15.787 Z-4.96
G0 Z5
X26 Y-15.78
G1 Z-3 F333.3
Z-6
X25.996 Y-15.791 F700
X26.013 Y-15.795
X26.019 Y-15.79
X26.02 Y-15.784
X26.019 Y-15.778
X26.011 Y-15.768
X26.005
X26 Y-15.78
X25.996 Y-15.791 Z-5.998
X26.013 Y-15.795 Z-5.988
X26.019 Y-15.79 Z-5.976
X26.02 Y-15.787 Z-5.96
G0 Z5
X26 Y-15.781
G1 Z-4 F333.3
Z-7
X25.996 Y-15.794 F700
X26.003 Y-15.796
X26.016 Y-15.794
X26.02 Y-15.784
X26.019 Y-15.778
X26.011 Y-15.768
X26.005
X26 Y-15.781
X25.996 Y-15.794 Z-6.998
X26.003 Y-15.796 Z-6.994
X26.016 Y-15.794 Z-6.982
X26.019 Y-15.787 Z-6.958
G0 Z5
X26 Y-15.78
G1 Z-5 F333.3
Z-8
X25.995 Y-15.794 F700
X26.001 Y-15.795
X26.016 Y-15.793
X26.019 Y-15.789
Y-15.778
X26.011 Y-15.768
X26.005
X26 Y-15.78
X25.995 Y-15.794 Z-7.997
X26.001 Y-15.795 Z-7.995
X26.016 Y-15.793 Z-7.98
X26.019 Y-15.789 Z-7.964
Y-15.788 Z-7.958
G0 Z5
X26.017 Y-15.785
G1 Z-6 F333.3
Z-9
X26.018 Y-15.778 F700
X26.01 Y-15.769
X26 Y-15.771
X25.995 Y-15.794
X26.015 Y-15.793
X26.017 Y-15.785
Z-8.7
G0 Z5
X26.014 Y-15.783
G1 Z-7 F333.3
Z-10
X26.013 Y-15.77 F700
X26 Y-15.772
X25.995 Y-15.794
X26.015 Y-15.792
X26.014 Y-15.783
Z-9.7
G0 Z5
X26.002 Y-15.779
G1 Z-8 F333.3
Z-11
X25.995 Y-15.794 F700
X26.014 Y-15.791
X26.021 Y-15.787
X26.018 Y-15.775
X26.007 Y-15.768
X26.002 Y-15.779
Z-10.7
G0 Z5
X26.001 Y-15.778
G1 Z-9 F333.3
Z-12
X25.995 Y-15.793 F700
X26.013 Y-15.791
X26.02 Y-15.783
X26.018 Y-15.777
X26.014 Y-15.772
X26.005 Y-15.768
X26.001 Y-15.778
Z-11.7
G0 Z5
X26.014 Y-15.776
G1 Z-10 F333.3
Z-13
X26.008 Y-15.768 F700
X26.001 Y-15.771
X25.996 Y-15.792
X26.013 Y-15.79
X26.02 Y-15.785
X26.014 Y-15.776
X26.008 Y-15.768 Z-12.999
X26.001 Y-15.771 Z-12.995
X25.997 Y-15.785 Z-12.981
X25.996 Y-15.79 Z-12.962
G0 Z5
X26.011 Y-15.771
G1 Z-11 F333.3
Z-14
X26.006 Y-15.77 F700
X25.999 Y-15.778
X25.996 Y-15.788
X26.011 Y-15.786
X26.018 Y-15.782
X26.016 Y-15.773
X26.011 Y-15.771
Z-13.7
G0 Z5
X26.008 Y-15.786
G1 Z-12 F333.3
Z-15
X26.016 Y-15.785 F700
X26.013 Y-15.774
X26.005 Y-15.773
X25.999 Y-15.778
X25.997 Y-15.787
X26.008 Y-15.786
Z-14.7
G0 Z5
X26.011 Y-15.778
G1 Z-13 F333.3
Z-16
X26.008 Y-15.773 F700
X25.996 Y-15.783
X26.014 Y-15.784
X26.011 Y-15.778
Z-15.7
G0 Z5
X26.007 Y-15.781
G1 Z-14 F333.3
Z-17
X25.999 Y-15.785 F700
X26.009 Y-15.784
X26.012 Y-15.778
X26.007 Y-15.781
Z-16.7
G0 Z5
G1 Z-15 F333.3
Z-18
X25.999 Y-15.785 F700
X26.009 Y-15.784
X26.012 Y-15.778
X26.007 Y-15.781
Z-17.7
G0 Z5
X-65.84 Y-53.052
G1 Z-1 F333.3
Z-4
X-65.838 Y-53.051 F700
X-65.839 Y-53.05
X-65.841 Y-53.049
X-65.843 Y-53.051
X-65.841 Y-53.053
X-65.84 Y-53.052
Z-3.7
G0 Z5
X-65.842
G1 Z-2 F333.3
Z-5
X-65.841 Y-53.053 F700
X-65.838 Y-53.051
X-65.839 Y-53.05
X-65.841 Y-53.049
X-65.843 Y-53.051
X-65.842 Y-53.052
Z-4.7
Z-3
Z-6 F333.3
X-65.841 Y-53.053 F700
X-65.838 Y-53.051
X-65.839 Y-53.05
X-65.841 Y-53.049
X-65.843 Y-53.051
X-65.842 Y-53.052
Z-5.7
G0 Z5
X-65.84
G1 Z-4 F333.3
Z-7
X-65.838 Y-53.051 F700
X-65.839 Y-53.05
X-65.841 Y-53.049
X-65.843 Y-53.051
X-65.841 Y-53.053
X-65.84 Y-53.052
Z-6.7
G0 Z5
X-65.842
G1 Z-5 F333.3
Z-8
X-65.841 Y-53.053 F700
X-65.838 Y-53.051
X-65.839 Y-53.05
X-65.841 Y-53.049
X-65.843 Y-53.051
X-65.842 Y-53.052
Z-7.7
G0 Z5
X-65.84
G1 Z-6 F333.3
Z-9
X-65.838 Y-53.051 F700
X-65.839 Y-53.05
X-65.841 Y-53.049
X-65.843 Y-53.051
X-65.841 Y-53.053
X-65.84 Y-53.052
Z-8.7
Z-7
Z-10 F333.3
X-65.838 Y-53.051 F700
X-65.839 Y-53.05
X-65.841 Y-53.049
X-65.843 Y-53.051
X-65.841 Y-53.053
X-65.84 Y-53.052
Z-9.7
G0 Z5
Y-53.05
G1 Z-8 F333.3
Z-11
X-65.841 Y-53.049 F700
X-65.843 Y-53.051
X-65.841 Y-53.053
X-65.838 Y-53.051
X-65.839 Y-53.05
X-65.84
Z-10.7
Z-9
Z-12 F333.3
X-65.841 Y-53.049 F700
X-65.843 Y-53.051
X-65.841 Y-53.053
X-65.838 Y-53.051
X-65.839 Y-53.05
X-65.84
Z-11.7
G0 Z5
X-65.842 Y-53.052
G1 Z-10 F333.3
Z-13
X-65.841 Y-53.053 F700
X-65.838 Y-53.051
X-65.839 Y-53.05
X-65.841 Y-53.049
X-65.843 Y-53.051
X-65.842 Y-53.052
Z-12.7
G0 Z5
X-65.84
G1 Z-11 F333.3
Z-14
X-65.838 Y-53.051 F700
X-65.839 Y-53.05
X-65.841 Y-53.049
X-65.843 Y-53.051
X-65.841 Y-53.053
X-65.84 Y-53.052
Z-13.7
G0 Z5
X-65.842 Y-53.051
G1 Z-12 F333.3
Z-15
X-65.841 Y-53.052 F700
Y-53.053
X-65.838 Y-53.051
X-65.839 Y-53.05
X-65.841 Y-53.049
X-65.842 Y-53.05
Y-53.051
Z-14.7
G0 Z5
X-65.839 Y-53.052
G1 Z-13 F333.3
Z-16
X-65.838 Y-53.051 F700
X-65.839 Y-53.05
X-65.841 Y-53.049
X-65.84 Y-53.053
X-65.839 Y-53.052
Z-15.7
G0 Z5
X-65.841 Y-53.051
G1 Z-14 F333.3
Z-17
X-65.842 Y-53.052 F700
X-65.841 Y-53.053
X-65.838 Y-53.051
X-65.839 Y-53.05
X-65.841 Y-53.049
Y-53.051
Z-16.7
G0 Z5
G1 Z-15 F333.3
Z-18
X-65.842 Y-53.052 F700
X-65.841 Y-53.053
X-65.838 Y-53.051
X-65.839 Y-53.05
X-65.841 Y-53.049
Y-53.051
Z-17.7
G0 Z5
X-65.842 Y41.559
G1 Z-1 F333.3
Z-4
X-65.843 Y41.557 F700
X-65.841 Y41.555
X-65.837 Y41.558
X-65.841 Y41.561
X-65.842 Y41.559
Z-3.7
Z-5 F333.3
Z-8
X-65.843 Y41.557 F700
X-65.841 Y41.555
X-65.837 Y41.558
X-65.841 Y41.561
X-65.842 Y41.559
Z-7.7
Z-6
Z-9 F333.3
X-65.843 Y41.557 F700
X-65.841 Y41.555
X-65.837 Y41.558
X-65.841 Y41.561
X-65.842 Y41.559
Z-8.7
G0 Z5
X-65.84 Y41.557
G1 Z-10 F333.3
Z-13
X-65.838 Y41.558 F700
X-65.842 Y41.561
X-65.843 Y41.557
X-65.842 Y41.556
X-65.84 Y41.557
Z-12.7
G0 Z5
X-65.842 Y41.559
G1 Z-12 F333.3
Z-15
Y41.557 F700
X-65.839 Y41.556
X-65.837
Y41.557
X-65.836
X-65.84 Y41.56
X-65.841
X-65.842 Y41.559
Z-14.7
G0 Z5
X-65.837 Y41.557
G1 Z-14 F333.3
Z-17
X-65.836 Y41.558 F700
X-65.837
X-65.841 Y41.559
Y41.558
X-65.837 Y41.556
Y41.557
Z-16.7
G0 Z5
X-65.838 Y41.556
G1 Z-15 F333.3
Z-18
X-65.837 F700
X-65.836 Y41.558
X-65.837
X-65.841 Y41.559
Y41.558
X-65.838 Y41.556
Z-17.7
G0 Z5
X-65.84 Y74
G1 Z-1 F333.3
Z-4
X-65.891 F700
X-65.885 Y69.148
X-65.85 Y68.996
X-65.846 Y68.99
X-65.837 Y68.989
X-65.833 Y68.991
X-65.83 Y68.995
X-65.793 Y69.156
X-65.788 Y74
X-65.84
X-65.891 Z-3.996
Y73.942 Z-3.979
Y73.889 Z-3.952
Y73.842 Z-3.915
Y73.804 Z-3.869
Y73.775 Z-3.817
Y73.757 Z-3.76
Y73.751 Z-3.7
G0 Z5
X112.66 Y41.557
G1 Z-1 F333.3
Z-4
X112.661 F700
X112.662 Y41.558
Y41.559
X112.659 Y41.56
X112.657 Y41.556
X112.66 Y41.557
Z-3.7
Z-2
Z-5 F333.3
X112.661 F700
X112.662 Y41.558
Y41.559
X112.659 Y41.56
X112.657 Y41.556
X112.66 Y41.557
Z-4.7
Z-3
Z-6 F333.3
X112.661 F700
X112.662 Y41.558
Y41.559
X112.659 Y41.56
X112.657 Y41.556
X112.66 Y41.557
Z-5.7
Z-4
Z-7 F333.3
X112.661 F700
X112.662 Y41.558
Y41.559
X112.659 Y41.56
X112.657 Y41.556
X112.66 Y41.557
Z-6.7
Z-5
Z-8 F333.3
X112.661 F700
X112.662 Y41.558
Y41.559
X112.659 Y41.56
X112.657 Y41.556
X112.66 Y41.557
Z-7.7
Z-6
Z-9 F333.3
X112.661 F700
X112.662 Y41.558
Y41.559
X112.659 Y41.56
X112.657 Y41.556
X112.66 Y41.557
Z-8.7
Z-7
Z-10 F333.3
X112.661 F700
X112.662 Y41.558
Y41.559
X112.659 Y41.56
X112.657 Y41.556
X112.66 Y41.557
Z-9.7
Z-8
Z-11 F333.3
X112.661 F700
X112.662 Y41.558
Y41.559
X112.659 Y41.56
X112.657 Y41.556
X112.66 Y41.557
Z-10.7
Z-9
Z-12 F333.3
X112.661 F700
X112.662 Y41.558
Y41.559
X112.659 Y41.56
X112.657 Y41.556
X112.66 Y41.557
Z-11.7
G0 Z5
X112.658 Y41.558
G1 Z-10 F333.3
Z-13
X112.657 Y41.557 F700
X112.659 Y41.556
X112.661 Y41.555
X112.662 Y41.558
X112.661 Y41.561
X112.659
X112.658 Y41.558
Z-12.7
G0 Z5
X112.661 Y41.557
G1 Z-11 F333.3
Z-14
X112.662 Y41.558 F700
X112.661 Y41.56
X112.658 Y41.559
Y41.558
X112.66 Y41.556
X112.661
Y41.557
Z-13.7
G0 Z5
X112.659
G1 Z-14 F333.3
Z-17
X112.657 F700
X112.659
X112.662 Y41.558
X112.659 Y41.557
Z-16.7
G0 Z5
G1 Z-15 F333.3
Z-18
X112.657 F700
X112.659
X112.662 Y41.558
X112.659 Y41.557
Z-17.7
G0 Z5
X5.206 Y55.302
Z2.05
G1 X4.265 Z1.969 F333.3
G17 G3 X4.265 Y55.002 I0 J-0.15
G1 X9.597 Z1.509
G3 X9.597 Y55.302 I0 J0.15
G1 X4.265 Z1.05
G3 X4.265 Y55.002 I0 J-0.15
G1 X9.597 Z0.591
G3 X9.597 Y55.302 I0 J0.15
G1 X4.265 Z0.131
G3 X4.265 Y55.002 I0 J-0.15
G1 X5.788 Z0
G3 X6.181 Y55.388 I0 J0.392
G1 X6.189 Y55.876
G2 X6.974 Y55.862 I0.392 J-0.007
X6.29 Y55.606 I-0.392 J0.007
X5.78 Y56.933 I1.471 J1.328 F700
X5.843 Y64.754 I476.987 J0.041
G3 X5.907 Y72.575 I-476.924 J7.78
X5.535 Y72.946 I-0.371 J0
G1 X5.283
G3 X4.913 Y72.575 I0 J-0.371
G1 X4.915 Y55.032
G3 X5.495 Y54.368 I0.671 J0
G1 X23.464 Y52.05
X91.074 Y52.049
G2 X93.041 Y50.084 I0 J-1.967
G1 Y-31.708
G2 X91.074 Y-33.679 I-1.972 J0
G1 X36.56 Y-33.555
X36.521 Y-33.557
X36.482 Y-33.563
X36.286 Y-33.605
X36.232 Y-33.621
X36.18 Y-33.646
X36.133 Y-33.677
X36.101 Y-33.703
X36.061 Y-33.741
X36.026 Y-33.784
X35.998 Y-33.832
X35.981 Y-33.868
X35.961 Y-33.921
X35.948 Y-33.976
X35.945 Y-34.032
Y-34.072
X35.949 Y-34.126
X35.961 Y-34.178
X35.981 Y-34.228
X35.999 Y-34.267
X36.027 Y-34.315
X36.062 Y-34.359
X36.103 Y-34.397
X36.131 Y-34.419
X36.176 Y-34.45
X36.226 Y-34.474
X36.279 Y-34.49
X36.484 Y-34.537
X36.525 Y-34.544
X36.566 Y-34.546
X93.008
G3 X93.906 Y-33.647 I0 J0.899
G1 X93.907 Y52.017
G3 X93.008 Y52.915 I-0.899 J0
G1 X23.239 Y52.823
X7.493 Y54.97
G2 X6.29 Y55.606 I0.269 J1.964
X6.39 Y56.934 I0.683 J0.617
G3 X6.96 Y58.138 I-0.986 J1.204
G1 X6.959 Y73.982
X6.956 Y73.996
X6.937 Y73.999
X3.87 Y73.997
X3.865 Y73.996
X3.86 Y73.955
X3.863 Y53.538
X3.877 Y53.528
X23.024 Y50.907
X23.407 Y50.87
X91.074 Y50.868
G2 X91.588 Y50.665 I0 J-0.75
G1 X91.624 Y50.631
G2 X91.86 Y50.084 I-0.514 J-0.546
G1 Y-31.708
G2 X91.672 Y-32.204 I-0.75 J0
G1 X91.636 Y-32.245
G2 X91.074 Y-32.499 I-0.562 J0.497
G1 X36.409 Y-32.502
X36.029 Y-32.584
X35.722 Y-32.66
X35.205 Y-33.071
X35.186 Y-33.093
X34.898 Y-33.694
X34.895 Y-33.702
X34.89 Y-33.816
X34.895 Y-34.394
X34.897 Y-34.4
X35.185 Y-35.004
X35.217 Y-35.037
X35.723 Y-35.439
X35.732 Y-35.444
X36.395 Y-35.596
X36.42 Y-35.599
X94.936 Y-35.598
X94.956 Y-35.595
X94.959 Y-35.58
Y53.945
X94.956 Y53.965
X94.936 Y53.968
X23.804 Y53.969
X23.753 Y53.971
X23.319 Y54
X23.269 Y54.006
X7.653 Y56.139
G2 X7.192 Y56.387 I0.102 J0.743
G1 X7.147 Y56.438
G2 X6.96 Y56.933 I0.563 J0.495
G1 Y58.138
X6.956 Y58.184 Z0.007
X6.946 Y58.229 Z0.015
X6.93 Y58.268 Z0.036
X6.91 Y58.304 Z0.057
X6.867 Y58.355 Z0.124
X6.834 Y58.382 Z0.207
X6.822 Y58.39 Z0.3
G0 Z5
X5.831 Y55.247
Z2
G1 Z-1 F333.3
X5.793 Y55.294 F700
X5.714 Y55.402
X5.671 Y55.468
X5.635 Y55.537
X5.561 Y55.7
X5.531 Y55.78
X5.509 Y55.864
X5.477 Y56.026
X5.466 Y56.098
X5.463 Y56.171
X5.462 Y74
X5.36
Y73.993
Y54.838
X23.421 Y52.371
X91.905 Y52.367
X91.969 Y52.364
X92.032 Y52.356
X92.195 Y52.328
X92.278 Y52.309
X92.358 Y52.281
X92.521 Y52.212
X92.591 Y52.179
X92.656 Y52.138
X92.765 Y52.063
X92.818 Y52.023
X92.868 Y51.978
X92.964 Y51.882
X93.009 Y51.833
X93.05 Y51.779
X93.126 Y51.671
X93.167 Y51.605
X93.201 Y51.536
X93.27 Y51.373
X93.299 Y51.293
X93.318 Y51.21
X93.347 Y51.047
X93.356 Y50.982
X93.359 Y50.917
X93.358 Y-32.557
X93.355 Y-32.628
X93.345 Y-32.698
X93.314 Y-32.861
X93.295 Y-32.936
X93.269 Y-33.009
X93.213 Y-33.143
X93.18 Y-33.212
X93.14 Y-33.278
X93.048 Y-33.411
X93.004 Y-33.469
X92.955 Y-33.522
X92.865 Y-33.611
X92.816 Y-33.655
X92.763 Y-33.695
X92.651 Y-33.772
X92.594 Y-33.807
X92.534 Y-33.837
X92.413 Y-33.892
X92.344 Y-33.919
X92.272 Y-33.939
X92.112 Y-33.975
X92.029 Y-33.989
X91.945 Y-33.994
X36.577 Y-33.999
X36.393 Y-34.042
X36.391 Y-34.052
X36.577 Y-34.099
X93.46
Y52.469
X23.804
X23.772
X23.338 Y52.488
X23.269 Y52.494
X18.932 Y53.082
X6.677 Y54.764
X6.594 Y54.78
X6.514 Y54.805
X6.351 Y54.866
X6.282 Y54.896
X6.216 Y54.933
X6.108 Y55.002
X6.051 Y55.041
X5.998 Y55.086
X5.888 Y55.188
X5.831 Y55.247
X5.793 Y55.294 Z-0.994
X5.765 Y55.333 Z-0.98
X5.738 Y55.369 Z-0.958
X5.714 Y55.402 Z-0.929
X5.682 Y55.45 Z-0.864
X5.663 Y55.481 Z-0.786
X5.657 Y55.492 Z-0.7
G0 Z5
X5.831 Y55.247
Z1
G1 Z-2 F333.3
X5.793 Y55.294 F700
X5.714 Y55.402
X5.671 Y55.468
X5.635 Y55.537
X5.561 Y55.7
X5.531 Y55.78
X5.509 Y55.864
X5.477 Y56.026
X5.466 Y56.098
X5.463 Y56.171
X5.462 Y74
X5.36
Y73.993
Y54.838
X23.034 Y52.42
X23.417 Y52.372
X91.905 Y52.367
X91.969 Y52.364
X92.032 Y52.356
X92.195 Y52.328
X92.278 Y52.309
X92.358 Y52.281
X92.521 Y52.212
X92.591 Y52.179
X92.656 Y52.138
X92.765 Y52.063
X92.818 Y52.023
X92.868 Y51.978
X92.964 Y51.882
X93.009 Y51.833
X93.05 Y51.779
X93.126 Y51.671
X93.167 Y51.605
X93.201 Y51.536
X93.27 Y51.373
X93.299 Y51.293
X93.318 Y51.21
X93.347 Y51.047
X93.356 Y50.982
X93.359 Y50.917
X93.358 Y-32.557
X93.355 Y-32.628
X93.345 Y-32.698
X93.314 Y-32.861
X93.295 Y-32.936
X93.269 Y-33.009
X93.213 Y-33.143
X93.18 Y-33.212
X93.14 Y-33.278
X93.048 Y-33.411
X93.004 Y-33.469
X92.955 Y-33.522
X92.865 Y-33.611
X92.816 Y-33.655
X92.763 Y-33.695
X92.651 Y-33.772
X92.594 Y-33.807
X92.534 Y-33.837
X92.413 Y-33.892
X92.344 Y-33.919
X92.272 Y-33.939
X92.112 Y-33.975
X92.029 Y-33.989
X91.945 Y-33.994
X36.577 Y-33.999
X36.394 Y-34.041
Y-34.056
X36.577 Y-34.099
X93.46
Y52.469
X23.804
X23.772
X23.338 Y52.488
X23.269 Y52.494
X18.932 Y53.082
X6.677 Y54.764
X6.594 Y54.78
X6.514 Y54.805
X6.351 Y54.866
X6.282 Y54.896
X6.216 Y54.933
X6.108 Y55.002
X6.051 Y55.041
X5.998 Y55.086
X5.888 Y55.188
X5.831 Y55.247
X5.793 Y55.294 Z-1.994
X5.765 Y55.333 Z-1.98
X5.738 Y55.369 Z-1.958
X5.714 Y55.402 Z-1.929
X5.682 Y55.45 Z-1.864
X5.663 Y55.481 Z-1.786
X5.657 Y55.492 Z-1.7
G0 Z5
X5.831 Y55.247
Z3
G1 Z0 F333.3
Z-3
X5.793 Y55.294 F700
X5.714 Y55.402
X5.671 Y55.468
X5.635 Y55.537
X5.561 Y55.7
X5.531 Y55.78
X5.509 Y55.864
X5.477 Y56.026
X5.466 Y56.098
X5.463 Y56.171
X5.462 Y74
X5.36
Y73.993
Y54.838
X23.033 Y52.42
X23.416 Y52.373
X91.905 Y52.367
X91.969 Y52.364
X92.032 Y52.356
X92.195 Y52.328
X92.278 Y52.309
X92.358 Y52.281
X92.521 Y52.212
X92.591 Y52.179
X92.656 Y52.138
X92.765 Y52.063
X92.818 Y52.023
X92.868 Y51.978
X92.964 Y51.882
X93.009 Y51.833
X93.05 Y51.779
X93.126 Y51.671
X93.167 Y51.605
X93.201 Y51.536
X93.27 Y51.373
X93.299 Y51.293
X93.318 Y51.21
X93.347 Y51.047
X93.356 Y50.982
X93.359 Y50.917
X93.358 Y-32.557
X93.355 Y-32.628
X93.345 Y-32.698
X93.314 Y-32.861
X93.295 Y-32.936
X93.269 Y-33.009
X93.213 Y-33.143
X93.18 Y-33.212
X93.14 Y-33.278
X93.048 Y-33.411
X93.004 Y-33.469
X92.955 Y-33.522
X92.865 Y-33.611
X92.816 Y-33.655
X92.763 Y-33.695
X92.651 Y-33.772
X92.594 Y-33.807
X92.534 Y-33.837
X92.413 Y-33.892
X92.344 Y-33.919
X92.272 Y-33.939
X92.112 Y-33.975
X92.029 Y-33.989
X91.945 Y-33.994
X36.577 Y-33.999
X36.393 Y-34.042
Y-34.056
X36.577 Y-34.099
X93.46
Y52.469
X23.804
X23.772
X23.338 Y52.488
X23.269 Y52.494
X18.932 Y53.082
X6.677 Y54.764
X6.594 Y54.78
X6.514 Y54.805
X6.351 Y54.866
X6.282 Y54.896
X6.216 Y54.933
X6.108 Y55.002
X6.051 Y55.041
X5.998 Y55.086
X5.888 Y55.188
X5.831 Y55.247
X5.793 Y55.294 Z-2.994
X5.765 Y55.333 Z-2.98
X5.738 Y55.369 Z-2.958
X5.714 Y55.402 Z-2.929
X5.682 Y55.45 Z-2.864
X5.663 Y55.481 Z-2.786
X5.657 Y55.492 Z-2.7
G0 Z5
X5.36 Y73.949
G1 Z-1 F333.3
Z-4
Y70.174 F700
X5.401 Y69.984
X5.411 Y69.979
X5.419 Y69.986
X5.46 Y70.174
X5.462 Y74
X5.36
Y73.993
Y73.949
G19 G2 Y73.649 Z-3.7 J0 K0.3
G0 Z5
X23.391 Y52.411
G1 Z-1 F333.3
Z-4
X23.396 Y52.398 F700
X23.405 Y52.394
X23.42 Y52.397
X23.434 Y52.415
X23.427 Y52.437
X23.412 Y52.443
X23.404 Y52.441
X23.392 Y52.432
X23.386 Y52.422
X23.391 Y52.411
X23.396 Y52.398 Z-3.999
X23.405 Y52.394 Z-3.996
X23.42 Y52.397 Z-3.989
X23.434 Y52.415 Z-3.968
X23.431 Y52.424 Z-3.948
X23.43 Y52.427 Z-3.926
G0 Z5
X23.391 Y52.411
G1 Z-2 F333.3
Z-5
X23.396 Y52.398 F700
X23.403 Y52.395
X23.42 Y52.398
X23.434 Y52.415
X23.427 Y52.437
X23.411 Y52.443
X23.404 Y52.441
X23.393 Y52.432
X23.387 Y52.423
X23.391 Y52.411
X23.396 Y52.398 Z-4.999
X23.403 Y52.395 Z-4.997
X23.42 Y52.398 Z-4.989
X23.434 Y52.415 Z-4.967
X23.431 Y52.424 Z-4.948
X23.43 Y52.426 Z-4.927
G0 Z5
X23.391 Y52.409
G1 Z-3 F333.3
Z-6
X23.397 Y52.398 F700
X23.406 Y52.394
X23.418 Y52.396
X23.433 Y52.415
X23.434 Y52.42
X23.427 Y52.436
X23.411 Y52.443
X23.404 Y52.441
X23.389 Y52.43
X23.387 Y52.417
X23.391 Y52.409
X23.397 Y52.398 Z-5.999
X23.406 Y52.394 Z-5.996
X23.418 Y52.396 Z-5.991
X23.433 Y52.415 Z-5.971
X23.434 Y52.42 Z-5.963
X23.431 Y52.426 Z-5.945
X23.43 Y52.428 Z-5.927
G0 Z5
X23.389 Y52.415
G1 Z-4 F333.3
Z-7
X23.39 Y52.406 F700
X23.394 Y52.4
X23.404 Y52.395
X23.418 Y52.398
X23.43 Y52.412
X23.432 Y52.421
X23.429 Y52.431
X23.409 Y52.44
X23.393 Y52.436
X23.388 Y52.42
X23.389 Y52.415
X23.39 Y52.406 Z-6.999
X23.394 Y52.4 Z-6.998
X23.404 Y52.395 Z-6.995
X23.418 Y52.398 Z-6.986
X23.43 Y52.412 Z-6.966
X23.432 Y52.421 Z-6.943
Y52.422 Z-6.93
G0 Z5
X23.423 Y52.407
G1 Z-5 F333.3
Z-8
X23.433 Y52.418 F700
X23.432 Y52.429
X23.409 Y52.441
X23.394 Y52.437
X23.39 Y52.42
X23.393 Y52.401
X23.41 Y52.394
X23.423 Y52.407
X23.433 Y52.418 Z-7.998
X23.432 Y52.429 Z-7.995
X23.409 Y52.441 Z-7.976
X23.394 Y52.437 Z-7.948
X23.393 Y52.434 Z-7.929
G0 Z5
X23.397 Y52.425
G1 Z-6 F333.3
Z-9
X23.392 Y52.41 F700
X23.393 Y52.403
X23.41 Y52.395
X23.432 Y52.419
X23.434 Y52.425
X23.409 Y52.44
X23.403
X23.397 Y52.425
X23.392 Y52.41 Z-8.998
X23.393 Y52.403 Z-8.996
X23.41 Y52.395 Z-8.984
X23.422 Y52.407 Z-8.962
X23.426 Y52.412 Z-8.934
G0 Z5
X23.419 Y52.432
G1 Z-7 F333.3
Z-10
X23.412 Y52.437 F700
X23.403
X23.398 Y52.434
X23.392 Y52.411
X23.393 Y52.406
X23.408 Y52.397
X23.417 Y52.401
X23.426 Y52.413
X23.429 Y52.426
X23.419 Y52.432
X23.412 Y52.437 Z-9.999
X23.403 Z-9.997
X23.398 Y52.434 Z-9.996
X23.392 Y52.411 Z-9.978
X23.393 Y52.406 Z-9.97
X23.4 Y52.402 Z-9.94
G0 Z5
X23.424 Y52.424
G1 Z-8 F333.3
Z-11
X23.422 Y52.43 F700
X23.41 Y52.436
X23.403
X23.397 Y52.428
X23.394 Y52.414
X23.396 Y52.407
X23.405 Y52.402
X23.415
X23.427 Y52.416
X23.424 Y52.424
Z-10.7
G0 Z5
X23.418 Y52.41
G1 Z-9 F333.3
Z-12
X23.424 Y52.415 F700
X23.425 Y52.42
X23.421 Y52.427
X23.41 Y52.433
X23.4 Y52.429
X23.396 Y52.417
X23.398 Y52.41
X23.411 Y52.404
X23.418 Y52.41
X23.424 Y52.415 Z-11.999
X23.425 Y52.42 Z-11.998
X23.421 Y52.427 Z-11.995
X23.41 Y52.433 Z-11.984
X23.403 Y52.43 Z-11.972
X23.4 Y52.429 Z-11.958
Z-11.956
G0 Z5
X23.405 Y52.414
G1 Z-10 F333.3
Z-13
X23.41 Y52.408 F700
X23.42 Y52.413
X23.414 Y52.428
X23.404 Y52.426
X23.399 Y52.42
X23.405 Y52.414
Z-12.7
G0 Z5
G1 Z-11 F333.3
Z-14
X23.41 Y52.408 F700
X23.42 Y52.413
X23.414 Y52.428
X23.404 Y52.426
X23.399 Y52.42
X23.405 Y52.414
Z-13.7
Z-12
Z-15 F333.3
X23.41 Y52.408 F700
X23.42 Y52.413
X23.414 Y52.428
X23.404 Y52.426
X23.399 Y52.42
X23.405 Y52.414
Z-14.7
Z-13
Z-16 F333.3
X23.41 Y52.408 F700
X23.42 Y52.413
X23.414 Y52.428
X23.404 Y52.426
X23.399 Y52.42
X23.405 Y52.414
Z-15.7
Z-14
Z-17 F333.3
X23.41 Y52.408 F700
X23.42 Y52.413
X23.414 Y52.428
X23.404 Y52.426
X23.399 Y52.42
X23.405 Y52.414
Z-16.7
Z-15
Z-18 F333.3
X23.41 Y52.408 F700
X23.42 Y52.413
X23.414 Y52.428
X23.404 Y52.426
X23.399 Y52.42
X23.405 Y52.414
Z-17.7
G0 Z5
X36.394 Y-34.048
G1 Z-1 F333.3
Z-4
X36.393 Y-34.056 F700
X36.404 Y-34.06
X36.41 Y-34.056
X36.413 Y-34.051
Y-34.046
X36.41 Y-34.042
X36.406 Y-34.039
X36.394 Y-34.041
Y-34.048
X36.393 Y-34.056 Z-3.999
X36.404 Y-34.06 Z-3.993
X36.41 Y-34.056 Z-3.986
X36.413 Y-34.051 Z-3.976
Y-34.05 Z-3.966
G0 Z5
X36.394 Y-34.048
G1 Z-2 F333.3
Z-5
X36.393 Y-34.057 F700
X36.404 Y-34.06
X36.41 Y-34.056
X36.413 Y-34.051
Y-34.046
X36.41 Y-34.042
X36.406 Y-34.039
X36.394 Y-34.041
Y-34.048
X36.393 Y-34.057 Z-4.999
X36.404 Y-34.06 Z-4.993
X36.41 Y-34.056 Z-4.986
X36.413 Y-34.051 Z-4.976
Y-34.05 Z-4.966
G0 Z5
X36.395 Y-34.049
G1 Z-3 F333.3
Z-6
X36.394 Y-34.057 F700
X36.404 Y-34.06
X36.41 Y-34.056
X36.413 Y-34.051
Y-34.046
X36.41 Y-34.042
X36.406 Y-34.039
X36.395 Y-34.04
Y-34.049
X36.394 Y-34.057 Z-5.999
X36.404 Y-34.06 Z-5.994
X36.41 Y-34.056 Z-5.988
X36.413 Y-34.051 Z-5.98
Y-34.049 Z-5.967
G0 Z5
X36.412 Y-34.053
G1 Z-4 F333.3
Z-7
X36.413 Y-34.051 F700
Y-34.046
X36.41 Y-34.042
X36.406 Y-34.039
X36.396 Y-34.041
X36.395 Y-34.057
X36.406 Y-34.059
X36.41 Y-34.056
X36.412 Y-34.053
X36.413 Y-34.051
Y-34.046 Z-6.999
X36.41 Y-34.042 Z-6.998
X36.406 Y-34.039 Z-6.995
X36.396 Y-34.041 Z-6.983
Y-34.045 Z-6.968
G0 Z5
X36.404 Y-34.042
G1 Z-5 F333.3
Z-8
X36.396 F700
Y-34.056
X36.407 Y-34.059
X36.413 Y-34.051
Y-34.046
X36.41 Y-34.042
X36.404
Z-7.7
G0 Z5
X36.4 Y-34.049
G1 Z-6 F333.3
Z-9
X36.398 Y-34.058 F700
X36.406 Y-34.059
X36.41 Y-34.056
X36.413 Y-34.051
Y-34.046
X36.41 Y-34.042
X36.406 Y-34.039
X36.401 Y-34.037
X36.4 Y-34.049
Z-8.7
G0 Z5
X36.405 Y-34.048
G1 Z-7 F333.3
Z-10
X36.398 Y-34.057 F700
X36.413 Y-34.05
X36.41 Y-34.041
X36.405 Y-34.048
Z-9.7
G0 Z5
X36.407 Y-34.049
G1 Z-8 F333.3
Z-11
X36.398 Y-34.056 F700
X36.412 Y-34.046
X36.407 Y-34.049
X36.398 Y-34.056 Z-10.996
X36.403 Y-34.052 Z-10.983
G0 Z5
X36.409 Y-34.053
G1 Z-9 F333.3
Z-12
X36.41 Y-34.052 F700
Y-34.045
X36.407 Y-34.04
X36.398 Y-34.045
Y-34.055
X36.406 Y-34.058
X36.409 Y-34.053
Z-11.7
G0 Z5
X36.404 Y-34.051
G1 Z-10 F333.3
Z-13
X36.41 F700
Y-34.045
X36.403 Y-34.039
X36.398 Y-34.051
X36.404
Z-12.7
G0 Z5
X36.407 Y-34.048
G1 Z-11 F333.3
Z-14
X36.406 Y-34.041 F700
X36.4 Y-34.042
X36.398 Y-34.052
X36.403 Y-34.056
X36.408 Y-34.055
X36.407 Y-34.048
Z-13.7
G0 Z5
X36.402 Y-34.049
G1 Z-12 F333.3
Z-15
X36.404 Y-34.056 F700
X36.406 Y-34.044
X36.401 Y-34.045
X36.402 Y-34.049
Z-14.7
G0 Z5
X36.403 Y-34.05
G1 Z-13 F333.3
Z-16
X36.405 Y-34.051 F700
X36.398 Y-34.05
X36.403
Z-15.7
G0 Z5
G1 Z-14 F333.3
Z-17
X36.405 Y-34.051 F700
X36.398 Y-34.05
X36.403
Z-16.7
Z-15
Z-18 F333.3
X36.398 F700
X36.405 Y-34.051
X36.403 Y-34.05
Z-17.7
G0 Z5
X25.948 Y58.434
Z2.05
G1 X20.816 Z1.608 F333.3
G17 G3 X20.816 Y58.134 I0 J-0.15
G1 X26.149 Z1.149
G3 X26.149 Y58.434 I0 J0.15
G1 X20.816 Z0.689
G3 X20.816 Y58.134 I0 J-0.15
G1 X26.149 Z0.23
G3 X26.149 Y58.434 I0 J0.15
G1 X23.482 Z0
X23.47
G3 X23.442 Y57.951 I0.002 J-0.242
G1 X23.804 Y57.907 F700
X128.56 Y57.906
G2 X130.521 Y55.939 I0 J-1.962
G1 X130.395 Y7.571
X130.397 Y7.528
X130.405 Y7.486
X130.449 Y7.298
X130.465 Y7.246
X130.489 Y7.197
X130.52 Y7.152
X130.55 Y7.114
X130.588 Y7.073
X130.632 Y7.038
X130.681 Y7.01
X130.709 Y6.997
X130.76 Y6.977
X130.812 Y6.965
X130.866 Y6.961
X130.911 Y6.96
X130.968 Y6.965
X131.023 Y6.977
X131.076 Y6.998
X131.108 Y7.014
X131.156 Y7.042
X131.2 Y7.076
X131.237 Y7.117
X131.259 Y7.145
X131.29 Y7.19
X131.313 Y7.239
X131.329 Y7.291
X131.362 Y7.448
X131.374 Y7.527
X131.379 Y7.607
X131.384 Y57.875
G3 X130.486 Y58.773 I-0.899 J0
G1 X23.108 Y58.69
X13.507 Y60.004
G2 X11.78 Y61.977 I0.271 J1.98
G1 X11.907 Y72.24
G3 X10.914 Y72.24 I-0.496 J0
G1 X10.915 Y60.068
G3 X11.495 Y59.404 I0.671 J0
G1 X23.442 Y57.951
G2 X24.266 Y57.313 I-0.123 J-1.01
G3 X25.127 Y56.727 I0.861 J0.339
G1 X128.56 Y56.726
G2 X129.13 Y56.463 I0 J-0.75
G1 X129.161 Y56.427
G2 X129.341 Y55.939 I-0.57 J-0.488
G1 X129.343 Y7.434
X129.367 Y7.302
X129.496 Y6.751
X129.499 Y6.745
X129.926 Y6.208
X129.985 Y6.176
X130.543 Y5.911
X131.213 Y5.907
X131.234 Y5.91
X131.292 Y5.933
X131.852 Y6.206
X131.892 Y6.249
X132.278 Y6.737
X132.284 Y6.751
X132.436 Y7.407
X132.441 Y7.592
X132.436 Y59.822
X132.41 Y59.825
X23.804 Y59.826
X23.757 Y59.827
X23.324 Y59.854
X23.268 Y59.86
X13.667 Y61.174
G2 X13.229 Y61.396 I0.102 J0.743
G1 X13.17 Y61.457
G2 X12.96 Y61.977 I0.54 J0.52
G1 X12.959 Y73.982
X12.956 Y73.996
X12.919 Y74
X9.879 Y73.999
X9.864 Y73.996
X9.862 Y73.982
X9.863 Y58.575
X10.894 Y58.424
X23.024 Y56.764
X23.407 Y56.727
X25.127
X25.174 Y56.73 Z0.007
X25.219 Y56.741 Z0.015
X25.258 Y56.756 Z0.036
X25.294 Y56.777 Z0.057
X25.345 Y56.82 Z0.124
X25.372 Y56.852 Z0.207
X25.38 Y56.865 Z0.3
G0 Z5
X23.418 Y58.228
Z2
G1 Z-1 F333.3
X23.421 F700
X129.42 Y58.221
X129.5 Y58.217
X129.579 Y58.204
X129.738 Y58.17
X129.813 Y58.15
X129.885 Y58.122
X130.019 Y58.062
X130.08 Y58.031
X130.139 Y57.994
X130.244 Y57.921
X130.299 Y57.879
X130.351 Y57.832
X130.456 Y57.726
X130.503 Y57.674
X130.544 Y57.618
X130.617 Y57.511
X130.657 Y57.446
X130.689 Y57.377
X130.756 Y57.214
X130.782 Y57.14
X130.801 Y57.063
X130.826 Y56.927
X130.835 Y56.86
X130.838 Y56.792
X130.841 Y7.599
X130.856 Y7.519
X130.88 Y7.413
X130.895 Y7.406
X130.901 Y7.412
X130.939 Y7.579
X130.941 Y7.604
Y58.326
X23.587 Y58.328
X23.54 Y58.329
X23.323 Y58.343
X23.268 Y58.348
X12.695 Y59.795
X12.622 Y59.809
X12.551 Y59.83
X12.389 Y59.886
X12.31 Y59.918
X12.236 Y59.959
X12.097 Y60.047
X12.036 Y60.089
X11.98 Y60.137
X11.886 Y60.226
X11.839 Y60.274
X11.796 Y60.327
X11.713 Y60.439
X11.67 Y60.506
X11.633 Y60.577
X11.56 Y60.739
X11.529 Y60.82
X11.508 Y60.903
X11.476 Y61.065
X11.466 Y61.137
X11.463 Y61.209
X11.462 Y73.999
X11.36
Y73.993
Y59.875
X23.418 Y58.228
X23.421
X23.487 Z-0.992
X23.55 Z-0.969
X23.606 Z-0.933
X23.653 Z-0.886
X23.688 Z-0.829
X23.71 Z-0.766
X23.717 Z-0.7
G0 Z5
X23.42 Y58.229
Z1
G1 Z-2 F333.3
X129.42 Y58.221 F700
X129.5 Y58.217
X129.579 Y58.204
X129.738 Y58.17
X129.813 Y58.15
X129.885 Y58.122
X130.019 Y58.062
X130.08 Y58.031
X130.139 Y57.994
X130.244 Y57.921
X130.299 Y57.879
X130.351 Y57.832
X130.456 Y57.726
X130.503 Y57.674
X130.544 Y57.618
X130.617 Y57.511
X130.657 Y57.446
X130.689 Y57.377
X130.756 Y57.214
X130.782 Y57.14
X130.801 Y57.063
X130.826 Y56.927
X130.835 Y56.86
X130.838 Y56.792
X130.841 Y7.599
X130.856 Y7.519
X130.88 Y7.413
X130.895 Y7.406
X130.901 Y7.412
X130.939 Y7.579
X130.941 Y7.604
Y58.326
X23.587 Y58.328
X23.54 Y58.329
X23.323 Y58.343
X23.268 Y58.348
X12.695 Y59.795
X12.622 Y59.809
X12.551 Y59.83
X12.389 Y59.886
X12.31 Y59.918
X12.236 Y59.959
X12.097 Y60.047
X12.036 Y60.089
X11.98 Y60.137
X11.886 Y60.226
X11.839 Y60.274
X11.796 Y60.327
X11.713 Y60.439
X11.67 Y60.506
X11.633 Y60.577
X11.56 Y60.739
X11.529 Y60.82
X11.508 Y60.903
X11.476 Y61.065
X11.466 Y61.137
X11.463 Y61.209
X11.462 Y73.999
X11.36
Y73.993
Y59.874
X23.034 Y58.277
X23.417 Y58.229
X23.42
X23.487 Z-1.992
X23.55 Z-1.97
X23.607 Z-1.935
X23.655 Z-1.887
X23.69 Z-1.83
X23.712 Z-1.767
X23.72 Z-1.7
G0 Z5
X23.419 Y58.23
Z3
G1 Z0 F333.3
Z-3
X129.42 Y58.221 F700
X129.5 Y58.217
X129.579 Y58.204
X129.738 Y58.17
X129.813 Y58.15
X129.885 Y58.122
X130.019 Y58.062
X130.08 Y58.031
X130.139 Y57.994
X130.244 Y57.921
X130.299 Y57.879
X130.351 Y57.832
X130.456 Y57.726
X130.503 Y57.674
X130.544 Y57.618
X130.617 Y57.511
X130.657 Y57.446
X130.689 Y57.377
X130.756 Y57.214
X130.782 Y57.14
X130.801 Y57.063
X130.826 Y56.927
X130.835 Y56.86
X130.838 Y56.792
X130.841 Y7.599
X130.856 Y7.519
X130.88 Y7.413
X130.895 Y7.406
X130.901 Y7.412
X130.939 Y7.579
X130.941 Y7.604
Y58.326
X23.587 Y58.328
X23.54 Y58.329
X23.323 Y58.343
X23.268 Y58.348
X12.695 Y59.795
X12.622 Y59.809
X12.551 Y59.83
X12.389 Y59.886
X12.31 Y59.918
X12.236 Y59.959
X12.097 Y60.047
X12.036 Y60.089
X11.98 Y60.137
X11.886 Y60.226
X11.839 Y60.274
X11.796 Y60.327
X11.713 Y60.439
X11.67 Y60.506
X11.633 Y60.577
X11.56 Y60.739
X11.529 Y60.82
X11.508 Y60.903
X11.476 Y61.065
X11.466 Y61.137
X11.463 Y61.209
X11.462 Y73.999
X11.36
Y73.993
Y59.874
X23.033 Y58.277
X23.416 Y58.23
X23.419
X23.486 Z-2.992
X23.549 Z-2.97
X23.606 Z-2.935
X23.654 Z-2.887
X23.689 Z-2.83
X23.711 Z-2.767
X23.719 Z-2.7
G0 Z5
X23.409 Y58.295
G1 Z-1 F333.3
Z-4
X23.396 Y58.294 F700
X23.389 Y58.275
X23.391 Y58.265
X23.407 Y58.252
X23.419 Y58.254
X23.433 Y58.271
X23.432 Y58.285
X23.421 Y58.297
X23.409 Y58.295
X23.396 Y58.294 Z-3.999
X23.389 Y58.275 Z-3.992
X23.391 Y58.265 Z-3.985
X23.407 Y58.252 Z-3.959
X23.413 Y58.253 Z-3.93
G0 Z5
X23.426 Y58.291
G1 Z-2 F333.3
Z-5
X23.421 Y58.297 F700
X23.412 Y58.3
X23.402 Y58.298
X23.394 Y58.292
X23.389 Y58.274
X23.391 Y58.265
X23.407 Y58.252
X23.421 Y58.255
X23.433 Y58.271
X23.432 Y58.285
X23.426 Y58.291
X23.421 Y58.297
X23.412 Y58.3 Z-4.998
X23.402 Y58.298 Z-4.994
X23.394 Y58.292 Z-4.989
X23.389 Y58.274 Z-4.972
X23.391 Y58.265 Z-4.957
X23.395 Y58.261 Z-4.929
G0 Z5
X23.426 Y58.291
G1 Z-3 F333.3
Z-6
X23.421 Y58.297 F700
X23.412 Y58.3
X23.402 Y58.298
X23.395 Y58.293
X23.389 Y58.272
X23.391 Y58.265
X23.407 Y58.252
X23.419 Y58.254
X23.433 Y58.271
X23.432 Y58.285
X23.426 Y58.291
X23.421 Y58.297
X23.412 Y58.3 Z-5.998
X23.402 Y58.298 Z-5.994
X23.395 Y58.293 Z-5.99
X23.389 Y58.272 Z-5.97
X23.391 Y58.265 Z-5.957
X23.395 Y58.261 Z-5.929
G0 Z5
X23.43 Y58.274
G1 Z-4 F333.3
Z-7
X23.432 Y58.28 F700
X23.428 Y58.289
X23.42 Y58.297
X23.414 Y58.299
X23.401 Y58.296
X23.395 Y58.292
X23.39 Y58.27
X23.391 Y58.262
X23.398 Y58.255
X23.406 Y58.253
X23.419 Y58.255
X23.428 Y58.265
X23.43 Y58.274
X23.432 Y58.28
X23.428 Y58.289 Z-6.998
X23.42 Y58.297 Z-6.995
X23.414 Y58.299 Z-6.991
X23.401 Y58.296 Z-6.982
X23.395 Y58.292 Z-6.974
X23.393 Y58.281 Z-6.954
X23.392 Y58.277 Z-6.931
G0 Z5
X23.396 Y58.284
G1 Z-5 F333.3
Z-8
X23.392 Y58.263 F700
X23.411 Y58.252
X23.416 Y58.253
X23.428 Y58.267
X23.432 Y58.284
X23.429 Y58.29
X23.424 Y58.295
X23.415 Y58.299
X23.399 Y58.295
X23.396 Y58.284
X23.392 Y58.263 Z-7.997
X23.411 Y58.252 Z-7.985
X23.416 Y58.253 Z-7.979
X23.424 Y58.262 Z-7.963
X23.428 Y58.267 Z-7.944
Y58.268 Z-7.932
G0 Z5
X23.398 Y58.282
G1 Z-6 F333.3
Z-9
X23.393 Y58.268 F700
X23.401 Y58.254
X23.408 Y58.252
X23.419 Y58.257
X23.428 Y58.268
X23.431 Y58.279
X23.43 Y58.287
X23.404 Y58.298
X23.398 Y58.282
X23.393 Y58.268 Z-8.998
X23.401 Y58.254 Z-8.993
X23.408 Y58.252 Z-8.988
X23.419 Y58.257 Z-8.976
X23.425 Y58.265 Z-8.961
X23.428 Y58.268 Z-8.943
Y58.269 Z-8.935
G0 Z5
X23.419 Y58.288
G1 Z-7 F333.3
Z-10
X23.406 Y58.296 F700
X23.397 Y58.285
X23.394 Y58.271
X23.396 Y58.263
X23.4 Y58.258
X23.411 Y58.253
X23.416 Y58.256
X23.427 Y58.269
X23.43 Y58.282
X23.419 Y58.288
X23.406 Y58.296 Z-9.998
X23.397 Y58.285 Z-9.992
X23.394 Y58.271 Z-9.982
X23.396 Y58.263 Z-9.971
X23.4 Y58.258 Z-9.952
X23.401 Y58.257 Z-9.941
G0 Z5
X23.408 Y58.262
G1 Z-8 F333.3
Z-11
X23.416 Y58.261 F700
X23.425 Y58.271
X23.427 Y58.278
X23.426 Y58.284
X23.406 Y58.293
X23.397 Y58.282
X23.395 Y58.274
X23.397 Y58.264
X23.408 Y58.262
X23.416 Y58.261 Z-10.999
X23.425 Y58.271 Z-10.995
X23.427 Y58.278 Z-10.991
X23.426 Y58.284 Z-10.985
X23.416 Y58.289 Z-10.969
X23.412 Y58.29 Z-10.95
G0 Z5
X23.421 Y58.283
G1 Z-9 F333.3
Z-12
X23.419 Y58.286 F700
X23.413 Y58.289
X23.407
X23.398 Y58.281
X23.402 Y58.264
X23.408 Y58.261
X23.417 Y58.264
X23.423 Y58.271
X23.425 Y58.278
X23.421 Y58.283
X23.419 Y58.286
X23.413 Y58.289 Z-11.999
X23.407 Z-11.997
X23.398 Y58.281 Z-11.989
X23.401 Y58.271 Z-11.975
Y58.267 Z-11.958
G0 Z5
X23.402 Y58.276
G1 Z-10 F333.3
Z-13
Y58.27 F700
X23.409 Y58.266
X23.42 Y58.271
X23.419 Y58.282
X23.408 Y58.285
X23.402 Y58.282
Y58.276
Z-12.7
G0 Z5
G1 Z-11 F333.3
Z-14
Y58.27 F700
X23.409 Y58.266
X23.42 Y58.271
X23.419 Y58.282
X23.408 Y58.285
X23.402 Y58.282
Y58.276
Z-13.7
Z-12
Z-15 F333.3
Y58.27 F700
X23.409 Y58.266
X23.42 Y58.271
X23.419 Y58.282
X23.408 Y58.285
X23.402 Y58.282
Y58.276
Z-14.7
Z-13
Z-16 F333.3
Y58.27 F700
X23.409 Y58.266
X23.42 Y58.271
X23.419 Y58.282
X23.408 Y58.285
X23.402 Y58.282
Y58.276
Z-15.7
Z-14
Z-17 F333.3
Y58.27 F700
X23.409 Y58.266
X23.42 Y58.271
X23.419 Y58.282
X23.408 Y58.285
X23.402 Y58.282
Y58.276
Z-16.7
Z-15
Z-18 F333.3
Y58.27 F700
X23.409 Y58.266
X23.42 Y58.271
X23.419 Y58.282
X23.408 Y58.285
X23.402 Y58.282
Y58.276
Z-17.7
G0 Z5
X11.411 Y73.999
G1 Z-1 F333.3
Z-4
X11.36 F700
Y73.993
Y70.174
X11.401 Y69.986
X11.405 Y69.981
X11.415
X11.46 Y70.174
X11.462 Y73.999
X11.411
X11.36 Z-3.996
Y73.993 Z-3.995
G19 G2 Y73.749 Z-3.7 J0.057 K0.295
G0 Z5
X130.888 Y7.411
G1 Z-1 F333.3
Z-4
X130.895 Y7.406 F700
X130.902 Y7.417
X130.897 Y7.423
X130.89 Y7.426
X130.88 Y7.417
X130.888 Y7.411
Z-3.7
G0 Z5
X130.887
G1 Z-2 F333.3
Z-5
X130.893 Y7.407 F700
X130.898 Y7.409
X130.901 Y7.417
X130.897 Y7.423
X130.89 Y7.426
X130.88 Y7.417
X130.887 Y7.411
Z-4.7
G0 Z5
X130.885 Y7.422
G1 Z-3 F333.3
Z-6
X130.88 Y7.417 F700
X130.881 Y7.411
X130.886 Y7.409
X130.892
X130.896 Y7.411
X130.899 Y7.42
X130.89 Y7.426
X130.885 Y7.422
Z-5.7
G0 Z5
X130.883 Y7.413
G1 Z-4 F333.3
Z-7
X130.887 Y7.406 F700
X130.896 Y7.409
X130.899 Y7.421
X130.888 Y7.426
X130.881 Y7.418
X130.883 Y7.413
Z-6.7
G0 Z5
X130.893 Y7.423
G1 Z-5 F333.3
Z-8
X130.885 Y7.425 F700
X130.883 Y7.413
X130.887 Y7.406
X130.896 Y7.411
X130.899 Y7.421
X130.893 Y7.423
Z-7.7
G0 Z5
X130.881 Y7.42
G1 Z-6 F333.3
Z-9
X130.879 Y7.417 F700
X130.881 Y7.412
X130.884 Y7.408
X130.894 Y7.41
X130.898 Y7.414
X130.899 Y7.419
X130.896 Y7.424
X130.884 Y7.425
X130.881 Y7.42
Z-8.7
G0 Z5
X130.883 Y7.417
G1 Z-7 F333.3
Z-10
Y7.409 F700
X130.893 Y7.411
X130.898 Y7.416
X130.893 Y7.426
X130.884 Y7.422
X130.883 Y7.417
Z-9.7
G0 Z5
X130.89 Y7.415
G1 Z-8 F333.3
Z-11
X130.897 Y7.417 F700
X130.885 Y7.424
Y7.413
X130.89 Y7.415
Z-10.7
G0 Z5
X130.889 Y7.418
G1 Z-11 F333.3
Z-14
X130.888 Y7.415 F700
Y7.414
X130.893 Y7.415
X130.895 Y7.418
X130.89 Y7.42
X130.889 Y7.418
Z-13.7
Z-12
Z-15 F333.3
X130.888 Y7.415 F700
Y7.414
X130.893 Y7.415
X130.895 Y7.418
X130.89 Y7.42
X130.889 Y7.418
Z-14.7
G0 Z5
X10.127 Y29.544
Z2.05
G1 X9.186 Z1.969 F333.3
G17 G3 X9.186 Y29.244 I0 J-0.15
G1 X14.518 Z1.509
G3 X14.518 Y29.544 I0 J0.15
G1 X9.186 Z1.05
G3 X9.186 Y29.244 I0 J-0.15
G1 X14.518 Z0.591
G3 X14.518 Y29.544 I0 J0.15
G1 X9.186 Z0.131
G3 X9.186 Y29.244 I0 J-0.15
G1 X10.709 Z0
G3 X11.048 Y29.604 I0 J0.34
G1 X11.025 Y30.001
G2 X11.703 Y30.041 I0.339 J0.02
X11.119 Y29.786 I-0.339 J-0.02
X10.53 Y31.311 I1.529 J1.466 F700
G3 X10.572 Y34.348 I-108.593 J3.009
X9.915 Y35.005 I-0.657 J0
G1 X-16.243 Y34.881
G2 X-17.794 Y35.509 I0 J2.229
X-18.447 Y37.05 I1.492 J1.541
G1 X-18.322 Y72.182
G3 X-18.859 Y72.182 I-0.268 J0
G1 X-18.858 Y35.126
G3 X-18.201 Y34.469 I0.657 J0
G1 X7.973 Y34.595
G2 X9.505 Y33.944 I0 J-2.13
X10.129 Y32.401 I-1.6 J-1.545
X10.083 Y30.89 I-24.207 J-0.024
G3 X10.037 Y29.378 I24.162 J-1.487
X10.695 Y28.722 I0.657 J0.001
G1 X23.25 Y28.724
X23.29 Y28.728
X23.378 Y28.747
X23.466 Y28.768
X23.507 Y28.783
X23.543 Y28.806
X23.56 Y28.819
X23.591 Y28.85
X23.615 Y28.888
X23.618 Y28.894
X23.632 Y28.935
X23.637 Y28.978
Y29.001
X23.632 Y29.046
X23.617 Y29.089
X23.614 Y29.095
X23.59 Y29.133
X23.559 Y29.164
X23.546 Y29.175
X23.508 Y29.198
X23.466 Y29.213
X23.283 Y29.254
X23.239 Y29.259
X12.648 Y29.133
G2 X11.119 Y29.786 I0 J2.119
X11.199 Y31.339 I0.771 J0.739
G3 X11.853 Y32.751 I-1.195 J1.411
G1 Y34.729
X11.848 Y34.763
X11.737 Y35.314
X11.726 Y35.341
X11.403 Y35.823
X11.387 Y35.84
X10.911 Y36.158
X10.882 Y36.17
X10.307 Y36.286
X-16.243 Y36.288
X-16.335 Y36.294
X-16.425 Y36.31
X-16.472 Y36.322
G2 X-17.04 Y37.05 I0.182 J0.728
G1 X-17.041 Y73.982
X-17.044 Y73.996
X-20.137 Y73.995
X-20.14 Y73.985
X-20.139 Y33.2
X-20.136 Y33.192
X-20.085 Y33.188
X7.972
G2 X8.557 Y32.907 I0 J-0.75
G1 X8.589 Y32.868
G2 X8.754 Y32.4 I-0.585 J-0.469
G1 X8.758 Y27.444
X8.783 Y27.44
X23.402 Y27.443
X23.64 Y27.493
X24.081 Y27.598
X24.086 Y27.601
X24.62 Y28.026
X24.63 Y28.042
X24.915 Y28.638
X24.921 Y29.308
X24.917 Y29.332
X24.897 Y29.385
X24.626 Y29.946
X24.584 Y29.986
X24.091 Y30.377
X24.069 Y30.388
X24.048 Y30.394
X23.426 Y30.535
X23.347 Y30.54
X12.648
G2 X12.215 Y30.678 I0 J0.75
G1 X12.17 Y30.709
G2 X11.854 Y31.321 I0.433 J0.612
G1 X11.853 Y32.751
X11.85 Y32.797 Z0.007
X11.839 Y32.842 Z0.015
X11.823 Y32.881 Z0.036
X11.803 Y32.917 Z0.057
X11.76 Y32.968 Z0.124
X11.727 Y32.995 Z0.207
X11.715 Y33.003 Z0.3
G0 Z5
X10.291 Y34.646
Z2
G1 Z-0.7 F333.3
X10.283 Y34.658 Z-0.793
X10.255 Y34.691 Z-0.876
X10.205 Y34.734 Z-0.943
X10.168 Y34.754 Z-0.964
X10.13 Y34.77 Z-0.985
X10.084 Y34.781 Z-0.993
X10.038 Y34.784 Z-1
X-17.079 Y34.789 F700
X-17.139 Y34.791
X-17.199 Y34.799
X-17.362 Y34.825
X-17.445 Y34.844
X-17.525 Y34.871
X-17.688 Y34.938
X-17.761 Y34.972
X-17.829 Y35.014
X-17.948 Y35.096
X-18.002 Y35.137
X-18.052 Y35.183
X-18.142 Y35.273
X-18.186 Y35.321
X-18.226 Y35.372
X-18.302 Y35.48
X-18.343 Y35.546
X-18.378 Y35.615
X-18.448 Y35.778
X-18.477 Y35.858
X-18.497 Y35.942
X-18.526 Y36.104
X-18.535 Y36.17
X-18.538 Y36.237
Y74
X-18.64
Y73.993
Y34.688
X8.839 Y34.683
X8.924 Y34.678
X9.007 Y34.664
X9.17 Y34.627
X9.246 Y34.605
X9.321 Y34.574
X9.459 Y34.51
X9.529 Y34.472
X9.595 Y34.427
X9.728 Y34.325
X9.785 Y34.277
X9.837 Y34.223
X9.924 Y34.124
X9.97 Y34.066
X10.01 Y34.004
X10.091 Y33.862
X10.128 Y33.789
X10.157 Y33.712
X10.206 Y33.555
X10.222 Y33.492
X10.233 Y33.429
X10.245 Y33.338
X10.252 Y33.241
X10.253 Y28.94
X23.233
X23.417 Y28.981
Y28.999
X23.234 Y29.04
X11.767 Y29.045
X11.682 Y29.05
X11.599 Y29.064
X11.437 Y29.101
X11.355 Y29.125
X11.276 Y29.159
X11.117 Y29.236
X11.04 Y29.28
X10.968 Y29.333
X10.831 Y29.446
X10.773 Y29.5
X10.721 Y29.559
X10.636 Y29.667
X10.591 Y29.73
X10.553 Y29.798
X10.475 Y29.955
X10.442 Y30.033
X10.418 Y30.113
X10.38 Y30.27
X10.365 Y30.353
X10.36 Y30.436
X10.354 Y30.974
Y30.983
X10.353 Y34.589
X10.32 Y34.75
X10.311 Y34.757
X10.175 Y34.784
X10.038
X9.972 Z-0.992
X9.908 Z-0.97
X9.851 Z-0.935
X9.804 Z-0.887
X9.768 Z-0.83
X9.746 Z-0.767
X9.738 Z-0.7
G0 Z5
X10.291 Y34.646
Z1
G1 Z-1.7 F333.3
X10.283 Y34.658 Z-1.793
X10.255 Y34.691 Z-1.876
X10.205 Y34.734 Z-1.943
X10.168 Y34.754 Z-1.964
X10.13 Y34.77 Z-1.985
X10.084 Y34.781 Z-1.993
X10.038 Y34.784 Z-2
X-17.079 Y34.789 F700
X-17.139 Y34.791
X-17.199 Y34.799
X-17.362 Y34.825
X-17.445 Y34.844
X-17.525 Y34.871
X-17.688 Y34.938
X-17.761 Y34.972
X-17.829 Y35.014
X-17.948 Y35.096
X-18.002 Y35.137
X-18.052 Y35.183
X-18.142 Y35.273
X-18.186 Y35.321
X-18.226 Y35.372
X-18.302 Y35.48
X-18.343 Y35.546
X-18.378 Y35.615
X-18.448 Y35.778
X-18.477 Y35.858
X-18.497 Y35.942
X-18.526 Y36.104
X-18.535 Y36.17
X-18.538 Y36.237
Y74
X-18.64
Y73.993
Y34.688
X8.839 Y34.683
X8.924 Y34.678
X9.007 Y34.664
X9.17 Y34.627
X9.246 Y34.605
X9.321 Y34.574
X9.459 Y34.51
X9.529 Y34.472
X9.595 Y34.427
X9.728 Y34.325
X9.785 Y34.277
X9.837 Y34.223
X9.924 Y34.124
X9.97 Y34.066
X10.01 Y34.004
X10.091 Y33.862
X10.128 Y33.789
X10.157 Y33.712
X10.206 Y33.555
X10.222 Y33.492
X10.233 Y33.429
X10.245 Y33.338
X10.252 Y33.241
X10.253 Y28.94
X23.233
X23.417 Y28.981
Y28.999
X23.234 Y29.04
X11.767 Y29.045
X11.682 Y29.05
X11.599 Y29.064
X11.437 Y29.101
X11.355 Y29.125
X11.276 Y29.159
X11.117 Y29.236
X11.04 Y29.28
X10.968 Y29.333
X10.831 Y29.446
X10.773 Y29.5
X10.721 Y29.559
X10.636 Y29.667
X10.591 Y29.73
X10.553 Y29.798
X10.475 Y29.955
X10.442 Y30.033
X10.418 Y30.113
X10.38 Y30.27
X10.365 Y30.353
X10.36 Y30.436
X10.354 Y30.974
Y30.983
X10.353 Y34.589
X10.32 Y34.75
X10.311 Y34.757
X10.175 Y34.784
X10.038
X9.972 Z-1.992
X9.908 Z-1.97
X9.851 Z-1.935
X9.804 Z-1.887
X9.768 Z-1.83
X9.746 Z-1.767
X9.738 Z-1.7
G0 Z5
X10.291 Y34.646
Z3
G1 Z0 F333.3
Z-2.7
X10.283 Y34.658 Z-2.793
X10.255 Y34.691 Z-2.876
X10.205 Y34.734 Z-2.943
X10.168 Y34.754 Z-2.964
X10.13 Y34.77 Z-2.985
X10.084 Y34.781 Z-2.993
X10.038 Y34.784 Z-3
X-17.079 Y34.789 F700
X-17.139 Y34.791
X-17.199 Y34.799
X-17.362 Y34.825
X-17.445 Y34.844
X-17.525 Y34.871
X-17.688 Y34.938
X-17.761 Y34.972
X-17.829 Y35.014
X-17.948 Y35.096
X-18.002 Y35.137
X-18.052 Y35.183
X-18.142 Y35.273
X-18.186 Y35.321
X-18.226 Y35.372
X-18.302 Y35.48
X-18.343 Y35.546
X-18.378 Y35.615
X-18.448 Y35.778
X-18.477 Y35.858
X-18.497 Y35.942
X-18.526 Y36.104
X-18.535 Y36.17
X-18.538 Y36.237
Y74
X-18.64
Y73.993
Y34.688
X8.839 Y34.683
X8.924 Y34.678
X9.007 Y34.664
X9.17 Y34.627
X9.246 Y34.605
X9.321 Y34.574
X9.459 Y34.51
X9.529 Y34.472
X9.595 Y34.427
X9.728 Y34.325
X9.785 Y34.277
X9.837 Y34.223
X9.924 Y34.124
X9.97 Y34.066
X10.01 Y34.004
X10.091 Y33.862
X10.128 Y33.789
X10.157 Y33.712
X10.206 Y33.555
X10.222 Y33.492
X10.233 Y33.429
X10.245 Y33.338
X10.252 Y33.241
X10.253 Y28.94
X23.233
X23.417 Y28.981
Y28.999
X23.234 Y29.04
X11.767 Y29.045
X11.682 Y29.05
X11.599 Y29.064
X11.437 Y29.101
X11.355 Y29.125
X11.276 Y29.159
X11.117 Y29.236
X11.04 Y29.28
X10.968 Y29.333
X10.831 Y29.446
X10.773 Y29.5
X10.721 Y29.559
X10.636 Y29.667
X10.591 Y29.73
X10.553 Y29.798
X10.475 Y29.955
X10.442 Y30.033
X10.418 Y30.113
X10.38 Y30.27
X10.365 Y30.353
X10.36 Y30.436
X10.354 Y30.974
Y30.983
X10.353 Y34.589
X10.32 Y34.75
X10.311 Y34.757
X10.175 Y34.784
X10.038
X9.972 Z-2.992
X9.908 Z-2.97
X9.851 Z-2.935
X9.804 Z-2.887
X9.768 Z-2.83
X9.746 Z-2.767
X9.738 Z-2.7
G0 Z5
X10.308 Y34.737
G1 Z-1 F333.3
Z-4
X10.313 Y34.748 F700
X10.3 Y34.744
X10.299 Y34.734
X10.305 Y34.731
X10.308 Y34.737
Z-3.7
Z-2
Z-5 F333.3
X10.313 Y34.748 F700
X10.3 Y34.744
X10.299 Y34.734
X10.305 Y34.731
X10.308 Y34.737
Z-4.7
Z-3
Z-6 F333.3
X10.313 Y34.748 F700
X10.3 Y34.744
X10.299 Y34.734
X10.305 Y34.731
X10.308 Y34.737
Z-5.7
Z-4
Z-7 F333.3
X10.313 Y34.748 F700
X10.3 Y34.744
X10.299 Y34.734
X10.305 Y34.731
X10.308 Y34.737
Z-6.7
G0 Z5
G1 Z-5 F333.3
Z-8
X10.313 Y34.748 F700
X10.3 Y34.744
X10.299 Y34.734
X10.305 Y34.731
X10.308 Y34.737
Z-7.7
G0 Z5
G1 Z-6 F333.3
Z-9
X10.313 Y34.748 F700
X10.3 Y34.744
X10.299 Y34.734
X10.305 Y34.731
X10.308 Y34.737
Z-8.7
G0 Z5
X10.301 Y34.738
G1 Z-7 F333.3
Z-10
X10.305 Y34.732 F700
X10.31 Y34.746
X10.298 Y34.743
X10.301 Y34.738
Z-9.7
G0 Z5
X10.304
G1 Z-8 F333.3
Z-11
X10.31 Y34.747 F700
X10.301 Y34.745
X10.297 Y34.741
X10.301 Y34.732
X10.304 Y34.738
Z-10.7
G0 Z5
X10.305 Y34.739
G1 Z-9 F333.3
Z-12
X10.31 Y34.747 F700
X10.3 Y34.744
X10.301 Y34.733
X10.305 Y34.739
Z-11.7
G0 Z5
X10.302
G1 Z-10 F333.3
Z-13
Y34.733 F700
X10.31 Y34.745
X10.301 Y34.744
X10.302 Y34.739
Z-12.7
G0 Z5
Y34.74
G1 Z-11 F333.3
Z-14
X10.301 Y34.736 F700
X10.307 Y34.737
X10.309 Y34.744
X10.302 Y34.743
Y34.74
Z-13.7
G0 Z5
Y34.737
G1 Z-13 F333.3
Z-16
X10.303 Y34.736 F700
X10.307 Y34.737
Y34.739
X10.302 Y34.741
X10.301 Y34.739
X10.302 Y34.737
Z-15.7
G0 Z5
G1 Z-14 F333.3
Z-17
X10.303 Y34.736 F700
X10.307 Y34.737
Y34.739
X10.302 Y34.741
X10.301 Y34.739
X10.302 Y34.737
Z-16.7
Z-15
Z-18 F333.3
X10.303 Y34.736 F700
X10.307 Y34.737
Y34.739
X10.302 Y34.741
X10.301 Y34.739
X10.302 Y34.737
Z-17.7
G0 Z5
X11.517 Y42.525
Z2.05
G1 X6.386 Z1.608 F333.3
G3 X6.386 Y42.225 I0 J-0.15
G1 X11.718 Z1.149
G3 X11.718 Y42.525 I0 J0.15
G1 X6.386 Z0.689
G3 X6.386 Y42.225 I0 J-0.15
G1 X11.718 Z0.23
G3 X11.718 Y42.525 I0 J0.15
G1 X9.052 Z0
G3 X9.052 Y41.013 I0 J-0.756
G1 X9.214 F700
G3 X10.322 Y41.864 I0 J1.147
G2 X11.414 Y43.617 I3.42 J-0.914
G3 X11.695 Y44.513 I-0.591 J0.677
G2 X11.661 Y46.084 I3.434 J0.861
G3 X11.007 Y47.007 I-0.759 J0.156
G1 X10.861 Y47.027
G3 X9.987 Y46.311 I-0.105 J-0.765
G2 X7.282 Y43.09 I-3.533 J0.221
G3 X6.523 Y42.116 I0.232 J-0.964
G2 X6.516 Y41.84 I-3.71 J-0.036
G3 X7.289 Y41.013 I0.773 J-0.051
G1 X9.052
G2 X10.322 Y40.1 I0 J-1.34
G3 X11.402 Y38.969 I1.746 J0.587
G1 X23.238 Y34.381
X23.316 Y34.359
X23.397 Y34.349
X36.345 Y33.896
X36.387 Y33.897
X36.429 Y33.903
X36.627 Y33.941
X36.68 Y33.956
X36.73 Y33.978
X36.777 Y34.008
X36.806 Y34.03
X36.848 Y34.067
X36.884 Y34.109
X36.914 Y34.156
X36.932 Y34.192
X36.954 Y34.243
X36.968 Y34.297
X36.974 Y34.352
X36.976 Y34.395
X36.973 Y34.45
X36.963 Y34.504
X36.944 Y34.556
X36.929 Y34.591
X36.903 Y34.639
X36.87 Y34.684
X36.83 Y34.723
X36.8 Y34.748
X36.756 Y34.781
X36.707 Y34.806
X36.654 Y34.825
X36.447 Y34.879
X36.407 Y34.888
X36.366 Y34.891
X23.79 Y35.208
G2 X23.178 Y35.331 I0.068 J1.928
G1 X13.061 Y39.144
G2 X11.919 Y41.576 I0.68 J1.803
X14.296 Y42.829 I1.856 J-0.64
G1 X23.264 Y40.365
G3 X23.669 Y40.33 I0.359 J1.78
G2 X24.075 Y40.335 I0.406 J-16.147
G1 X79.587 Y40.334
G2 X80.982 Y39.749 I0 J-1.955
X81.554 Y38.35 I-1.424 J-1.399
G1 Y-12.012
G2 X79.587 Y-13.973 I-1.961 J0
G1 X57.162
G2 X56.399 Y-13.816 I0 J1.93
G1 X23.693 Y0.391
X23.654 Y0.406
X23.615 Y0.415
X23.412 Y0.453
X23.356 Y0.46
X23.3 Y0.457
X23.245 Y0.446
X23.21 Y0.437
X23.158 Y0.418
X23.11 Y0.392
X23.066 Y0.359
X23.039 Y0.336
X22.999 Y0.296
X22.966 Y0.25
X22.941 Y0.2
X22.924 Y0.159
X22.906 Y0.108
X22.897 Y0.055
X22.895 Y0.001
X22.897 Y-0.043
X22.903 Y-0.098
X22.918 Y-0.152
X22.941 Y-0.203
X22.957 Y-0.234
X22.987 Y-0.281
X23.024 Y-0.323
X23.066 Y-0.359
X23.238 Y-0.484
X23.273 Y-0.506
X23.31 Y-0.524
X56.48 Y-14.797
X56.544 Y-14.82
X56.61 Y-14.833
X56.677 Y-14.838
X81.524
G3 X82.422 Y-13.939 I0 J0.899
G1 Y40.304
G3 X81.523 Y41.203 I-0.899 J0
G1 X23.108 Y41.189
X14.616 Y43.513
G2 X15.39 Y47.285 I0.513 J1.86
G1 X23.464 Y46.192
X85.107 Y46.191
G2 X86.503 Y45.618 I0 J-1.986
X87.085 Y44.227 I-1.374 J-1.392
G1 Y-24.716
G2 X86.502 Y-26.107 I-1.952 J0
X85.108 Y-26.678 I-1.395 J1.416
G1 X10.705 Y-26.554
G3 X9.807 Y-27.453 I0 J-0.899
G1 X9.809 Y-33.888
X9.811 Y-33.929
X9.818 Y-33.969
X9.863 Y-34.171
X9.88 Y-34.226
X9.904 Y-34.277
X9.937 Y-34.323
X9.961 Y-34.354
X9.999 Y-34.394
X10.042 Y-34.428
X10.09 Y-34.456
X10.119 Y-34.47
X10.171 Y-34.49
X10.225 Y-34.502
X10.281 Y-34.506
X10.323
X10.377 Y-34.501
X10.43 Y-34.489
X10.481 Y-34.469
X10.522 Y-34.449
X10.569 Y-34.422
X10.612 Y-34.389
X10.649 Y-34.349
X10.669 Y-34.325
X10.702 Y-34.278
X10.727 Y-34.227
X10.744 Y-34.172
X10.77 Y-34.05
X10.79 Y-33.927
G3 X10.791 Y-33.36 I-2.596 J0.289
G2 X10.761 Y-32.793 I5.231 J0.562
G3 X10.718 Y-31.091 I-32.094 J0.029
G2 X10.674 Y-29.389 I32.051 J1.673
X12.648 Y-27.419 I1.972 J-0.002
G1 X87.054 Y-27.543
G3 X87.953 Y-26.645 I0 J0.899
G1 X87.951 Y46.161
G3 X87.052 Y47.06 I-0.899 J0
G1 X23.271 Y46.954
X1.498 Y49.934
G2 X0.274 Y50.587 I0.272 J1.985
X-0.219 Y51.884 I1.458 J1.297
G1 X-0.096 Y72.239
G3 X-1.088 Y72.239 I-0.496 J0
G1 X-1.086 Y49.998
G3 X-0.506 Y49.334 I0.671 J0
G1 X6.716 Y48.472
G2 X8.246 Y47.28 I-0.263 J-1.916
X7.985 Y45.358 I-1.814 J-0.733
X6.367 Y44.604 I-1.532 J1.173
G1 X-4.335 Y45.08
G2 X-5.665 Y45.67 I0.09 J1.997
X-6.219 Y47.017 I1.359 J1.346
G1 X-6.093 Y72.239
G3 X-6.591 Y72.737 I-0.498 J0
X-7.088 Y72.239 I0 J-0.498
G1 X-7.087 Y44.977
G3 X-6.447 Y44.307 I0.671 J0
G1 X3.07 Y44.009
G2 X2.983 Y40.144 I-0.087 J-1.931
G1 X-10.257
G2 X-11.647 Y40.725 I0 J1.954
X-12.219 Y42.118 I1.409 J1.393
G1 X-12.093 Y72.239
G3 X-13.089 Y72.239 I-0.498 J0
G1 X-13.088 Y40.175
G3 X-12.189 Y39.276 I0.899 J0
G1 X9.924 Y39.403
G2 X10.604 Y39.279 I0 J-1.93
G1 X11.402 Y38.969
G2 X12.013 Y38.113 I-0.346 J-0.892
G3 X12.623 Y37.257 I0.943 J0.027
G1 X23.089 Y33.314
X23.127 Y33.307
X36.463 Y32.84
X36.486 Y32.843
X37.129 Y32.969
X37.142 Y32.974
X37.246 Y33.046
X37.681 Y33.371
X37.686 Y33.376
X37.72 Y33.428
X38.006 Y33.976
X38.012 Y33.996
X38.017 Y34.059
X38.036 Y34.67
X38.034 Y34.678
X37.982 Y34.808
X37.766 Y35.296
X37.757 Y35.31
X37.732 Y35.335
X37.242 Y35.753
X37.234 Y35.758
X37.228 Y35.76
X36.57 Y35.934
X36.545 Y35.937
X23.832 Y36.387
X23.751 Y36.394
X23.671 Y36.41
X23.594 Y36.434
X13.477 Y40.248
G2 X13.436 Y41.635 I0.265 J0.702
G1 X13.479 Y41.654
G2 X13.983 Y41.692 I0.306 J-0.685
G1 X23.031 Y39.206
X23.419 Y39.155
X79.587 Y39.154
G2 X80.206 Y38.828 I0 J-0.75
G1 X80.244 Y38.773
G2 X80.375 Y38.35 I-0.619 J-0.423
G1 Y-12.012
G2 X80.104 Y-12.589 I-0.75 J0
G1 X80.067 Y-12.62
G2 X79.587 Y-12.793 I-0.48 J0.576
G1 X57.162
G2 X56.865 Y-12.732 I0 J0.75
G1 X23.963 Y1.419
X23.299 Y1.544
X23.285
X23.223 Y1.531
X22.631 Y1.367
X22.614 Y1.359
X22.115 Y0.925
X22.109 Y0.918
X22.079 Y0.863
X21.832 Y0.275
X21.858 Y-0.392
X21.864 Y-0.416
X21.875 Y-0.442
X22.176 Y-1.003
X22.186 Y-1.015
X22.213 Y-1.039
X22.734 Y-1.417
X22.815 Y-1.456
X56.351 Y-15.886
X56.364 Y-15.889
X83.471
X83.474 Y-15.88
X83.473 Y42.238
X83.471 Y42.25
X83.446 Y42.254
X24.075
X23.973 Y42.261
X23.268 Y42.358
X23.171 Y42.378
X14.929 Y44.65
G2 X15.23 Y46.116 I0.199 J0.723
G1 X23.024 Y45.05
X23.407 Y45.012
X85.107 Y45.011
G2 X85.55 Y44.867 I0 J-0.75
G1 X85.598 Y44.832
G2 X85.905 Y44.227 I-0.443 J-0.605
G1 Y-24.716
G2 X85.581 Y-25.333 I-0.75 J0
G1 X85.533 Y-25.366
G2 X85.107 Y-25.499 I-0.426 J0.617
G1 X8.757 Y-25.503
X8.754 Y-25.519
X8.758 Y-34.045
X8.906 Y-34.708
X8.91 Y-34.718
X8.949 Y-34.774
X9.34 Y-35.258
X9.398 Y-35.29
X9.946 Y-35.552
X9.969 Y-35.559
X10.648 Y-35.555
X11.263 Y-35.26
X11.592 Y-34.857
X11.694 Y-34.721
X11.701 Y-34.705
X11.849 Y-34.045
X11.854 Y-29.39
G2 X12.088 Y-28.847 I0.75 J-0.001
G1 X12.132 Y-28.804
G2 X12.648 Y-28.599 I0.516 J-0.544
G1 X85.108 Y-28.595
X89.001
X89.005 Y-28.575
X89.002 Y48.105
X88.949 Y48.111
X23.533 Y48.116
X23.431 Y48.123
X1.659 Y51.103
G2 X1.306 Y51.249 I0.102 J0.743
G1 X1.256 Y51.288
G2 X0.96 Y51.884 I0.454 J0.597
G1 X0.955 Y73.996
X0.928 Y74
X-2.136 Y73.996
X-2.14 Y73.955
X-2.137 Y48.499
X6.555 Y47.304
G2 X7.203 Y46.561 I-0.102 J-0.743
G1 Y46.531
G2 X6.42 Y45.782 I-0.75 J0
G1 X-4.282 Y46.259
X-4.343 Y46.264
X-4.403 Y46.274
X-4.445 Y46.283
G2 X-5.04 Y47.017 I0.155 J0.734
G1 X-5.041 Y73.982
X-5.044 Y73.996
X-5.055 Y73.998
X-8.122 Y73.999
X-8.136 Y73.996
X-8.14 Y73.955
X-8.138 Y43.345
X-8.136 Y43.332
X-8.129 Y43.33
X3.017 Y42.83
G2 X3.733 Y42.081 I-0.034 J-0.749
G1 Y42.074
G2 X2.983 Y41.324 I-0.75 J0
G1 X-10.257
G2 X-10.86 Y41.628 I0 J0.75
G1 X-10.893 Y41.672
G2 X-11.04 Y42.118 I0.603 J0.446
G1 X-11.041 Y73.982
X-11.044 Y73.996
X-11.064 Y73.999
X-14.13 Y73.997
X-14.135 Y73.996
X-14.14 Y73.955
X-14.139 Y38.247
X-14.136 Y38.228
X-14.13 Y38.226
X-14.123 Y38.225
X9.924 Y38.223
G2 X10.188 Y38.175 I0 J-0.75
G1 X12.623 Y37.257
X12.668 Y37.244 Z0.007
X12.713 Y37.239 Z0.015
X12.755 Z0.036
X12.797 Y37.246 Z0.057
X12.859 Y37.268 Z0.124
X12.896 Y37.289 Z0.207
X12.908 Y37.297 Z0.3
G0 Z5
X10.372 Y39.815
Z2
G1 Z-1 F333.3
X10.361 Y39.82 F700
X-11.114 Y39.828
X-11.193 Y39.832
X-11.271 Y39.844
X-11.433 Y39.879
X-11.512 Y39.9
X-11.587 Y39.93
