(1001)
(T4  D=3 CR=0 - ZMIN=-18 - flat end mill)
G90 G94
G17
G21

(2D Contour3)
T4
S15000 M3
G54
M8
G0 X153.488 Y-75.485
Z7
Z3
G1 Z2.5 F333.3
Z0.5
G2 X153.123 Y-75.445 I-0.02 J1.5 F700
G1 X151.8 Y-75.131
X150.465 Y-74.82
X149.114 Y-74.513
X147.747 Y-74.208
X146.363 Y-73.908
X144.961 Y-73.612
X143.542 Y-73.32
X142.104 Y-73.035
X140.648 Y-72.754
X139.173 Y-72.48
X137.679 Y-72.213
X136.166 Y-71.953
X134.634 Y-71.704
X133.084 Y-71.467
X131.515 Y-71.247
X129.926 Y-71.047
X128.32 Y-70.869
X126.695 Y-70.717
X125.05 Y-70.593
X123.386 Y-70.501
X121.7 Y-70.445
X120.857 Y-70.432
X120.007 Y-70.43
X119.152 Y-70.44
X118.292 Y-70.462
X117.429 Y-70.496
X116.562 Y-70.544
X115.691 Y-70.606
X114.816 Y-70.682
X113.938 Y-70.772
X113.055 Y-70.879
X112.17 Y-71.001
X111.281 Y-71.14
X110.388 Y-71.296
X109.491 Y-71.469
X108.592 Y-71.661
X107.689 Y-71.872
X106.782 Y-72.102
X105.872 Y-72.352
X104.959 Y-72.622
X104.042 Y-72.914
X103.122 Y-73.226
X102.198 Y-73.56
X101.27 Y-73.914
X100.339 Y-74.291
X99.404 Y-74.689
X98.461 Y-75.112
X98.143 Y-75.258
G2 X97.1 Y-75.486 I-1.044 J2.272
G1 X-50.504
G2 X-51.536 Y-75.263 I0 J2.5
G1 X-51.867 Y-75.113
X-52.811 Y-74.695
X-53.746 Y-74.302
X-54.677 Y-73.93
X-55.605 Y-73.579
X-56.529 Y-73.249
X-57.449 Y-72.94
X-58.366 Y-72.651
X-59.279 Y-72.383
X-60.188 Y-72.135
X-61.094 Y-71.907
X-61.997 Y-71.697
X-62.896 Y-71.506
X-63.792 Y-71.333
X-64.684 Y-71.177
X-65.572 Y-71.038
X-66.457 Y-70.916
X-67.338 Y-70.809
X-68.215 Y-70.717
X-69.088 Y-70.64
X-69.958 Y-70.577
X-70.823 Y-70.528
X-71.685 Y-70.492
X-72.542 Y-70.468
X-73.396 Y-70.456
X-74.245
X-75.085 Y-70.467
X-76.768 Y-70.519
X-78.427 Y-70.606
X-80.067 Y-70.725
X-81.688 Y-70.873
X-83.291 Y-71.047
X-84.874 Y-71.243
X-86.439 Y-71.459
X-87.984 Y-71.693
X-89.512 Y-71.94
X-91.021 Y-72.197
X-92.51 Y-72.462
X-93.98 Y-72.735
X-95.431 Y-73.015
X-96.864 Y-73.301
X-98.279 Y-73.593
X-99.676 Y-73.89
X-101.056 Y-74.193
X-102.418 Y-74.5
X-103.766 Y-74.811
X-105.095 Y-75.125
X-106.414 Y-75.444
G2 X-106.786 Y-75.485 I-0.352 J1.458
X-117.148 Y-64.986 I0.138 J10.499
G1 Y65
G2 X-106.648 Y75.5 I10.5 J0
G1 X153.352
G2 X163.852 Y65 I0 J-10.5
G1 Y-64.986
G2 X153.488 Y-75.485 I-10.5 J0
G1 Z0 F333.3
G2 X153.123 Y-75.445 I-0.02 J1.5 F700
G1 X151.8 Y-75.131
X150.465 Y-74.82
X149.114 Y-74.513
X147.747 Y-74.208
X146.363 Y-73.908
X144.961 Y-73.612
X143.542 Y-73.32
X142.104 Y-73.035
X140.648 Y-72.754
X139.173 Y-72.48
X137.679 Y-72.213
X136.166 Y-71.953
X134.634 Y-71.704
X133.084 Y-71.467
X131.515 Y-71.247
X129.926 Y-71.047
X128.32 Y-70.869
X126.695 Y-70.717
X125.05 Y-70.593
X123.386 Y-70.501
X121.7 Y-70.445
X120.857 Y-70.432
X120.007 Y-70.43
X119.152 Y-70.44
X118.292 Y-70.462
X117.429 Y-70.496
X116.562 Y-70.544
X115.691 Y-70.606
X114.816 Y-70.682
X113.938 Y-70.772
X113.055 Y-70.879
X112.17 Y-71.001
X111.281 Y-71.14
X110.388 Y-71.296
X109.491 Y-71.469
X108.592 Y-71.661
X107.689 Y-71.872
X106.782 Y-72.102
X105.872 Y-72.352
X104.959 Y-72.622
X104.042 Y-72.914
X103.122 Y-73.226
X102.198 Y-73.56
X101.27 Y-73.914
X100.339 Y-74.291
X99.404 Y-74.689
X98.461 Y-75.112
X98.143 Y-75.258
G2 X97.1 Y-75.486 I-1.044 J2.272
G1 X-50.504
G2 X-51.536 Y-75.263 I0 J2.5
G1 X-51.867 Y-75.113
X-52.811 Y-74.695
X-53.746 Y-74.302
X-54.677 Y-73.93
X-55.605 Y-73.579
X-56.529 Y-73.249
X-57.449 Y-72.94
X-58.366 Y-72.651
X-59.279 Y-72.383
X-60.188 Y-72.135
X-61.094 Y-71.907
X-61.997 Y-71.697
X-62.896 Y-71.506
X-63.792 Y-71.333
X-64.684 Y-71.177
X-65.572 Y-71.038
X-66.457 Y-70.916
X-67.338 Y-70.809
X-68.215 Y-70.717
X-69.088 Y-70.64
X-69.958 Y-70.577
X-70.823 Y-70.528
X-71.685 Y-70.492
X-72.542 Y-70.468
X-73.396 Y-70.456
X-74.245
X-75.085 Y-70.467
X-76.768 Y-70.519
X-78.427 Y-70.606
X-80.067 Y-70.725
X-81.688 Y-70.873
X-83.291 Y-71.047
X-84.874 Y-71.243
X-86.439 Y-71.459
X-87.984 Y-71.693
X-89.512 Y-71.94
X-91.021 Y-72.197
X-92.51 Y-72.462
X-93.98 Y-72.735
X-95.431 Y-73.015
X-96.864 Y-73.301
X-98.279 Y-73.593
X-99.676 Y-73.89
X-101.056 Y-74.193
X-102.418 Y-74.5
X-103.766 Y-74.811
X-105.095 Y-75.125
X-106.414 Y-75.444
G2 X-106.786 Y-75.485 I-0.352 J1.458
X-117.148 Y-64.986 I0.138 J10.499
G1 Y65
G2 X-106.648 Y75.5 I10.5 J0
G1 X153.352
G2 X163.852 Y65 I0 J-10.5
G1 Y-64.986
G2 X153.488 Y-75.485 I-10.5 J0
G1 Z-0.5 F333.3
G2 X153.123 Y-75.445 I-0.02 J1.5 F700
G1 X151.8 Y-75.131
X150.465 Y-74.82
X149.114 Y-74.513
X147.747 Y-74.208
X146.363 Y-73.908
X144.961 Y-73.612
X143.542 Y-73.32
X142.104 Y-73.035
X140.648 Y-72.754
X139.173 Y-72.48
X137.679 Y-72.213
X136.166 Y-71.953
X134.634 Y-71.704
X133.084 Y-71.467
X131.515 Y-71.247
X129.926 Y-71.047
X128.32 Y-70.869
X126.695 Y-70.717
X125.05 Y-70.593
X123.386 Y-70.501
X121.7 Y-70.445
X120.857 Y-70.432
X120.007 Y-70.43
X119.152 Y-70.44
X118.292 Y-70.462
X117.429 Y-70.496
X116.562 Y-70.544
X115.691 Y-70.606
X114.816 Y-70.682
X113.938 Y-70.772
X113.055 Y-70.879
X112.17 Y-71.001
X111.281 Y-71.14
X110.388 Y-71.296
X109.491 Y-71.469
X108.592 Y-71.661
X107.689 Y-71.872
X106.782 Y-72.102
X105.872 Y-72.352
X104.959 Y-72.622
X104.042 Y-72.914
X103.122 Y-73.226
X102.198 Y-73.56
X101.27 Y-73.914
X100.339 Y-74.291
X99.404 Y-74.689
X98.461 Y-75.112
X98.143 Y-75.258
G2 X97.1 Y-75.486 I-1.044 J2.272
G1 X-50.504
G2 X-51.536 Y-75.263 I0 J2.5
G1 X-51.867 Y-75.113
X-52.811 Y-74.695
X-53.746 Y-74.302
X-54.677 Y-73.93
X-55.605 Y-73.579
X-56.529 Y-73.249
X-57.449 Y-72.94
X-58.366 Y-72.651
X-59.279 Y-72.383
X-60.188 Y-72.135
X-61.094 Y-71.907
X-61.997 Y-71.697
X-62.896 Y-71.506
X-63.792 Y-71.333
X-64.684 Y-71.177
X-65.572 Y-71.038
X-66.457 Y-70.916
X-67.338 Y-70.809
X-68.215 Y-70.717
X-69.088 Y-70.64
X-69.958 Y-70.577
X-70.823 Y-70.528
X-71.685 Y-70.492
X-72.542 Y-70.468
X-73.396 Y-70.456
X-74.245
X-75.085 Y-70.467
X-76.768 Y-70.519
X-78.427 Y-70.606
X-80.067 Y-70.725
X-81.688 Y-70.873
X-83.291 Y-71.047
X-84.874 Y-71.243
X-86.439 Y-71.459
X-87.984 Y-71.693
X-89.512 Y-71.94
X-91.021 Y-72.197
X-92.51 Y-72.462
X-93.98 Y-72.735
X-95.431 Y-73.015
X-96.864 Y-73.301
X-98.279 Y-73.593
X-99.676 Y-73.89
X-101.056 Y-74.193
X-102.418 Y-74.5
X-103.766 Y-74.811
X-105.095 Y-75.125
X-106.414 Y-75.444
G2 X-106.786 Y-75.485 I-0.352 J1.458
X-117.148 Y-64.986 I0.138 J10.499
G1 Y65
G2 X-106.648 Y75.5 I10.5 J0
G1 X153.352
G2 X163.852 Y65 I0 J-10.5
G1 Y-64.986
G2 X153.488 Y-75.485 I-10.5 J0
G1 Z-1 F333.3
G2 X153.123 Y-75.445 I-0.02 J1.5 F700
G1 X151.8 Y-75.131
X150.465 Y-74.82
X149.114 Y-74.513
X147.747 Y-74.208
X146.363 Y-73.908
X144.961 Y-73.612
X143.542 Y-73.32
X142.104 Y-73.035
X140.648 Y-72.754
X139.173 Y-72.48
X137.679 Y-72.213
X136.166 Y-71.953
X134.634 Y-71.704
X133.084 Y-71.467
X131.515 Y-71.247
X129.926 Y-71.047
X128.32 Y-70.869
X126.695 Y-70.717
X125.05 Y-70.593
X123.386 Y-70.501
X121.7 Y-70.445
X120.857 Y-70.432
X120.007 Y-70.43
X119.152 Y-70.44
X118.292 Y-70.462
X117.429 Y-70.496
X116.562 Y-70.544
X115.691 Y-70.606
X114.816 Y-70.682
X113.938 Y-70.772
X113.055 Y-70.879
X112.17 Y-71.001
X111.281 Y-71.14
X110.388 Y-71.296
X109.491 Y-71.469
X108.592 Y-71.661
X107.689 Y-71.872
X106.782 Y-72.102
X105.872 Y-72.352
X104.959 Y-72.622
X104.042 Y-72.914
X103.122 Y-73.226
X102.198 Y-73.56
X101.27 Y-73.914
X100.339 Y-74.291
X99.404 Y-74.689
X98.461 Y-75.112
X98.143 Y-75.258
G2 X97.1 Y-75.486 I-1.044 J2.272
G1 X-50.504
G2 X-51.536 Y-75.263 I0 J2.5
G1 X-51.867 Y-75.113
X-52.811 Y-74.695
X-53.746 Y-74.302
X-54.677 Y-73.93
X-55.605 Y-73.579
X-56.529 Y-73.249
X-57.449 Y-72.94
X-58.366 Y-72.651
X-59.279 Y-72.383
X-60.188 Y-72.135
X-61.094 Y-71.907
X-61.997 Y-71.697
X-62.896 Y-71.506
X-63.792 Y-71.333
X-64.684 Y-71.177
X-65.572 Y-71.038
X-66.457 Y-70.916
X-67.338 Y-70.809
X-68.215 Y-70.717
X-69.088 Y-70.64
X-69.958 Y-70.577
X-70.823 Y-70.528
X-71.685 Y-70.492
X-72.542 Y-70.468
X-73.396 Y-70.456
X-74.245
X-75.085 Y-70.467
X-76.768 Y-70.519
X-78.427 Y-70.606
X-80.067 Y-70.725
X-81.688 Y-70.873
X-83.291 Y-71.047
X-84.874 Y-71.243
X-86.439 Y-71.459
X-87.984 Y-71.693
X-89.512 Y-71.94
X-91.021 Y-72.197
X-92.51 Y-72.462
X-93.98 Y-72.735
X-95.431 Y-73.015
X-96.864 Y-73.301
X-98.279 Y-73.593
X-99.676 Y-73.89
X-101.056 Y-74.193
X-102.418 Y-74.5
X-103.766 Y-74.811
X-105.095 Y-75.125
X-106.414 Y-75.444
G2 X-106.786 Y-75.485 I-0.352 J1.458
X-117.148 Y-64.986 I0.138 J10.499
G1 Y65
G2 X-106.648 Y75.5 I10.5 J0
G1 X153.352
G2 X163.852 Y65 I0 J-10.5
G1 Y-64.986
G2 X153.488 Y-75.485 I-10.5 J0
G1 Z-1.5 F333.3
G2 X153.123 Y-75.445 I-0.02 J1.5 F700
G1 X151.8 Y-75.131
X150.465 Y-74.82
X149.114 Y-74.513
X147.747 Y-74.208
X146.363 Y-73.908
X144.961 Y-73.612
X143.542 Y-73.32
X142.104 Y-73.035
X140.648 Y-72.754
X139.173 Y-72.48
X137.679 Y-72.213
X136.166 Y-71.953
X134.634 Y-71.704
X133.084 Y-71.467
X131.515 Y-71.247
X129.926 Y-71.047
X128.32 Y-70.869
X126.695 Y-70.717
X125.05 Y-70.593
X123.386 Y-70.501
X121.7 Y-70.445
X120.857 Y-70.432
X120.007 Y-70.43
X119.152 Y-70.44
X118.292 Y-70.462
X117.429 Y-70.496
X116.562 Y-70.544
X115.691 Y-70.606
X114.816 Y-70.682
X113.938 Y-70.772
X113.055 Y-70.879
X112.17 Y-71.001
X111.281 Y-71.14
X110.388 Y-71.296
X109.491 Y-71.469
X108.592 Y-71.661
X107.689 Y-71.872
X106.782 Y-72.102
X105.872 Y-72.352
X104.959 Y-72.622
X104.042 Y-72.914
X103.122 Y-73.226
X102.198 Y-73.56
X101.27 Y-73.914
X100.339 Y-74.291
X99.404 Y-74.689
X98.461 Y-75.112
X98.143 Y-75.258
G2 X97.1 Y-75.486 I-1.044 J2.272
G1 X-50.504
G2 X-51.536 Y-75.263 I0 J2.5
G1 X-51.867 Y-75.113
X-52.811 Y-74.695
X-53.746 Y-74.302
X-54.677 Y-73.93
X-55.605 Y-73.579
X-56.529 Y-73.249
X-57.449 Y-72.94
X-58.366 Y-72.651
X-59.279 Y-72.383
X-60.188 Y-72.135
X-61.094 Y-71.907
X-61.997 Y-71.697
X-62.896 Y-71.506
X-63.792 Y-71.333
X-64.684 Y-71.177
X-65.572 Y-71.038
X-66.457 Y-70.916
X-67.338 Y-70.809
X-68.215 Y-70.717
X-69.088 Y-70.64
X-69.958 Y-70.577
X-70.823 Y-70.528
X-71.685 Y-70.492
X-72.542 Y-70.468
X-73.396 Y-70.456
X-74.245
X-75.085 Y-70.467
X-76.768 Y-70.519
X-78.427 Y-70.606
X-80.067 Y-70.725
X-81.688 Y-70.873
X-83.291 Y-71.047
X-84.874 Y-71.243
X-86.439 Y-71.459
X-87.984 Y-71.693
X-89.512 Y-71.94
X-91.021 Y-72.197
X-92.51 Y-72.462
X-93.98 Y-72.735
X-95.431 Y-73.015
X-96.864 Y-73.301
X-98.279 Y-73.593
X-99.676 Y-73.89
X-101.056 Y-74.193
X-102.418 Y-74.5
X-103.766 Y-74.811
X-105.095 Y-75.125
X-106.414 Y-75.444
G2 X-106.786 Y-75.485 I-0.352 J1.458
X-117.148 Y-64.986 I0.138 J10.499
G1 Y65
G2 X-106.648 Y75.5 I10.5 J0
G1 X153.352
G2 X163.852 Y65 I0 J-10.5
G1 Y-64.986
G2 X153.488 Y-75.485 I-10.5 J0
G1 Z-2 F333.3
G2 X153.123 Y-75.445 I-0.02 J1.5 F700
G1 X151.8 Y-75.131
X150.465 Y-74.82
X149.114 Y-74.513
X147.747 Y-74.208
X146.363 Y-73.908
X144.961 Y-73.612
X143.542 Y-73.32
X142.104 Y-73.035
X140.648 Y-72.754
X139.173 Y-72.48
X137.679 Y-72.213
X136.166 Y-71.953
X134.634 Y-71.704
X133.084 Y-71.467
X131.515 Y-71.247
X129.926 Y-71.047
X128.32 Y-70.869
X126.695 Y-70.717
X125.05 Y-70.593
X123.386 Y-70.501
X121.7 Y-70.445
X120.857 Y-70.432
X120.007 Y-70.43
X119.152 Y-70.44
X118.292 Y-70.462
X117.429 Y-70.496
X116.562 Y-70.544
X115.691 Y-70.606
X114.816 Y-70.682
X113.938 Y-70.772
X113.055 Y-70.879
X112.17 Y-71.001
X111.281 Y-71.14
X110.388 Y-71.296
X109.491 Y-71.469
X108.592 Y-71.661
X107.689 Y-71.872
X106.782 Y-72.102
X105.872 Y-72.352
X104.959 Y-72.622
X104.042 Y-72.914
X103.122 Y-73.226
X102.198 Y-73.56
X101.27 Y-73.914
X100.339 Y-74.291
X99.404 Y-74.689
X98.461 Y-75.112
X98.143 Y-75.258
G2 X97.1 Y-75.486 I-1.044 J2.272
G1 X-50.504
G2 X-51.536 Y-75.263 I0 J2.5
G1 X-51.867 Y-75.113
X-52.811 Y-74.695
X-53.746 Y-74.302
X-54.677 Y-73.93
X-55.605 Y-73.579
X-56.529 Y-73.249
X-57.449 Y-72.94
X-58.366 Y-72.651
X-59.279 Y-72.383
X-60.188 Y-72.135
X-61.094 Y-71.907
X-61.997 Y-71.697
X-62.896 Y-71.506
X-63.792 Y-71.333
X-64.684 Y-71.177
X-65.572 Y-71.038
X-66.457 Y-70.916
X-67.338 Y-70.809
X-68.215 Y-70.717
X-69.088 Y-70.64
X-69.958 Y-70.577
X-70.823 Y-70.528
X-71.685 Y-70.492
X-72.542 Y-70.468
X-73.396 Y-70.456
X-74.245
X-75.085 Y-70.467
X-76.768 Y-70.519
X-78.427 Y-70.606
X-80.067 Y-70.725
X-81.688 Y-70.873
X-83.291 Y-71.047
X-84.874 Y-71.243
X-86.439 Y-71.459
X-87.984 Y-71.693
X-89.512 Y-71.94
X-91.021 Y-72.197
X-92.51 Y-72.462
X-93.98 Y-72.735
X-95.431 Y-73.015
X-96.864 Y-73.301
X-98.279 Y-73.593
X-99.676 Y-73.89
X-101.056 Y-74.193
X-102.418 Y-74.5
X-103.766 Y-74.811
X-105.095 Y-75.125
X-106.414 Y-75.444
G2 X-106.786 Y-75.485 I-0.352 J1.458
X-117.148 Y-64.986 I0.138 J10.499
G1 Y65
G2 X-106.648 Y75.5 I10.5 J0
G1 X153.352
G2 X163.852 Y65 I0 J-10.5
G1 Y-64.986
G2 X153.488 Y-75.485 I-10.5 J0
G1 Z-2.5 F333.3
G2 X153.123 Y-75.445 I-0.02 J1.5 F700
G1 X151.8 Y-75.131
X150.465 Y-74.82
X149.114 Y-74.513
X147.747 Y-74.208
X146.363 Y-73.908
X144.961 Y-73.612
X143.542 Y-73.32
X142.104 Y-73.035
X140.648 Y-72.754
X139.173 Y-72.48
X137.679 Y-72.213
X136.166 Y-71.953
X134.634 Y-71.704
X133.084 Y-71.467
X131.515 Y-71.247
X129.926 Y-71.047
X128.32 Y-70.869
X126.695 Y-70.717
X125.05 Y-70.593
X123.386 Y-70.501
X121.7 Y-70.445
X120.857 Y-70.432
X120.007 Y-70.43
X119.152 Y-70.44
X118.292 Y-70.462
X117.429 Y-70.496
X116.562 Y-70.544
X115.691 Y-70.606
X114.816 Y-70.682
X113.938 Y-70.772
X113.055 Y-70.879
X112.17 Y-71.001
X111.281 Y-71.14
X110.388 Y-71.296
X109.491 Y-71.469
X108.592 Y-71.661
X107.689 Y-71.872
X106.782 Y-72.102
X105.872 Y-72.352
X104.959 Y-72.622
X104.042 Y-72.914
X103.122 Y-73.226
X102.198 Y-73.56
X101.27 Y-73.914
X100.339 Y-74.291
X99.404 Y-74.689
X98.461 Y-75.112
X98.143 Y-75.258
G2 X97.1 Y-75.486 I-1.044 J2.272
G1 X-50.504
G2 X-51.536 Y-75.263 I0 J2.5
G1 X-51.867 Y-75.113
X-52.811 Y-74.695
X-53.746 Y-74.302
X-54.677 Y-73.93
X-55.605 Y-73.579
X-56.529 Y-73.249
X-57.449 Y-72.94
X-58.366 Y-72.651
X-59.279 Y-72.383
X-60.188 Y-72.135
X-61.094 Y-71.907
X-61.997 Y-71.697
X-62.896 Y-71.506
X-63.792 Y-71.333
X-64.684 Y-71.177
X-65.572 Y-71.038
X-66.457 Y-70.916
X-67.338 Y-70.809
X-68.215 Y-70.717
X-69.088 Y-70.64
X-69.958 Y-70.577
X-70.823 Y-70.528
X-71.685 Y-70.492
X-72.542 Y-70.468
X-73.396 Y-70.456
X-74.245
X-75.085 Y-70.467
X-76.768 Y-70.519
X-78.427 Y-70.606
X-80.067 Y-70.725
X-81.688 Y-70.873
X-83.291 Y-71.047
X-84.874 Y-71.243
X-86.439 Y-71.459
X-87.984 Y-71.693
X-89.512 Y-71.94
X-91.021 Y-72.197
X-92.51 Y-72.462
X-93.98 Y-72.735
X-95.431 Y-73.015
X-96.864 Y-73.301
X-98.279 Y-73.593
X-99.676 Y-73.89
X-101.056 Y-74.193
X-102.418 Y-74.5
X-103.766 Y-74.811
X-105.095 Y-75.125
X-106.414 Y-75.444
G2 X-106.786 Y-75.485 I-0.352 J1.458
X-117.148 Y-64.986 I0.138 J10.499
G1 Y65
G2 X-106.648 Y75.5 I10.5 J0
G1 X153.352
G2 X163.852 Y65 I0 J-10.5
G1 Y-64.986
G2 X153.488 Y-75.485 I-10.5 J0
G1 Z-3 F333.3
G2 X153.123 Y-75.445 I-0.02 J1.5 F700
G1 X151.8 Y-75.131
X150.465 Y-74.82
X149.114 Y-74.513
X147.747 Y-74.208
X146.363 Y-73.908
X144.961 Y-73.612
X143.542 Y-73.32
X142.104 Y-73.035
X140.648 Y-72.754
X139.173 Y-72.48
X137.679 Y-72.213
X136.166 Y-71.953
X134.634 Y-71.704
X133.084 Y-71.467
X131.515 Y-71.247
X129.926 Y-71.047
X128.32 Y-70.869
X126.695 Y-70.717
X125.05 Y-70.593
X123.386 Y-70.501
X121.7 Y-70.445
X120.857 Y-70.432
X120.007 Y-70.43
X119.152 Y-70.44
X118.292 Y-70.462
X117.429 Y-70.496
X116.562 Y-70.544
X115.691 Y-70.606
X114.816 Y-70.682
X113.938 Y-70.772
X113.055 Y-70.879
X112.17 Y-71.001
X111.281 Y-71.14
X110.388 Y-71.296
X109.491 Y-71.469
X108.592 Y-71.661
X107.689 Y-71.872
X106.782 Y-72.102
X105.872 Y-72.352
X104.959 Y-72.622
X104.042 Y-72.914
X103.122 Y-73.226
X102.198 Y-73.56
X101.27 Y-73.914
X100.339 Y-74.291
X99.404 Y-74.689
X98.461 Y-75.112
X98.143 Y-75.258
G2 X97.1 Y-75.486 I-1.044 J2.272
G1 X-50.504
G2 X-51.536 Y-75.263 I0 J2.5
G1 X-51.867 Y-75.113
X-52.811 Y-74.695
X-53.746 Y-74.302
X-54.677 Y-73.93
X-55.605 Y-73.579
X-56.529 Y-73.249
X-57.449 Y-72.94
X-58.366 Y-72.651
X-59.279 Y-72.383
X-60.188 Y-72.135
X-61.094 Y-71.907
X-61.997 Y-71.697
X-62.896 Y-71.506
X-63.792 Y-71.333
X-64.684 Y-71.177
X-65.572 Y-71.038
X-66.457 Y-70.916
X-67.338 Y-70.809
X-68.215 Y-70.717
X-69.088 Y-70.64
X-69.958 Y-70.577
X-70.823 Y-70.528
X-71.685 Y-70.492
X-72.542 Y-70.468
X-73.396 Y-70.456
X-74.245
X-75.085 Y-70.467
X-76.768 Y-70.519
X-78.427 Y-70.606
X-80.067 Y-70.725
X-81.688 Y-70.873
X-83.291 Y-71.047
X-84.874 Y-71.243
X-86.439 Y-71.459
X-87.984 Y-71.693
X-89.512 Y-71.94
X-91.021 Y-72.197
X-92.51 Y-72.462
X-93.98 Y-72.735
X-95.431 Y-73.015
X-96.864 Y-73.301
X-98.279 Y-73.593
X-99.676 Y-73.89
X-101.056 Y-74.193
X-102.418 Y-74.5
X-103.766 Y-74.811
X-105.095 Y-75.125
X-106.414 Y-75.444
G2 X-106.786 Y-75.485 I-0.352 J1.458
X-117.148 Y-64.986 I0.138 J10.499
G1 Y65
G2 X-106.648 Y75.5 I10.5 J0
G1 X153.352
G2 X163.852 Y65 I0 J-10.5
G1 Y-64.986
G2 X153.488 Y-75.485 I-10.5 J0
G1 Z-3.5 F333.3
G2 X153.123 Y-75.445 I-0.02 J1.5 F700
G1 X151.8 Y-75.131
X150.465 Y-74.82
X149.114 Y-74.513
X147.747 Y-74.208
X146.363 Y-73.908
X144.961 Y-73.612
X143.542 Y-73.32
X142.104 Y-73.035
X140.648 Y-72.754
X139.173 Y-72.48
X137.679 Y-72.213
X136.166 Y-71.953
X134.634 Y-71.704
X133.084 Y-71.467
X131.515 Y-71.247
X129.926 Y-71.047
X128.32 Y-70.869
X126.695 Y-70.717
X125.05 Y-70.593
X123.386 Y-70.501
X121.7 Y-70.445
X120.857 Y-70.432
X120.007 Y-70.43
X119.152 Y-70.44
X118.292 Y-70.462
X117.429 Y-70.496
X116.562 Y-70.544
X115.691 Y-70.606
X114.816 Y-70.682
X113.938 Y-70.772
X113.055 Y-70.879
X112.17 Y-71.001
X111.281 Y-71.14
X110.388 Y-71.296
X109.491 Y-71.469
X108.592 Y-71.661
X107.689 Y-71.872
X106.782 Y-72.102
X105.872 Y-72.352
X104.959 Y-72.622
X104.042 Y-72.914
X103.122 Y-73.226
X102.198 Y-73.56
X101.27 Y-73.914
X100.339 Y-74.291
X99.404 Y-74.689
X98.461 Y-75.112
X98.143 Y-75.258
G2 X97.1 Y-75.486 I-1.044 J2.272
G1 X-50.504
G2 X-51.536 Y-75.263 I0 J2.5
G1 X-51.867 Y-75.113
X-52.811 Y-74.695
X-53.746 Y-74.302
X-54.677 Y-73.93
X-55.605 Y-73.579
X-56.529 Y-73.249
X-57.449 Y-72.94
X-58.366 Y-72.651
X-59.279 Y-72.383
X-60.188 Y-72.135
X-61.094 Y-71.907
X-61.997 Y-71.697
X-62.896 Y-71.506
X-63.792 Y-71.333
X-64.684 Y-71.177
X-65.572 Y-71.038
X-66.457 Y-70.916
X-67.338 Y-70.809
X-68.215 Y-70.717
X-69.088 Y-70.64
X-69.958 Y-70.577
X-70.823 Y-70.528
X-71.685 Y-70.492
X-72.542 Y-70.468
X-73.396 Y-70.456
X-74.245
X-75.085 Y-70.467
X-76.768 Y-70.519
X-78.427 Y-70.606
X-80.067 Y-70.725
X-81.688 Y-70.873
X-83.291 Y-71.047
X-84.874 Y-71.243
X-86.439 Y-71.459
X-87.984 Y-71.693
X-89.512 Y-71.94
X-91.021 Y-72.197
X-92.51 Y-72.462
X-93.98 Y-72.735
X-95.431 Y-73.015
X-96.864 Y-73.301
X-98.279 Y-73.593
X-99.676 Y-73.89
X-101.056 Y-74.193
X-102.418 Y-74.5
X-103.766 Y-74.811
X-105.095 Y-75.125
X-106.414 Y-75.444
G2 X-106.786 Y-75.485 I-0.352 J1.458
X-117.148 Y-64.986 I0.138 J10.499
G1 Y65
G2 X-106.648 Y75.5 I10.5 J0
G1 X153.352
G2 X163.852 Y65 I0 J-10.5
G1 Y-64.986
G2 X153.488 Y-75.485 I-10.5 J0
G1 Z-4 F333.3
G2 X153.123 Y-75.445 I-0.02 J1.5 F700
G1 X151.8 Y-75.131
X150.465 Y-74.82
X149.114 Y-74.513
X147.747 Y-74.208
X146.363 Y-73.908
X144.961 Y-73.612
X143.542 Y-73.32
X142.104 Y-73.035
X140.648 Y-72.754
X139.173 Y-72.48
X137.679 Y-72.213
X136.166 Y-71.953
X134.634 Y-71.704
X133.084 Y-71.467
X131.515 Y-71.247
X129.926 Y-71.047
X128.32 Y-70.869
X126.695 Y-70.717
X125.05 Y-70.593
X123.386 Y-70.501
X121.7 Y-70.445
X120.857 Y-70.432
X120.007 Y-70.43
X119.152 Y-70.44
X118.292 Y-70.462
X117.429 Y-70.496
X116.562 Y-70.544
X115.691 Y-70.606
X114.816 Y-70.682
X113.938 Y-70.772
X113.055 Y-70.879
X112.17 Y-71.001
X111.281 Y-71.14
X110.388 Y-71.296
X109.491 Y-71.469
X108.592 Y-71.661
X107.689 Y-71.872
X106.782 Y-72.102
X105.872 Y-72.352
X104.959 Y-72.622
X104.042 Y-72.914
X103.122 Y-73.226
X102.198 Y-73.56
X101.27 Y-73.914
X100.339 Y-74.291
X99.404 Y-74.689
X98.461 Y-75.112
X98.143 Y-75.258
G2 X97.1 Y-75.486 I-1.044 J2.272
G1 X-50.504
G2 X-51.536 Y-75.263 I0 J2.5
G1 X-51.867 Y-75.113
X-52.811 Y-74.695
X-53.746 Y-74.302
X-54.677 Y-73.93
X-55.605 Y-73.579
X-56.529 Y-73.249
X-57.449 Y-72.94
X-58.366 Y-72.651
X-59.279 Y-72.383
X-60.188 Y-72.135
X-61.094 Y-71.907
X-61.997 Y-71.697
X-62.896 Y-71.506
X-63.792 Y-71.333
X-64.684 Y-71.177
X-65.572 Y-71.038
X-66.457 Y-70.916
X-67.338 Y-70.809
X-68.215 Y-70.717
X-69.088 Y-70.64
X-69.958 Y-70.577
X-70.823 Y-70.528
X-71.685 Y-70.492
X-72.542 Y-70.468
X-73.396 Y-70.456
X-74.245
X-75.085 Y-70.467
X-76.768 Y-70.519
X-78.427 Y-70.606
X-80.067 Y-70.725
X-81.688 Y-70.873
X-83.291 Y-71.047
X-84.874 Y-71.243
X-86.439 Y-71.459
X-87.984 Y-71.693
X-89.512 Y-71.94
X-91.021 Y-72.197
X-92.51 Y-72.462
X-93.98 Y-72.735
X-95.431 Y-73.015
X-96.864 Y-73.301
X-98.279 Y-73.593
X-99.676 Y-73.89
X-101.056 Y-74.193
X-102.418 Y-74.5
X-103.766 Y-74.811
X-105.095 Y-75.125
X-106.414 Y-75.444
G2 X-106.786 Y-75.485 I-0.352 J1.458
X-117.148 Y-64.986 I0.138 J10.499
G1 Y65
G2 X-106.648 Y75.5 I10.5 J0
G1 X153.352
G2 X163.852 Y65 I0 J-10.5
G1 Y-64.986
G2 X153.488 Y-75.485 I-10.5 J0
G1 Z-4.5 F333.3
G2 X153.123 Y-75.445 I-0.02 J1.5 F700
G1 X151.8 Y-75.131
X150.465 Y-74.82
X149.114 Y-74.513
X147.747 Y-74.208
X146.363 Y-73.908
X144.961 Y-73.612
X143.542 Y-73.32
X142.104 Y-73.035
X140.648 Y-72.754
X139.173 Y-72.48
X137.679 Y-72.213
X136.166 Y-71.953
X134.634 Y-71.704
X133.084 Y-71.467
X131.515 Y-71.247
X129.926 Y-71.047
X128.32 Y-70.869
X126.695 Y-70.717
X125.05 Y-70.593
X123.386 Y-70.501
X121.7 Y-70.445
X120.857 Y-70.432
X120.007 Y-70.43
X119.152 Y-70.44
X118.292 Y-70.462
X117.429 Y-70.496
X116.562 Y-70.544
X115.691 Y-70.606
X114.816 Y-70.682
X113.938 Y-70.772
X113.055 Y-70.879
X112.17 Y-71.001
X111.281 Y-71.14
X110.388 Y-71.296
X109.491 Y-71.469
X108.592 Y-71.661
X107.689 Y-71.872
X106.782 Y-72.102
X105.872 Y-72.352
X104.959 Y-72.622
X104.042 Y-72.914
X103.122 Y-73.226
X102.198 Y-73.56
X101.27 Y-73.914
X100.339 Y-74.291
X99.404 Y-74.689
X98.461 Y-75.112
X98.143 Y-75.258
G2 X97.1 Y-75.486 I-1.044 J2.272
G1 X-50.504
G2 X-51.536 Y-75.263 I0 J2.5
G1 X-51.867 Y-75.113
X-52.811 Y-74.695
X-53.746 Y-74.302
X-54.677 Y-73.93
X-55.605 Y-73.579
X-56.529 Y-73.249
X-57.449 Y-72.94
X-58.366 Y-72.651
X-59.279 Y-72.383
X-60.188 Y-72.135
X-61.094 Y-71.907
X-61.997 Y-71.697
X-62.896 Y-71.506
X-63.792 Y-71.333
X-64.684 Y-71.177
X-65.572 Y-71.038
X-66.457 Y-70.916
X-67.338 Y-70.809
X-68.215 Y-70.717
X-69.088 Y-70.64
X-69.958 Y-70.577
X-70.823 Y-70.528
X-71.685 Y-70.492
X-72.542 Y-70.468
X-73.396 Y-70.456
X-74.245
X-75.085 Y-70.467
X-76.768 Y-70.519
X-78.427 Y-70.606
X-80.067 Y-70.725
X-81.688 Y-70.873
X-83.291 Y-71.047
X-84.874 Y-71.243
X-86.439 Y-71.459
X-87.984 Y-71.693
X-89.512 Y-71.94
X-91.021 Y-72.197
X-92.51 Y-72.462
X-93.98 Y-72.735
X-95.431 Y-73.015
X-96.864 Y-73.301
X-98.279 Y-73.593
X-99.676 Y-73.89
X-101.056 Y-74.193
X-102.418 Y-74.5
X-103.766 Y-74.811
X-105.095 Y-75.125
X-106.414 Y-75.444
G2 X-106.786 Y-75.485 I-0.352 J1.458
X-117.148 Y-64.986 I0.138 J10.499
G1 Y65
G2 X-106.648 Y75.5 I10.5 J0
G1 X153.352
G2 X163.852 Y65 I0 J-10.5
G1 Y-64.986
G2 X153.488 Y-75.485 I-10.5 J0
G1 Z-5 F333.3
G2 X153.123 Y-75.445 I-0.02 J1.5 F700
G1 X151.8 Y-75.131
X150.465 Y-74.82
X149.114 Y-74.513
X147.747 Y-74.208
X146.363 Y-73.908
X144.961 Y-73.612
X143.542 Y-73.32
X142.104 Y-73.035
X140.648 Y-72.754
X139.173 Y-72.48
X137.679 Y-72.213
X136.166 Y-71.953
X134.634 Y-71.704
X133.084 Y-71.467
X131.515 Y-71.247
X129.926 Y-71.047
X128.32 Y-70.869
X126.695 Y-70.717
X125.05 Y-70.593
X123.386 Y-70.501
X121.7 Y-70.445
X120.857 Y-70.432
X120.007 Y-70.43
X119.152 Y-70.44
X118.292 Y-70.462
X117.429 Y-70.496
X116.562 Y-70.544
X115.691 Y-70.606
X114.816 Y-70.682
X113.938 Y-70.772
X113.055 Y-70.879
X112.17 Y-71.001
X111.281 Y-71.14
X110.388 Y-71.296
X109.491 Y-71.469
X108.592 Y-71.661
X107.689 Y-71.872
X106.782 Y-72.102
X105.872 Y-72.352
X104.959 Y-72.622
X104.042 Y-72.914
X103.122 Y-73.226
X102.198 Y-73.56
X101.27 Y-73.914
X100.339 Y-74.291
X99.404 Y-74.689
X98.461 Y-75.112
X98.143 Y-75.258
G2 X97.1 Y-75.486 I-1.044 J2.272
G1 X-50.504
G2 X-51.536 Y-75.263 I0 J2.5
G1 X-51.867 Y-75.113
X-52.811 Y-74.695
X-53.746 Y-74.302
X-54.677 Y-73.93
X-55.605 Y-73.579
X-56.529 Y-73.249
X-57.449 Y-72.94
X-58.366 Y-72.651
X-59.279 Y-72.383
X-60.188 Y-72.135
X-61.094 Y-71.907
X-61.997 Y-71.697
X-62.896 Y-71.506
X-63.792 Y-71.333
X-64.684 Y-71.177
X-65.572 Y-71.038
X-66.457 Y-70.916
X-67.338 Y-70.809
X-68.215 Y-70.717
X-69.088 Y-70.64
X-69.958 Y-70.577
X-70.823 Y-70.528
X-71.685 Y-70.492
X-72.542 Y-70.468
X-73.396 Y-70.456
X-74.245
X-75.085 Y-70.467
X-76.768 Y-70.519
X-78.427 Y-70.606
X-80.067 Y-70.725
X-81.688 Y-70.873
X-83.291 Y-71.047
X-84.874 Y-71.243
X-86.439 Y-71.459
X-87.984 Y-71.693
X-89.512 Y-71.94
X-91.021 Y-72.197
X-92.51 Y-72.462
X-93.98 Y-72.735
X-95.431 Y-73.015
X-96.864 Y-73.301
X-98.279 Y-73.593
X-99.676 Y-73.89
X-101.056 Y-74.193
X-102.418 Y-74.5
X-103.766 Y-74.811
X-105.095 Y-75.125
X-106.414 Y-75.444
G2 X-106.786 Y-75.485 I-0.352 J1.458
X-117.148 Y-64.986 I0.138 J10.499
G1 Y65
G2 X-106.648 Y75.5 I10.5 J0
G1 X153.352
G2 X163.852 Y65 I0 J-10.5
G1 Y-64.986
G2 X153.488 Y-75.485 I-10.5 J0
G1 Z-5.5 F333.3
G2 X153.123 Y-75.445 I-0.02 J1.5 F700
G1 X151.8 Y-75.131
X150.465 Y-74.82
X149.114 Y-74.513
X147.747 Y-74.208
X146.363 Y-73.908
X144.961 Y-73.612
X143.542 Y-73.32
X142.104 Y-73.035
X140.648 Y-72.754
X139.173 Y-72.48
X137.679 Y-72.213
X136.166 Y-71.953
X134.634 Y-71.704
X133.084 Y-71.467
X131.515 Y-71.247
X129.926 Y-71.047
X128.32 Y-70.869
X126.695 Y-70.717
X125.05 Y-70.593
X123.386 Y-70.501
X121.7 Y-70.445
X120.857 Y-70.432
X120.007 Y-70.43
X119.152 Y-70.44
X118.292 Y-70.462
X117.429 Y-70.496
X116.562 Y-70.544
X115.691 Y-70.606
X114.816 Y-70.682
X113.938 Y-70.772
X113.055 Y-70.879
X112.17 Y-71.001
X111.281 Y-71.14
X110.388 Y-71.296
X109.491 Y-71.469
X108.592 Y-71.661
X107.689 Y-71.872
X106.782 Y-72.102
X105.872 Y-72.352
X104.959 Y-72.622
X104.042 Y-72.914
X103.122 Y-73.226
X102.198 Y-73.56
X101.27 Y-73.914
X100.339 Y-74.291
X99.404 Y-74.689
X98.461 Y-75.112
X98.143 Y-75.258
G2 X97.1 Y-75.486 I-1.044 J2.272
G1 X-50.504
G2 X-51.536 Y-75.263 I0 J2.5
G1 X-51.867 Y-75.113
X-52.811 Y-74.695
X-53.746 Y-74.302
X-54.677 Y-73.93
X-55.605 Y-73.579
X-56.529 Y-73.249
X-57.449 Y-72.94
X-58.366 Y-72.651
X-59.279 Y-72.383
X-60.188 Y-72.135
X-61.094 Y-71.907
X-61.997 Y-71.697
X-62.896 Y-71.506
X-63.792 Y-71.333
X-64.684 Y-71.177
X-65.572 Y-71.038
X-66.457 Y-70.916
X-67.338 Y-70.809
X-68.215 Y-70.717
X-69.088 Y-70.64
X-69.958 Y-70.577
X-70.823 Y-70.528
X-71.685 Y-70.492
X-72.542 Y-70.468
X-73.396 Y-70.456
X-74.245
X-75.085 Y-70.467
X-76.768 Y-70.519
X-78.427 Y-70.606
X-80.067 Y-70.725
X-81.688 Y-70.873
X-83.291 Y-71.047
X-84.874 Y-71.243
X-86.439 Y-71.459
X-87.984 Y-71.693
X-89.512 Y-71.94
X-91.021 Y-72.197
X-92.51 Y-72.462
X-93.98 Y-72.735
X-95.431 Y-73.015
X-96.864 Y-73.301
X-98.279 Y-73.593
X-99.676 Y-73.89
X-101.056 Y-74.193
X-102.418 Y-74.5
X-103.766 Y-74.811
X-105.095 Y-75.125
X-106.414 Y-75.444
G2 X-106.786 Y-75.485 I-0.352 J1.458
X-117.148 Y-64.986 I0.138 J10.499
G1 Y65
G2 X-106.648 Y75.5 I10.5 J0
G1 X153.352
G2 X163.852 Y65 I0 J-10.5
G1 Y-64.986
G2 X153.488 Y-75.485 I-10.5 J0
G1 Z-6 F333.3
G2 X153.123 Y-75.445 I-0.02 J1.5 F700
G1 X151.8 Y-75.131
X150.465 Y-74.82
X149.114 Y-74.513
X147.747 Y-74.208
X146.363 Y-73.908
X144.961 Y-73.612
X143.542 Y-73.32
X142.104 Y-73.035
X140.648 Y-72.754
X139.173 Y-72.48
X137.679 Y-72.213
X136.166 Y-71.953
X134.634 Y-71.704
X133.084 Y-71.467
X131.515 Y-71.247
X129.926 Y-71.047
X128.32 Y-70.869
X126.695 Y-70.717
X125.05 Y-70.593
X123.386 Y-70.501
X121.7 Y-70.445
X120.857 Y-70.432
X120.007 Y-70.43
X119.152 Y-70.44
X118.292 Y-70.462
X117.429 Y-70.496
X116.562 Y-70.544
X115.691 Y-70.606
X114.816 Y-70.682
X113.938 Y-70.772
X113.055 Y-70.879
X112.17 Y-71.001
X111.281 Y-71.14
X110.388 Y-71.296
X109.491 Y-71.469
X108.592 Y-71.661
X107.689 Y-71.872
X106.782 Y-72.102
X105.872 Y-72.352
X104.959 Y-72.622
X104.042 Y-72.914
X103.122 Y-73.226
X102.198 Y-73.56
X101.27 Y-73.914
X100.339 Y-74.291
X99.404 Y-74.689
X98.461 Y-75.112
X98.143 Y-75.258
G2 X97.1 Y-75.486 I-1.044 J2.272
G1 X-50.504
G2 X-51.536 Y-75.263 I0 J2.5
G1 X-51.867 Y-75.113
X-52.811 Y-74.695
X-53.746 Y-74.302
X-54.677 Y-73.93
X-55.605 Y-73.579
X-56.529 Y-73.249
X-57.449 Y-72.94
X-58.366 Y-72.651
X-59.279 Y-72.383
X-60.188 Y-72.135
X-61.094 Y-71.907
X-61.997 Y-71.697
X-62.896 Y-71.506
X-63.792 Y-71.333
X-64.684 Y-71.177
X-65.572 Y-71.038
X-66.457 Y-70.916
X-67.338 Y-70.809
X-68.215 Y-70.717
X-69.088 Y-70.64
X-69.958 Y-70.577
X-70.823 Y-70.528
X-71.685 Y-70.492
X-72.542 Y-70.468
X-73.396 Y-70.456
X-74.245
X-75.085 Y-70.467
X-76.768 Y-70.519
X-78.427 Y-70.606
X-80.067 Y-70.725
X-81.688 Y-70.873
X-83.291 Y-71.047
X-84.874 Y-71.243
X-86.439 Y-71.459
X-87.984 Y-71.693
X-89.512 Y-71.94
X-91.021 Y-72.197
X-92.51 Y-72.462
X-93.98 Y-72.735
X-95.431 Y-73.015
X-96.864 Y-73.301
X-98.279 Y-73.593
X-99.676 Y-73.89
X-101.056 Y-74.193
X-102.418 Y-74.5
X-103.766 Y-74.811
X-105.095 Y-75.125
X-106.414 Y-75.444
G2 X-106.786 Y-75.485 I-0.352 J1.458
X-117.148 Y-64.986 I0.138 J10.499
G1 Y65
G2 X-106.648 Y75.5 I10.5 J0
G1 X153.352
G2 X163.852 Y65 I0 J-10.5
G1 Y-64.986
G2 X153.488 Y-75.485 I-10.5 J0
G1 Z-6.5 F333.3
G2 X153.123 Y-75.445 I-0.02 J1.5 F700
G1 X151.8 Y-75.131
X150.465 Y-74.82
X149.114 Y-74.513
X147.747 Y-74.208
X146.363 Y-73.908
X144.961 Y-73.612
X143.542 Y-73.32
X142.104 Y-73.035
X140.648 Y-72.754
X139.173 Y-72.48
X137.679 Y-72.213
X136.166 Y-71.953
X134.634 Y-71.704
X133.084 Y-71.467
X131.515 Y-71.247
X129.926 Y-71.047
X128.32 Y-70.869
X126.695 Y-70.717
X125.05 Y-70.593
X123.386 Y-70.501
X121.7 Y-70.445
X120.857 Y-70.432
X120.007 Y-70.43
X119.152 Y-70.44
X118.292 Y-70.462
X117.429 Y-70.496
X116.562 Y-70.544
X115.691 Y-70.606
X114.816 Y-70.682
X113.938 Y-70.772
X113.055 Y-70.879
X112.17 Y-71.001
X111.281 Y-71.14
X110.388 Y-71.296
X109.491 Y-71.469
X108.592 Y-71.661
X107.689 Y-71.872
X106.782 Y-72.102
X105.872 Y-72.352
X104.959 Y-72.622
X104.042 Y-72.914
X103.122 Y-73.226
X102.198 Y-73.56
X101.27 Y-73.914
X100.339 Y-74.291
X99.404 Y-74.689
X98.461 Y-75.112
X98.143 Y-75.258
G2 X97.1 Y-75.486 I-1.044 J2.272
G1 X-50.504
G2 X-51.536 Y-75.263 I0 J2.5
G1 X-51.867 Y-75.113
X-52.811 Y-74.695
X-53.746 Y-74.302
X-54.677 Y-73.93
X-55.605 Y-73.579
X-56.529 Y-73.249
X-57.449 Y-72.94
X-58.366 Y-72.651
X-59.279 Y-72.383
X-60.188 Y-72.135
X-61.094 Y-71.907
X-61.997 Y-71.697
X-62.896 Y-71.506
X-63.792 Y-71.333
X-64.684 Y-71.177
X-65.572 Y-71.038
X-66.457 Y-70.916
X-67.338 Y-70.809
X-68.215 Y-70.717
X-69.088 Y-70.64
X-69.958 Y-70.577
X-70.823 Y-70.528
X-71.685 Y-70.492
X-72.542 Y-70.468
X-73.396 Y-70.456
X-74.245
X-75.085 Y-70.467
X-76.768 Y-70.519
X-78.427 Y-70.606
X-80.067 Y-70.725
X-81.688 Y-70.873
X-83.291 Y-71.047
X-84.874 Y-71.243
X-86.439 Y-71.459
X-87.984 Y-71.693
X-89.512 Y-71.94
X-91.021 Y-72.197
X-92.51 Y-72.462
X-93.98 Y-72.735
X-95.431 Y-73.015
X-96.864 Y-73.301
X-98.279 Y-73.593
X-99.676 Y-73.89
X-101.056 Y-74.193
X-102.418 Y-74.5
X-103.766 Y-74.811
X-105.095 Y-75.125
X-106.414 Y-75.444
G2 X-106.786 Y-75.485 I-0.352 J1.458
X-117.148 Y-64.986 I0.138 J10.499
G1 Y65
G2 X-106.648 Y75.5 I10.5 J0
G1 X153.352
G2 X163.852 Y65 I0 J-10.5
G1 Y-64.986
G2 X153.488 Y-75.485 I-10.5 J0
G1 Z-7 F333.3
G2 X153.123 Y-75.445 I-0.02 J1.5 F700
G1 X151.8 Y-75.131
X150.465 Y-74.82
X149.114 Y-74.513
X147.747 Y-74.208
X146.363 Y-73.908
X144.961 Y-73.612
X143.542 Y-73.32
X142.104 Y-73.035
X140.648 Y-72.754
X139.173 Y-72.48
X137.679 Y-72.213
X136.166 Y-71.953
X134.634 Y-71.704
X133.084 Y-71.467
X131.515 Y-71.247
X129.926 Y-71.047
X128.32 Y-70.869
X126.695 Y-70.717
X125.05 Y-70.593
X123.386 Y-70.501
X121.7 Y-70.445
X120.857 Y-70.432
X120.007 Y-70.43
X119.152 Y-70.44
X118.292 Y-70.462
X117.429 Y-70.496
X116.562 Y-70.544
X115.691 Y-70.606
X114.816 Y-70.682
X113.938 Y-70.772
X113.055 Y-70.879
X112.17 Y-71.001
X111.281 Y-71.14
X110.388 Y-71.296
X109.491 Y-71.469
X108.592 Y-71.661
X107.689 Y-71.872
X106.782 Y-72.102
X105.872 Y-72.352
X104.959 Y-72.622
X104.042 Y-72.914
X103.122 Y-73.226
X102.198 Y-73.56
X101.27 Y-73.914
X100.339 Y-74.291
X99.404 Y-74.689
X98.461 Y-75.112
X98.143 Y-75.258
G2 X97.1 Y-75.486 I-1.044 J2.272
G1 X-50.504
G2 X-51.536 Y-75.263 I0 J2.5
G1 X-51.867 Y-75.113
X-52.811 Y-74.695
X-53.746 Y-74.302
X-54.677 Y-73.93
X-55.605 Y-73.579
X-56.529 Y-73.249
X-57.449 Y-72.94
X-58.366 Y-72.651
X-59.279 Y-72.383
X-60.188 Y-72.135
X-61.094 Y-71.907
X-61.997 Y-71.697
X-62.896 Y-71.506
X-63.792 Y-71.333
X-64.684 Y-71.177
X-65.572 Y-71.038
X-66.457 Y-70.916
X-67.338 Y-70.809
X-68.215 Y-70.717
X-69.088 Y-70.64
X-69.958 Y-70.577
X-70.823 Y-70.528
X-71.685 Y-70.492
X-72.542 Y-70.468
X-73.396 Y-70.456
X-74.245
X-75.085 Y-70.467
X-76.768 Y-70.519
X-78.427 Y-70.606
X-80.067 Y-70.725
X-81.688 Y-70.873
X-83.291 Y-71.047
X-84.874 Y-71.243
X-86.439 Y-71.459
X-87.984 Y-71.693
X-89.512 Y-71.94
X-91.021 Y-72.197
X-92.51 Y-72.462
X-93.98 Y-72.735
X-95.431 Y-73.015
X-96.864 Y-73.301
X-98.279 Y-73.593
X-99.676 Y-73.89
X-101.056 Y-74.193
X-102.418 Y-74.5
X-103.766 Y-74.811
X-105.095 Y-75.125
X-106.414 Y-75.444
G2 X-106.786 Y-75.485 I-0.352 J1.458
X-117.148 Y-64.986 I0.138 J10.499
G1 Y65
G2 X-106.648 Y75.5 I10.5 J0
G1 X153.352
G2 X163.852 Y65 I0 J-10.5
G1 Y-64.986
G2 X153.488 Y-75.485 I-10.5 J0
G1 Z-7.5 F333.3
G2 X153.123 Y-75.445 I-0.02 J1.5 F700
G1 X151.8 Y-75.131
X150.465 Y-74.82
X149.114 Y-74.513
X147.747 Y-74.208
X146.363 Y-73.908
X144.961 Y-73.612
X143.542 Y-73.32
X142.104 Y-73.035
X140.648 Y-72.754
X139.173 Y-72.48
X137.679 Y-72.213
X136.166 Y-71.953
X134.634 Y-71.704
X133.084 Y-71.467
X131.515 Y-71.247
X129.926 Y-71.047
X128.32 Y-70.869
X126.695 Y-70.717
X125.05 Y-70.593
X123.386 Y-70.501
X121.7 Y-70.445
X120.857 Y-70.432
X120.007 Y-70.43
X119.152 Y-70.44
X118.292 Y-70.462
X117.429 Y-70.496
X116.562 Y-70.544
X115.691 Y-70.606
X114.816 Y-70.682
X113.938 Y-70.772
X113.055 Y-70.879
X112.17 Y-71.001
X111.281 Y-71.14
X110.388 Y-71.296
X109.491 Y-71.469
X108.592 Y-71.661
X107.689 Y-71.872
X106.782 Y-72.102
X105.872 Y-72.352
X104.959 Y-72.622
X104.042 Y-72.914
X103.122 Y-73.226
X102.198 Y-73.56
X101.27 Y-73.914
X100.339 Y-74.291
X99.404 Y-74.689
X98.461 Y-75.112
X98.143 Y-75.258
G2 X97.1 Y-75.486 I-1.044 J2.272
G1 X-50.504
G2 X-51.536 Y-75.263 I0 J2.5
G1 X-51.867 Y-75.113
X-52.811 Y-74.695
X-53.746 Y-74.302
X-54.677 Y-73.93
X-55.605 Y-73.579
X-56.529 Y-73.249
X-57.449 Y-72.94
X-58.366 Y-72.651
X-59.279 Y-72.383
X-60.188 Y-72.135
X-61.094 Y-71.907
X-61.997 Y-71.697
X-62.896 Y-71.506
X-63.792 Y-71.333
X-64.684 Y-71.177
X-65.572 Y-71.038
X-66.457 Y-70.916
X-67.338 Y-70.809
X-68.215 Y-70.717
X-69.088 Y-70.64
X-69.958 Y-70.577
X-70.823 Y-70.528
X-71.685 Y-70.492
X-72.542 Y-70.468
X-73.396 Y-70.456
X-74.245
X-75.085 Y-70.467
X-76.768 Y-70.519
X-78.427 Y-70.606
X-80.067 Y-70.725
X-81.688 Y-70.873
X-83.291 Y-71.047
X-84.874 Y-71.243
X-86.439 Y-71.459
X-87.984 Y-71.693
X-89.512 Y-71.94
X-91.021 Y-72.197
X-92.51 Y-72.462
X-93.98 Y-72.735
X-95.431 Y-73.015
X-96.864 Y-73.301
X-98.279 Y-73.593
X-99.676 Y-73.89
X-101.056 Y-74.193
X-102.418 Y-74.5
X-103.766 Y-74.811
X-105.095 Y-75.125
X-106.414 Y-75.444
G2 X-106.786 Y-75.485 I-0.352 J1.458
X-117.148 Y-64.986 I0.138 J10.499
G1 Y65
G2 X-106.648 Y75.5 I10.5 J0
G1 X153.352
G2 X163.852 Y65 I0 J-10.5
G1 Y-64.986
G2 X153.488 Y-75.485 I-10.5 J0
G1 Z-8 F333.3
G2 X153.123 Y-75.445 I-0.02 J1.5 F700
G1 X151.8 Y-75.131
X150.465 Y-74.82
X149.114 Y-74.513
X147.747 Y-74.208
X146.363 Y-73.908
X144.961 Y-73.612
X143.542 Y-73.32
X142.104 Y-73.035
X140.648 Y-72.754
X139.173 Y-72.48
X137.679 Y-72.213
X136.166 Y-71.953
X134.634 Y-71.704
X133.084 Y-71.467
X131.515 Y-71.247
X129.926 Y-71.047
X128.32 Y-70.869
X126.695 Y-70.717
X125.05 Y-70.593
X123.386 Y-70.501
X121.7 Y-70.445
X120.857 Y-70.432
X120.007 Y-70.43
X119.152 Y-70.44
X118.292 Y-70.462
X117.429 Y-70.496
X116.562 Y-70.544
X115.691 Y-70.606
X114.816 Y-70.682
X113.938 Y-70.772
X113.055 Y-70.879
X112.17 Y-71.001
X111.281 Y-71.14
X110.388 Y-71.296
X109.491 Y-71.469
X108.592 Y-71.661
X107.689 Y-71.872
X106.782 Y-72.102
X105.872 Y-72.352
X104.959 Y-72.622
X104.042 Y-72.914
X103.122 Y-73.226
X102.198 Y-73.56
X101.27 Y-73.914
X100.339 Y-74.291
X99.404 Y-74.689
X98.461 Y-75.112
X98.143 Y-75.258
G2 X97.1 Y-75.486 I-1.044 J2.272
G1 X-50.504
G2 X-51.536 Y-75.263 I0 J2.5
G1 X-51.867 Y-75.113
X-52.811 Y-74.695
X-53.746 Y-74.302
X-54.677 Y-73.93
X-55.605 Y-73.579
X-56.529 Y-73.249
X-57.449 Y-72.94
X-58.366 Y-72.651
X-59.279 Y-72.383
X-60.188 Y-72.135
X-61.094 Y-71.907
X-61.997 Y-71.697
X-62.896 Y-71.506
X-63.792 Y-71.333
X-64.684 Y-71.177
X-65.572 Y-71.038
X-66.457 Y-70.916
X-67.338 Y-70.809
X-68.215 Y-70.717
X-69.088 Y-70.64
X-69.958 Y-70.577
X-70.823 Y-70.528
X-71.685 Y-70.492
X-72.542 Y-70.468
X-73.396 Y-70.456
X-74.245
X-75.085 Y-70.467
X-76.768 Y-70.519
X-78.427 Y-70.606
X-80.067 Y-70.725
X-81.688 Y-70.873
X-83.291 Y-71.047
X-84.874 Y-71.243
X-86.439 Y-71.459
X-87.984 Y-71.693
X-89.512 Y-71.94
X-91.021 Y-72.197
X-92.51 Y-72.462
X-93.98 Y-72.735
X-95.431 Y-73.015
X-96.864 Y-73.301
X-98.279 Y-73.593
X-99.676 Y-73.89
X-101.056 Y-74.193
X-102.418 Y-74.5
X-103.766 Y-74.811
X-105.095 Y-75.125
X-106.414 Y-75.444
G2 X-106.786 Y-75.485 I-0.352 J1.458
X-117.148 Y-64.986 I0.138 J10.499
G1 Y65
G2 X-106.648 Y75.5 I10.5 J0
G1 X153.352
G2 X163.852 Y65 I0 J-10.5
G1 Y-64.986
G2 X153.488 Y-75.485 I-10.5 J0
G1 Z-8.5 F333.3
G2 X153.123 Y-75.445 I-0.02 J1.5 F700
G1 X151.8 Y-75.131
X150.465 Y-74.82
X149.114 Y-74.513
X147.747 Y-74.208
X146.363 Y-73.908
X144.961 Y-73.612
X143.542 Y-73.32
X142.104 Y-73.035
X140.648 Y-72.754
X139.173 Y-72.48
X137.679 Y-72.213
X136.166 Y-71.953
X134.634 Y-71.704
X133.084 Y-71.467
X131.515 Y-71.247
X129.926 Y-71.047
X128.32 Y-70.869
X126.695 Y-70.717
X125.05 Y-70.593
X123.386 Y-70.501
X121.7 Y-70.445
X120.857 Y-70.432
X120.007 Y-70.43
X119.152 Y-70.44
X118.292 Y-70.462
X117.429 Y-70.496
X116.562 Y-70.544
X115.691 Y-70.606
X114.816 Y-70.682
X113.938 Y-70.772
X113.055 Y-70.879
X112.17 Y-71.001
X111.281 Y-71.14
X110.388 Y-71.296
X109.491 Y-71.469
X108.592 Y-71.661
X107.689 Y-71.872
X106.782 Y-72.102
X105.872 Y-72.352
X104.959 Y-72.622
X104.042 Y-72.914
X103.122 Y-73.226
X102.198 Y-73.56
X101.27 Y-73.914
X100.339 Y-74.291
X99.404 Y-74.689
X98.461 Y-75.112
X98.143 Y-75.258
G2 X97.1 Y-75.486 I-1.044 J2.272
G1 X-50.504
G2 X-51.536 Y-75.263 I0 J2.5
G1 X-51.867 Y-75.113
X-52.811 Y-74.695
X-53.746 Y-74.302
X-54.677 Y-73.93
X-55.605 Y-73.579
X-56.529 Y-73.249
X-57.449 Y-72.94
X-58.366 Y-72.651
X-59.279 Y-72.383
X-60.188 Y-72.135
X-61.094 Y-71.907
X-61.997 Y-71.697
X-62.896 Y-71.506
X-63.792 Y-71.333
X-64.684 Y-71.177
X-65.572 Y-71.038
X-66.457 Y-70.916
X-67.338 Y-70.809
X-68.215 Y-70.717
X-69.088 Y-70.64
X-69.958 Y-70.577
X-70.823 Y-70.528
X-71.685 Y-70.492
X-72.542 Y-70.468
X-73.396 Y-70.456
X-74.245
X-75.085 Y-70.467
X-76.768 Y-70.519
X-78.427 Y-70.606
X-80.067 Y-70.725
X-81.688 Y-70.873
X-83.291 Y-71.047
X-84.874 Y-71.243
X-86.439 Y-71.459
X-87.984 Y-71.693
X-89.512 Y-71.94
X-91.021 Y-72.197
X-92.51 Y-72.462
X-93.98 Y-72.735
X-95.431 Y-73.015
X-96.864 Y-73.301
X-98.279 Y-73.593
X-99.676 Y-73.89
X-101.056 Y-74.193
X-102.418 Y-74.5
X-103.766 Y-74.811
X-105.095 Y-75.125
X-106.414 Y-75.444
G2 X-106.786 Y-75.485 I-0.352 J1.458
X-117.148 Y-64.986 I0.138 J10.499
G1 Y65
G2 X-106.648 Y75.5 I10.5 J0
G1 X153.352
G2 X163.852 Y65 I0 J-10.5
G1 Y-64.986
G2 X153.488 Y-75.485 I-10.5 J0
G1 Z-9 F333.3
G2 X153.123 Y-75.445 I-0.02 J1.5 F700
G1 X151.8 Y-75.131
X150.465 Y-74.82
X149.114 Y-74.513
X147.747 Y-74.208
X146.363 Y-73.908
X144.961 Y-73.612
X143.542 Y-73.32
X142.104 Y-73.035
X140.648 Y-72.754
X139.173 Y-72.48
X137.679 Y-72.213
X136.166 Y-71.953
X134.634 Y-71.704
X133.084 Y-71.467
X131.515 Y-71.247
X129.926 Y-71.047
X128.32 Y-70.869
X126.695 Y-70.717
X125.05 Y-70.593
X123.386 Y-70.501
X121.7 Y-70.445
X120.857 Y-70.432
X120.007 Y-70.43
X119.152 Y-70.44
X118.292 Y-70.462
X117.429 Y-70.496
X116.562 Y-70.544
X115.691 Y-70.606
X114.816 Y-70.682
X113.938 Y-70.772
X113.055 Y-70.879
X112.17 Y-71.001
X111.281 Y-71.14
X110.388 Y-71.296
X109.491 Y-71.469
X108.592 Y-71.661
X107.689 Y-71.872
X106.782 Y-72.102
X105.872 Y-72.352
X104.959 Y-72.622
X104.042 Y-72.914
X103.122 Y-73.226
X102.198 Y-73.56
X101.27 Y-73.914
X100.339 Y-74.291
X99.404 Y-74.689
X98.461 Y-75.112
X98.143 Y-75.258
G2 X97.1 Y-75.486 I-1.044 J2.272
G1 X-50.504
G2 X-51.536 Y-75.263 I0 J2.5
G1 X-51.867 Y-75.113
X-52.811 Y-74.695
X-53.746 Y-74.302
X-54.677 Y-73.93
X-55.605 Y-73.579
X-56.529 Y-73.249
X-57.449 Y-72.94
X-58.366 Y-72.651
X-59.279 Y-72.383
X-60.188 Y-72.135
X-61.094 Y-71.907
X-61.997 Y-71.697
X-62.896 Y-71.506
X-63.792 Y-71.333
X-64.684 Y-71.177
X-65.572 Y-71.038
X-66.457 Y-70.916
X-67.338 Y-70.809
X-68.215 Y-70.717
X-69.088 Y-70.64
X-69.958 Y-70.577
X-70.823 Y-70.528
X-71.685 Y-70.492
X-72.542 Y-70.468
X-73.396 Y-70.456
X-74.245
X-75.085 Y-70.467
X-76.768 Y-70.519
X-78.427 Y-70.606
X-80.067 Y-70.725
X-81.688 Y-70.873
X-83.291 Y-71.047
X-84.874 Y-71.243
X-86.439 Y-71.459
X-87.984 Y-71.693
X-89.512 Y-71.94
X-91.021 Y-72.197
X-92.51 Y-72.462
X-93.98 Y-72.735
X-95.431 Y-73.015
X-96.864 Y-73.301
X-98.279 Y-73.593
X-99.676 Y-73.89
X-101.056 Y-74.193
X-102.418 Y-74.5
X-103.766 Y-74.811
X-105.095 Y-75.125
X-106.414 Y-75.444
G2 X-106.786 Y-75.485 I-0.352 J1.458
X-117.148 Y-64.986 I0.138 J10.499
G1 Y65
G2 X-106.648 Y75.5 I10.5 J0
G1 X153.352
G2 X163.852 Y65 I0 J-10.5
G1 Y-64.986
G2 X153.488 Y-75.485 I-10.5 J0
G1 Z-9.5 F333.3
G2 X153.123 Y-75.445 I-0.02 J1.5 F700
G1 X151.8 Y-75.131
X150.465 Y-74.82
X149.114 Y-74.513
X147.747 Y-74.208
X146.363 Y-73.908
X144.961 Y-73.612
X143.542 Y-73.32
X142.104 Y-73.035
X140.648 Y-72.754
X139.173 Y-72.48
X137.679 Y-72.213
X136.166 Y-71.953
X134.634 Y-71.704
X133.084 Y-71.467
X131.515 Y-71.247
X129.926 Y-71.047
X128.32 Y-70.869
X126.695 Y-70.717
X125.05 Y-70.593
X123.386 Y-70.501
X121.7 Y-70.445
X120.857 Y-70.432
X120.007 Y-70.43
X119.152 Y-70.44
X118.292 Y-70.462
X117.429 Y-70.496
X116.562 Y-70.544
X115.691 Y-70.606
X114.816 Y-70.682
X113.938 Y-70.772
X113.055 Y-70.879
X112.17 Y-71.001
X111.281 Y-71.14
X110.388 Y-71.296
X109.491 Y-71.469
X108.592 Y-71.661
X107.689 Y-71.872
X106.782 Y-72.102
X105.872 Y-72.352
X104.959 Y-72.622
X104.042 Y-72.914
X103.122 Y-73.226
X102.198 Y-73.56
X101.27 Y-73.914
X100.339 Y-74.291
X99.404 Y-74.689
X98.461 Y-75.112
X98.143 Y-75.258
G2 X97.1 Y-75.486 I-1.044 J2.272
G1 X-50.504
G2 X-51.536 Y-75.263 I0 J2.5
G1 X-51.867 Y-75.113
X-52.811 Y-74.695
X-53.746 Y-74.302
X-54.677 Y-73.93
X-55.605 Y-73.579
X-56.529 Y-73.249
X-57.449 Y-72.94
X-58.366 Y-72.651
X-59.279 Y-72.383
X-60.188 Y-72.135
X-61.094 Y-71.907
X-61.997 Y-71.697
X-62.896 Y-71.506
X-63.792 Y-71.333
X-64.684 Y-71.177
X-65.572 Y-71.038
X-66.457 Y-70.916
X-67.338 Y-70.809
X-68.215 Y-70.717
X-69.088 Y-70.64
X-69.958 Y-70.577
X-70.823 Y-70.528
X-71.685 Y-70.492
X-72.542 Y-70.468
X-73.396 Y-70.456
X-74.245
X-75.085 Y-70.467
X-76.768 Y-70.519
X-78.427 Y-70.606
X-80.067 Y-70.725
X-81.688 Y-70.873
X-83.291 Y-71.047
X-84.874 Y-71.243
X-86.439 Y-71.459
X-87.984 Y-71.693
X-89.512 Y-71.94
X-91.021 Y-72.197
X-92.51 Y-72.462
X-93.98 Y-72.735
X-95.431 Y-73.015
X-96.864 Y-73.301
X-98.279 Y-73.593
X-99.676 Y-73.89
X-101.056 Y-74.193
X-102.418 Y-74.5
X-103.766 Y-74.811
X-105.095 Y-75.125
X-106.414 Y-75.444
G2 X-106.786 Y-75.485 I-0.352 J1.458
X-117.148 Y-64.986 I0.138 J10.499
G1 Y65
G2 X-106.648 Y75.5 I10.5 J0
G1 X153.352
G2 X163.852 Y65 I0 J-10.5
G1 Y-64.986
G2 X153.488 Y-75.485 I-10.5 J0
G1 Z-10 F333.3
G2 X153.123 Y-75.445 I-0.02 J1.5 F700
G1 X151.8 Y-75.131
X150.465 Y-74.82
X149.114 Y-74.513
X147.747 Y-74.208
X146.363 Y-73.908
X144.961 Y-73.612
X143.542 Y-73.32
X142.104 Y-73.035
X140.648 Y-72.754
X139.173 Y-72.48
X137.679 Y-72.213
X136.166 Y-71.953
X134.634 Y-71.704
X133.084 Y-71.467
X131.515 Y-71.247
X129.926 Y-71.047
X128.32 Y-70.869
X126.695 Y-70.717
X125.05 Y-70.593
X123.386 Y-70.501
X121.7 Y-70.445
X120.857 Y-70.432
X120.007 Y-70.43
X119.152 Y-70.44
X118.292 Y-70.462
X117.429 Y-70.496
X116.562 Y-70.544
X115.691 Y-70.606
X114.816 Y-70.682
X113.938 Y-70.772
X113.055 Y-70.879
X112.17 Y-71.001
X111.281 Y-71.14
X110.388 Y-71.296
X109.491 Y-71.469
X108.592 Y-71.661
X107.689 Y-71.872
X106.782 Y-72.102
X105.872 Y-72.352
X104.959 Y-72.622
X104.042 Y-72.914
X103.122 Y-73.226
X102.198 Y-73.56
X101.27 Y-73.914
X100.339 Y-74.291
X99.404 Y-74.689
X98.461 Y-75.112
X98.143 Y-75.258
G2 X97.1 Y-75.486 I-1.044 J2.272
G1 X-50.504
G2 X-51.536 Y-75.263 I0 J2.5
G1 X-51.867 Y-75.113
X-52.811 Y-74.695
X-53.746 Y-74.302
X-54.677 Y-73.93
X-55.605 Y-73.579
X-56.529 Y-73.249
X-57.449 Y-72.94
X-58.366 Y-72.651
X-59.279 Y-72.383
X-60.188 Y-72.135
X-61.094 Y-71.907
X-61.997 Y-71.697
X-62.896 Y-71.506
X-63.792 Y-71.333
X-64.684 Y-71.177
X-65.572 Y-71.038
X-66.457 Y-70.916
X-67.338 Y-70.809
X-68.215 Y-70.717
X-69.088 Y-70.64
X-69.958 Y-70.577
X-70.823 Y-70.528
X-71.685 Y-70.492
X-72.542 Y-70.468
X-73.396 Y-70.456
X-74.245
X-75.085 Y-70.467
X-76.768 Y-70.519
X-78.427 Y-70.606
X-80.067 Y-70.725
X-81.688 Y-70.873
X-83.291 Y-71.047
X-84.874 Y-71.243
X-86.439 Y-71.459
X-87.984 Y-71.693
X-89.512 Y-71.94
X-91.021 Y-72.197
X-92.51 Y-72.462
X-93.98 Y-72.735
X-95.431 Y-73.015
X-96.864 Y-73.301
X-98.279 Y-73.593
X-99.676 Y-73.89
X-101.056 Y-74.193
X-102.418 Y-74.5
X-103.766 Y-74.811
X-105.095 Y-75.125
X-106.414 Y-75.444
G2 X-106.786 Y-75.485 I-0.352 J1.458
X-117.148 Y-64.986 I0.138 J10.499
G1 Y65
G2 X-106.648 Y75.5 I10.5 J0
G1 X153.352
G2 X163.852 Y65 I0 J-10.5
G1 Y-64.986
G2 X153.488 Y-75.485 I-10.5 J0
G1 Z-10.5 F333.3
G2 X153.123 Y-75.445 I-0.02 J1.5 F700
G1 X151.8 Y-75.131
X150.465 Y-74.82
X149.114 Y-74.513
X147.747 Y-74.208
X146.363 Y-73.908
X144.961 Y-73.612
X143.542 Y-73.32
X142.104 Y-73.035
X140.648 Y-72.754
X139.173 Y-72.48
X137.679 Y-72.213
X136.166 Y-71.953
X134.634 Y-71.704
X133.084 Y-71.467
X131.515 Y-71.247
X129.926 Y-71.047
X128.32 Y-70.869
X126.695 Y-70.717
X125.05 Y-70.593
X123.386 Y-70.501
X121.7 Y-70.445
X120.857 Y-70.432
X120.007 Y-70.43
X119.152 Y-70.44
X118.292 Y-70.462
X117.429 Y-70.496
X116.562 Y-70.544
X115.691 Y-70.606
X114.816 Y-70.682
X113.938 Y-70.772
X113.055 Y-70.879
X112.17 Y-71.001
X111.281 Y-71.14
X110.388 Y-71.296
X109.491 Y-71.469
X108.592 Y-71.661
X107.689 Y-71.872
X106.782 Y-72.102
X105.872 Y-72.352
X104.959 Y-72.622
X104.042 Y-72.914
X103.122 Y-73.226
X102.198 Y-73.56
X101.27 Y-73.914
X100.339 Y-74.291
X99.404 Y-74.689
X98.461 Y-75.112
X98.143 Y-75.258
G2 X97.1 Y-75.486 I-1.044 J2.272
G1 X-50.504
G2 X-51.536 Y-75.263 I0 J2.5
G1 X-51.867 Y-75.113
X-52.811 Y-74.695
X-53.746 Y-74.302
X-54.677 Y-73.93
X-55.605 Y-73.579
X-56.529 Y-73.249
X-57.449 Y-72.94
X-58.366 Y-72.651
X-59.279 Y-72.383
X-60.188 Y-72.135
X-61.094 Y-71.907
X-61.997 Y-71.697
X-62.896 Y-71.506
X-63.792 Y-71.333
X-64.684 Y-71.177
X-65.572 Y-71.038
X-66.457 Y-70.916
X-67.338 Y-70.809
X-68.215 Y-70.717
X-69.088 Y-70.64
X-69.958 Y-70.577
X-70.823 Y-70.528
X-71.685 Y-70.492
X-72.542 Y-70.468
X-73.396 Y-70.456
X-74.245
X-75.085 Y-70.467
X-76.768 Y-70.519
X-78.427 Y-70.606
X-80.067 Y-70.725
X-81.688 Y-70.873
X-83.291 Y-71.047
X-84.874 Y-71.243
X-86.439 Y-71.459
X-87.984 Y-71.693
X-89.512 Y-71.94
X-91.021 Y-72.197
X-92.51 Y-72.462
X-93.98 Y-72.735
X-95.431 Y-73.015
X-96.864 Y-73.301
X-98.279 Y-73.593
X-99.676 Y-73.89
X-101.056 Y-74.193
X-102.418 Y-74.5
X-103.766 Y-74.811
X-105.095 Y-75.125
X-106.414 Y-75.444
G2 X-106.786 Y-75.485 I-0.352 J1.458
X-117.148 Y-64.986 I0.138 J10.499
G1 Y65
G2 X-106.648 Y75.5 I10.5 J0
G1 X153.352
G2 X163.852 Y65 I0 J-10.5
G1 Y-64.986
G2 X153.488 Y-75.485 I-10.5 J0
G1 Z-11 F333.3
G2 X153.123 Y-75.445 I-0.02 J1.5 F700
G1 X151.8 Y-75.131
X150.465 Y-74.82
X149.114 Y-74.513
X147.747 Y-74.208
X146.363 Y-73.908
X144.961 Y-73.612
X143.542 Y-73.32
X142.104 Y-73.035
X140.648 Y-72.754
X139.173 Y-72.48
X137.679 Y-72.213
X136.166 Y-71.953
X134.634 Y-71.704
X133.084 Y-71.467
X131.515 Y-71.247
X129.926 Y-71.047
X128.32 Y-70.869
X126.695 Y-70.717
X125.05 Y-70.593
X123.386 Y-70.501
X121.7 Y-70.445
X120.857 Y-70.432
X120.007 Y-70.43
X119.152 Y-70.44
X118.292 Y-70.462
X117.429 Y-70.496
X116.562 Y-70.544
X115.691 Y-70.606
X114.816 Y-70.682
X113.938 Y-70.772
X113.055 Y-70.879
X112.17 Y-71.001
X111.281 Y-71.14
X110.388 Y-71.296
X109.491 Y-71.469
X108.592 Y-71.661
X107.689 Y-71.872
X106.782 Y-72.102
X105.872 Y-72.352
X104.959 Y-72.622
X104.042 Y-72.914
X103.122 Y-73.226
X102.198 Y-73.56
X101.27 Y-73.914
X100.339 Y-74.291
X99.404 Y-74.689
X98.461 Y-75.112
X98.143 Y-75.258
G2 X97.1 Y-75.486 I-1.044 J2.272
G1 X-50.504
G2 X-51.536 Y-75.263 I0 J2.5
G1 X-51.867 Y-75.113
X-52.811 Y-74.695
X-53.746 Y-74.302
X-54.677 Y-73.93
X-55.605 Y-73.579
X-56.529 Y-73.249
X-57.449 Y-72.94
X-58.366 Y-72.651
X-59.279 Y-72.383
X-60.188 Y-72.135
X-61.094 Y-71.907
X-61.997 Y-71.697
X-62.896 Y-71.506
X-63.792 Y-71.333
X-64.684 Y-71.177
X-65.572 Y-71.038
X-66.457 Y-70.916
X-67.338 Y-70.809
X-68.215 Y-70.717
X-69.088 Y-70.64
X-69.958 Y-70.577
X-70.823 Y-70.528
X-71.685 Y-70.492
X-72.542 Y-70.468
X-73.396 Y-70.456
X-74.245
X-75.085 Y-70.467
X-76.768 Y-70.519
X-78.427 Y-70.606
X-80.067 Y-70.725
X-81.688 Y-70.873
X-83.291 Y-71.047
X-84.874 Y-71.243
X-86.439 Y-71.459
X-87.984 Y-71.693
X-89.512 Y-71.94
X-91.021 Y-72.197
X-92.51 Y-72.462
X-93.98 Y-72.735
X-95.431 Y-73.015
X-96.864 Y-73.301
X-98.279 Y-73.593
X-99.676 Y-73.89
X-101.056 Y-74.193
X-102.418 Y-74.5
X-103.766 Y-74.811
X-105.095 Y-75.125
X-106.414 Y-75.444
G2 X-106.786 Y-75.485 I-0.352 J1.458
X-117.148 Y-64.986 I0.138 J10.499
G1 Y65
G2 X-106.648 Y75.5 I10.5 J0
G1 X153.352
G2 X163.852 Y65 I0 J-10.5
G1 Y-64.986
G2 X153.488 Y-75.485 I-10.5 J0
G1 Z-11.5 F333.3
G2 X153.123 Y-75.445 I-0.02 J1.5 F700
G1 X151.8 Y-75.131
X150.465 Y-74.82
X149.114 Y-74.513
X147.747 Y-74.208
X146.363 Y-73.908
X144.961 Y-73.612
X143.542 Y-73.32
X142.104 Y-73.035
X140.648 Y-72.754
X139.173 Y-72.48
X137.679 Y-72.213
X136.166 Y-71.953
X134.634 Y-71.704
X133.084 Y-71.467
X131.515 Y-71.247
X129.926 Y-71.047
X128.32 Y-70.869
X126.695 Y-70.717
X125.05 Y-70.593
X123.386 Y-70.501
X121.7 Y-70.445
X120.857 Y-70.432
X120.007 Y-70.43
X119.152 Y-70.44
X118.292 Y-70.462
X117.429 Y-70.496
X116.562 Y-70.544
X115.691 Y-70.606
X114.816 Y-70.682
X113.938 Y-70.772
X113.055 Y-70.879
X112.17 Y-71.001
X111.281 Y-71.14
X110.388 Y-71.296
X109.491 Y-71.469
X108.592 Y-71.661
X107.689 Y-71.872
X106.782 Y-72.102
X105.872 Y-72.352
X104.959 Y-72.622
X104.042 Y-72.914
X103.122 Y-73.226
X102.198 Y-73.56
X101.27 Y-73.914
X100.339 Y-74.291
X99.404 Y-74.689
X98.461 Y-75.112
X98.143 Y-75.258
G2 X97.1 Y-75.486 I-1.044 J2.272
G1 X-50.504
G2 X-51.536 Y-75.263 I0 J2.5
G1 X-51.867 Y-75.113
X-52.811 Y-74.695
X-53.746 Y-74.302
X-54.677 Y-73.93
X-55.605 Y-73.579
X-56.529 Y-73.249
X-57.449 Y-72.94
X-58.366 Y-72.651
X-59.279 Y-72.383
X-60.188 Y-72.135
X-61.094 Y-71.907
X-61.997 Y-71.697
X-62.896 Y-71.506
X-63.792 Y-71.333
X-64.684 Y-71.177
X-65.572 Y-71.038
X-66.457 Y-70.916
X-67.338 Y-70.809
X-68.215 Y-70.717
X-69.088 Y-70.64
X-69.958 Y-70.577
X-70.823 Y-70.528
X-71.685 Y-70.492
X-72.542 Y-70.468
X-73.396 Y-70.456
X-74.245
X-75.085 Y-70.467
X-76.768 Y-70.519
X-78.427 Y-70.606
X-80.067 Y-70.725
X-81.688 Y-70.873
X-83.291 Y-71.047
X-84.874 Y-71.243
X-86.439 Y-71.459
X-87.984 Y-71.693
X-89.512 Y-71.94
X-91.021 Y-72.197
X-92.51 Y-72.462
X-93.98 Y-72.735
X-95.431 Y-73.015
X-96.864 Y-73.301
X-98.279 Y-73.593
X-99.676 Y-73.89
X-101.056 Y-74.193
X-102.418 Y-74.5
X-103.766 Y-74.811
X-105.095 Y-75.125
X-106.414 Y-75.444
G2 X-106.786 Y-75.485 I-0.352 J1.458
X-117.148 Y-64.986 I0.138 J10.499
G1 Y65
G2 X-106.648 Y75.5 I10.5 J0
G1 X153.352
G2 X163.852 Y65 I0 J-10.5
G1 Y-64.986
G2 X153.488 Y-75.485 I-10.5 J0
G1 Z-12 F333.3
G2 X153.123 Y-75.445 I-0.02 J1.5 F700
G1 X151.8 Y-75.131
X150.465 Y-74.82
X149.114 Y-74.513
X147.747 Y-74.208
X146.363 Y-73.908
X144.961 Y-73.612
X143.542 Y-73.32
X142.104 Y-73.035
X140.648 Y-72.754
X139.173 Y-72.48
X137.679 Y-72.213
X136.166 Y-71.953
X134.634 Y-71.704
X133.084 Y-71.467
X131.515 Y-71.247
X129.926 Y-71.047
X128.32 Y-70.869
X126.695 Y-70.717
X125.05 Y-70.593
X123.386 Y-70.501
X121.7 Y-70.445
X120.857 Y-70.432
X120.007 Y-70.43
X119.152 Y-70.44
X118.292 Y-70.462
X117.429 Y-70.496
X116.562 Y-70.544
X115.691 Y-70.606
X114.816 Y-70.682
X113.938 Y-70.772
X113.055 Y-70.879
X112.17 Y-71.001
X111.281 Y-71.14
X110.388 Y-71.296
X109.491 Y-71.469
X108.592 Y-71.661
X107.689 Y-71.872
X106.782 Y-72.102
X105.872 Y-72.352
X104.959 Y-72.622
X104.042 Y-72.914
X103.122 Y-73.226
X102.198 Y-73.56
X101.27 Y-73.914
X100.339 Y-74.291
X99.404 Y-74.689
X98.461 Y-75.112
X98.143 Y-75.258
G2 X97.1 Y-75.486 I-1.044 J2.272
G1 X-50.504
G2 X-51.536 Y-75.263 I0 J2.5
G1 X-51.867 Y-75.113
X-52.811 Y-74.695
X-53.746 Y-74.302
X-54.677 Y-73.93
X-55.605 Y-73.579
X-56.529 Y-73.249
X-57.449 Y-72.94
X-58.366 Y-72.651
X-59.279 Y-72.383
X-60.188 Y-72.135
X-61.094 Y-71.907
X-61.997 Y-71.697
X-62.896 Y-71.506
X-63.792 Y-71.333
X-64.684 Y-71.177
X-65.572 Y-71.038
X-66.457 Y-70.916
X-67.338 Y-70.809
X-68.215 Y-70.717
X-69.088 Y-70.64
X-69.958 Y-70.577
X-70.823 Y-70.528
X-71.685 Y-70.492
X-72.542 Y-70.468
X-73.396 Y-70.456
X-74.245
X-75.085 Y-70.467
X-76.768 Y-70.519
X-78.427 Y-70.606
X-80.067 Y-70.725
X-81.688 Y-70.873
X-83.291 Y-71.047
X-84.874 Y-71.243
X-86.439 Y-71.459
X-87.984 Y-71.693
X-89.512 Y-71.94
X-91.021 Y-72.197
X-92.51 Y-72.462
X-93.98 Y-72.735
X-95.431 Y-73.015
X-96.864 Y-73.301
X-98.279 Y-73.593
X-99.676 Y-73.89
X-101.056 Y-74.193
X-102.418 Y-74.5
X-103.766 Y-74.811
X-105.095 Y-75.125
X-106.414 Y-75.444
G2 X-106.786 Y-75.485 I-0.352 J1.458
X-117.148 Y-64.986 I0.138 J10.499
G1 Y65
G2 X-106.648 Y75.5 I10.5 J0
G1 X153.352
G2 X163.852 Y65 I0 J-10.5
G1 Y-64.986
G2 X153.488 Y-75.485 I-10.5 J0
G1 Z-12.5 F333.3
G2 X153.123 Y-75.445 I-0.02 J1.5 F700
G1 X151.8 Y-75.131
X150.465 Y-74.82
X149.114 Y-74.513
X147.747 Y-74.208
X146.363 Y-73.908
X144.961 Y-73.612
X143.542 Y-73.32
X142.104 Y-73.035
X140.648 Y-72.754
X139.173 Y-72.48
X137.679 Y-72.213
X136.166 Y-71.953
X134.634 Y-71.704
X133.084 Y-71.467
X131.515 Y-71.247
X129.926 Y-71.047
X128.32 Y-70.869
X126.695 Y-70.717
X125.05 Y-70.593
X123.386 Y-70.501
X121.7 Y-70.445
X120.857 Y-70.432
X120.007 Y-70.43
X119.152 Y-70.44
X118.292 Y-70.462
X117.429 Y-70.496
X116.562 Y-70.544
X115.691 Y-70.606
X114.816 Y-70.682
X113.938 Y-70.772
X113.055 Y-70.879
X112.17 Y-71.001
X111.281 Y-71.14
X110.388 Y-71.296
X109.491 Y-71.469
X108.592 Y-71.661
X107.689 Y-71.872
X106.782 Y-72.102
X105.872 Y-72.352
X104.959 Y-72.622
X104.042 Y-72.914
X103.122 Y-73.226
X102.198 Y-73.56
X101.27 Y-73.914
X100.339 Y-74.291
X99.404 Y-74.689
X98.461 Y-75.112
X98.143 Y-75.258
G2 X97.1 Y-75.486 I-1.044 J2.272
G1 X-50.504
G2 X-51.536 Y-75.263 I0 J2.5
G1 X-51.867 Y-75.113
X-52.811 Y-74.695
X-53.746 Y-74.302
X-54.677 Y-73.93
X-55.605 Y-73.579
X-56.529 Y-73.249
X-57.449 Y-72.94
X-58.366 Y-72.651
X-59.279 Y-72.383
X-60.188 Y-72.135
X-61.094 Y-71.907
X-61.997 Y-71.697
X-62.896 Y-71.506
X-63.792 Y-71.333
X-64.684 Y-71.177
X-65.572 Y-71.038
X-66.457 Y-70.916
X-67.338 Y-70.809
X-68.215 Y-70.717
X-69.088 Y-70.64
X-69.958 Y-70.577
X-70.823 Y-70.528
X-71.685 Y-70.492
X-72.542 Y-70.468
X-73.396 Y-70.456
X-74.245
X-75.085 Y-70.467
X-76.768 Y-70.519
X-78.427 Y-70.606
X-80.067 Y-70.725
X-81.688 Y-70.873
X-83.291 Y-71.047
X-84.874 Y-71.243
X-86.439 Y-71.459
X-87.984 Y-71.693
X-89.512 Y-71.94
X-91.021 Y-72.197
X-92.51 Y-72.462
X-93.98 Y-72.735
X-95.431 Y-73.015
X-96.864 Y-73.301
X-98.279 Y-73.593
X-99.676 Y-73.89
X-101.056 Y-74.193
X-102.418 Y-74.5
X-103.766 Y-74.811
X-105.095 Y-75.125
X-106.414 Y-75.444
G2 X-106.786 Y-75.485 I-0.352 J1.458
X-117.148 Y-64.986 I0.138 J10.499
G1 Y65
G2 X-106.648 Y75.5 I10.5 J0
G1 X153.352
G2 X163.852 Y65 I0 J-10.5
G1 Y-64.986
G2 X153.488 Y-75.485 I-10.5 J0
G1 Z-13 F333.3
G2 X153.123 Y-75.445 I-0.02 J1.5 F700
G1 X151.8 Y-75.131
X150.465 Y-74.82
X149.114 Y-74.513
X147.747 Y-74.208
X146.363 Y-73.908
X144.961 Y-73.612
X143.542 Y-73.32
X142.104 Y-73.035
X140.648 Y-72.754
X139.173 Y-72.48
X137.679 Y-72.213
X136.166 Y-71.953
X134.634 Y-71.704
X133.084 Y-71.467
X131.515 Y-71.247
X129.926 Y-71.047
X128.32 Y-70.869
X126.695 Y-70.717
X125.05 Y-70.593
X123.386 Y-70.501
X121.7 Y-70.445
X120.857 Y-70.432
X120.007 Y-70.43
X119.152 Y-70.44
X118.292 Y-70.462
X117.429 Y-70.496
X116.562 Y-70.544
X115.691 Y-70.606
X114.816 Y-70.682
X113.938 Y-70.772
X113.055 Y-70.879
X112.17 Y-71.001
X111.281 Y-71.14
X110.388 Y-71.296
X109.491 Y-71.469
X108.592 Y-71.661
X107.689 Y-71.872
X106.782 Y-72.102
X105.872 Y-72.352
X104.959 Y-72.622
X104.042 Y-72.914
X103.122 Y-73.226
X102.198 Y-73.56
X101.27 Y-73.914
X100.339 Y-74.291
X99.404 Y-74.689
X98.461 Y-75.112
X98.143 Y-75.258
G2 X97.1 Y-75.486 I-1.044 J2.272
G1 X-50.504
G2 X-51.536 Y-75.263 I0 J2.5
G1 X-51.867 Y-75.113
X-52.811 Y-74.695
X-53.746 Y-74.302
X-54.677 Y-73.93
X-55.605 Y-73.579
X-56.529 Y-73.249
X-57.449 Y-72.94
X-58.366 Y-72.651
X-59.279 Y-72.383
X-60.188 Y-72.135
X-61.094 Y-71.907
X-61.997 Y-71.697
X-62.896 Y-71.506
X-63.792 Y-71.333
X-64.684 Y-71.177
X-65.572 Y-71.038
X-66.457 Y-70.916
X-67.338 Y-70.809
X-68.215 Y-70.717
X-69.088 Y-70.64
X-69.958 Y-70.577
X-70.823 Y-70.528
X-71.685 Y-70.492
X-72.542 Y-70.468
X-73.396 Y-70.456
X-74.245
X-75.085 Y-70.467
X-76.768 Y-70.519
X-78.427 Y-70.606
X-80.067 Y-70.725
X-81.688 Y-70.873
X-83.291 Y-71.047
X-84.874 Y-71.243
X-86.439 Y-71.459
X-87.984 Y-71.693
X-89.512 Y-71.94
X-91.021 Y-72.197
X-92.51 Y-72.462
X-93.98 Y-72.735
X-95.431 Y-73.015
X-96.864 Y-73.301
X-98.279 Y-73.593
X-99.676 Y-73.89
X-101.056 Y-74.193
X-102.418 Y-74.5
X-103.766 Y-74.811
X-105.095 Y-75.125
X-106.414 Y-75.444
G2 X-106.786 Y-75.485 I-0.352 J1.458
X-117.148 Y-64.986 I0.138 J10.499
G1 Y65
G2 X-106.648 Y75.5 I10.5 J0
G1 X153.352
G2 X163.852 Y65 I0 J-10.5
G1 Y-64.986
G2 X153.488 Y-75.485 I-10.5 J0
G1 Z-13.5 F333.3
G2 X153.123 Y-75.445 I-0.02 J1.5 F700
G1 X151.8 Y-75.131
X150.465 Y-74.82
X149.114 Y-74.513
X147.747 Y-74.208
X146.363 Y-73.908
X144.961 Y-73.612
X143.542 Y-73.32
X142.104 Y-73.035
X140.648 Y-72.754
X139.173 Y-72.48
X137.679 Y-72.213
X136.166 Y-71.953
X134.634 Y-71.704
X133.084 Y-71.467
X131.515 Y-71.247
X129.926 Y-71.047
X128.32 Y-70.869
X126.695 Y-70.717
X125.05 Y-70.593
X123.386 Y-70.501
X121.7 Y-70.445
X120.857 Y-70.432
X120.007 Y-70.43
X119.152 Y-70.44
X118.292 Y-70.462
X117.429 Y-70.496
X116.562 Y-70.544
X115.691 Y-70.606
X114.816 Y-70.682
X113.938 Y-70.772
X113.055 Y-70.879
X112.17 Y-71.001
X111.281 Y-71.14
X110.388 Y-71.296
X109.491 Y-71.469
X108.592 Y-71.661
X107.689 Y-71.872
X106.782 Y-72.102
X105.872 Y-72.352
X104.959 Y-72.622
X104.042 Y-72.914
X103.122 Y-73.226
X102.198 Y-73.56
X101.27 Y-73.914
X100.339 Y-74.291
X99.404 Y-74.689
X98.461 Y-75.112
X98.143 Y-75.258
G2 X97.1 Y-75.486 I-1.044 J2.272
G1 X-50.504
G2 X-51.536 Y-75.263 I0 J2.5
G1 X-51.867 Y-75.113
X-52.811 Y-74.695
X-53.746 Y-74.302
X-54.677 Y-73.93
X-55.605 Y-73.579
X-56.529 Y-73.249
X-57.449 Y-72.94
X-58.366 Y-72.651
X-59.279 Y-72.383
X-60.188 Y-72.135
X-61.094 Y-71.907
X-61.997 Y-71.697
X-62.896 Y-71.506
X-63.792 Y-71.333
X-64.684 Y-71.177
X-65.572 Y-71.038
X-66.457 Y-70.916
X-67.338 Y-70.809
X-68.215 Y-70.717
X-69.088 Y-70.64
X-69.958 Y-70.577
X-70.823 Y-70.528
X-71.685 Y-70.492
X-72.542 Y-70.468
X-73.396 Y-70.456
X-74.245
X-75.085 Y-70.467
X-76.768 Y-70.519
X-78.427 Y-70.606
X-80.067 Y-70.725
X-81.688 Y-70.873
X-83.291 Y-71.047
X-84.874 Y-71.243
X-86.439 Y-71.459
X-87.984 Y-71.693
X-89.512 Y-71.94
X-91.021 Y-72.197
X-92.51 Y-72.462
X-93.98 Y-72.735
X-95.431 Y-73.015
X-96.864 Y-73.301
X-98.279 Y-73.593
X-99.676 Y-73.89
X-101.056 Y-74.193
X-102.418 Y-74.5
X-103.766 Y-74.811
X-105.095 Y-75.125
X-106.414 Y-75.444
G2 X-106.786 Y-75.485 I-0.352 J1.458
X-117.148 Y-64.986 I0.138 J10.499
G1 Y65
G2 X-106.648 Y75.5 I10.5 J0
G1 X153.352
G2 X163.852 Y65 I0 J-10.5
G1 Y-64.986
G2 X153.488 Y-75.485 I-10.5 J0
G1 Z-14 F333.3
G2 X153.123 Y-75.445 I-0.02 J1.5 F700
G1 X151.8 Y-75.131
X150.465 Y-74.82
X149.114 Y-74.513
X147.747 Y-74.208
X146.363 Y-73.908
X144.961 Y-73.612
X143.542 Y-73.32
X142.104 Y-73.035
X140.648 Y-72.754
X139.173 Y-72.48
X137.679 Y-72.213
X136.166 Y-71.953
X134.634 Y-71.704
X133.084 Y-71.467
X131.515 Y-71.247
X129.926 Y-71.047
X128.32 Y-70.869
X126.695 Y-70.717
X125.05 Y-70.593
X123.386 Y-70.501
X121.7 Y-70.445
X120.857 Y-70.432
X120.007 Y-70.43
X119.152 Y-70.44
X118.292 Y-70.462
X117.429 Y-70.496
X116.562 Y-70.544
X115.691 Y-70.606
X114.816 Y-70.682
X113.938 Y-70.772
X113.055 Y-70.879
X112.17 Y-71.001
X111.281 Y-71.14
X110.388 Y-71.296
X109.491 Y-71.469
X108.592 Y-71.661
X107.689 Y-71.872
X106.782 Y-72.102
X105.872 Y-72.352
X104.959 Y-72.622
X104.042 Y-72.914
X103.122 Y-73.226
X102.198 Y-73.56
X101.27 Y-73.914
X100.339 Y-74.291
X99.404 Y-74.689
X98.461 Y-75.112
X98.143 Y-75.258
G2 X97.1 Y-75.486 I-1.044 J2.272
G1 X-50.504
G2 X-51.536 Y-75.263 I0 J2.5
G1 X-51.867 Y-75.113
X-52.811 Y-74.695
X-53.746 Y-74.302
X-54.677 Y-73.93
X-55.605 Y-73.579
X-56.529 Y-73.249
X-57.449 Y-72.94
X-58.366 Y-72.651
X-59.279 Y-72.383
X-60.188 Y-72.135
X-61.094 Y-71.907
X-61.997 Y-71.697
X-62.896 Y-71.506
X-63.792 Y-71.333
X-64.684 Y-71.177
X-65.572 Y-71.038
X-66.457 Y-70.916
X-67.338 Y-70.809
X-68.215 Y-70.717
X-69.088 Y-70.64
X-69.958 Y-70.577
X-70.823 Y-70.528
X-71.685 Y-70.492
X-72.542 Y-70.468
X-73.396 Y-70.456
X-74.245
X-75.085 Y-70.467
X-76.768 Y-70.519
X-78.427 Y-70.606
X-80.067 Y-70.725
X-81.688 Y-70.873
X-83.291 Y-71.047
X-84.874 Y-71.243
X-86.439 Y-71.459
X-87.984 Y-71.693
X-89.512 Y-71.94
X-91.021 Y-72.197
X-92.51 Y-72.462
X-93.98 Y-72.735
X-95.431 Y-73.015
X-96.864 Y-73.301
X-98.279 Y-73.593
X-99.676 Y-73.89
X-101.056 Y-74.193
X-102.418 Y-74.5
X-103.766 Y-74.811
X-105.095 Y-75.125
X-106.414 Y-75.444
G2 X-106.786 Y-75.485 I-0.352 J1.458
X-117.148 Y-64.986 I0.138 J10.499
G1 Y65
G2 X-106.648 Y75.5 I10.5 J0
G1 X153.352
G2 X163.852 Y65 I0 J-10.5
G1 Y-64.986
G2 X153.488 Y-75.485 I-10.5 J0
G1 Z-14.5 F333.3
G2 X153.123 Y-75.445 I-0.02 J1.5 F700
G1 X151.8 Y-75.131
X150.465 Y-74.82
X149.114 Y-74.513
X147.747 Y-74.208
X146.363 Y-73.908
X144.961 Y-73.612
X143.542 Y-73.32
X142.104 Y-73.035
X140.648 Y-72.754
X139.173 Y-72.48
X137.679 Y-72.213
X136.166 Y-71.953
X134.634 Y-71.704
X133.084 Y-71.467
X131.515 Y-71.247
X129.926 Y-71.047
X128.32 Y-70.869
X126.695 Y-70.717
X125.05 Y-70.593
X123.386 Y-70.501
X121.7 Y-70.445
X120.857 Y-70.432
X120.007 Y-70.43
X119.152 Y-70.44
X118.292 Y-70.462
X117.429 Y-70.496
X116.562 Y-70.544
X115.691 Y-70.606
X114.816 Y-70.682
X113.938 Y-70.772
X113.055 Y-70.879
X112.17 Y-71.001
X111.281 Y-71.14
X110.388 Y-71.296
X109.491 Y-71.469
X108.592 Y-71.661
X107.689 Y-71.872
X106.782 Y-72.102
X105.872 Y-72.352
X104.959 Y-72.622
X104.042 Y-72.914
X103.122 Y-73.226
X102.198 Y-73.56
X101.27 Y-73.914
X100.339 Y-74.291
X99.404 Y-74.689
X98.461 Y-75.112
X98.143 Y-75.258
G2 X97.1 Y-75.486 I-1.044 J2.272
G1 X-50.504
G2 X-51.536 Y-75.263 I0 J2.5
G1 X-51.867 Y-75.113
X-52.811 Y-74.695
X-53.746 Y-74.302
X-54.677 Y-73.93
X-55.605 Y-73.579
X-56.529 Y-73.249
X-57.449 Y-72.94
X-58.366 Y-72.651
X-59.279 Y-72.383
X-60.188 Y-72.135
X-61.094 Y-71.907
X-61.997 Y-71.697
X-62.896 Y-71.506
X-63.792 Y-71.333
X-64.684 Y-71.177
X-65.572 Y-71.038
X-66.457 Y-70.916
X-67.338 Y-70.809
X-68.215 Y-70.717
X-69.088 Y-70.64
X-69.958 Y-70.577
X-70.823 Y-70.528
X-71.685 Y-70.492
X-72.542 Y-70.468
X-73.396 Y-70.456
X-74.245
X-75.085 Y-70.467
X-76.768 Y-70.519
X-78.427 Y-70.606
X-80.067 Y-70.725
X-81.688 Y-70.873
X-83.291 Y-71.047
X-84.874 Y-71.243
X-86.439 Y-71.459
X-87.984 Y-71.693
X-89.512 Y-71.94
X-91.021 Y-72.197
X-92.51 Y-72.462
X-93.98 Y-72.735
X-95.431 Y-73.015
X-96.864 Y-73.301
X-98.279 Y-73.593
X-99.676 Y-73.89
X-101.056 Y-74.193
X-102.418 Y-74.5
X-103.766 Y-74.811
X-105.095 Y-75.125
X-106.414 Y-75.444
G2 X-106.786 Y-75.485 I-0.352 J1.458
X-117.148 Y-64.986 I0.138 J10.499
G1 Y65
G2 X-106.648 Y75.5 I10.5 J0
G1 X153.352
G2 X163.852 Y65 I0 J-10.5
G1 Y-64.986
G2 X153.488 Y-75.485 I-10.5 J0
G1 Z-15 F333.3
G2 X153.123 Y-75.445 I-0.02 J1.5 F700
G1 X151.8 Y-75.131
X150.465 Y-74.82
X149.114 Y-74.513
X147.747 Y-74.208
X146.363 Y-73.908
X144.961 Y-73.612
X143.542 Y-73.32
X142.104 Y-73.035
X140.648 Y-72.754
X139.173 Y-72.48
X137.679 Y-72.213
X136.166 Y-71.953
X134.634 Y-71.704
X133.084 Y-71.467
X131.515 Y-71.247
X129.926 Y-71.047
X128.32 Y-70.869
X126.695 Y-70.717
X125.05 Y-70.593
X123.386 Y-70.501
X121.7 Y-70.445
X120.857 Y-70.432
X120.007 Y-70.43
X119.152 Y-70.44
X118.292 Y-70.462
X117.429 Y-70.496
X116.562 Y-70.544
X115.691 Y-70.606
X114.816 Y-70.682
X113.938 Y-70.772
X113.055 Y-70.879
X112.17 Y-71.001
X111.281 Y-71.14
X110.388 Y-71.296
X109.491 Y-71.469
X108.592 Y-71.661
X107.689 Y-71.872
X106.782 Y-72.102
X105.872 Y-72.352
X104.959 Y-72.622
X104.042 Y-72.914
X103.122 Y-73.226
X102.198 Y-73.56
X101.27 Y-73.914
X100.339 Y-74.291
X99.404 Y-74.689
X98.461 Y-75.112
X98.143 Y-75.258
G2 X97.1 Y-75.486 I-1.044 J2.272
G1 X-50.504
G2 X-51.536 Y-75.263 I0 J2.5
G1 X-51.867 Y-75.113
X-52.811 Y-74.695
X-53.746 Y-74.302
X-54.677 Y-73.93
X-55.605 Y-73.579
X-56.529 Y-73.249
X-57.449 Y-72.94
X-58.366 Y-72.651
X-59.279 Y-72.383
X-60.188 Y-72.135
X-61.094 Y-71.907
X-61.997 Y-71.697
X-62.896 Y-71.506
X-63.792 Y-71.333
X-64.684 Y-71.177
X-65.572 Y-71.038
X-66.457 Y-70.916
X-67.338 Y-70.809
X-68.215 Y-70.717
X-69.088 Y-70.64
X-69.958 Y-70.577
X-70.823 Y-70.528
X-71.685 Y-70.492
X-72.542 Y-70.468
X-73.396 Y-70.456
X-74.245
X-75.085 Y-70.467
X-76.768 Y-70.519
X-78.427 Y-70.606
X-80.067 Y-70.725
X-81.688 Y-70.873
X-83.291 Y-71.047
X-84.874 Y-71.243
X-86.439 Y-71.459
X-87.984 Y-71.693
X-89.512 Y-71.94
X-91.021 Y-72.197
X-92.51 Y-72.462
X-93.98 Y-72.735
X-95.431 Y-73.015
X-96.864 Y-73.301
X-98.279 Y-73.593
X-99.676 Y-73.89
X-101.056 Y-74.193
X-102.418 Y-74.5
X-103.766 Y-74.811
X-105.095 Y-75.125
X-106.414 Y-75.444
G2 X-106.786 Y-75.485 I-0.352 J1.458
X-117.148 Y-64.986 I0.138 J10.499
G1 Y65
G2 X-106.648 Y75.5 I10.5 J0
G1 X153.352
G2 X163.852 Y65 I0 J-10.5
G1 Y-64.986
G2 X153.488 Y-75.485 I-10.5 J0
G1 Z-15.5 F333.3
G2 X153.123 Y-75.445 I-0.02 J1.5 F700
G1 X151.8 Y-75.131
X150.465 Y-74.82
X149.114 Y-74.513
X147.747 Y-74.208
X146.363 Y-73.908
X144.961 Y-73.612
X143.542 Y-73.32
X142.104 Y-73.035
X140.648 Y-72.754
X139.173 Y-72.48
X137.679 Y-72.213
X136.166 Y-71.953
X134.634 Y-71.704
X133.084 Y-71.467
X131.515 Y-71.247
X129.926 Y-71.047
X128.32 Y-70.869
X126.695 Y-70.717
X125.05 Y-70.593
X123.386 Y-70.501
X121.7 Y-70.445
X120.857 Y-70.432
X120.007 Y-70.43
X119.152 Y-70.44
X118.292 Y-70.462
X117.429 Y-70.496
X116.562 Y-70.544
X115.691 Y-70.606
X114.816 Y-70.682
X113.938 Y-70.772
X113.055 Y-70.879
X112.17 Y-71.001
X111.281 Y-71.14
X110.388 Y-71.296
X109.491 Y-71.469
X108.592 Y-71.661
X107.689 Y-71.872
X106.782 Y-72.102
X105.872 Y-72.352
X104.959 Y-72.622
X104.042 Y-72.914
X103.122 Y-73.226
X102.198 Y-73.56
X101.27 Y-73.914
X100.339 Y-74.291
X99.404 Y-74.689
X98.461 Y-75.112
X98.143 Y-75.258
G2 X97.1 Y-75.486 I-1.044 J2.272
G1 X-50.504
G2 X-51.536 Y-75.263 I0 J2.5
G1 X-51.867 Y-75.113
X-52.811 Y-74.695
X-53.746 Y-74.302
X-54.677 Y-73.93
X-55.605 Y-73.579
X-56.529 Y-73.249
X-57.449 Y-72.94
X-58.366 Y-72.651
X-59.279 Y-72.383
X-60.188 Y-72.135
X-61.094 Y-71.907
X-61.997 Y-71.697
X-62.896 Y-71.506
X-63.792 Y-71.333
X-64.684 Y-71.177
X-65.572 Y-71.038
X-66.457 Y-70.916
X-67.338 Y-70.809
X-68.215 Y-70.717
X-69.088 Y-70.64
X-69.958 Y-70.577
X-70.823 Y-70.528
X-71.685 Y-70.492
X-72.542 Y-70.468
X-73.396 Y-70.456
X-74.245
X-75.085 Y-70.467
X-76.768 Y-70.519
X-78.427 Y-70.606
X-80.067 Y-70.725
X-81.688 Y-70.873
X-83.291 Y-71.047
X-84.874 Y-71.243
X-86.439 Y-71.459
X-87.984 Y-71.693
X-89.512 Y-71.94
X-91.021 Y-72.197
X-92.51 Y-72.462
X-93.98 Y-72.735
X-95.431 Y-73.015
X-96.864 Y-73.301
X-98.279 Y-73.593
X-99.676 Y-73.89
X-101.056 Y-74.193
X-102.418 Y-74.5
X-103.766 Y-74.811
X-105.095 Y-75.125
X-106.414 Y-75.444
G2 X-106.786 Y-75.485 I-0.352 J1.458
X-117.148 Y-64.986 I0.138 J10.499
G1 Y65
G2 X-106.648 Y75.5 I10.5 J0
G1 X153.352
G2 X163.852 Y65 I0 J-10.5
G1 Y-64.986
G2 X153.488 Y-75.485 I-10.5 J0
G1 Z-16 F333.3
G2 X153.123 Y-75.445 I-0.02 J1.5 F700
G1 X151.8 Y-75.131
X150.465 Y-74.82
X149.114 Y-74.513
X147.747 Y-74.208
X146.363 Y-73.908
X144.961 Y-73.612
X143.542 Y-73.32
X142.104 Y-73.035
X140.648 Y-72.754
X139.173 Y-72.48
X137.679 Y-72.213
X136.166 Y-71.953
X134.634 Y-71.704
X133.084 Y-71.467
X131.515 Y-71.247
X129.926 Y-71.047
X128.32 Y-70.869
X126.695 Y-70.717
X125.05 Y-70.593
X123.386 Y-70.501
X121.7 Y-70.445
X120.857 Y-70.432
X120.007 Y-70.43
X119.152 Y-70.44
X118.292 Y-70.462
X117.429 Y-70.496
X116.562 Y-70.544
X115.691 Y-70.606
X114.816 Y-70.682
X113.938 Y-70.772
X113.055 Y-70.879
X112.17 Y-71.001
X111.281 Y-71.14
X110.388 Y-71.296
X109.491 Y-71.469
X108.592 Y-71.661
X107.689 Y-71.872
X106.782 Y-72.102
X105.872 Y-72.352
X104.959 Y-72.622
X104.042 Y-72.914
X103.122 Y-73.226
X102.198 Y-73.56
X101.27 Y-73.914
X100.339 Y-74.291
X99.404 Y-74.689
X98.461 Y-75.112
X98.143 Y-75.258
G2 X97.1 Y-75.486 I-1.044 J2.272
G1 X-50.504
G2 X-51.536 Y-75.263 I0 J2.5
G1 X-51.867 Y-75.113
X-52.811 Y-74.695
X-53.746 Y-74.302
X-54.677 Y-73.93
X-55.605 Y-73.579
X-56.529 Y-73.249
X-57.449 Y-72.94
X-58.366 Y-72.651
X-59.279 Y-72.383
X-60.188 Y-72.135
X-61.094 Y-71.907
X-61.997 Y-71.697
X-62.896 Y-71.506
X-63.792 Y-71.333
X-64.684 Y-71.177
X-65.572 Y-71.038
X-66.457 Y-70.916
X-67.338 Y-70.809
X-68.215 Y-70.717
X-69.088 Y-70.64
X-69.958 Y-70.577
X-70.823 Y-70.528
X-71.685 Y-70.492
X-72.542 Y-70.468
X-73.396 Y-70.456
X-74.245
X-75.085 Y-70.467
X-76.768 Y-70.519
X-78.427 Y-70.606
X-80.067 Y-70.725
X-81.688 Y-70.873
X-83.291 Y-71.047
X-84.874 Y-71.243
X-86.439 Y-71.459
X-87.984 Y-71.693
X-89.512 Y-71.94
X-91.021 Y-72.197
X-92.51 Y-72.462
X-93.98 Y-72.735
X-95.431 Y-73.015
X-96.864 Y-73.301
X-98.279 Y-73.593
X-99.676 Y-73.89
X-101.056 Y-74.193
X-102.418 Y-74.5
X-103.766 Y-74.811
X-105.095 Y-75.125
X-106.414 Y-75.444
G2 X-106.786 Y-75.485 I-0.352 J1.458
X-117.148 Y-64.986 I0.138 J10.499
G1 Y65
G2 X-106.648 Y75.5 I10.5 J0
G1 X153.352
G2 X163.852 Y65 I0 J-10.5
G1 Y-64.986
G2 X153.488 Y-75.485 I-10.5 J0
G1 Z-16.5 F333.3
G2 X153.123 Y-75.445 I-0.02 J1.5 F700
G1 X151.8 Y-75.131
X150.465 Y-74.82
X149.114 Y-74.513
X147.747 Y-74.208
X146.363 Y-73.908
X144.961 Y-73.612
X143.542 Y-73.32
X142.104 Y-73.035
X140.648 Y-72.754
X139.173 Y-72.48
X137.679 Y-72.213
X136.166 Y-71.953
X134.634 Y-71.704
X133.084 Y-71.467
X131.515 Y-71.247
X129.926 Y-71.047
X128.32 Y-70.869
X126.695 Y-70.717
X125.05 Y-70.593
X123.386 Y-70.501
X121.7 Y-70.445
X120.857 Y-70.432
X120.007 Y-70.43
X119.152 Y-70.44
X118.292 Y-70.462
X117.429 Y-70.496
X116.562 Y-70.544
X115.691 Y-70.606
X114.816 Y-70.682
X113.938 Y-70.772
X113.055 Y-70.879
X112.17 Y-71.001
X111.281 Y-71.14
X110.388 Y-71.296
X109.491 Y-71.469
X108.592 Y-71.661
X107.689 Y-71.872
X106.782 Y-72.102
X105.872 Y-72.352
X104.959 Y-72.622
X104.042 Y-72.914
X103.122 Y-73.226
X102.198 Y-73.56
X101.27 Y-73.914
X100.339 Y-74.291
X99.404 Y-74.689
X98.461 Y-75.112
X98.143 Y-75.258
G2 X97.1 Y-75.486 I-1.044 J2.272
G1 X-50.504
G2 X-51.536 Y-75.263 I0 J2.5
G1 X-51.867 Y-75.113
X-52.811 Y-74.695
X-53.746 Y-74.302
X-54.677 Y-73.93
X-55.605 Y-73.579
X-56.529 Y-73.249
X-57.449 Y-72.94
X-58.366 Y-72.651
X-59.279 Y-72.383
X-60.188 Y-72.135
X-61.094 Y-71.907
X-61.997 Y-71.697
X-62.896 Y-71.506
X-63.792 Y-71.333
X-64.684 Y-71.177
X-65.572 Y-71.038
X-66.457 Y-70.916
X-67.338 Y-70.809
X-68.215 Y-70.717
X-69.088 Y-70.64
X-69.958 Y-70.577
X-70.823 Y-70.528
X-71.685 Y-70.492
X-72.542 Y-70.468
X-73.396 Y-70.456
X-74.245
X-75.085 Y-70.467
X-76.768 Y-70.519
X-78.427 Y-70.606
X-80.067 Y-70.725
X-81.688 Y-70.873
X-83.291 Y-71.047
X-84.874 Y-71.243
X-86.439 Y-71.459
X-87.984 Y-71.693
X-89.512 Y-71.94
X-91.021 Y-72.197
X-92.51 Y-72.462
X-93.98 Y-72.735
X-95.431 Y-73.015
X-96.864 Y-73.301
X-98.279 Y-73.593
X-99.676 Y-73.89
X-101.056 Y-74.193
X-102.418 Y-74.5
X-103.766 Y-74.811
X-105.095 Y-75.125
X-106.414 Y-75.444
G2 X-106.786 Y-75.485 I-0.352 J1.458
X-117.148 Y-64.986 I0.138 J10.499
G1 Y65
G2 X-106.648 Y75.5 I10.5 J0
G1 X153.352
G2 X163.852 Y65 I0 J-10.5
G1 Y-64.986
G2 X153.488 Y-75.485 I-10.5 J0
G1 Z-17 F333.3
G2 X153.123 Y-75.445 I-0.02 J1.5 F700
G1 X151.8 Y-75.131
X150.465 Y-74.82
X149.114 Y-74.513
X147.747 Y-74.208
X146.363 Y-73.908
X144.961 Y-73.612
X143.542 Y-73.32
X142.104 Y-73.035
X140.648 Y-72.754
X139.173 Y-72.48
X137.679 Y-72.213
X136.166 Y-71.953
X134.634 Y-71.704
X133.084 Y-71.467
X131.515 Y-71.247
X129.926 Y-71.047
X128.32 Y-70.869
X126.695 Y-70.717
X125.05 Y-70.593
X123.386 Y-70.501
X121.7 Y-70.445
X120.857 Y-70.432
X120.007 Y-70.43
X119.152 Y-70.44
X118.292 Y-70.462
X117.429 Y-70.496
X116.562 Y-70.544
X115.691 Y-70.606
X114.816 Y-70.682
X113.938 Y-70.772
X113.055 Y-70.879
X112.17 Y-71.001
X111.281 Y-71.14
X110.388 Y-71.296
X109.491 Y-71.469
X108.592 Y-71.661
X107.689 Y-71.872
X106.782 Y-72.102
X105.872 Y-72.352
X104.959 Y-72.622
X104.042 Y-72.914
X103.122 Y-73.226
X102.198 Y-73.56
X101.27 Y-73.914
X100.339 Y-74.291
X99.404 Y-74.689
X98.461 Y-75.112
X98.143 Y-75.258
G2 X97.1 Y-75.486 I-1.044 J2.272
G1 X-50.504
G2 X-51.536 Y-75.263 I0 J2.5
G1 X-51.867 Y-75.113
X-52.811 Y-74.695
X-53.746 Y-74.302
X-54.677 Y-73.93
X-55.605 Y-73.579
X-56.529 Y-73.249
X-57.449 Y-72.94
X-58.366 Y-72.651
X-59.279 Y-72.383
X-60.188 Y-72.135
X-61.094 Y-71.907
X-61.997 Y-71.697
X-62.896 Y-71.506
X-63.792 Y-71.333
X-64.684 Y-71.177
X-65.572 Y-71.038
X-66.457 Y-70.916
X-67.338 Y-70.809
X-68.215 Y-70.717
X-69.088 Y-70.64
X-69.958 Y-70.577
X-70.823 Y-70.528
X-71.685 Y-70.492
X-72.542 Y-70.468
X-73.396 Y-70.456
X-74.245
X-75.085 Y-70.467
X-76.768 Y-70.519
X-78.427 Y-70.606
X-80.067 Y-70.725
X-81.688 Y-70.873
X-83.291 Y-71.047
X-84.874 Y-71.243
X-86.439 Y-71.459
X-87.984 Y-71.693
X-89.512 Y-71.94
X-91.021 Y-72.197
X-92.51 Y-72.462
X-93.98 Y-72.735
X-95.431 Y-73.015
X-96.864 Y-73.301
X-98.279 Y-73.593
X-99.676 Y-73.89
X-101.056 Y-74.193
X-102.418 Y-74.5
X-103.766 Y-74.811
X-105.095 Y-75.125
X-106.414 Y-75.444
G2 X-106.786 Y-75.485 I-0.352 J1.458
X-117.148 Y-64.986 I0.138 J10.499
G1 Y65
G2 X-106.648 Y75.5 I10.5 J0
G1 X153.352
G2 X163.852 Y65 I0 J-10.5
G1 Y-64.986
G2 X153.488 Y-75.485 I-10.5 J0
G1 Z-17.5 F333.3
G2 X153.123 Y-75.445 I-0.02 J1.5 F700
G1 X151.8 Y-75.131
X150.465 Y-74.82
X149.114 Y-74.513
X147.747 Y-74.208
X146.363 Y-73.908
X144.961 Y-73.612
X143.542 Y-73.32
X142.104 Y-73.035
X140.648 Y-72.754
X139.173 Y-72.48
X137.679 Y-72.213
X136.166 Y-71.953
X134.634 Y-71.704
X133.084 Y-71.467
X131.515 Y-71.247
X129.926 Y-71.047
X128.32 Y-70.869
X126.695 Y-70.717
X125.05 Y-70.593
X123.386 Y-70.501
X121.7 Y-70.445
X120.857 Y-70.432
X120.007 Y-70.43
X119.152 Y-70.44
X118.292 Y-70.462
X117.429 Y-70.496
X116.562 Y-70.544
X115.691 Y-70.606
X114.816 Y-70.682
X113.938 Y-70.772
X113.055 Y-70.879
X112.17 Y-71.001
X111.281 Y-71.14
X110.388 Y-71.296
X109.491 Y-71.469
X108.592 Y-71.661
X107.689 Y-71.872
X106.782 Y-72.102
X105.872 Y-72.352
X104.959 Y-72.622
X104.042 Y-72.914
X103.122 Y-73.226
X102.198 Y-73.56
X101.27 Y-73.914
X100.339 Y-74.291
X99.404 Y-74.689
X98.461 Y-75.112
X98.143 Y-75.258
G2 X97.1 Y-75.486 I-1.044 J2.272
G1 X-50.504
G2 X-51.536 Y-75.263 I0 J2.5
G1 X-51.867 Y-75.113
X-52.811 Y-74.695
X-53.746 Y-74.302
X-54.677 Y-73.93
X-55.605 Y-73.579
X-56.529 Y-73.249
X-57.449 Y-72.94
X-58.366 Y-72.651
X-59.279 Y-72.383
X-60.188 Y-72.135
X-61.094 Y-71.907
X-61.997 Y-71.697
X-62.896 Y-71.506
X-63.792 Y-71.333
X-64.684 Y-71.177
X-65.572 Y-71.038
X-66.457 Y-70.916
X-67.338 Y-70.809
X-68.215 Y-70.717
X-69.088 Y-70.64
X-69.958 Y-70.577
X-70.823 Y-70.528
X-71.685 Y-70.492
X-72.542 Y-70.468
X-73.396 Y-70.456
X-74.245
X-75.085 Y-70.467
X-76.768 Y-70.519
X-78.427 Y-70.606
X-80.067 Y-70.725
X-81.688 Y-70.873
X-83.291 Y-71.047
X-84.874 Y-71.243
X-86.439 Y-71.459
X-87.984 Y-71.693
X-89.512 Y-71.94
X-91.021 Y-72.197
X-92.51 Y-72.462
X-93.98 Y-72.735
X-95.431 Y-73.015
X-96.864 Y-73.301
X-98.279 Y-73.593
X-99.676 Y-73.89
X-101.056 Y-74.193
X-102.418 Y-74.5
X-103.766 Y-74.811
X-105.095 Y-75.125
X-106.414 Y-75.444
G2 X-106.786 Y-75.485 I-0.352 J1.458
X-117.148 Y-64.986 I0.138 J10.499
G1 Y65
G2 X-106.648 Y75.5 I10.5 J0
G1 X153.352
G2 X163.852 Y65 I0 J-10.5
G1 Y-64.986
G2 X153.488 Y-75.485 I-10.5 J0
G1 Z-18 F333.3
G2 X153.123 Y-75.445 I-0.02 J1.5 F700
G1 X151.8 Y-75.131
X150.465 Y-74.82
X149.114 Y-74.513
X147.747 Y-74.208
X146.363 Y-73.908
X144.961 Y-73.612
X143.542 Y-73.32
X142.104 Y-73.035
X140.648 Y-72.754
X139.173 Y-72.48
X137.679 Y-72.213
X136.166 Y-71.953
X134.634 Y-71.704
X133.084 Y-71.467
X131.515 Y-71.247
X129.926 Y-71.047
X128.32 Y-70.869
X126.695 Y-70.717
X125.05 Y-70.593
X123.386 Y-70.501
X121.7 Y-70.445
X120.857 Y-70.432
X120.007 Y-70.43
X119.152 Y-70.44
X118.292 Y-70.462
X117.429 Y-70.496
X116.562 Y-70.544
X115.691 Y-70.606
X114.816 Y-70.682
X113.938 Y-70.772
X113.055 Y-70.879
X112.17 Y-71.001
X111.281 Y-71.14
X110.388 Y-71.296
X109.491 Y-71.469
X108.592 Y-71.661
X107.689 Y-71.872
X106.782 Y-72.102
X105.872 Y-72.352
X104.959 Y-72.622
X104.042 Y-72.914
X103.122 Y-73.226
X102.198 Y-73.56
X101.27 Y-73.914
X100.339 Y-74.291
X99.404 Y-74.689
X98.461 Y-75.112
X98.143 Y-75.258
G2 X97.1 Y-75.486 I-1.044 J2.272
G1 X-50.504
G2 X-51.536 Y-75.263 I0 J2.5
G1 X-51.867 Y-75.113
X-52.811 Y-74.695
X-53.746 Y-74.302
X-54.677 Y-73.93
X-55.605 Y-73.579
X-56.529 Y-73.249
X-57.449 Y-72.94
X-58.366 Y-72.651
X-59.279 Y-72.383
X-60.188 Y-72.135
X-61.094 Y-71.907
X-61.997 Y-71.697
X-62.896 Y-71.506
X-63.792 Y-71.333
X-64.684 Y-71.177
X-65.572 Y-71.038
X-66.457 Y-70.916
X-67.338 Y-70.809
X-68.215 Y-70.717
X-69.088 Y-70.64
X-69.958 Y-70.577
X-70.823 Y-70.528
X-71.685 Y-70.492
X-72.542 Y-70.468
X-73.396 Y-70.456
X-74.245
X-75.085 Y-70.467
X-76.768 Y-70.519
X-78.427 Y-70.606
X-80.067 Y-70.725
X-81.688 Y-70.873
X-83.291 Y-71.047
X-84.874 Y-71.243
X-86.439 Y-71.459
X-87.984 Y-71.693
X-89.512 Y-71.94
X-91.021 Y-72.197
X-92.51 Y-72.462
X-93.98 Y-72.735
X-95.431 Y-73.015
X-96.864 Y-73.301
X-98.279 Y-73.593
X-99.676 Y-73.89
X-101.056 Y-74.193
X-102.418 Y-74.5
X-103.766 Y-74.811
X-105.095 Y-75.125
X-106.414 Y-75.444
G2 X-106.786 Y-75.485 I-0.352 J1.458
X-117.148 Y-64.986 I0.138 J10.499
G1 Y65
G2 X-106.648 Y75.5 I10.5 J0
G1 X153.352
G2 X163.852 Y65 I0 J-10.5
G1 Y-64.986
G2 X153.488 Y-75.485 I-10.5 J0
G0 Z7
M9
M5
M30
