(1001)
(T4  D=3 CR=0 - ZMIN=-5 - flat end mill)
G90 G94
G17
G21

(2D Pocket2 3)
T4
S15000 M3
G54
M8
G0 X138.991 Y103.054
Z6
Z2
G1 Z1.3 F700
Z-0.3
X138.992 Y103.077
Y107.334
X138.892 Y107.331
Y103.09
Y107.331 Z-0.448 F333.3
X138.992 Y107.334 Z-0.451
Y103.077 Z-0.6
Y107.334 F700
X138.892 Y107.331
Y103.09
Y107.331 Z-0.748 F333.3
X138.992 Y107.334 Z-0.751
Y103.077 Z-0.9
Y107.334 F700
X138.892 Y107.331
Y103.09
Y107.331 Z-1.048 F333.3
X138.992 Y107.334 Z-1.051
Y103.077 Z-1.2
Y107.334 F700
X138.892 Y107.331
Y103.09
Y107.331 Z-1.348 F333.3
X138.992 Y107.334 Z-1.351
Y103.077 Z-1.5
Y107.334 F700
X138.892 Y107.331
Y103.09
Y107.331 Z-1.648 F333.3
X138.992 Y107.334 Z-1.651
Y103.077 Z-1.8
Y107.334 F700
X138.892 Y107.331
Y103.09
Y107.331 Z-1.948 F333.3
X138.992 Y107.334 Z-1.951
Y103.077 Z-2.1
Y107.334 F700
X138.892 Y107.331
Y103.09
Y107.331 Z-2.248 F333.3
X138.992 Y107.334 Z-2.251
Y103.077 Z-2.4
Y107.334 F700
X138.892 Y107.331
Y103.09
Y107.331 Z-2.548 F333.3
X138.992 Y107.334 Z-2.551
Y103.077 Z-2.7
Y107.334 F700
X138.892 Y107.331
Y103.09
Y107.331 Z-2.848 F333.3
X138.992 Y107.334 Z-2.851
Y103.077 Z-3
Y107.334 F700
X138.892 Y107.331
Y103.09
Y107.331 Z-3.148 F333.3
X138.992 Y107.334 Z-3.151
Y103.077 Z-3.3
Y107.334 F700
X138.892 Y107.331
Y103.09
Y107.331 Z-3.448 F333.3
X138.992 Y107.334 Z-3.451
Y103.077 Z-3.6
Y107.334 F700
X138.892 Y107.331
Y103.09
Y107.331 Z-3.748 F333.3
X138.992 Y107.334 Z-3.751
Y103.077 Z-3.9
Y107.334 F700
X138.892 Y107.331
Y103.09
Y107.331 Z-4.048 F333.3
X138.992 Y107.334 Z-4.051
Y103.077 Z-4.2
Y107.334 F700
X138.892 Y107.331
Y103.09
Y107.331 Z-4.348 F333.3
X138.992 Y107.334 Z-4.351
Y103.077 Z-4.5
Y107.334 F700
X138.892 Y107.331
Y103.09
Y107.331 Z-4.648 F333.3
X138.992 Y107.334 Z-4.651
Y103.077 Z-4.8
Y107.334 F700
X138.892 Y107.331
Y103.09
Y107.331 Z-4.899 F333.3
X138.992 Y107.334 Z-4.901
Y103.077 Z-5
Y107.334 F700
X138.892 Y107.331
Y103.09
G0 Z6
X138.991 Y108.911
Z2
G1 Z1.3 F700
Z-0.3
X138.992 Y108.934
Y114.588
Y114.589
X138.986 Y114.615
X138.967 Y114.633
X138.942 Y114.64
X138.917 Y114.633
X138.899 Y114.615
X138.892 Y114.59
Y108.936
X138.992 Y114.588
Y108.934 Z-0.6 F333.3
Y114.588 F700
Y114.589
X138.986 Y114.615
X138.967 Y114.633
X138.942 Y114.64
X138.917 Y114.633
X138.899 Y114.615
X138.892 Y114.59
Y108.936
X138.992 Y114.588
Y108.934 Z-0.9 F333.3
Y114.588 F700
Y114.589
X138.986 Y114.615
X138.967 Y114.633
X138.942 Y114.64
X138.917 Y114.633
X138.899 Y114.615
X138.892 Y114.59
Y108.936
X138.992 Y114.588
Y108.934 Z-1.2 F333.3
Y114.588 F700
Y114.589
X138.986 Y114.615
X138.967 Y114.633
X138.942 Y114.64
X138.917 Y114.633
X138.899 Y114.615
X138.892 Y114.59
Y108.936
X138.992 Y114.588
Y108.934 Z-1.5 F333.3
Y114.588 F700
Y114.589
X138.986 Y114.615
X138.967 Y114.633
X138.942 Y114.64
X138.917 Y114.633
X138.899 Y114.615
X138.892 Y114.59
Y108.936
X138.992 Y114.588
Y108.934 Z-1.8 F333.3
Y114.588 F700
Y114.589
X138.986 Y114.615
X138.967 Y114.633
X138.942 Y114.64
X138.917 Y114.633
X138.899 Y114.615
X138.892 Y114.59
Y108.936
X138.992 Y114.588
Y108.934 Z-2.1 F333.3
Y114.588 F700
Y114.589
X138.986 Y114.615
X138.967 Y114.633
X138.942 Y114.64
X138.917 Y114.633
X138.899 Y114.615
X138.892 Y114.59
Y108.936
X138.992 Y114.588
Y108.934 Z-2.4 F333.3
Y114.588 F700
Y114.589
X138.986 Y114.615
X138.967 Y114.633
X138.942 Y114.64
X138.917 Y114.633
X138.899 Y114.615
X138.892 Y114.59
Y108.936
X138.992 Y114.588
Y108.934 Z-2.7 F333.3
Y114.588 F700
Y114.589
X138.986 Y114.615
X138.967 Y114.633
X138.942 Y114.64
X138.917 Y114.633
X138.899 Y114.615
X138.892 Y114.59
Y108.936
X138.992 Y114.588
Y108.934 Z-3 F333.3
Y114.588 F700
Y114.589
X138.986 Y114.615
X138.967 Y114.633
X138.942 Y114.64
X138.917 Y114.633
X138.899 Y114.615
X138.892 Y114.59
Y108.936
X138.992 Y114.588
Y108.934 Z-3.3 F333.3
Y114.588 F700
Y114.589
X138.986 Y114.615
X138.967 Y114.633
X138.942 Y114.64
X138.917 Y114.633
X138.899 Y114.615
X138.892 Y114.59
Y108.936
X138.992 Y114.588
Y108.934 Z-3.6 F333.3
Y114.588 F700
Y114.589
X138.986 Y114.615
X138.967 Y114.633
X138.942 Y114.64
X138.917 Y114.633
X138.899 Y114.615
X138.892 Y114.59
Y108.936
X138.992 Y114.588
Y108.934 Z-3.9 F333.3
Y114.588 F700
Y114.589
X138.986 Y114.615
X138.967 Y114.633
X138.942 Y114.64
X138.917 Y114.633
X138.899 Y114.615
X138.892 Y114.59
Y108.936
X138.992 Y114.588
Y108.934 Z-4.2 F333.3
Y114.588 F700
Y114.589
X138.986 Y114.615
X138.967 Y114.633
X138.942 Y114.64
X138.917 Y114.633
X138.899 Y114.615
X138.892 Y114.59
Y108.936
X138.992 Y114.588
Y108.934 Z-4.5 F333.3
Y114.588 F700
Y114.589
X138.986 Y114.615
X138.967 Y114.633
X138.942 Y114.64
X138.917 Y114.633
X138.899 Y114.615
X138.892 Y114.59
Y108.936
X138.992 Y114.588
Y108.934 Z-4.8 F333.3
Y114.588 F700
Y114.589
X138.986 Y114.615
X138.967 Y114.633
X138.942 Y114.64
X138.917 Y114.633
X138.899 Y114.615
X138.892 Y114.59
Y108.936
X138.992 Y114.588
Y108.934 Z-5 F333.3
Y114.588 F700
Y114.589
X138.986 Y114.615
X138.967 Y114.633
X138.942 Y114.64
X138.917 Y114.633
X138.899 Y114.615
X138.892 Y114.59
Y108.936
G0 Z6
X138.991 Y114.769
Z2
G1 Z1.3 F700
Z-0.3
X138.992 Y114.792
Y120.445
Y120.446
X138.986 Y120.472
X138.967 Y120.49
X138.942 Y120.497
X138.917 Y120.49
X138.899 Y120.472
X138.892 Y120.447
Y114.794
Y120.447 Z-0.6 F333.3
Y114.794 F700
Y114.793
X138.898 Y114.767
X138.917 Y114.749
X138.942 Y114.742
X138.967 Y114.749
X138.985 Y114.767
X138.992 Y114.792
Y120.445
X138.892 Y114.794
Y120.447 Z-0.9 F333.3
Y114.794 F700
Y114.793
X138.898 Y114.767
X138.917 Y114.749
X138.942 Y114.742
X138.967 Y114.749
X138.985 Y114.767
X138.992 Y114.792
Y120.445
X138.892 Y114.794
Y120.447 Z-1.2 F333.3
Y114.794 F700
Y114.793
X138.898 Y114.767
X138.917 Y114.749
X138.942 Y114.742
X138.967 Y114.749
X138.985 Y114.767
X138.992 Y114.792
Y120.445
X138.892 Y114.794
Y120.447 Z-1.5 F333.3
Y114.794 F700
Y114.793
X138.898 Y114.767
X138.917 Y114.749
X138.942 Y114.742
X138.967 Y114.749
X138.985 Y114.767
X138.992 Y114.792
Y120.445
X138.892 Y114.794
Y120.447 Z-1.8 F333.3
Y114.794 F700
Y114.793
X138.898 Y114.767
X138.917 Y114.749
X138.942 Y114.742
X138.967 Y114.749
X138.985 Y114.767
X138.992 Y114.792
Y120.445
X138.892 Y114.794
Y120.447 Z-2.1 F333.3
Y114.794 F700
Y114.793
X138.898 Y114.767
X138.917 Y114.749
X138.942 Y114.742
X138.967 Y114.749
X138.985 Y114.767
X138.992 Y114.792
Y120.445
X138.892 Y114.794
Y120.447 Z-2.4 F333.3
Y114.794 F700
Y114.793
X138.898 Y114.767
X138.917 Y114.749
X138.942 Y114.742
X138.967 Y114.749
X138.985 Y114.767
X138.992 Y114.792
Y120.445
X138.892 Y114.794
Y120.447 Z-2.7 F333.3
Y114.794 F700
Y114.793
X138.898 Y114.767
X138.917 Y114.749
X138.942 Y114.742
X138.967 Y114.749
X138.985 Y114.767
X138.992 Y114.792
Y120.445
X138.892 Y114.794
Y120.447 Z-3 F333.3
Y114.794 F700
Y114.793
X138.898 Y114.767
X138.917 Y114.749
X138.942 Y114.742
X138.967 Y114.749
X138.985 Y114.767
X138.992 Y114.792
Y120.445
X138.892 Y114.794
Y120.447 Z-3.3 F333.3
Y114.794 F700
Y114.793
X138.898 Y114.767
X138.917 Y114.749
X138.942 Y114.742
X138.967 Y114.749
X138.985 Y114.767
X138.992 Y114.792
Y120.445
X138.892 Y114.794
Y120.447 Z-3.6 F333.3
Y114.794 F700
Y114.793
X138.898 Y114.767
X138.917 Y114.749
X138.942 Y114.742
X138.967 Y114.749
X138.985 Y114.767
X138.992 Y114.792
Y120.445
X138.892 Y114.794
Y120.447 Z-3.9 F333.3
Y114.794 F700
Y114.793
X138.898 Y114.767
X138.917 Y114.749
X138.942 Y114.742
X138.967 Y114.749
X138.985 Y114.767
X138.992 Y114.792
Y120.445
X138.892 Y114.794
Y120.447 Z-4.2 F333.3
Y114.794 F700
Y114.793
X138.898 Y114.767
X138.917 Y114.749
X138.942 Y114.742
X138.967 Y114.749
X138.985 Y114.767
X138.992 Y114.792
Y120.445
X138.892 Y114.794
Y120.447 Z-4.5 F333.3
Y114.794 F700
Y114.793
X138.898 Y114.767
X138.917 Y114.749
X138.942 Y114.742
X138.967 Y114.749
X138.985 Y114.767
X138.992 Y114.792
Y120.445
X138.892 Y114.794
Y120.447 Z-4.8 F333.3
Y114.794 F700
Y114.793
X138.898 Y114.767
X138.917 Y114.749
X138.942 Y114.742
X138.967 Y114.749
X138.985 Y114.767
X138.992 Y114.792
Y120.445
X138.892 Y114.794
Y120.447 Z-5 F333.3
Y114.794 F700
Y114.793
X138.898 Y114.767
X138.917 Y114.749
X138.942 Y114.742
X138.967 Y114.749
X138.985 Y114.767
X138.992 Y114.792
Y120.445
G0 Z6
X138.991 Y120.626
Z2
G1 Z1.3 F700
Z-0.3
X138.992 Y120.649
Y126.302
Y126.303
X138.986 Y126.329
X138.967 Y126.347
X138.942 Y126.354
X138.917 Y126.347
X138.899 Y126.329
X138.892 Y126.304
Y120.651
X138.992 Y126.302
Y120.649 Z-0.6 F333.3
Y126.302 F700
Y126.303
X138.986 Y126.329
X138.967 Y126.347
X138.942 Y126.354
X138.917 Y126.347
X138.899 Y126.329
X138.892 Y126.304
Y120.651
X138.992 Y126.302
Y120.649 Z-0.9 F333.3
Y126.302 F700
Y126.303
X138.986 Y126.329
X138.967 Y126.347
X138.942 Y126.354
X138.917 Y126.347
X138.899 Y126.329
X138.892 Y126.304
Y120.651
X138.992 Y126.302
Y120.649 Z-1.2 F333.3
Y126.302 F700
Y126.303
X138.986 Y126.329
X138.967 Y126.347
X138.942 Y126.354
X138.917 Y126.347
X138.899 Y126.329
X138.892 Y126.304
Y120.651
X138.992 Y126.302
Y120.649 Z-1.5 F333.3
Y126.302 F700
Y126.303
X138.986 Y126.329
X138.967 Y126.347
X138.942 Y126.354
X138.917 Y126.347
X138.899 Y126.329
X138.892 Y126.304
Y120.651
X138.992 Y126.302
Y120.649 Z-1.8 F333.3
Y126.302 F700
Y126.303
X138.986 Y126.329
X138.967 Y126.347
X138.942 Y126.354
X138.917 Y126.347
X138.899 Y126.329
X138.892 Y126.304
Y120.651
X138.992 Y126.302
Y120.649 Z-2.1 F333.3
Y126.302 F700
Y126.303
X138.986 Y126.329
X138.967 Y126.347
X138.942 Y126.354
X138.917 Y126.347
X138.899 Y126.329
X138.892 Y126.304
Y120.651
X138.992 Y126.302
Y120.649 Z-2.4 F333.3
Y126.302 F700
Y126.303
X138.986 Y126.329
X138.967 Y126.347
X138.942 Y126.354
X138.917 Y126.347
X138.899 Y126.329
X138.892 Y126.304
Y120.651
X138.992 Y126.302
Y120.649 Z-2.7 F333.3
Y126.302 F700
Y126.303
X138.986 Y126.329
X138.967 Y126.347
X138.942 Y126.354
X138.917 Y126.347
X138.899 Y126.329
X138.892 Y126.304
Y120.651
X138.992 Y126.302
Y120.649 Z-3 F333.3
Y126.302 F700
Y126.303
X138.986 Y126.329
X138.967 Y126.347
X138.942 Y126.354
X138.917 Y126.347
X138.899 Y126.329
X138.892 Y126.304
Y120.651
X138.992 Y126.302
Y120.649 Z-3.3 F333.3
Y126.302 F700
Y126.303
X138.986 Y126.329
X138.967 Y126.347
X138.942 Y126.354
X138.917 Y126.347
X138.899 Y126.329
X138.892 Y126.304
Y120.651
X138.992 Y126.302
Y120.649 Z-3.6 F333.3
Y126.302 F700
Y126.303
X138.986 Y126.329
X138.967 Y126.347
X138.942 Y126.354
X138.917 Y126.347
X138.899 Y126.329
X138.892 Y126.304
Y120.651
X138.992 Y126.302
Y120.649 Z-3.9 F333.3
Y126.302 F700
Y126.303
X138.986 Y126.329
X138.967 Y126.347
X138.942 Y126.354
X138.917 Y126.347
X138.899 Y126.329
X138.892 Y126.304
Y120.651
X138.992 Y126.302
Y120.649 Z-4.2 F333.3
Y126.302 F700
Y126.303
X138.986 Y126.329
X138.967 Y126.347
X138.942 Y126.354
X138.917 Y126.347
X138.899 Y126.329
X138.892 Y126.304
Y120.651
X138.992 Y126.302
Y120.649 Z-4.5 F333.3
Y126.302 F700
Y126.303
X138.986 Y126.329
X138.967 Y126.347
X138.942 Y126.354
X138.917 Y126.347
X138.899 Y126.329
X138.892 Y126.304
Y120.651
X138.992 Y126.302
Y120.649 Z-4.8 F333.3
Y126.302 F700
Y126.303
X138.986 Y126.329
X138.967 Y126.347
X138.942 Y126.354
X138.917 Y126.347
X138.899 Y126.329
X138.892 Y126.304
Y120.651
X138.992 Y126.302
Y120.649 Z-5 F333.3
Y126.302 F700
Y126.303
X138.986 Y126.329
X138.967 Y126.347
X138.942 Y126.354
X138.917 Y126.347
X138.899 Y126.329
X138.892 Y126.304
Y120.651
G0 Z6
X138.991 Y126.483
Z2
G1 Z1.3 F700
Z-0.3
X138.992 Y126.506
Y132.159
Y132.16
X138.986 Y132.186
X138.967 Y132.204
X138.942 Y132.211
X138.917 Y132.204
X138.899 Y132.186
X138.892 Y132.161
Y126.508
X138.992 Y132.159
Y126.506 Z-0.6 F333.3
Y132.159 F700
Y132.16
X138.986 Y132.186
X138.967 Y132.204
X138.942 Y132.211
X138.917 Y132.204
X138.899 Y132.186
X138.892 Y132.161
Y126.508
X138.992 Y132.159
Y126.506 Z-0.9 F333.3
Y132.159 F700
Y132.16
X138.986 Y132.186
X138.967 Y132.204
X138.942 Y132.211
X138.917 Y132.204
X138.899 Y132.186
X138.892 Y132.161
Y126.508
X138.992 Y132.159
Y126.506 Z-1.2 F333.3
Y132.159 F700
Y132.16
X138.986 Y132.186
X138.967 Y132.204
X138.942 Y132.211
X138.917 Y132.204
X138.899 Y132.186
X138.892 Y132.161
Y126.508
X138.992 Y132.159
Y126.506 Z-1.5 F333.3
Y132.159 F700
Y132.16
X138.986 Y132.186
X138.967 Y132.204
X138.942 Y132.211
X138.917 Y132.204
X138.899 Y132.186
X138.892 Y132.161
Y126.508
X138.992 Y132.159
Y126.506 Z-1.8 F333.3
Y132.159 F700
Y132.16
X138.986 Y132.186
X138.967 Y132.204
X138.942 Y132.211
X138.917 Y132.204
X138.899 Y132.186
X138.892 Y132.161
Y126.508
X138.992 Y132.159
Y126.506 Z-2.1 F333.3
Y132.159 F700
Y132.16
X138.986 Y132.186
X138.967 Y132.204
X138.942 Y132.211
X138.917 Y132.204
X138.899 Y132.186
X138.892 Y132.161
Y126.508
X138.992 Y132.159
Y126.506 Z-2.4 F333.3
Y132.159 F700
Y132.16
X138.986 Y132.186
X138.967 Y132.204
X138.942 Y132.211
X138.917 Y132.204
X138.899 Y132.186
X138.892 Y132.161
Y126.508
X138.992 Y132.159
Y126.506 Z-2.7 F333.3
Y132.159 F700
Y132.16
X138.986 Y132.186
X138.967 Y132.204
X138.942 Y132.211
X138.917 Y132.204
X138.899 Y132.186
X138.892 Y132.161
Y126.508
X138.992 Y132.159
Y126.506 Z-3 F333.3
Y132.159 F700
Y132.16
X138.986 Y132.186
X138.967 Y132.204
X138.942 Y132.211
X138.917 Y132.204
X138.899 Y132.186
X138.892 Y132.161
Y126.508
X138.992 Y132.159
Y126.506 Z-3.3 F333.3
Y132.159 F700
Y132.16
X138.986 Y132.186
X138.967 Y132.204
X138.942 Y132.211
X138.917 Y132.204
X138.899 Y132.186
X138.892 Y132.161
Y126.508
X138.992 Y132.159
Y126.506 Z-3.6 F333.3
Y132.159 F700
Y132.16
X138.986 Y132.186
X138.967 Y132.204
X138.942 Y132.211
X138.917 Y132.204
X138.899 Y132.186
X138.892 Y132.161
Y126.508
X138.992 Y132.159
Y126.506 Z-3.9 F333.3
Y132.159 F700
Y132.16
X138.986 Y132.186
X138.967 Y132.204
X138.942 Y132.211
X138.917 Y132.204
X138.899 Y132.186
X138.892 Y132.161
Y126.508
X138.992 Y132.159
Y126.506 Z-4.2 F333.3
Y132.159 F700
Y132.16
X138.986 Y132.186
X138.967 Y132.204
X138.942 Y132.211
X138.917 Y132.204
X138.899 Y132.186
X138.892 Y132.161
Y126.508
X138.992 Y132.159
Y126.506 Z-4.5 F333.3
Y132.159 F700
Y132.16
X138.986 Y132.186
X138.967 Y132.204
X138.942 Y132.211
X138.917 Y132.204
X138.899 Y132.186
X138.892 Y132.161
Y126.508
X138.992 Y132.159
Y126.506 Z-4.8 F333.3
Y132.159 F700
Y132.16
X138.986 Y132.186
X138.967 Y132.204
X138.942 Y132.211
X138.917 Y132.204
X138.899 Y132.186
X138.892 Y132.161
Y126.508
X138.992 Y132.159
Y126.506 Z-5 F333.3
Y132.159 F700
Y132.16
X138.986 Y132.186
X138.967 Y132.204
X138.942 Y132.211
X138.917 Y132.204
X138.899 Y132.186
X138.892 Y132.161
Y126.508
G0 Z6
X138.991 Y132.34
Z2
G1 Z1.3 F700
Z-0.3
X138.992 Y132.363
Y138.016
Y138.017
X138.986 Y138.043
X138.967 Y138.061
X138.942 Y138.068
X138.917 Y138.061
X138.899 Y138.043
X138.892 Y138.018
Y132.365
X138.992 Y138.016
Y132.363 Z-0.6 F333.3
Y138.016 F700
Y138.017
X138.986 Y138.043
X138.967 Y138.061
X138.942 Y138.068
X138.917 Y138.061
X138.899 Y138.043
X138.892 Y138.018
Y132.365
X138.992 Y138.016
Y132.363 Z-0.9 F333.3
Y138.016 F700
Y138.017
X138.986 Y138.043
X138.967 Y138.061
X138.942 Y138.068
X138.917 Y138.061
X138.899 Y138.043
X138.892 Y138.018
Y132.365
X138.992 Y138.016
Y132.363 Z-1.2 F333.3
Y138.016 F700
Y138.017
X138.986 Y138.043
X138.967 Y138.061
X138.942 Y138.068
X138.917 Y138.061
X138.899 Y138.043
X138.892 Y138.018
Y132.365
X138.992 Y138.016
Y132.363 Z-1.5 F333.3
Y138.016 F700
Y138.017
X138.986 Y138.043
X138.967 Y138.061
X138.942 Y138.068
X138.917 Y138.061
X138.899 Y138.043
X138.892 Y138.018
Y132.365
X138.992 Y138.016
Y132.363 Z-1.8 F333.3
Y138.016 F700
Y138.017
X138.986 Y138.043
X138.967 Y138.061
X138.942 Y138.068
X138.917 Y138.061
X138.899 Y138.043
X138.892 Y138.018
Y132.365
X138.992 Y138.016
Y132.363 Z-2.1 F333.3
Y138.016 F700
Y138.017
X138.986 Y138.043
X138.967 Y138.061
X138.942 Y138.068
X138.917 Y138.061
X138.899 Y138.043
X138.892 Y138.018
Y132.365
X138.992 Y138.016
Y132.363 Z-2.4 F333.3
Y138.016 F700
Y138.017
X138.986 Y138.043
X138.967 Y138.061
X138.942 Y138.068
X138.917 Y138.061
X138.899 Y138.043
X138.892 Y138.018
Y132.365
X138.992 Y138.016
Y132.363 Z-2.7 F333.3
Y138.016 F700
Y138.017
X138.986 Y138.043
X138.967 Y138.061
X138.942 Y138.068
X138.917 Y138.061
X138.899 Y138.043
X138.892 Y138.018
Y132.365
X138.992 Y138.016
Y132.363 Z-3 F333.3
Y138.016 F700
Y138.017
X138.986 Y138.043
X138.967 Y138.061
X138.942 Y138.068
X138.917 Y138.061
X138.899 Y138.043
X138.892 Y138.018
Y132.365
X138.992 Y138.016
Y132.363 Z-3.3 F333.3
Y138.016 F700
Y138.017
X138.986 Y138.043
X138.967 Y138.061
X138.942 Y138.068
X138.917 Y138.061
X138.899 Y138.043
X138.892 Y138.018
Y132.365
X138.992 Y138.016
Y132.363 Z-3.6 F333.3
Y138.016 F700
Y138.017
X138.986 Y138.043
X138.967 Y138.061
X138.942 Y138.068
X138.917 Y138.061
X138.899 Y138.043
X138.892 Y138.018
Y132.365
X138.992 Y138.016
Y132.363 Z-3.9 F333.3
Y138.016 F700
Y138.017
X138.986 Y138.043
X138.967 Y138.061
X138.942 Y138.068
X138.917 Y138.061
X138.899 Y138.043
X138.892 Y138.018
Y132.365
X138.992 Y138.016
Y132.363 Z-4.2 F333.3
Y138.016 F700
Y138.017
X138.986 Y138.043
X138.967 Y138.061
X138.942 Y138.068
X138.917 Y138.061
X138.899 Y138.043
X138.892 Y138.018
Y132.365
X138.992 Y138.016
Y132.363 Z-4.5 F333.3
Y138.016 F700
Y138.017
X138.986 Y138.043
X138.967 Y138.061
X138.942 Y138.068
X138.917 Y138.061
X138.899 Y138.043
X138.892 Y138.018
Y132.365
X138.992 Y138.016
Y132.363 Z-4.8 F333.3
Y138.016 F700
Y138.017
X138.986 Y138.043
X138.967 Y138.061
X138.942 Y138.068
X138.917 Y138.061
X138.899 Y138.043
X138.892 Y138.018
Y132.365
X138.992 Y138.016
Y132.363 Z-5 F333.3
Y138.016 F700
Y138.017
X138.986 Y138.043
X138.967 Y138.061
X138.942 Y138.068
X138.917 Y138.061
X138.899 Y138.043
X138.892 Y138.018
Y132.365
G0 Z6
X138.893 Y143.898
Z2
G1 Z1.3 F700
Z-0.3
X138.892 Y143.875
Y138.222
Y138.221
X138.898 Y138.195
X138.917 Y138.177
X138.942 Y138.17
X138.967 Y138.177
X138.985 Y138.195
X138.992 Y138.22
Y143.873
X138.892 Y138.222
Y143.875 Z-0.6 F333.3
Y138.222 F700
Y138.221
X138.898 Y138.195
X138.917 Y138.177
X138.942 Y138.17
X138.967 Y138.177
X138.985 Y138.195
X138.992 Y138.22
Y143.873
X138.892 Y138.222
Y143.875 Z-0.9 F333.3
Y138.222 F700
Y138.221
X138.898 Y138.195
X138.917 Y138.177
X138.942 Y138.17
X138.967 Y138.177
X138.985 Y138.195
X138.992 Y138.22
Y143.873
X138.892 Y138.222
Y143.875 Z-1.2 F333.3
Y138.222 F700
Y138.221
X138.898 Y138.195
X138.917 Y138.177
X138.942 Y138.17
X138.967 Y138.177
X138.985 Y138.195
X138.992 Y138.22
Y143.873
X138.892 Y138.222
Y143.875 Z-1.5 F333.3
Y138.222 F700
Y138.221
X138.898 Y138.195
X138.917 Y138.177
X138.942 Y138.17
X138.967 Y138.177
X138.985 Y138.195
X138.992 Y138.22
Y143.873
X138.892 Y138.222
Y143.875 Z-1.8 F333.3
Y138.222 F700
Y138.221
X138.898 Y138.195
X138.917 Y138.177
X138.942 Y138.17
X138.967 Y138.177
X138.985 Y138.195
X138.992 Y138.22
Y143.873
X138.892 Y138.222
Y143.875 Z-2.1 F333.3
Y138.222 F700
Y138.221
X138.898 Y138.195
X138.917 Y138.177
X138.942 Y138.17
X138.967 Y138.177
X138.985 Y138.195
X138.992 Y138.22
Y143.873
X138.892 Y138.222
Y143.875 Z-2.4 F333.3
Y138.222 F700
Y138.221
X138.898 Y138.195
X138.917 Y138.177
X138.942 Y138.17
X138.967 Y138.177
X138.985 Y138.195
X138.992 Y138.22
Y143.873
X138.892 Y138.222
Y143.875 Z-2.7 F333.3
Y138.222 F700
Y138.221
X138.898 Y138.195
X138.917 Y138.177
X138.942 Y138.17
X138.967 Y138.177
X138.985 Y138.195
X138.992 Y138.22
Y143.873
X138.892 Y138.222
Y143.875 Z-3 F333.3
Y138.222 F700
Y138.221
X138.898 Y138.195
X138.917 Y138.177
X138.942 Y138.17
X138.967 Y138.177
X138.985 Y138.195
X138.992 Y138.22
Y143.873
X138.892 Y138.222
Y143.875 Z-3.3 F333.3
Y138.222 F700
Y138.221
X138.898 Y138.195
X138.917 Y138.177
X138.942 Y138.17
X138.967 Y138.177
X138.985 Y138.195
X138.992 Y138.22
Y143.873
X138.892 Y138.222
Y143.875 Z-3.6 F333.3
Y138.222 F700
Y138.221
X138.898 Y138.195
X138.917 Y138.177
X138.942 Y138.17
X138.967 Y138.177
X138.985 Y138.195
X138.992 Y138.22
Y143.873
X138.892 Y138.222
Y143.875 Z-3.9 F333.3
Y138.222 F700
Y138.221
X138.898 Y138.195
X138.917 Y138.177
X138.942 Y138.17
X138.967 Y138.177
X138.985 Y138.195
X138.992 Y138.22
Y143.873
X138.892 Y138.222
Y143.875 Z-4.2 F333.3
Y138.222 F700
Y138.221
X138.898 Y138.195
X138.917 Y138.177
X138.942 Y138.17
X138.967 Y138.177
X138.985 Y138.195
X138.992 Y138.22
Y143.873
X138.892 Y138.222
Y143.875 Z-4.5 F333.3
Y138.222 F700
Y138.221
X138.898 Y138.195
X138.917 Y138.177
X138.942 Y138.17
X138.967 Y138.177
X138.985 Y138.195
X138.992 Y138.22
Y143.873
X138.892 Y138.222
Y143.875 Z-4.8 F333.3
Y138.222 F700
Y138.221
X138.898 Y138.195
X138.917 Y138.177
X138.942 Y138.17
X138.967 Y138.177
X138.985 Y138.195
X138.992 Y138.22
Y143.873
X138.892 Y138.222
Y143.875 Z-5 F333.3
Y138.222 F700
Y138.221
X138.898 Y138.195
X138.917 Y138.177
X138.942 Y138.17
X138.967 Y138.177
X138.985 Y138.195
X138.992 Y138.22
Y143.873
G0 Z6
M9
M5
M30
