(1001)
(T4  D=3 CR=0 - ZMIN=-18 - flat end mill)
G90 G94
G17
G21

(2D Contour4 2)
T4
S15000 M3
G54
M8
G0 X24.348 Y15.47
Z7
Z2
G1 Z1.3 F333.3
Z-0.3
G3 X10.848 Y15.47 I-6.75 J0 F700
X24.348 Y15.47 I6.75 J0
G1 Z-0.6 F333.3
G3 X10.848 Y15.47 I-6.75 J0 F700
X24.348 Y15.47 I6.75 J0
G1 Z-0.9 F333.3
G3 X10.848 Y15.47 I-6.75 J0 F700
X24.348 Y15.47 I6.75 J0
G1 Z-1.2 F333.3
G3 X10.848 Y15.47 I-6.75 J0 F700
X24.348 Y15.47 I6.75 J0
G1 Z-1.5 F333.3
G3 X10.848 Y15.47 I-6.75 J0 F700
X24.348 Y15.47 I6.75 J0
G1 Z-1.8 F333.3
G3 X10.848 Y15.47 I-6.75 J0 F700
X24.348 Y15.47 I6.75 J0
G1 Z-2.1 F333.3
G3 X10.848 Y15.47 I-6.75 J0 F700
X24.348 Y15.47 I6.75 J0
G1 Z-2.4 F333.3
G3 X10.848 Y15.47 I-6.75 J0 F700
X24.348 Y15.47 I6.75 J0
G1 Z-2.7 F333.3
G3 X10.848 Y15.47 I-6.75 J0 F700
X24.348 Y15.47 I6.75 J0
G1 Z-3 F333.3
G3 X10.848 Y15.47 I-6.75 J0 F700
X24.348 Y15.47 I6.75 J0
G1 Z-3.3 F333.3
G3 X10.848 Y15.47 I-6.75 J0 F700
X24.348 Y15.47 I6.75 J0
G1 Z-3.6 F333.3
G3 X10.848 Y15.47 I-6.75 J0 F700
X24.348 Y15.47 I6.75 J0
G1 Z-3.9 F333.3
G3 X10.848 Y15.47 I-6.75 J0 F700
X24.348 Y15.47 I6.75 J0
G1 Z-4.2 F333.3
G3 X10.848 Y15.47 I-6.75 J0 F700
X24.348 Y15.47 I6.75 J0
G1 Z-4.5 F333.3
G3 X10.848 Y15.47 I-6.75 J0 F700
X24.348 Y15.47 I6.75 J0
G1 Z-4.8 F333.3
G3 X10.848 Y15.47 I-6.75 J0 F700
X24.348 Y15.47 I6.75 J0
G1 Z-5.1 F333.3
G3 X10.848 Y15.47 I-6.75 J0 F700
X24.348 Y15.47 I6.75 J0
G1 Z-5.4 F333.3
G3 X10.848 Y15.47 I-6.75 J0 F700
X24.348 Y15.47 I6.75 J0
G1 Z-5.7 F333.3
G3 X10.848 Y15.47 I-6.75 J0 F700
X24.348 Y15.47 I6.75 J0
G1 Z-6 F333.3
G3 X10.848 Y15.47 I-6.75 J0 F700
X24.348 Y15.47 I6.75 J0
G1 Z-6.3 F333.3
G3 X10.848 Y15.47 I-6.75 J0 F700
X24.348 Y15.47 I6.75 J0
G1 Z-6.6 F333.3
G3 X10.848 Y15.47 I-6.75 J0 F700
X24.348 Y15.47 I6.75 J0
G1 Z-6.9 F333.3
G3 X10.848 Y15.47 I-6.75 J0 F700
X24.348 Y15.47 I6.75 J0
G1 Z-7.2 F333.3
G3 X10.848 Y15.47 I-6.75 J0 F700
X24.348 Y15.47 I6.75 J0
G1 Z-7.5 F333.3
G3 X10.848 Y15.47 I-6.75 J0 F700
X24.348 Y15.47 I6.75 J0
G1 Z-7.8 F333.3
G3 X10.848 Y15.47 I-6.75 J0 F700
X24.348 Y15.47 I6.75 J0
G1 Z-8.1 F333.3
G3 X10.848 Y15.47 I-6.75 J0 F700
X24.348 Y15.47 I6.75 J0
G1 Z-8.4 F333.3
G3 X10.848 Y15.47 I-6.75 J0 F700
X24.348 Y15.47 I6.75 J0
G1 Z-8.7 F333.3
G3 X10.848 Y15.47 I-6.75 J0 F700
X24.348 Y15.47 I6.75 J0
G1 Z-9 F333.3
G3 X10.848 Y15.47 I-6.75 J0 F700
X24.348 Y15.47 I6.75 J0
G1 Z-9.3 F333.3
G3 X10.848 Y15.47 I-6.75 J0 F700
X24.348 Y15.47 I6.75 J0
G1 Z-9.6 F333.3
G3 X10.848 Y15.47 I-6.75 J0 F700
X24.348 Y15.47 I6.75 J0
G1 Z-9.9 F333.3
G3 X10.848 Y15.47 I-6.75 J0 F700
X24.348 Y15.47 I6.75 J0
G1 Z-10.2 F333.3
G3 X10.848 Y15.47 I-6.75 J0 F700
X24.348 Y15.47 I6.75 J0
G1 Z-10.5 F333.3
G3 X10.848 Y15.47 I-6.75 J0 F700
X24.348 Y15.47 I6.75 J0
G1 Z-10.8 F333.3
G3 X10.848 Y15.47 I-6.75 J0 F700
X24.348 Y15.47 I6.75 J0
G1 Z-11.1 F333.3
G3 X10.848 Y15.47 I-6.75 J0 F700
X24.348 Y15.47 I6.75 J0
G1 Z-11.4 F333.3
G3 X10.848 Y15.47 I-6.75 J0 F700
X24.348 Y15.47 I6.75 J0
G1 Z-11.7 F333.3
G3 X10.848 Y15.47 I-6.75 J0 F700
X24.348 Y15.47 I6.75 J0
G1 Z-12 F333.3
G3 X10.848 Y15.47 I-6.75 J0 F700
X24.348 Y15.47 I6.75 J0
G1 Z-12.3 F333.3
G3 X10.848 Y15.47 I-6.75 J0 F700
X24.348 Y15.47 I6.75 J0
G1 Z-12.6 F333.3
G3 X10.848 Y15.47 I-6.75 J0 F700
X24.348 Y15.47 I6.75 J0
G1 Z-12.9 F333.3
G3 X10.848 Y15.47 I-6.75 J0 F700
X24.348 Y15.47 I6.75 J0
G1 Z-13.2 F333.3
G3 X10.848 Y15.47 I-6.75 J0 F700
X24.348 Y15.47 I6.75 J0
G1 Z-13.5 F333.3
G3 X10.848 Y15.47 I-6.75 J0 F700
X24.348 Y15.47 I6.75 J0
G1 Z-13.8 F333.3
G3 X10.848 Y15.47 I-6.75 J0 F700
X24.348 Y15.47 I6.75 J0
G1 Z-14.1 F333.3
G3 X10.848 Y15.47 I-6.75 J0 F700
X24.348 Y15.47 I6.75 J0
G1 Z-14.4 F333.3
G3 X10.848 Y15.47 I-6.75 J0 F700
X24.348 Y15.47 I6.75 J0
G1 Z-14.7 F333.3
G3 X10.848 Y15.47 I-6.75 J0 F700
X24.348 Y15.47 I6.75 J0
G1 Z-15 F333.3
G3 X10.848 Y15.47 I-6.75 J0 F700
X24.348 Y15.47 I6.75 J0
G1 Z-15.3 F333.3
G3 X10.848 Y15.47 I-6.75 J0 F700
X24.348 Y15.47 I6.75 J0
G1 Z-15.6 F333.3
G3 X10.848 Y15.47 I-6.75 J0 F700
X24.348 Y15.47 I6.75 J0
G1 Z-15.9 F333.3
G3 X10.848 Y15.47 I-6.75 J0 F700
X24.348 Y15.47 I6.75 J0
G1 Z-16.2 F333.3
G3 X10.848 Y15.47 I-6.75 J0 F700
X24.348 Y15.47 I6.75 J0
G1 Z-16.5 F333.3
G3 X10.848 Y15.47 I-6.75 J0 F700
X24.348 Y15.47 I6.75 J0
G1 Z-16.8 F333.3
G3 X10.848 Y15.47 I-6.75 J0 F700
X24.348 Y15.47 I6.75 J0
G1 Z-17.1 F333.3
G3 X10.848 Y15.47 I-6.75 J0 F700
X24.348 Y15.47 I6.75 J0
G1 Z-17.4 F333.3
G3 X10.848 Y15.47 I-6.75 J0 F700
X24.348 Y15.47 I6.75 J0
G1 Z-17.7 F333.3
G3 X10.848 Y15.47 I-6.75 J0 F700
X24.348 Y15.47 I6.75 J0
G1 Z-18 F333.3
G3 X10.848 Y15.47 I-6.75 J0 F700
X24.348 Y15.47 I6.75 J0
G0 Z7

(2D Contour7 2)
X36.697 Y15.692
Z7
Z2
G1 Z1.3 F333.3
Z-0.3
X36.689 Y15.548 F700
X36.674 Y15.401
X36.664 Y15.318
X36.648 Y15.236
X36.617 Y15.09
X36.598 Y15.012
X36.575 Y14.934
X36.527 Y14.789
X36.474 Y14.652
X36.41 Y14.508
X36.347 Y14.384
X36.268 Y14.242
X36.202 Y14.136
X36.108 Y13.996
X36.04 Y13.903
X35.931 Y13.765
X35.863 Y13.685
X35.739 Y13.55
X35.673 Y13.482
X35.535 Y13.349
X35.471 Y13.291
X35.32 Y13.161
X35.259 Y13.111
X35.094 Y12.984
X35.036 Y12.941
X34.858 Y12.817
X34.802 Y12.78
X34.612 Y12.66
X34.56 Y12.628
X34.357 Y12.511
X34.307 Y12.483
X34.093 Y12.371
X34.045 Y12.346
X33.82 Y12.238
X33.774 Y12.216
X33.538 Y12.112
X33.493 Y12.093
X33.247 Y11.994
X33.204 Y11.978
X32.947 Y11.883
X32.906 Y11.869
X32.64 Y11.779
X32.601 Y11.766
X32.325 Y11.682
X32.289 Y11.672
X32.005 Y11.592
X31.972 Y11.584
X31.681 Y11.51
X31.65 Y11.502
X31.352 Y11.433
G2 X31.091 Y11.397 I-0.338 J1.461
G1 X29.359 Y11.307
X27.679 Y8.777
G2 X27.039 Y7.901 I-10.081 J6.693
G1 X26.142 Y6.782
X28.212 Y0.97
G2 X27.583 Y-0.812 I-1.413 J-0.503
X27.364 Y-0.945 I-9.986 J16.282
G1 X27.289 Y-0.987
X27.212 Y-1.024
X27.077 Y-1.085
X27 Y-1.117
X26.921 Y-1.145
X26.778 Y-1.191
X26.701 Y-1.213
X26.624 Y-1.231
X26.474 Y-1.262
X26.327 Y-1.285
X26.171 Y-1.302
X26.033 Y-1.31
X25.871 Y-1.312
X25.745 Y-1.309
X25.576 Y-1.297
X25.462 Y-1.284
X25.288 Y-1.259
X25.186 Y-1.24
X25.006 Y-1.2
X24.914 Y-1.177
X24.73 Y-1.124
X24.648 Y-1.098
X24.46 Y-1.032
X24.386 Y-1.004
X24.193 Y-0.925
X24.127 Y-0.896
X23.931 Y-0.804
X23.871 Y-0.774
X23.672 Y-0.67
X23.618 Y-0.64
X23.416 Y-0.523
X23.366 Y-0.493
X23.162 Y-0.365
X23.117 Y-0.335
X22.91 Y-0.194
X22.869 Y-0.165
X22.66 Y-0.013
X22.622 Y0.016
X22.413 Y0.18
X22.377 Y0.209
X22.167 Y0.384
X22.134 Y0.412
X21.923 Y0.598
X21.892 Y0.626
X21.681 Y0.822
X21.654 Y0.848
X21.444 Y1.055
X21.42 Y1.079
X21.21 Y1.294
X21.188 Y1.317
X20.98 Y1.541
G2 X20.817 Y1.748 I1.096 J1.024
G1 X19.874 Y3.204
X16.843 Y3.393
G2 X15.764 Y3.51 I0.756 J12.076
G1 X14.346 Y3.727
X10.348 Y-0.972
G2 X8.49 Y-1.318 I-1.142 J0.972
X8.265 Y-1.194 I9.108 J16.788
G1 X8.192 Y-1.151
X8.121 Y-1.103
X8.001 Y-1.016
X7.935 Y-0.965
X7.871 Y-0.911
X7.76 Y-0.81
X7.702 Y-0.755
X7.647 Y-0.697
X7.546 Y-0.583
X7.452 Y-0.467
X7.36 Y-0.34
X7.284 Y-0.225
X7.201 Y-0.085
X7.141 Y0.026
X7.067 Y0.178
X7.021 Y0.283
X6.956 Y0.446
X6.921 Y0.544
X6.866 Y0.719
X6.84 Y0.811
X6.794 Y0.996
X6.775 Y1.081
X6.738 Y1.277
X6.726 Y1.355
X6.698 Y1.561
X6.69 Y1.633
X6.671 Y1.849
X6.667 Y1.916
X6.658 Y2.14
X6.657 Y2.202
Y2.436
X6.658 Y2.493
X6.667 Y2.735
X6.67 Y2.788
X6.689 Y3.038
X6.693 Y3.088
X6.721 Y3.345
X6.727 Y3.392
X6.764 Y3.656
X6.771 Y3.701
X6.818 Y3.971
X6.826 Y4.013
X6.881 Y4.289
X6.89 Y4.329
X6.955 Y4.61
X6.964 Y4.647
X7.037 Y4.932
X7.046 Y4.965
X7.128 Y5.254
X7.137 Y5.285
X7.226 Y5.577
G2 X7.325 Y5.822 I1.435 J-0.438
G1 X8.114 Y7.366
X6.762 Y10.086
G2 X6.323 Y11.079 I10.836 J5.384
G1 X5.803 Y12.415
X-0.266 Y13.528
G2 X-1.495 Y14.964 I0.271 J1.475
X-1.5 Y15.221 I19.093 J0.506
G1 X-1.499 Y15.306
X-1.492 Y15.391
X-1.478 Y15.538
X-1.467 Y15.622
X-1.451 Y15.704
X-1.42 Y15.85
X-1.401 Y15.928
X-1.378 Y16.004
X-1.33 Y16.149
X-1.276 Y16.288
X-1.212 Y16.432
X-1.151 Y16.555
X-1.071 Y16.697
X-1.005 Y16.804
X-0.911 Y16.944
X-0.843 Y17.037
X-0.733 Y17.175
X-0.666 Y17.254
X-0.542 Y17.389
X-0.476 Y17.457
X-0.338 Y17.59
X-0.274 Y17.649
X-0.123 Y17.779
X-0.062 Y17.828
X0.103 Y17.956
X0.161 Y17.999
X0.339 Y18.123
X0.395 Y18.159
X0.585 Y18.28
X0.637 Y18.312
X0.84 Y18.429
X0.89 Y18.456
X1.104 Y18.569
X1.152 Y18.593
X1.377 Y18.702
X1.424 Y18.723
X1.66 Y18.827
X1.703 Y18.846
X1.95 Y18.945
X1.993 Y18.962
X2.25 Y19.057
X2.291 Y19.071
X2.557 Y19.161
X2.596 Y19.173
X2.872 Y19.257
X2.908 Y19.268
X3.192 Y19.347
X3.225 Y19.356
X3.516 Y19.43
X3.547 Y19.437
X3.845 Y19.506
G2 X4.106 Y19.543 I0.338 J-1.461
G1 X5.838 Y19.632
X7.518 Y22.162
G2 X8.158 Y23.039 I10.081 J-6.693
G1 X9.055 Y24.158
X6.985 Y29.97
G2 X7.614 Y31.752 I1.413 J0.503
X7.834 Y31.885 I9.983 J-16.283
G1 X7.908 Y31.926
X7.984 Y31.963
X8.119 Y32.024
X8.197 Y32.057
X8.276 Y32.085
X8.419 Y32.13
X8.496 Y32.153
X8.574 Y32.171
X8.723 Y32.202
X8.87 Y32.225
X9.026 Y32.242
X9.164 Y32.25
X9.326 Y32.252
X9.452 Y32.248
X9.621 Y32.236
X9.735 Y32.224
X9.909 Y32.198
X10.011 Y32.179
X10.19 Y32.14
X10.283 Y32.117
X10.467 Y32.064
X10.549 Y32.037
X10.738 Y31.971
X10.811 Y31.943
X11.004 Y31.864
X11.07 Y31.835
X11.266 Y31.744
X11.326 Y31.714
X11.525 Y31.609
X11.579 Y31.579
X11.782 Y31.463
X11.83 Y31.433
X12.035 Y31.304
X12.081 Y31.275
X12.287 Y31.134
X12.328 Y31.105
X12.537 Y30.952
X12.575 Y30.923
X12.784 Y30.76
X12.82 Y30.731
X13.03 Y30.556
X13.063 Y30.528
X13.274 Y30.341
X13.305 Y30.314
X13.516 Y30.117
X13.543 Y30.091
X13.753 Y29.885
X13.777 Y29.86
X13.987 Y29.645
X14.009 Y29.622
X14.217 Y29.399
G2 X14.38 Y29.191 I-1.096 J-1.024
G1 X15.323 Y27.736
X18.354 Y27.546
G2 X19.433 Y27.43 I-0.755 J-12.076
G1 X20.851 Y27.212
X24.849 Y31.912
G2 X26.707 Y32.258 I1.142 J-0.972
X26.932 Y32.134 I-9.107 J-16.789
G1 X27.005 Y32.09
X27.076 Y32.042
X27.196 Y31.955
X27.263 Y31.905
X27.326 Y31.85
X27.437 Y31.75
X27.495 Y31.695
X27.549 Y31.637
X27.651 Y31.523
X27.744 Y31.407
X27.837 Y31.28
X27.913 Y31.164
X27.996 Y31.025
X28.056 Y30.914
X28.13 Y30.762
X28.176 Y30.657
X28.241 Y30.493
X28.276 Y30.395
X28.331 Y30.22
X28.357 Y30.129
X28.403 Y29.943
X28.422 Y29.859
X28.459 Y29.662
X28.471 Y29.585
X28.499 Y29.379
X28.507 Y29.306
X28.526 Y29.091
X28.53 Y29.024
X28.539 Y28.799
X28.54 Y28.738
Y28.504
X28.539 Y28.447
X28.53 Y28.205
X28.527 Y28.151
X28.508 Y27.902
X28.504 Y27.852
X28.476 Y27.595
X28.47 Y27.547
X28.433 Y27.283
X28.426 Y27.239
X28.379 Y26.969
X28.371 Y26.926
X28.316 Y26.651
X28.307 Y26.61
X28.242 Y26.33
X28.233 Y26.293
X28.16 Y26.007
X28.151 Y25.974
X28.069 Y25.685
X28.06 Y25.655
X27.971 Y25.362
G2 X27.872 Y25.118 I-1.435 J0.438
G1 X27.083 Y23.574
X28.435 Y20.854
G2 X28.874 Y19.861 I-10.836 J-5.384
G1 X29.394 Y18.525
X35.463 Y17.411
G2 X36.692 Y15.976 I-0.271 J-1.475
X36.697 Y15.719 I-19.093 J-0.508
G1 Y15.692
Z-0.6 F333.3
X36.689 Y15.548 F700
X36.674 Y15.401
X36.664 Y15.318
X36.648 Y15.236
X36.617 Y15.09
X36.598 Y15.012
X36.575 Y14.934
X36.527 Y14.789
X36.474 Y14.652
X36.41 Y14.508
X36.347 Y14.384
X36.268 Y14.242
X36.202 Y14.136
X36.108 Y13.996
X36.04 Y13.903
X35.931 Y13.765
X35.863 Y13.685
X35.739 Y13.55
X35.673 Y13.482
X35.535 Y13.349
X35.471 Y13.291
X35.32 Y13.161
X35.259 Y13.111
X35.094 Y12.984
X35.036 Y12.941
X34.858 Y12.817
X34.802 Y12.78
X34.612 Y12.66
X34.56 Y12.628
X34.357 Y12.511
X34.307 Y12.483
X34.093 Y12.371
X34.045 Y12.346
X33.82 Y12.238
X33.774 Y12.216
X33.538 Y12.112
X33.493 Y12.093
X33.247 Y11.994
X33.204 Y11.978
X32.947 Y11.883
X32.906 Y11.869
X32.64 Y11.779
X32.601 Y11.766
X32.325 Y11.682
X32.289 Y11.672
X32.005 Y11.592
X31.972 Y11.584
X31.681 Y11.51
X31.65 Y11.502
X31.352 Y11.433
G2 X31.091 Y11.397 I-0.338 J1.461
G1 X29.359 Y11.307
X27.679 Y8.777
G2 X27.039 Y7.901 I-10.081 J6.693
G1 X26.142 Y6.782
X28.212 Y0.97
G2 X27.583 Y-0.812 I-1.413 J-0.503
X27.364 Y-0.945 I-9.986 J16.282
G1 X27.289 Y-0.987
X27.212 Y-1.024
X27.077 Y-1.085
X27 Y-1.117
X26.921 Y-1.145
X26.778 Y-1.191
X26.701 Y-1.213
X26.624 Y-1.231
X26.474 Y-1.262
X26.327 Y-1.285
X26.171 Y-1.302
X26.033 Y-1.31
X25.871 Y-1.312
X25.745 Y-1.309
X25.576 Y-1.297
X25.462 Y-1.284
X25.288 Y-1.259
X25.186 Y-1.24
X25.006 Y-1.2
X24.914 Y-1.177
X24.73 Y-1.124
X24.648 Y-1.098
X24.46 Y-1.032
X24.386 Y-1.004
X24.193 Y-0.925
X24.127 Y-0.896
X23.931 Y-0.804
X23.871 Y-0.774
X23.672 Y-0.67
X23.618 Y-0.64
X23.416 Y-0.523
X23.366 Y-0.493
X23.162 Y-0.365
X23.117 Y-0.335
X22.91 Y-0.194
X22.869 Y-0.165
X22.66 Y-0.013
X22.622 Y0.016
X22.413 Y0.18
X22.377 Y0.209
X22.167 Y0.384
X22.134 Y0.412
X21.923 Y0.598
X21.892 Y0.626
X21.681 Y0.822
X21.654 Y0.848
X21.444 Y1.055
X21.42 Y1.079
X21.21 Y1.294
X21.188 Y1.317
X20.98 Y1.541
G2 X20.817 Y1.748 I1.096 J1.024
G1 X19.874 Y3.204
X16.843 Y3.393
G2 X15.764 Y3.51 I0.756 J12.076
G1 X14.346 Y3.727
X10.348 Y-0.972
G2 X8.49 Y-1.318 I-1.142 J0.972
X8.265 Y-1.194 I9.108 J16.788
G1 X8.192 Y-1.151
X8.121 Y-1.103
X8.001 Y-1.016
X7.935 Y-0.965
X7.871 Y-0.911
X7.76 Y-0.81
X7.702 Y-0.755
X7.647 Y-0.697
X7.546 Y-0.583
X7.452 Y-0.467
X7.36 Y-0.34
X7.284 Y-0.225
X7.201 Y-0.085
X7.141 Y0.026
X7.067 Y0.178
X7.021 Y0.283
X6.956 Y0.446
X6.921 Y0.544
X6.866 Y0.719
X6.84 Y0.811
X6.794 Y0.996
X6.775 Y1.081
X6.738 Y1.277
X6.726 Y1.355
X6.698 Y1.561
X6.69 Y1.633
X6.671 Y1.849
X6.667 Y1.916
X6.658 Y2.14
X6.657 Y2.202
Y2.436
X6.658 Y2.493
X6.667 Y2.735
X6.67 Y2.788
X6.689 Y3.038
X6.693 Y3.088
X6.721 Y3.345
X6.727 Y3.392
X6.764 Y3.656
X6.771 Y3.701
X6.818 Y3.971
X6.826 Y4.013
X6.881 Y4.289
X6.89 Y4.329
X6.955 Y4.61
X6.964 Y4.647
X7.037 Y4.932
X7.046 Y4.965
X7.128 Y5.254
X7.137 Y5.285
X7.226 Y5.577
G2 X7.325 Y5.822 I1.435 J-0.438
G1 X8.114 Y7.366
X6.762 Y10.086
G2 X6.323 Y11.079 I10.836 J5.384
G1 X5.803 Y12.415
X-0.266 Y13.528
G2 X-1.495 Y14.964 I0.271 J1.475
X-1.5 Y15.221 I19.093 J0.506
G1 X-1.499 Y15.306
X-1.492 Y15.391
X-1.478 Y15.538
X-1.467 Y15.622
X-1.451 Y15.704
X-1.42 Y15.85
X-1.401 Y15.928
X-1.378 Y16.004
X-1.33 Y16.149
X-1.276 Y16.288
X-1.212 Y16.432
X-1.151 Y16.555
X-1.071 Y16.697
X-1.005 Y16.804
X-0.911 Y16.944
X-0.843 Y17.037
X-0.733 Y17.175
X-0.666 Y17.254
X-0.542 Y17.389
X-0.476 Y17.457
X-0.338 Y17.59
X-0.274 Y17.649
X-0.123 Y17.779
X-0.062 Y17.828
X0.103 Y17.956
X0.161 Y17.999
X0.339 Y18.123
X0.395 Y18.159
X0.585 Y18.28
X0.637 Y18.312
X0.84 Y18.429
X0.89 Y18.456
X1.104 Y18.569
X1.152 Y18.593
X1.377 Y18.702
X1.424 Y18.723
X1.66 Y18.827
X1.703 Y18.846
X1.95 Y18.945
X1.993 Y18.962
X2.25 Y19.057
X2.291 Y19.071
X2.557 Y19.161
X2.596 Y19.173
X2.872 Y19.257
X2.908 Y19.268
X3.192 Y19.347
X3.225 Y19.356
X3.516 Y19.43
X3.547 Y19.437
X3.845 Y19.506
G2 X4.106 Y19.543 I0.338 J-1.461
G1 X5.838 Y19.632
X7.518 Y22.162
G2 X8.158 Y23.039 I10.081 J-6.693
G1 X9.055 Y24.158
X6.985 Y29.97
G2 X7.614 Y31.752 I1.413 J0.503
X7.834 Y31.885 I9.983 J-16.283
G1 X7.908 Y31.926
X7.984 Y31.963
X8.119 Y32.024
X8.197 Y32.057
X8.276 Y32.085
X8.419 Y32.13
X8.496 Y32.153
X8.574 Y32.171
X8.723 Y32.202
X8.87 Y32.225
X9.026 Y32.242
X9.164 Y32.25
X9.326 Y32.252
X9.452 Y32.248
X9.621 Y32.236
X9.735 Y32.224
X9.909 Y32.198
X10.011 Y32.179
X10.19 Y32.14
X10.283 Y32.117
X10.467 Y32.064
X10.549 Y32.037
X10.738 Y31.971
X10.811 Y31.943
X11.004 Y31.864
X11.07 Y31.835
X11.266 Y31.744
X11.326 Y31.714
X11.525 Y31.609
X11.579 Y31.579
X11.782 Y31.463
X11.83 Y31.433
X12.035 Y31.304
X12.081 Y31.275
X12.287 Y31.134
X12.328 Y31.105
X12.537 Y30.952
X12.575 Y30.923
X12.784 Y30.76
X12.82 Y30.731
X13.03 Y30.556
X13.063 Y30.528
X13.274 Y30.341
X13.305 Y30.314
X13.516 Y30.117
X13.543 Y30.091
X13.753 Y29.885
X13.777 Y29.86
X13.987 Y29.645
X14.009 Y29.622
X14.217 Y29.399
G2 X14.38 Y29.191 I-1.096 J-1.024
G1 X15.323 Y27.736
X18.354 Y27.546
G2 X19.433 Y27.43 I-0.755 J-12.076
G1 X20.851 Y27.212
X24.849 Y31.912
G2 X26.707 Y32.258 I1.142 J-0.972
X26.932 Y32.134 I-9.107 J-16.789
G1 X27.005 Y32.09
X27.076 Y32.042
X27.196 Y31.955
X27.263 Y31.905
X27.326 Y31.85
X27.437 Y31.75
X27.495 Y31.695
X27.549 Y31.637
X27.651 Y31.523
X27.744 Y31.407
X27.837 Y31.28
X27.913 Y31.164
X27.996 Y31.025
X28.056 Y30.914
X28.13 Y30.762
X28.176 Y30.657
X28.241 Y30.493
X28.276 Y30.395
X28.331 Y30.22
X28.357 Y30.129
X28.403 Y29.943
X28.422 Y29.859
X28.459 Y29.662
X28.471 Y29.585
X28.499 Y29.379
X28.507 Y29.306
X28.526 Y29.091
X28.53 Y29.024
X28.539 Y28.799
X28.54 Y28.738
Y28.504
X28.539 Y28.447
X28.53 Y28.205
X28.527 Y28.151
X28.508 Y27.902
X28.504 Y27.852
X28.476 Y27.595
X28.47 Y27.547
X28.433 Y27.283
X28.426 Y27.239
X28.379 Y26.969
X28.371 Y26.926
X28.316 Y26.651
X28.307 Y26.61
X28.242 Y26.33
X28.233 Y26.293
X28.16 Y26.007
X28.151 Y25.974
X28.069 Y25.685
X28.06 Y25.655
X27.971 Y25.362
G2 X27.872 Y25.118 I-1.435 J0.438
G1 X27.083 Y23.574
X28.435 Y20.854
G2 X28.874 Y19.861 I-10.836 J-5.384
G1 X29.394 Y18.525
X35.463 Y17.411
G2 X36.692 Y15.976 I-0.271 J-1.475
X36.697 Y15.719 I-19.093 J-0.508
G1 Y15.692
Z-0.9 F333.3
X36.689 Y15.548 F700
X36.674 Y15.401
X36.664 Y15.318
X36.648 Y15.236
X36.617 Y15.09
X36.598 Y15.012
X36.575 Y14.934
X36.527 Y14.789
X36.474 Y14.652
X36.41 Y14.508
X36.347 Y14.384
X36.268 Y14.242
X36.202 Y14.136
X36.108 Y13.996
X36.04 Y13.903
X35.931 Y13.765
X35.863 Y13.685
X35.739 Y13.55
X35.673 Y13.482
X35.535 Y13.349
X35.471 Y13.291
X35.32 Y13.161
X35.259 Y13.111
X35.094 Y12.984
X35.036 Y12.941
X34.858 Y12.817
X34.802 Y12.78
X34.612 Y12.66
X34.56 Y12.628
X34.357 Y12.511
X34.307 Y12.483
X34.093 Y12.371
X34.045 Y12.346
X33.82 Y12.238
X33.774 Y12.216
X33.538 Y12.112
X33.493 Y12.093
X33.247 Y11.994
X33.204 Y11.978
X32.947 Y11.883
X32.906 Y11.869
X32.64 Y11.779
X32.601 Y11.766
X32.325 Y11.682
X32.289 Y11.672
X32.005 Y11.592
X31.972 Y11.584
X31.681 Y11.51
X31.65 Y11.502
X31.352 Y11.433
G2 X31.091 Y11.397 I-0.338 J1.461
G1 X29.359 Y11.307
X27.679 Y8.777
G2 X27.039 Y7.901 I-10.081 J6.693
G1 X26.142 Y6.782
X28.212 Y0.97
G2 X27.583 Y-0.812 I-1.413 J-0.503
X27.364 Y-0.945 I-9.986 J16.282
G1 X27.289 Y-0.987
X27.212 Y-1.024
X27.077 Y-1.085
X27 Y-1.117
X26.921 Y-1.145
X26.778 Y-1.191
X26.701 Y-1.213
X26.624 Y-1.231
X26.474 Y-1.262
X26.327 Y-1.285
X26.171 Y-1.302
X26.033 Y-1.31
X25.871 Y-1.312
X25.745 Y-1.309
X25.576 Y-1.297
X25.462 Y-1.284
X25.288 Y-1.259
X25.186 Y-1.24
X25.006 Y-1.2
X24.914 Y-1.177
X24.73 Y-1.124
X24.648 Y-1.098
X24.46 Y-1.032
X24.386 Y-1.004
X24.193 Y-0.925
X24.127 Y-0.896
X23.931 Y-0.804
X23.871 Y-0.774
X23.672 Y-0.67
X23.618 Y-0.64
X23.416 Y-0.523
X23.366 Y-0.493
X23.162 Y-0.365
X23.117 Y-0.335
X22.91 Y-0.194
X22.869 Y-0.165
X22.66 Y-0.013
X22.622 Y0.016
X22.413 Y0.18
X22.377 Y0.209
X22.167 Y0.384
X22.134 Y0.412
X21.923 Y0.598
X21.892 Y0.626
X21.681 Y0.822
X21.654 Y0.848
X21.444 Y1.055
X21.42 Y1.079
X21.21 Y1.294
X21.188 Y1.317
X20.98 Y1.541
G2 X20.817 Y1.748 I1.096 J1.024
G1 X19.874 Y3.204
X16.843 Y3.393
G2 X15.764 Y3.51 I0.756 J12.076
G1 X14.346 Y3.727
X10.348 Y-0.972
G2 X8.49 Y-1.318 I-1.142 J0.972
X8.265 Y-1.194 I9.108 J16.788
G1 X8.192 Y-1.151
X8.121 Y-1.103
X8.001 Y-1.016
X7.935 Y-0.965
X7.871 Y-0.911
X7.76 Y-0.81
X7.702 Y-0.755
X7.647 Y-0.697
X7.546 Y-0.583
X7.452 Y-0.467
X7.36 Y-0.34
X7.284 Y-0.225
X7.201 Y-0.085
X7.141 Y0.026
X7.067 Y0.178
X7.021 Y0.283
X6.956 Y0.446
X6.921 Y0.544
X6.866 Y0.719
X6.84 Y0.811
X6.794 Y0.996
X6.775 Y1.081
X6.738 Y1.277
X6.726 Y1.355
X6.698 Y1.561
X6.69 Y1.633
X6.671 Y1.849
X6.667 Y1.916
X6.658 Y2.14
X6.657 Y2.202
Y2.436
X6.658 Y2.493
X6.667 Y2.735
X6.67 Y2.788
X6.689 Y3.038
X6.693 Y3.088
X6.721 Y3.345
X6.727 Y3.392
X6.764 Y3.656
X6.771 Y3.701
X6.818 Y3.971
X6.826 Y4.013
X6.881 Y4.289
X6.89 Y4.329
X6.955 Y4.61
X6.964 Y4.647
X7.037 Y4.932
X7.046 Y4.965
X7.128 Y5.254
X7.137 Y5.285
X7.226 Y5.577
G2 X7.325 Y5.822 I1.435 J-0.438
G1 X8.114 Y7.366
X6.762 Y10.086
G2 X6.323 Y11.079 I10.836 J5.384
G1 X5.803 Y12.415
X-0.266 Y13.528
G2 X-1.495 Y14.964 I0.271 J1.475
X-1.5 Y15.221 I19.093 J0.506
G1 X-1.499 Y15.306
X-1.492 Y15.391
X-1.478 Y15.538
X-1.467 Y15.622
X-1.451 Y15.704
X-1.42 Y15.85
X-1.401 Y15.928
X-1.378 Y16.004
X-1.33 Y16.149
X-1.276 Y16.288
X-1.212 Y16.432
X-1.151 Y16.555
X-1.071 Y16.697
X-1.005 Y16.804
X-0.911 Y16.944
X-0.843 Y17.037
X-0.733 Y17.175
X-0.666 Y17.254
X-0.542 Y17.389
X-0.476 Y17.457
X-0.338 Y17.59
X-0.274 Y17.649
X-0.123 Y17.779
X-0.062 Y17.828
X0.103 Y17.956
X0.161 Y17.999
X0.339 Y18.123
X0.395 Y18.159
X0.585 Y18.28
X0.637 Y18.312
X0.84 Y18.429
X0.89 Y18.456
X1.104 Y18.569
X1.152 Y18.593
X1.377 Y18.702
X1.424 Y18.723
X1.66 Y18.827
X1.703 Y18.846
X1.95 Y18.945
X1.993 Y18.962
X2.25 Y19.057
X2.291 Y19.071
X2.557 Y19.161
X2.596 Y19.173
X2.872 Y19.257
X2.908 Y19.268
X3.192 Y19.347
X3.225 Y19.356
X3.516 Y19.43
X3.547 Y19.437
X3.845 Y19.506
G2 X4.106 Y19.543 I0.338 J-1.461
G1 X5.838 Y19.632
X7.518 Y22.162
G2 X8.158 Y23.039 I10.081 J-6.693
G1 X9.055 Y24.158
X6.985 Y29.97
G2 X7.614 Y31.752 I1.413 J0.503
X7.834 Y31.885 I9.983 J-16.283
G1 X7.908 Y31.926
X7.984 Y31.963
X8.119 Y32.024
X8.197 Y32.057
X8.276 Y32.085
X8.419 Y32.13
X8.496 Y32.153
X8.574 Y32.171
X8.723 Y32.202
X8.87 Y32.225
X9.026 Y32.242
X9.164 Y32.25
X9.326 Y32.252
X9.452 Y32.248
X9.621 Y32.236
X9.735 Y32.224
X9.909 Y32.198
X10.011 Y32.179
X10.19 Y32.14
X10.283 Y32.117
X10.467 Y32.064
X10.549 Y32.037
X10.738 Y31.971
X10.811 Y31.943
X11.004 Y31.864
X11.07 Y31.835
X11.266 Y31.744
X11.326 Y31.714
X11.525 Y31.609
X11.579 Y31.579
X11.782 Y31.463
X11.83 Y31.433
X12.035 Y31.304
X12.081 Y31.275
X12.287 Y31.134
X12.328 Y31.105
X12.537 Y30.952
X12.575 Y30.923
X12.784 Y30.76
X12.82 Y30.731
X13.03 Y30.556
X13.063 Y30.528
X13.274 Y30.341
X13.305 Y30.314
X13.516 Y30.117
X13.543 Y30.091
X13.753 Y29.885
X13.777 Y29.86
X13.987 Y29.645
X14.009 Y29.622
X14.217 Y29.399
G2 X14.38 Y29.191 I-1.096 J-1.024
G1 X15.323 Y27.736
X18.354 Y27.546
G2 X19.433 Y27.43 I-0.755 J-12.076
G1 X20.851 Y27.212
X24.849 Y31.912
G2 X26.707 Y32.258 I1.142 J-0.972
X26.932 Y32.134 I-9.107 J-16.789
G1 X27.005 Y32.09
X27.076 Y32.042
X27.196 Y31.955
X27.263 Y31.905
X27.326 Y31.85
X27.437 Y31.75
X27.495 Y31.695
X27.549 Y31.637
X27.651 Y31.523
X27.744 Y31.407
X27.837 Y31.28
X27.913 Y31.164
X27.996 Y31.025
X28.056 Y30.914
X28.13 Y30.762
X28.176 Y30.657
X28.241 Y30.493
X28.276 Y30.395
X28.331 Y30.22
X28.357 Y30.129
X28.403 Y29.943
X28.422 Y29.859
X28.459 Y29.662
X28.471 Y29.585
X28.499 Y29.379
X28.507 Y29.306
X28.526 Y29.091
X28.53 Y29.024
X28.539 Y28.799
X28.54 Y28.738
Y28.504
X28.539 Y28.447
X28.53 Y28.205
X28.527 Y28.151
X28.508 Y27.902
X28.504 Y27.852
X28.476 Y27.595
X28.47 Y27.547
X28.433 Y27.283
X28.426 Y27.239
X28.379 Y26.969
X28.371 Y26.926
X28.316 Y26.651
X28.307 Y26.61
X28.242 Y26.33
X28.233 Y26.293
X28.16 Y26.007
X28.151 Y25.974
X28.069 Y25.685
X28.06 Y25.655
X27.971 Y25.362
G2 X27.872 Y25.118 I-1.435 J0.438
G1 X27.083 Y23.574
X28.435 Y20.854
G2 X28.874 Y19.861 I-10.836 J-5.384
G1 X29.394 Y18.525
X35.463 Y17.411
G2 X36.692 Y15.976 I-0.271 J-1.475
X36.697 Y15.719 I-19.093 J-0.508
G1 Y15.692
Z-1.2 F333.3
X36.689 Y15.548 F700
X36.674 Y15.401
X36.664 Y15.318
X36.648 Y15.236
X36.617 Y15.09
X36.598 Y15.012
X36.575 Y14.934
X36.527 Y14.789
X36.474 Y14.652
X36.41 Y14.508
X36.347 Y14.384
X36.268 Y14.242
X36.202 Y14.136
X36.108 Y13.996
X36.04 Y13.903
X35.931 Y13.765
X35.863 Y13.685
X35.739 Y13.55
X35.673 Y13.482
X35.535 Y13.349
X35.471 Y13.291
X35.32 Y13.161
X35.259 Y13.111
X35.094 Y12.984
X35.036 Y12.941
X34.858 Y12.817
X34.802 Y12.78
X34.612 Y12.66
X34.56 Y12.628
X34.357 Y12.511
X34.307 Y12.483
X34.093 Y12.371
X34.045 Y12.346
X33.82 Y12.238
X33.774 Y12.216
X33.538 Y12.112
X33.493 Y12.093
X33.247 Y11.994
X33.204 Y11.978
X32.947 Y11.883
X32.906 Y11.869
X32.64 Y11.779
X32.601 Y11.766
X32.325 Y11.682
X32.289 Y11.672
X32.005 Y11.592
X31.972 Y11.584
X31.681 Y11.51
X31.65 Y11.502
X31.352 Y11.433
G2 X31.091 Y11.397 I-0.338 J1.461
G1 X29.359 Y11.307
X27.679 Y8.777
G2 X27.039 Y7.901 I-10.081 J6.693
G1 X26.142 Y6.782
X28.212 Y0.97
G2 X27.583 Y-0.812 I-1.413 J-0.503
X27.364 Y-0.945 I-9.986 J16.282
G1 X27.289 Y-0.987
X27.212 Y-1.024
X27.077 Y-1.085
X27 Y-1.117
X26.921 Y-1.145
X26.778 Y-1.191
X26.701 Y-1.213
X26.624 Y-1.231
X26.474 Y-1.262
X26.327 Y-1.285
X26.171 Y-1.302
X26.033 Y-1.31
X25.871 Y-1.312
X25.745 Y-1.309
X25.576 Y-1.297
X25.462 Y-1.284
X25.288 Y-1.259
X25.186 Y-1.24
X25.006 Y-1.2
X24.914 Y-1.177
X24.73 Y-1.124
X24.648 Y-1.098
X24.46 Y-1.032
X24.386 Y-1.004
X24.193 Y-0.925
X24.127 Y-0.896
X23.931 Y-0.804
X23.871 Y-0.774
X23.672 Y-0.67
X23.618 Y-0.64
X23.416 Y-0.523
X23.366 Y-0.493
X23.162 Y-0.365
X23.117 Y-0.335
X22.91 Y-0.194
X22.869 Y-0.165
X22.66 Y-0.013
X22.622 Y0.016
X22.413 Y0.18
X22.377 Y0.209
X22.167 Y0.384
X22.134 Y0.412
X21.923 Y0.598
X21.892 Y0.626
X21.681 Y0.822
X21.654 Y0.848
X21.444 Y1.055
X21.42 Y1.079
X21.21 Y1.294
X21.188 Y1.317
X20.98 Y1.541
G2 X20.817 Y1.748 I1.096 J1.024
G1 X19.874 Y3.204
X16.843 Y3.393
G2 X15.764 Y3.51 I0.756 J12.076
G1 X14.346 Y3.727
X10.348 Y-0.972
G2 X8.49 Y-1.318 I-1.142 J0.972
X8.265 Y-1.194 I9.108 J16.788
G1 X8.192 Y-1.151
X8.121 Y-1.103
X8.001 Y-1.016
X7.935 Y-0.965
X7.871 Y-0.911
X7.76 Y-0.81
X7.702 Y-0.755
X7.647 Y-0.697
X7.546 Y-0.583
X7.452 Y-0.467
X7.36 Y-0.34
X7.284 Y-0.225
X7.201 Y-0.085
X7.141 Y0.026
X7.067 Y0.178
X7.021 Y0.283
X6.956 Y0.446
X6.921 Y0.544
X6.866 Y0.719
X6.84 Y0.811
X6.794 Y0.996
X6.775 Y1.081
X6.738 Y1.277
X6.726 Y1.355
X6.698 Y1.561
X6.69 Y1.633
X6.671 Y1.849
X6.667 Y1.916
X6.658 Y2.14
X6.657 Y2.202
Y2.436
X6.658 Y2.493
X6.667 Y2.735
X6.67 Y2.788
X6.689 Y3.038
X6.693 Y3.088
X6.721 Y3.345
X6.727 Y3.392
X6.764 Y3.656
X6.771 Y3.701
X6.818 Y3.971
X6.826 Y4.013
X6.881 Y4.289
X6.89 Y4.329
X6.955 Y4.61
X6.964 Y4.647
X7.037 Y4.932
X7.046 Y4.965
X7.128 Y5.254
X7.137 Y5.285
X7.226 Y5.577
G2 X7.325 Y5.822 I1.435 J-0.438
G1 X8.114 Y7.366
X6.762 Y10.086
G2 X6.323 Y11.079 I10.836 J5.384
G1 X5.803 Y12.415
X-0.266 Y13.528
G2 X-1.495 Y14.964 I0.271 J1.475
X-1.5 Y15.221 I19.093 J0.506
G1 X-1.499 Y15.306
X-1.492 Y15.391
X-1.478 Y15.538
X-1.467 Y15.622
X-1.451 Y15.704
X-1.42 Y15.85
X-1.401 Y15.928
X-1.378 Y16.004
X-1.33 Y16.149
X-1.276 Y16.288
X-1.212 Y16.432
X-1.151 Y16.555
X-1.071 Y16.697
X-1.005 Y16.804
X-0.911 Y16.944
X-0.843 Y17.037
X-0.733 Y17.175
X-0.666 Y17.254
X-0.542 Y17.389
X-0.476 Y17.457
X-0.338 Y17.59
X-0.274 Y17.649
X-0.123 Y17.779
X-0.062 Y17.828
X0.103 Y17.956
X0.161 Y17.999
X0.339 Y18.123
X0.395 Y18.159
X0.585 Y18.28
X0.637 Y18.312
X0.84 Y18.429
X0.89 Y18.456
X1.104 Y18.569
X1.152 Y18.593
X1.377 Y18.702
X1.424 Y18.723
X1.66 Y18.827
X1.703 Y18.846
X1.95 Y18.945
X1.993 Y18.962
X2.25 Y19.057
X2.291 Y19.071
X2.557 Y19.161
X2.596 Y19.173
X2.872 Y19.257
X2.908 Y19.268
X3.192 Y19.347
X3.225 Y19.356
X3.516 Y19.43
X3.547 Y19.437
X3.845 Y19.506
G2 X4.106 Y19.543 I0.338 J-1.461
G1 X5.838 Y19.632
X7.518 Y22.162
G2 X8.158 Y23.039 I10.081 J-6.693
G1 X9.055 Y24.158
X6.985 Y29.97
G2 X7.614 Y31.752 I1.413 J0.503
X7.834 Y31.885 I9.983 J-16.283
G1 X7.908 Y31.926
X7.984 Y31.963
X8.119 Y32.024
X8.197 Y32.057
X8.276 Y32.085
X8.419 Y32.13
X8.496 Y32.153
X8.574 Y32.171
X8.723 Y32.202
X8.87 Y32.225
X9.026 Y32.242
X9.164 Y32.25
X9.326 Y32.252
X9.452 Y32.248
X9.621 Y32.236
X9.735 Y32.224
X9.909 Y32.198
X10.011 Y32.179
X10.19 Y32.14
X10.283 Y32.117
X10.467 Y32.064
X10.549 Y32.037
X10.738 Y31.971
X10.811 Y31.943
X11.004 Y31.864
X11.07 Y31.835
X11.266 Y31.744
X11.326 Y31.714
X11.525 Y31.609
X11.579 Y31.579
X11.782 Y31.463
X11.83 Y31.433
X12.035 Y31.304
X12.081 Y31.275
X12.287 Y31.134
X12.328 Y31.105
X12.537 Y30.952
X12.575 Y30.923
X12.784 Y30.76
X12.82 Y30.731
X13.03 Y30.556
X13.063 Y30.528
X13.274 Y30.341
X13.305 Y30.314
X13.516 Y30.117
X13.543 Y30.091
X13.753 Y29.885
X13.777 Y29.86
X13.987 Y29.645
X14.009 Y29.622
X14.217 Y29.399
G2 X14.38 Y29.191 I-1.096 J-1.024
G1 X15.323 Y27.736
X18.354 Y27.546
G2 X19.433 Y27.43 I-0.755 J-12.076
G1 X20.851 Y27.212
X24.849 Y31.912
G2 X26.707 Y32.258 I1.142 J-0.972
X26.932 Y32.134 I-9.107 J-16.789
G1 X27.005 Y32.09
X27.076 Y32.042
X27.196 Y31.955
X27.263 Y31.905
X27.326 Y31.85
X27.437 Y31.75
X27.495 Y31.695
X27.549 Y31.637
X27.651 Y31.523
X27.744 Y31.407
X27.837 Y31.28
X27.913 Y31.164
X27.996 Y31.025
X28.056 Y30.914
X28.13 Y30.762
X28.176 Y30.657
X28.241 Y30.493
X28.276 Y30.395
X28.331 Y30.22
X28.357 Y30.129
X28.403 Y29.943
X28.422 Y29.859
X28.459 Y29.662
X28.471 Y29.585
X28.499 Y29.379
X28.507 Y29.306
X28.526 Y29.091
X28.53 Y29.024
X28.539 Y28.799
X28.54 Y28.738
Y28.504
X28.539 Y28.447
X28.53 Y28.205
X28.527 Y28.151
X28.508 Y27.902
X28.504 Y27.852
X28.476 Y27.595
X28.47 Y27.547
X28.433 Y27.283
X28.426 Y27.239
X28.379 Y26.969
X28.371 Y26.926
X28.316 Y26.651
X28.307 Y26.61
X28.242 Y26.33
X28.233 Y26.293
X28.16 Y26.007
X28.151 Y25.974
X28.069 Y25.685
X28.06 Y25.655
X27.971 Y25.362
G2 X27.872 Y25.118 I-1.435 J0.438
G1 X27.083 Y23.574
X28.435 Y20.854
G2 X28.874 Y19.861 I-10.836 J-5.384
G1 X29.394 Y18.525
X35.463 Y17.411
G2 X36.692 Y15.976 I-0.271 J-1.475
X36.697 Y15.719 I-19.093 J-0.508
G1 Y15.692
Z-1.5 F333.3
X36.689 Y15.548 F700
X36.674 Y15.401
X36.664 Y15.318
X36.648 Y15.236
X36.617 Y15.09
X36.598 Y15.012
X36.575 Y14.934
X36.527 Y14.789
X36.474 Y14.652
X36.41 Y14.508
X36.347 Y14.384
X36.268 Y14.242
X36.202 Y14.136
X36.108 Y13.996
X36.04 Y13.903
X35.931 Y13.765
X35.863 Y13.685
X35.739 Y13.55
X35.673 Y13.482
X35.535 Y13.349
X35.471 Y13.291
X35.32 Y13.161
X35.259 Y13.111
X35.094 Y12.984
X35.036 Y12.941
X34.858 Y12.817
X34.802 Y12.78
X34.612 Y12.66
X34.56 Y12.628
X34.357 Y12.511
X34.307 Y12.483
X34.093 Y12.371
X34.045 Y12.346
X33.82 Y12.238
X33.774 Y12.216
X33.538 Y12.112
X33.493 Y12.093
X33.247 Y11.994
X33.204 Y11.978
X32.947 Y11.883
X32.906 Y11.869
X32.64 Y11.779
X32.601 Y11.766
X32.325 Y11.682
X32.289 Y11.672
X32.005 Y11.592
X31.972 Y11.584
X31.681 Y11.51
X31.65 Y11.502
X31.352 Y11.433
G2 X31.091 Y11.397 I-0.338 J1.461
G1 X29.359 Y11.307
X27.679 Y8.777
G2 X27.039 Y7.901 I-10.081 J6.693
G1 X26.142 Y6.782
X28.212 Y0.97
G2 X27.583 Y-0.812 I-1.413 J-0.503
X27.364 Y-0.945 I-9.986 J16.282
G1 X27.289 Y-0.987
X27.212 Y-1.024
X27.077 Y-1.085
X27 Y-1.117
X26.921 Y-1.145
X26.778 Y-1.191
X26.701 Y-1.213
X26.624 Y-1.231
X26.474 Y-1.262
X26.327 Y-1.285
X26.171 Y-1.302
X26.033 Y-1.31
X25.871 Y-1.312
X25.745 Y-1.309
X25.576 Y-1.297
X25.462 Y-1.284
X25.288 Y-1.259
X25.186 Y-1.24
X25.006 Y-1.2
X24.914 Y-1.177
X24.73 Y-1.124
X24.648 Y-1.098
X24.46 Y-1.032
X24.386 Y-1.004
X24.193 Y-0.925
X24.127 Y-0.896
X23.931 Y-0.804
X23.871 Y-0.774
X23.672 Y-0.67
X23.618 Y-0.64
X23.416 Y-0.523
X23.366 Y-0.493
X23.162 Y-0.365
X23.117 Y-0.335
X22.91 Y-0.194
X22.869 Y-0.165
X22.66 Y-0.013
X22.622 Y0.016
X22.413 Y0.18
X22.377 Y0.209
X22.167 Y0.384
X22.134 Y0.412
X21.923 Y0.598
X21.892 Y0.626
X21.681 Y0.822
X21.654 Y0.848
X21.444 Y1.055
X21.42 Y1.079
X21.21 Y1.294
X21.188 Y1.317
X20.98 Y1.541
G2 X20.817 Y1.748 I1.096 J1.024
G1 X19.874 Y3.204
X16.843 Y3.393
G2 X15.764 Y3.51 I0.756 J12.076
G1 X14.346 Y3.727
X10.348 Y-0.972
G2 X8.49 Y-1.318 I-1.142 J0.972
X8.265 Y-1.194 I9.108 J16.788
G1 X8.192 Y-1.151
X8.121 Y-1.103
X8.001 Y-1.016
X7.935 Y-0.965
X7.871 Y-0.911
X7.76 Y-0.81
X7.702 Y-0.755
X7.647 Y-0.697
X7.546 Y-0.583
X7.452 Y-0.467
X7.36 Y-0.34
X7.284 Y-0.225
X7.201 Y-0.085
X7.141 Y0.026
X7.067 Y0.178
X7.021 Y0.283
X6.956 Y0.446
X6.921 Y0.544
X6.866 Y0.719
X6.84 Y0.811
X6.794 Y0.996
X6.775 Y1.081
X6.738 Y1.277
X6.726 Y1.355
X6.698 Y1.561
X6.69 Y1.633
X6.671 Y1.849
X6.667 Y1.916
X6.658 Y2.14
X6.657 Y2.202
Y2.436
X6.658 Y2.493
X6.667 Y2.735
X6.67 Y2.788
X6.689 Y3.038
X6.693 Y3.088
X6.721 Y3.345
X6.727 Y3.392
X6.764 Y3.656
X6.771 Y3.701
X6.818 Y3.971
X6.826 Y4.013
X6.881 Y4.289
X6.89 Y4.329
X6.955 Y4.61
X6.964 Y4.647
X7.037 Y4.932
X7.046 Y4.965
X7.128 Y5.254
X7.137 Y5.285
X7.226 Y5.577
G2 X7.325 Y5.822 I1.435 J-0.438
G1 X8.114 Y7.366
X6.762 Y10.086
G2 X6.323 Y11.079 I10.836 J5.384
G1 X5.803 Y12.415
X-0.266 Y13.528
G2 X-1.495 Y14.964 I0.271 J1.475
X-1.5 Y15.221 I19.093 J0.506
G1 X-1.499 Y15.306
X-1.492 Y15.391
X-1.478 Y15.538
X-1.467 Y15.622
X-1.451 Y15.704
X-1.42 Y15.85
X-1.401 Y15.928
X-1.378 Y16.004
X-1.33 Y16.149
X-1.276 Y16.288
X-1.212 Y16.432
X-1.151 Y16.555
X-1.071 Y16.697
X-1.005 Y16.804
X-0.911 Y16.944
X-0.843 Y17.037
X-0.733 Y17.175
X-0.666 Y17.254
X-0.542 Y17.389
X-0.476 Y17.457
X-0.338 Y17.59
X-0.274 Y17.649
X-0.123 Y17.779
X-0.062 Y17.828
X0.103 Y17.956
X0.161 Y17.999
X0.339 Y18.123
X0.395 Y18.159
X0.585 Y18.28
X0.637 Y18.312
X0.84 Y18.429
X0.89 Y18.456
X1.104 Y18.569
X1.152 Y18.593
X1.377 Y18.702
X1.424 Y18.723
X1.66 Y18.827
X1.703 Y18.846
X1.95 Y18.945
X1.993 Y18.962
X2.25 Y19.057
X2.291 Y19.071
X2.557 Y19.161
X2.596 Y19.173
X2.872 Y19.257
X2.908 Y19.268
X3.192 Y19.347
X3.225 Y19.356
X3.516 Y19.43
X3.547 Y19.437
X3.845 Y19.506
G2 X4.106 Y19.543 I0.338 J-1.461
G1 X5.838 Y19.632
X7.518 Y22.162
G2 X8.158 Y23.039 I10.081 J-6.693
G1 X9.055 Y24.158
X6.985 Y29.97
G2 X7.614 Y31.752 I1.413 J0.503
X7.834 Y31.885 I9.983 J-16.283
G1 X7.908 Y31.926
X7.984 Y31.963
X8.119 Y32.024
X8.197 Y32.057
X8.276 Y32.085
X8.419 Y32.13
X8.496 Y32.153
X8.574 Y32.171
X8.723 Y32.202
X8.87 Y32.225
X9.026 Y32.242
X9.164 Y32.25
X9.326 Y32.252
X9.452 Y32.248
X9.621 Y32.236
X9.735 Y32.224
X9.909 Y32.198
X10.011 Y32.179
X10.19 Y32.14
X10.283 Y32.117
X10.467 Y32.064
X10.549 Y32.037
X10.738 Y31.971
X10.811 Y31.943
X11.004 Y31.864
X11.07 Y31.835
X11.266 Y31.744
X11.326 Y31.714
X11.525 Y31.609
X11.579 Y31.579
X11.782 Y31.463
X11.83 Y31.433
X12.035 Y31.304
X12.081 Y31.275
X12.287 Y31.134
X12.328 Y31.105
X12.537 Y30.952
X12.575 Y30.923
X12.784 Y30.76
X12.82 Y30.731
X13.03 Y30.556
X13.063 Y30.528
X13.274 Y30.341
X13.305 Y30.314
X13.516 Y30.117
X13.543 Y30.091
X13.753 Y29.885
X13.777 Y29.86
X13.987 Y29.645
X14.009 Y29.622
X14.217 Y29.399
G2 X14.38 Y29.191 I-1.096 J-1.024
G1 X15.323 Y27.736
X18.354 Y27.546
G2 X19.433 Y27.43 I-0.755 J-12.076
G1 X20.851 Y27.212
X24.849 Y31.912
G2 X26.707 Y32.258 I1.142 J-0.972
X26.932 Y32.134 I-9.107 J-16.789
G1 X27.005 Y32.09
X27.076 Y32.042
X27.196 Y31.955
X27.263 Y31.905
X27.326 Y31.85
X27.437 Y31.75
X27.495 Y31.695
X27.549 Y31.637
X27.651 Y31.523
X27.744 Y31.407
X27.837 Y31.28
X27.913 Y31.164
X27.996 Y31.025
X28.056 Y30.914
X28.13 Y30.762
X28.176 Y30.657
X28.241 Y30.493
X28.276 Y30.395
X28.331 Y30.22
X28.357 Y30.129
X28.403 Y29.943
X28.422 Y29.859
X28.459 Y29.662
X28.471 Y29.585
X28.499 Y29.379
X28.507 Y29.306
X28.526 Y29.091
X28.53 Y29.024
X28.539 Y28.799
X28.54 Y28.738
Y28.504
X28.539 Y28.447
X28.53 Y28.205
X28.527 Y28.151
X28.508 Y27.902
X28.504 Y27.852
X28.476 Y27.595
X28.47 Y27.547
X28.433 Y27.283
X28.426 Y27.239
X28.379 Y26.969
X28.371 Y26.926
X28.316 Y26.651
X28.307 Y26.61
X28.242 Y26.33
X28.233 Y26.293
X28.16 Y26.007
X28.151 Y25.974
X28.069 Y25.685
X28.06 Y25.655
X27.971 Y25.362
G2 X27.872 Y25.118 I-1.435 J0.438
G1 X27.083 Y23.574
X28.435 Y20.854
G2 X28.874 Y19.861 I-10.836 J-5.384
G1 X29.394 Y18.525
X35.463 Y17.411
G2 X36.692 Y15.976 I-0.271 J-1.475
X36.697 Y15.719 I-19.093 J-0.508
G1 Y15.692
Z-1.8 F333.3
X36.689 Y15.548 F700
X36.674 Y15.401
X36.664 Y15.318
X36.648 Y15.236
X36.617 Y15.09
X36.598 Y15.012
X36.575 Y14.934
X36.527 Y14.789
X36.474 Y14.652
X36.41 Y14.508
X36.347 Y14.384
X36.268 Y14.242
X36.202 Y14.136
X36.108 Y13.996
X36.04 Y13.903
X35.931 Y13.765
X35.863 Y13.685
X35.739 Y13.55
X35.673 Y13.482
X35.535 Y13.349
X35.471 Y13.291
X35.32 Y13.161
X35.259 Y13.111
X35.094 Y12.984
X35.036 Y12.941
X34.858 Y12.817
X34.802 Y12.78
X34.612 Y12.66
X34.56 Y12.628
X34.357 Y12.511
X34.307 Y12.483
X34.093 Y12.371
X34.045 Y12.346
X33.82 Y12.238
X33.774 Y12.216
X33.538 Y12.112
X33.493 Y12.093
X33.247 Y11.994
X33.204 Y11.978
X32.947 Y11.883
X32.906 Y11.869
X32.64 Y11.779
X32.601 Y11.766
X32.325 Y11.682
X32.289 Y11.672
X32.005 Y11.592
X31.972 Y11.584
X31.681 Y11.51
X31.65 Y11.502
X31.352 Y11.433
G2 X31.091 Y11.397 I-0.338 J1.461
G1 X29.359 Y11.307
X27.679 Y8.777
G2 X27.039 Y7.901 I-10.081 J6.693
G1 X26.142 Y6.782
X28.212 Y0.97
G2 X27.583 Y-0.812 I-1.413 J-0.503
X27.364 Y-0.945 I-9.986 J16.282
G1 X27.289 Y-0.987
X27.212 Y-1.024
X27.077 Y-1.085
X27 Y-1.117
X26.921 Y-1.145
X26.778 Y-1.191
X26.701 Y-1.213
X26.624 Y-1.231
X26.474 Y-1.262
X26.327 Y-1.285
X26.171 Y-1.302
X26.033 Y-1.31
X25.871 Y-1.312
X25.745 Y-1.309
X25.576 Y-1.297
X25.462 Y-1.284
X25.288 Y-1.259
X25.186 Y-1.24
X25.006 Y-1.2
X24.914 Y-1.177
X24.73 Y-1.124
X24.648 Y-1.098
X24.46 Y-1.032
X24.386 Y-1.004
X24.193 Y-0.925
X24.127 Y-0.896
X23.931 Y-0.804
X23.871 Y-0.774
X23.672 Y-0.67
X23.618 Y-0.64
X23.416 Y-0.523
X23.366 Y-0.493
X23.162 Y-0.365
X23.117 Y-0.335
X22.91 Y-0.194
X22.869 Y-0.165
X22.66 Y-0.013
X22.622 Y0.016
X22.413 Y0.18
X22.377 Y0.209
X22.167 Y0.384
X22.134 Y0.412
X21.923 Y0.598
X21.892 Y0.626
X21.681 Y0.822
X21.654 Y0.848
X21.444 Y1.055
X21.42 Y1.079
X21.21 Y1.294
X21.188 Y1.317
X20.98 Y1.541
G2 X20.817 Y1.748 I1.096 J1.024
G1 X19.874 Y3.204
X16.843 Y3.393
G2 X15.764 Y3.51 I0.756 J12.076
G1 X14.346 Y3.727
X10.348 Y-0.972
G2 X8.49 Y-1.318 I-1.142 J0.972
X8.265 Y-1.194 I9.108 J16.788
G1 X8.192 Y-1.151
X8.121 Y-1.103
X8.001 Y-1.016
X7.935 Y-0.965
X7.871 Y-0.911
X7.76 Y-0.81
X7.702 Y-0.755
X7.647 Y-0.697
X7.546 Y-0.583
X7.452 Y-0.467
X7.36 Y-0.34
X7.284 Y-0.225
X7.201 Y-0.085
X7.141 Y0.026
X7.067 Y0.178
X7.021 Y0.283
X6.956 Y0.446
X6.921 Y0.544
X6.866 Y0.719
X6.84 Y0.811
X6.794 Y0.996
X6.775 Y1.081
X6.738 Y1.277
X6.726 Y1.355
X6.698 Y1.561
X6.69 Y1.633
X6.671 Y1.849
X6.667 Y1.916
X6.658 Y2.14
X6.657 Y2.202
Y2.436
X6.658 Y2.493
X6.667 Y2.735
X6.67 Y2.788
X6.689 Y3.038
X6.693 Y3.088
X6.721 Y3.345
X6.727 Y3.392
X6.764 Y3.656
X6.771 Y3.701
X6.818 Y3.971
X6.826 Y4.013
X6.881 Y4.289
X6.89 Y4.329
X6.955 Y4.61
X6.964 Y4.647
X7.037 Y4.932
X7.046 Y4.965
X7.128 Y5.254
X7.137 Y5.285
X7.226 Y5.577
G2 X7.325 Y5.822 I1.435 J-0.438
G1 X8.114 Y7.366
X6.762 Y10.086
G2 X6.323 Y11.079 I10.836 J5.384
G1 X5.803 Y12.415
X-0.266 Y13.528
G2 X-1.495 Y14.964 I0.271 J1.475
X-1.5 Y15.221 I19.093 J0.506
G1 X-1.499 Y15.306
X-1.492 Y15.391
X-1.478 Y15.538
X-1.467 Y15.622
X-1.451 Y15.704
X-1.42 Y15.85
X-1.401 Y15.928
X-1.378 Y16.004
X-1.33 Y16.149
X-1.276 Y16.288
X-1.212 Y16.432
X-1.151 Y16.555
X-1.071 Y16.697
X-1.005 Y16.804
X-0.911 Y16.944
X-0.843 Y17.037
X-0.733 Y17.175
X-0.666 Y17.254
X-0.542 Y17.389
X-0.476 Y17.457
X-0.338 Y17.59
X-0.274 Y17.649
X-0.123 Y17.779
X-0.062 Y17.828
X0.103 Y17.956
X0.161 Y17.999
X0.339 Y18.123
X0.395 Y18.159
X0.585 Y18.28
X0.637 Y18.312
X0.84 Y18.429
X0.89 Y18.456
X1.104 Y18.569
X1.152 Y18.593
X1.377 Y18.702
X1.424 Y18.723
X1.66 Y18.827
X1.703 Y18.846
X1.95 Y18.945
X1.993 Y18.962
X2.25 Y19.057
X2.291 Y19.071
X2.557 Y19.161
X2.596 Y19.173
X2.872 Y19.257
X2.908 Y19.268
X3.192 Y19.347
X3.225 Y19.356
X3.516 Y19.43
X3.547 Y19.437
X3.845 Y19.506
G2 X4.106 Y19.543 I0.338 J-1.461
G1 X5.838 Y19.632
X7.518 Y22.162
G2 X8.158 Y23.039 I10.081 J-6.693
G1 X9.055 Y24.158
X6.985 Y29.97
G2 X7.614 Y31.752 I1.413 J0.503
X7.834 Y31.885 I9.983 J-16.283
G1 X7.908 Y31.926
X7.984 Y31.963
X8.119 Y32.024
X8.197 Y32.057
X8.276 Y32.085
X8.419 Y32.13
X8.496 Y32.153
X8.574 Y32.171
X8.723 Y32.202
X8.87 Y32.225
X9.026 Y32.242
X9.164 Y32.25
X9.326 Y32.252
X9.452 Y32.248
X9.621 Y32.236
X9.735 Y32.224
X9.909 Y32.198
X10.011 Y32.179
X10.19 Y32.14
X10.283 Y32.117
X10.467 Y32.064
X10.549 Y32.037
X10.738 Y31.971
X10.811 Y31.943
X11.004 Y31.864
X11.07 Y31.835
X11.266 Y31.744
X11.326 Y31.714
X11.525 Y31.609
X11.579 Y31.579
X11.782 Y31.463
X11.83 Y31.433
X12.035 Y31.304
X12.081 Y31.275
X12.287 Y31.134
X12.328 Y31.105
X12.537 Y30.952
X12.575 Y30.923
X12.784 Y30.76
X12.82 Y30.731
X13.03 Y30.556
X13.063 Y30.528
X13.274 Y30.341
X13.305 Y30.314
X13.516 Y30.117
X13.543 Y30.091
X13.753 Y29.885
X13.777 Y29.86
X13.987 Y29.645
X14.009 Y29.622
X14.217 Y29.399
G2 X14.38 Y29.191 I-1.096 J-1.024
G1 X15.323 Y27.736
X18.354 Y27.546
G2 X19.433 Y27.43 I-0.755 J-12.076
G1 X20.851 Y27.212
X24.849 Y31.912
G2 X26.707 Y32.258 I1.142 J-0.972
X26.932 Y32.134 I-9.107 J-16.789
G1 X27.005 Y32.09
X27.076 Y32.042
X27.196 Y31.955
X27.263 Y31.905
X27.326 Y31.85
X27.437 Y31.75
X27.495 Y31.695
X27.549 Y31.637
X27.651 Y31.523
X27.744 Y31.407
X27.837 Y31.28
X27.913 Y31.164
X27.996 Y31.025
X28.056 Y30.914
X28.13 Y30.762
X28.176 Y30.657
X28.241 Y30.493
X28.276 Y30.395
X28.331 Y30.22
X28.357 Y30.129
X28.403 Y29.943
X28.422 Y29.859
X28.459 Y29.662
X28.471 Y29.585
X28.499 Y29.379
X28.507 Y29.306
X28.526 Y29.091
X28.53 Y29.024
X28.539 Y28.799
X28.54 Y28.738
Y28.504
X28.539 Y28.447
X28.53 Y28.205
X28.527 Y28.151
X28.508 Y27.902
X28.504 Y27.852
X28.476 Y27.595
X28.47 Y27.547
X28.433 Y27.283
X28.426 Y27.239
X28.379 Y26.969
X28.371 Y26.926
X28.316 Y26.651
X28.307 Y26.61
X28.242 Y26.33
X28.233 Y26.293
X28.16 Y26.007
X28.151 Y25.974
X28.069 Y25.685
X28.06 Y25.655
X27.971 Y25.362
G2 X27.872 Y25.118 I-1.435 J0.438
G1 X27.083 Y23.574
X28.435 Y20.854
G2 X28.874 Y19.861 I-10.836 J-5.384
G1 X29.394 Y18.525
X35.463 Y17.411
G2 X36.692 Y15.976 I-0.271 J-1.475
X36.697 Y15.719 I-19.093 J-0.508
G1 Y15.692
Z-2.1 F333.3
X36.689 Y15.548 F700
X36.674 Y15.401
X36.664 Y15.318
X36.648 Y15.236
X36.617 Y15.09
X36.598 Y15.012
X36.575 Y14.934
X36.527 Y14.789
X36.474 Y14.652
X36.41 Y14.508
X36.347 Y14.384
X36.268 Y14.242
X36.202 Y14.136
X36.108 Y13.996
X36.04 Y13.903
X35.931 Y13.765
X35.863 Y13.685
X35.739 Y13.55
X35.673 Y13.482
X35.535 Y13.349
X35.471 Y13.291
X35.32 Y13.161
X35.259 Y13.111
X35.094 Y12.984
X35.036 Y12.941
X34.858 Y12.817
X34.802 Y12.78
X34.612 Y12.66
X34.56 Y12.628
X34.357 Y12.511
X34.307 Y12.483
X34.093 Y12.371
X34.045 Y12.346
X33.82 Y12.238
X33.774 Y12.216
X33.538 Y12.112
X33.493 Y12.093
X33.247 Y11.994
X33.204 Y11.978
X32.947 Y11.883
X32.906 Y11.869
X32.64 Y11.779
X32.601 Y11.766
X32.325 Y11.682
X32.289 Y11.672
X32.005 Y11.592
X31.972 Y11.584
X31.681 Y11.51
X31.65 Y11.502
X31.352 Y11.433
G2 X31.091 Y11.397 I-0.338 J1.461
G1 X29.359 Y11.307
X27.679 Y8.777
G2 X27.039 Y7.901 I-10.081 J6.693
G1 X26.142 Y6.782
X28.212 Y0.97
G2 X27.583 Y-0.812 I-1.413 J-0.503
X27.364 Y-0.945 I-9.986 J16.282
G1 X27.289 Y-0.987
X27.212 Y-1.024
X27.077 Y-1.085
X27 Y-1.117
X26.921 Y-1.145
X26.778 Y-1.191
X26.701 Y-1.213
X26.624 Y-1.231
X26.474 Y-1.262
X26.327 Y-1.285
X26.171 Y-1.302
X26.033 Y-1.31
X25.871 Y-1.312
X25.745 Y-1.309
X25.576 Y-1.297
X25.462 Y-1.284
X25.288 Y-1.259
X25.186 Y-1.24
X25.006 Y-1.2
X24.914 Y-1.177
X24.73 Y-1.124
X24.648 Y-1.098
X24.46 Y-1.032
X24.386 Y-1.004
X24.193 Y-0.925
X24.127 Y-0.896
X23.931 Y-0.804
X23.871 Y-0.774
X23.672 Y-0.67
X23.618 Y-0.64
X23.416 Y-0.523
X23.366 Y-0.493
X23.162 Y-0.365
X23.117 Y-0.335
X22.91 Y-0.194
X22.869 Y-0.165
X22.66 Y-0.013
X22.622 Y0.016
X22.413 Y0.18
X22.377 Y0.209
X22.167 Y0.384
X22.134 Y0.412
X21.923 Y0.598
X21.892 Y0.626
X21.681 Y0.822
X21.654 Y0.848
X21.444 Y1.055
X21.42 Y1.079
X21.21 Y1.294
X21.188 Y1.317
X20.98 Y1.541
G2 X20.817 Y1.748 I1.096 J1.024
G1 X19.874 Y3.204
X16.843 Y3.393
G2 X15.764 Y3.51 I0.756 J12.076
G1 X14.346 Y3.727
X10.348 Y-0.972
G2 X8.49 Y-1.318 I-1.142 J0.972
X8.265 Y-1.194 I9.108 J16.788
G1 X8.192 Y-1.151
X8.121 Y-1.103
X8.001 Y-1.016
X7.935 Y-0.965
X7.871 Y-0.911
X7.76 Y-0.81
X7.702 Y-0.755
X7.647 Y-0.697
X7.546 Y-0.583
X7.452 Y-0.467
X7.36 Y-0.34
X7.284 Y-0.225
X7.201 Y-0.085
X7.141 Y0.026
X7.067 Y0.178
X7.021 Y0.283
X6.956 Y0.446
X6.921 Y0.544
X6.866 Y0.719
X6.84 Y0.811
X6.794 Y0.996
X6.775 Y1.081
X6.738 Y1.277
X6.726 Y1.355
X6.698 Y1.561
X6.69 Y1.633
X6.671 Y1.849
X6.667 Y1.916
X6.658 Y2.14
X6.657 Y2.202
Y2.436
X6.658 Y2.493
X6.667 Y2.735
X6.67 Y2.788
X6.689 Y3.038
X6.693 Y3.088
X6.721 Y3.345
X6.727 Y3.392
X6.764 Y3.656
X6.771 Y3.701
X6.818 Y3.971
X6.826 Y4.013
X6.881 Y4.289
X6.89 Y4.329
X6.955 Y4.61
X6.964 Y4.647
X7.037 Y4.932
X7.046 Y4.965
X7.128 Y5.254
X7.137 Y5.285
X7.226 Y5.577
G2 X7.325 Y5.822 I1.435 J-0.438
G1 X8.114 Y7.366
X6.762 Y10.086
G2 X6.323 Y11.079 I10.836 J5.384
G1 X5.803 Y12.415
X-0.266 Y13.528
G2 X-1.495 Y14.964 I0.271 J1.475
X-1.5 Y15.221 I19.093 J0.506
G1 X-1.499 Y15.306
X-1.492 Y15.391
X-1.478 Y15.538
X-1.467 Y15.622
X-1.451 Y15.704
X-1.42 Y15.85
X-1.401 Y15.928
X-1.378 Y16.004
X-1.33 Y16.149
X-1.276 Y16.288
X-1.212 Y16.432
X-1.151 Y16.555
X-1.071 Y16.697
X-1.005 Y16.804
X-0.911 Y16.944
X-0.843 Y17.037
X-0.733 Y17.175
X-0.666 Y17.254
X-0.542 Y17.389
X-0.476 Y17.457
X-0.338 Y17.59
X-0.274 Y17.649
X-0.123 Y17.779
X-0.062 Y17.828
X0.103 Y17.956
X0.161 Y17.999
X0.339 Y18.123
X0.395 Y18.159
X0.585 Y18.28
X0.637 Y18.312
X0.84 Y18.429
X0.89 Y18.456
X1.104 Y18.569
X1.152 Y18.593
X1.377 Y18.702
X1.424 Y18.723
X1.66 Y18.827
X1.703 Y18.846
X1.95 Y18.945
X1.993 Y18.962
X2.25 Y19.057
X2.291 Y19.071
X2.557 Y19.161
X2.596 Y19.173
X2.872 Y19.257
X2.908 Y19.268
X3.192 Y19.347
X3.225 Y19.356
X3.516 Y19.43
X3.547 Y19.437
X3.845 Y19.506
G2 X4.106 Y19.543 I0.338 J-1.461
G1 X5.838 Y19.632
X7.518 Y22.162
G2 X8.158 Y23.039 I10.081 J-6.693
G1 X9.055 Y24.158
X6.985 Y29.97
G2 X7.614 Y31.752 I1.413 J0.503
X7.834 Y31.885 I9.983 J-16.283
G1 X7.908 Y31.926
X7.984 Y31.963
X8.119 Y32.024
X8.197 Y32.057
X8.276 Y32.085
X8.419 Y32.13
X8.496 Y32.153
X8.574 Y32.171
X8.723 Y32.202
X8.87 Y32.225
X9.026 Y32.242
X9.164 Y32.25
X9.326 Y32.252
X9.452 Y32.248
X9.621 Y32.236
X9.735 Y32.224
X9.909 Y32.198
X10.011 Y32.179
X10.19 Y32.14
X10.283 Y32.117
X10.467 Y32.064
X10.549 Y32.037
X10.738 Y31.971
X10.811 Y31.943
X11.004 Y31.864
X11.07 Y31.835
X11.266 Y31.744
X11.326 Y31.714
X11.525 Y31.609
X11.579 Y31.579
X11.782 Y31.463
X11.83 Y31.433
X12.035 Y31.304
X12.081 Y31.275
X12.287 Y31.134
X12.328 Y31.105
X12.537 Y30.952
X12.575 Y30.923
X12.784 Y30.76
X12.82 Y30.731
X13.03 Y30.556
X13.063 Y30.528
X13.274 Y30.341
X13.305 Y30.314
X13.516 Y30.117
X13.543 Y30.091
X13.753 Y29.885
X13.777 Y29.86
X13.987 Y29.645
X14.009 Y29.622
X14.217 Y29.399
G2 X14.38 Y29.191 I-1.096 J-1.024
G1 X15.323 Y27.736
X18.354 Y27.546
G2 X19.433 Y27.43 I-0.755 J-12.076
G1 X20.851 Y27.212
X24.849 Y31.912
G2 X26.707 Y32.258 I1.142 J-0.972
X26.932 Y32.134 I-9.107 J-16.789
G1 X27.005 Y32.09
X27.076 Y32.042
X27.196 Y31.955
X27.263 Y31.905
X27.326 Y31.85
X27.437 Y31.75
X27.495 Y31.695
X27.549 Y31.637
X27.651 Y31.523
X27.744 Y31.407
X27.837 Y31.28
X27.913 Y31.164
X27.996 Y31.025
X28.056 Y30.914
X28.13 Y30.762
X28.176 Y30.657
X28.241 Y30.493
X28.276 Y30.395
X28.331 Y30.22
X28.357 Y30.129
X28.403 Y29.943
X28.422 Y29.859
X28.459 Y29.662
X28.471 Y29.585
X28.499 Y29.379
X28.507 Y29.306
X28.526 Y29.091
X28.53 Y29.024
X28.539 Y28.799
X28.54 Y28.738
Y28.504
X28.539 Y28.447
X28.53 Y28.205
X28.527 Y28.151
X28.508 Y27.902
X28.504 Y27.852
X28.476 Y27.595
X28.47 Y27.547
X28.433 Y27.283
X28.426 Y27.239
X28.379 Y26.969
X28.371 Y26.926
X28.316 Y26.651
X28.307 Y26.61
X28.242 Y26.33
X28.233 Y26.293
X28.16 Y26.007
X28.151 Y25.974
X28.069 Y25.685
X28.06 Y25.655
X27.971 Y25.362
G2 X27.872 Y25.118 I-1.435 J0.438
G1 X27.083 Y23.574
X28.435 Y20.854
G2 X28.874 Y19.861 I-10.836 J-5.384
G1 X29.394 Y18.525
X35.463 Y17.411
G2 X36.692 Y15.976 I-0.271 J-1.475
X36.697 Y15.719 I-19.093 J-0.508
G1 Y15.692
Z-2.4 F333.3
X36.689 Y15.548 F700
X36.674 Y15.401
X36.664 Y15.318
X36.648 Y15.236
X36.617 Y15.09
X36.598 Y15.012
X36.575 Y14.934
X36.527 Y14.789
X36.474 Y14.652
X36.41 Y14.508
X36.347 Y14.384
X36.268 Y14.242
X36.202 Y14.136
X36.108 Y13.996
X36.04 Y13.903
X35.931 Y13.765
X35.863 Y13.685
X35.739 Y13.55
X35.673 Y13.482
X35.535 Y13.349
X35.471 Y13.291
X35.32 Y13.161
X35.259 Y13.111
X35.094 Y12.984
X35.036 Y12.941
X34.858 Y12.817
X34.802 Y12.78
X34.612 Y12.66
X34.56 Y12.628
X34.357 Y12.511
X34.307 Y12.483
X34.093 Y12.371
X34.045 Y12.346
X33.82 Y12.238
X33.774 Y12.216
X33.538 Y12.112
X33.493 Y12.093
X33.247 Y11.994
X33.204 Y11.978
X32.947 Y11.883
X32.906 Y11.869
X32.64 Y11.779
X32.601 Y11.766
X32.325 Y11.682
X32.289 Y11.672
X32.005 Y11.592
X31.972 Y11.584
X31.681 Y11.51
X31.65 Y11.502
X31.352 Y11.433
G2 X31.091 Y11.397 I-0.338 J1.461
G1 X29.359 Y11.307
X27.679 Y8.777
G2 X27.039 Y7.901 I-10.081 J6.693
G1 X26.142 Y6.782
X28.212 Y0.97
G2 X27.583 Y-0.812 I-1.413 J-0.503
X27.364 Y-0.945 I-9.986 J16.282
G1 X27.289 Y-0.987
X27.212 Y-1.024
X27.077 Y-1.085
X27 Y-1.117
X26.921 Y-1.145
X26.778 Y-1.191
X26.701 Y-1.213
X26.624 Y-1.231
X26.474 Y-1.262
X26.327 Y-1.285
X26.171 Y-1.302
X26.033 Y-1.31
X25.871 Y-1.312
X25.745 Y-1.309
X25.576 Y-1.297
X25.462 Y-1.284
X25.288 Y-1.259
X25.186 Y-1.24
X25.006 Y-1.2
X24.914 Y-1.177
X24.73 Y-1.124
X24.648 Y-1.098
X24.46 Y-1.032
X24.386 Y-1.004
X24.193 Y-0.925
X24.127 Y-0.896
X23.931 Y-0.804
X23.871 Y-0.774
X23.672 Y-0.67
X23.618 Y-0.64
X23.416 Y-0.523
X23.366 Y-0.493
X23.162 Y-0.365
X23.117 Y-0.335
X22.91 Y-0.194
X22.869 Y-0.165
X22.66 Y-0.013
X22.622 Y0.016
X22.413 Y0.18
X22.377 Y0.209
X22.167 Y0.384
X22.134 Y0.412
X21.923 Y0.598
X21.892 Y0.626
X21.681 Y0.822
X21.654 Y0.848
X21.444 Y1.055
X21.42 Y1.079
X21.21 Y1.294
X21.188 Y1.317
X20.98 Y1.541
G2 X20.817 Y1.748 I1.096 J1.024
G1 X19.874 Y3.204
X16.843 Y3.393
G2 X15.764 Y3.51 I0.756 J12.076
G1 X14.346 Y3.727
X10.348 Y-0.972
G2 X8.49 Y-1.318 I-1.142 J0.972
X8.265 Y-1.194 I9.108 J16.788
G1 X8.192 Y-1.151
X8.121 Y-1.103
X8.001 Y-1.016
X7.935 Y-0.965
X7.871 Y-0.911
X7.76 Y-0.81
X7.702 Y-0.755
X7.647 Y-0.697
X7.546 Y-0.583
X7.452 Y-0.467
X7.36 Y-0.34
X7.284 Y-0.225
X7.201 Y-0.085
X7.141 Y0.026
X7.067 Y0.178
X7.021 Y0.283
X6.956 Y0.446
X6.921 Y0.544
X6.866 Y0.719
X6.84 Y0.811
X6.794 Y0.996
X6.775 Y1.081
X6.738 Y1.277
X6.726 Y1.355
X6.698 Y1.561
X6.69 Y1.633
X6.671 Y1.849
X6.667 Y1.916
X6.658 Y2.14
X6.657 Y2.202
Y2.436
X6.658 Y2.493
X6.667 Y2.735
X6.67 Y2.788
X6.689 Y3.038
X6.693 Y3.088
X6.721 Y3.345
X6.727 Y3.392
X6.764 Y3.656
X6.771 Y3.701
X6.818 Y3.971
X6.826 Y4.013
X6.881 Y4.289
X6.89 Y4.329
X6.955 Y4.61
X6.964 Y4.647
X7.037 Y4.932
X7.046 Y4.965
X7.128 Y5.254
X7.137 Y5.285
X7.226 Y5.577
G2 X7.325 Y5.822 I1.435 J-0.438
G1 X8.114 Y7.366
X6.762 Y10.086
G2 X6.323 Y11.079 I10.836 J5.384
G1 X5.803 Y12.415
X-0.266 Y13.528
G2 X-1.495 Y14.964 I0.271 J1.475
X-1.5 Y15.221 I19.093 J0.506
G1 X-1.499 Y15.306
X-1.492 Y15.391
X-1.478 Y15.538
X-1.467 Y15.622
X-1.451 Y15.704
X-1.42 Y15.85
X-1.401 Y15.928
X-1.378 Y16.004
X-1.33 Y16.149
X-1.276 Y16.288
X-1.212 Y16.432
X-1.151 Y16.555
X-1.071 Y16.697
X-1.005 Y16.804
X-0.911 Y16.944
X-0.843 Y17.037
X-0.733 Y17.175
X-0.666 Y17.254
X-0.542 Y17.389
X-0.476 Y17.457
X-0.338 Y17.59
X-0.274 Y17.649
X-0.123 Y17.779
X-0.062 Y17.828
X0.103 Y17.956
X0.161 Y17.999
X0.339 Y18.123
X0.395 Y18.159
X0.585 Y18.28
X0.637 Y18.312
X0.84 Y18.429
X0.89 Y18.456
X1.104 Y18.569
X1.152 Y18.593
X1.377 Y18.702
X1.424 Y18.723
X1.66 Y18.827
X1.703 Y18.846
X1.95 Y18.945
X1.993 Y18.962
X2.25 Y19.057
X2.291 Y19.071
X2.557 Y19.161
X2.596 Y19.173
X2.872 Y19.257
X2.908 Y19.268
X3.192 Y19.347
X3.225 Y19.356
X3.516 Y19.43
X3.547 Y19.437
X3.845 Y19.506
G2 X4.106 Y19.543 I0.338 J-1.461
G1 X5.838 Y19.632
X7.518 Y22.162
G2 X8.158 Y23.039 I10.081 J-6.693
G1 X9.055 Y24.158
X6.985 Y29.97
G2 X7.614 Y31.752 I1.413 J0.503
X7.834 Y31.885 I9.983 J-16.283
G1 X7.908 Y31.926
X7.984 Y31.963
X8.119 Y32.024
X8.197 Y32.057
X8.276 Y32.085
X8.419 Y32.13
X8.496 Y32.153
X8.574 Y32.171
X8.723 Y32.202
X8.87 Y32.225
X9.026 Y32.242
X9.164 Y32.25
X9.326 Y32.252
X9.452 Y32.248
X9.621 Y32.236
X9.735 Y32.224
X9.909 Y32.198
X10.011 Y32.179
X10.19 Y32.14
X10.283 Y32.117
X10.467 Y32.064
X10.549 Y32.037
X10.738 Y31.971
X10.811 Y31.943
X11.004 Y31.864
X11.07 Y31.835
X11.266 Y31.744
X11.326 Y31.714
X11.525 Y31.609
X11.579 Y31.579
X11.782 Y31.463
X11.83 Y31.433
X12.035 Y31.304
X12.081 Y31.275
X12.287 Y31.134
X12.328 Y31.105
X12.537 Y30.952
X12.575 Y30.923
X12.784 Y30.76
X12.82 Y30.731
X13.03 Y30.556
X13.063 Y30.528
X13.274 Y30.341
X13.305 Y30.314
X13.516 Y30.117
X13.543 Y30.091
X13.753 Y29.885
X13.777 Y29.86
X13.987 Y29.645
X14.009 Y29.622
X14.217 Y29.399
G2 X14.38 Y29.191 I-1.096 J-1.024
G1 X15.323 Y27.736
X18.354 Y27.546
G2 X19.433 Y27.43 I-0.755 J-12.076
G1 X20.851 Y27.212
X24.849 Y31.912
G2 X26.707 Y32.258 I1.142 J-0.972
X26.932 Y32.134 I-9.107 J-16.789
G1 X27.005 Y32.09
X27.076 Y32.042
X27.196 Y31.955
X27.263 Y31.905
X27.326 Y31.85
X27.437 Y31.75
X27.495 Y31.695
X27.549 Y31.637
X27.651 Y31.523
X27.744 Y31.407
X27.837 Y31.28
X27.913 Y31.164
X27.996 Y31.025
X28.056 Y30.914
X28.13 Y30.762
X28.176 Y30.657
X28.241 Y30.493
X28.276 Y30.395
X28.331 Y30.22
X28.357 Y30.129
X28.403 Y29.943
X28.422 Y29.859
X28.459 Y29.662
X28.471 Y29.585
X28.499 Y29.379
X28.507 Y29.306
X28.526 Y29.091
X28.53 Y29.024
X28.539 Y28.799
X28.54 Y28.738
Y28.504
X28.539 Y28.447
X28.53 Y28.205
X28.527 Y28.151
X28.508 Y27.902
X28.504 Y27.852
X28.476 Y27.595
X28.47 Y27.547
X28.433 Y27.283
X28.426 Y27.239
X28.379 Y26.969
X28.371 Y26.926
X28.316 Y26.651
X28.307 Y26.61
X28.242 Y26.33
X28.233 Y26.293
X28.16 Y26.007
X28.151 Y25.974
X28.069 Y25.685
X28.06 Y25.655
X27.971 Y25.362
G2 X27.872 Y25.118 I-1.435 J0.438
G1 X27.083 Y23.574
X28.435 Y20.854
G2 X28.874 Y19.861 I-10.836 J-5.384
G1 X29.394 Y18.525
X35.463 Y17.411
G2 X36.692 Y15.976 I-0.271 J-1.475
X36.697 Y15.719 I-19.093 J-0.508
G1 Y15.692
Z-2.7 F333.3
X36.689 Y15.548 F700
X36.674 Y15.401
X36.664 Y15.318
X36.648 Y15.236
X36.617 Y15.09
X36.598 Y15.012
X36.575 Y14.934
X36.527 Y14.789
X36.474 Y14.652
X36.41 Y14.508
X36.347 Y14.384
X36.268 Y14.242
X36.202 Y14.136
X36.108 Y13.996
X36.04 Y13.903
X35.931 Y13.765
X35.863 Y13.685
X35.739 Y13.55
X35.673 Y13.482
X35.535 Y13.349
X35.471 Y13.291
X35.32 Y13.161
X35.259 Y13.111
X35.094 Y12.984
X35.036 Y12.941
X34.858 Y12.817
X34.802 Y12.78
X34.612 Y12.66
X34.56 Y12.628
X34.357 Y12.511
X34.307 Y12.483
X34.093 Y12.371
X34.045 Y12.346
X33.82 Y12.238
X33.774 Y12.216
X33.538 Y12.112
X33.493 Y12.093
X33.247 Y11.994
X33.204 Y11.978
X32.947 Y11.883
X32.906 Y11.869
X32.64 Y11.779
X32.601 Y11.766
X32.325 Y11.682
X32.289 Y11.672
X32.005 Y11.592
X31.972 Y11.584
X31.681 Y11.51
X31.65 Y11.502
X31.352 Y11.433
G2 X31.091 Y11.397 I-0.338 J1.461
G1 X29.359 Y11.307
X27.679 Y8.777
G2 X27.039 Y7.901 I-10.081 J6.693
G1 X26.142 Y6.782
X28.212 Y0.97
G2 X27.583 Y-0.812 I-1.413 J-0.503
X27.364 Y-0.945 I-9.986 J16.282
G1 X27.289 Y-0.987
X27.212 Y-1.024
X27.077 Y-1.085
X27 Y-1.117
X26.921 Y-1.145
X26.778 Y-1.191
X26.701 Y-1.213
X26.624 Y-1.231
X26.474 Y-1.262
X26.327 Y-1.285
X26.171 Y-1.302
X26.033 Y-1.31
X25.871 Y-1.312
X25.745 Y-1.309
X25.576 Y-1.297
X25.462 Y-1.284
X25.288 Y-1.259
X25.186 Y-1.24
X25.006 Y-1.2
X24.914 Y-1.177
X24.73 Y-1.124
X24.648 Y-1.098
X24.46 Y-1.032
X24.386 Y-1.004
X24.193 Y-0.925
X24.127 Y-0.896
X23.931 Y-0.804
X23.871 Y-0.774
X23.672 Y-0.67
X23.618 Y-0.64
X23.416 Y-0.523
X23.366 Y-0.493
X23.162 Y-0.365
X23.117 Y-0.335
X22.91 Y-0.194
X22.869 Y-0.165
X22.66 Y-0.013
X22.622 Y0.016
X22.413 Y0.18
X22.377 Y0.209
X22.167 Y0.384
X22.134 Y0.412
X21.923 Y0.598
X21.892 Y0.626
X21.681 Y0.822
X21.654 Y0.848
X21.444 Y1.055
X21.42 Y1.079
X21.21 Y1.294
X21.188 Y1.317
X20.98 Y1.541
G2 X20.817 Y1.748 I1.096 J1.024
G1 X19.874 Y3.204
X16.843 Y3.393
G2 X15.764 Y3.51 I0.756 J12.076
G1 X14.346 Y3.727
X10.348 Y-0.972
G2 X8.49 Y-1.318 I-1.142 J0.972
X8.265 Y-1.194 I9.108 J16.788
G1 X8.192 Y-1.151
X8.121 Y-1.103
X8.001 Y-1.016
X7.935 Y-0.965
X7.871 Y-0.911
X7.76 Y-0.81
X7.702 Y-0.755
X7.647 Y-0.697
X7.546 Y-0.583
X7.452 Y-0.467
X7.36 Y-0.34
X7.284 Y-0.225
X7.201 Y-0.085
X7.141 Y0.026
X7.067 Y0.178
X7.021 Y0.283
X6.956 Y0.446
X6.921 Y0.544
X6.866 Y0.719
X6.84 Y0.811
X6.794 Y0.996
X6.775 Y1.081
X6.738 Y1.277
X6.726 Y1.355
X6.698 Y1.561
X6.69 Y1.633
X6.671 Y1.849
X6.667 Y1.916
X6.658 Y2.14
X6.657 Y2.202
Y2.436
X6.658 Y2.493
X6.667 Y2.735
X6.67 Y2.788
X6.689 Y3.038
X6.693 Y3.088
X6.721 Y3.345
X6.727 Y3.392
X6.764 Y3.656
X6.771 Y3.701
X6.818 Y3.971
X6.826 Y4.013
X6.881 Y4.289
X6.89 Y4.329
X6.955 Y4.61
X6.964 Y4.647
X7.037 Y4.932
X7.046 Y4.965
X7.128 Y5.254
X7.137 Y5.285
X7.226 Y5.577
G2 X7.325 Y5.822 I1.435 J-0.438
G1 X8.114 Y7.366
X6.762 Y10.086
G2 X6.323 Y11.079 I10.836 J5.384
G1 X5.803 Y12.415
X-0.266 Y13.528
G2 X-1.495 Y14.964 I0.271 J1.475
X-1.5 Y15.221 I19.093 J0.506
G1 X-1.499 Y15.306
X-1.492 Y15.391
X-1.478 Y15.538
X-1.467 Y15.622
X-1.451 Y15.704
X-1.42 Y15.85
X-1.401 Y15.928
X-1.378 Y16.004
X-1.33 Y16.149
X-1.276 Y16.288
X-1.212 Y16.432
X-1.151 Y16.555
X-1.071 Y16.697
X-1.005 Y16.804
X-0.911 Y16.944
X-0.843 Y17.037
X-0.733 Y17.175
X-0.666 Y17.254
X-0.542 Y17.389
X-0.476 Y17.457
X-0.338 Y17.59
X-0.274 Y17.649
X-0.123 Y17.779
X-0.062 Y17.828
X0.103 Y17.956
X0.161 Y17.999
X0.339 Y18.123
X0.395 Y18.159
X0.585 Y18.28
X0.637 Y18.312
X0.84 Y18.429
X0.89 Y18.456
X1.104 Y18.569
X1.152 Y18.593
X1.377 Y18.702
X1.424 Y18.723
X1.66 Y18.827
X1.703 Y18.846
X1.95 Y18.945
X1.993 Y18.962
X2.25 Y19.057
X2.291 Y19.071
X2.557 Y19.161
X2.596 Y19.173
X2.872 Y19.257
X2.908 Y19.268
X3.192 Y19.347
X3.225 Y19.356
X3.516 Y19.43
X3.547 Y19.437
X3.845 Y19.506
G2 X4.106 Y19.543 I0.338 J-1.461
G1 X5.838 Y19.632
X7.518 Y22.162
G2 X8.158 Y23.039 I10.081 J-6.693
G1 X9.055 Y24.158
X6.985 Y29.97
G2 X7.614 Y31.752 I1.413 J0.503
X7.834 Y31.885 I9.983 J-16.283
G1 X7.908 Y31.926
X7.984 Y31.963
X8.119 Y32.024
X8.197 Y32.057
X8.276 Y32.085
X8.419 Y32.13
X8.496 Y32.153
X8.574 Y32.171
X8.723 Y32.202
X8.87 Y32.225
X9.026 Y32.242
X9.164 Y32.25
X9.326 Y32.252
X9.452 Y32.248
X9.621 Y32.236
X9.735 Y32.224
X9.909 Y32.198
X10.011 Y32.179
X10.19 Y32.14
X10.283 Y32.117
X10.467 Y32.064
X10.549 Y32.037
X10.738 Y31.971
X10.811 Y31.943
X11.004 Y31.864
X11.07 Y31.835
X11.266 Y31.744
X11.326 Y31.714
X11.525 Y31.609
X11.579 Y31.579
X11.782 Y31.463
X11.83 Y31.433
X12.035 Y31.304
X12.081 Y31.275
X12.287 Y31.134
X12.328 Y31.105
X12.537 Y30.952
X12.575 Y30.923
X12.784 Y30.76
X12.82 Y30.731
X13.03 Y30.556
X13.063 Y30.528
X13.274 Y30.341
X13.305 Y30.314
X13.516 Y30.117
X13.543 Y30.091
X13.753 Y29.885
X13.777 Y29.86
X13.987 Y29.645
X14.009 Y29.622
X14.217 Y29.399
G2 X14.38 Y29.191 I-1.096 J-1.024
G1 X15.323 Y27.736
X18.354 Y27.546
G2 X19.433 Y27.43 I-0.755 J-12.076
G1 X20.851 Y27.212
X24.849 Y31.912
G2 X26.707 Y32.258 I1.142 J-0.972
X26.932 Y32.134 I-9.107 J-16.789
G1 X27.005 Y32.09
X27.076 Y32.042
X27.196 Y31.955
X27.263 Y31.905
X27.326 Y31.85
X27.437 Y31.75
X27.495 Y31.695
X27.549 Y31.637
X27.651 Y31.523
X27.744 Y31.407
X27.837 Y31.28
X27.913 Y31.164
X27.996 Y31.025
X28.056 Y30.914
X28.13 Y30.762
X28.176 Y30.657
X28.241 Y30.493
X28.276 Y30.395
X28.331 Y30.22
X28.357 Y30.129
X28.403 Y29.943
X28.422 Y29.859
X28.459 Y29.662
X28.471 Y29.585
X28.499 Y29.379
X28.507 Y29.306
X28.526 Y29.091
X28.53 Y29.024
X28.539 Y28.799
X28.54 Y28.738
Y28.504
X28.539 Y28.447
X28.53 Y28.205
X28.527 Y28.151
X28.508 Y27.902
X28.504 Y27.852
X28.476 Y27.595
X28.47 Y27.547
X28.433 Y27.283
X28.426 Y27.239
X28.379 Y26.969
X28.371 Y26.926
X28.316 Y26.651
X28.307 Y26.61
X28.242 Y26.33
X28.233 Y26.293
X28.16 Y26.007
X28.151 Y25.974
X28.069 Y25.685
X28.06 Y25.655
X27.971 Y25.362
G2 X27.872 Y25.118 I-1.435 J0.438
G1 X27.083 Y23.574
X28.435 Y20.854
G2 X28.874 Y19.861 I-10.836 J-5.384
G1 X29.394 Y18.525
X35.463 Y17.411
G2 X36.692 Y15.976 I-0.271 J-1.475
X36.697 Y15.719 I-19.093 J-0.508
G1 Y15.692
Z-3 F333.3
X36.689 Y15.548 F700
X36.674 Y15.401
X36.664 Y15.318
X36.648 Y15.236
X36.617 Y15.09
X36.598 Y15.012
X36.575 Y14.934
X36.527 Y14.789
X36.474 Y14.652
X36.41 Y14.508
X36.347 Y14.384
X36.268 Y14.242
X36.202 Y14.136
X36.108 Y13.996
X36.04 Y13.903
X35.931 Y13.765
X35.863 Y13.685
X35.739 Y13.55
X35.673 Y13.482
X35.535 Y13.349
X35.471 Y13.291
X35.32 Y13.161
X35.259 Y13.111
X35.094 Y12.984
X35.036 Y12.941
X34.858 Y12.817
X34.802 Y12.78
X34.612 Y12.66
X34.56 Y12.628
X34.357 Y12.511
X34.307 Y12.483
X34.093 Y12.371
X34.045 Y12.346
X33.82 Y12.238
X33.774 Y12.216
X33.538 Y12.112
X33.493 Y12.093
X33.247 Y11.994
X33.204 Y11.978
X32.947 Y11.883
X32.906 Y11.869
X32.64 Y11.779
X32.601 Y11.766
X32.325 Y11.682
X32.289 Y11.672
X32.005 Y11.592
X31.972 Y11.584
X31.681 Y11.51
X31.65 Y11.502
X31.352 Y11.433
G2 X31.091 Y11.397 I-0.338 J1.461
G1 X29.359 Y11.307
X27.679 Y8.777
G2 X27.039 Y7.901 I-10.081 J6.693
G1 X26.142 Y6.782
X28.212 Y0.97
G2 X27.583 Y-0.812 I-1.413 J-0.503
X27.364 Y-0.945 I-9.986 J16.282
G1 X27.289 Y-0.987
X27.212 Y-1.024
X27.077 Y-1.085
X27 Y-1.117
X26.921 Y-1.145
X26.778 Y-1.191
X26.701 Y-1.213
X26.624 Y-1.231
X26.474 Y-1.262
X26.327 Y-1.285
X26.171 Y-1.302
X26.033 Y-1.31
X25.871 Y-1.312
X25.745 Y-1.309
X25.576 Y-1.297
X25.462 Y-1.284
X25.288 Y-1.259
X25.186 Y-1.24
X25.006 Y-1.2
X24.914 Y-1.177
X24.73 Y-1.124
X24.648 Y-1.098
X24.46 Y-1.032
X24.386 Y-1.004
X24.193 Y-0.925
X24.127 Y-0.896
X23.931 Y-0.804
X23.871 Y-0.774
X23.672 Y-0.67
X23.618 Y-0.64
X23.416 Y-0.523
X23.366 Y-0.493
X23.162 Y-0.365
X23.117 Y-0.335
X22.91 Y-0.194
X22.869 Y-0.165
X22.66 Y-0.013
X22.622 Y0.016
X22.413 Y0.18
X22.377 Y0.209
X22.167 Y0.384
X22.134 Y0.412
X21.923 Y0.598
X21.892 Y0.626
X21.681 Y0.822
X21.654 Y0.848
X21.444 Y1.055
X21.42 Y1.079
X21.21 Y1.294
X21.188 Y1.317
X20.98 Y1.541
G2 X20.817 Y1.748 I1.096 J1.024
G1 X19.874 Y3.204
X16.843 Y3.393
G2 X15.764 Y3.51 I0.756 J12.076
G1 X14.346 Y3.727
X10.348 Y-0.972
G2 X8.49 Y-1.318 I-1.142 J0.972
X8.265 Y-1.194 I9.108 J16.788
G1 X8.192 Y-1.151
X8.121 Y-1.103
X8.001 Y-1.016
X7.935 Y-0.965
X7.871 Y-0.911
X7.76 Y-0.81
X7.702 Y-0.755
X7.647 Y-0.697
X7.546 Y-0.583
X7.452 Y-0.467
X7.36 Y-0.34
X7.284 Y-0.225
X7.201 Y-0.085
X7.141 Y0.026
X7.067 Y0.178
X7.021 Y0.283
X6.956 Y0.446
X6.921 Y0.544
X6.866 Y0.719
X6.84 Y0.811
X6.794 Y0.996
X6.775 Y1.081
X6.738 Y1.277
X6.726 Y1.355
X6.698 Y1.561
X6.69 Y1.633
X6.671 Y1.849
X6.667 Y1.916
X6.658 Y2.14
X6.657 Y2.202
Y2.436
X6.658 Y2.493
X6.667 Y2.735
X6.67 Y2.788
X6.689 Y3.038
X6.693 Y3.088
X6.721 Y3.345
X6.727 Y3.392
X6.764 Y3.656
X6.771 Y3.701
X6.818 Y3.971
X6.826 Y4.013
X6.881 Y4.289
X6.89 Y4.329
X6.955 Y4.61
X6.964 Y4.647
X7.037 Y4.932
X7.046 Y4.965
X7.128 Y5.254
X7.137 Y5.285
X7.226 Y5.577
G2 X7.325 Y5.822 I1.435 J-0.438
G1 X8.114 Y7.366
X6.762 Y10.086
G2 X6.323 Y11.079 I10.836 J5.384
G1 X5.803 Y12.415
X-0.266 Y13.528
G2 X-1.495 Y14.964 I0.271 J1.475
X-1.5 Y15.221 I19.093 J0.506
G1 X-1.499 Y15.306
X-1.492 Y15.391
X-1.478 Y15.538
X-1.467 Y15.622
X-1.451 Y15.704
X-1.42 Y15.85
X-1.401 Y15.928
X-1.378 Y16.004
X-1.33 Y16.149
X-1.276 Y16.288
X-1.212 Y16.432
X-1.151 Y16.555
X-1.071 Y16.697
X-1.005 Y16.804
X-0.911 Y16.944
X-0.843 Y17.037
X-0.733 Y17.175
X-0.666 Y17.254
X-0.542 Y17.389
X-0.476 Y17.457
X-0.338 Y17.59
X-0.274 Y17.649
X-0.123 Y17.779
X-0.062 Y17.828
X0.103 Y17.956
X0.161 Y17.999
X0.339 Y18.123
X0.395 Y18.159
X0.585 Y18.28
X0.637 Y18.312
X0.84 Y18.429
X0.89 Y18.456
X1.104 Y18.569
X1.152 Y18.593
X1.377 Y18.702
X1.424 Y18.723
X1.66 Y18.827
X1.703 Y18.846
X1.95 Y18.945
X1.993 Y18.962
X2.25 Y19.057
X2.291 Y19.071
X2.557 Y19.161
X2.596 Y19.173
X2.872 Y19.257
X2.908 Y19.268
X3.192 Y19.347
X3.225 Y19.356
X3.516 Y19.43
X3.547 Y19.437
X3.845 Y19.506
G2 X4.106 Y19.543 I0.338 J-1.461
G1 X5.838 Y19.632
X7.518 Y22.162
G2 X8.158 Y23.039 I10.081 J-6.693
G1 X9.055 Y24.158
X6.985 Y29.97
G2 X7.614 Y31.752 I1.413 J0.503
X7.834 Y31.885 I9.983 J-16.283
G1 X7.908 Y31.926
X7.984 Y31.963
X8.119 Y32.024
X8.197 Y32.057
X8.276 Y32.085
X8.419 Y32.13
X8.496 Y32.153
X8.574 Y32.171
X8.723 Y32.202
X8.87 Y32.225
X9.026 Y32.242
X9.164 Y32.25
X9.326 Y32.252
X9.452 Y32.248
X9.621 Y32.236
X9.735 Y32.224
X9.909 Y32.198
X10.011 Y32.179
X10.19 Y32.14
X10.283 Y32.117
X10.467 Y32.064
X10.549 Y32.037
X10.738 Y31.971
X10.811 Y31.943
X11.004 Y31.864
X11.07 Y31.835
X11.266 Y31.744
X11.326 Y31.714
X11.525 Y31.609
X11.579 Y31.579
X11.782 Y31.463
X11.83 Y31.433
X12.035 Y31.304
X12.081 Y31.275
X12.287 Y31.134
X12.328 Y31.105
X12.537 Y30.952
X12.575 Y30.923
X12.784 Y30.76
X12.82 Y30.731
X13.03 Y30.556
X13.063 Y30.528
X13.274 Y30.341
X13.305 Y30.314
X13.516 Y30.117
X13.543 Y30.091
X13.753 Y29.885
X13.777 Y29.86
X13.987 Y29.645
X14.009 Y29.622
X14.217 Y29.399
G2 X14.38 Y29.191 I-1.096 J-1.024
G1 X15.323 Y27.736
X18.354 Y27.546
G2 X19.433 Y27.43 I-0.755 J-12.076
G1 X20.851 Y27.212
X24.849 Y31.912
G2 X26.707 Y32.258 I1.142 J-0.972
X26.932 Y32.134 I-9.107 J-16.789
G1 X27.005 Y32.09
X27.076 Y32.042
X27.196 Y31.955
X27.263 Y31.905
X27.326 Y31.85
X27.437 Y31.75
X27.495 Y31.695
X27.549 Y31.637
X27.651 Y31.523
X27.744 Y31.407
X27.837 Y31.28
X27.913 Y31.164
X27.996 Y31.025
X28.056 Y30.914
X28.13 Y30.762
X28.176 Y30.657
X28.241 Y30.493
X28.276 Y30.395
X28.331 Y30.22
X28.357 Y30.129
X28.403 Y29.943
X28.422 Y29.859
X28.459 Y29.662
X28.471 Y29.585
X28.499 Y29.379
X28.507 Y29.306
X28.526 Y29.091
X28.53 Y29.024
X28.539 Y28.799
X28.54 Y28.738
Y28.504
X28.539 Y28.447
X28.53 Y28.205
X28.527 Y28.151
X28.508 Y27.902
X28.504 Y27.852
X28.476 Y27.595
X28.47 Y27.547
X28.433 Y27.283
X28.426 Y27.239
X28.379 Y26.969
X28.371 Y26.926
X28.316 Y26.651
X28.307 Y26.61
X28.242 Y26.33
X28.233 Y26.293
X28.16 Y26.007
X28.151 Y25.974
X28.069 Y25.685
X28.06 Y25.655
X27.971 Y25.362
G2 X27.872 Y25.118 I-1.435 J0.438
G1 X27.083 Y23.574
X28.435 Y20.854
G2 X28.874 Y19.861 I-10.836 J-5.384
G1 X29.394 Y18.525
X35.463 Y17.411
G2 X36.692 Y15.976 I-0.271 J-1.475
X36.697 Y15.719 I-19.093 J-0.508
G1 Y15.692
Z-3.3 F333.3
X36.689 Y15.548 F700
X36.674 Y15.401
X36.664 Y15.318
X36.648 Y15.236
X36.617 Y15.09
X36.598 Y15.012
X36.575 Y14.934
X36.527 Y14.789
X36.474 Y14.652
X36.41 Y14.508
X36.347 Y14.384
X36.268 Y14.242
X36.202 Y14.136
X36.108 Y13.996
X36.04 Y13.903
X35.931 Y13.765
X35.863 Y13.685
X35.739 Y13.55
X35.673 Y13.482
X35.535 Y13.349
X35.471 Y13.291
X35.32 Y13.161
X35.259 Y13.111
X35.094 Y12.984
X35.036 Y12.941
X34.858 Y12.817
X34.802 Y12.78
X34.612 Y12.66
X34.56 Y12.628
X34.357 Y12.511
X34.307 Y12.483
X34.093 Y12.371
X34.045 Y12.346
X33.82 Y12.238
X33.774 Y12.216
X33.538 Y12.112
X33.493 Y12.093
X33.247 Y11.994
X33.204 Y11.978
X32.947 Y11.883
X32.906 Y11.869
X32.64 Y11.779
X32.601 Y11.766
X32.325 Y11.682
X32.289 Y11.672
X32.005 Y11.592
X31.972 Y11.584
X31.681 Y11.51
X31.65 Y11.502
X31.352 Y11.433
G2 X31.091 Y11.397 I-0.338 J1.461
G1 X29.359 Y11.307
X27.679 Y8.777
G2 X27.039 Y7.901 I-10.081 J6.693
G1 X26.142 Y6.782
X28.212 Y0.97
G2 X27.583 Y-0.812 I-1.413 J-0.503
X27.364 Y-0.945 I-9.986 J16.282
G1 X27.289 Y-0.987
X27.212 Y-1.024
X27.077 Y-1.085
X27 Y-1.117
X26.921 Y-1.145
X26.778 Y-1.191
X26.701 Y-1.213
X26.624 Y-1.231
X26.474 Y-1.262
X26.327 Y-1.285
X26.171 Y-1.302
X26.033 Y-1.31
X25.871 Y-1.312
X25.745 Y-1.309
X25.576 Y-1.297
X25.462 Y-1.284
X25.288 Y-1.259
X25.186 Y-1.24
X25.006 Y-1.2
X24.914 Y-1.177
X24.73 Y-1.124
X24.648 Y-1.098
X24.46 Y-1.032
X24.386 Y-1.004
X24.193 Y-0.925
X24.127 Y-0.896
X23.931 Y-0.804
X23.871 Y-0.774
X23.672 Y-0.67
X23.618 Y-0.64
X23.416 Y-0.523
X23.366 Y-0.493
X23.162 Y-0.365
X23.117 Y-0.335
X22.91 Y-0.194
X22.869 Y-0.165
X22.66 Y-0.013
X22.622 Y0.016
X22.413 Y0.18
X22.377 Y0.209
X22.167 Y0.384
X22.134 Y0.412
X21.923 Y0.598
X21.892 Y0.626
X21.681 Y0.822
X21.654 Y0.848
X21.444 Y1.055
X21.42 Y1.079
X21.21 Y1.294
X21.188 Y1.317
X20.98 Y1.541
G2 X20.817 Y1.748 I1.096 J1.024
G1 X19.874 Y3.204
X16.843 Y3.393
G2 X15.764 Y3.51 I0.756 J12.076
G1 X14.346 Y3.727
X10.348 Y-0.972
G2 X8.49 Y-1.318 I-1.142 J0.972
X8.265 Y-1.194 I9.108 J16.788
G1 X8.192 Y-1.151
X8.121 Y-1.103
X8.001 Y-1.016
X7.935 Y-0.965
X7.871 Y-0.911
X7.76 Y-0.81
X7.702 Y-0.755
X7.647 Y-0.697
X7.546 Y-0.583
X7.452 Y-0.467
X7.36 Y-0.34
X7.284 Y-0.225
X7.201 Y-0.085
X7.141 Y0.026
X7.067 Y0.178
X7.021 Y0.283
X6.956 Y0.446
X6.921 Y0.544
X6.866 Y0.719
X6.84 Y0.811
X6.794 Y0.996
X6.775 Y1.081
X6.738 Y1.277
X6.726 Y1.355
X6.698 Y1.561
X6.69 Y1.633
X6.671 Y1.849
X6.667 Y1.916
X6.658 Y2.14
X6.657 Y2.202
Y2.436
X6.658 Y2.493
X6.667 Y2.735
X6.67 Y2.788
X6.689 Y3.038
X6.693 Y3.088
X6.721 Y3.345
X6.727 Y3.392
X6.764 Y3.656
X6.771 Y3.701
X6.818 Y3.971
X6.826 Y4.013
X6.881 Y4.289
X6.89 Y4.329
X6.955 Y4.61
X6.964 Y4.647
X7.037 Y4.932
X7.046 Y4.965
X7.128 Y5.254
X7.137 Y5.285
X7.226 Y5.577
G2 X7.325 Y5.822 I1.435 J-0.438
G1 X8.114 Y7.366
X6.762 Y10.086
G2 X6.323 Y11.079 I10.836 J5.384
G1 X5.803 Y12.415
X-0.266 Y13.528
G2 X-1.495 Y14.964 I0.271 J1.475
X-1.5 Y15.221 I19.093 J0.506
G1 X-1.499 Y15.306
X-1.492 Y15.391
X-1.478 Y15.538
X-1.467 Y15.622
X-1.451 Y15.704
X-1.42 Y15.85
X-1.401 Y15.928
X-1.378 Y16.004
X-1.33 Y16.149
X-1.276 Y16.288
X-1.212 Y16.432
X-1.151 Y16.555
X-1.071 Y16.697
X-1.005 Y16.804
X-0.911 Y16.944
X-0.843 Y17.037
X-0.733 Y17.175
X-0.666 Y17.254
X-0.542 Y17.389
X-0.476 Y17.457
X-0.338 Y17.59
X-0.274 Y17.649
X-0.123 Y17.779
X-0.062 Y17.828
X0.103 Y17.956
X0.161 Y17.999
X0.339 Y18.123
X0.395 Y18.159
X0.585 Y18.28
X0.637 Y18.312
X0.84 Y18.429
X0.89 Y18.456
X1.104 Y18.569
X1.152 Y18.593
X1.377 Y18.702
X1.424 Y18.723
X1.66 Y18.827
X1.703 Y18.846
X1.95 Y18.945
X1.993 Y18.962
X2.25 Y19.057
X2.291 Y19.071
X2.557 Y19.161
X2.596 Y19.173
X2.872 Y19.257
X2.908 Y19.268
X3.192 Y19.347
X3.225 Y19.356
X3.516 Y19.43
X3.547 Y19.437
X3.845 Y19.506
G2 X4.106 Y19.543 I0.338 J-1.461
G1 X5.838 Y19.632
X7.518 Y22.162
G2 X8.158 Y23.039 I10.081 J-6.693
G1 X9.055 Y24.158
X6.985 Y29.97
G2 X7.614 Y31.752 I1.413 J0.503
X7.834 Y31.885 I9.983 J-16.283
G1 X7.908 Y31.926
X7.984 Y31.963
X8.119 Y32.024
X8.197 Y32.057
X8.276 Y32.085
X8.419 Y32.13
X8.496 Y32.153
X8.574 Y32.171
X8.723 Y32.202
X8.87 Y32.225
X9.026 Y32.242
X9.164 Y32.25
X9.326 Y32.252
X9.452 Y32.248
X9.621 Y32.236
X9.735 Y32.224
X9.909 Y32.198
X10.011 Y32.179
X10.19 Y32.14
X10.283 Y32.117
X10.467 Y32.064
X10.549 Y32.037
X10.738 Y31.971
X10.811 Y31.943
X11.004 Y31.864
X11.07 Y31.835
X11.266 Y31.744
X11.326 Y31.714
X11.525 Y31.609
X11.579 Y31.579
X11.782 Y31.463
X11.83 Y31.433
X12.035 Y31.304
X12.081 Y31.275
X12.287 Y31.134
X12.328 Y31.105
X12.537 Y30.952
X12.575 Y30.923
X12.784 Y30.76
X12.82 Y30.731
X13.03 Y30.556
X13.063 Y30.528
X13.274 Y30.341
X13.305 Y30.314
X13.516 Y30.117
X13.543 Y30.091
X13.753 Y29.885
X13.777 Y29.86
X13.987 Y29.645
X14.009 Y29.622
X14.217 Y29.399
G2 X14.38 Y29.191 I-1.096 J-1.024
G1 X15.323 Y27.736
X18.354 Y27.546
G2 X19.433 Y27.43 I-0.755 J-12.076
G1 X20.851 Y27.212
X24.849 Y31.912
G2 X26.707 Y32.258 I1.142 J-0.972
X26.932 Y32.134 I-9.107 J-16.789
G1 X27.005 Y32.09
X27.076 Y32.042
X27.196 Y31.955
X27.263 Y31.905
X27.326 Y31.85
X27.437 Y31.75
X27.495 Y31.695
X27.549 Y31.637
X27.651 Y31.523
X27.744 Y31.407
X27.837 Y31.28
X27.913 Y31.164
X27.996 Y31.025
X28.056 Y30.914
X28.13 Y30.762
X28.176 Y30.657
X28.241 Y30.493
X28.276 Y30.395
X28.331 Y30.22
X28.357 Y30.129
X28.403 Y29.943
X28.422 Y29.859
X28.459 Y29.662
X28.471 Y29.585
X28.499 Y29.379
X28.507 Y29.306
X28.526 Y29.091
X28.53 Y29.024
X28.539 Y28.799
X28.54 Y28.738
Y28.504
X28.539 Y28.447
X28.53 Y28.205
X28.527 Y28.151
X28.508 Y27.902
X28.504 Y27.852
X28.476 Y27.595
X28.47 Y27.547
X28.433 Y27.283
X28.426 Y27.239
X28.379 Y26.969
X28.371 Y26.926
X28.316 Y26.651
X28.307 Y26.61
X28.242 Y26.33
X28.233 Y26.293
X28.16 Y26.007
X28.151 Y25.974
X28.069 Y25.685
X28.06 Y25.655
X27.971 Y25.362
G2 X27.872 Y25.118 I-1.435 J0.438
G1 X27.083 Y23.574
X28.435 Y20.854
G2 X28.874 Y19.861 I-10.836 J-5.384
G1 X29.394 Y18.525
X35.463 Y17.411
G2 X36.692 Y15.976 I-0.271 J-1.475
X36.697 Y15.719 I-19.093 J-0.508
G1 Y15.692
Z-3.6 F333.3
X36.689 Y15.548 F700
X36.674 Y15.401
X36.664 Y15.318
X36.648 Y15.236
X36.617 Y15.09
X36.598 Y15.012
X36.575 Y14.934
X36.527 Y14.789
X36.474 Y14.652
X36.41 Y14.508
X36.347 Y14.384
X36.268 Y14.242
X36.202 Y14.136
X36.108 Y13.996
X36.04 Y13.903
X35.931 Y13.765
X35.863 Y13.685
X35.739 Y13.55
X35.673 Y13.482
X35.535 Y13.349
X35.471 Y13.291
X35.32 Y13.161
X35.259 Y13.111
X35.094 Y12.984
X35.036 Y12.941
X34.858 Y12.817
X34.802 Y12.78
X34.612 Y12.66
X34.56 Y12.628
X34.357 Y12.511
X34.307 Y12.483
X34.093 Y12.371
X34.045 Y12.346
X33.82 Y12.238
X33.774 Y12.216
X33.538 Y12.112
X33.493 Y12.093
X33.247 Y11.994
X33.204 Y11.978
X32.947 Y11.883
X32.906 Y11.869
X32.64 Y11.779
X32.601 Y11.766
X32.325 Y11.682
X32.289 Y11.672
X32.005 Y11.592
X31.972 Y11.584
X31.681 Y11.51
X31.65 Y11.502
X31.352 Y11.433
G2 X31.091 Y11.397 I-0.338 J1.461
G1 X29.359 Y11.307
X27.679 Y8.777
G2 X27.039 Y7.901 I-10.081 J6.693
G1 X26.142 Y6.782
X28.212 Y0.97
G2 X27.583 Y-0.812 I-1.413 J-0.503
X27.364 Y-0.945 I-9.986 J16.282
G1 X27.289 Y-0.987
X27.212 Y-1.024
X27.077 Y-1.085
X27 Y-1.117
X26.921 Y-1.145
X26.778 Y-1.191
X26.701 Y-1.213
X26.624 Y-1.231
X26.474 Y-1.262
X26.327 Y-1.285
X26.171 Y-1.302
X26.033 Y-1.31
X25.871 Y-1.312
X25.745 Y-1.309
X25.576 Y-1.297
X25.462 Y-1.284
X25.288 Y-1.259
X25.186 Y-1.24
X25.006 Y-1.2
X24.914 Y-1.177
X24.73 Y-1.124
X24.648 Y-1.098
X24.46 Y-1.032
X24.386 Y-1.004
X24.193 Y-0.925
X24.127 Y-0.896
X23.931 Y-0.804
X23.871 Y-0.774
X23.672 Y-0.67
X23.618 Y-0.64
X23.416 Y-0.523
X23.366 Y-0.493
X23.162 Y-0.365
X23.117 Y-0.335
X22.91 Y-0.194
X22.869 Y-0.165
X22.66 Y-0.013
X22.622 Y0.016
X22.413 Y0.18
X22.377 Y0.209
X22.167 Y0.384
X22.134 Y0.412
X21.923 Y0.598
X21.892 Y0.626
X21.681 Y0.822
X21.654 Y0.848
X21.444 Y1.055
X21.42 Y1.079
X21.21 Y1.294
X21.188 Y1.317
X20.98 Y1.541
G2 X20.817 Y1.748 I1.096 J1.024
G1 X19.874 Y3.204
X16.843 Y3.393
G2 X15.764 Y3.51 I0.756 J12.076
G1 X14.346 Y3.727
X10.348 Y-0.972
G2 X8.49 Y-1.318 I-1.142 J0.972
X8.265 Y-1.194 I9.108 J16.788
G1 X8.192 Y-1.151
X8.121 Y-1.103
X8.001 Y-1.016
X7.935 Y-0.965
X7.871 Y-0.911
X7.76 Y-0.81
X7.702 Y-0.755
X7.647 Y-0.697
X7.546 Y-0.583
X7.452 Y-0.467
X7.36 Y-0.34
X7.284 Y-0.225
X7.201 Y-0.085
X7.141 Y0.026
X7.067 Y0.178
X7.021 Y0.283
X6.956 Y0.446
X6.921 Y0.544
X6.866 Y0.719
X6.84 Y0.811
X6.794 Y0.996
X6.775 Y1.081
X6.738 Y1.277
X6.726 Y1.355
X6.698 Y1.561
X6.69 Y1.633
X6.671 Y1.849
X6.667 Y1.916
X6.658 Y2.14
X6.657 Y2.202
Y2.436
X6.658 Y2.493
X6.667 Y2.735
X6.67 Y2.788
X6.689 Y3.038
X6.693 Y3.088
X6.721 Y3.345
X6.727 Y3.392
X6.764 Y3.656
X6.771 Y3.701
X6.818 Y3.971
X6.826 Y4.013
X6.881 Y4.289
X6.89 Y4.329
X6.955 Y4.61
X6.964 Y4.647
X7.037 Y4.932
X7.046 Y4.965
X7.128 Y5.254
X7.137 Y5.285
X7.226 Y5.577
G2 X7.325 Y5.822 I1.435 J-0.438
G1 X8.114 Y7.366
X6.762 Y10.086
G2 X6.323 Y11.079 I10.836 J5.384
G1 X5.803 Y12.415
X-0.266 Y13.528
G2 X-1.495 Y14.964 I0.271 J1.475
X-1.5 Y15.221 I19.093 J0.506
G1 X-1.499 Y15.306
X-1.492 Y15.391
X-1.478 Y15.538
X-1.467 Y15.622
X-1.451 Y15.704
X-1.42 Y15.85
X-1.401 Y15.928
X-1.378 Y16.004
X-1.33 Y16.149
X-1.276 Y16.288
X-1.212 Y16.432
X-1.151 Y16.555
X-1.071 Y16.697
X-1.005 Y16.804
X-0.911 Y16.944
X-0.843 Y17.037
X-0.733 Y17.175
X-0.666 Y17.254
X-0.542 Y17.389
X-0.476 Y17.457
X-0.338 Y17.59
X-0.274 Y17.649
X-0.123 Y17.779
X-0.062 Y17.828
X0.103 Y17.956
X0.161 Y17.999
X0.339 Y18.123
X0.395 Y18.159
X0.585 Y18.28
X0.637 Y18.312
X0.84 Y18.429
X0.89 Y18.456
X1.104 Y18.569
X1.152 Y18.593
X1.377 Y18.702
X1.424 Y18.723
X1.66 Y18.827
X1.703 Y18.846
X1.95 Y18.945
X1.993 Y18.962
X2.25 Y19.057
X2.291 Y19.071
X2.557 Y19.161
X2.596 Y19.173
X2.872 Y19.257
X2.908 Y19.268
X3.192 Y19.347
X3.225 Y19.356
X3.516 Y19.43
X3.547 Y19.437
X3.845 Y19.506
G2 X4.106 Y19.543 I0.338 J-1.461
G1 X5.838 Y19.632
X7.518 Y22.162
G2 X8.158 Y23.039 I10.081 J-6.693
G1 X9.055 Y24.158
X6.985 Y29.97
G2 X7.614 Y31.752 I1.413 J0.503
X7.834 Y31.885 I9.983 J-16.283
G1 X7.908 Y31.926
X7.984 Y31.963
X8.119 Y32.024
X8.197 Y32.057
X8.276 Y32.085
X8.419 Y32.13
X8.496 Y32.153
X8.574 Y32.171
X8.723 Y32.202
X8.87 Y32.225
X9.026 Y32.242
X9.164 Y32.25
X9.326 Y32.252
X9.452 Y32.248
X9.621 Y32.236
X9.735 Y32.224
X9.909 Y32.198
X10.011 Y32.179
X10.19 Y32.14
X10.283 Y32.117
X10.467 Y32.064
X10.549 Y32.037
X10.738 Y31.971
X10.811 Y31.943
X11.004 Y31.864
X11.07 Y31.835
X11.266 Y31.744
X11.326 Y31.714
X11.525 Y31.609
X11.579 Y31.579
X11.782 Y31.463
X11.83 Y31.433
X12.035 Y31.304
X12.081 Y31.275
X12.287 Y31.134
X12.328 Y31.105
X12.537 Y30.952
X12.575 Y30.923
X12.784 Y30.76
X12.82 Y30.731
X13.03 Y30.556
X13.063 Y30.528
X13.274 Y30.341
X13.305 Y30.314
X13.516 Y30.117
X13.543 Y30.091
X13.753 Y29.885
X13.777 Y29.86
X13.987 Y29.645
X14.009 Y29.622
X14.217 Y29.399
G2 X14.38 Y29.191 I-1.096 J-1.024
G1 X15.323 Y27.736
X18.354 Y27.546
G2 X19.433 Y27.43 I-0.755 J-12.076
G1 X20.851 Y27.212
X24.849 Y31.912
G2 X26.707 Y32.258 I1.142 J-0.972
X26.932 Y32.134 I-9.107 J-16.789
G1 X27.005 Y32.09
X27.076 Y32.042
X27.196 Y31.955
X27.263 Y31.905
X27.326 Y31.85
X27.437 Y31.75
X27.495 Y31.695
X27.549 Y31.637
X27.651 Y31.523
X27.744 Y31.407
X27.837 Y31.28
X27.913 Y31.164
X27.996 Y31.025
X28.056 Y30.914
X28.13 Y30.762
X28.176 Y30.657
X28.241 Y30.493
X28.276 Y30.395
X28.331 Y30.22
X28.357 Y30.129
X28.403 Y29.943
X28.422 Y29.859
X28.459 Y29.662
X28.471 Y29.585
X28.499 Y29.379
X28.507 Y29.306
X28.526 Y29.091
X28.53 Y29.024
X28.539 Y28.799
X28.54 Y28.738
Y28.504
X28.539 Y28.447
X28.53 Y28.205
X28.527 Y28.151
X28.508 Y27.902
X28.504 Y27.852
X28.476 Y27.595
X28.47 Y27.547
X28.433 Y27.283
X28.426 Y27.239
X28.379 Y26.969
X28.371 Y26.926
X28.316 Y26.651
X28.307 Y26.61
X28.242 Y26.33
X28.233 Y26.293
X28.16 Y26.007
X28.151 Y25.974
X28.069 Y25.685
X28.06 Y25.655
X27.971 Y25.362
G2 X27.872 Y25.118 I-1.435 J0.438
G1 X27.083 Y23.574
X28.435 Y20.854
G2 X28.874 Y19.861 I-10.836 J-5.384
G1 X29.394 Y18.525
X35.463 Y17.411
G2 X36.692 Y15.976 I-0.271 J-1.475
X36.697 Y15.719 I-19.093 J-0.508
G1 Y15.692
Z-3.9 F333.3
X36.689 Y15.548 F700
X36.674 Y15.401
X36.664 Y15.318
X36.648 Y15.236
X36.617 Y15.09
X36.598 Y15.012
X36.575 Y14.934
X36.527 Y14.789
X36.474 Y14.652
X36.41 Y14.508
X36.347 Y14.384
X36.268 Y14.242
X36.202 Y14.136
X36.108 Y13.996
X36.04 Y13.903
X35.931 Y13.765
X35.863 Y13.685
X35.739 Y13.55
X35.673 Y13.482
X35.535 Y13.349
X35.471 Y13.291
X35.32 Y13.161
X35.259 Y13.111
X35.094 Y12.984
X35.036 Y12.941
X34.858 Y12.817
X34.802 Y12.78
X34.612 Y12.66
X34.56 Y12.628
X34.357 Y12.511
X34.307 Y12.483
X34.093 Y12.371
X34.045 Y12.346
X33.82 Y12.238
X33.774 Y12.216
X33.538 Y12.112
X33.493 Y12.093
X33.247 Y11.994
X33.204 Y11.978
X32.947 Y11.883
X32.906 Y11.869
X32.64 Y11.779
X32.601 Y11.766
X32.325 Y11.682
X32.289 Y11.672
X32.005 Y11.592
X31.972 Y11.584
X31.681 Y11.51
X31.65 Y11.502
X31.352 Y11.433
G2 X31.091 Y11.397 I-0.338 J1.461
G1 X29.359 Y11.307
X27.679 Y8.777
G2 X27.039 Y7.901 I-10.081 J6.693
G1 X26.142 Y6.782
X28.212 Y0.97
G2 X27.583 Y-0.812 I-1.413 J-0.503
X27.364 Y-0.945 I-9.986 J16.282
G1 X27.289 Y-0.987
X27.212 Y-1.024
X27.077 Y-1.085
X27 Y-1.117
X26.921 Y-1.145
X26.778 Y-1.191
X26.701 Y-1.213
X26.624 Y-1.231
X26.474 Y-1.262
X26.327 Y-1.285
X26.171 Y-1.302
X26.033 Y-1.31
X25.871 Y-1.312
X25.745 Y-1.309
X25.576 Y-1.297
X25.462 Y-1.284
X25.288 Y-1.259
X25.186 Y-1.24
X25.006 Y-1.2
X24.914 Y-1.177
X24.73 Y-1.124
X24.648 Y-1.098
X24.46 Y-1.032
X24.386 Y-1.004
X24.193 Y-0.925
X24.127 Y-0.896
X23.931 Y-0.804
X23.871 Y-0.774
X23.672 Y-0.67
X23.618 Y-0.64
X23.416 Y-0.523
X23.366 Y-0.493
X23.162 Y-0.365
X23.117 Y-0.335
X22.91 Y-0.194
X22.869 Y-0.165
X22.66 Y-0.013
X22.622 Y0.016
X22.413 Y0.18
X22.377 Y0.209
X22.167 Y0.384
X22.134 Y0.412
X21.923 Y0.598
X21.892 Y0.626
X21.681 Y0.822
X21.654 Y0.848
X21.444 Y1.055
X21.42 Y1.079
X21.21 Y1.294
X21.188 Y1.317
X20.98 Y1.541
G2 X20.817 Y1.748 I1.096 J1.024
G1 X19.874 Y3.204
X16.843 Y3.393
G2 X15.764 Y3.51 I0.756 J12.076
G1 X14.346 Y3.727
X10.348 Y-0.972
G2 X8.49 Y-1.318 I-1.142 J0.972
X8.265 Y-1.194 I9.108 J16.788
G1 X8.192 Y-1.151
X8.121 Y-1.103
X8.001 Y-1.016
X7.935 Y-0.965
X7.871 Y-0.911
X7.76 Y-0.81
X7.702 Y-0.755
X7.647 Y-0.697
X7.546 Y-0.583
X7.452 Y-0.467
X7.36 Y-0.34
X7.284 Y-0.225
X7.201 Y-0.085
X7.141 Y0.026
X7.067 Y0.178
X7.021 Y0.283
X6.956 Y0.446
X6.921 Y0.544
X6.866 Y0.719
X6.84 Y0.811
X6.794 Y0.996
X6.775 Y1.081
X6.738 Y1.277
X6.726 Y1.355
X6.698 Y1.561
X6.69 Y1.633
X6.671 Y1.849
X6.667 Y1.916
X6.658 Y2.14
X6.657 Y2.202
Y2.436
X6.658 Y2.493
X6.667 Y2.735
X6.67 Y2.788
X6.689 Y3.038
X6.693 Y3.088
X6.721 Y3.345
X6.727 Y3.392
X6.764 Y3.656
X6.771 Y3.701
X6.818 Y3.971
X6.826 Y4.013
X6.881 Y4.289
X6.89 Y4.329
X6.955 Y4.61
X6.964 Y4.647
X7.037 Y4.932
X7.046 Y4.965
X7.128 Y5.254
X7.137 Y5.285
X7.226 Y5.577
G2 X7.325 Y5.822 I1.435 J-0.438
G1 X8.114 Y7.366
X6.762 Y10.086
G2 X6.323 Y11.079 I10.836 J5.384
G1 X5.803 Y12.415
X-0.266 Y13.528
G2 X-1.495 Y14.964 I0.271 J1.475
X-1.5 Y15.221 I19.093 J0.506
G1 X-1.499 Y15.306
X-1.492 Y15.391
X-1.478 Y15.538
X-1.467 Y15.622
X-1.451 Y15.704
X-1.42 Y15.85
X-1.401 Y15.928
X-1.378 Y16.004
X-1.33 Y16.149
X-1.276 Y16.288
X-1.212 Y16.432
X-1.151 Y16.555
X-1.071 Y16.697
X-1.005 Y16.804
X-0.911 Y16.944
X-0.843 Y17.037
X-0.733 Y17.175
X-0.666 Y17.254
X-0.542 Y17.389
X-0.476 Y17.457
X-0.338 Y17.59
X-0.274 Y17.649
X-0.123 Y17.779
X-0.062 Y17.828
X0.103 Y17.956
X0.161 Y17.999
X0.339 Y18.123
X0.395 Y18.159
X0.585 Y18.28
X0.637 Y18.312
X0.84 Y18.429
X0.89 Y18.456
X1.104 Y18.569
X1.152 Y18.593
X1.377 Y18.702
X1.424 Y18.723
X1.66 Y18.827
X1.703 Y18.846
X1.95 Y18.945
X1.993 Y18.962
X2.25 Y19.057
X2.291 Y19.071
X2.557 Y19.161
X2.596 Y19.173
X2.872 Y19.257
X2.908 Y19.268
X3.192 Y19.347
X3.225 Y19.356
X3.516 Y19.43
X3.547 Y19.437
X3.845 Y19.506
G2 X4.106 Y19.543 I0.338 J-1.461
G1 X5.838 Y19.632
X7.518 Y22.162
G2 X8.158 Y23.039 I10.081 J-6.693
G1 X9.055 Y24.158
X6.985 Y29.97
G2 X7.614 Y31.752 I1.413 J0.503
X7.834 Y31.885 I9.983 J-16.283
G1 X7.908 Y31.926
X7.984 Y31.963
X8.119 Y32.024
X8.197 Y32.057
X8.276 Y32.085
X8.419 Y32.13
X8.496 Y32.153
X8.574 Y32.171
X8.723 Y32.202
X8.87 Y32.225
X9.026 Y32.242
X9.164 Y32.25
X9.326 Y32.252
X9.452 Y32.248
X9.621 Y32.236
X9.735 Y32.224
X9.909 Y32.198
X10.011 Y32.179
X10.19 Y32.14
X10.283 Y32.117
X10.467 Y32.064
X10.549 Y32.037
X10.738 Y31.971
X10.811 Y31.943
X11.004 Y31.864
X11.07 Y31.835
X11.266 Y31.744
X11.326 Y31.714
X11.525 Y31.609
X11.579 Y31.579
X11.782 Y31.463
X11.83 Y31.433
X12.035 Y31.304
X12.081 Y31.275
X12.287 Y31.134
X12.328 Y31.105
X12.537 Y30.952
X12.575 Y30.923
X12.784 Y30.76
X12.82 Y30.731
X13.03 Y30.556
X13.063 Y30.528
X13.274 Y30.341
X13.305 Y30.314
X13.516 Y30.117
X13.543 Y30.091
X13.753 Y29.885
X13.777 Y29.86
X13.987 Y29.645
X14.009 Y29.622
X14.217 Y29.399
G2 X14.38 Y29.191 I-1.096 J-1.024
G1 X15.323 Y27.736
X18.354 Y27.546
G2 X19.433 Y27.43 I-0.755 J-12.076
G1 X20.851 Y27.212
X24.849 Y31.912
G2 X26.707 Y32.258 I1.142 J-0.972
X26.932 Y32.134 I-9.107 J-16.789
G1 X27.005 Y32.09
X27.076 Y32.042
X27.196 Y31.955
X27.263 Y31.905
X27.326 Y31.85
X27.437 Y31.75
X27.495 Y31.695
X27.549 Y31.637
X27.651 Y31.523
X27.744 Y31.407
X27.837 Y31.28
X27.913 Y31.164
X27.996 Y31.025
X28.056 Y30.914
X28.13 Y30.762
X28.176 Y30.657
X28.241 Y30.493
X28.276 Y30.395
X28.331 Y30.22
X28.357 Y30.129
X28.403 Y29.943
X28.422 Y29.859
X28.459 Y29.662
X28.471 Y29.585
X28.499 Y29.379
X28.507 Y29.306
X28.526 Y29.091
X28.53 Y29.024
X28.539 Y28.799
X28.54 Y28.738
Y28.504
X28.539 Y28.447
X28.53 Y28.205
X28.527 Y28.151
X28.508 Y27.902
X28.504 Y27.852
X28.476 Y27.595
X28.47 Y27.547
X28.433 Y27.283
X28.426 Y27.239
X28.379 Y26.969
X28.371 Y26.926
X28.316 Y26.651
X28.307 Y26.61
X28.242 Y26.33
X28.233 Y26.293
X28.16 Y26.007
X28.151 Y25.974
X28.069 Y25.685
X28.06 Y25.655
X27.971 Y25.362
G2 X27.872 Y25.118 I-1.435 J0.438
G1 X27.083 Y23.574
X28.435 Y20.854
G2 X28.874 Y19.861 I-10.836 J-5.384
G1 X29.394 Y18.525
X35.463 Y17.411
G2 X36.692 Y15.976 I-0.271 J-1.475
X36.697 Y15.719 I-19.093 J-0.508
G1 Y15.692
Z-4.2 F333.3
X36.689 Y15.548 F700
X36.674 Y15.401
X36.664 Y15.318
X36.648 Y15.236
X36.617 Y15.09
X36.598 Y15.012
X36.575 Y14.934
X36.527 Y14.789
X36.474 Y14.652
X36.41 Y14.508
X36.347 Y14.384
X36.268 Y14.242
X36.202 Y14.136
X36.108 Y13.996
X36.04 Y13.903
X35.931 Y13.765
X35.863 Y13.685
X35.739 Y13.55
X35.673 Y13.482
X35.535 Y13.349
X35.471 Y13.291
X35.32 Y13.161
X35.259 Y13.111
X35.094 Y12.984
X35.036 Y12.941
X34.858 Y12.817
X34.802 Y12.78
X34.612 Y12.66
X34.56 Y12.628
X34.357 Y12.511
X34.307 Y12.483
X34.093 Y12.371
X34.045 Y12.346
X33.82 Y12.238
X33.774 Y12.216
X33.538 Y12.112
X33.493 Y12.093
X33.247 Y11.994
X33.204 Y11.978
X32.947 Y11.883
X32.906 Y11.869
X32.64 Y11.779
X32.601 Y11.766
X32.325 Y11.682
X32.289 Y11.672
X32.005 Y11.592
X31.972 Y11.584
X31.681 Y11.51
X31.65 Y11.502
X31.352 Y11.433
G2 X31.091 Y11.397 I-0.338 J1.461
G1 X29.359 Y11.307
X27.679 Y8.777
G2 X27.039 Y7.901 I-10.081 J6.693
G1 X26.142 Y6.782
X28.212 Y0.97
G2 X27.583 Y-0.812 I-1.413 J-0.503
X27.364 Y-0.945 I-9.986 J16.282
G1 X27.289 Y-0.987
X27.212 Y-1.024
X27.077 Y-1.085
X27 Y-1.117
X26.921 Y-1.145
X26.778 Y-1.191
X26.701 Y-1.213
X26.624 Y-1.231
X26.474 Y-1.262
X26.327 Y-1.285
X26.171 Y-1.302
X26.033 Y-1.31
X25.871 Y-1.312
X25.745 Y-1.309
X25.576 Y-1.297
X25.462 Y-1.284
X25.288 Y-1.259
X25.186 Y-1.24
X25.006 Y-1.2
X24.914 Y-1.177
X24.73 Y-1.124
X24.648 Y-1.098
X24.46 Y-1.032
X24.386 Y-1.004
X24.193 Y-0.925
X24.127 Y-0.896
X23.931 Y-0.804
X23.871 Y-0.774
X23.672 Y-0.67
X23.618 Y-0.64
X23.416 Y-0.523
X23.366 Y-0.493
X23.162 Y-0.365
X23.117 Y-0.335
X22.91 Y-0.194
X22.869 Y-0.165
X22.66 Y-0.013
X22.622 Y0.016
X22.413 Y0.18
X22.377 Y0.209
X22.167 Y0.384
X22.134 Y0.412
X21.923 Y0.598
X21.892 Y0.626
X21.681 Y0.822
X21.654 Y0.848
X21.444 Y1.055
X21.42 Y1.079
X21.21 Y1.294
X21.188 Y1.317
X20.98 Y1.541
G2 X20.817 Y1.748 I1.096 J1.024
G1 X19.874 Y3.204
X16.843 Y3.393
G2 X15.764 Y3.51 I0.756 J12.076
G1 X14.346 Y3.727
X10.348 Y-0.972
G2 X8.49 Y-1.318 I-1.142 J0.972
X8.265 Y-1.194 I9.108 J16.788
G1 X8.192 Y-1.151
X8.121 Y-1.103
X8.001 Y-1.016
X7.935 Y-0.965
X7.871 Y-0.911
X7.76 Y-0.81
X7.702 Y-0.755
X7.647 Y-0.697
X7.546 Y-0.583
X7.452 Y-0.467
X7.36 Y-0.34
X7.284 Y-0.225
X7.201 Y-0.085
X7.141 Y0.026
X7.067 Y0.178
X7.021 Y0.283
X6.956 Y0.446
X6.921 Y0.544
X6.866 Y0.719
X6.84 Y0.811
X6.794 Y0.996
X6.775 Y1.081
X6.738 Y1.277
X6.726 Y1.355
X6.698 Y1.561
X6.69 Y1.633
X6.671 Y1.849
X6.667 Y1.916
X6.658 Y2.14
X6.657 Y2.202
Y2.436
X6.658 Y2.493
X6.667 Y2.735
X6.67 Y2.788
X6.689 Y3.038
X6.693 Y3.088
X6.721 Y3.345
X6.727 Y3.392
X6.764 Y3.656
X6.771 Y3.701
X6.818 Y3.971
X6.826 Y4.013
X6.881 Y4.289
X6.89 Y4.329
X6.955 Y4.61
X6.964 Y4.647
X7.037 Y4.932
X7.046 Y4.965
X7.128 Y5.254
X7.137 Y5.285
X7.226 Y5.577
G2 X7.325 Y5.822 I1.435 J-0.438
G1 X8.114 Y7.366
X6.762 Y10.086
G2 X6.323 Y11.079 I10.836 J5.384
G1 X5.803 Y12.415
X-0.266 Y13.528
G2 X-1.495 Y14.964 I0.271 J1.475
X-1.5 Y15.221 I19.093 J0.506
G1 X-1.499 Y15.306
X-1.492 Y15.391
X-1.478 Y15.538
X-1.467 Y15.622
X-1.451 Y15.704
X-1.42 Y15.85
X-1.401 Y15.928
X-1.378 Y16.004
X-1.33 Y16.149
X-1.276 Y16.288
X-1.212 Y16.432
X-1.151 Y16.555
X-1.071 Y16.697
X-1.005 Y16.804
X-0.911 Y16.944
X-0.843 Y17.037
X-0.733 Y17.175
X-0.666 Y17.254
X-0.542 Y17.389
X-0.476 Y17.457
X-0.338 Y17.59
X-0.274 Y17.649
X-0.123 Y17.779
X-0.062 Y17.828
X0.103 Y17.956
X0.161 Y17.999
X0.339 Y18.123
X0.395 Y18.159
X0.585 Y18.28
X0.637 Y18.312
X0.84 Y18.429
X0.89 Y18.456
X1.104 Y18.569
X1.152 Y18.593
X1.377 Y18.702
X1.424 Y18.723
X1.66 Y18.827
X1.703 Y18.846
X1.95 Y18.945
X1.993 Y18.962
X2.25 Y19.057
X2.291 Y19.071
X2.557 Y19.161
X2.596 Y19.173
X2.872 Y19.257
X2.908 Y19.268
X3.192 Y19.347
X3.225 Y19.356
X3.516 Y19.43
X3.547 Y19.437
X3.845 Y19.506
G2 X4.106 Y19.543 I0.338 J-1.461
G1 X5.838 Y19.632
X7.518 Y22.162
G2 X8.158 Y23.039 I10.081 J-6.693
G1 X9.055 Y24.158
X6.985 Y29.97
G2 X7.614 Y31.752 I1.413 J0.503
X7.834 Y31.885 I9.983 J-16.283
G1 X7.908 Y31.926
X7.984 Y31.963
X8.119 Y32.024
X8.197 Y32.057
X8.276 Y32.085
X8.419 Y32.13
X8.496 Y32.153
X8.574 Y32.171
X8.723 Y32.202
X8.87 Y32.225
X9.026 Y32.242
X9.164 Y32.25
X9.326 Y32.252
X9.452 Y32.248
X9.621 Y32.236
X9.735 Y32.224
X9.909 Y32.198
X10.011 Y32.179
X10.19 Y32.14
X10.283 Y32.117
X10.467 Y32.064
X10.549 Y32.037
X10.738 Y31.971
X10.811 Y31.943
X11.004 Y31.864
X11.07 Y31.835
X11.266 Y31.744
X11.326 Y31.714
X11.525 Y31.609
X11.579 Y31.579
X11.782 Y31.463
X11.83 Y31.433
X12.035 Y31.304
X12.081 Y31.275
X12.287 Y31.134
X12.328 Y31.105
X12.537 Y30.952
X12.575 Y30.923
X12.784 Y30.76
X12.82 Y30.731
X13.03 Y30.556
X13.063 Y30.528
X13.274 Y30.341
X13.305 Y30.314
X13.516 Y30.117
X13.543 Y30.091
X13.753 Y29.885
X13.777 Y29.86
X13.987 Y29.645
X14.009 Y29.622
X14.217 Y29.399
G2 X14.38 Y29.191 I-1.096 J-1.024
G1 X15.323 Y27.736
X18.354 Y27.546
G2 X19.433 Y27.43 I-0.755 J-12.076
G1 X20.851 Y27.212
X24.849 Y31.912
G2 X26.707 Y32.258 I1.142 J-0.972
X26.932 Y32.134 I-9.107 J-16.789
G1 X27.005 Y32.09
X27.076 Y32.042
X27.196 Y31.955
X27.263 Y31.905
X27.326 Y31.85
X27.437 Y31.75
X27.495 Y31.695
X27.549 Y31.637
X27.651 Y31.523
X27.744 Y31.407
X27.837 Y31.28
X27.913 Y31.164
X27.996 Y31.025
X28.056 Y30.914
X28.13 Y30.762
X28.176 Y30.657
X28.241 Y30.493
X28.276 Y30.395
X28.331 Y30.22
X28.357 Y30.129
X28.403 Y29.943
X28.422 Y29.859
X28.459 Y29.662
X28.471 Y29.585
X28.499 Y29.379
X28.507 Y29.306
X28.526 Y29.091
X28.53 Y29.024
X28.539 Y28.799
X28.54 Y28.738
Y28.504
X28.539 Y28.447
X28.53 Y28.205
X28.527 Y28.151
X28.508 Y27.902
X28.504 Y27.852
X28.476 Y27.595
X28.47 Y27.547
X28.433 Y27.283
X28.426 Y27.239
X28.379 Y26.969
X28.371 Y26.926
X28.316 Y26.651
X28.307 Y26.61
X28.242 Y26.33
X28.233 Y26.293
X28.16 Y26.007
X28.151 Y25.974
X28.069 Y25.685
X28.06 Y25.655
X27.971 Y25.362
G2 X27.872 Y25.118 I-1.435 J0.438
G1 X27.083 Y23.574
X28.435 Y20.854
G2 X28.874 Y19.861 I-10.836 J-5.384
G1 X29.394 Y18.525
X35.463 Y17.411
G2 X36.692 Y15.976 I-0.271 J-1.475
X36.697 Y15.719 I-19.093 J-0.508
G1 Y15.692
Z-4.5 F333.3
X36.689 Y15.548 F700
X36.674 Y15.401
X36.664 Y15.318
X36.648 Y15.236
X36.617 Y15.09
X36.598 Y15.012
X36.575 Y14.934
X36.527 Y14.789
X36.474 Y14.652
X36.41 Y14.508
X36.347 Y14.384
X36.268 Y14.242
X36.202 Y14.136
X36.108 Y13.996
X36.04 Y13.903
X35.931 Y13.765
X35.863 Y13.685
X35.739 Y13.55
X35.673 Y13.482
X35.535 Y13.349
X35.471 Y13.291
X35.32 Y13.161
X35.259 Y13.111
X35.094 Y12.984
X35.036 Y12.941
X34.858 Y12.817
X34.802 Y12.78
X34.612 Y12.66
X34.56 Y12.628
X34.357 Y12.511
X34.307 Y12.483
X34.093 Y12.371
X34.045 Y12.346
X33.82 Y12.238
X33.774 Y12.216
X33.538 Y12.112
X33.493 Y12.093
X33.247 Y11.994
X33.204 Y11.978
X32.947 Y11.883
X32.906 Y11.869
X32.64 Y11.779
X32.601 Y11.766
X32.325 Y11.682
X32.289 Y11.672
X32.005 Y11.592
X31.972 Y11.584
X31.681 Y11.51
X31.65 Y11.502
X31.352 Y11.433
G2 X31.091 Y11.397 I-0.338 J1.461
G1 X29.359 Y11.307
X27.679 Y8.777
G2 X27.039 Y7.901 I-10.081 J6.693
G1 X26.142 Y6.782
X28.212 Y0.97
G2 X27.583 Y-0.812 I-1.413 J-0.503
X27.364 Y-0.945 I-9.986 J16.282
G1 X27.289 Y-0.987
X27.212 Y-1.024
X27.077 Y-1.085
X27 Y-1.117
X26.921 Y-1.145
X26.778 Y-1.191
X26.701 Y-1.213
X26.624 Y-1.231
X26.474 Y-1.262
X26.327 Y-1.285
X26.171 Y-1.302
X26.033 Y-1.31
X25.871 Y-1.312
X25.745 Y-1.309
X25.576 Y-1.297
X25.462 Y-1.284
X25.288 Y-1.259
X25.186 Y-1.24
X25.006 Y-1.2
X24.914 Y-1.177
X24.73 Y-1.124
X24.648 Y-1.098
X24.46 Y-1.032
X24.386 Y-1.004
X24.193 Y-0.925
X24.127 Y-0.896
X23.931 Y-0.804
X23.871 Y-0.774
X23.672 Y-0.67
X23.618 Y-0.64
X23.416 Y-0.523
X23.366 Y-0.493
X23.162 Y-0.365
X23.117 Y-0.335
X22.91 Y-0.194
X22.869 Y-0.165
X22.66 Y-0.013
X22.622 Y0.016
X22.413 Y0.18
X22.377 Y0.209
X22.167 Y0.384
X22.134 Y0.412
X21.923 Y0.598
X21.892 Y0.626
X21.681 Y0.822
X21.654 Y0.848
X21.444 Y1.055
X21.42 Y1.079
X21.21 Y1.294
X21.188 Y1.317
X20.98 Y1.541
G2 X20.817 Y1.748 I1.096 J1.024
G1 X19.874 Y3.204
X16.843 Y3.393
G2 X15.764 Y3.51 I0.756 J12.076
G1 X14.346 Y3.727
X10.348 Y-0.972
G2 X8.49 Y-1.318 I-1.142 J0.972
X8.265 Y-1.194 I9.108 J16.788
G1 X8.192 Y-1.151
X8.121 Y-1.103
X8.001 Y-1.016
X7.935 Y-0.965
X7.871 Y-0.911
X7.76 Y-0.81
X7.702 Y-0.755
X7.647 Y-0.697
X7.546 Y-0.583
X7.452 Y-0.467
X7.36 Y-0.34
X7.284 Y-0.225
X7.201 Y-0.085
X7.141 Y0.026
X7.067 Y0.178
X7.021 Y0.283
X6.956 Y0.446
X6.921 Y0.544
X6.866 Y0.719
X6.84 Y0.811
X6.794 Y0.996
X6.775 Y1.081
X6.738 Y1.277
X6.726 Y1.355
X6.698 Y1.561
X6.69 Y1.633
X6.671 Y1.849
X6.667 Y1.916
X6.658 Y2.14
X6.657 Y2.202
Y2.436
X6.658 Y2.493
X6.667 Y2.735
X6.67 Y2.788
X6.689 Y3.038
X6.693 Y3.088
X6.721 Y3.345
X6.727 Y3.392
X6.764 Y3.656
X6.771 Y3.701
X6.818 Y3.971
X6.826 Y4.013
X6.881 Y4.289
X6.89 Y4.329
X6.955 Y4.61
X6.964 Y4.647
X7.037 Y4.932
X7.046 Y4.965
X7.128 Y5.254
X7.137 Y5.285
X7.226 Y5.577
G2 X7.325 Y5.822 I1.435 J-0.438
G1 X8.114 Y7.366
X6.762 Y10.086
G2 X6.323 Y11.079 I10.836 J5.384
G1 X5.803 Y12.415
X-0.266 Y13.528
G2 X-1.495 Y14.964 I0.271 J1.475
X-1.5 Y15.221 I19.093 J0.506
G1 X-1.499 Y15.306
X-1.492 Y15.391
X-1.478 Y15.538
X-1.467 Y15.622
X-1.451 Y15.704
X-1.42 Y15.85
X-1.401 Y15.928
X-1.378 Y16.004
X-1.33 Y16.149
X-1.276 Y16.288
X-1.212 Y16.432
X-1.151 Y16.555
X-1.071 Y16.697
X-1.005 Y16.804
X-0.911 Y16.944
X-0.843 Y17.037
X-0.733 Y17.175
X-0.666 Y17.254
X-0.542 Y17.389
X-0.476 Y17.457
X-0.338 Y17.59
X-0.274 Y17.649
X-0.123 Y17.779
X-0.062 Y17.828
X0.103 Y17.956
X0.161 Y17.999
X0.339 Y18.123
X0.395 Y18.159
X0.585 Y18.28
X0.637 Y18.312
X0.84 Y18.429
X0.89 Y18.456
X1.104 Y18.569
X1.152 Y18.593
X1.377 Y18.702
X1.424 Y18.723
X1.66 Y18.827
X1.703 Y18.846
X1.95 Y18.945
X1.993 Y18.962
X2.25 Y19.057
X2.291 Y19.071
X2.557 Y19.161
X2.596 Y19.173
X2.872 Y19.257
X2.908 Y19.268
X3.192 Y19.347
X3.225 Y19.356
X3.516 Y19.43
X3.547 Y19.437
X3.845 Y19.506
G2 X4.106 Y19.543 I0.338 J-1.461
G1 X5.838 Y19.632
X7.518 Y22.162
G2 X8.158 Y23.039 I10.081 J-6.693
G1 X9.055 Y24.158
X6.985 Y29.97
G2 X7.614 Y31.752 I1.413 J0.503
X7.834 Y31.885 I9.983 J-16.283
G1 X7.908 Y31.926
X7.984 Y31.963
X8.119 Y32.024
X8.197 Y32.057
X8.276 Y32.085
X8.419 Y32.13
X8.496 Y32.153
X8.574 Y32.171
X8.723 Y32.202
X8.87 Y32.225
X9.026 Y32.242
X9.164 Y32.25
X9.326 Y32.252
X9.452 Y32.248
X9.621 Y32.236
X9.735 Y32.224
X9.909 Y32.198
X10.011 Y32.179
X10.19 Y32.14
X10.283 Y32.117
X10.467 Y32.064
X10.549 Y32.037
X10.738 Y31.971
X10.811 Y31.943
X11.004 Y31.864
X11.07 Y31.835
X11.266 Y31.744
X11.326 Y31.714
X11.525 Y31.609
X11.579 Y31.579
X11.782 Y31.463
X11.83 Y31.433
X12.035 Y31.304
X12.081 Y31.275
X12.287 Y31.134
X12.328 Y31.105
X12.537 Y30.952
X12.575 Y30.923
X12.784 Y30.76
X12.82 Y30.731
X13.03 Y30.556
X13.063 Y30.528
X13.274 Y30.341
X13.305 Y30.314
X13.516 Y30.117
X13.543 Y30.091
X13.753 Y29.885
X13.777 Y29.86
X13.987 Y29.645
X14.009 Y29.622
X14.217 Y29.399
G2 X14.38 Y29.191 I-1.096 J-1.024
G1 X15.323 Y27.736
X18.354 Y27.546
G2 X19.433 Y27.43 I-0.755 J-12.076
G1 X20.851 Y27.212
X24.849 Y31.912
G2 X26.707 Y32.258 I1.142 J-0.972
X26.932 Y32.134 I-9.107 J-16.789
G1 X27.005 Y32.09
X27.076 Y32.042
X27.196 Y31.955
X27.263 Y31.905
X27.326 Y31.85
X27.437 Y31.75
X27.495 Y31.695
X27.549 Y31.637
X27.651 Y31.523
X27.744 Y31.407
X27.837 Y31.28
X27.913 Y31.164
X27.996 Y31.025
X28.056 Y30.914
X28.13 Y30.762
X28.176 Y30.657
X28.241 Y30.493
X28.276 Y30.395
X28.331 Y30.22
X28.357 Y30.129
X28.403 Y29.943
X28.422 Y29.859
X28.459 Y29.662
X28.471 Y29.585
X28.499 Y29.379
X28.507 Y29.306
X28.526 Y29.091
X28.53 Y29.024
X28.539 Y28.799
X28.54 Y28.738
Y28.504
X28.539 Y28.447
X28.53 Y28.205
X28.527 Y28.151
X28.508 Y27.902
X28.504 Y27.852
X28.476 Y27.595
X28.47 Y27.547
X28.433 Y27.283
X28.426 Y27.239
X28.379 Y26.969
X28.371 Y26.926
X28.316 Y26.651
X28.307 Y26.61
X28.242 Y26.33
X28.233 Y26.293
X28.16 Y26.007
X28.151 Y25.974
X28.069 Y25.685
X28.06 Y25.655
X27.971 Y25.362
G2 X27.872 Y25.118 I-1.435 J0.438
G1 X27.083 Y23.574
X28.435 Y20.854
G2 X28.874 Y19.861 I-10.836 J-5.384
G1 X29.394 Y18.525
X35.463 Y17.411
G2 X36.692 Y15.976 I-0.271 J-1.475
X36.697 Y15.719 I-19.093 J-0.508
G1 Y15.692
Z-4.8 F333.3
X36.689 Y15.548 F700
X36.674 Y15.401
X36.664 Y15.318
X36.648 Y15.236
X36.617 Y15.09
X36.598 Y15.012
X36.575 Y14.934
X36.527 Y14.789
X36.474 Y14.652
X36.41 Y14.508
X36.347 Y14.384
X36.268 Y14.242
X36.202 Y14.136
X36.108 Y13.996
X36.04 Y13.903
X35.931 Y13.765
X35.863 Y13.685
X35.739 Y13.55
X35.673 Y13.482
X35.535 Y13.349
X35.471 Y13.291
X35.32 Y13.161
X35.259 Y13.111
X35.094 Y12.984
X35.036 Y12.941
X34.858 Y12.817
X34.802 Y12.78
X34.612 Y12.66
X34.56 Y12.628
X34.357 Y12.511
X34.307 Y12.483
X34.093 Y12.371
X34.045 Y12.346
X33.82 Y12.238
X33.774 Y12.216
X33.538 Y12.112
X33.493 Y12.093
X33.247 Y11.994
X33.204 Y11.978
X32.947 Y11.883
X32.906 Y11.869
X32.64 Y11.779
X32.601 Y11.766
X32.325 Y11.682
X32.289 Y11.672
X32.005 Y11.592
X31.972 Y11.584
X31.681 Y11.51
X31.65 Y11.502
X31.352 Y11.433
G2 X31.091 Y11.397 I-0.338 J1.461
G1 X29.359 Y11.307
X27.679 Y8.777
G2 X27.039 Y7.901 I-10.081 J6.693
G1 X26.142 Y6.782
X28.212 Y0.97
G2 X27.583 Y-0.812 I-1.413 J-0.503
X27.364 Y-0.945 I-9.986 J16.282
G1 X27.289 Y-0.987
X27.212 Y-1.024
X27.077 Y-1.085
X27 Y-1.117
X26.921 Y-1.145
X26.778 Y-1.191
X26.701 Y-1.213
X26.624 Y-1.231
X26.474 Y-1.262
X26.327 Y-1.285
X26.171 Y-1.302
X26.033 Y-1.31
X25.871 Y-1.312
X25.745 Y-1.309
X25.576 Y-1.297
X25.462 Y-1.284
X25.288 Y-1.259
X25.186 Y-1.24
X25.006 Y-1.2
X24.914 Y-1.177
X24.73 Y-1.124
X24.648 Y-1.098
X24.46 Y-1.032
X24.386 Y-1.004
X24.193 Y-0.925
X24.127 Y-0.896
X23.931 Y-0.804
X23.871 Y-0.774
X23.672 Y-0.67
X23.618 Y-0.64
X23.416 Y-0.523
X23.366 Y-0.493
X23.162 Y-0.365
X23.117 Y-0.335
X22.91 Y-0.194
X22.869 Y-0.165
X22.66 Y-0.013
X22.622 Y0.016
X22.413 Y0.18
X22.377 Y0.209
X22.167 Y0.384
X22.134 Y0.412
X21.923 Y0.598
X21.892 Y0.626
X21.681 Y0.822
X21.654 Y0.848
X21.444 Y1.055
X21.42 Y1.079
X21.21 Y1.294
X21.188 Y1.317
X20.98 Y1.541
G2 X20.817 Y1.748 I1.096 J1.024
G1 X19.874 Y3.204
X16.843 Y3.393
G2 X15.764 Y3.51 I0.756 J12.076
G1 X14.346 Y3.727
X10.348 Y-0.972
G2 X8.49 Y-1.318 I-1.142 J0.972
X8.265 Y-1.194 I9.108 J16.788
G1 X8.192 Y-1.151
X8.121 Y-1.103
X8.001 Y-1.016
X7.935 Y-0.965
X7.871 Y-0.911
X7.76 Y-0.81
X7.702 Y-0.755
X7.647 Y-0.697
X7.546 Y-0.583
X7.452 Y-0.467
X7.36 Y-0.34
X7.284 Y-0.225
X7.201 Y-0.085
X7.141 Y0.026
X7.067 Y0.178
X7.021 Y0.283
X6.956 Y0.446
X6.921 Y0.544
X6.866 Y0.719
X6.84 Y0.811
X6.794 Y0.996
X6.775 Y1.081
X6.738 Y1.277
X6.726 Y1.355
X6.698 Y1.561
X6.69 Y1.633
X6.671 Y1.849
X6.667 Y1.916
X6.658 Y2.14
X6.657 Y2.202
Y2.436
X6.658 Y2.493
X6.667 Y2.735
X6.67 Y2.788
X6.689 Y3.038
X6.693 Y3.088
X6.721 Y3.345
X6.727 Y3.392
X6.764 Y3.656
X6.771 Y3.701
X6.818 Y3.971
X6.826 Y4.013
X6.881 Y4.289
X6.89 Y4.329
X6.955 Y4.61
X6.964 Y4.647
X7.037 Y4.932
X7.046 Y4.965
X7.128 Y5.254
X7.137 Y5.285
X7.226 Y5.577
G2 X7.325 Y5.822 I1.435 J-0.438
G1 X8.114 Y7.366
X6.762 Y10.086
G2 X6.323 Y11.079 I10.836 J5.384
G1 X5.803 Y12.415
X-0.266 Y13.528
G2 X-1.495 Y14.964 I0.271 J1.475
X-1.5 Y15.221 I19.093 J0.506
G1 X-1.499 Y15.306
X-1.492 Y15.391
X-1.478 Y15.538
X-1.467 Y15.622
X-1.451 Y15.704
X-1.42 Y15.85
X-1.401 Y15.928
X-1.378 Y16.004
X-1.33 Y16.149
X-1.276 Y16.288
X-1.212 Y16.432
X-1.151 Y16.555
X-1.071 Y16.697
X-1.005 Y16.804
X-0.911 Y16.944
X-0.843 Y17.037
X-0.733 Y17.175
X-0.666 Y17.254
X-0.542 Y17.389
X-0.476 Y17.457
X-0.338 Y17.59
X-0.274 Y17.649
X-0.123 Y17.779
X-0.062 Y17.828
X0.103 Y17.956
X0.161 Y17.999
X0.339 Y18.123
X0.395 Y18.159
X0.585 Y18.28
X0.637 Y18.312
X0.84 Y18.429
X0.89 Y18.456
X1.104 Y18.569
X1.152 Y18.593
X1.377 Y18.702
X1.424 Y18.723
X1.66 Y18.827
X1.703 Y18.846
X1.95 Y18.945
X1.993 Y18.962
X2.25 Y19.057
X2.291 Y19.071
X2.557 Y19.161
X2.596 Y19.173
X2.872 Y19.257
X2.908 Y19.268
X3.192 Y19.347
X3.225 Y19.356
X3.516 Y19.43
X3.547 Y19.437
X3.845 Y19.506
G2 X4.106 Y19.543 I0.338 J-1.461
G1 X5.838 Y19.632
X7.518 Y22.162
G2 X8.158 Y23.039 I10.081 J-6.693
G1 X9.055 Y24.158
X6.985 Y29.97
G2 X7.614 Y31.752 I1.413 J0.503
X7.834 Y31.885 I9.983 J-16.283
G1 X7.908 Y31.926
X7.984 Y31.963
X8.119 Y32.024
X8.197 Y32.057
X8.276 Y32.085
X8.419 Y32.13
X8.496 Y32.153
X8.574 Y32.171
X8.723 Y32.202
X8.87 Y32.225
X9.026 Y32.242
X9.164 Y32.25
X9.326 Y32.252
X9.452 Y32.248
X9.621 Y32.236
X9.735 Y32.224
X9.909 Y32.198
X10.011 Y32.179
X10.19 Y32.14
X10.283 Y32.117
X10.467 Y32.064
X10.549 Y32.037
X10.738 Y31.971
X10.811 Y31.943
X11.004 Y31.864
X11.07 Y31.835
X11.266 Y31.744
X11.326 Y31.714
X11.525 Y31.609
X11.579 Y31.579
X11.782 Y31.463
X11.83 Y31.433
X12.035 Y31.304
X12.081 Y31.275
X12.287 Y31.134
X12.328 Y31.105
X12.537 Y30.952
X12.575 Y30.923
X12.784 Y30.76
X12.82 Y30.731
X13.03 Y30.556
X13.063 Y30.528
X13.274 Y30.341
X13.305 Y30.314
X13.516 Y30.117
X13.543 Y30.091
X13.753 Y29.885
X13.777 Y29.86
X13.987 Y29.645
X14.009 Y29.622
X14.217 Y29.399
G2 X14.38 Y29.191 I-1.096 J-1.024
G1 X15.323 Y27.736
X18.354 Y27.546
G2 X19.433 Y27.43 I-0.755 J-12.076
G1 X20.851 Y27.212
X24.849 Y31.912
G2 X26.707 Y32.258 I1.142 J-0.972
X26.932 Y32.134 I-9.107 J-16.789
G1 X27.005 Y32.09
X27.076 Y32.042
X27.196 Y31.955
X27.263 Y31.905
X27.326 Y31.85
X27.437 Y31.75
X27.495 Y31.695
X27.549 Y31.637
X27.651 Y31.523
X27.744 Y31.407
X27.837 Y31.28
X27.913 Y31.164
X27.996 Y31.025
X28.056 Y30.914
X28.13 Y30.762
X28.176 Y30.657
X28.241 Y30.493
X28.276 Y30.395
X28.331 Y30.22
X28.357 Y30.129
X28.403 Y29.943
X28.422 Y29.859
X28.459 Y29.662
X28.471 Y29.585
X28.499 Y29.379
X28.507 Y29.306
X28.526 Y29.091
X28.53 Y29.024
X28.539 Y28.799
X28.54 Y28.738
Y28.504
X28.539 Y28.447
X28.53 Y28.205
X28.527 Y28.151
X28.508 Y27.902
X28.504 Y27.852
X28.476 Y27.595
X28.47 Y27.547
X28.433 Y27.283
X28.426 Y27.239
X28.379 Y26.969
X28.371 Y26.926
X28.316 Y26.651
X28.307 Y26.61
X28.242 Y26.33
X28.233 Y26.293
X28.16 Y26.007
X28.151 Y25.974
X28.069 Y25.685
X28.06 Y25.655
X27.971 Y25.362
G2 X27.872 Y25.118 I-1.435 J0.438
G1 X27.083 Y23.574
X28.435 Y20.854
G2 X28.874 Y19.861 I-10.836 J-5.384
G1 X29.394 Y18.525
X35.463 Y17.411
G2 X36.692 Y15.976 I-0.271 J-1.475
X36.697 Y15.719 I-19.093 J-0.508
G1 Y15.692
Z-5.1 F333.3
X36.689 Y15.548 F700
X36.674 Y15.401
X36.664 Y15.318
X36.648 Y15.236
X36.617 Y15.09
X36.598 Y15.012
X36.575 Y14.934
X36.527 Y14.789
X36.474 Y14.652
X36.41 Y14.508
X36.347 Y14.384
X36.268 Y14.242
X36.202 Y14.136
X36.108 Y13.996
X36.04 Y13.903
X35.931 Y13.765
X35.863 Y13.685
X35.739 Y13.55
X35.673 Y13.482
X35.535 Y13.349
X35.471 Y13.291
X35.32 Y13.161
X35.259 Y13.111
X35.094 Y12.984
X35.036 Y12.941
X34.858 Y12.817
X34.802 Y12.78
X34.612 Y12.66
X34.56 Y12.628
X34.357 Y12.511
X34.307 Y12.483
X34.093 Y12.371
X34.045 Y12.346
X33.82 Y12.238
X33.774 Y12.216
X33.538 Y12.112
X33.493 Y12.093
X33.247 Y11.994
X33.204 Y11.978
X32.947 Y11.883
X32.906 Y11.869
X32.64 Y11.779
X32.601 Y11.766
X32.325 Y11.682
X32.289 Y11.672
X32.005 Y11.592
X31.972 Y11.584
X31.681 Y11.51
X31.65 Y11.502
X31.352 Y11.433
G2 X31.091 Y11.397 I-0.338 J1.461
G1 X29.359 Y11.307
X27.679 Y8.777
G2 X27.039 Y7.901 I-10.081 J6.693
G1 X26.142 Y6.782
X28.212 Y0.97
G2 X27.583 Y-0.812 I-1.413 J-0.503
X27.364 Y-0.945 I-9.986 J16.282
G1 X27.289 Y-0.987
X27.212 Y-1.024
X27.077 Y-1.085
X27 Y-1.117
X26.921 Y-1.145
X26.778 Y-1.191
X26.701 Y-1.213
X26.624 Y-1.231
X26.474 Y-1.262
X26.327 Y-1.285
X26.171 Y-1.302
X26.033 Y-1.31
X25.871 Y-1.312
X25.745 Y-1.309
X25.576 Y-1.297
X25.462 Y-1.284
X25.288 Y-1.259
X25.186 Y-1.24
X25.006 Y-1.2
