(1001)
(T4  D=3 CR=0 - ZMIN=-18 - flat end mill)
G90 G94
G17
G21

(2D Pocket3 2)
T4
S15000 M3
G54
M8
G0 X4.902 Y31.09
Z6
Z2
G1 Z-1 F700
X4.899 Y31.078
G3 X45.101 Y18.922 I20.101 J-6.078
X25 Y46 I-20.101 J6.078
G1 X24.979
X24.959
G3 X12.706 Y42.025 I0.041 J-21
G1 X11.328 Y41.03
X11.3 Y41.006
X11.277 Y40.977
X4.926 Y31.14
X4.902 Y31.09
Z-2
X4.899 Y31.078
G3 X45.101 Y18.922 I20.101 J-6.078
X25 Y46 I-20.101 J6.078
G1 X24.979
X24.959
G3 X12.706 Y42.025 I0.041 J-21
G1 X11.328 Y41.03
X11.3 Y41.006
X11.277 Y40.977
X4.926 Y31.14
X4.902 Y31.09
Z-3
X4.899 Y31.078
G3 X45.101 Y18.922 I20.101 J-6.078
X25 Y46 I-20.101 J6.078
G1 X24.979
X24.959
G3 X12.706 Y42.025 I0.041 J-21
G1 X11.328 Y41.03
X11.3 Y41.006
X11.277 Y40.977
X4.926 Y31.14
X4.902 Y31.09
Z-4
X4.899 Y31.078
G3 X45.101 Y18.922 I20.101 J-6.078
X25 Y46 I-20.101 J6.078
G1 X24.979
X24.959
G3 X12.706 Y42.025 I0.041 J-21
G1 X11.328 Y41.03
X11.3 Y41.006
X11.277 Y40.977
X4.926 Y31.14
X4.902 Y31.09
Z-5
X4.899 Y31.078
G3 X45.101 Y18.922 I20.101 J-6.078
X25 Y46 I-20.101 J6.078
G1 X24.979
X24.959
G3 X12.706 Y42.025 I0.041 J-21
G1 X11.328 Y41.03
G0 Z6
X5.717 Y22.099
Z2
G1 Z-1 F700
X5.731 Y22.006
G3 X44.269 Y27.994 I19.269 J2.994
X13.308 Y40.606 I-19.269 J-2.994
G1 X12.096 Y39.698
X12.075 Y39.674
X12.066 Y39.645
X12.069 Y39.614
X12.155 Y39.303
X6.06 Y22.382
X6.045 Y22.355
X6.021 Y22.336
X5.759 Y22.187
X5.733 Y22.164
X5.718 Y22.133
X5.717 Y22.099
Z-2
X5.731 Y22.006
G3 X44.269 Y27.994 I19.269 J2.994
X13.308 Y40.606 I-19.269 J-2.994
G1 X12.096 Y39.698
X12.075 Y39.674
X12.066 Y39.645
X12.069 Y39.614
X12.155 Y39.303
X6.06 Y22.382
X6.045 Y22.355
X6.021 Y22.336
X5.759 Y22.187
X5.733 Y22.164
X5.718 Y22.133
X5.717 Y22.099
Z-3
X5.731 Y22.006
G3 X44.269 Y27.994 I19.269 J2.994
X13.308 Y40.606 I-19.269 J-2.994
G1 X12.096 Y39.698
X12.075 Y39.674
X12.066 Y39.645
X12.069 Y39.614
X12.155 Y39.303
X6.06 Y22.382
X6.045 Y22.355
X6.021 Y22.336
X5.759 Y22.187
X5.733 Y22.164
X5.718 Y22.133
X5.717 Y22.099
Z-4
X5.731 Y22.006
G3 X44.269 Y27.994 I19.269 J2.994
X13.308 Y40.606 I-19.269 J-2.994
G1 X12.096 Y39.698
X12.075 Y39.674
X12.066 Y39.645
X12.069 Y39.614
X12.155 Y39.303
X6.06 Y22.382
X6.045 Y22.355
X6.021 Y22.336
X5.759 Y22.187
X5.733 Y22.164
X5.718 Y22.133
X5.717 Y22.099
Z-5
X5.731 Y22.006
G3 X44.269 Y27.994 I19.269 J2.994
X13.308 Y40.606 I-19.269 J-2.994
G1 X12.096 Y39.698
X12.075 Y39.674
X12.066 Y39.645
X12.069 Y39.614
X12.155 Y39.303
X6.06 Y22.382
X6.045 Y22.355
X6.021 Y22.336
X5.759 Y22.187
X5.733 Y22.164
X5.718 Y22.133
X5.717 Y22.099
Z-6
X5.731 Y22.006
G3 X44.269 Y27.994 I19.269 J2.994
X13.308 Y40.606 I-19.269 J-2.994
G1 X12.096 Y39.698
G0 Z6
X10.807 Y35.372
Z2
G1 Z-1 F700
X10.8 Y35.381
X8.889 Y38.127
X8.824 Y38.225
X8.763 Y38.325
X8.64 Y38.526
X8.613 Y38.555
X8.579 Y38.575
X8.54 Y38.583
X8.5 Y38.577
X8.465 Y38.56
X8.436 Y38.533
X8.418 Y38.498
X8.411 Y38.458
Y30.784
G3 X8.787 Y30.689 I0.2 J0
G1 X11.945 Y36.523
X11.964 Y36.575
X11.969 Y36.63
X11.958 Y36.684
X11.933 Y36.733
X10.286 Y39.098
G2 X8.275 Y45.509 I9.214 J6.411
G1 X8.288 Y65.384
G3 X8.088 Y65.584 I-0.2 J0
G1 X6.905
G3 X6.705 Y65.384 I0 J-0.2
G1 X6.725 Y24.408
G3 X7.03 Y23.414 I1.775 J0
G1 X7.604 Y22.563
G3 X7.959 Y22.61 I0.166 J0.112
G1 X13.191 Y37.799
X13.201 Y37.845
X13.2 Y37.892
X13.188 Y37.937
X13.166 Y37.979
X12.269 Y39.268
X11.702 Y40.084
G2 X10 Y45.509 I7.798 J5.426
G1 Y64
Y65.397
G3 X9.8 Y65.597 I-0.2 J0
G1 X5.2 Y65.598
G3 X5 Y65.398 I0 J-0.2
G1 Y24.408
G3 X5.601 Y22.448 I3.5 J0
G1 X9.711 Y16.369
G3 X10.076 Y16.473 I0.166 J0.112
G1 X10.843 Y35.249
X10.84 Y35.292
X10.828 Y35.334
X10.807 Y35.372
Z-2
X10.8 Y35.381
X8.889 Y38.127
X8.824 Y38.225
X8.763 Y38.325
X8.64 Y38.526
X8.613 Y38.555
X8.579 Y38.575
X8.54 Y38.583
X8.5 Y38.577
X8.465 Y38.56
X8.436 Y38.533
X8.418 Y38.498
X8.411 Y38.458
Y30.784
G3 X8.787 Y30.689 I0.2 J0
G1 X11.945 Y36.523
X11.964 Y36.575
X11.969 Y36.63
X11.958 Y36.684
X11.933 Y36.733
X10.286 Y39.098
G2 X8.275 Y45.509 I9.214 J6.411
G1 X8.288 Y65.384
G3 X8.088 Y65.584 I-0.2 J0
G1 X6.905
G3 X6.705 Y65.384 I0 J-0.2
G1 X6.725 Y24.408
G3 X7.03 Y23.414 I1.775 J0
G1 X7.604 Y22.563
G3 X7.959 Y22.61 I0.166 J0.112
G1 X13.191 Y37.799
X13.201 Y37.845
X13.2 Y37.892
X13.188 Y37.937
X13.166 Y37.979
X12.269 Y39.268
X11.702 Y40.084
G2 X10 Y45.509 I7.798 J5.426
G1 Y64
Y65.397
G3 X9.8 Y65.597 I-0.2 J0
G1 X5.2 Y65.598
G3 X5 Y65.398 I0 J-0.2
G1 Y24.408
G3 X5.601 Y22.448 I3.5 J0
G1 X9.711 Y16.369
G3 X10.076 Y16.473 I0.166 J0.112
G1 X10.843 Y35.249
X10.84 Y35.292
X10.828 Y35.334
X10.807 Y35.372
Z-3
X10.8 Y35.381
X8.889 Y38.127
X8.824 Y38.225
X8.763 Y38.325
X8.64 Y38.526
X8.613 Y38.555
X8.579 Y38.575
X8.54 Y38.583
X8.5 Y38.577
X8.465 Y38.56
X8.436 Y38.533
X8.418 Y38.498
X8.411 Y38.458
Y30.784
G3 X8.787 Y30.689 I0.2 J0
G1 X11.945 Y36.523
X11.964 Y36.575
X11.969 Y36.63
X11.958 Y36.684
X11.933 Y36.733
X10.286 Y39.098
G2 X8.275 Y45.509 I9.214 J6.411
G1 X8.288 Y65.384
G3 X8.088 Y65.584 I-0.2 J0
G1 X6.905
G3 X6.705 Y65.384 I0 J-0.2
G1 X6.725 Y24.408
G3 X7.03 Y23.414 I1.775 J0
G1 X7.604 Y22.563
G3 X7.959 Y22.61 I0.166 J0.112
G1 X13.191 Y37.799
X13.201 Y37.845
X13.2 Y37.892
X13.188 Y37.937
X13.166 Y37.979
X12.269 Y39.268
X11.702 Y40.084
G2 X10 Y45.509 I7.798 J5.426
G1 Y64
Y65.397
G3 X9.8 Y65.597 I-0.2 J0
G1 X5.2 Y65.598
G3 X5 Y65.398 I0 J-0.2
G1 Y24.408
G3 X5.601 Y22.448 I3.5 J0
G1 X9.711 Y16.369
G3 X10.076 Y16.473 I0.166 J0.112
G1 X10.843 Y35.249
X10.84 Y35.292
X10.828 Y35.334
X10.807 Y35.372
Z-4
X10.8 Y35.381
X8.889 Y38.127
X8.824 Y38.225
X8.763 Y38.325
X8.64 Y38.526
X8.613 Y38.555
X8.579 Y38.575
X8.54 Y38.583
X8.5 Y38.577
X8.465 Y38.56
X8.436 Y38.533
X8.418 Y38.498
X8.411 Y38.458
Y30.784
G3 X8.787 Y30.689 I0.2 J0
G1 X11.945 Y36.523
X11.964 Y36.575
X11.969 Y36.63
X11.958 Y36.684
X11.933 Y36.733
X10.286 Y39.098
G2 X8.275 Y45.509 I9.214 J6.411
G1 X8.288 Y65.384
G3 X8.088 Y65.584 I-0.2 J0
G1 X6.905
G3 X6.705 Y65.384 I0 J-0.2
G1 X6.725 Y24.408
G3 X7.03 Y23.414 I1.775 J0
G1 X7.604 Y22.563
G3 X7.959 Y22.61 I0.166 J0.112
G1 X13.191 Y37.799
X13.201 Y37.845
X13.2 Y37.892
X13.188 Y37.937
X13.166 Y37.979
X12.269 Y39.268
X11.702 Y40.084
G2 X10 Y45.509 I7.798 J5.426
G1 Y64
Y65.397
G3 X9.8 Y65.597 I-0.2 J0
G1 X5.2 Y65.598
G3 X5 Y65.398 I0 J-0.2
G1 Y24.408
G3 X5.601 Y22.448 I3.5 J0
G1 X9.711 Y16.369
G3 X10.076 Y16.473 I0.166 J0.112
G1 X10.843 Y35.249
X10.84 Y35.292
X10.828 Y35.334
X10.807 Y35.372
Z-5
X10.8 Y35.381
X8.889 Y38.127
X8.824 Y38.225
X8.763 Y38.325
X8.64 Y38.526
X8.613 Y38.555
X8.579 Y38.575
X8.54 Y38.583
X8.5 Y38.577
X8.465 Y38.56
X8.436 Y38.533
X8.418 Y38.498
X8.411 Y38.458
Y30.784
G3 X8.787 Y30.689 I0.2 J0
G1 X11.945 Y36.523
X11.964 Y36.575
X11.969 Y36.63
X11.958 Y36.684
X11.933 Y36.733
X10.286 Y39.098
G2 X8.275 Y45.509 I9.214 J6.411
G1 X8.288 Y65.384
G3 X8.088 Y65.584 I-0.2 J0
G1 X6.905
G3 X6.705 Y65.384 I0 J-0.2
G1 X6.725 Y24.408
G3 X7.03 Y23.414 I1.775 J0
G1 X7.604 Y22.563
G3 X7.959 Y22.61 I0.166 J0.112
G1 X13.191 Y37.799
X13.201 Y37.845
X13.2 Y37.892
X13.188 Y37.937
X13.166 Y37.979
X12.269 Y39.268
X11.702 Y40.084
G2 X10 Y45.509 I7.798 J5.426
G1 Y64
Y65.397
G3 X9.8 Y65.597 I-0.2 J0
G1 X5.2 Y65.598
G3 X5 Y65.398 I0 J-0.2
G1 Y24.408
G3 X5.601 Y22.448 I3.5 J0
G1 X9.711 Y16.369
G3 X10.076 Y16.473 I0.166 J0.112
G1 X10.843 Y35.249
X10.84 Y35.292
X10.828 Y35.334
X10.807 Y35.372
Z-6
X10.8 Y35.381
X8.889 Y38.127
X8.824 Y38.225
X8.763 Y38.325
X8.64 Y38.526
X8.613 Y38.555
X8.579 Y38.575
X8.54 Y38.583
X8.5 Y38.577
X8.465 Y38.56
X8.436 Y38.533
X8.418 Y38.498
X8.411 Y38.458
Y30.784
G3 X8.787 Y30.689 I0.2 J0
G1 X11.945 Y36.523
X11.964 Y36.575
X11.969 Y36.63
X11.958 Y36.684
X11.933 Y36.733
X10.286 Y39.098
G2 X8.275 Y45.509 I9.214 J6.411
G1 X8.288 Y65.384
G3 X8.088 Y65.584 I-0.2 J0
G1 X6.905
G3 X6.705 Y65.384 I0 J-0.2
G1 X6.725 Y24.408
G3 X7.03 Y23.414 I1.775 J0
G1 X7.604 Y22.563
G3 X7.959 Y22.61 I0.166 J0.112
G1 X13.191 Y37.799
X13.201 Y37.845
X13.2 Y37.892
X13.188 Y37.937
X13.166 Y37.979
X12.269 Y39.268
X11.702 Y40.084
G2 X10 Y45.509 I7.798 J5.426
G1 Y64
Y65.397
G3 X9.8 Y65.597 I-0.2 J0
G1 X5.2 Y65.598
G3 X5 Y65.398 I0 J-0.2
G1 Y24.408
G3 X5.601 Y22.448 I3.5 J0
G1 X9.711 Y16.369
G3 X10.076 Y16.473 I0.166 J0.112
G1 X10.843 Y35.249
X10.84 Y35.292
X10.828 Y35.334
X10.807 Y35.372
Z-7
X10.8 Y35.381
X8.889 Y38.127
X8.824 Y38.225
X8.763 Y38.325
X8.64 Y38.526
X8.613 Y38.555
X8.579 Y38.575
X8.54 Y38.583
X8.5 Y38.577
X8.465 Y38.56
X8.436 Y38.533
X8.418 Y38.498
X8.411 Y38.458
Y30.784
G3 X8.787 Y30.689 I0.2 J0
G1 X11.945 Y36.523
X11.964 Y36.575
X11.969 Y36.63
X11.958 Y36.684
X11.933 Y36.733
X10.286 Y39.098
G2 X8.275 Y45.509 I9.214 J6.411
G1 X8.288 Y65.384
G3 X8.088 Y65.584 I-0.2 J0
G1 X6.905
G3 X6.705 Y65.384 I0 J-0.2
G1 X6.725 Y24.408
G3 X7.03 Y23.414 I1.775 J0
G1 X7.604 Y22.563
G3 X7.959 Y22.61 I0.166 J0.112
G1 X13.191 Y37.799
X13.201 Y37.845
X13.2 Y37.892
X13.188 Y37.937
X13.166 Y37.979
X12.269 Y39.268
X11.702 Y40.084
G2 X10 Y45.509 I7.798 J5.426
G1 Y64
Y65.397
G3 X9.8 Y65.597 I-0.2 J0
G1 X5.2 Y65.598
G3 X5 Y65.398 I0 J-0.2
G1 Y24.408
G3 X5.601 Y22.448 I3.5 J0
G1 X9.711 Y16.369
G3 X10.076 Y16.473 I0.166 J0.112
G1 X10.843 Y35.249
X10.84 Y35.292
X10.828 Y35.334
X10.807 Y35.372
Z-8
X10.8 Y35.381
X8.889 Y38.127
X8.824 Y38.225
X8.763 Y38.325
X8.64 Y38.526
X8.613 Y38.555
X8.579 Y38.575
X8.54 Y38.583
X8.5 Y38.577
X8.465 Y38.56
X8.436 Y38.533
X8.418 Y38.498
X8.411 Y38.458
Y30.784
G3 X8.787 Y30.689 I0.2 J0
G1 X11.945 Y36.523
X11.964 Y36.575
X11.969 Y36.63
X11.958 Y36.684
X11.933 Y36.733
X10.286 Y39.098
G2 X8.275 Y45.509 I9.214 J6.411
G1 X8.288 Y65.384
G3 X8.088 Y65.584 I-0.2 J0
G1 X6.905
G3 X6.705 Y65.384 I0 J-0.2
G1 X6.725 Y24.408
G3 X7.03 Y23.414 I1.775 J0
G1 X7.604 Y22.563
G3 X7.959 Y22.61 I0.166 J0.112
G1 X13.191 Y37.799
X13.201 Y37.845
X13.2 Y37.892
X13.188 Y37.937
X13.166 Y37.979
X12.269 Y39.268
X11.702 Y40.084
G2 X10 Y45.509 I7.798 J5.426
G1 Y64
Y65.397
G3 X9.8 Y65.597 I-0.2 J0
G1 X5.2 Y65.598
G3 X5 Y65.398 I0 J-0.2
G1 Y24.408
G3 X5.601 Y22.448 I3.5 J0
G1 X9.711 Y16.369
G3 X10.076 Y16.473 I0.166 J0.112
G1 X10.843 Y35.249
X10.84 Y35.292
X10.828 Y35.334
X10.807 Y35.372
Z-9
X10.8 Y35.381
X8.889 Y38.127
X8.824 Y38.225
X8.763 Y38.325
X8.64 Y38.526
X8.613 Y38.555
X8.579 Y38.575
X8.54 Y38.583
X8.5 Y38.577
X8.465 Y38.56
X8.436 Y38.533
X8.418 Y38.498
X8.411 Y38.458
Y30.784
G3 X8.787 Y30.689 I0.2 J0
G1 X11.945 Y36.523
X11.964 Y36.575
X11.969 Y36.63
X11.958 Y36.684
X11.933 Y36.733
X10.286 Y39.098
G2 X8.275 Y45.509 I9.214 J6.411
G1 X8.288 Y65.384
G3 X8.088 Y65.584 I-0.2 J0
G1 X6.905
G3 X6.705 Y65.384 I0 J-0.2
G1 X6.725 Y24.408
G3 X7.03 Y23.414 I1.775 J0
G1 X7.604 Y22.563
G3 X7.959 Y22.61 I0.166 J0.112
G1 X13.191 Y37.799
X13.201 Y37.845
X13.2 Y37.892
X13.188 Y37.937
X13.166 Y37.979
X12.269 Y39.268
X11.702 Y40.084
G2 X10 Y45.509 I7.798 J5.426
G1 Y64
Y65.397
G3 X9.8 Y65.597 I-0.2 J0
G1 X5.2 Y65.598
G3 X5 Y65.398 I0 J-0.2
G1 Y24.408
G3 X5.601 Y22.448 I3.5 J0
G1 X9.711 Y16.369
G3 X10.076 Y16.473 I0.166 J0.112
G1 X10.843 Y35.249
X10.84 Y35.292
X10.828 Y35.334
X10.807 Y35.372
Z-10
X10.8 Y35.381
X8.889 Y38.127
X8.824 Y38.225
X8.763 Y38.325
X8.64 Y38.526
X8.613 Y38.555
X8.579 Y38.575
X8.54 Y38.583
X8.5 Y38.577
X8.465 Y38.56
X8.436 Y38.533
X8.418 Y38.498
X8.411 Y38.458
Y30.784
G3 X8.787 Y30.689 I0.2 J0
G1 X11.945 Y36.523
X11.964 Y36.575
X11.969 Y36.63
X11.958 Y36.684
X11.933 Y36.733
X10.286 Y39.098
G2 X8.275 Y45.509 I9.214 J6.411
G1 X8.288 Y65.384
G3 X8.088 Y65.584 I-0.2 J0
G1 X6.905
G3 X6.705 Y65.384 I0 J-0.2
G1 X6.725 Y24.408
G3 X7.03 Y23.414 I1.775 J0
G1 X7.604 Y22.563
G3 X7.959 Y22.61 I0.166 J0.112
G1 X13.191 Y37.799
X13.201 Y37.845
X13.2 Y37.892
X13.188 Y37.937
X13.166 Y37.979
X12.269 Y39.268
X11.702 Y40.084
G2 X10 Y45.509 I7.798 J5.426
G1 Y64
Y65.397
G3 X9.8 Y65.597 I-0.2 J0
G1 X5.2 Y65.598
G3 X5 Y65.398 I0 J-0.2
G1 Y24.408
G3 X5.601 Y22.448 I3.5 J0
G1 X9.711 Y16.369
G3 X10.076 Y16.473 I0.166 J0.112
G1 X10.843 Y35.249
X10.84 Y35.292
X10.828 Y35.334
X10.807 Y35.372
Z-11
X10.8 Y35.381
X8.889 Y38.127
X8.824 Y38.225
X8.763 Y38.325
X8.64 Y38.526
X8.613 Y38.555
X8.579 Y38.575
X8.54 Y38.583
X8.5 Y38.577
X8.465 Y38.56
X8.436 Y38.533
X8.418 Y38.498
X8.411 Y38.458
Y30.784
G3 X8.787 Y30.689 I0.2 J0
G1 X11.945 Y36.523
X11.964 Y36.575
X11.969 Y36.63
X11.958 Y36.684
X11.933 Y36.733
X10.286 Y39.098
G2 X8.275 Y45.509 I9.214 J6.411
G1 X8.288 Y65.384
G3 X8.088 Y65.584 I-0.2 J0
G1 X6.905
G3 X6.705 Y65.384 I0 J-0.2
G1 X6.725 Y24.408
G3 X7.03 Y23.414 I1.775 J0
G1 X7.604 Y22.563
G3 X7.959 Y22.61 I0.166 J0.112
G1 X13.191 Y37.799
X13.201 Y37.845
X13.2 Y37.892
X13.188 Y37.937
X13.166 Y37.979
X12.269 Y39.268
X11.702 Y40.084
G2 X10 Y45.509 I7.798 J5.426
G1 Y64
Y65.397
G3 X9.8 Y65.597 I-0.2 J0
G1 X5.2 Y65.598
G3 X5 Y65.398 I0 J-0.2
G1 Y24.408
G3 X5.601 Y22.448 I3.5 J0
G1 X9.711 Y16.369
G3 X10.076 Y16.473 I0.166 J0.112
G1 X10.843 Y35.249
X10.84 Y35.292
X10.828 Y35.334
X10.807 Y35.372
Z-12
X10.8 Y35.381
X8.889 Y38.127
X8.824 Y38.225
X8.763 Y38.325
X8.64 Y38.526
X8.613 Y38.555
X8.579 Y38.575
X8.54 Y38.583
X8.5 Y38.577
X8.465 Y38.56
X8.436 Y38.533
X8.418 Y38.498
X8.411 Y38.458
Y30.784
G3 X8.787 Y30.689 I0.2 J0
G1 X11.945 Y36.523
X11.964 Y36.575
X11.969 Y36.63
X11.958 Y36.684
X11.933 Y36.733
X10.286 Y39.098
G2 X8.275 Y45.509 I9.214 J6.411
G1 X8.288 Y65.384
G3 X8.088 Y65.584 I-0.2 J0
G1 X6.905
G3 X6.705 Y65.384 I0 J-0.2
G1 X6.725 Y24.408
G3 X7.03 Y23.414 I1.775 J0
G1 X7.604 Y22.563
G3 X7.959 Y22.61 I0.166 J0.112
G1 X13.191 Y37.799
X13.201 Y37.845
X13.2 Y37.892
X13.188 Y37.937
X13.166 Y37.979
X12.269 Y39.268
X11.702 Y40.084
G2 X10 Y45.509 I7.798 J5.426
G1 Y64
Y65.397
G3 X9.8 Y65.597 I-0.2 J0
G1 X5.2 Y65.598
G3 X5 Y65.398 I0 J-0.2
G1 Y24.408
G3 X5.601 Y22.448 I3.5 J0
G1 X9.711 Y16.369
G3 X10.076 Y16.473 I0.166 J0.112
G1 X10.843 Y35.249
X10.84 Y35.292
X10.828 Y35.334
X10.807 Y35.372
Z-13
X10.8 Y35.381
X8.889 Y38.127
X8.824 Y38.225
X8.763 Y38.325
X8.64 Y38.526
X8.613 Y38.555
X8.579 Y38.575
X8.54 Y38.583
X8.5 Y38.577
X8.465 Y38.56
X8.436 Y38.533
X8.418 Y38.498
X8.411 Y38.458
Y30.784
G3 X8.787 Y30.689 I0.2 J0
G1 X11.945 Y36.523
X11.964 Y36.575
X11.969 Y36.63
X11.958 Y36.684
X11.933 Y36.733
X10.286 Y39.098
G2 X8.275 Y45.509 I9.214 J6.411
G1 X8.288 Y65.384
G3 X8.088 Y65.584 I-0.2 J0
G1 X6.905
G3 X6.705 Y65.384 I0 J-0.2
G1 X6.725 Y24.408
G3 X7.03 Y23.414 I1.775 J0
G1 X7.604 Y22.563
G3 X7.959 Y22.61 I0.166 J0.112
G1 X13.191 Y37.799
X13.201 Y37.845
X13.2 Y37.892
X13.188 Y37.937
X13.166 Y37.979
X12.269 Y39.268
X11.702 Y40.084
G2 X10 Y45.509 I7.798 J5.426
G1 Y64
Y65.397
G3 X9.8 Y65.597 I-0.2 J0
G1 X5.2 Y65.598
G3 X5 Y65.398 I0 J-0.2
G1 Y24.408
G3 X5.601 Y22.448 I3.5 J0
G1 X9.711 Y16.369
G3 X10.076 Y16.473 I0.166 J0.112
G1 X10.843 Y35.249
X10.84 Y35.292
X10.828 Y35.334
X10.807 Y35.372
Z-14
X10.8 Y35.381
X8.889 Y38.127
X8.824 Y38.225
X8.763 Y38.325
X8.64 Y38.526
X8.613 Y38.555
X8.579 Y38.575
X8.54 Y38.583
X8.5 Y38.577
X8.465 Y38.56
X8.436 Y38.533
X8.418 Y38.498
X8.411 Y38.458
Y30.784
G3 X8.787 Y30.689 I0.2 J0
G1 X11.945 Y36.523
X11.964 Y36.575
X11.969 Y36.63
X11.958 Y36.684
X11.933 Y36.733
X10.286 Y39.098
G2 X8.275 Y45.509 I9.214 J6.411
G1 X8.288 Y65.384
G3 X8.088 Y65.584 I-0.2 J0
G1 X6.905
G3 X6.705 Y65.384 I0 J-0.2
G1 X6.725 Y24.408
G3 X7.03 Y23.414 I1.775 J0
G1 X7.604 Y22.563
G3 X7.959 Y22.61 I0.166 J0.112
G1 X13.191 Y37.799
X13.201 Y37.845
X13.2 Y37.892
X13.188 Y37.937
X13.166 Y37.979
X12.269 Y39.268
X11.702 Y40.084
G2 X10 Y45.509 I7.798 J5.426
G1 Y64
Y65.397
G3 X9.8 Y65.597 I-0.2 J0
G1 X5.2 Y65.598
G3 X5 Y65.398 I0 J-0.2
G1 Y24.408
G3 X5.601 Y22.448 I3.5 J0
G1 X9.711 Y16.369
G3 X10.076 Y16.473 I0.166 J0.112
G1 X10.843 Y35.249
X10.84 Y35.292
X10.828 Y35.334
X10.807 Y35.372
Z-15
X10.8 Y35.381
X8.889 Y38.127
X8.824 Y38.225
X8.763 Y38.325
X8.64 Y38.526
X8.613 Y38.555
X8.579 Y38.575
X8.54 Y38.583
X8.5 Y38.577
X8.465 Y38.56
X8.436 Y38.533
X8.418 Y38.498
X8.411 Y38.458
Y30.784
G3 X8.787 Y30.689 I0.2 J0
G1 X11.945 Y36.523
X11.964 Y36.575
X11.969 Y36.63
X11.958 Y36.684
X11.933 Y36.733
X10.286 Y39.098
G2 X8.275 Y45.509 I9.214 J6.411
G1 X8.288 Y65.384
G3 X8.088 Y65.584 I-0.2 J0
G1 X6.905
G3 X6.705 Y65.384 I0 J-0.2
G1 X6.725 Y24.408
G3 X7.03 Y23.414 I1.775 J0
G1 X7.604 Y22.563
G3 X7.959 Y22.61 I0.166 J0.112
G1 X13.191 Y37.799
X13.201 Y37.845
X13.2 Y37.892
X13.188 Y37.937
X13.166 Y37.979
X12.269 Y39.268
X11.702 Y40.084
G2 X10 Y45.509 I7.798 J5.426
G1 Y64
Y65.397
G3 X9.8 Y65.597 I-0.2 J0
G1 X5.2 Y65.598
G3 X5 Y65.398 I0 J-0.2
G1 Y24.408
G3 X5.601 Y22.448 I3.5 J0
G1 X9.711 Y16.369
G0 Z6

(2D Contour8 3)
X42.5 Y25
Z4
Z2
G1 Z-1 F333.3
G3 X7.5 Y25 I-17.5 J0 F700
X42.5 Y25 I17.5 J0
G1 Z-2 F333.3
G3 X7.5 Y25 I-17.5 J0 F700
X42.5 Y25 I17.5 J0
G1 Z-3 F333.3
G3 X7.5 Y25 I-17.5 J0 F700
X42.5 Y25 I17.5 J0
G1 Z-4 F333.3
G3 X7.5 Y25 I-17.5 J0 F700
X42.5 Y25 I17.5 J0
G1 Z-5 F333.3
G3 X7.5 Y25 I-17.5 J0 F700
X42.5 Y25 I17.5 J0
G1 Z-6 F333.3
G3 X7.5 Y25 I-17.5 J0 F700
X42.5 Y25 I17.5 J0
G1 Z-7 F333.3
G3 X7.5 Y25 I-17.5 J0 F700
X42.5 Y25 I17.5 J0
G1 Z-8 F333.3
G3 X7.5 Y25 I-17.5 J0 F700
X42.5 Y25 I17.5 J0
G1 Z-9 F333.3
G3 X7.5 Y25 I-17.5 J0 F700
X42.5 Y25 I17.5 J0
G1 Z-10 F333.3
G3 X7.5 Y25 I-17.5 J0 F700
X42.5 Y25 I17.5 J0
G1 Z-11 F333.3
G3 X7.5 Y25 I-17.5 J0 F700
X42.5 Y25 I17.5 J0
G1 Z-12 F333.3
G3 X7.5 Y25 I-17.5 J0 F700
X42.5 Y25 I17.5 J0
G1 Z-13 F333.3
G3 X7.5 Y25 I-17.5 J0 F700
X42.5 Y25 I17.5 J0
G1 Z-14 F333.3
G3 X7.5 Y25 I-17.5 J0 F700
X42.5 Y25 I17.5 J0
G1 Z-15 F333.3
G3 X7.5 Y25 I-17.5 J0 F700
X42.5 Y25 I17.5 J0
G1 Z-16 F333.3
G3 X7.5 Y25 I-17.5 J0 F700
X42.5 Y25 I17.5 J0
G1 Z-17 F333.3
G3 X7.5 Y25 I-17.5 J0 F700
X42.5 Y25 I17.5 J0
G1 Z-18 F333.3
G3 X39.313 Y35.07 I-17.5 J0 F700
G1 Z-17.25
G3 X35.07 Y39.313 I-14.313 J-10.07
G1 Z-18 F333.3
G3 X14.93 Y39.313 I-10.07 J-14.313 F700
G1 Z-17.25
G3 X10.687 Y35.07 I10.07 J-14.313
G1 Z-18 F333.3
G3 X10.687 Y14.93 I14.313 J-10.07 F700
G1 Z-17.25
G3 X14.93 Y10.687 I14.313 J10.07
G1 Z-18 F333.3
G3 X35.07 Y10.687 I10.07 J14.313 F700
G1 Z-17.25
G3 X39.313 Y14.93 I-10.07 J14.313
G1 Z-18 F333.3
G3 X42.5 Y25 I-14.313 J10.07 F700
G0 Z4

(2D Contour8 2)
X15.197 Y66.487
Z4
Z2
G1 Z-1 F333.3
G2 X16.5 Y65 I-0.197 J-1.487 F700
G1 Y57.193
G3 X21.531 Y51.272 I6 J0
G2 X40.432 Y46.543 I3.469 J-26.272
X44.999 Y7.613 I-15.432 J-21.543
X-1.5 Y25 I-19.999 J17.387
G1 Y65
G2 X0 Y66.5 I1.5 J0
G1 X3.5
G2 X4.914 Y65.5 I0 J-1.5
G1 X10.086
G2 X11.5 Y66.5 I1.414 J-0.5
G1 X15
X15.099 Y66.497
X15.197 Y66.487
Z-2 F333.3
G2 X16.5 Y65 I-0.197 J-1.487 F700
G1 Y57.193
G3 X21.531 Y51.272 I6 J0
G2 X40.432 Y46.543 I3.469 J-26.272
X44.999 Y7.613 I-15.432 J-21.543
X-1.5 Y25 I-19.999 J17.387
G1 Y65
G2 X0 Y66.5 I1.5 J0
G1 X3.5
G2 X4.914 Y65.5 I0 J-1.5
G1 X10.086
G2 X11.5 Y66.5 I1.414 J-0.5
G1 X15
X15.099 Y66.497
X15.197 Y66.487
Z-3 F333.3
G2 X16.5 Y65 I-0.197 J-1.487 F700
G1 Y57.193
G3 X21.531 Y51.272 I6 J0
G2 X40.432 Y46.543 I3.469 J-26.272
X44.999 Y7.613 I-15.432 J-21.543
X-1.5 Y25 I-19.999 J17.387
G1 Y65
G2 X0 Y66.5 I1.5 J0
G1 X3.5
G2 X4.914 Y65.5 I0 J-1.5
G1 X10.086
G2 X11.5 Y66.5 I1.414 J-0.5
G1 X15
X15.099 Y66.497
X15.197 Y66.487
Z-4 F333.3
G2 X16.5 Y65 I-0.197 J-1.487 F700
G1 Y57.193
G3 X21.531 Y51.272 I6 J0
G2 X40.432 Y46.543 I3.469 J-26.272
X44.999 Y7.613 I-15.432 J-21.543
X-1.5 Y25 I-19.999 J17.387
G1 Y65
G2 X0 Y66.5 I1.5 J0
G1 X3.5
G2 X4.914 Y65.5 I0 J-1.5
G1 X10.086
G2 X11.5 Y66.5 I1.414 J-0.5
G1 X15
X15.099 Y66.497
X15.197 Y66.487
Z-5 F333.3
G2 X16.5 Y65 I-0.197 J-1.487 F700
G1 Y57.193
G3 X21.531 Y51.272 I6 J0
G2 X40.432 Y46.543 I3.469 J-26.272
X44.999 Y7.613 I-15.432 J-21.543
X-1.5 Y25 I-19.999 J17.387
G1 Y65
G2 X0 Y66.5 I1.5 J0
G1 X3.5
G2 X4.914 Y65.5 I0 J-1.5
G1 X10.086
G2 X11.5 Y66.5 I1.414 J-0.5
G1 X15
X15.099 Y66.497
X15.197 Y66.487
Z-6 F333.3
G2 X16.5 Y65 I-0.197 J-1.487 F700
G1 Y57.193
G3 X21.531 Y51.272 I6 J0
G2 X40.432 Y46.543 I3.469 J-26.272
X44.999 Y7.613 I-15.432 J-21.543
X-1.5 Y25 I-19.999 J17.387
G1 Y65
G2 X0 Y66.5 I1.5 J0
G1 X3.5
G2 X4.914 Y65.5 I0 J-1.5
G1 X10.086
G2 X11.5 Y66.5 I1.414 J-0.5
G1 X15
X15.099 Y66.497
X15.197 Y66.487
Z-7 F333.3
G2 X16.5 Y65 I-0.197 J-1.487 F700
G1 Y57.193
G3 X21.531 Y51.272 I6 J0
G2 X40.432 Y46.543 I3.469 J-26.272
X44.999 Y7.613 I-15.432 J-21.543
X-1.5 Y25 I-19.999 J17.387
G1 Y65
G2 X0 Y66.5 I1.5 J0
G1 X3.5
G2 X4.914 Y65.5 I0 J-1.5
G1 X10.086
G2 X11.5 Y66.5 I1.414 J-0.5
G1 X15
X15.099 Y66.497
X15.197 Y66.487
Z-8 F333.3
G2 X16.5 Y65 I-0.197 J-1.487 F700
G1 Y57.193
G3 X21.531 Y51.272 I6 J0
G2 X40.432 Y46.543 I3.469 J-26.272
X44.999 Y7.613 I-15.432 J-21.543
X-1.5 Y25 I-19.999 J17.387
G1 Y65
G2 X0 Y66.5 I1.5 J0
G1 X3.5
G2 X4.914 Y65.5 I0 J-1.5
G1 X10.086
G2 X11.5 Y66.5 I1.414 J-0.5
G1 X15
X15.099 Y66.497
X15.197 Y66.487
Z-9 F333.3
G2 X16.5 Y65 I-0.197 J-1.487 F700
G1 Y57.193
G3 X21.531 Y51.272 I6 J0
G2 X40.432 Y46.543 I3.469 J-26.272
X44.999 Y7.613 I-15.432 J-21.543
X-1.5 Y25 I-19.999 J17.387
G1 Y65
G2 X0 Y66.5 I1.5 J0
G1 X3.5
G2 X4.914 Y65.5 I0 J-1.5
G1 X10.086
G2 X11.5 Y66.5 I1.414 J-0.5
G1 X15
X15.099 Y66.497
X15.197 Y66.487
Z-10 F333.3
G2 X16.5 Y65 I-0.197 J-1.487 F700
G1 Y57.193
G3 X21.531 Y51.272 I6 J0
G2 X40.432 Y46.543 I3.469 J-26.272
X44.999 Y7.613 I-15.432 J-21.543
X-1.5 Y25 I-19.999 J17.387
G1 Y65
G2 X0 Y66.5 I1.5 J0
G1 X3.5
G2 X4.914 Y65.5 I0 J-1.5
G1 X10.086
G2 X11.5 Y66.5 I1.414 J-0.5
G1 X15
X15.099 Y66.497
X15.197 Y66.487
Z-11 F333.3
G2 X16.5 Y65 I-0.197 J-1.487 F700
G1 Y57.193
G3 X21.531 Y51.272 I6 J0
G2 X40.432 Y46.543 I3.469 J-26.272
X44.999 Y7.613 I-15.432 J-21.543
X-1.5 Y25 I-19.999 J17.387
G1 Y65
G2 X0 Y66.5 I1.5 J0
G1 X3.5
G2 X4.914 Y65.5 I0 J-1.5
G1 X10.086
G2 X11.5 Y66.5 I1.414 J-0.5
G1 X15
X15.099 Y66.497
X15.197 Y66.487
Z-12 F333.3
G2 X16.5 Y65 I-0.197 J-1.487 F700
G1 Y57.193
G3 X21.531 Y51.272 I6 J0
G2 X40.432 Y46.543 I3.469 J-26.272
X44.999 Y7.613 I-15.432 J-21.543
X-1.5 Y25 I-19.999 J17.387
G1 Y65
G2 X0 Y66.5 I1.5 J0
G1 X3.5
G2 X4.914 Y65.5 I0 J-1.5
G1 X10.086
G2 X11.5 Y66.5 I1.414 J-0.5
G1 X15
X15.099 Y66.497
X15.197 Y66.487
Z-13 F333.3
G2 X16.5 Y65 I-0.197 J-1.487 F700
G1 Y57.193
G3 X21.531 Y51.272 I6 J0
G2 X40.432 Y46.543 I3.469 J-26.272
X44.999 Y7.613 I-15.432 J-21.543
X-1.5 Y25 I-19.999 J17.387
G1 Y65
G2 X0 Y66.5 I1.5 J0
G1 X3.5
G2 X4.914 Y65.5 I0 J-1.5
G1 X10.086
G2 X11.5 Y66.5 I1.414 J-0.5
G1 X15
X15.099 Y66.497
X15.197 Y66.487
Z-14 F333.3
G2 X16.5 Y65 I-0.197 J-1.487 F700
G1 Y57.193
G3 X21.531 Y51.272 I6 J0
G2 X40.432 Y46.543 I3.469 J-26.272
X44.999 Y7.613 I-15.432 J-21.543
X-1.5 Y25 I-19.999 J17.387
G1 Y65
G2 X0 Y66.5 I1.5 J0
G1 X3.5
G2 X4.914 Y65.5 I0 J-1.5
G1 X10.086
G2 X11.5 Y66.5 I1.414 J-0.5
G1 X15
X15.099 Y66.497
X15.197 Y66.487
Z-15 F333.3
G2 X16.5 Y65 I-0.197 J-1.487 F700
G1 Y57.193
G3 X21.531 Y51.272 I6 J0
G2 X40.432 Y46.543 I3.469 J-26.272
X44.999 Y7.613 I-15.432 J-21.543
X-1.5 Y25 I-19.999 J17.387
G1 Y65
G2 X0 Y66.5 I1.5 J0
G1 X3.5
G2 X4.914 Y65.5 I0 J-1.5
G1 X10.086
G2 X11.5 Y66.5 I1.414 J-0.5
G1 X15
X15.099 Y66.497
X15.197 Y66.487
Z-16 F333.3
G2 X16.5 Y65 I-0.197 J-1.487 F700
G1 Y57.193
G3 X21.531 Y51.272 I6 J0
G2 X40.432 Y46.543 I3.469 J-26.272
X44.999 Y7.613 I-15.432 J-21.543
X-1.5 Y25 I-19.999 J17.387
G1 Y65
G2 X0 Y66.5 I1.5 J0
G1 X3.5
G2 X4.914 Y65.5 I0 J-1.5
G1 X10.086
G2 X11.5 Y66.5 I1.414 J-0.5
G1 X15
X15.099 Y66.497
X15.197 Y66.487
Z-17 F333.3
G2 X16.5 Y65 I-0.197 J-1.487 F700
G1 Y57.193
G3 X21.531 Y51.272 I6 J0
G2 X40.432 Y46.543 I3.469 J-26.272
X44.999 Y7.613 I-15.432 J-21.543
X-1.5 Y25 I-19.999 J17.387
G1 Y65
G2 X0 Y66.5 I1.5 J0
G1 X3.5
G2 X4.914 Y65.5 I0 J-1.5
G1 X10.086
G2 X11.5 Y66.5 I1.414 J-0.5
G1 X15
X15.099 Y66.497
X15.197 Y66.487
Z-18 F333.3
G2 X16.5 Y65 I-0.197 J-1.487 F700
G1 Y57.193
G3 X21.531 Y51.272 I6 J0
G2 X31.099 Y50.789 I3.469 J-26.272
G1 Z-17.25
G2 X36.744 Y48.756 I-6.099 J-25.789
G1 Z-18 F333.3
G2 X40.432 Y46.543 I-11.744 J-23.756 F700
X49.724 Y34.538 I-15.432 J-21.543
G1 Z-17.25
G2 X51.236 Y28.732 I-24.724 J-9.538
G1 Z-18 F333.3
G2 X46.839 Y9.989 I-26.236 J-3.732 F700
G1 Z-17.25
G2 X44.999 Y7.613 I-21.839 J15.011
X42.902 Y5.461 I-19.999 J17.387
G1 Z-18 F333.3
G2 X24.953 Y-1.5 I-17.902 J19.539 F700
G1 Z-17.25
G2 X18.993 Y-0.81 I0.047 J26.5
G1 Z-18 F333.3
G2 X3.108 Y10.067 I6.007 J25.81 F700
G1 Z-17.25
G2 X0.31 Y15.374 I21.892 J14.933
G1 Z-18 F333.3
G2 X-1.5 Y25 I24.69 J9.626 F700
G1 Y42
Z-17.25
Y48
Z-18 F333.3
Y65 F700
G2 X0 Y66.5 I1.5 J0
G1 X3.5
G2 X4.914 Y65.5 I0 J-1.5
G1 X10.086
G2 X11.5 Y66.5 I1.414 J-0.5
G1 X15
X15.099 Y66.497
X15.197 Y66.487
G0 Z4
M9
M5
M30
