(1001)
(T4  D=3 CR=0 - ZMIN=-18 - flat end mill)
G90 G94
G17
G21

(2D Pocket3)
T4
S15000 M3
G54
M8
G0 X16.776 Y28.783
Z6
Z2
G1 Z1.5 F700
Z-0.5
X16.753 Y28.777
G2 X15.628 Y28.517 I-3.412 J12.216
G3 X15.301 Y28.125 I0.072 J-0.392
G1 Y26.904
G3 X15.532 Y26.15 I1.345 J0
G1 X15.951 Y25.54
G2 X15.981 Y23.329 I-1.642 J-1.128
G3 X16.01 Y21.117 I1.674 J-1.083
G1 X17.039 Y19.617
G3 X32.961 Y30.383 I7.961 J5.383
X19.184 Y32.65 I-7.961 J-5.383
G2 X16.332 Y31.195 I-5.459 J7.179
X13.158 Y30.786 I-2.817 J9.33
G3 X12.845 Y30.485 I-0.011 J-0.301
G1 Y26.401
G3 X13.216 Y25.191 I2.161 J0
G1 X16.01 Y21.117
G2 X16.011 Y19.046 I-1.511 J-1.036
G3 X16.152 Y16.979 I1.379 J-0.944
X33.848 Y33.021 I8.848 J8.021
X17.772 Y34.507 I-8.848 J-8.021
G2 X14.399 Y33.147 I-4.172 J5.487
X10.798 Y33.654 I-0.832 J7.136
G3 X10.513 Y33.464 I-0.079 J-0.19
G1 Y25.687
G3 X10.883 Y24.476 I2.161 J0
G1 X15.107 Y18.31
G3 X16.152 Y16.979 I9.893 J6.69
G2 X16.456 Y15.211 I-1.239 J-1.123
G3 X16.956 Y13.487 I1.319 J-0.552
X33.044 Y36.512 I8.044 J11.512
X16.5 Y36.18 I-8.044 J-11.512
G2 X9.433 Y37.295 I-2.999 J3.945
X9.031 Y37.907 I10.931 J7.605
G3 X8.64 Y38.526 I-29.335 J-18.101
G1 X8.613 Y38.555
X8.579 Y38.575
X8.54 Y38.583
X8.5 Y38.578
X8.465 Y38.56
X8.436 Y38.533
X8.418 Y38.498
X8.411 Y38.458
Y25.03
G3 X8.775 Y23.843 I2.118 J0
X11.07 Y20.488 I310.429 J209.91
G2 X13.366 Y17.133 I-308.157 J-213.281
G3 X16.956 Y13.487 I11.634 J7.867
G0 Z4
X6.708 Y65.408
Z2
G1 Z1.5 F700
Z-0.5
Y65.384
X6.725 Y24.408
G3 X7.03 Y23.414 I1.775 J0
G1 X11.932 Y16.164
G3 X38.068 Y33.836 I13.068 J8.836
X15.452 Y37.558 I-13.068 J-8.836
G2 X10.853 Y38.283 I-1.952 J2.567
G1 X10.286 Y39.098
G2 X8.275 Y45.509 I9.214 J6.411
G1 X8.285 Y65.384
G3 X8.086 Y65.584 I-0.2 J0
G1 X5.201 Y65.598
G3 X5 Y65.398 I-0.001 J-0.2
G1 Y24.408
G3 X5.601 Y22.448 I3.5 J0
G1 X10.503 Y15.197
G3 X39.497 Y34.803 I14.497 J9.803
X14.408 Y38.931 I-14.497 J-9.803
G2 X12.269 Y39.268 I-0.908 J1.194
G1 X11.702 Y40.084
G2 X10 Y45.509 I7.798 J5.426
G1 Y64
Y65.397
G3 X8.376 Y65.66 I-0.833 J0
G1 X7.543 Y63.16
G3 X7.5 Y62.897 I0.791 J-0.264
X7.746 Y44.567 I682.252 J0
X15.756 Y28.078 I22.205 J0.597
G1 X15.815 Y28.035
X15.878 Y27.999
X16.663 Y27.607
G3 X17.229 Y28.74 I0.283 J0.567
X16.776 Y28.783 I-0.283 J-0.567
G1 Z-1
X16.753 Y28.777
G2 X15.628 Y28.517 I-3.412 J12.216
G3 X15.301 Y28.125 I0.072 J-0.392
G1 Y26.904
G3 X15.532 Y26.15 I1.345 J0
G1 X15.951 Y25.54
G2 X15.981 Y23.329 I-1.642 J-1.128
G3 X16.01 Y21.117 I1.674 J-1.083
G1 X17.039 Y19.617
G3 X32.961 Y30.383 I7.961 J5.383
X19.184 Y32.65 I-7.961 J-5.383
G2 X16.332 Y31.195 I-5.459 J7.179
X13.158 Y30.786 I-2.817 J9.33
G3 X12.845 Y30.485 I-0.011 J-0.301
G1 Y26.401
G3 X13.216 Y25.191 I2.161 J0
G1 X16.01 Y21.117
G2 X16.011 Y19.046 I-1.511 J-1.036
G3 X16.152 Y16.979 I1.379 J-0.944
X33.848 Y33.021 I8.848 J8.021
X17.772 Y34.507 I-8.848 J-8.021
G2 X14.399 Y33.147 I-4.172 J5.487
X10.798 Y33.654 I-0.832 J7.136
G3 X10.513 Y33.464 I-0.079 J-0.19
G1 Y25.687
G3 X10.883 Y24.476 I2.161 J0
G1 X15.107 Y18.31
G3 X16.152 Y16.979 I9.893 J6.69
G2 X16.456 Y15.211 I-1.239 J-1.123
G3 X16.956 Y13.487 I1.319 J-0.552
X33.044 Y36.512 I8.044 J11.512
X16.5 Y36.18 I-8.044 J-11.512
G2 X9.433 Y37.295 I-2.999 J3.945
X9.031 Y37.907 I10.931 J7.605
G3 X8.64 Y38.526 I-29.335 J-18.101
G1 X8.613 Y38.555
X8.579 Y38.575
X8.54 Y38.583
X8.5 Y38.578
X8.465 Y38.56
X8.436 Y38.533
X8.418 Y38.498
X8.411 Y38.458
Y25.03
G3 X8.775 Y23.843 I2.118 J0
X11.07 Y20.488 I310.429 J209.91
G2 X13.366 Y17.133 I-308.157 J-213.281
G3 X16.956 Y13.487 I11.634 J7.867
G0 Z4
X6.708 Y65.408
Z2
G1 Z1 F700
Z-1
Y65.384
X6.725 Y24.408
G3 X7.03 Y23.414 I1.775 J0
G1 X11.932 Y16.164
G3 X38.068 Y33.836 I13.068 J8.836
X15.452 Y37.558 I-13.068 J-8.836
G2 X10.853 Y38.283 I-1.952 J2.567
G1 X10.286 Y39.098
G2 X8.275 Y45.509 I9.214 J6.411
G1 X8.285 Y65.384
G3 X8.086 Y65.584 I-0.2 J0
G1 X5.201 Y65.598
G3 X5 Y65.398 I-0.001 J-0.2
G1 Y24.408
G3 X5.601 Y22.448 I3.5 J0
G1 X10.503 Y15.197
G3 X39.497 Y34.803 I14.497 J9.803
X14.408 Y38.931 I-14.497 J-9.803
G2 X12.269 Y39.268 I-0.908 J1.194
G1 X11.702 Y40.084
G2 X10 Y45.509 I7.798 J5.426
G1 Y64
Y65.397
G3 X8.376 Y65.66 I-0.833 J0
G1 X7.543 Y63.16
G3 X7.5 Y62.897 I0.791 J-0.264
X7.746 Y44.567 I682.252 J0
X15.756 Y28.078 I22.205 J0.597
G1 X15.815 Y28.035
X15.878 Y27.999
X16.663 Y27.607
G3 X17.229 Y28.74 I0.283 J0.567
X16.776 Y28.783 I-0.283 J-0.567
G1 Z-1.5
X16.753 Y28.777
G2 X15.628 Y28.517 I-3.412 J12.216
G3 X15.301 Y28.125 I0.072 J-0.392
G1 Y26.904
G3 X15.532 Y26.15 I1.345 J0
G1 X15.951 Y25.54
G2 X15.981 Y23.329 I-1.642 J-1.128
G3 X16.01 Y21.117 I1.674 J-1.083
G1 X17.039 Y19.617
G3 X32.961 Y30.383 I7.961 J5.383
X19.184 Y32.65 I-7.961 J-5.383
G2 X16.332 Y31.195 I-5.459 J7.179
X13.158 Y30.786 I-2.817 J9.33
G3 X12.845 Y30.485 I-0.011 J-0.301
G1 Y26.401
G3 X13.216 Y25.191 I2.161 J0
G1 X16.01 Y21.117
G2 X16.011 Y19.046 I-1.511 J-1.036
G3 X16.152 Y16.979 I1.379 J-0.944
X33.848 Y33.021 I8.848 J8.021
X17.772 Y34.507 I-8.848 J-8.021
G2 X14.399 Y33.147 I-4.172 J5.487
X10.798 Y33.654 I-0.832 J7.136
G3 X10.513 Y33.464 I-0.079 J-0.19
G1 Y25.687
G3 X10.883 Y24.476 I2.161 J0
G1 X15.107 Y18.31
G3 X16.152 Y16.979 I9.893 J6.69
G2 X16.456 Y15.211 I-1.239 J-1.123
G3 X16.956 Y13.487 I1.319 J-0.552
X33.044 Y36.512 I8.044 J11.512
X16.5 Y36.18 I-8.044 J-11.512
G2 X9.433 Y37.295 I-2.999 J3.945
X9.031 Y37.907 I10.931 J7.605
G3 X8.64 Y38.526 I-29.335 J-18.101
G1 X8.613 Y38.555
X8.579 Y38.575
X8.54 Y38.583
X8.5 Y38.578
X8.465 Y38.56
X8.436 Y38.533
X8.418 Y38.498
X8.411 Y38.458
Y25.03
G3 X8.775 Y23.843 I2.118 J0
X11.07 Y20.488 I310.429 J209.91
G2 X13.366 Y17.133 I-308.157 J-213.281
G3 X16.956 Y13.487 I11.634 J7.867
G0 Z4
X6.708 Y65.408
Z2
G1 Z0.5 F700
Z-1.5
Y65.384
X6.725 Y24.408
G3 X7.03 Y23.414 I1.775 J0
G1 X11.932 Y16.164
G3 X38.068 Y33.836 I13.068 J8.836
X15.452 Y37.558 I-13.068 J-8.836
G2 X10.853 Y38.283 I-1.952 J2.567
G1 X10.286 Y39.098
G2 X8.275 Y45.509 I9.214 J6.411
G1 X8.285 Y65.384
G3 X8.086 Y65.584 I-0.2 J0
G1 X5.201 Y65.598
G3 X5 Y65.398 I-0.001 J-0.2
G1 Y24.408
G3 X5.601 Y22.448 I3.5 J0
G1 X10.503 Y15.197
G3 X39.497 Y34.803 I14.497 J9.803
X14.408 Y38.931 I-14.497 J-9.803
G2 X12.269 Y39.268 I-0.908 J1.194
G1 X11.702 Y40.084
G2 X10 Y45.509 I7.798 J5.426
G1 Y64
Y65.397
G3 X8.376 Y65.66 I-0.833 J0
G1 X7.543 Y63.16
G3 X7.5 Y62.897 I0.791 J-0.264
X7.746 Y44.567 I682.252 J0
X15.756 Y28.078 I22.205 J0.597
G1 X15.815 Y28.035
X15.878 Y27.999
X16.663 Y27.607
G3 X17.229 Y28.74 I0.283 J0.567
X16.776 Y28.783 I-0.283 J-0.567
G1 Z-2
X16.753 Y28.777
G2 X15.628 Y28.517 I-3.412 J12.216
G3 X15.301 Y28.125 I0.072 J-0.392
G1 Y26.904
G3 X15.532 Y26.15 I1.345 J0
G1 X15.951 Y25.54
G2 X15.981 Y23.329 I-1.642 J-1.128
G3 X16.01 Y21.117 I1.674 J-1.083
G1 X17.039 Y19.617
G3 X32.961 Y30.383 I7.961 J5.383
X19.184 Y32.65 I-7.961 J-5.383
G2 X16.332 Y31.195 I-5.459 J7.179
X13.158 Y30.786 I-2.817 J9.33
G3 X12.845 Y30.485 I-0.011 J-0.301
G1 Y26.401
G3 X13.216 Y25.191 I2.161 J0
G1 X16.01 Y21.117
G2 X16.011 Y19.046 I-1.511 J-1.036
G3 X16.152 Y16.979 I1.379 J-0.944
X33.848 Y33.021 I8.848 J8.021
X17.772 Y34.507 I-8.848 J-8.021
G2 X14.399 Y33.147 I-4.172 J5.487
X10.798 Y33.654 I-0.832 J7.136
G3 X10.513 Y33.464 I-0.079 J-0.19
G1 Y25.687
G3 X10.883 Y24.476 I2.161 J0
G1 X15.107 Y18.31
G3 X16.152 Y16.979 I9.893 J6.69
G2 X16.456 Y15.211 I-1.239 J-1.123
G3 X16.956 Y13.487 I1.319 J-0.552
X33.044 Y36.512 I8.044 J11.512
X16.5 Y36.18 I-8.044 J-11.512
G2 X9.433 Y37.295 I-2.999 J3.945
X9.031 Y37.907 I10.931 J7.605
G3 X8.64 Y38.526 I-29.335 J-18.101
G1 X8.613 Y38.555
X8.579 Y38.575
X8.54 Y38.583
X8.5 Y38.578
X8.465 Y38.56
X8.436 Y38.533
X8.418 Y38.498
X8.411 Y38.458
Y25.03
G3 X8.775 Y23.843 I2.118 J0
X11.07 Y20.488 I310.429 J209.91
G2 X13.366 Y17.133 I-308.157 J-213.281
G3 X16.956 Y13.487 I11.634 J7.867
G0 Z4
X6.708 Y65.408
Z2
G1 Z0 F700
Z-2
Y65.384
X6.725 Y24.408
G3 X7.03 Y23.414 I1.775 J0
G1 X11.932 Y16.164
G3 X38.068 Y33.836 I13.068 J8.836
X15.452 Y37.558 I-13.068 J-8.836
G2 X10.853 Y38.283 I-1.952 J2.567
G1 X10.286 Y39.098
G2 X8.275 Y45.509 I9.214 J6.411
G1 X8.285 Y65.384
G3 X8.086 Y65.584 I-0.2 J0
G1 X5.201 Y65.598
G3 X5 Y65.398 I-0.001 J-0.2
G1 Y24.408
G3 X5.601 Y22.448 I3.5 J0
G1 X10.503 Y15.197
G3 X39.497 Y34.803 I14.497 J9.803
X14.408 Y38.931 I-14.497 J-9.803
G2 X12.269 Y39.268 I-0.908 J1.194
G1 X11.702 Y40.084
G2 X10 Y45.509 I7.798 J5.426
G1 Y64
Y65.397
G3 X8.376 Y65.66 I-0.833 J0
G1 X7.543 Y63.16
G3 X7.5 Y62.897 I0.791 J-0.264
X7.746 Y44.567 I682.252 J0
X15.756 Y28.078 I22.205 J0.597
G1 X15.815 Y28.035
X15.878 Y27.999
X16.663 Y27.607
G3 X17.229 Y28.74 I0.283 J0.567
X16.776 Y28.783 I-0.283 J-0.567
G1 Z-2.5
X16.753 Y28.777
G2 X15.628 Y28.517 I-3.412 J12.216
G3 X15.301 Y28.125 I0.072 J-0.392
G1 Y26.904
G3 X15.532 Y26.15 I1.345 J0
G1 X15.951 Y25.54
G2 X15.981 Y23.329 I-1.642 J-1.128
G3 X16.01 Y21.117 I1.674 J-1.083
G1 X17.039 Y19.617
G3 X32.961 Y30.383 I7.961 J5.383
X19.184 Y32.65 I-7.961 J-5.383
G2 X16.332 Y31.195 I-5.459 J7.179
X13.158 Y30.786 I-2.817 J9.33
G3 X12.845 Y30.485 I-0.011 J-0.301
G1 Y26.401
G3 X13.216 Y25.191 I2.161 J0
G1 X16.01 Y21.117
G2 X16.011 Y19.046 I-1.511 J-1.036
G3 X16.152 Y16.979 I1.379 J-0.944
X33.848 Y33.021 I8.848 J8.021
X17.772 Y34.507 I-8.848 J-8.021
G2 X14.399 Y33.147 I-4.172 J5.487
X10.798 Y33.654 I-0.832 J7.136
G3 X10.513 Y33.464 I-0.079 J-0.19
G1 Y25.687
G3 X10.883 Y24.476 I2.161 J0
G1 X15.107 Y18.31
G3 X16.152 Y16.979 I9.893 J6.69
G2 X16.456 Y15.211 I-1.239 J-1.123
G3 X16.956 Y13.487 I1.319 J-0.552
X33.044 Y36.512 I8.044 J11.512
X16.5 Y36.18 I-8.044 J-11.512
G2 X9.433 Y37.295 I-2.999 J3.945
X9.031 Y37.907 I10.931 J7.605
G3 X8.64 Y38.526 I-29.335 J-18.101
G1 X8.613 Y38.555
X8.579 Y38.575
X8.54 Y38.583
X8.5 Y38.578
X8.465 Y38.56
X8.436 Y38.533
X8.418 Y38.498
X8.411 Y38.458
Y25.03
G3 X8.775 Y23.843 I2.118 J0
X11.07 Y20.488 I310.429 J209.91
G2 X13.366 Y17.133 I-308.157 J-213.281
G3 X16.956 Y13.487 I11.634 J7.867
G0 Z4
X6.708 Y65.408
Z2
G1 Z-0.5 F700
Z-2.5
Y65.384
X6.725 Y24.408
G3 X7.03 Y23.414 I1.775 J0
G1 X11.932 Y16.164
G3 X38.068 Y33.836 I13.068 J8.836
X15.452 Y37.558 I-13.068 J-8.836
G2 X10.853 Y38.283 I-1.952 J2.567
G1 X10.286 Y39.098
G2 X8.275 Y45.509 I9.214 J6.411
G1 X8.285 Y65.384
G3 X8.086 Y65.584 I-0.2 J0
G1 X5.201 Y65.598
G3 X5 Y65.398 I-0.001 J-0.2
G1 Y24.408
G3 X5.601 Y22.448 I3.5 J0
G1 X10.503 Y15.197
G3 X39.497 Y34.803 I14.497 J9.803
X14.408 Y38.931 I-14.497 J-9.803
G2 X12.269 Y39.268 I-0.908 J1.194
G1 X11.702 Y40.084
G2 X10 Y45.509 I7.798 J5.426
G1 Y64
Y65.397
G3 X8.376 Y65.66 I-0.833 J0
G1 X7.543 Y63.16
G3 X7.5 Y62.897 I0.791 J-0.264
X7.746 Y44.567 I682.252 J0
X15.756 Y28.078 I22.205 J0.597
G1 X15.815 Y28.035
X15.878 Y27.999
X16.663 Y27.607
G3 X17.229 Y28.74 I0.283 J0.567
X16.776 Y28.783 I-0.283 J-0.567
G1 Z-3
X16.753 Y28.777
G2 X15.628 Y28.517 I-3.412 J12.216
G3 X15.301 Y28.125 I0.072 J-0.392
G1 Y26.904
G3 X15.532 Y26.15 I1.345 J0
G1 X15.951 Y25.54
G2 X15.981 Y23.329 I-1.642 J-1.128
G3 X16.01 Y21.117 I1.674 J-1.083
G1 X17.039 Y19.617
G3 X32.961 Y30.383 I7.961 J5.383
X19.184 Y32.65 I-7.961 J-5.383
G2 X16.332 Y31.195 I-5.459 J7.179
X13.158 Y30.786 I-2.817 J9.33
G3 X12.845 Y30.485 I-0.011 J-0.301
G1 Y26.401
G3 X13.216 Y25.191 I2.161 J0
G1 X16.01 Y21.117
G2 X16.011 Y19.046 I-1.511 J-1.036
G3 X16.152 Y16.979 I1.379 J-0.944
X33.848 Y33.021 I8.848 J8.021
X17.772 Y34.507 I-8.848 J-8.021
G2 X14.399 Y33.147 I-4.172 J5.487
X10.798 Y33.654 I-0.832 J7.136
G3 X10.513 Y33.464 I-0.079 J-0.19
G1 Y25.687
G3 X10.883 Y24.476 I2.161 J0
G1 X15.107 Y18.31
G3 X16.152 Y16.979 I9.893 J6.69
G2 X16.456 Y15.211 I-1.239 J-1.123
G3 X16.956 Y13.487 I1.319 J-0.552
X33.044 Y36.512 I8.044 J11.512
X16.5 Y36.18 I-8.044 J-11.512
G2 X9.433 Y37.295 I-2.999 J3.945
X9.031 Y37.907 I10.931 J7.605
G3 X8.64 Y38.526 I-29.335 J-18.101
G1 X8.613 Y38.555
X8.579 Y38.575
X8.54 Y38.583
X8.5 Y38.578
X8.465 Y38.56
X8.436 Y38.533
X8.418 Y38.498
X8.411 Y38.458
Y25.03
G3 X8.775 Y23.843 I2.118 J0
X11.07 Y20.488 I310.429 J209.91
G2 X13.366 Y17.133 I-308.157 J-213.281
G3 X16.956 Y13.487 I11.634 J7.867
G0 Z4
X6.708 Y65.408
Z2
G1 Z-1 F700
Z-3
Y65.384
X6.725 Y24.408
G3 X7.03 Y23.414 I1.775 J0
G1 X11.932 Y16.164
G3 X38.068 Y33.836 I13.068 J8.836
X15.452 Y37.558 I-13.068 J-8.836
G2 X10.853 Y38.283 I-1.952 J2.567
G1 X10.286 Y39.098
G2 X8.275 Y45.509 I9.214 J6.411
G1 X8.285 Y65.384
G3 X8.086 Y65.584 I-0.2 J0
G1 X5.201 Y65.598
G3 X5 Y65.398 I-0.001 J-0.2
G1 Y24.408
G3 X5.601 Y22.448 I3.5 J0
G1 X10.503 Y15.197
G3 X39.497 Y34.803 I14.497 J9.803
X14.408 Y38.931 I-14.497 J-9.803
G2 X12.269 Y39.268 I-0.908 J1.194
G1 X11.702 Y40.084
G2 X10 Y45.509 I7.798 J5.426
G1 Y64
Y65.397
G3 X8.376 Y65.66 I-0.833 J0
G1 X7.543 Y63.16
G3 X7.5 Y62.897 I0.791 J-0.264
X7.746 Y44.567 I682.252 J0
X15.756 Y28.078 I22.205 J0.597
G1 X15.815 Y28.035
X15.878 Y27.999
X16.663 Y27.607
G3 X17.229 Y28.74 I0.283 J0.567
X16.776 Y28.783 I-0.283 J-0.567
G1 Z-3.5
X16.753 Y28.777
G2 X15.628 Y28.517 I-3.412 J12.216
G3 X15.301 Y28.125 I0.072 J-0.392
G1 Y26.904
G3 X15.532 Y26.15 I1.345 J0
G1 X15.951 Y25.54
G2 X15.981 Y23.329 I-1.642 J-1.128
G3 X16.01 Y21.117 I1.674 J-1.083
G1 X17.039 Y19.617
G3 X32.961 Y30.383 I7.961 J5.383
X19.184 Y32.65 I-7.961 J-5.383
G2 X16.332 Y31.195 I-5.459 J7.179
X13.158 Y30.786 I-2.817 J9.33
G3 X12.845 Y30.485 I-0.011 J-0.301
G1 Y26.401
G3 X13.216 Y25.191 I2.161 J0
G1 X16.01 Y21.117
G2 X16.011 Y19.046 I-1.511 J-1.036
G3 X16.152 Y16.979 I1.379 J-0.944
X33.848 Y33.021 I8.848 J8.021
X17.772 Y34.507 I-8.848 J-8.021
G2 X14.399 Y33.147 I-4.172 J5.487
X10.798 Y33.654 I-0.832 J7.136
G3 X10.513 Y33.464 I-0.079 J-0.19
G1 Y25.687
G3 X10.883 Y24.476 I2.161 J0
G1 X15.107 Y18.31
G3 X16.152 Y16.979 I9.893 J6.69
G2 X16.456 Y15.211 I-1.239 J-1.123
G3 X16.956 Y13.487 I1.319 J-0.552
X33.044 Y36.512 I8.044 J11.512
X16.5 Y36.18 I-8.044 J-11.512
G2 X9.433 Y37.295 I-2.999 J3.945
X9.031 Y37.907 I10.931 J7.605
G3 X8.64 Y38.526 I-29.335 J-18.101
G1 X8.613 Y38.555
X8.579 Y38.575
X8.54 Y38.583
X8.5 Y38.578
X8.465 Y38.56
X8.436 Y38.533
X8.418 Y38.498
X8.411 Y38.458
Y25.03
G3 X8.775 Y23.843 I2.118 J0
X11.07 Y20.488 I310.429 J209.91
G2 X13.366 Y17.133 I-308.157 J-213.281
G3 X16.956 Y13.487 I11.634 J7.867
G0 Z4
X6.708 Y65.408
Z2
G1 Z-1.5 F700
Z-3.5
Y65.384
X6.725 Y24.408
G3 X7.03 Y23.414 I1.775 J0
G1 X11.932 Y16.164
G3 X38.068 Y33.836 I13.068 J8.836
X15.452 Y37.558 I-13.068 J-8.836
G2 X10.853 Y38.283 I-1.952 J2.567
G1 X10.286 Y39.098
G2 X8.275 Y45.509 I9.214 J6.411
G1 X8.285 Y65.384
G3 X8.086 Y65.584 I-0.2 J0
G1 X5.201 Y65.598
G3 X5 Y65.398 I-0.001 J-0.2
G1 Y24.408
G3 X5.601 Y22.448 I3.5 J0
G1 X10.503 Y15.197
G3 X39.497 Y34.803 I14.497 J9.803
X14.408 Y38.931 I-14.497 J-9.803
G2 X12.269 Y39.268 I-0.908 J1.194
G1 X11.702 Y40.084
G2 X10 Y45.509 I7.798 J5.426
G1 Y64
Y65.397
G3 X8.376 Y65.66 I-0.833 J0
G1 X7.543 Y63.16
G3 X7.5 Y62.897 I0.791 J-0.264
X7.746 Y44.567 I682.252 J0
X15.756 Y28.078 I22.205 J0.597
G1 X15.815 Y28.035
X15.878 Y27.999
X16.663 Y27.607
G3 X17.229 Y28.74 I0.283 J0.567
X16.776 Y28.783 I-0.283 J-0.567
G1 Z-4
X16.753 Y28.777
G2 X15.628 Y28.517 I-3.412 J12.216
G3 X15.301 Y28.125 I0.072 J-0.392
G1 Y26.904
G3 X15.532 Y26.15 I1.345 J0
G1 X15.951 Y25.54
G2 X15.981 Y23.329 I-1.642 J-1.128
G3 X16.01 Y21.117 I1.674 J-1.083
G1 X17.039 Y19.617
G3 X32.961 Y30.383 I7.961 J5.383
X19.184 Y32.65 I-7.961 J-5.383
G2 X16.332 Y31.195 I-5.459 J7.179
X13.158 Y30.786 I-2.817 J9.33
G3 X12.845 Y30.485 I-0.011 J-0.301
G1 Y26.401
G3 X13.216 Y25.191 I2.161 J0
G1 X16.01 Y21.117
G2 X16.011 Y19.046 I-1.511 J-1.036
G3 X16.152 Y16.979 I1.379 J-0.944
X33.848 Y33.021 I8.848 J8.021
X17.772 Y34.507 I-8.848 J-8.021
G2 X14.399 Y33.147 I-4.172 J5.487
X10.798 Y33.654 I-0.832 J7.136
G3 X10.513 Y33.464 I-0.079 J-0.19
G1 Y25.687
G3 X10.883 Y24.476 I2.161 J0
G1 X15.107 Y18.31
G3 X16.152 Y16.979 I9.893 J6.69
G2 X16.456 Y15.211 I-1.239 J-1.123
G3 X16.956 Y13.487 I1.319 J-0.552
X33.044 Y36.512 I8.044 J11.512
X16.5 Y36.18 I-8.044 J-11.512
G2 X9.433 Y37.295 I-2.999 J3.945
X9.031 Y37.907 I10.931 J7.605
G3 X8.64 Y38.526 I-29.335 J-18.101
G1 X8.613 Y38.555
X8.579 Y38.575
X8.54 Y38.583
X8.5 Y38.578
X8.465 Y38.56
X8.436 Y38.533
X8.418 Y38.498
X8.411 Y38.458
Y25.03
G3 X8.775 Y23.843 I2.118 J0
X11.07 Y20.488 I310.429 J209.91
G2 X13.366 Y17.133 I-308.157 J-213.281
G3 X16.956 Y13.487 I11.634 J7.867
G0 Z4
X6.708 Y65.408
Z2
G1 Z-2 F700
Z-4
Y65.384
X6.725 Y24.408
G3 X7.03 Y23.414 I1.775 J0
G1 X11.932 Y16.164
G3 X38.068 Y33.836 I13.068 J8.836
X15.452 Y37.558 I-13.068 J-8.836
G2 X10.853 Y38.283 I-1.952 J2.567
G1 X10.286 Y39.098
G2 X8.275 Y45.509 I9.214 J6.411
G1 X8.285 Y65.384
G3 X8.086 Y65.584 I-0.2 J0
G1 X5.201 Y65.598
G3 X5 Y65.398 I-0.001 J-0.2
G1 Y24.408
G3 X5.601 Y22.448 I3.5 J0
G1 X10.503 Y15.197
G3 X39.497 Y34.803 I14.497 J9.803
X14.408 Y38.931 I-14.497 J-9.803
G2 X12.269 Y39.268 I-0.908 J1.194
G1 X11.702 Y40.084
G2 X10 Y45.509 I7.798 J5.426
G1 Y64
Y65.397
G3 X8.376 Y65.66 I-0.833 J0
G1 X7.543 Y63.16
G3 X7.5 Y62.897 I0.791 J-0.264
X7.746 Y44.567 I682.252 J0
X15.756 Y28.078 I22.205 J0.597
G1 X15.815 Y28.035
X15.878 Y27.999
X16.663 Y27.607
G3 X17.229 Y28.74 I0.283 J0.567
X16.776 Y28.783 I-0.283 J-0.567
G1 Z-4.5
X16.753 Y28.777
G2 X15.628 Y28.517 I-3.412 J12.216
G3 X15.301 Y28.125 I0.072 J-0.392
G1 Y26.904
G3 X15.532 Y26.15 I1.345 J0
G1 X15.951 Y25.54
G2 X15.981 Y23.329 I-1.642 J-1.128
G3 X16.01 Y21.117 I1.674 J-1.083
G1 X17.039 Y19.617
G3 X32.961 Y30.383 I7.961 J5.383
X19.184 Y32.65 I-7.961 J-5.383
G2 X16.332 Y31.195 I-5.459 J7.179
X13.158 Y30.786 I-2.817 J9.33
G3 X12.845 Y30.485 I-0.011 J-0.301
G1 Y26.401
G3 X13.216 Y25.191 I2.161 J0
G1 X16.01 Y21.117
G2 X16.011 Y19.046 I-1.511 J-1.036
G3 X16.152 Y16.979 I1.379 J-0.944
X33.848 Y33.021 I8.848 J8.021
X17.772 Y34.507 I-8.848 J-8.021
G2 X14.399 Y33.147 I-4.172 J5.487
X10.798 Y33.654 I-0.832 J7.136
G3 X10.513 Y33.464 I-0.079 J-0.19
G1 Y25.687
G3 X10.883 Y24.476 I2.161 J0
G1 X15.107 Y18.31
G3 X16.152 Y16.979 I9.893 J6.69
G2 X16.456 Y15.211 I-1.239 J-1.123
G3 X16.956 Y13.487 I1.319 J-0.552
X33.044 Y36.512 I8.044 J11.512
X16.5 Y36.18 I-8.044 J-11.512
G2 X9.433 Y37.295 I-2.999 J3.945
X9.031 Y37.907 I10.931 J7.605
G3 X8.64 Y38.526 I-29.335 J-18.101
G1 X8.613 Y38.555
X8.579 Y38.575
X8.54 Y38.583
X8.5 Y38.578
X8.465 Y38.56
X8.436 Y38.533
X8.418 Y38.498
X8.411 Y38.458
Y25.03
G3 X8.775 Y23.843 I2.118 J0
X11.07 Y20.488 I310.429 J209.91
G2 X13.366 Y17.133 I-308.157 J-213.281
G3 X16.956 Y13.487 I11.634 J7.867
G0 Z4
X6.708 Y65.408
Z2
G1 Z-2.5 F700
Z-4.5
Y65.384
X6.725 Y24.408
G3 X7.03 Y23.414 I1.775 J0
G1 X11.932 Y16.164
G3 X38.068 Y33.836 I13.068 J8.836
X15.452 Y37.558 I-13.068 J-8.836
G2 X10.853 Y38.283 I-1.952 J2.567
G1 X10.286 Y39.098
G2 X8.275 Y45.509 I9.214 J6.411
G1 X8.285 Y65.384
G3 X8.086 Y65.584 I-0.2 J0
G1 X5.201 Y65.598
G3 X5 Y65.398 I-0.001 J-0.2
G1 Y24.408
G3 X5.601 Y22.448 I3.5 J0
G1 X10.503 Y15.197
G3 X39.497 Y34.803 I14.497 J9.803
X14.408 Y38.931 I-14.497 J-9.803
G2 X12.269 Y39.268 I-0.908 J1.194
G1 X11.702 Y40.084
G2 X10 Y45.509 I7.798 J5.426
G1 Y64
Y65.397
G3 X8.376 Y65.66 I-0.833 J0
G1 X7.543 Y63.16
G3 X7.5 Y62.897 I0.791 J-0.264
X7.746 Y44.567 I682.252 J0
X15.756 Y28.078 I22.205 J0.597
G1 X15.815 Y28.035
X15.878 Y27.999
X16.663 Y27.607
G3 X17.229 Y28.74 I0.283 J0.567
X16.776 Y28.783 I-0.283 J-0.567
G1 Z-5
X16.753 Y28.777
G2 X15.628 Y28.517 I-3.412 J12.216
G3 X15.301 Y28.125 I0.072 J-0.392
G1 Y26.904
G3 X15.532 Y26.15 I1.345 J0
G1 X15.951 Y25.54
G2 X15.981 Y23.329 I-1.642 J-1.128
G3 X16.01 Y21.117 I1.674 J-1.083
G1 X17.039 Y19.617
G3 X32.961 Y30.383 I7.961 J5.383
X19.184 Y32.65 I-7.961 J-5.383
G2 X16.332 Y31.195 I-5.459 J7.179
X13.158 Y30.786 I-2.817 J9.33
G3 X12.845 Y30.485 I-0.011 J-0.301
G1 Y26.401
G3 X13.216 Y25.191 I2.161 J0
G1 X16.01 Y21.117
G2 X16.011 Y19.046 I-1.511 J-1.036
G3 X16.152 Y16.979 I1.379 J-0.944
X33.848 Y33.021 I8.848 J8.021
X17.772 Y34.507 I-8.848 J-8.021
G2 X14.399 Y33.147 I-4.172 J5.487
X10.798 Y33.654 I-0.832 J7.136
G3 X10.513 Y33.464 I-0.079 J-0.19
G1 Y25.687
G3 X10.883 Y24.476 I2.161 J0
G1 X15.107 Y18.31
G3 X16.152 Y16.979 I9.893 J6.69
G2 X16.456 Y15.211 I-1.239 J-1.123
G3 X16.956 Y13.487 I1.319 J-0.552
X33.044 Y36.512 I8.044 J11.512
X16.5 Y36.18 I-8.044 J-11.512
G2 X9.433 Y37.295 I-2.999 J3.945
X9.031 Y37.907 I10.931 J7.605
G3 X8.64 Y38.526 I-29.335 J-18.101
G1 X8.613 Y38.555
X8.579 Y38.575
X8.54 Y38.583
X8.5 Y38.578
X8.465 Y38.56
X8.436 Y38.533
X8.418 Y38.498
X8.411 Y38.458
Y25.03
G3 X8.775 Y23.843 I2.118 J0
X11.07 Y20.488 I310.429 J209.91
G2 X13.366 Y17.133 I-308.157 J-213.281
G3 X16.956 Y13.487 I11.634 J7.867
G0 Z4
X6.708 Y65.408
Z2
G1 Z-3 F700
Z-5
Y65.384
X6.725 Y24.408
G3 X7.03 Y23.414 I1.775 J0
G1 X11.932 Y16.164
G3 X38.068 Y33.836 I13.068 J8.836
X15.452 Y37.558 I-13.068 J-8.836
G2 X10.853 Y38.283 I-1.952 J2.567
G1 X10.286 Y39.098
G2 X8.275 Y45.509 I9.214 J6.411
G1 X8.285 Y65.384
G3 X8.086 Y65.584 I-0.2 J0
G1 X5.201 Y65.598
G3 X5 Y65.398 I-0.001 J-0.2
G1 Y24.408
G3 X5.601 Y22.448 I3.5 J0
G1 X10.503 Y15.197
G3 X39.497 Y34.803 I14.497 J9.803
X14.408 Y38.931 I-14.497 J-9.803
G2 X12.269 Y39.268 I-0.908 J1.194
G1 X11.702 Y40.084
G2 X10 Y45.509 I7.798 J5.426
G1 Y64
Y65.397
G3 X8.376 Y65.66 I-0.833 J0
G1 X7.543 Y63.16
G3 X7.5 Y62.897 I0.791 J-0.264
X7.746 Y44.567 I682.252 J0
X15.756 Y28.078 I22.205 J0.597
G1 X15.815 Y28.035
X15.878 Y27.999
X16.663 Y27.607
G3 X17.229 Y28.74 I0.283 J0.567
X16.776 Y28.783 I-0.283 J-0.567
G1 Z-5.5
X16.753 Y28.777
G2 X15.628 Y28.517 I-3.412 J12.216
G3 X15.301 Y28.125 I0.072 J-0.392
G1 Y26.904
G3 X15.532 Y26.15 I1.345 J0
G1 X15.951 Y25.54
G2 X15.981 Y23.329 I-1.642 J-1.128
G3 X16.01 Y21.117 I1.674 J-1.083
G1 X17.039 Y19.617
G3 X32.961 Y30.383 I7.961 J5.383
X19.184 Y32.65 I-7.961 J-5.383
G2 X16.332 Y31.195 I-5.459 J7.179
X13.158 Y30.786 I-2.817 J9.33
G3 X12.845 Y30.485 I-0.011 J-0.301
G1 Y26.401
G3 X13.216 Y25.191 I2.161 J0
G1 X16.01 Y21.117
G2 X16.011 Y19.046 I-1.511 J-1.036
G3 X16.152 Y16.979 I1.379 J-0.944
X33.848 Y33.021 I8.848 J8.021
X17.772 Y34.507 I-8.848 J-8.021
G2 X14.399 Y33.147 I-4.172 J5.487
X10.798 Y33.654 I-0.832 J7.136
G3 X10.513 Y33.464 I-0.079 J-0.19
G1 Y25.687
G3 X10.883 Y24.476 I2.161 J0
G1 X15.107 Y18.31
G3 X16.152 Y16.979 I9.893 J6.69
G2 X16.456 Y15.211 I-1.239 J-1.123
G3 X16.956 Y13.487 I1.319 J-0.552
X33.044 Y36.512 I8.044 J11.512
X16.5 Y36.18 I-8.044 J-11.512
G2 X9.433 Y37.295 I-2.999 J3.945
X9.031 Y37.907 I10.931 J7.605
G3 X8.64 Y38.526 I-29.335 J-18.101
G1 X8.613 Y38.555
X8.579 Y38.575
X8.54 Y38.583
X8.5 Y38.578
X8.465 Y38.56
X8.436 Y38.533
X8.418 Y38.498
X8.411 Y38.458
Y25.03
G3 X8.775 Y23.843 I2.118 J0
X11.07 Y20.488 I310.429 J209.91
G2 X13.366 Y17.133 I-308.157 J-213.281
G3 X16.956 Y13.487 I11.634 J7.867
G0 Z4
X6.708 Y65.408
Z2
G1 Z-3.5 F700
Z-5.5
Y65.384
X6.725 Y24.408
G3 X7.03 Y23.414 I1.775 J0
G1 X11.932 Y16.164
G3 X38.068 Y33.836 I13.068 J8.836
X15.452 Y37.558 I-13.068 J-8.836
G2 X10.853 Y38.283 I-1.952 J2.567
G1 X10.286 Y39.098
G2 X8.275 Y45.509 I9.214 J6.411
G1 X8.285 Y65.384
G3 X8.086 Y65.584 I-0.2 J0
G1 X5.201 Y65.598
G3 X5 Y65.398 I-0.001 J-0.2
G1 Y24.408
G3 X5.601 Y22.448 I3.5 J0
G1 X10.503 Y15.197
G3 X39.497 Y34.803 I14.497 J9.803
X14.408 Y38.931 I-14.497 J-9.803
G2 X12.269 Y39.268 I-0.908 J1.194
G1 X11.702 Y40.084
G2 X10 Y45.509 I7.798 J5.426
G1 Y64
Y65.397
G3 X8.376 Y65.66 I-0.833 J0
G1 X7.543 Y63.16
G3 X7.5 Y62.897 I0.791 J-0.264
X7.746 Y44.567 I682.252 J0
X15.756 Y28.078 I22.205 J0.597
G1 X15.815 Y28.035
X15.878 Y27.999
X16.663 Y27.607
G3 X17.229 Y28.74 I0.283 J0.567
X16.776 Y28.783 I-0.283 J-0.567
G1 Z-6
X16.753 Y28.777
G2 X15.628 Y28.517 I-3.412 J12.216
G3 X15.301 Y28.125 I0.072 J-0.392
G1 Y26.904
G3 X15.532 Y26.15 I1.345 J0
G1 X15.951 Y25.54
G2 X15.981 Y23.329 I-1.642 J-1.128
G3 X16.01 Y21.117 I1.674 J-1.083
G1 X17.039 Y19.617
G3 X32.961 Y30.383 I7.961 J5.383
X19.184 Y32.65 I-7.961 J-5.383
G2 X16.332 Y31.195 I-5.459 J7.179
X13.158 Y30.786 I-2.817 J9.33
G3 X12.845 Y30.485 I-0.011 J-0.301
G1 Y26.401
G3 X13.216 Y25.191 I2.161 J0
G1 X16.01 Y21.117
G2 X16.011 Y19.046 I-1.511 J-1.036
G3 X16.152 Y16.979 I1.379 J-0.944
X33.848 Y33.021 I8.848 J8.021
X17.772 Y34.507 I-8.848 J-8.021
G2 X14.399 Y33.147 I-4.172 J5.487
X10.798 Y33.654 I-0.832 J7.136
G3 X10.513 Y33.464 I-0.079 J-0.19
G1 Y25.687
G3 X10.883 Y24.476 I2.161 J0
G1 X15.107 Y18.31
G3 X16.152 Y16.979 I9.893 J6.69
G2 X16.456 Y15.211 I-1.239 J-1.123
G3 X16.956 Y13.487 I1.319 J-0.552
X33.044 Y36.512 I8.044 J11.512
X16.5 Y36.18 I-8.044 J-11.512
G2 X9.433 Y37.295 I-2.999 J3.945
X9.031 Y37.907 I10.931 J7.605
G3 X8.64 Y38.526 I-29.335 J-18.101
G1 X8.613 Y38.555
X8.579 Y38.575
X8.54 Y38.583
X8.5 Y38.578
X8.465 Y38.56
X8.436 Y38.533
X8.418 Y38.498
X8.411 Y38.458
Y25.03
G3 X8.775 Y23.843 I2.118 J0
X11.07 Y20.488 I310.429 J209.91
G2 X13.366 Y17.133 I-308.157 J-213.281
G3 X16.956 Y13.487 I11.634 J7.867
G0 Z4
X6.708 Y65.408
Z2
G1 Z-4 F700
Z-6
Y65.384
X6.725 Y24.408
G3 X7.03 Y23.414 I1.775 J0
G1 X11.932 Y16.164
G3 X38.068 Y33.836 I13.068 J8.836
X15.452 Y37.558 I-13.068 J-8.836
G2 X10.853 Y38.283 I-1.952 J2.567
G1 X10.286 Y39.098
G2 X8.275 Y45.509 I9.214 J6.411
G1 X8.285 Y65.384
G3 X8.086 Y65.584 I-0.2 J0
G1 X5.201 Y65.598
G3 X5 Y65.398 I-0.001 J-0.2
G1 Y24.408
G3 X5.601 Y22.448 I3.5 J0
G1 X10.503 Y15.197
G3 X39.497 Y34.803 I14.497 J9.803
X14.408 Y38.931 I-14.497 J-9.803
G2 X12.269 Y39.268 I-0.908 J1.194
G1 X11.702 Y40.084
G2 X10 Y45.509 I7.798 J5.426
G1 Y64
Y65.397
G3 X8.376 Y65.66 I-0.833 J0
G1 X7.543 Y63.16
G3 X7.5 Y62.897 I0.791 J-0.264
X7.746 Y44.567 I682.252 J0
X15.756 Y28.078 I22.205 J0.597
G1 X15.815 Y28.035
X15.878 Y27.999
X16.663 Y27.607
G3 X17.229 Y28.74 I0.283 J0.567
X16.776 Y28.783 I-0.283 J-0.567
G1 Z-6.5
X16.753 Y28.777
G2 X15.628 Y28.517 I-3.412 J12.216
G3 X15.301 Y28.125 I0.072 J-0.392
G1 Y26.904
G3 X15.532 Y26.15 I1.345 J0
G1 X15.951 Y25.54
G2 X15.981 Y23.329 I-1.642 J-1.128
G3 X16.01 Y21.117 I1.674 J-1.083
G1 X17.039 Y19.617
G3 X32.961 Y30.383 I7.961 J5.383
X19.184 Y32.65 I-7.961 J-5.383
G2 X16.332 Y31.195 I-5.459 J7.179
X13.158 Y30.786 I-2.817 J9.33
G3 X12.845 Y30.485 I-0.011 J-0.301
G1 Y26.401
G3 X13.216 Y25.191 I2.161 J0
G1 X16.01 Y21.117
G2 X16.011 Y19.046 I-1.511 J-1.036
G3 X16.152 Y16.979 I1.379 J-0.944
X33.848 Y33.021 I8.848 J8.021
X17.772 Y34.507 I-8.848 J-8.021
G2 X14.399 Y33.147 I-4.172 J5.487
X10.798 Y33.654 I-0.832 J7.136
G3 X10.513 Y33.464 I-0.079 J-0.19
G1 Y25.687
G3 X10.883 Y24.476 I2.161 J0
G1 X15.107 Y18.31
G3 X16.152 Y16.979 I9.893 J6.69
G2 X16.456 Y15.211 I-1.239 J-1.123
G3 X16.956 Y13.487 I1.319 J-0.552
X33.044 Y36.512 I8.044 J11.512
X16.5 Y36.18 I-8.044 J-11.512
G2 X9.433 Y37.295 I-2.999 J3.945
X9.031 Y37.907 I10.931 J7.605
G3 X8.64 Y38.526 I-29.335 J-18.101
G1 X8.613 Y38.555
X8.579 Y38.575
X8.54 Y38.583
X8.5 Y38.578
X8.465 Y38.56
X8.436 Y38.533
X8.418 Y38.498
X8.411 Y38.458
Y25.03
G3 X8.775 Y23.843 I2.118 J0
X11.07 Y20.488 I310.429 J209.91
G2 X13.366 Y17.133 I-308.157 J-213.281
G3 X16.956 Y13.487 I11.634 J7.867
G0 Z4
X6.708 Y65.408
Z2
G1 Z-4.5 F700
Z-6.5
Y65.384
X6.725 Y24.408
G3 X7.03 Y23.414 I1.775 J0
G1 X11.932 Y16.164
G3 X38.068 Y33.836 I13.068 J8.836
X15.452 Y37.558 I-13.068 J-8.836
G2 X10.853 Y38.283 I-1.952 J2.567
G1 X10.286 Y39.098
G2 X8.275 Y45.509 I9.214 J6.411
G1 X8.285 Y65.384
G3 X8.086 Y65.584 I-0.2 J0
G1 X5.201 Y65.598
G3 X5 Y65.398 I-0.001 J-0.2
G1 Y24.408
G3 X5.601 Y22.448 I3.5 J0
G1 X10.503 Y15.197
G3 X39.497 Y34.803 I14.497 J9.803
X14.408 Y38.931 I-14.497 J-9.803
G2 X12.269 Y39.268 I-0.908 J1.194
G1 X11.702 Y40.084
G2 X10 Y45.509 I7.798 J5.426
G1 Y64
Y65.397
G3 X8.376 Y65.66 I-0.833 J0
G1 X7.543 Y63.16
G3 X7.5 Y62.897 I0.791 J-0.264
X7.746 Y44.567 I682.252 J0
X15.756 Y28.078 I22.205 J0.597
G1 X15.815 Y28.035
X15.878 Y27.999
X16.663 Y27.607
G3 X17.229 Y28.74 I0.283 J0.567
X16.776 Y28.783 I-0.283 J-0.567
G1 Z-7
X16.753 Y28.777
G2 X15.628 Y28.517 I-3.412 J12.216
G3 X15.301 Y28.125 I0.072 J-0.392
G1 Y26.904
G3 X15.532 Y26.15 I1.345 J0
G1 X15.951 Y25.54
G2 X15.981 Y23.329 I-1.642 J-1.128
G3 X16.01 Y21.117 I1.674 J-1.083
G1 X17.039 Y19.617
G3 X32.961 Y30.383 I7.961 J5.383
X19.184 Y32.65 I-7.961 J-5.383
G2 X16.332 Y31.195 I-5.459 J7.179
X13.158 Y30.786 I-2.817 J9.33
G3 X12.845 Y30.485 I-0.011 J-0.301
G1 Y26.401
G3 X13.216 Y25.191 I2.161 J0
G1 X16.01 Y21.117
G2 X16.011 Y19.046 I-1.511 J-1.036
G3 X16.152 Y16.979 I1.379 J-0.944
X33.848 Y33.021 I8.848 J8.021
X17.772 Y34.507 I-8.848 J-8.021
G2 X14.399 Y33.147 I-4.172 J5.487
X10.798 Y33.654 I-0.832 J7.136
G3 X10.513 Y33.464 I-0.079 J-0.19
G1 Y25.687
G3 X10.883 Y24.476 I2.161 J0
G1 X15.107 Y18.31
G3 X16.152 Y16.979 I9.893 J6.69
G2 X16.456 Y15.211 I-1.239 J-1.123
G3 X16.956 Y13.487 I1.319 J-0.552
X33.044 Y36.512 I8.044 J11.512
X16.5 Y36.18 I-8.044 J-11.512
G2 X9.433 Y37.295 I-2.999 J3.945
X9.031 Y37.907 I10.931 J7.605
G3 X8.64 Y38.526 I-29.335 J-18.101
G1 X8.613 Y38.555
X8.579 Y38.575
X8.54 Y38.583
X8.5 Y38.578
X8.465 Y38.56
X8.436 Y38.533
X8.418 Y38.498
X8.411 Y38.458
Y25.03
G3 X8.775 Y23.843 I2.118 J0
X11.07 Y20.488 I310.429 J209.91
G2 X13.366 Y17.133 I-308.157 J-213.281
G3 X16.956 Y13.487 I11.634 J7.867
G0 Z4
X6.708 Y65.408
Z2
G1 Z-5 F700
Z-7
Y65.384
X6.725 Y24.408
G3 X7.03 Y23.414 I1.775 J0
G1 X11.932 Y16.164
G3 X38.068 Y33.836 I13.068 J8.836
X15.452 Y37.558 I-13.068 J-8.836
G2 X10.853 Y38.283 I-1.952 J2.567
G1 X10.286 Y39.098
G2 X8.275 Y45.509 I9.214 J6.411
G1 X8.285 Y65.384
G3 X8.086 Y65.584 I-0.2 J0
G1 X5.201 Y65.598
G3 X5 Y65.398 I-0.001 J-0.2
G1 Y24.408
G3 X5.601 Y22.448 I3.5 J0
G1 X10.503 Y15.197
G3 X39.497 Y34.803 I14.497 J9.803
X14.408 Y38.931 I-14.497 J-9.803
G2 X12.269 Y39.268 I-0.908 J1.194
G1 X11.702 Y40.084
G2 X10 Y45.509 I7.798 J5.426
G1 Y64
Y65.397
G3 X8.376 Y65.66 I-0.833 J0
G1 X7.543 Y63.16
G3 X7.5 Y62.897 I0.791 J-0.264
X7.746 Y44.567 I682.252 J0
X15.756 Y28.078 I22.205 J0.597
G1 X15.815 Y28.035
X15.878 Y27.999
X16.663 Y27.607
G3 X17.229 Y28.74 I0.283 J0.567
X16.776 Y28.783 I-0.283 J-0.567
G1 Z-7.5
X16.753 Y28.777
G2 X15.628 Y28.517 I-3.412 J12.216
G3 X15.301 Y28.125 I0.072 J-0.392
G1 Y26.904
G3 X15.532 Y26.15 I1.345 J0
G1 X15.951 Y25.54
G2 X15.981 Y23.329 I-1.642 J-1.128
G3 X16.01 Y21.117 I1.674 J-1.083
G1 X17.039 Y19.617
G3 X32.961 Y30.383 I7.961 J5.383
X19.184 Y32.65 I-7.961 J-5.383
G2 X16.332 Y31.195 I-5.459 J7.179
X13.158 Y30.786 I-2.817 J9.33
G3 X12.845 Y30.485 I-0.011 J-0.301
G1 Y26.401
G3 X13.216 Y25.191 I2.161 J0
G1 X16.01 Y21.117
G2 X16.011 Y19.046 I-1.511 J-1.036
G3 X16.152 Y16.979 I1.379 J-0.944
X33.848 Y33.021 I8.848 J8.021
X17.772 Y34.507 I-8.848 J-8.021
G2 X14.399 Y33.147 I-4.172 J5.487
X10.798 Y33.654 I-0.832 J7.136
G3 X10.513 Y33.464 I-0.079 J-0.19
G1 Y25.687
G3 X10.883 Y24.476 I2.161 J0
G1 X15.107 Y18.31
G3 X16.152 Y16.979 I9.893 J6.69
G2 X16.456 Y15.211 I-1.239 J-1.123
G3 X16.956 Y13.487 I1.319 J-0.552
X33.044 Y36.512 I8.044 J11.512
X16.5 Y36.18 I-8.044 J-11.512
G2 X9.433 Y37.295 I-2.999 J3.945
X9.031 Y37.907 I10.931 J7.605
G3 X8.64 Y38.526 I-29.335 J-18.101
G1 X8.613 Y38.555
X8.579 Y38.575
X8.54 Y38.583
X8.5 Y38.578
X8.465 Y38.56
X8.436 Y38.533
X8.418 Y38.498
X8.411 Y38.458
Y25.03
G3 X8.775 Y23.843 I2.118 J0
X11.07 Y20.488 I310.429 J209.91
G2 X13.366 Y17.133 I-308.157 J-213.281
G3 X16.956 Y13.487 I11.634 J7.867
G0 Z4
X6.708 Y65.408
Z2
G1 Z-5.5 F700
Z-7.5
Y65.384
X6.725 Y24.408
G3 X7.03 Y23.414 I1.775 J0
G1 X11.932 Y16.164
G3 X38.068 Y33.836 I13.068 J8.836
X15.452 Y37.558 I-13.068 J-8.836
G2 X10.853 Y38.283 I-1.952 J2.567
G1 X10.286 Y39.098
G2 X8.275 Y45.509 I9.214 J6.411
G1 X8.285 Y65.384
G3 X8.086 Y65.584 I-0.2 J0
G1 X5.201 Y65.598
G3 X5 Y65.398 I-0.001 J-0.2
G1 Y24.408
G3 X5.601 Y22.448 I3.5 J0
G1 X10.503 Y15.197
G3 X39.497 Y34.803 I14.497 J9.803
X14.408 Y38.931 I-14.497 J-9.803
G2 X12.269 Y39.268 I-0.908 J1.194
G1 X11.702 Y40.084
G2 X10 Y45.509 I7.798 J5.426
G1 Y64
Y65.397
G3 X8.376 Y65.66 I-0.833 J0
G1 X7.543 Y63.16
G3 X7.5 Y62.897 I0.791 J-0.264
X7.746 Y44.567 I682.252 J0
X15.756 Y28.078 I22.205 J0.597
G1 X15.815 Y28.035
X15.878 Y27.999
X16.663 Y27.607
G3 X17.229 Y28.74 I0.283 J0.567
X16.776 Y28.783 I-0.283 J-0.567
G1 Z-8
X16.753 Y28.777
G2 X15.628 Y28.517 I-3.412 J12.216
G3 X15.301 Y28.125 I0.072 J-0.392
G1 Y26.904
G3 X15.532 Y26.15 I1.345 J0
G1 X15.951 Y25.54
G2 X15.981 Y23.329 I-1.642 J-1.128
G3 X16.01 Y21.117 I1.674 J-1.083
G1 X17.039 Y19.617
G3 X32.961 Y30.383 I7.961 J5.383
X19.184 Y32.65 I-7.961 J-5.383
G2 X16.332 Y31.195 I-5.459 J7.179
X13.158 Y30.786 I-2.817 J9.33
G3 X12.845 Y30.485 I-0.011 J-0.301
G1 Y26.401
G3 X13.216 Y25.191 I2.161 J0
G1 X16.01 Y21.117
G2 X16.011 Y19.046 I-1.511 J-1.036
G3 X16.152 Y16.979 I1.379 J-0.944
X33.848 Y33.021 I8.848 J8.021
X17.772 Y34.507 I-8.848 J-8.021
G2 X14.399 Y33.147 I-4.172 J5.487
X10.798 Y33.654 I-0.832 J7.136
G3 X10.513 Y33.464 I-0.079 J-0.19
G1 Y25.687
G3 X10.883 Y24.476 I2.161 J0
G1 X15.107 Y18.31
G3 X16.152 Y16.979 I9.893 J6.69
G2 X16.456 Y15.211 I-1.239 J-1.123
G3 X16.956 Y13.487 I1.319 J-0.552
X33.044 Y36.512 I8.044 J11.512
X16.5 Y36.18 I-8.044 J-11.512
G2 X9.433 Y37.295 I-2.999 J3.945
X9.031 Y37.907 I10.931 J7.605
G3 X8.64 Y38.526 I-29.335 J-18.101
G1 X8.613 Y38.555
X8.579 Y38.575
X8.54 Y38.583
X8.5 Y38.578
X8.465 Y38.56
X8.436 Y38.533
X8.418 Y38.498
X8.411 Y38.458
Y25.03
G3 X8.775 Y23.843 I2.118 J0
X11.07 Y20.488 I310.429 J209.91
G2 X13.366 Y17.133 I-308.157 J-213.281
G3 X16.956 Y13.487 I11.634 J7.867
G0 Z4
X6.708 Y65.408
Z2
G1 Z-6 F700
Z-8
Y65.384
X6.725 Y24.408
G3 X7.03 Y23.414 I1.775 J0
G1 X11.932 Y16.164
G3 X38.068 Y33.836 I13.068 J8.836
X15.452 Y37.558 I-13.068 J-8.836
G2 X10.853 Y38.283 I-1.952 J2.567
G1 X10.286 Y39.098
G2 X8.275 Y45.509 I9.214 J6.411
G1 X8.285 Y65.384
G3 X8.086 Y65.584 I-0.2 J0
G1 X5.201 Y65.598
G3 X5 Y65.398 I-0.001 J-0.2
G1 Y24.408
G3 X5.601 Y22.448 I3.5 J0
G1 X10.503 Y15.197
G3 X39.497 Y34.803 I14.497 J9.803
X14.408 Y38.931 I-14.497 J-9.803
G2 X12.269 Y39.268 I-0.908 J1.194
G1 X11.702 Y40.084
G2 X10 Y45.509 I7.798 J5.426
G1 Y64
Y65.397
G3 X8.376 Y65.66 I-0.833 J0
G1 X7.543 Y63.16
G3 X7.5 Y62.897 I0.791 J-0.264
X7.746 Y44.567 I682.252 J0
X15.756 Y28.078 I22.205 J0.597
G1 X15.815 Y28.035
X15.878 Y27.999
X16.663 Y27.607
G3 X17.229 Y28.74 I0.283 J0.567
X16.776 Y28.783 I-0.283 J-0.567
G1 Z-8.5
X16.753 Y28.777
G2 X15.628 Y28.517 I-3.412 J12.216
G3 X15.301 Y28.125 I0.072 J-0.392
G1 Y26.904
G3 X15.532 Y26.15 I1.345 J0
G1 X15.951 Y25.54
G2 X15.981 Y23.329 I-1.642 J-1.128
G3 X16.01 Y21.117 I1.674 J-1.083
G1 X17.039 Y19.617
G3 X32.961 Y30.383 I7.961 J5.383
X19.184 Y32.65 I-7.961 J-5.383
G2 X16.332 Y31.195 I-5.459 J7.179
X13.158 Y30.786 I-2.817 J9.33
G3 X12.845 Y30.485 I-0.011 J-0.301
G1 Y26.401
G3 X13.216 Y25.191 I2.161 J0
G1 X16.01 Y21.117
G2 X16.011 Y19.046 I-1.511 J-1.036
G3 X16.152 Y16.979 I1.379 J-0.944
X33.848 Y33.021 I8.848 J8.021
X17.772 Y34.507 I-8.848 J-8.021
G2 X14.399 Y33.147 I-4.172 J5.487
X10.798 Y33.654 I-0.832 J7.136
G3 X10.513 Y33.464 I-0.079 J-0.19
G1 Y25.687
G3 X10.883 Y24.476 I2.161 J0
G1 X15.107 Y18.31
G3 X16.152 Y16.979 I9.893 J6.69
G2 X16.456 Y15.211 I-1.239 J-1.123
G3 X16.956 Y13.487 I1.319 J-0.552
X33.044 Y36.512 I8.044 J11.512
X16.5 Y36.18 I-8.044 J-11.512
G2 X9.433 Y37.295 I-2.999 J3.945
X9.031 Y37.907 I10.931 J7.605
G3 X8.64 Y38.526 I-29.335 J-18.101
G1 X8.613 Y38.555
X8.579 Y38.575
X8.54 Y38.583
X8.5 Y38.578
X8.465 Y38.56
X8.436 Y38.533
X8.418 Y38.498
X8.411 Y38.458
Y25.03
G3 X8.775 Y23.843 I2.118 J0
X11.07 Y20.488 I310.429 J209.91
G2 X13.366 Y17.133 I-308.157 J-213.281
G3 X16.956 Y13.487 I11.634 J7.867
G0 Z4
X6.708 Y65.408
Z2
G1 Z-6.5 F700
Z-8.5
Y65.384
X6.725 Y24.408
G3 X7.03 Y23.414 I1.775 J0
G1 X11.932 Y16.164
G3 X38.068 Y33.836 I13.068 J8.836
X15.452 Y37.558 I-13.068 J-8.836
G2 X10.853 Y38.283 I-1.952 J2.567
G1 X10.286 Y39.098
G2 X8.275 Y45.509 I9.214 J6.411
G1 X8.285 Y65.384
G3 X8.086 Y65.584 I-0.2 J0
G1 X5.201 Y65.598
G3 X5 Y65.398 I-0.001 J-0.2
G1 Y24.408
G3 X5.601 Y22.448 I3.5 J0
G1 X10.503 Y15.197
G3 X39.497 Y34.803 I14.497 J9.803
X14.408 Y38.931 I-14.497 J-9.803
G2 X12.269 Y39.268 I-0.908 J1.194
G1 X11.702 Y40.084
G2 X10 Y45.509 I7.798 J5.426
G1 Y64
Y65.397
G3 X8.376 Y65.66 I-0.833 J0
G1 X7.543 Y63.16
G3 X7.5 Y62.897 I0.791 J-0.264
X7.746 Y44.567 I682.252 J0
X15.756 Y28.078 I22.205 J0.597
G1 X15.815 Y28.035
X15.878 Y27.999
X16.663 Y27.607
G3 X17.229 Y28.74 I0.283 J0.567
X16.776 Y28.783 I-0.283 J-0.567
G1 Z-9
X16.753 Y28.777
G2 X15.628 Y28.517 I-3.412 J12.216
G3 X15.301 Y28.125 I0.072 J-0.392
G1 Y26.904
G3 X15.532 Y26.15 I1.345 J0
G1 X15.951 Y25.54
G2 X15.981 Y23.329 I-1.642 J-1.128
G3 X16.01 Y21.117 I1.674 J-1.083
G1 X17.039 Y19.617
G3 X32.961 Y30.383 I7.961 J5.383
X19.184 Y32.65 I-7.961 J-5.383
G2 X16.332 Y31.195 I-5.459 J7.179
X13.158 Y30.786 I-2.817 J9.33
G3 X12.845 Y30.485 I-0.011 J-0.301
G1 Y26.401
G3 X13.216 Y25.191 I2.161 J0
G1 X16.01 Y21.117
G2 X16.011 Y19.046 I-1.511 J-1.036
G3 X16.152 Y16.979 I1.379 J-0.944
X33.848 Y33.021 I8.848 J8.021
X17.772 Y34.507 I-8.848 J-8.021
G2 X14.399 Y33.147 I-4.172 J5.487
X10.798 Y33.654 I-0.832 J7.136
G3 X10.513 Y33.464 I-0.079 J-0.19
G1 Y25.687
G3 X10.883 Y24.476 I2.161 J0
G1 X15.107 Y18.31
G3 X16.152 Y16.979 I9.893 J6.69
G2 X16.456 Y15.211 I-1.239 J-1.123
G3 X16.956 Y13.487 I1.319 J-0.552
X33.044 Y36.512 I8.044 J11.512
X16.5 Y36.18 I-8.044 J-11.512
G2 X9.433 Y37.295 I-2.999 J3.945
X9.031 Y37.907 I10.931 J7.605
G3 X8.64 Y38.526 I-29.335 J-18.101
G1 X8.613 Y38.555
X8.579 Y38.575
X8.54 Y38.583
X8.5 Y38.578
X8.465 Y38.56
X8.436 Y38.533
X8.418 Y38.498
X8.411 Y38.458
Y25.03
G3 X8.775 Y23.843 I2.118 J0
X11.07 Y20.488 I310.429 J209.91
G2 X13.366 Y17.133 I-308.157 J-213.281
G3 X16.956 Y13.487 I11.634 J7.867
G0 Z4
X6.708 Y65.408
Z2
G1 Z-7 F700
Z-9
Y65.384
X6.725 Y24.408
G3 X7.03 Y23.414 I1.775 J0
G1 X11.932 Y16.164
G3 X38.068 Y33.836 I13.068 J8.836
X15.452 Y37.558 I-13.068 J-8.836
G2 X10.853 Y38.283 I-1.952 J2.567
G1 X10.286 Y39.098
G2 X8.275 Y45.509 I9.214 J6.411
G1 X8.285 Y65.384
G3 X8.086 Y65.584 I-0.2 J0
G1 X5.201 Y65.598
G3 X5 Y65.398 I-0.001 J-0.2
G1 Y24.408
G3 X5.601 Y22.448 I3.5 J0
G1 X10.503 Y15.197
G3 X39.497 Y34.803 I14.497 J9.803
X14.408 Y38.931 I-14.497 J-9.803
G2 X12.269 Y39.268 I-0.908 J1.194
G1 X11.702 Y40.084
G2 X10 Y45.509 I7.798 J5.426
G1 Y64
Y65.397
G3 X8.376 Y65.66 I-0.833 J0
G1 X7.543 Y63.16
G3 X7.5 Y62.897 I0.791 J-0.264
X7.746 Y44.567 I682.252 J0
X15.756 Y28.078 I22.205 J0.597
G1 X15.815 Y28.035
X15.878 Y27.999
X16.663 Y27.607
G3 X17.229 Y28.74 I0.283 J0.567
X16.776 Y28.783 I-0.283 J-0.567
G1 Z-9.5
X16.753 Y28.777
G2 X15.628 Y28.517 I-3.412 J12.216
G3 X15.301 Y28.125 I0.072 J-0.392
G1 Y26.904
G3 X15.532 Y26.15 I1.345 J0
G1 X15.951 Y25.54
G2 X15.981 Y23.329 I-1.642 J-1.128
G3 X16.01 Y21.117 I1.674 J-1.083
G1 X17.039 Y19.617
G3 X32.961 Y30.383 I7.961 J5.383
X19.184 Y32.65 I-7.961 J-5.383
G2 X16.332 Y31.195 I-5.459 J7.179
X13.158 Y30.786 I-2.817 J9.33
G3 X12.845 Y30.485 I-0.011 J-0.301
G1 Y26.401
G3 X13.216 Y25.191 I2.161 J0
G1 X16.01 Y21.117
G2 X16.011 Y19.046 I-1.511 J-1.036
G3 X16.152 Y16.979 I1.379 J-0.944
X33.848 Y33.021 I8.848 J8.021
X17.772 Y34.507 I-8.848 J-8.021
G2 X14.399 Y33.147 I-4.172 J5.487
X10.798 Y33.654 I-0.832 J7.136
G3 X10.513 Y33.464 I-0.079 J-0.19
G1 Y25.687
G3 X10.883 Y24.476 I2.161 J0
G1 X15.107 Y18.31
G3 X16.152 Y16.979 I9.893 J6.69
G2 X16.456 Y15.211 I-1.239 J-1.123
G3 X16.956 Y13.487 I1.319 J-0.552
X33.044 Y36.512 I8.044 J11.512
X16.5 Y36.18 I-8.044 J-11.512
G2 X9.433 Y37.295 I-2.999 J3.945
X9.031 Y37.907 I10.931 J7.605
G3 X8.64 Y38.526 I-29.335 J-18.101
G1 X8.613 Y38.555
X8.579 Y38.575
X8.54 Y38.583
X8.5 Y38.578
X8.465 Y38.56
X8.436 Y38.533
X8.418 Y38.498
X8.411 Y38.458
Y25.03
G3 X8.775 Y23.843 I2.118 J0
X11.07 Y20.488 I310.429 J209.91
G2 X13.366 Y17.133 I-308.157 J-213.281
G3 X16.956 Y13.487 I11.634 J7.867
G0 Z4
X6.708 Y65.408
Z2
G1 Z-7.5 F700
Z-9.5
Y65.384
X6.725 Y24.408
G3 X7.03 Y23.414 I1.775 J0
G1 X11.932 Y16.164
G3 X38.068 Y33.836 I13.068 J8.836
X15.452 Y37.558 I-13.068 J-8.836
G2 X10.853 Y38.283 I-1.952 J2.567
G1 X10.286 Y39.098
G2 X8.275 Y45.509 I9.214 J6.411
G1 X8.285 Y65.384
G3 X8.086 Y65.584 I-0.2 J0
G1 X5.201 Y65.598
G3 X5 Y65.398 I-0.001 J-0.2
G1 Y24.408
G3 X5.601 Y22.448 I3.5 J0
G1 X10.503 Y15.197
G3 X39.497 Y34.803 I14.497 J9.803
X14.408 Y38.931 I-14.497 J-9.803
G2 X12.269 Y39.268 I-0.908 J1.194
G1 X11.702 Y40.084
G2 X10 Y45.509 I7.798 J5.426
G1 Y64
Y65.397
G3 X8.376 Y65.66 I-0.833 J0
G1 X7.543 Y63.16
G3 X7.5 Y62.897 I0.791 J-0.264
X7.746 Y44.567 I682.252 J0
X15.756 Y28.078 I22.205 J0.597
G1 X15.815 Y28.035
X15.878 Y27.999
X16.663 Y27.607
G3 X17.229 Y28.74 I0.283 J0.567
X16.776 Y28.783 I-0.283 J-0.567
G1 Z-10
X16.753 Y28.777
G2 X15.628 Y28.517 I-3.412 J12.216
G3 X15.301 Y28.125 I0.072 J-0.392
G1 Y26.904
G3 X15.532 Y26.15 I1.345 J0
G1 X15.951 Y25.54
G2 X15.981 Y23.329 I-1.642 J-1.128
G3 X16.01 Y21.117 I1.674 J-1.083
G1 X17.039 Y19.617
G3 X32.961 Y30.383 I7.961 J5.383
X19.184 Y32.65 I-7.961 J-5.383
G2 X16.332 Y31.195 I-5.459 J7.179
X13.158 Y30.786 I-2.817 J9.33
G3 X12.845 Y30.485 I-0.011 J-0.301
G1 Y26.401
G3 X13.216 Y25.191 I2.161 J0
G1 X16.01 Y21.117
G2 X16.011 Y19.046 I-1.511 J-1.036
G3 X16.152 Y16.979 I1.379 J-0.944
X33.848 Y33.021 I8.848 J8.021
X17.772 Y34.507 I-8.848 J-8.021
G2 X14.399 Y33.147 I-4.172 J5.487
X10.798 Y33.654 I-0.832 J7.136
G3 X10.513 Y33.464 I-0.079 J-0.19
G1 Y25.687
G3 X10.883 Y24.476 I2.161 J0
G1 X15.107 Y18.31
G3 X16.152 Y16.979 I9.893 J6.69
G2 X16.456 Y15.211 I-1.239 J-1.123
G3 X16.956 Y13.487 I1.319 J-0.552
X33.044 Y36.512 I8.044 J11.512
X16.5 Y36.18 I-8.044 J-11.512
G2 X9.433 Y37.295 I-2.999 J3.945
X9.031 Y37.907 I10.931 J7.605
G3 X8.64 Y38.526 I-29.335 J-18.101
G1 X8.613 Y38.555
X8.579 Y38.575
X8.54 Y38.583
X8.5 Y38.578
X8.465 Y38.56
X8.436 Y38.533
X8.418 Y38.498
X8.411 Y38.458
Y25.03
G3 X8.775 Y23.843 I2.118 J0
X11.07 Y20.488 I310.429 J209.91
G2 X13.366 Y17.133 I-308.157 J-213.281
G3 X16.956 Y13.487 I11.634 J7.867
G0 Z4
X6.708 Y65.408
Z2
G1 Z-8 F700
Z-10
Y65.384
X6.725 Y24.408
G3 X7.03 Y23.414 I1.775 J0
G1 X11.932 Y16.164
G3 X38.068 Y33.836 I13.068 J8.836
X15.452 Y37.558 I-13.068 J-8.836
G2 X10.853 Y38.283 I-1.952 J2.567
G1 X10.286 Y39.098
G2 X8.275 Y45.509 I9.214 J6.411
G1 X8.285 Y65.384
G3 X8.086 Y65.584 I-0.2 J0
G1 X5.201 Y65.598
G3 X5 Y65.398 I-0.001 J-0.2
G1 Y24.408
G3 X5.601 Y22.448 I3.5 J0
G1 X10.503 Y15.197
G3 X39.497 Y34.803 I14.497 J9.803
X14.408 Y38.931 I-14.497 J-9.803
G2 X12.269 Y39.268 I-0.908 J1.194
G1 X11.702 Y40.084
G2 X10 Y45.509 I7.798 J5.426
G1 Y64
Y65.397
G3 X8.376 Y65.66 I-0.833 J0
G1 X7.543 Y63.16
G3 X7.5 Y62.897 I0.791 J-0.264
X7.746 Y44.567 I682.252 J0
X15.756 Y28.078 I22.205 J0.597
G1 X15.815 Y28.035
X15.878 Y27.999
X16.663 Y27.607
G3 X17.229 Y28.74 I0.283 J0.567
X16.776 Y28.783 I-0.283 J-0.567
G1 Z-10.5
X16.753 Y28.777
G2 X15.628 Y28.517 I-3.412 J12.216
G3 X15.301 Y28.125 I0.072 J-0.392
G1 Y26.904
G3 X15.532 Y26.15 I1.345 J0
G1 X15.951 Y25.54
G2 X15.981 Y23.329 I-1.642 J-1.128
G3 X16.01 Y21.117 I1.674 J-1.083
G1 X17.039 Y19.617
G3 X32.961 Y30.383 I7.961 J5.383
X19.184 Y32.65 I-7.961 J-5.383
G2 X16.332 Y31.195 I-5.459 J7.179
X13.158 Y30.786 I-2.817 J9.33
G3 X12.845 Y30.485 I-0.011 J-0.301
G1 Y26.401
G3 X13.216 Y25.191 I2.161 J0
G1 X16.01 Y21.117
G2 X16.011 Y19.046 I-1.511 J-1.036
G3 X16.152 Y16.979 I1.379 J-0.944
X33.848 Y33.021 I8.848 J8.021
X17.772 Y34.507 I-8.848 J-8.021
G2 X14.399 Y33.147 I-4.172 J5.487
X10.798 Y33.654 I-0.832 J7.136
G3 X10.513 Y33.464 I-0.079 J-0.19
G1 Y25.687
G3 X10.883 Y24.476 I2.161 J0
G1 X15.107 Y18.31
G3 X16.152 Y16.979 I9.893 J6.69
G2 X16.456 Y15.211 I-1.239 J-1.123
G3 X16.956 Y13.487 I1.319 J-0.552
X33.044 Y36.512 I8.044 J11.512
X16.5 Y36.18 I-8.044 J-11.512
G2 X9.433 Y37.295 I-2.999 J3.945
X9.031 Y37.907 I10.931 J7.605
G3 X8.64 Y38.526 I-29.335 J-18.101
G1 X8.613 Y38.555
X8.579 Y38.575
X8.54 Y38.583
X8.5 Y38.578
X8.465 Y38.56
X8.436 Y38.533
X8.418 Y38.498
X8.411 Y38.458
Y25.03
G3 X8.775 Y23.843 I2.118 J0
X11.07 Y20.488 I310.429 J209.91
G2 X13.366 Y17.133 I-308.157 J-213.281
G3 X16.956 Y13.487 I11.634 J7.867
G0 Z4
X6.708 Y65.408
Z2
G1 Z-8.5 F700
Z-10.5
Y65.384
X6.725 Y24.408
G3 X7.03 Y23.414 I1.775 J0
G1 X11.932 Y16.164
G3 X38.068 Y33.836 I13.068 J8.836
X15.452 Y37.558 I-13.068 J-8.836
G2 X10.853 Y38.283 I-1.952 J2.567
G1 X10.286 Y39.098
G2 X8.275 Y45.509 I9.214 J6.411
G1 X8.285 Y65.384
G3 X8.086 Y65.584 I-0.2 J0
G1 X5.201 Y65.598
G3 X5 Y65.398 I-0.001 J-0.2
G1 Y24.408
G3 X5.601 Y22.448 I3.5 J0
G1 X10.503 Y15.197
G3 X39.497 Y34.803 I14.497 J9.803
X14.408 Y38.931 I-14.497 J-9.803
G2 X12.269 Y39.268 I-0.908 J1.194
G1 X11.702 Y40.084
G2 X10 Y45.509 I7.798 J5.426
G1 Y64
Y65.397
G3 X8.376 Y65.66 I-0.833 J0
G1 X7.543 Y63.16
G3 X7.5 Y62.897 I0.791 J-0.264
X7.746 Y44.567 I682.252 J0
X15.756 Y28.078 I22.205 J0.597
G1 X15.815 Y28.035
X15.878 Y27.999
X16.663 Y27.607
G3 X17.229 Y28.74 I0.283 J0.567
X16.776 Y28.783 I-0.283 J-0.567
G1 Z-11
X16.753 Y28.777
G2 X15.628 Y28.517 I-3.412 J12.216
G3 X15.301 Y28.125 I0.072 J-0.392
G1 Y26.904
G3 X15.532 Y26.15 I1.345 J0
G1 X15.951 Y25.54
G2 X15.981 Y23.329 I-1.642 J-1.128
G3 X16.01 Y21.117 I1.674 J-1.083
G1 X17.039 Y19.617
G3 X32.961 Y30.383 I7.961 J5.383
X19.184 Y32.65 I-7.961 J-5.383
G2 X16.332 Y31.195 I-5.459 J7.179
X13.158 Y30.786 I-2.817 J9.33
G3 X12.845 Y30.485 I-0.011 J-0.301
G1 Y26.401
G3 X13.216 Y25.191 I2.161 J0
G1 X16.01 Y21.117
G2 X16.011 Y19.046 I-1.511 J-1.036
G3 X16.152 Y16.979 I1.379 J-0.944
X33.848 Y33.021 I8.848 J8.021
X17.772 Y34.507 I-8.848 J-8.021
G2 X14.399 Y33.147 I-4.172 J5.487
X10.798 Y33.654 I-0.832 J7.136
G3 X10.513 Y33.464 I-0.079 J-0.19
G1 Y25.687
G3 X10.883 Y24.476 I2.161 J0
G1 X15.107 Y18.31
G3 X16.152 Y16.979 I9.893 J6.69
G2 X16.456 Y15.211 I-1.239 J-1.123
G3 X16.956 Y13.487 I1.319 J-0.552
X33.044 Y36.512 I8.044 J11.512
X16.5 Y36.18 I-8.044 J-11.512
G2 X9.433 Y37.295 I-2.999 J3.945
X9.031 Y37.907 I10.931 J7.605
G3 X8.64 Y38.526 I-29.335 J-18.101
G1 X8.613 Y38.555
X8.579 Y38.575
X8.54 Y38.583
X8.5 Y38.578
X8.465 Y38.56
X8.436 Y38.533
X8.418 Y38.498
X8.411 Y38.458
Y25.03
G3 X8.775 Y23.843 I2.118 J0
X11.07 Y20.488 I310.429 J209.91
G2 X13.366 Y17.133 I-308.157 J-213.281
G3 X16.956 Y13.487 I11.634 J7.867
G0 Z4
X6.708 Y65.408
Z2
G1 Z-9 F700
Z-11
Y65.384
X6.725 Y24.408
G3 X7.03 Y23.414 I1.775 J0
G1 X11.932 Y16.164
G3 X38.068 Y33.836 I13.068 J8.836
X15.452 Y37.558 I-13.068 J-8.836
G2 X10.853 Y38.283 I-1.952 J2.567
G1 X10.286 Y39.098
G2 X8.275 Y45.509 I9.214 J6.411
G1 X8.285 Y65.384
G3 X8.086 Y65.584 I-0.2 J0
G1 X5.201 Y65.598
G3 X5 Y65.398 I-0.001 J-0.2
G1 Y24.408
G3 X5.601 Y22.448 I3.5 J0
G1 X10.503 Y15.197
G3 X39.497 Y34.803 I14.497 J9.803
X14.408 Y38.931 I-14.497 J-9.803
G2 X12.269 Y39.268 I-0.908 J1.194
G1 X11.702 Y40.084
G2 X10 Y45.509 I7.798 J5.426
G1 Y64
Y65.397
G3 X8.376 Y65.66 I-0.833 J0
G1 X7.543 Y63.16
G3 X7.5 Y62.897 I0.791 J-0.264
X7.746 Y44.567 I682.252 J0
X15.756 Y28.078 I22.205 J0.597
G1 X15.815 Y28.035
X15.878 Y27.999
X16.663 Y27.607
G3 X17.229 Y28.74 I0.283 J0.567
X16.776 Y28.783 I-0.283 J-0.567
G1 Z-11.5
X16.753 Y28.777
G2 X15.628 Y28.517 I-3.412 J12.216
G3 X15.301 Y28.125 I0.072 J-0.392
G1 Y26.904
G3 X15.532 Y26.15 I1.345 J0
G1 X15.951 Y25.54
G2 X15.981 Y23.329 I-1.642 J-1.128
G3 X16.01 Y21.117 I1.674 J-1.083
G1 X17.039 Y19.617
G3 X32.961 Y30.383 I7.961 J5.383
X19.184 Y32.65 I-7.961 J-5.383
G2 X16.332 Y31.195 I-5.459 J7.179
X13.158 Y30.786 I-2.817 J9.33
G3 X12.845 Y30.485 I-0.011 J-0.301
G1 Y26.401
G3 X13.216 Y25.191 I2.161 J0
G1 X16.01 Y21.117
G2 X16.011 Y19.046 I-1.511 J-1.036
G3 X16.152 Y16.979 I1.379 J-0.944
X33.848 Y33.021 I8.848 J8.021
X17.772 Y34.507 I-8.848 J-8.021
G2 X14.399 Y33.147 I-4.172 J5.487
X10.798 Y33.654 I-0.832 J7.136
G3 X10.513 Y33.464 I-0.079 J-0.19
G1 Y25.687
G3 X10.883 Y24.476 I2.161 J0
G1 X15.107 Y18.31
G3 X16.152 Y16.979 I9.893 J6.69
G2 X16.456 Y15.211 I-1.239 J-1.123
G3 X16.956 Y13.487 I1.319 J-0.552
X33.044 Y36.512 I8.044 J11.512
X16.5 Y36.18 I-8.044 J-11.512
G2 X9.433 Y37.295 I-2.999 J3.945
X9.031 Y37.907 I10.931 J7.605
G3 X8.64 Y38.526 I-29.335 J-18.101
G1 X8.613 Y38.555
X8.579 Y38.575
X8.54 Y38.583
X8.5 Y38.578
X8.465 Y38.56
X8.436 Y38.533
X8.418 Y38.498
X8.411 Y38.458
Y25.03
G3 X8.775 Y23.843 I2.118 J0
X11.07 Y20.488 I310.429 J209.91
G2 X13.366 Y17.133 I-308.157 J-213.281
G3 X16.956 Y13.487 I11.634 J7.867
G0 Z4
X6.708 Y65.408
Z2
G1 Z-9.5 F700
Z-11.5
Y65.384
X6.725 Y24.408
G3 X7.03 Y23.414 I1.775 J0
G1 X11.932 Y16.164
G3 X38.068 Y33.836 I13.068 J8.836
X15.452 Y37.558 I-13.068 J-8.836
G2 X10.853 Y38.283 I-1.952 J2.567
G1 X10.286 Y39.098
G2 X8.275 Y45.509 I9.214 J6.411
G1 X8.285 Y65.384
G3 X8.086 Y65.584 I-0.2 J0
G1 X5.201 Y65.598
G3 X5 Y65.398 I-0.001 J-0.2
G1 Y24.408
G3 X5.601 Y22.448 I3.5 J0
G1 X10.503 Y15.197
G3 X39.497 Y34.803 I14.497 J9.803
X14.408 Y38.931 I-14.497 J-9.803
G2 X12.269 Y39.268 I-0.908 J1.194
G1 X11.702 Y40.084
G2 X10 Y45.509 I7.798 J5.426
G1 Y64
Y65.397
G3 X8.376 Y65.66 I-0.833 J0
G1 X7.543 Y63.16
G3 X7.5 Y62.897 I0.791 J-0.264
X7.746 Y44.567 I682.252 J0
X15.756 Y28.078 I22.205 J0.597
G1 X15.815 Y28.035
X15.878 Y27.999
X16.663 Y27.607
G3 X17.229 Y28.74 I0.283 J0.567
X16.776 Y28.783 I-0.283 J-0.567
G1 Z-12
X16.753 Y28.777
G2 X15.628 Y28.517 I-3.412 J12.216
G3 X15.301 Y28.125 I0.072 J-0.392
G1 Y26.904
G3 X15.532 Y26.15 I1.345 J0
G1 X15.951 Y25.54
G2 X15.981 Y23.329 I-1.642 J-1.128
G3 X16.01 Y21.117 I1.674 J-1.083
G1 X17.039 Y19.617
G3 X32.961 Y30.383 I7.961 J5.383
X19.184 Y32.65 I-7.961 J-5.383
G2 X16.332 Y31.195 I-5.459 J7.179
X13.158 Y30.786 I-2.817 J9.33
G3 X12.845 Y30.485 I-0.011 J-0.301
G1 Y26.401
G3 X13.216 Y25.191 I2.161 J0
G1 X16.01 Y21.117
G2 X16.011 Y19.046 I-1.511 J-1.036
G3 X16.152 Y16.979 I1.379 J-0.944
X33.848 Y33.021 I8.848 J8.021
X17.772 Y34.507 I-8.848 J-8.021
G2 X14.399 Y33.147 I-4.172 J5.487
X10.798 Y33.654 I-0.832 J7.136
G3 X10.513 Y33.464 I-0.079 J-0.19
G1 Y25.687
G3 X10.883 Y24.476 I2.161 J0
G1 X15.107 Y18.31
G3 X16.152 Y16.979 I9.893 J6.69
G2 X16.456 Y15.211 I-1.239 J-1.123
G3 X16.956 Y13.487 I1.319 J-0.552
X33.044 Y36.512 I8.044 J11.512
X16.5 Y36.18 I-8.044 J-11.512
G2 X9.433 Y37.295 I-2.999 J3.945
X9.031 Y37.907 I10.931 J7.605
G3 X8.64 Y38.526 I-29.335 J-18.101
G1 X8.613 Y38.555
X8.579 Y38.575
X8.54 Y38.583
X8.5 Y38.578
X8.465 Y38.56
X8.436 Y38.533
X8.418 Y38.498
X8.411 Y38.458
Y25.03
G3 X8.775 Y23.843 I2.118 J0
X11.07 Y20.488 I310.429 J209.91
G2 X13.366 Y17.133 I-308.157 J-213.281
G3 X16.956 Y13.487 I11.634 J7.867
G0 Z4
X6.708 Y65.408
Z2
G1 Z-10 F700
Z-12
Y65.384
X6.725 Y24.408
G3 X7.03 Y23.414 I1.775 J0
G1 X11.932 Y16.164
G3 X38.068 Y33.836 I13.068 J8.836
X15.452 Y37.558 I-13.068 J-8.836
G2 X10.853 Y38.283 I-1.952 J2.567
G1 X10.286 Y39.098
G2 X8.275 Y45.509 I9.214 J6.411
G1 X8.285 Y65.384
G3 X8.086 Y65.584 I-0.2 J0
G1 X5.201 Y65.598
G3 X5 Y65.398 I-0.001 J-0.2
G1 Y24.408
G3 X5.601 Y22.448 I3.5 J0
G1 X10.503 Y15.197
G3 X39.497 Y34.803 I14.497 J9.803
X14.408 Y38.931 I-14.497 J-9.803
G2 X12.269 Y39.268 I-0.908 J1.194
G1 X11.702 Y40.084
G2 X10 Y45.509 I7.798 J5.426
G1 Y64
Y65.397
G3 X8.376 Y65.66 I-0.833 J0
G1 X7.543 Y63.16
G3 X7.5 Y62.897 I0.791 J-0.264
X7.746 Y44.567 I682.252 J0
X15.756 Y28.078 I22.205 J0.597
G1 X15.815 Y28.035
X15.878 Y27.999
X16.663 Y27.607
G3 X17.229 Y28.74 I0.283 J0.567
X16.776 Y28.783 I-0.283 J-0.567
G1 Z-12.5
X16.753 Y28.777
G2 X15.628 Y28.517 I-3.412 J12.216
G3 X15.301 Y28.125 I0.072 J-0.392
G1 Y26.904
G3 X15.532 Y26.15 I1.345 J0
G1 X15.951 Y25.54
G2 X15.981 Y23.329 I-1.642 J-1.128
G3 X16.01 Y21.117 I1.674 J-1.083
G1 X17.039 Y19.617
G3 X32.961 Y30.383 I7.961 J5.383
X19.184 Y32.65 I-7.961 J-5.383
G2 X16.332 Y31.195 I-5.459 J7.179
X13.158 Y30.786 I-2.817 J9.33
G3 X12.845 Y30.485 I-0.011 J-0.301
G1 Y26.401
G3 X13.216 Y25.191 I2.161 J0
G1 X16.01 Y21.117
G2 X16.011 Y19.046 I-1.511 J-1.036
G3 X16.152 Y16.979 I1.379 J-0.944
X33.848 Y33.021 I8.848 J8.021
X17.772 Y34.507 I-8.848 J-8.021
G2 X14.399 Y33.147 I-4.172 J5.487
X10.798 Y33.654 I-0.832 J7.136
G3 X10.513 Y33.464 I-0.079 J-0.19
G1 Y25.687
G3 X10.883 Y24.476 I2.161 J0
G1 X15.107 Y18.31
G3 X16.152 Y16.979 I9.893 J6.69
G2 X16.456 Y15.211 I-1.239 J-1.123
G3 X16.956 Y13.487 I1.319 J-0.552
X33.044 Y36.512 I8.044 J11.512
X16.5 Y36.18 I-8.044 J-11.512
G2 X9.433 Y37.295 I-2.999 J3.945
X9.031 Y37.907 I10.931 J7.605
G3 X8.64 Y38.526 I-29.335 J-18.101
G1 X8.613 Y38.555
X8.579 Y38.575
X8.54 Y38.583
X8.5 Y38.578
X8.465 Y38.56
X8.436 Y38.533
X8.418 Y38.498
X8.411 Y38.458
Y25.03
G3 X8.775 Y23.843 I2.118 J0
X11.07 Y20.488 I310.429 J209.91
G2 X13.366 Y17.133 I-308.157 J-213.281
G3 X16.956 Y13.487 I11.634 J7.867
G0 Z4
X6.708 Y65.408
Z2
G1 Z-10.5 F700
Z-12.5
Y65.384
X6.725 Y24.408
G3 X7.03 Y23.414 I1.775 J0
G1 X11.932 Y16.164
G3 X38.068 Y33.836 I13.068 J8.836
X15.452 Y37.558 I-13.068 J-8.836
G2 X10.853 Y38.283 I-1.952 J2.567
G1 X10.286 Y39.098
G2 X8.275 Y45.509 I9.214 J6.411
G1 X8.285 Y65.384
G3 X8.086 Y65.584 I-0.2 J0
G1 X5.201 Y65.598
G3 X5 Y65.398 I-0.001 J-0.2
G1 Y24.408
G3 X5.601 Y22.448 I3.5 J0
G1 X10.503 Y15.197
G3 X39.497 Y34.803 I14.497 J9.803
X14.408 Y38.931 I-14.497 J-9.803
G2 X12.269 Y39.268 I-0.908 J1.194
G1 X11.702 Y40.084
G2 X10 Y45.509 I7.798 J5.426
G1 Y64
Y65.397
G3 X8.376 Y65.66 I-0.833 J0
G1 X7.543 Y63.16
G3 X7.5 Y62.897 I0.791 J-0.264
X7.746 Y44.567 I682.252 J0
X15.756 Y28.078 I22.205 J0.597
G1 X15.815 Y28.035
X15.878 Y27.999
X16.663 Y27.607
G3 X17.229 Y28.74 I0.283 J0.567
X16.776 Y28.783 I-0.283 J-0.567
G1 Z-13
X16.753 Y28.777
G2 X15.628 Y28.517 I-3.412 J12.216
G3 X15.301 Y28.125 I0.072 J-0.392
G1 Y26.904
G3 X15.532 Y26.15 I1.345 J0
G1 X15.951 Y25.54
G2 X15.981 Y23.329 I-1.642 J-1.128
G3 X16.01 Y21.117 I1.674 J-1.083
G1 X17.039 Y19.617
G3 X32.961 Y30.383 I7.961 J5.383
X19.184 Y32.65 I-7.961 J-5.383
G2 X16.332 Y31.195 I-5.459 J7.179
X13.158 Y30.786 I-2.817 J9.33
G3 X12.845 Y30.485 I-0.011 J-0.301
G1 Y26.401
G3 X13.216 Y25.191 I2.161 J0
G1 X16.01 Y21.117
G2 X16.011 Y19.046 I-1.511 J-1.036
G3 X16.152 Y16.979 I1.379 J-0.944
X33.848 Y33.021 I8.848 J8.021
X17.772 Y34.507 I-8.848 J-8.021
G2 X14.399 Y33.147 I-4.172 J5.487
X10.798 Y33.654 I-0.832 J7.136
G3 X10.513 Y33.464 I-0.079 J-0.19
G1 Y25.687
G3 X10.883 Y24.476 I2.161 J0
G1 X15.107 Y18.31
G3 X16.152 Y16.979 I9.893 J6.69
G2 X16.456 Y15.211 I-1.239 J-1.123
G3 X16.956 Y13.487 I1.319 J-0.552
X33.044 Y36.512 I8.044 J11.512
X16.5 Y36.18 I-8.044 J-11.512
G2 X9.433 Y37.295 I-2.999 J3.945
X9.031 Y37.907 I10.931 J7.605
G3 X8.64 Y38.526 I-29.335 J-18.101
G1 X8.613 Y38.555
X8.579 Y38.575
X8.54 Y38.583
X8.5 Y38.578
X8.465 Y38.56
X8.436 Y38.533
X8.418 Y38.498
X8.411 Y38.458
Y25.03
G3 X8.775 Y23.843 I2.118 J0
X11.07 Y20.488 I310.429 J209.91
G2 X13.366 Y17.133 I-308.157 J-213.281
G3 X16.956 Y13.487 I11.634 J7.867
G0 Z4
X6.708 Y65.408
Z2
G1 Z-11 F700
Z-13
Y65.384
X6.725 Y24.408
G3 X7.03 Y23.414 I1.775 J0
G1 X11.932 Y16.164
G3 X38.068 Y33.836 I13.068 J8.836
X15.452 Y37.558 I-13.068 J-8.836
G2 X10.853 Y38.283 I-1.952 J2.567
G1 X10.286 Y39.098
G2 X8.275 Y45.509 I9.214 J6.411
G1 X8.285 Y65.384
G3 X8.086 Y65.584 I-0.2 J0
G1 X5.201 Y65.598
G3 X5 Y65.398 I-0.001 J-0.2
G1 Y24.408
G3 X5.601 Y22.448 I3.5 J0
G1 X10.503 Y15.197
G3 X39.497 Y34.803 I14.497 J9.803
X14.408 Y38.931 I-14.497 J-9.803
G2 X12.269 Y39.268 I-0.908 J1.194
G1 X11.702 Y40.084
G2 X10 Y45.509 I7.798 J5.426
G1 Y64
Y65.397
G3 X8.376 Y65.66 I-0.833 J0
G1 X7.543 Y63.16
G3 X7.5 Y62.897 I0.791 J-0.264
X7.746 Y44.567 I682.252 J0
X15.756 Y28.078 I22.205 J0.597
G1 X15.815 Y28.035
X15.878 Y27.999
X16.663 Y27.607
G3 X17.229 Y28.74 I0.283 J0.567
X16.776 Y28.783 I-0.283 J-0.567
G1 Z-13.5
X16.753 Y28.777
G2 X15.628 Y28.517 I-3.412 J12.216
G3 X15.301 Y28.125 I0.072 J-0.392
G1 Y26.904
G3 X15.532 Y26.15 I1.345 J0
G1 X15.951 Y25.54
G2 X15.981 Y23.329 I-1.642 J-1.128
G3 X16.01 Y21.117 I1.674 J-1.083
G1 X17.039 Y19.617
G3 X32.961 Y30.383 I7.961 J5.383
X19.184 Y32.65 I-7.961 J-5.383
G2 X16.332 Y31.195 I-5.459 J7.179
X13.158 Y30.786 I-2.817 J9.33
G3 X12.845 Y30.485 I-0.011 J-0.301
G1 Y26.401
G3 X13.216 Y25.191 I2.161 J0
G1 X16.01 Y21.117
G2 X16.011 Y19.046 I-1.511 J-1.036
G3 X16.152 Y16.979 I1.379 J-0.944
X33.848 Y33.021 I8.848 J8.021
X17.772 Y34.507 I-8.848 J-8.021
G2 X14.399 Y33.147 I-4.172 J5.487
X10.798 Y33.654 I-0.832 J7.136
G3 X10.513 Y33.464 I-0.079 J-0.19
G1 Y25.687
G3 X10.883 Y24.476 I2.161 J0
G1 X15.107 Y18.31
G3 X16.152 Y16.979 I9.893 J6.69
G2 X16.456 Y15.211 I-1.239 J-1.123
G3 X16.956 Y13.487 I1.319 J-0.552
X33.044 Y36.512 I8.044 J11.512
X16.5 Y36.18 I-8.044 J-11.512
G2 X9.433 Y37.295 I-2.999 J3.945
X9.031 Y37.907 I10.931 J7.605
G3 X8.64 Y38.526 I-29.335 J-18.101
G1 X8.613 Y38.555
X8.579 Y38.575
X8.54 Y38.583
X8.5 Y38.578
X8.465 Y38.56
X8.436 Y38.533
X8.418 Y38.498
X8.411 Y38.458
Y25.03
G3 X8.775 Y23.843 I2.118 J0
X11.07 Y20.488 I310.429 J209.91
G2 X13.366 Y17.133 I-308.157 J-213.281
G3 X16.956 Y13.487 I11.634 J7.867
G0 Z4
X6.708 Y65.408
Z2
G1 Z-11.5 F700
Z-13.5
Y65.384
X6.725 Y24.408
G3 X7.03 Y23.414 I1.775 J0
G1 X11.932 Y16.164
G3 X38.068 Y33.836 I13.068 J8.836
X15.452 Y37.558 I-13.068 J-8.836
G2 X10.853 Y38.283 I-1.952 J2.567
G1 X10.286 Y39.098
G2 X8.275 Y45.509 I9.214 J6.411
G1 X8.285 Y65.384
G3 X8.086 Y65.584 I-0.2 J0
G1 X5.201 Y65.598
G3 X5 Y65.398 I-0.001 J-0.2
G1 Y24.408
G3 X5.601 Y22.448 I3.5 J0
G1 X10.503 Y15.197
G3 X39.497 Y34.803 I14.497 J9.803
X14.408 Y38.931 I-14.497 J-9.803
G2 X12.269 Y39.268 I-0.908 J1.194
G1 X11.702 Y40.084
G2 X10 Y45.509 I7.798 J5.426
G1 Y64
Y65.397
G3 X8.376 Y65.66 I-0.833 J0
G1 X7.543 Y63.16
G3 X7.5 Y62.897 I0.791 J-0.264
X7.746 Y44.567 I682.252 J0
X15.756 Y28.078 I22.205 J0.597
G1 X15.815 Y28.035
X15.878 Y27.999
X16.663 Y27.607
G3 X17.229 Y28.74 I0.283 J0.567
X16.776 Y28.783 I-0.283 J-0.567
G1 Z-14
X16.753 Y28.777
G2 X15.628 Y28.517 I-3.412 J12.216
G3 X15.301 Y28.125 I0.072 J-0.392
G1 Y26.904
G3 X15.532 Y26.15 I1.345 J0
G1 X15.951 Y25.54
G2 X15.981 Y23.329 I-1.642 J-1.128
G3 X16.01 Y21.117 I1.674 J-1.083
G1 X17.039 Y19.617
G3 X32.961 Y30.383 I7.961 J5.383
X19.184 Y32.65 I-7.961 J-5.383
G2 X16.332 Y31.195 I-5.459 J7.179
X13.158 Y30.786 I-2.817 J9.33
G3 X12.845 Y30.485 I-0.011 J-0.301
G1 Y26.401
G3 X13.216 Y25.191 I2.161 J0
G1 X16.01 Y21.117
G2 X16.011 Y19.046 I-1.511 J-1.036
G3 X16.152 Y16.979 I1.379 J-0.944
X33.848 Y33.021 I8.848 J8.021
X17.772 Y34.507 I-8.848 J-8.021
G2 X14.399 Y33.147 I-4.172 J5.487
X10.798 Y33.654 I-0.832 J7.136
G3 X10.513 Y33.464 I-0.079 J-0.19
G1 Y25.687
G3 X10.883 Y24.476 I2.161 J0
G1 X15.107 Y18.31
G3 X16.152 Y16.979 I9.893 J6.69
G2 X16.456 Y15.211 I-1.239 J-1.123
G3 X16.956 Y13.487 I1.319 J-0.552
X33.044 Y36.512 I8.044 J11.512
X16.5 Y36.18 I-8.044 J-11.512
G2 X9.433 Y37.295 I-2.999 J3.945
X9.031 Y37.907 I10.931 J7.605
G3 X8.64 Y38.526 I-29.335 J-18.101
G1 X8.613 Y38.555
X8.579 Y38.575
X8.54 Y38.583
X8.5 Y38.578
X8.465 Y38.56
X8.436 Y38.533
X8.418 Y38.498
X8.411 Y38.458
Y25.03
G3 X8.775 Y23.843 I2.118 J0
X11.07 Y20.488 I310.429 J209.91
G2 X13.366 Y17.133 I-308.157 J-213.281
G3 X16.956 Y13.487 I11.634 J7.867
G0 Z4
X6.708 Y65.408
Z2
G1 Z-12 F700
Z-14
Y65.384
X6.725 Y24.408
G3 X7.03 Y23.414 I1.775 J0
G1 X11.932 Y16.164
G3 X38.068 Y33.836 I13.068 J8.836
X15.452 Y37.558 I-13.068 J-8.836
G2 X10.853 Y38.283 I-1.952 J2.567
G1 X10.286 Y39.098
G2 X8.275 Y45.509 I9.214 J6.411
G1 X8.285 Y65.384
G3 X8.086 Y65.584 I-0.2 J0
G1 X5.201 Y65.598
G3 X5 Y65.398 I-0.001 J-0.2
G1 Y24.408
G3 X5.601 Y22.448 I3.5 J0
G1 X10.503 Y15.197
G3 X39.497 Y34.803 I14.497 J9.803
X14.408 Y38.931 I-14.497 J-9.803
G2 X12.269 Y39.268 I-0.908 J1.194
G1 X11.702 Y40.084
G2 X10 Y45.509 I7.798 J5.426
G1 Y64
Y65.397
G3 X8.376 Y65.66 I-0.833 J0
G1 X7.543 Y63.16
G3 X7.5 Y62.897 I0.791 J-0.264
X7.746 Y44.567 I682.252 J0
X15.756 Y28.078 I22.205 J0.597
G1 X15.815 Y28.035
X15.878 Y27.999
X16.663 Y27.607
G3 X17.229 Y28.74 I0.283 J0.567
X16.776 Y28.783 I-0.283 J-0.567
G1 Z-14.5
X16.753 Y28.777
G2 X15.628 Y28.517 I-3.412 J12.216
G3 X15.301 Y28.125 I0.072 J-0.392
G1 Y26.904
G3 X15.532 Y26.15 I1.345 J0
G1 X15.951 Y25.54
G2 X15.981 Y23.329 I-1.642 J-1.128
G3 X16.01 Y21.117 I1.674 J-1.083
G1 X17.039 Y19.617
G3 X32.961 Y30.383 I7.961 J5.383
X19.184 Y32.65 I-7.961 J-5.383
G2 X16.332 Y31.195 I-5.459 J7.179
X13.158 Y30.786 I-2.817 J9.33
G3 X12.845 Y30.485 I-0.011 J-0.301
G1 Y26.401
G3 X13.216 Y25.191 I2.161 J0
G1 X16.01 Y21.117
G2 X16.011 Y19.046 I-1.511 J-1.036
G3 X16.152 Y16.979 I1.379 J-0.944
X33.848 Y33.021 I8.848 J8.021
X17.772 Y34.507 I-8.848 J-8.021
G2 X14.399 Y33.147 I-4.172 J5.487
X10.798 Y33.654 I-0.832 J7.136
G3 X10.513 Y33.464 I-0.079 J-0.19
G1 Y25.687
G3 X10.883 Y24.476 I2.161 J0
G1 X15.107 Y18.31
G3 X16.152 Y16.979 I9.893 J6.69
G2 X16.456 Y15.211 I-1.239 J-1.123
G3 X16.956 Y13.487 I1.319 J-0.552
X33.044 Y36.512 I8.044 J11.512
X16.5 Y36.18 I-8.044 J-11.512
G2 X9.433 Y37.295 I-2.999 J3.945
X9.031 Y37.907 I10.931 J7.605
G3 X8.64 Y38.526 I-29.335 J-18.101
G1 X8.613 Y38.555
X8.579 Y38.575
X8.54 Y38.583
X8.5 Y38.578
X8.465 Y38.56
X8.436 Y38.533
X8.418 Y38.498
X8.411 Y38.458
Y25.03
G3 X8.775 Y23.843 I2.118 J0
X11.07 Y20.488 I310.429 J209.91
G2 X13.366 Y17.133 I-308.157 J-213.281
G3 X16.956 Y13.487 I11.634 J7.867
G0 Z4
X6.708 Y65.408
Z2
G1 Z-12.5 F700
Z-14.5
Y65.384
X6.725 Y24.408
G3 X7.03 Y23.414 I1.775 J0
G1 X11.932 Y16.164
G3 X38.068 Y33.836 I13.068 J8.836
X15.452 Y37.558 I-13.068 J-8.836
G2 X10.853 Y38.283 I-1.952 J2.567
G1 X10.286 Y39.098
G2 X8.275 Y45.509 I9.214 J6.411
G1 X8.285 Y65.384
G3 X8.086 Y65.584 I-0.2 J0
G1 X5.201 Y65.598
G3 X5 Y65.398 I-0.001 J-0.2
G1 Y24.408
G3 X5.601 Y22.448 I3.5 J0
G1 X10.503 Y15.197
G3 X39.497 Y34.803 I14.497 J9.803
X14.408 Y38.931 I-14.497 J-9.803
G2 X12.269 Y39.268 I-0.908 J1.194
G1 X11.702 Y40.084
G2 X10 Y45.509 I7.798 J5.426
G1 Y64
Y65.397
G3 X8.376 Y65.66 I-0.833 J0
G1 X7.543 Y63.16
G3 X7.5 Y62.897 I0.791 J-0.264
X7.746 Y44.567 I682.252 J0
X15.756 Y28.078 I22.205 J0.597
G1 X15.815 Y28.035
X15.878 Y27.999
X16.663 Y27.607
G3 X17.229 Y28.74 I0.283 J0.567
X16.776 Y28.783 I-0.283 J-0.567
G1 Z-15
X16.753 Y28.777
G2 X15.628 Y28.517 I-3.412 J12.216
G3 X15.301 Y28.125 I0.072 J-0.392
G1 Y26.904
G3 X15.532 Y26.15 I1.345 J0
G1 X15.951 Y25.54
G2 X15.981 Y23.329 I-1.642 J-1.128
G3 X16.01 Y21.117 I1.674 J-1.083
G1 X17.039 Y19.617
G3 X32.961 Y30.383 I7.961 J5.383
X19.184 Y32.65 I-7.961 J-5.383
G2 X16.332 Y31.195 I-5.459 J7.179
X13.158 Y30.786 I-2.817 J9.33
G3 X12.845 Y30.485 I-0.011 J-0.301
G1 Y26.401
G3 X13.216 Y25.191 I2.161 J0
G1 X16.01 Y21.117
G2 X16.011 Y19.046 I-1.511 J-1.036
G3 X16.152 Y16.979 I1.379 J-0.944
X33.848 Y33.021 I8.848 J8.021
X17.772 Y34.507 I-8.848 J-8.021
G2 X14.399 Y33.147 I-4.172 J5.487
X10.798 Y33.654 I-0.832 J7.136
G3 X10.513 Y33.464 I-0.079 J-0.19
G1 Y25.687
G3 X10.883 Y24.476 I2.161 J0
G1 X15.107 Y18.31
G3 X16.152 Y16.979 I9.893 J6.69
G2 X16.456 Y15.211 I-1.239 J-1.123
G3 X16.956 Y13.487 I1.319 J-0.552
X33.044 Y36.512 I8.044 J11.512
X16.5 Y36.18 I-8.044 J-11.512
G2 X9.433 Y37.295 I-2.999 J3.945
X9.031 Y37.907 I10.931 J7.605
G3 X8.64 Y38.526 I-29.335 J-18.101
G1 X8.613 Y38.555
X8.579 Y38.575
X8.54 Y38.583
X8.5 Y38.578
X8.465 Y38.56
X8.436 Y38.533
X8.418 Y38.498
X8.411 Y38.458
Y25.03
G3 X8.775 Y23.843 I2.118 J0
X11.07 Y20.488 I310.429 J209.91
G2 X13.366 Y17.133 I-308.157 J-213.281
G3 X16.956 Y13.487 I11.634 J7.867
G0 Z4
X6.708 Y65.408
Z2
G1 Z-13 F700
Z-15
Y65.384
X6.725 Y24.408
G3 X7.03 Y23.414 I1.775 J0
G1 X11.932 Y16.164
G3 X38.068 Y33.836 I13.068 J8.836
X15.452 Y37.558 I-13.068 J-8.836
G2 X10.853 Y38.283 I-1.952 J2.567
G1 X10.286 Y39.098
G2 X8.275 Y45.509 I9.214 J6.411
G1 X8.285 Y65.384
G3 X8.086 Y65.584 I-0.2 J0
G1 X5.201 Y65.598
G3 X5 Y65.398 I-0.001 J-0.2
G1 Y24.408
G3 X5.601 Y22.448 I3.5 J0
G1 X10.503 Y15.197
G3 X39.497 Y34.803 I14.497 J9.803
X14.408 Y38.931 I-14.497 J-9.803
G2 X12.269 Y39.268 I-0.908 J1.194
G1 X11.702 Y40.084
G2 X10 Y45.509 I7.798 J5.426
G1 Y64
Y65.397
G0 Z6
X5.717 Y22.099
Z2
G1 Z1.5 F700
Z-0.5
X5.731 Y22.006
G3 X44.269 Y27.994 I19.269 J2.994
X13.308 Y40.606 I-19.269 J-2.994
G1 X12.096 Y39.698
X12.075 Y39.674
X12.066 Y39.645
X12.069 Y39.614
X12.155 Y39.303
X6.06 Y22.382
X6.045 Y22.355
X6.021 Y22.336
X5.759 Y22.187
X5.733 Y22.164
X5.718 Y22.133
X5.717 Y22.099
Z-1
X5.731 Y22.006
G3 X44.269 Y27.994 I19.269 J2.994
X13.308 Y40.606 I-19.269 J-2.994
G1 X12.096 Y39.698
X12.075 Y39.674
X12.066 Y39.645
X12.069 Y39.614
X12.155 Y39.303
X6.06 Y22.382
X6.045 Y22.355
X6.021 Y22.336
X5.759 Y22.187
X5.733 Y22.164
X5.718 Y22.133
X5.717 Y22.099
Z-1.5
X5.731 Y22.006
G3 X44.269 Y27.994 I19.269 J2.994
X13.308 Y40.606 I-19.269 J-2.994
G1 X12.096 Y39.698
X12.075 Y39.674
X12.066 Y39.645
X12.069 Y39.614
X12.155 Y39.303
X6.06 Y22.382
X6.045 Y22.355
X6.021 Y22.336
X5.759 Y22.187
X5.733 Y22.164
X5.718 Y22.133
X5.717 Y22.099
Z-2
X5.731 Y22.006
G3 X44.269 Y27.994 I19.269 J2.994
X13.308 Y40.606 I-19.269 J-2.994
G1 X12.096 Y39.698
X12.075 Y39.674
X12.066 Y39.645
X12.069 Y39.614
X12.155 Y39.303
X6.06 Y22.382
X6.045 Y22.355
X6.021 Y22.336
X5.759 Y22.187
X5.733 Y22.164
X5.718 Y22.133
X5.717 Y22.099
Z-2.5
X5.731 Y22.006
G3 X44.269 Y27.994 I19.269 J2.994
X13.308 Y40.606 I-19.269 J-2.994
G1 X12.096 Y39.698
X12.075 Y39.674
X12.066 Y39.645
X12.069 Y39.614
X12.155 Y39.303
X6.06 Y22.382
X6.045 Y22.355
X6.021 Y22.336
X5.759 Y22.187
X5.733 Y22.164
X5.718 Y22.133
X5.717 Y22.099
Z-3
X5.731 Y22.006
G3 X44.269 Y27.994 I19.269 J2.994
X13.308 Y40.606 I-19.269 J-2.994
G1 X12.096 Y39.698
X12.075 Y39.674
X12.066 Y39.645
X12.069 Y39.614
X12.155 Y39.303
X6.06 Y22.382
X6.045 Y22.355
X6.021 Y22.336
X5.759 Y22.187
X5.733 Y22.164
X5.718 Y22.133
X5.717 Y22.099
Z-3.5
X5.731 Y22.006
G3 X44.269 Y27.994 I19.269 J2.994
X13.308 Y40.606 I-19.269 J-2.994
G1 X12.096 Y39.698
X12.075 Y39.674
X12.066 Y39.645
X12.069 Y39.614
X12.155 Y39.303
X6.06 Y22.382
X6.045 Y22.355
X6.021 Y22.336
X5.759 Y22.187
X5.733 Y22.164
X5.718 Y22.133
X5.717 Y22.099
Z-4
X5.731 Y22.006
G3 X44.269 Y27.994 I19.269 J2.994
X13.308 Y40.606 I-19.269 J-2.994
G1 X12.096 Y39.698
X12.075 Y39.674
X12.066 Y39.645
X12.069 Y39.614
X12.155 Y39.303
X6.06 Y22.382
X6.045 Y22.355
X6.021 Y22.336
X5.759 Y22.187
X5.733 Y22.164
X5.718 Y22.133
X5.717 Y22.099
Z-4.5
X5.731 Y22.006
G3 X44.269 Y27.994 I19.269 J2.994
X13.308 Y40.606 I-19.269 J-2.994
G1 X12.096 Y39.698
X12.075 Y39.674
X12.066 Y39.645
X12.069 Y39.614
X12.155 Y39.303
X6.06 Y22.382
X6.045 Y22.355
X6.021 Y22.336
X5.759 Y22.187
X5.733 Y22.164
X5.718 Y22.133
X5.717 Y22.099
Z-5
X5.731 Y22.006
G3 X44.269 Y27.994 I19.269 J2.994
X13.308 Y40.606 I-19.269 J-2.994
G1 X12.096 Y39.698
X12.075 Y39.674
X12.066 Y39.645
X12.069 Y39.614
X12.155 Y39.303
X6.06 Y22.382
X6.045 Y22.355
X6.021 Y22.336
X5.759 Y22.187
X5.733 Y22.164
X5.718 Y22.133
X5.717 Y22.099
Z-5.5
X5.731 Y22.006
G3 X44.269 Y27.994 I19.269 J2.994
X13.308 Y40.606 I-19.269 J-2.994
G1 X12.096 Y39.698
X12.075 Y39.674
X12.066 Y39.645
X12.069 Y39.614
X12.155 Y39.303
X6.06 Y22.382
X6.045 Y22.355
X6.021 Y22.336
X5.759 Y22.187
X5.733 Y22.164
X5.718 Y22.133
X5.717 Y22.099
Z-6
X5.731 Y22.006
G3 X44.269 Y27.994 I19.269 J2.994
X13.308 Y40.606 I-19.269 J-2.994
G1 X12.096 Y39.698
G0 Z6
X4.902 Y31.09
Z2
G1 Z1.5 F700
Z-0.5
X4.899 Y31.078
G3 X45.101 Y18.922 I20.101 J-6.078
X25 Y46 I-20.101 J6.078
G1 X24.979
X24.959
G3 X12.706 Y42.025 I0.041 J-21
G1 X11.328 Y41.03
X11.3 Y41.006
X11.277 Y40.977
X4.926 Y31.14
X4.902 Y31.09
Z-1
X4.899 Y31.078
G3 X45.101 Y18.922 I20.101 J-6.078
X25 Y46 I-20.101 J6.078
G1 X24.979
X24.959
G3 X12.706 Y42.025 I0.041 J-21
G1 X11.328 Y41.03
X11.3 Y41.006
X11.277 Y40.977
X4.926 Y31.14
X4.902 Y31.09
Z-1.5
X4.899 Y31.078
G3 X45.101 Y18.922 I20.101 J-6.078
X25 Y46 I-20.101 J6.078
G1 X24.979
X24.959
G3 X12.706 Y42.025 I0.041 J-21
G1 X11.328 Y41.03
X11.3 Y41.006
X11.277 Y40.977
X4.926 Y31.14
X4.902 Y31.09
Z-2
X4.899 Y31.078
G3 X45.101 Y18.922 I20.101 J-6.078
X25 Y46 I-20.101 J6.078
G1 X24.979
X24.959
G3 X12.706 Y42.025 I0.041 J-21
G1 X11.328 Y41.03
X11.3 Y41.006
X11.277 Y40.977
X4.926 Y31.14
X4.902 Y31.09
Z-2.5
X4.899 Y31.078
G3 X45.101 Y18.922 I20.101 J-6.078
X25 Y46 I-20.101 J6.078
G1 X24.979
X24.959
G3 X12.706 Y42.025 I0.041 J-21
G1 X11.328 Y41.03
X11.3 Y41.006
X11.277 Y40.977
X4.926 Y31.14
X4.902 Y31.09
Z-3
X4.899 Y31.078
G3 X45.101 Y18.922 I20.101 J-6.078
X25 Y46 I-20.101 J6.078
G1 X24.979
X24.959
G3 X12.706 Y42.025 I0.041 J-21
G1 X11.328 Y41.03
X11.3 Y41.006
X11.277 Y40.977
X4.926 Y31.14
X4.902 Y31.09
Z-3.5
X4.899 Y31.078
G3 X45.101 Y18.922 I20.101 J-6.078
X25 Y46 I-20.101 J6.078
G1 X24.979
X24.959
G3 X12.706 Y42.025 I0.041 J-21
G1 X11.328 Y41.03
X11.3 Y41.006
X11.277 Y40.977
X4.926 Y31.14
X4.902 Y31.09
Z-4
X4.899 Y31.078
G3 X45.101 Y18.922 I20.101 J-6.078
X25 Y46 I-20.101 J6.078
G1 X24.979
X24.959
G3 X12.706 Y42.025 I0.041 J-21
G1 X11.328 Y41.03
X11.3 Y41.006
X11.277 Y40.977
X4.926 Y31.14
X4.902 Y31.09
Z-4.5
X4.899 Y31.078
G3 X45.101 Y18.922 I20.101 J-6.078
X25 Y46 I-20.101 J6.078
G1 X24.979
X24.959
G3 X12.706 Y42.025 I0.041 J-21
G1 X11.328 Y41.03
X11.3 Y41.006
X11.277 Y40.977
X4.926 Y31.14
X4.902 Y31.09
Z-5
X4.899 Y31.078
G3 X45.101 Y18.922 I20.101 J-6.078
X25 Y46 I-20.101 J6.078
G1 X24.979
X24.959
G3 X12.706 Y42.025 I0.041 J-21
G1 X11.328 Y41.03
G0 Z6
X23.776 Y25
Z2
G1 Z1.85 F700
X27.841 Z0.37 F333.3
X25.45 Z-0.5
G3 X24.55 Y25 I-0.45 J0 F700
X28.3 Y25 I1.875 J0
X21.7 Y25 I-3.3 J0
X31.15 Y25 I4.725 J0
X18.85 Y25 I-6.15 J0
X34 Y25 I7.575 J0
X16 Y25 I-9 J0
X34 Y25 I9 J0
X32.687 Y25.758 I-0.876 J0
G1 X29.099 Y23.687
G2 X27.902 Y24.007 I-0.438 J0.758
G1 X27.582 Y24.562
G3 X26.824 Y25 I-0.758 J-0.438
G1 X25.45 Z-1 F333.3
G3 X24.55 Y25 I-0.45 J0 F700
X28.3 Y25 I1.875 J0
X21.7 Y25 I-3.3 J0
X31.15 Y25 I4.725 J0
X18.85 Y25 I-6.15 J0
X34 Y25 I7.575 J0
X16 Y25 I-9 J0
X34 Y25 I9 J0
X32.687 Y25.758 I-0.876 J0
G1 X29.099 Y23.687
G2 X27.902 Y24.007 I-0.438 J0.758
G1 X27.582 Y24.562
G3 X26.824 Y25 I-0.758 J-0.438
G1 X25.45 Z-1.5 F333.3
G3 X24.55 Y25 I-0.45 J0 F700
X28.3 Y25 I1.875 J0
X21.7 Y25 I-3.3 J0
X31.15 Y25 I4.725 J0
X18.85 Y25 I-6.15 J0
X34 Y25 I7.575 J0
X16 Y25 I-9 J0
X34 Y25 I9 J0
X32.687 Y25.758 I-0.876 J0
G1 X29.099 Y23.687
G2 X27.902 Y24.007 I-0.438 J0.758
G1 X27.582 Y24.562
G3 X26.824 Y25 I-0.758 J-0.438
G1 X25.45 Z-2 F333.3
G3 X24.55 Y25 I-0.45 J0 F700
X28.3 Y25 I1.875 J0
X21.7 Y25 I-3.3 J0
X31.15 Y25 I4.725 J0
X18.85 Y25 I-6.15 J0
X34 Y25 I7.575 J0
X16 Y25 I-9 J0
X34 Y25 I9 J0
X32.687 Y25.758 I-0.876 J0
G1 X29.099 Y23.687
G2 X27.902 Y24.007 I-0.438 J0.758
G1 X27.582 Y24.562
G3 X26.824 Y25 I-0.758 J-0.438
G1 X25.45 Z-2.5 F333.3
G3 X24.55 Y25 I-0.45 J0 F700
X28.3 Y25 I1.875 J0
X21.7 Y25 I-3.3 J0
X31.15 Y25 I4.725 J0
X18.85 Y25 I-6.15 J0
X34 Y25 I7.575 J0
X16 Y25 I-9 J0
X34 Y25 I9 J0
X32.687 Y25.758 I-0.876 J0
G1 X29.099 Y23.687
G2 X27.902 Y24.007 I-0.438 J0.758
G1 X27.582 Y24.562
G3 X26.824 Y25 I-0.758 J-0.438
G1 X25.45 Z-3 F333.3
G3 X24.55 Y25 I-0.45 J0 F700
X28.3 Y25 I1.875 J0
X21.7 Y25 I-3.3 J0
X31.15 Y25 I4.725 J0
X18.85 Y25 I-6.15 J0
X34 Y25 I7.575 J0
X16 Y25 I-9 J0
X34 Y25 I9 J0
X32.687 Y25.758 I-0.876 J0
G1 X29.099 Y23.687
G2 X27.902 Y24.007 I-0.438 J0.758
G1 X27.582 Y24.562
G3 X26.824 Y25 I-0.758 J-0.438
G1 X25.45 Z-3.5 F333.3
G3 X24.55 Y25 I-0.45 J0 F700
X28.3 Y25 I1.875 J0
X21.7 Y25 I-3.3 J0
X31.15 Y25 I4.725 J0
X18.85 Y25 I-6.15 J0
X34 Y25 I7.575 J0
X16 Y25 I-9 J0
X34 Y25 I9 J0
X32.687 Y25.758 I-0.876 J0
G1 X29.099 Y23.687
G2 X27.902 Y24.007 I-0.438 J0.758
G1 X27.582 Y24.562
G3 X26.824 Y25 I-0.758 J-0.438
G1 X25.45 Z-4 F333.3
G3 X24.55 Y25 I-0.45 J0 F700
X28.3 Y25 I1.875 J0
X21.7 Y25 I-3.3 J0
X31.15 Y25 I4.725 J0
X18.85 Y25 I-6.15 J0
X34 Y25 I7.575 J0
X16 Y25 I-9 J0
X34 Y25 I9 J0
X32.687 Y25.758 I-0.876 J0
G1 X29.099 Y23.687
G2 X27.902 Y24.007 I-0.438 J0.758
G1 X27.582 Y24.562
G3 X26.824 Y25 I-0.758 J-0.438
G1 X25.45 Z-4.5 F333.3
G3 X24.55 Y25 I-0.45 J0 F700
X28.3 Y25 I1.875 J0
X21.7 Y25 I-3.3 J0
X31.15 Y25 I4.725 J0
X18.85 Y25 I-6.15 J0
X34 Y25 I7.575 J0
X16 Y25 I-9 J0
X34 Y25 I9 J0
X32.687 Y25.758 I-0.876 J0
G1 X29.099 Y23.687
G2 X27.902 Y24.007 I-0.438 J0.758
G1 X27.582 Y24.562
G3 X26.824 Y25 I-0.758 J-0.438
G1 X25.45 Z-5 F333.3
G3 X24.55 Y25 I-0.45 J0 F700
X28.3 Y25 I1.875 J0
X21.7 Y25 I-3.3 J0
X31.15 Y25 I4.725 J0
X18.85 Y25 I-6.15 J0
X34 Y25 I7.575 J0
X16 Y25 I-9 J0
X34 Y25 I9 J0
X32.687 Y25.758 I-0.876 J0
G1 X29.099 Y23.687
G2 X27.902 Y24.007 I-0.438 J0.758
G1 X27.582 Y24.562
G3 X26.824 Y25 I-0.758 J-0.438
G1 X25.45 Z-5.5 F333.3
G3 X24.55 Y25 I-0.45 J0 F700
X28.3 Y25 I1.875 J0
X21.7 Y25 I-3.3 J0
X31.15 Y25 I4.725 J0
X18.85 Y25 I-6.15 J0
X34 Y25 I7.575 J0
X16 Y25 I-9 J0
X34 Y25 I9 J0
X32.687 Y25.758 I-0.876 J0
G1 X29.099 Y23.687
G2 X27.902 Y24.007 I-0.438 J0.758
G1 X27.582 Y24.562
G3 X26.824 Y25 I-0.758 J-0.438
G1 X25.45 Z-6 F333.3
G3 X24.55 Y25 I-0.45 J0 F700
X28.3 Y25 I1.875 J0
X21.7 Y25 I-3.3 J0
X31.15 Y25 I4.725 J0
X18.85 Y25 I-6.15 J0
X34 Y25 I7.575 J0
X16 Y25 I-9 J0
X34 Y25 I9 J0
X32.687 Y25.758 I-0.876 J0
G1 X29.099 Y23.687
G2 X27.902 Y24.007 I-0.438 J0.758
G1 X27.582 Y24.562
G3 X26.824 Y25 I-0.758 J-0.438
G1 X25.45 Z-6.5 F333.3
G3 X24.55 Y25 I-0.45 J0 F700
X28.3 Y25 I1.875 J0
X21.7 Y25 I-3.3 J0
X31.15 Y25 I4.725 J0
X18.85 Y25 I-6.15 J0
X34 Y25 I7.575 J0
X16 Y25 I-9 J0
X34 Y25 I9 J0
X32.687 Y25.758 I-0.876 J0
G1 X29.099 Y23.687
G2 X27.902 Y24.007 I-0.438 J0.758
G1 X27.582 Y24.562
G3 X26.824 Y25 I-0.758 J-0.438
G1 X25.45 Z-7 F333.3
G3 X24.55 Y25 I-0.45 J0 F700
X28.3 Y25 I1.875 J0
X21.7 Y25 I-3.3 J0
X31.15 Y25 I4.725 J0
X18.85 Y25 I-6.15 J0
X34 Y25 I7.575 J0
X16 Y25 I-9 J0
X34 Y25 I9 J0
X32.687 Y25.758 I-0.876 J0
G1 X29.099 Y23.687
G2 X27.902 Y24.007 I-0.438 J0.758
G1 X27.582 Y24.562
G3 X26.824 Y25 I-0.758 J-0.438
G1 X25.45 Z-7.5 F333.3
G3 X24.55 Y25 I-0.45 J0 F700
X28.3 Y25 I1.875 J0
X21.7 Y25 I-3.3 J0
X31.15 Y25 I4.725 J0
X18.85 Y25 I-6.15 J0
X34 Y25 I7.575 J0
X16 Y25 I-9 J0
X34 Y25 I9 J0
X32.687 Y25.758 I-0.876 J0
G1 X29.099 Y23.687
G2 X27.902 Y24.007 I-0.438 J0.758
G1 X27.582 Y24.562
G3 X26.824 Y25 I-0.758 J-0.438
G1 X25.45 Z-8 F333.3
G3 X24.55 Y25 I-0.45 J0 F700
X28.3 Y25 I1.875 J0
X21.7 Y25 I-3.3 J0
X31.15 Y25 I4.725 J0
X18.85 Y25 I-6.15 J0
X34 Y25 I7.575 J0
X16 Y25 I-9 J0
X34 Y25 I9 J0
X32.687 Y25.758 I-0.876 J0
G1 X29.099 Y23.687
G2 X27.902 Y24.007 I-0.438 J0.758
G1 X27.582 Y24.562
G3 X26.824 Y25 I-0.758 J-0.438
G1 X25.45 Z-8.5 F333.3
G3 X24.55 Y25 I-0.45 J0 F700
X28.3 Y25 I1.875 J0
X21.7 Y25 I-3.3 J0
X31.15 Y25 I4.725 J0
X18.85 Y25 I-6.15 J0
X34 Y25 I7.575 J0
X16 Y25 I-9 J0
X34 Y25 I9 J0
X32.687 Y25.758 I-0.876 J0
G1 X29.099 Y23.687
G2 X27.902 Y24.007 I-0.438 J0.758
G1 X27.582 Y24.562
G3 X26.824 Y25 I-0.758 J-0.438
G1 X25.45 Z-9 F333.3
G3 X24.55 Y25 I-0.45 J0 F700
X28.3 Y25 I1.875 J0
X21.7 Y25 I-3.3 J0
X31.15 Y25 I4.725 J0
X18.85 Y25 I-6.15 J0
X34 Y25 I7.575 J0
X16 Y25 I-9 J0
X34 Y25 I9 J0
X32.687 Y25.758 I-0.876 J0
G1 X29.099 Y23.687
G2 X27.902 Y24.007 I-0.438 J0.758
G1 X27.582 Y24.562
G3 X26.824 Y25 I-0.758 J-0.438
G1 X25.45 Z-9.5 F333.3
G3 X24.55 Y25 I-0.45 J0 F700
X28.3 Y25 I1.875 J0
X21.7 Y25 I-3.3 J0
X31.15 Y25 I4.725 J0
X18.85 Y25 I-6.15 J0
X34 Y25 I7.575 J0
X16 Y25 I-9 J0
X34 Y25 I9 J0
X32.687 Y25.758 I-0.876 J0
G1 X29.099 Y23.687
G2 X27.902 Y24.007 I-0.438 J0.758
G1 X27.582 Y24.562
G3 X26.824 Y25 I-0.758 J-0.438
G1 X25.45 Z-10 F333.3
G3 X24.55 Y25 I-0.45 J0 F700
X28.3 Y25 I1.875 J0
X21.7 Y25 I-3.3 J0
X31.15 Y25 I4.725 J0
X18.85 Y25 I-6.15 J0
X34 Y25 I7.575 J0
X16 Y25 I-9 J0
X34 Y25 I9 J0
X32.687 Y25.758 I-0.876 J0
G1 X29.099 Y23.687
G2 X27.902 Y24.007 I-0.438 J0.758
G1 X27.582 Y24.562
G3 X26.824 Y25 I-0.758 J-0.438
G1 X25.45 Z-10.5 F333.3
G3 X24.55 Y25 I-0.45 J0 F700
X28.3 Y25 I1.875 J0
X21.7 Y25 I-3.3 J0
X31.15 Y25 I4.725 J0
X18.85 Y25 I-6.15 J0
X34 Y25 I7.575 J0
X16 Y25 I-9 J0
X34 Y25 I9 J0
X32.687 Y25.758 I-0.876 J0
G1 X29.099 Y23.687
G2 X27.902 Y24.007 I-0.438 J0.758
G1 X27.582 Y24.562
G3 X26.824 Y25 I-0.758 J-0.438
G1 X25.45 Z-11 F333.3
G3 X24.55 Y25 I-0.45 J0 F700
X28.3 Y25 I1.875 J0
X21.7 Y25 I-3.3 J0
X31.15 Y25 I4.725 J0
X18.85 Y25 I-6.15 J0
X34 Y25 I7.575 J0
X16 Y25 I-9 J0
X34 Y25 I9 J0
X32.687 Y25.758 I-0.876 J0
G1 X29.099 Y23.687
G2 X27.902 Y24.007 I-0.438 J0.758
G1 X27.582 Y24.562
G3 X26.824 Y25 I-0.758 J-0.438
G1 X25.45 Z-11.5 F333.3
G3 X24.55 Y25 I-0.45 J0 F700
X28.3 Y25 I1.875 J0
X21.7 Y25 I-3.3 J0
X31.15 Y25 I4.725 J0
X18.85 Y25 I-6.15 J0
X34 Y25 I7.575 J0
X16 Y25 I-9 J0
X34 Y25 I9 J0
X32.687 Y25.758 I-0.876 J0
G1 X29.099 Y23.687
G2 X27.902 Y24.007 I-0.438 J0.758
G1 X27.582 Y24.562
G3 X26.824 Y25 I-0.758 J-0.438
G1 X25.45 Z-12 F333.3
G3 X24.55 Y25 I-0.45 J0 F700
X28.3 Y25 I1.875 J0
X21.7 Y25 I-3.3 J0
X31.15 Y25 I4.725 J0
X18.85 Y25 I-6.15 J0
X34 Y25 I7.575 J0
X16 Y25 I-9 J0
X34 Y25 I9 J0
X32.687 Y25.758 I-0.876 J0
G1 X29.099 Y23.687
G2 X27.902 Y24.007 I-0.438 J0.758
G1 X27.582 Y24.562
G3 X26.824 Y25 I-0.758 J-0.438
G1 X25.45 Z-12.5 F333.3
G3 X24.55 Y25 I-0.45 J0 F700
X28.3 Y25 I1.875 J0
X21.7 Y25 I-3.3 J0
X31.15 Y25 I4.725 J0
X18.85 Y25 I-6.15 J0
X34 Y25 I7.575 J0
X16 Y25 I-9 J0
X34 Y25 I9 J0
X32.687 Y25.758 I-0.876 J0
G1 X29.099 Y23.687
G2 X27.902 Y24.007 I-0.438 J0.758
G1 X27.582 Y24.562
G3 X26.824 Y25 I-0.758 J-0.438
G1 X25.45 Z-13 F333.3
G3 X24.55 Y25 I-0.45 J0 F700
X28.3 Y25 I1.875 J0
X21.7 Y25 I-3.3 J0
X31.15 Y25 I4.725 J0
X18.85 Y25 I-6.15 J0
X34 Y25 I7.575 J0
X16 Y25 I-9 J0
X34 Y25 I9 J0
X32.687 Y25.758 I-0.876 J0
G1 X29.099 Y23.687
G2 X27.902 Y24.007 I-0.438 J0.758
G1 X27.582 Y24.562
G3 X26.824 Y25 I-0.758 J-0.438
G1 X25.45 Z-13.5 F333.3
G3 X24.55 Y25 I-0.45 J0 F700
X28.3 Y25 I1.875 J0
X21.7 Y25 I-3.3 J0
X31.15 Y25 I4.725 J0
X18.85 Y25 I-6.15 J0
X34 Y25 I7.575 J0
X16 Y25 I-9 J0
X34 Y25 I9 J0
X32.687 Y25.758 I-0.876 J0
G1 X29.099 Y23.687
G2 X27.902 Y24.007 I-0.438 J0.758
G1 X27.582 Y24.562
G3 X26.824 Y25 I-0.758 J-0.438
G1 X25.45 Z-14 F333.3
G3 X24.55 Y25 I-0.45 J0 F700
X28.3 Y25 I1.875 J0
X21.7 Y25 I-3.3 J0
X31.15 Y25 I4.725 J0
X18.85 Y25 I-6.15 J0
X34 Y25 I7.575 J0
X16 Y25 I-9 J0
X34 Y25 I9 J0
X32.687 Y25.758 I-0.876 J0
G1 X29.099 Y23.687
G2 X27.902 Y24.007 I-0.438 J0.758
G1 X27.582 Y24.562
G3 X26.824 Y25 I-0.758 J-0.438
G1 X25.45 Z-14.5 F333.3
G3 X24.55 Y25 I-0.45 J0 F700
X28.3 Y25 I1.875 J0
X21.7 Y25 I-3.3 J0
X31.15 Y25 I4.725 J0
X18.85 Y25 I-6.15 J0
X34 Y25 I7.575 J0
X16 Y25 I-9 J0
X34 Y25 I9 J0
X32.687 Y25.758 I-0.876 J0
G1 X29.099 Y23.687
G2 X27.902 Y24.007 I-0.438 J0.758
G1 X27.582 Y24.562
G3 X26.824 Y25 I-0.758 J-0.438
G1 X25.45 Z-15 F333.3
G3 X24.55 Y25 I-0.45 J0 F700
X28.3 Y25 I1.875 J0
X21.7 Y25 I-3.3 J0
X31.15 Y25 I4.725 J0
X18.85 Y25 I-6.15 J0
X34 Y25 I7.575 J0
X16 Y25 I-9 J0
X34 Y25 I9 J0
X32.687 Y25.758 I-0.876 J0
G1 X29.099 Y23.687
G2 X27.902 Y24.007 I-0.438 J0.758
G1 X27.582 Y24.562
G3 X26.824 Y25 I-0.758 J-0.438
G1 X25.45 Z-15.5 F333.3
G3 X24.55 Y25 I-0.45 J0 F700
X28.3 Y25 I1.875 J0
X21.7 Y25 I-3.3 J0
X31.15 Y25 I4.725 J0
X18.85 Y25 I-6.15 J0
X34 Y25 I7.575 J0
X16 Y25 I-9 J0
X34 Y25 I9 J0
X32.687 Y25.758 I-0.876 J0
G1 X29.099 Y23.687
G2 X27.902 Y24.007 I-0.438 J0.758
G1 X27.582 Y24.562
G3 X26.824 Y25 I-0.758 J-0.438
G1 X25.45 Z-16 F333.3
G3 X24.55 Y25 I-0.45 J0 F700
X28.3 Y25 I1.875 J0
X21.7 Y25 I-3.3 J0
X31.15 Y25 I4.725 J0
X18.85 Y25 I-6.15 J0
X34 Y25 I7.575 J0
X16 Y25 I-9 J0
X34 Y25 I9 J0
X32.687 Y25.758 I-0.876 J0
G1 X29.099 Y23.687
G2 X27.902 Y24.007 I-0.438 J0.758
G1 X27.582 Y24.562
G3 X26.824 Y25 I-0.758 J-0.438
G1 X25.45 Z-16.5 F333.3
G3 X24.55 Y25 I-0.45 J0 F700
X28.3 Y25 I1.875 J0
X21.7 Y25 I-3.3 J0
X31.15 Y25 I4.725 J0
X18.85 Y25 I-6.15 J0
X34 Y25 I7.575 J0
X16 Y25 I-9 J0
X34 Y25 I9 J0
X32.687 Y25.758 I-0.876 J0
G1 X29.099 Y23.687
G2 X27.902 Y24.007 I-0.438 J0.758
G1 X27.582 Y24.562
G3 X26.824 Y25 I-0.758 J-0.438
G1 X25.45 Z-17 F333.3
G3 X24.55 Y25 I-0.45 J0 F700
X28.3 Y25 I1.875 J0
X21.7 Y25 I-3.3 J0
X31.15 Y25 I4.725 J0
X18.85 Y25 I-6.15 J0
X34 Y25 I7.575 J0
X16 Y25 I-9 J0
X34 Y25 I9 J0
X32.687 Y25.758 I-0.876 J0
G1 X29.099 Y23.687
G2 X27.902 Y24.007 I-0.438 J0.758
G1 X27.582 Y24.562
G3 X26.824 Y25 I-0.758 J-0.438
G1 X25.45 Z-17.5 F333.3
G3 X24.55 Y25 I-0.45 J0 F700
X28.3 Y25 I1.875 J0
X21.7 Y25 I-3.3 J0
X31.15 Y25 I4.725 J0
X18.85 Y25 I-6.15 J0
X34 Y25 I7.575 J0
X16 Y25 I-9 J0
X34 Y25 I9 J0
X32.687 Y25.758 I-0.876 J0
G1 X29.099 Y23.687
G2 X27.902 Y24.007 I-0.438 J0.758
G1 X27.582 Y24.562
G3 X26.824 Y25 I-0.758 J-0.438
G1 X25.45 Z-18 F333.3
G3 X24.55 Y25 I-0.45 J0 F700
X28.3 Y25 I1.875 J0
X21.7 Y25 I-3.3 J0
X31.15 Y25 I4.725 J0
X18.85 Y25 I-6.15 J0
X34 Y25 I7.575 J0
X16 Y25 I-9 J0
X34 Y25 I9 J0
G0 Z6

(2D Contour8)
X15.197 Y66.487
Z4
Z2
G1 Z1.5 F333.3
Z-0.5
G2 X16.5 Y65 I-0.197 J-1.487 F700
G1 Y57.193
G3 X21.531 Y51.272 I6 J0
G2 X40.432 Y46.543 I3.469 J-26.272
X44.999 Y7.613 I-15.432 J-21.543
X-1.5 Y25 I-19.999 J17.387
G1 Y65
G2 X0 Y66.5 I1.5 J0
G1 X3.5
G2 X4.914 Y65.5 I0 J-1.5
G1 X10.086
G2 X11.5 Y66.5 I1.414 J-0.5
G1 X15
X15.099 Y66.497
X15.197 Y66.487
Z-1 F333.3
G2 X16.5 Y65 I-0.197 J-1.487 F700
G1 Y57.193
G3 X21.531 Y51.272 I6 J0
G2 X40.432 Y46.543 I3.469 J-26.272
X44.999 Y7.613 I-15.432 J-21.543
X-1.5 Y25 I-19.999 J17.387
G1 Y65
G2 X0 Y66.5 I1.5 J0
G1 X3.5
G2 X4.914 Y65.5 I0 J-1.5
G1 X10.086
G2 X11.5 Y66.5 I1.414 J-0.5
G1 X15
X15.099 Y66.497
X15.197 Y66.487
Z-1.5 F333.3
G2 X16.5 Y65 I-0.197 J-1.487 F700
G1 Y57.193
G3 X21.531 Y51.272 I6 J0
G2 X40.432 Y46.543 I3.469 J-26.272
X44.999 Y7.613 I-15.432 J-21.543
X-1.5 Y25 I-19.999 J17.387
G1 Y65
G2 X0 Y66.5 I1.5 J0
G1 X3.5
G2 X4.914 Y65.5 I0 J-1.5
G1 X10.086
G2 X11.5 Y66.5 I1.414 J-0.5
G1 X15
X15.099 Y66.497
X15.197 Y66.487
Z-2 F333.3
G2 X16.5 Y65 I-0.197 J-1.487 F700
G1 Y57.193
G3 X21.531 Y51.272 I6 J0
G2 X40.432 Y46.543 I3.469 J-26.272
X44.999 Y7.613 I-15.432 J-21.543
X-1.5 Y25 I-19.999 J17.387
G1 Y65
G2 X0 Y66.5 I1.5 J0
G1 X3.5
G2 X4.914 Y65.5 I0 J-1.5
G1 X10.086
G2 X11.5 Y66.5 I1.414 J-0.5
G1 X15
X15.099 Y66.497
X15.197 Y66.487
Z-2.5 F333.3
G2 X16.5 Y65 I-0.197 J-1.487 F700
G1 Y57.193
G3 X21.531 Y51.272 I6 J0
G2 X40.432 Y46.543 I3.469 J-26.272
X44.999 Y7.613 I-15.432 J-21.543
X-1.5 Y25 I-19.999 J17.387
G1 Y65
G2 X0 Y66.5 I1.5 J0
G1 X3.5
G2 X4.914 Y65.5 I0 J-1.5
G1 X10.086
G2 X11.5 Y66.5 I1.414 J-0.5
G1 X15
X15.099 Y66.497
X15.197 Y66.487
Z-3 F333.3
G2 X16.5 Y65 I-0.197 J-1.487 F700
G1 Y57.193
G3 X21.531 Y51.272 I6 J0
G2 X40.432 Y46.543 I3.469 J-26.272
X44.999 Y7.613 I-15.432 J-21.543
X-1.5 Y25 I-19.999 J17.387
G1 Y65
G2 X0 Y66.5 I1.5 J0
G1 X3.5
G2 X4.914 Y65.5 I0 J-1.5
G1 X10.086
G2 X11.5 Y66.5 I1.414 J-0.5
G1 X15
X15.099 Y66.497
X15.197 Y66.487
Z-3.5 F333.3
G2 X16.5 Y65 I-0.197 J-1.487 F700
G1 Y57.193
G3 X21.531 Y51.272 I6 J0
G2 X40.432 Y46.543 I3.469 J-26.272
X44.999 Y7.613 I-15.432 J-21.543
X-1.5 Y25 I-19.999 J17.387
G1 Y65
G2 X0 Y66.5 I1.5 J0
G1 X3.5
G2 X4.914 Y65.5 I0 J-1.5
G1 X10.086
G2 X11.5 Y66.5 I1.414 J-0.5
G1 X15
X15.099 Y66.497
X15.197 Y66.487
Z-4 F333.3
G2 X16.5 Y65 I-0.197 J-1.487 F700
G1 Y57.193
G3 X21.531 Y51.272 I6 J0
G2 X40.432 Y46.543 I3.469 J-26.272
X44.999 Y7.613 I-15.432 J-21.543
X-1.5 Y25 I-19.999 J17.387
G1 Y65
G2 X0 Y66.5 I1.5 J0
G1 X3.5
G2 X4.914 Y65.5 I0 J-1.5
G1 X10.086
G2 X11.5 Y66.5 I1.414 J-0.5
G1 X15
X15.099 Y66.497
X15.197 Y66.487
Z-4.5 F333.3
G2 X16.5 Y65 I-0.197 J-1.487 F700
G1 Y57.193
G3 X21.531 Y51.272 I6 J0
G2 X40.432 Y46.543 I3.469 J-26.272
X44.999 Y7.613 I-15.432 J-21.543
X-1.5 Y25 I-19.999 J17.387
G1 Y65
G2 X0 Y66.5 I1.5 J0
G1 X3.5
G2 X4.914 Y65.5 I0 J-1.5
G1 X10.086
G2 X11.5 Y66.5 I1.414 J-0.5
G1 X15
X15.099 Y66.497
X15.197 Y66.487
Z-5 F333.3
G2 X16.5 Y65 I-0.197 J-1.487 F700
G1 Y57.193
G3 X21.531 Y51.272 I6 J0
G2 X40.432 Y46.543 I3.469 J-26.272
X44.999 Y7.613 I-15.432 J-21.543
X-1.5 Y25 I-19.999 J17.387
G1 Y65
G2 X0 Y66.5 I1.5 J0
G1 X3.5
G2 X4.914 Y65.5 I0 J-1.5
G1 X10.086
G2 X11.5 Y66.5 I1.414 J-0.5
G1 X15
X15.099 Y66.497
X15.197 Y66.487
Z-5.5 F333.3
G2 X16.5 Y65 I-0.197 J-1.487 F700
G1 Y57.193
G3 X21.531 Y51.272 I6 J0
G2 X40.432 Y46.543 I3.469 J-26.272
X44.999 Y7.613 I-15.432 J-21.543
X-1.5 Y25 I-19.999 J17.387
G1 Y65
G2 X0 Y66.5 I1.5 J0
G1 X3.5
G2 X4.914 Y65.5 I0 J-1.5
G1 X10.086
G2 X11.5 Y66.5 I1.414 J-0.5
G1 X15
X15.099 Y66.497
X15.197 Y66.487
Z-6 F333.3
G2 X16.5 Y65 I-0.197 J-1.487 F700
G1 Y57.193
G3 X21.531 Y51.272 I6 J0
G2 X40.432 Y46.543 I3.469 J-26.272
X44.999 Y7.613 I-15.432 J-21.543
X-1.5 Y25 I-19.999 J17.387
G1 Y65
G2 X0 Y66.5 I1.5 J0
G1 X3.5
G2 X4.914 Y65.5 I0 J-1.5
G1 X10.086
G2 X11.5 Y66.5 I1.414 J-0.5
G1 X15
X15.099 Y66.497
X15.197 Y66.487
Z-6.5 F333.3
G2 X16.5 Y65 I-0.197 J-1.487 F700
G1 Y57.193
G3 X21.531 Y51.272 I6 J0
G2 X40.432 Y46.543 I3.469 J-26.272
X44.999 Y7.613 I-15.432 J-21.543
X-1.5 Y25 I-19.999 J17.387
G1 Y65
G2 X0 Y66.5 I1.5 J0
G1 X3.5
G2 X4.914 Y65.5 I0 J-1.5
G1 X10.086
G2 X11.5 Y66.5 I1.414 J-0.5
G1 X15
X15.099 Y66.497
X15.197 Y66.487
Z-7 F333.3
G2 X16.5 Y65 I-0.197 J-1.487 F700
G1 Y57.193
G3 X21.531 Y51.272 I6 J0
G2 X40.432 Y46.543 I3.469 J-26.272
X44.999 Y7.613 I-15.432 J-21.543
X-1.5 Y25 I-19.999 J17.387
G1 Y65
G2 X0 Y66.5 I1.5 J0
G1 X3.5
G2 X4.914 Y65.5 I0 J-1.5
G1 X10.086
G2 X11.5 Y66.5 I1.414 J-0.5
G1 X15
X15.099 Y66.497
X15.197 Y66.487
Z-7.5 F333.3
G2 X16.5 Y65 I-0.197 J-1.487 F700
G1 Y57.193
G3 X21.531 Y51.272 I6 J0
G2 X40.432 Y46.543 I3.469 J-26.272
X44.999 Y7.613 I-15.432 J-21.543
X-1.5 Y25 I-19.999 J17.387
G1 Y65
G2 X0 Y66.5 I1.5 J0
G1 X3.5
G2 X4.914 Y65.5 I0 J-1.5
G1 X10.086
G2 X11.5 Y66.5 I1.414 J-0.5
G1 X15
X15.099 Y66.497
X15.197 Y66.487
Z-8 F333.3
G2 X16.5 Y65 I-0.197 J-1.487 F700
G1 Y57.193
G3 X21.531 Y51.272 I6 J0
G2 X40.432 Y46.543 I3.469 J-26.272
X44.999 Y7.613 I-15.432 J-21.543
X-1.5 Y25 I-19.999 J17.387
G1 Y65
G2 X0 Y66.5 I1.5 J0
G1 X3.5
G2 X4.914 Y65.5 I0 J-1.5
G1 X10.086
G2 X11.5 Y66.5 I1.414 J-0.5
G1 X15
X15.099 Y66.497
X15.197 Y66.487
Z-8.5 F333.3
G2 X16.5 Y65 I-0.197 J-1.487 F700
G1 Y57.193
G3 X21.531 Y51.272 I6 J0
G2 X40.432 Y46.543 I3.469 J-26.272
X44.999 Y7.613 I-15.432 J-21.543
X-1.5 Y25 I-19.999 J17.387
G1 Y65
G2 X0 Y66.5 I1.5 J0
G1 X3.5
G2 X4.914 Y65.5 I0 J-1.5
G1 X10.086
G2 X11.5 Y66.5 I1.414 J-0.5
G1 X15
X15.099 Y66.497
X15.197 Y66.487
Z-9 F333.3
G2 X16.5 Y65 I-0.197 J-1.487 F700
G1 Y57.193
G3 X21.531 Y51.272 I6 J0
G2 X40.432 Y46.543 I3.469 J-26.272
X44.999 Y7.613 I-15.432 J-21.543
X-1.5 Y25 I-19.999 J17.387
G1 Y65
G2 X0 Y66.5 I1.5 J0
G1 X3.5
G2 X4.914 Y65.5 I0 J-1.5
G1 X10.086
G2 X11.5 Y66.5 I1.414 J-0.5
G1 X15
X15.099 Y66.497
X15.197 Y66.487
Z-9.5 F333.3
G2 X16.5 Y65 I-0.197 J-1.487 F700
G1 Y57.193
G3 X21.531 Y51.272 I6 J0
G2 X40.432 Y46.543 I3.469 J-26.272
X44.999 Y7.613 I-15.432 J-21.543
X-1.5 Y25 I-19.999 J17.387
G1 Y65
G2 X0 Y66.5 I1.5 J0
G1 X3.5
G2 X4.914 Y65.5 I0 J-1.5
G1 X10.086
G2 X11.5 Y66.5 I1.414 J-0.5
G1 X15
X15.099 Y66.497
X15.197 Y66.487
Z-10 F333.3
G2 X16.5 Y65 I-0.197 J-1.487 F700
G1 Y57.193
G3 X21.531 Y51.272 I6 J0
G2 X40.432 Y46.543 I3.469 J-26.272
X44.999 Y7.613 I-15.432 J-21.543
X-1.5 Y25 I-19.999 J17.387
G1 Y65
G2 X0 Y66.5 I1.5 J0
G1 X3.5
G2 X4.914 Y65.5 I0 J-1.5
G1 X10.086
G2 X11.5 Y66.5 I1.414 J-0.5
G1 X15
X15.099 Y66.497
X15.197 Y66.487
Z-10.5 F333.3
G2 X16.5 Y65 I-0.197 J-1.487 F700
G1 Y57.193
G3 X21.531 Y51.272 I6 J0
G2 X40.432 Y46.543 I3.469 J-26.272
X44.999 Y7.613 I-15.432 J-21.543
X-1.5 Y25 I-19.999 J17.387
G1 Y65
G2 X0 Y66.5 I1.5 J0
G1 X3.5
G2 X4.914 Y65.5 I0 J-1.5
G1 X10.086
G2 X11.5 Y66.5 I1.414 J-0.5
G1 X15
X15.099 Y66.497
X15.197 Y66.487
Z-11 F333.3
G2 X16.5 Y65 I-0.197 J-1.487 F700
G1 Y57.193
G3 X21.531 Y51.272 I6 J0
G2 X40.432 Y46.543 I3.469 J-26.272
X44.999 Y7.613 I-15.432 J-21.543
X-1.5 Y25 I-19.999 J17.387
G1 Y65
G2 X0 Y66.5 I1.5 J0
G1 X3.5
G2 X4.914 Y65.5 I0 J-1.5
G1 X10.086
G2 X11.5 Y66.5 I1.414 J-0.5
G1 X15
X15.099 Y66.497
X15.197 Y66.487
Z-11.5 F333.3
G2 X16.5 Y65 I-0.197 J-1.487 F700
G1 Y57.193
G3 X21.531 Y51.272 I6 J0
G2 X40.432 Y46.543 I3.469 J-26.272
X44.999 Y7.613 I-15.432 J-21.543
X-1.5 Y25 I-19.999 J17.387
G1 Y65
G2 X0 Y66.5 I1.5 J0
G1 X3.5
G2 X4.914 Y65.5 I0 J-1.5
G1 X10.086
G2 X11.5 Y66.5 I1.414 J-0.5
G1 X15
X15.099 Y66.497
X15.197 Y66.487
Z-12 F333.3
G2 X16.5 Y65 I-0.197 J-1.487 F700
G1 Y57.193
G3 X21.531 Y51.272 I6 J0
G2 X40.432 Y46.543 I3.469 J-26.272
X44.999 Y7.613 I-15.432 J-21.543
X-1.5 Y25 I-19.999 J17.387
G1 Y65
G2 X0 Y66.5 I1.5 J0
G1 X3.5
G2 X4.914 Y65.5 I0 J-1.5
G1 X10.086
G2 X11.5 Y66.5 I1.414 J-0.5
G1 X15
X15.099 Y66.497
X15.197 Y66.487
Z-12.5 F333.3
G2 X16.5 Y65 I-0.197 J-1.487 F700
G1 Y57.193
G3 X21.531 Y51.272 I6 J0
G2 X40.432 Y46.543 I3.469 J-26.272
X44.999 Y7.613 I-15.432 J-21.543
X-1.5 Y25 I-19.999 J17.387
G1 Y65
G2 X0 Y66.5 I1.5 J0
G1 X3.5
G2 X4.914 Y65.5 I0 J-1.5
G1 X10.086
G2 X11.5 Y66.5 I1.414 J-0.5
G1 X15
X15.099 Y66.497
X15.197 Y66.487
Z-13 F333.3
G2 X16.5 Y65 I-0.197 J-1.487 F700
G1 Y57.193
G3 X21.531 Y51.272 I6 J0
G2 X40.432 Y46.543 I3.469 J-26.272
X44.999 Y7.613 I-15.432 J-21.543
X-1.5 Y25 I-19.999 J17.387
G1 Y65
G2 X0 Y66.5 I1.5 J0
G1 X3.5
G2 X4.914 Y65.5 I0 J-1.5
G1 X10.086
G2 X11.5 Y66.5 I1.414 J-0.5
G1 X15
X15.099 Y66.497
X15.197 Y66.487
Z-13.5 F333.3
G2 X16.5 Y65 I-0.197 J-1.487 F700
G1 Y57.193
G3 X21.531 Y51.272 I6 J0
G2 X40.432 Y46.543 I3.469 J-26.272
X44.999 Y7.613 I-15.432 J-21.543
X-1.5 Y25 I-19.999 J17.387
G1 Y65
G2 X0 Y66.5 I1.5 J0
G1 X3.5
G2 X4.914 Y65.5 I0 J-1.5
G1 X10.086
G2 X11.5 Y66.5 I1.414 J-0.5
G1 X15
X15.099 Y66.497
X15.197 Y66.487
Z-14 F333.3
G2 X16.5 Y65 I-0.197 J-1.487 F700
G1 Y57.193
G3 X21.531 Y51.272 I6 J0
G2 X40.432 Y46.543 I3.469 J-26.272
X44.999 Y7.613 I-15.432 J-21.543
X-1.5 Y25 I-19.999 J17.387
G1 Y65
G2 X0 Y66.5 I1.5 J0
G1 X3.5
G2 X4.914 Y65.5 I0 J-1.5
G1 X10.086
G2 X11.5 Y66.5 I1.414 J-0.5
G1 X15
X15.099 Y66.497
X15.197 Y66.487
Z-14.5 F333.3
G2 X16.5 Y65 I-0.197 J-1.487 F700
G1 Y57.193
G3 X21.531 Y51.272 I6 J0
G2 X40.432 Y46.543 I3.469 J-26.272
X44.999 Y7.613 I-15.432 J-21.543
X-1.5 Y25 I-19.999 J17.387
G1 Y65
G2 X0 Y66.5 I1.5 J0
G1 X3.5
G2 X4.914 Y65.5 I0 J-1.5
G1 X10.086
G2 X11.5 Y66.5 I1.414 J-0.5
G1 X15
X15.099 Y66.497
X15.197 Y66.487
Z-15 F333.3
G2 X16.5 Y65 I-0.197 J-1.487 F700
G1 Y57.193
G3 X21.531 Y51.272 I6 J0
G2 X40.432 Y46.543 I3.469 J-26.272
X44.999 Y7.613 I-15.432 J-21.543
X-1.5 Y25 I-19.999 J17.387
G1 Y65
G2 X0 Y66.5 I1.5 J0
G1 X3.5
G2 X4.914 Y65.5 I0 J-1.5
G1 X10.086
G2 X11.5 Y66.5 I1.414 J-0.5
G1 X15
X15.099 Y66.497
X15.197 Y66.487
Z-15.5 F333.3
G2 X16.5 Y65 I-0.197 J-1.487 F700
G1 Y57.193
G3 X21.531 Y51.272 I6 J0
G2 X40.432 Y46.543 I3.469 J-26.272
X44.999 Y7.613 I-15.432 J-21.543
X-1.5 Y25 I-19.999 J17.387
G1 Y65
G2 X0 Y66.5 I1.5 J0
G1 X3.5
G2 X4.914 Y65.5 I0 J-1.5
G1 X10.086
G2 X11.5 Y66.5 I1.414 J-0.5
G1 X15
X15.099 Y66.497
X15.197 Y66.487
Z-16 F333.3
G2 X16.5 Y65 I-0.197 J-1.487 F700
G1 Y57.193
G3 X21.531 Y51.272 I6 J0
G2 X40.432 Y46.543 I3.469 J-26.272
X44.999 Y7.613 I-15.432 J-21.543
X-1.5 Y25 I-19.999 J17.387
G1 Y65
G2 X0 Y66.5 I1.5 J0
G1 X3.5
G2 X4.914 Y65.5 I0 J-1.5
G1 X10.086
G2 X11.5 Y66.5 I1.414 J-0.5
G1 X15
X15.099 Y66.497
X15.197 Y66.487
Z-16.5 F333.3
G2 X16.5 Y65 I-0.197 J-1.487 F700
G1 Y57.193
G3 X21.531 Y51.272 I6 J0
G2 X40.432 Y46.543 I3.469 J-26.272
X44.999 Y7.613 I-15.432 J-21.543
X-1.5 Y25 I-19.999 J17.387
G1 Y65
G2 X0 Y66.5 I1.5 J0
G1 X3.5
G2 X4.914 Y65.5 I0 J-1.5
G1 X10.086
G2 X11.5 Y66.5 I1.414 J-0.5
G1 X15
X15.099 Y66.497
X15.197 Y66.487
Z-17 F333.3
G2 X16.5 Y65 I-0.197 J-1.487 F700
G1 Y57.193
G3 X21.531 Y51.272 I6 J0
G2 X40.432 Y46.543 I3.469 J-26.272
X44.999 Y7.613 I-15.432 J-21.543
X-1.5 Y25 I-19.999 J17.387
G1 Y65
G2 X0 Y66.5 I1.5 J0
G1 X3.5
G2 X4.914 Y65.5 I0 J-1.5
G1 X10.086
G2 X11.5 Y66.5 I1.414 J-0.5
G1 X15
X15.099 Y66.497
X15.197 Y66.487
Z-17.5 F333.3
G2 X16.5 Y65 I-0.197 J-1.487 F700
G1 Y57.193
G3 X21.531 Y51.272 I6 J0
G2 X31.099 Y50.789 I3.469 J-26.272
G1 Z-17.25
G2 X36.744 Y48.756 I-6.099 J-25.789
G1 Z-17.5 F333.3
G2 X40.432 Y46.543 I-11.744 J-23.756 F700
X49.724 Y34.538 I-15.432 J-21.543
G1 Z-17.25
G2 X51.236 Y28.732 I-24.724 J-9.538
G1 Z-17.5 F333.3
G2 X46.839 Y9.989 I-26.236 J-3.732 F700
G1 Z-17.25
G2 X44.999 Y7.613 I-21.839 J15.011
X42.902 Y5.461 I-19.999 J17.387
G1 Z-17.5 F333.3
G2 X24.953 Y-1.5 I-17.902 J19.539 F700
G1 Z-17.25
G2 X18.993 Y-0.81 I0.047 J26.5
G1 Z-17.5 F333.3
G2 X3.108 Y10.067 I6.007 J25.81 F700
G1 Z-17.25
G2 X0.31 Y15.374 I21.892 J14.933
G1 Z-17.5 F333.3
G2 X-1.5 Y25 I24.69 J9.626 F700
G1 Y42
Z-17.25
Y48
Z-17.5 F333.3
Y65 F700
G2 X0 Y66.5 I1.5 J0
G1 X3.5
G2 X4.914 Y65.5 I0 J-1.5
G1 X10.086
G2 X11.5 Y66.5 I1.414 J-0.5
G1 X15
X15.099 Y66.497
X15.197 Y66.487
Z-18 F333.3
G2 X16.5 Y65 I-0.197 J-1.487 F700
G1 Y57.193
G3 X21.531 Y51.272 I6 J0
G2 X31.099 Y50.789 I3.469 J-26.272
G1 Z-17.25
G2 X36.744 Y48.756 I-6.099 J-25.789
G1 Z-18 F333.3
G2 X40.432 Y46.543 I-11.744 J-23.756 F700
X49.724 Y34.538 I-15.432 J-21.543
G1 Z-17.25
G2 X51.236 Y28.732 I-24.724 J-9.538
G1 Z-18 F333.3
G2 X46.839 Y9.989 I-26.236 J-3.732 F700
G1 Z-17.25
G2 X44.999 Y7.613 I-21.839 J15.011
X42.902 Y5.461 I-19.999 J17.387
G1 Z-18 F333.3
G2 X24.953 Y-1.5 I-17.902 J19.539 F700
G1 Z-17.25
G2 X18.993 Y-0.81 I0.047 J26.5
G1 Z-18 F333.3
G2 X3.108 Y10.067 I6.007 J25.81 F700
G1 Z-17.25
G2 X0.31 Y15.374 I21.892 J14.933
G1 Z-18 F333.3
G2 X-1.5 Y25 I24.69 J9.626 F700
G1 Y42
Z-17.25
Y48
Z-18 F333.3
Y65 F700
G2 X0 Y66.5 I1.5 J0
G1 X3.5
G2 X4.914 Y65.5 I0 J-1.5
G1 X10.086
G2 X11.5 Y66.5 I1.414 J-0.5
G1 X15
X15.099 Y66.497
X15.197 Y66.487
G0 Z4
M9
M5
M30
