(1001)
(T4  D=3 CR=0 - ZMIN=-8.5 - flat end mill)
G90 G94
G17
G21

(2D Contour4)
T4
S15000 M3
G54
M8
G0 X6.75 Y0
Z7
Z2
G1 Z1.3 F333.3
Z-0.3
G3 X-6.75 Y0 I-6.75 J0 F700
X6.75 Y0 I6.75 J0
G1 Z-0.6 F333.3
G3 X-6.75 Y0 I-6.75 J0 F700
X6.75 Y0 I6.75 J0
G1 Z-0.9 F333.3
G3 X-6.75 Y0 I-6.75 J0 F700
X6.75 Y0 I6.75 J0
G1 Z-1.2 F333.3
G3 X-6.75 Y0 I-6.75 J0 F700
X6.75 Y0 I6.75 J0
G1 Z-1.5 F333.3
G3 X-6.75 Y0 I-6.75 J0 F700
X6.75 Y0 I6.75 J0
G1 Z-1.8 F333.3
G3 X-6.75 Y0 I-6.75 J0 F700
X6.75 Y0 I6.75 J0
G1 Z-2.1 F333.3
G3 X-6.75 Y0 I-6.75 J0 F700
X6.75 Y0 I6.75 J0
G1 Z-2.4 F333.3
G3 X-6.75 Y0 I-6.75 J0 F700
X6.75 Y0 I6.75 J0
G1 Z-2.7 F333.3
G3 X-6.75 Y0 I-6.75 J0 F700
X6.75 Y0 I6.75 J0
G1 Z-3 F333.3
G3 X-6.75 Y0 I-6.75 J0 F700
X6.75 Y0 I6.75 J0
G1 Z-3.3 F333.3
G3 X-6.75 Y0 I-6.75 J0 F700
X6.75 Y0 I6.75 J0
G1 Z-3.6 F333.3
G3 X-6.75 Y0 I-6.75 J0 F700
X6.75 Y0 I6.75 J0
G1 Z-3.9 F333.3
G3 X-6.75 Y0 I-6.75 J0 F700
X6.75 Y0 I6.75 J0
G1 Z-4.2 F333.3
G3 X-6.75 Y0 I-6.75 J0 F700
X6.75 Y0 I6.75 J0
G1 Z-4.5 F333.3
G3 X-6.75 Y0 I-6.75 J0 F700
X6.75 Y0 I6.75 J0
G1 Z-4.8 F333.3
G3 X-6.75 Y0 I-6.75 J0 F700
X6.75 Y0 I6.75 J0
G1 Z-5.1 F333.3
G3 X-6.75 Y0 I-6.75 J0 F700
X6.75 Y0 I6.75 J0
G1 Z-5.4 F333.3
G3 X-6.75 Y0 I-6.75 J0 F700
X6.75 Y0 I6.75 J0
G1 Z-5.7 F333.3
G3 X-6.75 Y0 I-6.75 J0 F700
X6.75 Y0 I6.75 J0
G1 Z-6 F333.3
G3 X-6.75 Y0 I-6.75 J0 F700
X6.75 Y0 I6.75 J0
G1 Z-6.3 F333.3
G3 X-6.75 Y0 I-6.75 J0 F700
X6.75 Y0 I6.75 J0
G1 Z-6.6 F333.3
G3 X-6.75 Y0 I-6.75 J0 F700
X6.75 Y0 I6.75 J0
G1 Z-6.9 F333.3
G3 X-6.75 Y0 I-6.75 J0 F700
X6.75 Y0 I6.75 J0
G1 Z-7.2 F333.3
G3 X-6.75 Y0 I-6.75 J0 F700
X6.75 Y0 I6.75 J0
G1 Z-7.5 F333.3
G3 X-6.75 Y0 I-6.75 J0 F700
X6.75 Y0 I6.75 J0
G1 Z-7.8 F333.3
G3 X-6.75 Y0 I-6.75 J0 F700
X6.75 Y0 I6.75 J0
G1 Z-8.1 F333.3
G3 X-6.75 Y0 I-6.75 J0 F700
X6.75 Y0 I6.75 J0
G1 Z-8.4 F333.3
G3 X-6.75 Y0 I-6.75 J0 F700
X6.75 Y0 I6.75 J0
G1 Z-8.5 F333.3
G3 X-6.75 Y0 I-6.75 J0 F700
X6.75 Y0 I6.75 J0
G0 Z7

(2D Contour7)
X-19.098 Y-0.223
Z7
Z2
G1 Z1.3 F333.3
Z-0.3
X-19.091 Y-0.079 F700
X-19.076 Y0.069
X-19.065 Y0.151
X-19.05 Y0.233
X-19.018 Y0.38
X-18.999 Y0.458
X-18.976 Y0.535
X-18.928 Y0.68
X-18.875 Y0.818
X-18.811 Y0.962
X-18.749 Y1.086
X-18.67 Y1.228
X-18.604 Y1.334
X-18.509 Y1.474
X-18.441 Y1.567
X-18.332 Y1.705
X-18.265 Y1.784
X-18.141 Y1.92
X-18.074 Y1.988
X-17.936 Y2.121
X-17.873 Y2.179
X-17.721 Y2.309
X-17.66 Y2.359
X-17.496 Y2.486
X-17.437 Y2.529
X-17.26 Y2.653
X-17.204 Y2.69
X-17.014 Y2.81
X-16.961 Y2.842
X-16.759 Y2.959
X-16.708 Y2.987
X-16.495 Y3.099
X-16.447 Y3.124
X-16.221 Y3.232
X-16.175 Y3.253
X-15.939 Y3.358
X-15.895 Y3.376
X-15.648 Y3.476
X-15.606 Y3.492
X-15.349 Y3.587
X-15.308 Y3.601
X-15.041 Y3.691
X-15.002 Y3.703
X-14.727 Y3.788
X-14.69 Y3.798
X-14.407 Y3.877
X-14.373 Y3.886
X-14.082 Y3.96
X-14.051 Y3.968
X-13.753 Y4.037
G2 X-13.492 Y4.073 I0.338 J-1.461
G1 X-11.76 Y4.162
X-10.081 Y6.692
G2 X-9.44 Y7.569 I10.081 J-6.692
G1 X-8.543 Y8.688
X-10.614 Y14.5
G2 X-9.985 Y16.282 I1.413 J0.503
X-9.765 Y16.415 I9.983 J-16.283
G1 X-9.691 Y16.456
X-9.614 Y16.494
X-9.479 Y16.554
X-9.402 Y16.587
X-9.322 Y16.615
X-9.18 Y16.661
X-9.103 Y16.683
X-9.025 Y16.701
X-8.875 Y16.732
X-8.728 Y16.755
X-8.572 Y16.772
X-8.435 Y16.78
X-8.272 Y16.782
X-8.146 Y16.778
X-7.978 Y16.767
X-7.864 Y16.754
X-7.689 Y16.728
X-7.587 Y16.71
X-7.408 Y16.67
X-7.316 Y16.647
X-7.132 Y16.594
X-7.049 Y16.568
X-6.861 Y16.502
X-6.787 Y16.474
X-6.595 Y16.394
X-6.529 Y16.366
X-6.333 Y16.274
X-6.273 Y16.244
X-6.073 Y16.14
X-6.019 Y16.11
X-5.817 Y15.993
X-5.768 Y15.963
X-5.563 Y15.835
X-5.518 Y15.805
X-5.311 Y15.664
X-5.27 Y15.635
X-5.062 Y15.483
X-5.024 Y15.454
X-4.814 Y15.29
X-4.779 Y15.261
X-4.568 Y15.086
X-4.535 Y15.058
X-4.324 Y14.872
X-4.294 Y14.844
X-4.083 Y14.647
X-4.056 Y14.621
X-3.846 Y14.415
X-3.821 Y14.391
X-3.611 Y14.175
X-3.59 Y14.153
X-3.381 Y13.929
G2 X-3.219 Y13.721 I-1.096 J-1.024
G1 X-2.276 Y12.266
X0.756 Y12.076
G2 X1.835 Y11.96 I-0.755 J-12.076
G1 X3.252 Y11.743
X7.251 Y16.442
G2 X9.108 Y16.788 I1.142 J-0.972
X9.333 Y16.664 I-9.107 J-16.789
G1 X9.407 Y16.62
X9.478 Y16.572
X9.598 Y16.486
X9.664 Y16.435
X9.728 Y16.38
X9.839 Y16.28
X9.896 Y16.225
X9.951 Y16.167
X10.053 Y16.053
X10.146 Y15.937
X10.239 Y15.81
X10.314 Y15.695
X10.398 Y15.555
X10.457 Y15.444
X10.531 Y15.292
X10.578 Y15.187
X10.642 Y15.024
X10.677 Y14.926
X10.733 Y14.751
X10.759 Y14.659
X10.805 Y14.473
X10.823 Y14.389
X10.86 Y14.193
X10.873 Y14.115
X10.901 Y13.908
X10.909 Y13.837
X10.927 Y13.621
X10.931 Y13.554
X10.941 Y13.329
X10.942 Y13.268
Y13.034
X10.941 Y12.977
X10.931 Y12.735
X10.928 Y12.681
X10.91 Y12.432
X10.905 Y12.382
X10.877 Y12.125
X10.871 Y12.077
X10.834 Y11.814
X10.827 Y11.769
X10.781 Y11.499
X10.773 Y11.456
X10.717 Y11.181
X10.708 Y11.14
X10.644 Y10.86
X10.635 Y10.823
X10.561 Y10.538
X10.552 Y10.504
X10.471 Y10.215
X10.462 Y10.185
X10.373 Y9.893
G2 X10.274 Y9.648 I-1.435 J0.438
G1 X9.485 Y8.104
X10.836 Y5.384
G2 X11.275 Y4.391 I-10.836 J-5.384
G1 X11.795 Y3.055
X17.864 Y1.942
G2 X19.093 Y0.506 I-0.271 J-1.475
X19.098 Y0.249 I-19.093 J-0.508
G1 X19.097 Y0.164
X19.091 Y0.079
X19.076 Y-0.069
X19.065 Y-0.151
X19.05 Y-0.233
X19.018 Y-0.38
X18.999 Y-0.458
X18.976 Y-0.535
X18.928 Y-0.68
X18.875 Y-0.818
X18.811 Y-0.962
X18.749 Y-1.086
X18.67 Y-1.228
X18.604 Y-1.334
X18.509 Y-1.474
X18.441 Y-1.567
X18.332 Y-1.705
X18.265 Y-1.784
X18.141 Y-1.92
X18.074 Y-1.988
X17.936 Y-2.121
X17.873 Y-2.179
X17.721 Y-2.309
X17.66 Y-2.359
X17.496 Y-2.486
X17.437 Y-2.529
X17.26 Y-2.653
X17.204 Y-2.69
X17.014 Y-2.81
X16.961 Y-2.842
X16.759 Y-2.959
X16.708 Y-2.987
X16.495 Y-3.099
X16.447 Y-3.124
X16.221 Y-3.232
X16.175 Y-3.253
X15.939 Y-3.358
X15.895 Y-3.376
X15.648 Y-3.476
X15.606 Y-3.492
X15.349 Y-3.587
X15.308 Y-3.601
X15.041 Y-3.691
X15.002 Y-3.703
X14.727 Y-3.788
X14.69 Y-3.798
X14.407 Y-3.877
X14.373 Y-3.886
X14.082 Y-3.96
X14.051 Y-3.968
X13.753 Y-4.037
G2 X13.492 Y-4.073 I-0.338 J1.461
G1 X11.76 Y-4.162
X10.081 Y-6.692
G2 X9.44 Y-7.569 I-10.081 J6.692
G1 X8.543 Y-8.688
X10.614 Y-14.5
G2 X9.985 Y-16.282 I-1.413 J-0.503
X9.765 Y-16.415 I-9.983 J16.283
G1 X9.691 Y-16.456
X9.614 Y-16.494
X9.479 Y-16.554
X9.402 Y-16.587
X9.322 Y-16.615
X9.18 Y-16.661
X9.103 Y-16.683
X9.025 Y-16.701
X8.875 Y-16.732
X8.728 Y-16.755
X8.572 Y-16.772
X8.435 Y-16.78
X8.272 Y-16.782
X8.146 Y-16.778
X7.978 Y-16.767
X7.864 Y-16.754
X7.689 Y-16.728
X7.587 Y-16.71
X7.408 Y-16.67
X7.316 Y-16.647
X7.132 Y-16.594
X7.049 Y-16.568
X6.861 Y-16.502
X6.787 Y-16.474
X6.595 Y-16.394
X6.529 Y-16.366
X6.333 Y-16.274
X6.273 Y-16.244
X6.073 Y-16.14
X6.019 Y-16.11
X5.817 Y-15.993
X5.768 Y-15.963
X5.563 Y-15.835
X5.518 Y-15.805
X5.311 Y-15.664
X5.27 Y-15.635
X5.062 Y-15.483
X5.024 Y-15.454
X4.814 Y-15.29
X4.779 Y-15.261
X4.568 Y-15.086
X4.535 Y-15.058
X4.324 Y-14.872
X4.294 Y-14.844
X4.083 Y-14.647
X4.056 Y-14.621
X3.846 Y-14.415
X3.821 Y-14.391
X3.611 Y-14.175
X3.59 Y-14.153
X3.381 Y-13.929
G2 X3.219 Y-13.721 I1.096 J1.024
G1 X2.276 Y-12.266
X-0.756 Y-12.076
G2 X-1.835 Y-11.96 I0.755 J12.076
G1 X-3.252 Y-11.743
X-7.251 Y-16.442
G2 X-9.108 Y-16.788 I-1.142 J0.972
X-9.333 Y-16.664 I9.107 J16.789
G1 X-9.407 Y-16.62
X-9.478 Y-16.572
X-9.598 Y-16.486
X-9.664 Y-16.435
X-9.728 Y-16.38
X-9.839 Y-16.28
X-9.896 Y-16.225
X-9.951 Y-16.167
X-10.053 Y-16.053
X-10.146 Y-15.937
X-10.239 Y-15.81
X-10.314 Y-15.695
X-10.398 Y-15.555
X-10.457 Y-15.444
X-10.531 Y-15.292
X-10.578 Y-15.187
X-10.642 Y-15.024
X-10.677 Y-14.926
X-10.733 Y-14.751
X-10.759 Y-14.659
X-10.805 Y-14.473
X-10.823 Y-14.389
X-10.86 Y-14.193
X-10.873 Y-14.115
X-10.901 Y-13.908
X-10.909 Y-13.837
X-10.927 Y-13.621
X-10.931 Y-13.554
X-10.941 Y-13.329
X-10.942 Y-13.268
Y-13.034
X-10.941 Y-12.977
X-10.931 Y-12.735
X-10.928 Y-12.681
X-10.91 Y-12.432
X-10.905 Y-12.382
X-10.877 Y-12.125
X-10.871 Y-12.077
X-10.834 Y-11.814
X-10.827 Y-11.769
X-10.781 Y-11.499
X-10.773 Y-11.456
X-10.717 Y-11.181
X-10.708 Y-11.14
X-10.644 Y-10.86
X-10.635 Y-10.823
X-10.561 Y-10.538
X-10.552 Y-10.504
X-10.471 Y-10.215
X-10.462 Y-10.185
X-10.373 Y-9.893
G2 X-10.274 Y-9.648 I1.435 J-0.438
G1 X-9.485 Y-8.104
X-10.836 Y-5.384
G2 X-11.275 Y-4.391 I10.836 J5.384
G1 X-11.795 Y-3.055
X-17.864 Y-1.942
G2 X-19.093 Y-0.506 I0.271 J1.475
X-19.098 Y-0.249 I19.093 J0.508
G1 Y-0.223
Z-0.6 F333.3
X-19.091 Y-0.079 F700
X-19.076 Y0.069
X-19.065 Y0.151
X-19.05 Y0.233
X-19.018 Y0.38
X-18.999 Y0.458
X-18.976 Y0.535
X-18.928 Y0.68
X-18.875 Y0.818
X-18.811 Y0.962
X-18.749 Y1.086
X-18.67 Y1.228
X-18.604 Y1.334
X-18.509 Y1.474
X-18.441 Y1.567
X-18.332 Y1.705
X-18.265 Y1.784
X-18.141 Y1.92
X-18.074 Y1.988
X-17.936 Y2.121
X-17.873 Y2.179
X-17.721 Y2.309
X-17.66 Y2.359
X-17.496 Y2.486
X-17.437 Y2.529
X-17.26 Y2.653
X-17.204 Y2.69
X-17.014 Y2.81
X-16.961 Y2.842
X-16.759 Y2.959
X-16.708 Y2.987
X-16.495 Y3.099
X-16.447 Y3.124
X-16.221 Y3.232
X-16.175 Y3.253
X-15.939 Y3.358
X-15.895 Y3.376
X-15.648 Y3.476
X-15.606 Y3.492
X-15.349 Y3.587
X-15.308 Y3.601
X-15.041 Y3.691
X-15.002 Y3.703
X-14.727 Y3.788
X-14.69 Y3.798
X-14.407 Y3.877
X-14.373 Y3.886
X-14.082 Y3.96
X-14.051 Y3.968
X-13.753 Y4.037
G2 X-13.492 Y4.073 I0.338 J-1.461
G1 X-11.76 Y4.162
X-10.081 Y6.692
G2 X-9.44 Y7.569 I10.081 J-6.692
G1 X-8.543 Y8.688
X-10.614 Y14.5
G2 X-9.985 Y16.282 I1.413 J0.503
X-9.765 Y16.415 I9.983 J-16.283
G1 X-9.691 Y16.456
X-9.614 Y16.494
X-9.479 Y16.554
X-9.402 Y16.587
X-9.322 Y16.615
X-9.18 Y16.661
X-9.103 Y16.683
X-9.025 Y16.701
X-8.875 Y16.732
X-8.728 Y16.755
X-8.572 Y16.772
X-8.435 Y16.78
X-8.272 Y16.782
X-8.146 Y16.778
X-7.978 Y16.767
X-7.864 Y16.754
X-7.689 Y16.728
X-7.587 Y16.71
X-7.408 Y16.67
X-7.316 Y16.647
X-7.132 Y16.594
X-7.049 Y16.568
X-6.861 Y16.502
X-6.787 Y16.474
X-6.595 Y16.394
X-6.529 Y16.366
X-6.333 Y16.274
X-6.273 Y16.244
X-6.073 Y16.14
X-6.019 Y16.11
X-5.817 Y15.993
X-5.768 Y15.963
X-5.563 Y15.835
X-5.518 Y15.805
X-5.311 Y15.664
X-5.27 Y15.635
X-5.062 Y15.483
X-5.024 Y15.454
X-4.814 Y15.29
X-4.779 Y15.261
X-4.568 Y15.086
X-4.535 Y15.058
X-4.324 Y14.872
X-4.294 Y14.844
X-4.083 Y14.647
X-4.056 Y14.621
X-3.846 Y14.415
X-3.821 Y14.391
X-3.611 Y14.175
X-3.59 Y14.153
X-3.381 Y13.929
G2 X-3.219 Y13.721 I-1.096 J-1.024
G1 X-2.276 Y12.266
X0.756 Y12.076
G2 X1.835 Y11.96 I-0.755 J-12.076
G1 X3.252 Y11.743
X7.251 Y16.442
G2 X9.108 Y16.788 I1.142 J-0.972
X9.333 Y16.664 I-9.107 J-16.789
G1 X9.407 Y16.62
X9.478 Y16.572
X9.598 Y16.486
X9.664 Y16.435
X9.728 Y16.38
X9.839 Y16.28
X9.896 Y16.225
X9.951 Y16.167
X10.053 Y16.053
X10.146 Y15.937
X10.239 Y15.81
X10.314 Y15.695
X10.398 Y15.555
X10.457 Y15.444
X10.531 Y15.292
X10.578 Y15.187
X10.642 Y15.024
X10.677 Y14.926
X10.733 Y14.751
X10.759 Y14.659
X10.805 Y14.473
X10.823 Y14.389
X10.86 Y14.193
X10.873 Y14.115
X10.901 Y13.908
X10.909 Y13.837
X10.927 Y13.621
X10.931 Y13.554
X10.941 Y13.329
X10.942 Y13.268
Y13.034
X10.941 Y12.977
X10.931 Y12.735
X10.928 Y12.681
X10.91 Y12.432
X10.905 Y12.382
X10.877 Y12.125
X10.871 Y12.077
X10.834 Y11.814
X10.827 Y11.769
X10.781 Y11.499
X10.773 Y11.456
X10.717 Y11.181
X10.708 Y11.14
X10.644 Y10.86
X10.635 Y10.823
X10.561 Y10.538
X10.552 Y10.504
X10.471 Y10.215
X10.462 Y10.185
X10.373 Y9.893
G2 X10.274 Y9.648 I-1.435 J0.438
G1 X9.485 Y8.104
X10.836 Y5.384
G2 X11.275 Y4.391 I-10.836 J-5.384
G1 X11.795 Y3.055
X17.864 Y1.942
G2 X19.093 Y0.506 I-0.271 J-1.475
X19.098 Y0.249 I-19.093 J-0.508
G1 X19.097 Y0.164
X19.091 Y0.079
X19.076 Y-0.069
X19.065 Y-0.151
X19.05 Y-0.233
X19.018 Y-0.38
X18.999 Y-0.458
X18.976 Y-0.535
X18.928 Y-0.68
X18.875 Y-0.818
X18.811 Y-0.962
X18.749 Y-1.086
X18.67 Y-1.228
X18.604 Y-1.334
X18.509 Y-1.474
X18.441 Y-1.567
X18.332 Y-1.705
X18.265 Y-1.784
X18.141 Y-1.92
X18.074 Y-1.988
X17.936 Y-2.121
X17.873 Y-2.179
X17.721 Y-2.309
X17.66 Y-2.359
X17.496 Y-2.486
X17.437 Y-2.529
X17.26 Y-2.653
X17.204 Y-2.69
X17.014 Y-2.81
X16.961 Y-2.842
X16.759 Y-2.959
X16.708 Y-2.987
X16.495 Y-3.099
X16.447 Y-3.124
X16.221 Y-3.232
X16.175 Y-3.253
X15.939 Y-3.358
X15.895 Y-3.376
X15.648 Y-3.476
X15.606 Y-3.492
X15.349 Y-3.587
X15.308 Y-3.601
X15.041 Y-3.691
X15.002 Y-3.703
X14.727 Y-3.788
X14.69 Y-3.798
X14.407 Y-3.877
X14.373 Y-3.886
X14.082 Y-3.96
X14.051 Y-3.968
X13.753 Y-4.037
G2 X13.492 Y-4.073 I-0.338 J1.461
G1 X11.76 Y-4.162
X10.081 Y-6.692
G2 X9.44 Y-7.569 I-10.081 J6.692
G1 X8.543 Y-8.688
X10.614 Y-14.5
G2 X9.985 Y-16.282 I-1.413 J-0.503
X9.765 Y-16.415 I-9.983 J16.283
G1 X9.691 Y-16.456
X9.614 Y-16.494
X9.479 Y-16.554
X9.402 Y-16.587
X9.322 Y-16.615
X9.18 Y-16.661
X9.103 Y-16.683
X9.025 Y-16.701
X8.875 Y-16.732
X8.728 Y-16.755
X8.572 Y-16.772
X8.435 Y-16.78
X8.272 Y-16.782
X8.146 Y-16.778
X7.978 Y-16.767
X7.864 Y-16.754
X7.689 Y-16.728
X7.587 Y-16.71
X7.408 Y-16.67
X7.316 Y-16.647
X7.132 Y-16.594
X7.049 Y-16.568
X6.861 Y-16.502
X6.787 Y-16.474
X6.595 Y-16.394
X6.529 Y-16.366
X6.333 Y-16.274
X6.273 Y-16.244
X6.073 Y-16.14
X6.019 Y-16.11
X5.817 Y-15.993
X5.768 Y-15.963
X5.563 Y-15.835
X5.518 Y-15.805
X5.311 Y-15.664
X5.27 Y-15.635
X5.062 Y-15.483
X5.024 Y-15.454
X4.814 Y-15.29
X4.779 Y-15.261
X4.568 Y-15.086
X4.535 Y-15.058
X4.324 Y-14.872
X4.294 Y-14.844
X4.083 Y-14.647
X4.056 Y-14.621
X3.846 Y-14.415
X3.821 Y-14.391
X3.611 Y-14.175
X3.59 Y-14.153
X3.381 Y-13.929
G2 X3.219 Y-13.721 I1.096 J1.024
G1 X2.276 Y-12.266
X-0.756 Y-12.076
G2 X-1.835 Y-11.96 I0.755 J12.076
G1 X-3.252 Y-11.743
X-7.251 Y-16.442
G2 X-9.108 Y-16.788 I-1.142 J0.972
X-9.333 Y-16.664 I9.107 J16.789
G1 X-9.407 Y-16.62
X-9.478 Y-16.572
X-9.598 Y-16.486
X-9.664 Y-16.435
X-9.728 Y-16.38
X-9.839 Y-16.28
X-9.896 Y-16.225
X-9.951 Y-16.167
X-10.053 Y-16.053
X-10.146 Y-15.937
X-10.239 Y-15.81
X-10.314 Y-15.695
X-10.398 Y-15.555
X-10.457 Y-15.444
X-10.531 Y-15.292
X-10.578 Y-15.187
X-10.642 Y-15.024
X-10.677 Y-14.926
X-10.733 Y-14.751
X-10.759 Y-14.659
X-10.805 Y-14.473
X-10.823 Y-14.389
X-10.86 Y-14.193
X-10.873 Y-14.115
X-10.901 Y-13.908
X-10.909 Y-13.837
X-10.927 Y-13.621
X-10.931 Y-13.554
X-10.941 Y-13.329
X-10.942 Y-13.268
Y-13.034
X-10.941 Y-12.977
X-10.931 Y-12.735
X-10.928 Y-12.681
X-10.91 Y-12.432
X-10.905 Y-12.382
X-10.877 Y-12.125
X-10.871 Y-12.077
X-10.834 Y-11.814
X-10.827 Y-11.769
X-10.781 Y-11.499
X-10.773 Y-11.456
X-10.717 Y-11.181
X-10.708 Y-11.14
X-10.644 Y-10.86
X-10.635 Y-10.823
X-10.561 Y-10.538
X-10.552 Y-10.504
X-10.471 Y-10.215
X-10.462 Y-10.185
X-10.373 Y-9.893
G2 X-10.274 Y-9.648 I1.435 J-0.438
G1 X-9.485 Y-8.104
X-10.836 Y-5.384
G2 X-11.275 Y-4.391 I10.836 J5.384
G1 X-11.795 Y-3.055
X-17.864 Y-1.942
G2 X-19.093 Y-0.506 I0.271 J1.475
X-19.098 Y-0.249 I19.093 J0.508
G1 Y-0.223
Z-0.9 F333.3
X-19.091 Y-0.079 F700
X-19.076 Y0.069
X-19.065 Y0.151
X-19.05 Y0.233
X-19.018 Y0.38
X-18.999 Y0.458
X-18.976 Y0.535
X-18.928 Y0.68
X-18.875 Y0.818
X-18.811 Y0.962
X-18.749 Y1.086
X-18.67 Y1.228
X-18.604 Y1.334
X-18.509 Y1.474
X-18.441 Y1.567
X-18.332 Y1.705
X-18.265 Y1.784
X-18.141 Y1.92
X-18.074 Y1.988
X-17.936 Y2.121
X-17.873 Y2.179
X-17.721 Y2.309
X-17.66 Y2.359
X-17.496 Y2.486
X-17.437 Y2.529
X-17.26 Y2.653
X-17.204 Y2.69
X-17.014 Y2.81
X-16.961 Y2.842
X-16.759 Y2.959
X-16.708 Y2.987
X-16.495 Y3.099
X-16.447 Y3.124
X-16.221 Y3.232
X-16.175 Y3.253
X-15.939 Y3.358
X-15.895 Y3.376
X-15.648 Y3.476
X-15.606 Y3.492
X-15.349 Y3.587
X-15.308 Y3.601
X-15.041 Y3.691
X-15.002 Y3.703
X-14.727 Y3.788
X-14.69 Y3.798
X-14.407 Y3.877
X-14.373 Y3.886
X-14.082 Y3.96
X-14.051 Y3.968
X-13.753 Y4.037
G2 X-13.492 Y4.073 I0.338 J-1.461
G1 X-11.76 Y4.162
X-10.081 Y6.692
G2 X-9.44 Y7.569 I10.081 J-6.692
G1 X-8.543 Y8.688
X-10.614 Y14.5
G2 X-9.985 Y16.282 I1.413 J0.503
X-9.765 Y16.415 I9.983 J-16.283
G1 X-9.691 Y16.456
X-9.614 Y16.494
X-9.479 Y16.554
X-9.402 Y16.587
X-9.322 Y16.615
X-9.18 Y16.661
X-9.103 Y16.683
X-9.025 Y16.701
X-8.875 Y16.732
X-8.728 Y16.755
X-8.572 Y16.772
X-8.435 Y16.78
X-8.272 Y16.782
X-8.146 Y16.778
X-7.978 Y16.767
X-7.864 Y16.754
X-7.689 Y16.728
X-7.587 Y16.71
X-7.408 Y16.67
X-7.316 Y16.647
X-7.132 Y16.594
X-7.049 Y16.568
X-6.861 Y16.502
X-6.787 Y16.474
X-6.595 Y16.394
X-6.529 Y16.366
X-6.333 Y16.274
X-6.273 Y16.244
X-6.073 Y16.14
X-6.019 Y16.11
X-5.817 Y15.993
X-5.768 Y15.963
X-5.563 Y15.835
X-5.518 Y15.805
X-5.311 Y15.664
X-5.27 Y15.635
X-5.062 Y15.483
X-5.024 Y15.454
X-4.814 Y15.29
X-4.779 Y15.261
X-4.568 Y15.086
X-4.535 Y15.058
X-4.324 Y14.872
X-4.294 Y14.844
X-4.083 Y14.647
X-4.056 Y14.621
X-3.846 Y14.415
X-3.821 Y14.391
X-3.611 Y14.175
X-3.59 Y14.153
X-3.381 Y13.929
G2 X-3.219 Y13.721 I-1.096 J-1.024
G1 X-2.276 Y12.266
X0.756 Y12.076
G2 X1.835 Y11.96 I-0.755 J-12.076
G1 X3.252 Y11.743
X7.251 Y16.442
G2 X9.108 Y16.788 I1.142 J-0.972
X9.333 Y16.664 I-9.107 J-16.789
G1 X9.407 Y16.62
X9.478 Y16.572
X9.598 Y16.486
X9.664 Y16.435
X9.728 Y16.38
X9.839 Y16.28
X9.896 Y16.225
X9.951 Y16.167
X10.053 Y16.053
X10.146 Y15.937
X10.239 Y15.81
X10.314 Y15.695
X10.398 Y15.555
X10.457 Y15.444
X10.531 Y15.292
X10.578 Y15.187
X10.642 Y15.024
X10.677 Y14.926
X10.733 Y14.751
X10.759 Y14.659
X10.805 Y14.473
X10.823 Y14.389
X10.86 Y14.193
X10.873 Y14.115
X10.901 Y13.908
X10.909 Y13.837
X10.927 Y13.621
X10.931 Y13.554
X10.941 Y13.329
X10.942 Y13.268
Y13.034
X10.941 Y12.977
X10.931 Y12.735
X10.928 Y12.681
X10.91 Y12.432
X10.905 Y12.382
X10.877 Y12.125
X10.871 Y12.077
X10.834 Y11.814
X10.827 Y11.769
X10.781 Y11.499
X10.773 Y11.456
X10.717 Y11.181
X10.708 Y11.14
X10.644 Y10.86
X10.635 Y10.823
X10.561 Y10.538
X10.552 Y10.504
X10.471 Y10.215
X10.462 Y10.185
X10.373 Y9.893
G2 X10.274 Y9.648 I-1.435 J0.438
G1 X9.485 Y8.104
X10.836 Y5.384
G2 X11.275 Y4.391 I-10.836 J-5.384
G1 X11.795 Y3.055
X17.864 Y1.942
G2 X19.093 Y0.506 I-0.271 J-1.475
X19.098 Y0.249 I-19.093 J-0.508
G1 X19.097 Y0.164
X19.091 Y0.079
X19.076 Y-0.069
X19.065 Y-0.151
X19.05 Y-0.233
X19.018 Y-0.38
X18.999 Y-0.458
X18.976 Y-0.535
X18.928 Y-0.68
X18.875 Y-0.818
X18.811 Y-0.962
X18.749 Y-1.086
X18.67 Y-1.228
X18.604 Y-1.334
X18.509 Y-1.474
X18.441 Y-1.567
X18.332 Y-1.705
X18.265 Y-1.784
X18.141 Y-1.92
X18.074 Y-1.988
X17.936 Y-2.121
X17.873 Y-2.179
X17.721 Y-2.309
X17.66 Y-2.359
X17.496 Y-2.486
X17.437 Y-2.529
X17.26 Y-2.653
X17.204 Y-2.69
X17.014 Y-2.81
X16.961 Y-2.842
X16.759 Y-2.959
X16.708 Y-2.987
X16.495 Y-3.099
X16.447 Y-3.124
X16.221 Y-3.232
X16.175 Y-3.253
X15.939 Y-3.358
X15.895 Y-3.376
X15.648 Y-3.476
X15.606 Y-3.492
X15.349 Y-3.587
X15.308 Y-3.601
X15.041 Y-3.691
X15.002 Y-3.703
X14.727 Y-3.788
X14.69 Y-3.798
X14.407 Y-3.877
X14.373 Y-3.886
X14.082 Y-3.96
X14.051 Y-3.968
X13.753 Y-4.037
G2 X13.492 Y-4.073 I-0.338 J1.461
G1 X11.76 Y-4.162
X10.081 Y-6.692
G2 X9.44 Y-7.569 I-10.081 J6.692
G1 X8.543 Y-8.688
X10.614 Y-14.5
G2 X9.985 Y-16.282 I-1.413 J-0.503
X9.765 Y-16.415 I-9.983 J16.283
G1 X9.691 Y-16.456
X9.614 Y-16.494
X9.479 Y-16.554
X9.402 Y-16.587
X9.322 Y-16.615
X9.18 Y-16.661
X9.103 Y-16.683
X9.025 Y-16.701
X8.875 Y-16.732
X8.728 Y-16.755
X8.572 Y-16.772
X8.435 Y-16.78
X8.272 Y-16.782
X8.146 Y-16.778
X7.978 Y-16.767
X7.864 Y-16.754
X7.689 Y-16.728
X7.587 Y-16.71
X7.408 Y-16.67
X7.316 Y-16.647
X7.132 Y-16.594
X7.049 Y-16.568
X6.861 Y-16.502
X6.787 Y-16.474
X6.595 Y-16.394
X6.529 Y-16.366
X6.333 Y-16.274
X6.273 Y-16.244
X6.073 Y-16.14
X6.019 Y-16.11
X5.817 Y-15.993
X5.768 Y-15.963
X5.563 Y-15.835
X5.518 Y-15.805
X5.311 Y-15.664
X5.27 Y-15.635
X5.062 Y-15.483
X5.024 Y-15.454
X4.814 Y-15.29
X4.779 Y-15.261
X4.568 Y-15.086
X4.535 Y-15.058
X4.324 Y-14.872
X4.294 Y-14.844
X4.083 Y-14.647
X4.056 Y-14.621
X3.846 Y-14.415
X3.821 Y-14.391
X3.611 Y-14.175
X3.59 Y-14.153
X3.381 Y-13.929
G2 X3.219 Y-13.721 I1.096 J1.024
G1 X2.276 Y-12.266
X-0.756 Y-12.076
G2 X-1.835 Y-11.96 I0.755 J12.076
G1 X-3.252 Y-11.743
X-7.251 Y-16.442
G2 X-9.108 Y-16.788 I-1.142 J0.972
X-9.333 Y-16.664 I9.107 J16.789
G1 X-9.407 Y-16.62
X-9.478 Y-16.572
X-9.598 Y-16.486
X-9.664 Y-16.435
X-9.728 Y-16.38
X-9.839 Y-16.28
X-9.896 Y-16.225
X-9.951 Y-16.167
X-10.053 Y-16.053
X-10.146 Y-15.937
X-10.239 Y-15.81
X-10.314 Y-15.695
X-10.398 Y-15.555
X-10.457 Y-15.444
X-10.531 Y-15.292
X-10.578 Y-15.187
X-10.642 Y-15.024
X-10.677 Y-14.926
X-10.733 Y-14.751
X-10.759 Y-14.659
X-10.805 Y-14.473
X-10.823 Y-14.389
X-10.86 Y-14.193
X-10.873 Y-14.115
X-10.901 Y-13.908
X-10.909 Y-13.837
X-10.927 Y-13.621
X-10.931 Y-13.554
X-10.941 Y-13.329
X-10.942 Y-13.268
Y-13.034
X-10.941 Y-12.977
X-10.931 Y-12.735
X-10.928 Y-12.681
X-10.91 Y-12.432
X-10.905 Y-12.382
X-10.877 Y-12.125
X-10.871 Y-12.077
X-10.834 Y-11.814
X-10.827 Y-11.769
X-10.781 Y-11.499
X-10.773 Y-11.456
X-10.717 Y-11.181
X-10.708 Y-11.14
X-10.644 Y-10.86
X-10.635 Y-10.823
X-10.561 Y-10.538
X-10.552 Y-10.504
X-10.471 Y-10.215
X-10.462 Y-10.185
X-10.373 Y-9.893
G2 X-10.274 Y-9.648 I1.435 J-0.438
G1 X-9.485 Y-8.104
X-10.836 Y-5.384
G2 X-11.275 Y-4.391 I10.836 J5.384
G1 X-11.795 Y-3.055
X-17.864 Y-1.942
G2 X-19.093 Y-0.506 I0.271 J1.475
X-19.098 Y-0.249 I19.093 J0.508
G1 Y-0.223
Z-1.2 F333.3
X-19.091 Y-0.079 F700
X-19.076 Y0.069
X-19.065 Y0.151
X-19.05 Y0.233
X-19.018 Y0.38
X-18.999 Y0.458
X-18.976 Y0.535
X-18.928 Y0.68
X-18.875 Y0.818
X-18.811 Y0.962
X-18.749 Y1.086
X-18.67 Y1.228
X-18.604 Y1.334
X-18.509 Y1.474
X-18.441 Y1.567
X-18.332 Y1.705
X-18.265 Y1.784
X-18.141 Y1.92
X-18.074 Y1.988
X-17.936 Y2.121
X-17.873 Y2.179
X-17.721 Y2.309
X-17.66 Y2.359
X-17.496 Y2.486
X-17.437 Y2.529
X-17.26 Y2.653
X-17.204 Y2.69
X-17.014 Y2.81
X-16.961 Y2.842
X-16.759 Y2.959
X-16.708 Y2.987
X-16.495 Y3.099
X-16.447 Y3.124
X-16.221 Y3.232
X-16.175 Y3.253
X-15.939 Y3.358
X-15.895 Y3.376
X-15.648 Y3.476
X-15.606 Y3.492
X-15.349 Y3.587
X-15.308 Y3.601
X-15.041 Y3.691
X-15.002 Y3.703
X-14.727 Y3.788
X-14.69 Y3.798
X-14.407 Y3.877
X-14.373 Y3.886
X-14.082 Y3.96
X-14.051 Y3.968
X-13.753 Y4.037
G2 X-13.492 Y4.073 I0.338 J-1.461
G1 X-11.76 Y4.162
X-10.081 Y6.692
G2 X-9.44 Y7.569 I10.081 J-6.692
G1 X-8.543 Y8.688
X-10.614 Y14.5
G2 X-9.985 Y16.282 I1.413 J0.503
X-9.765 Y16.415 I9.983 J-16.283
G1 X-9.691 Y16.456
X-9.614 Y16.494
X-9.479 Y16.554
X-9.402 Y16.587
X-9.322 Y16.615
X-9.18 Y16.661
X-9.103 Y16.683
X-9.025 Y16.701
X-8.875 Y16.732
X-8.728 Y16.755
X-8.572 Y16.772
X-8.435 Y16.78
X-8.272 Y16.782
X-8.146 Y16.778
X-7.978 Y16.767
X-7.864 Y16.754
X-7.689 Y16.728
X-7.587 Y16.71
X-7.408 Y16.67
X-7.316 Y16.647
X-7.132 Y16.594
X-7.049 Y16.568
X-6.861 Y16.502
X-6.787 Y16.474
X-6.595 Y16.394
X-6.529 Y16.366
X-6.333 Y16.274
X-6.273 Y16.244
X-6.073 Y16.14
X-6.019 Y16.11
X-5.817 Y15.993
X-5.768 Y15.963
X-5.563 Y15.835
X-5.518 Y15.805
X-5.311 Y15.664
X-5.27 Y15.635
X-5.062 Y15.483
X-5.024 Y15.454
X-4.814 Y15.29
X-4.779 Y15.261
X-4.568 Y15.086
X-4.535 Y15.058
X-4.324 Y14.872
X-4.294 Y14.844
X-4.083 Y14.647
X-4.056 Y14.621
X-3.846 Y14.415
X-3.821 Y14.391
X-3.611 Y14.175
X-3.59 Y14.153
X-3.381 Y13.929
G2 X-3.219 Y13.721 I-1.096 J-1.024
G1 X-2.276 Y12.266
X0.756 Y12.076
G2 X1.835 Y11.96 I-0.755 J-12.076
G1 X3.252 Y11.743
X7.251 Y16.442
G2 X9.108 Y16.788 I1.142 J-0.972
X9.333 Y16.664 I-9.107 J-16.789
G1 X9.407 Y16.62
X9.478 Y16.572
X9.598 Y16.486
X9.664 Y16.435
X9.728 Y16.38
X9.839 Y16.28
X9.896 Y16.225
X9.951 Y16.167
X10.053 Y16.053
X10.146 Y15.937
X10.239 Y15.81
X10.314 Y15.695
X10.398 Y15.555
X10.457 Y15.444
X10.531 Y15.292
X10.578 Y15.187
X10.642 Y15.024
X10.677 Y14.926
X10.733 Y14.751
X10.759 Y14.659
X10.805 Y14.473
X10.823 Y14.389
X10.86 Y14.193
X10.873 Y14.115
X10.901 Y13.908
X10.909 Y13.837
X10.927 Y13.621
X10.931 Y13.554
X10.941 Y13.329
X10.942 Y13.268
Y13.034
X10.941 Y12.977
X10.931 Y12.735
X10.928 Y12.681
X10.91 Y12.432
X10.905 Y12.382
X10.877 Y12.125
X10.871 Y12.077
X10.834 Y11.814
X10.827 Y11.769
X10.781 Y11.499
X10.773 Y11.456
X10.717 Y11.181
X10.708 Y11.14
X10.644 Y10.86
X10.635 Y10.823
X10.561 Y10.538
X10.552 Y10.504
X10.471 Y10.215
X10.462 Y10.185
X10.373 Y9.893
G2 X10.274 Y9.648 I-1.435 J0.438
G1 X9.485 Y8.104
X10.836 Y5.384
G2 X11.275 Y4.391 I-10.836 J-5.384
G1 X11.795 Y3.055
X17.864 Y1.942
G2 X19.093 Y0.506 I-0.271 J-1.475
X19.098 Y0.249 I-19.093 J-0.508
G1 X19.097 Y0.164
X19.091 Y0.079
X19.076 Y-0.069
X19.065 Y-0.151
X19.05 Y-0.233
X19.018 Y-0.38
X18.999 Y-0.458
X18.976 Y-0.535
X18.928 Y-0.68
X18.875 Y-0.818
X18.811 Y-0.962
X18.749 Y-1.086
X18.67 Y-1.228
X18.604 Y-1.334
X18.509 Y-1.474
X18.441 Y-1.567
X18.332 Y-1.705
X18.265 Y-1.784
X18.141 Y-1.92
X18.074 Y-1.988
X17.936 Y-2.121
X17.873 Y-2.179
X17.721 Y-2.309
X17.66 Y-2.359
X17.496 Y-2.486
X17.437 Y-2.529
X17.26 Y-2.653
X17.204 Y-2.69
X17.014 Y-2.81
X16.961 Y-2.842
X16.759 Y-2.959
X16.708 Y-2.987
X16.495 Y-3.099
X16.447 Y-3.124
X16.221 Y-3.232
X16.175 Y-3.253
X15.939 Y-3.358
X15.895 Y-3.376
X15.648 Y-3.476
X15.606 Y-3.492
X15.349 Y-3.587
X15.308 Y-3.601
X15.041 Y-3.691
X15.002 Y-3.703
X14.727 Y-3.788
X14.69 Y-3.798
X14.407 Y-3.877
X14.373 Y-3.886
X14.082 Y-3.96
X14.051 Y-3.968
X13.753 Y-4.037
G2 X13.492 Y-4.073 I-0.338 J1.461
G1 X11.76 Y-4.162
X10.081 Y-6.692
G2 X9.44 Y-7.569 I-10.081 J6.692
G1 X8.543 Y-8.688
X10.614 Y-14.5
G2 X9.985 Y-16.282 I-1.413 J-0.503
X9.765 Y-16.415 I-9.983 J16.283
G1 X9.691 Y-16.456
X9.614 Y-16.494
X9.479 Y-16.554
X9.402 Y-16.587
X9.322 Y-16.615
X9.18 Y-16.661
X9.103 Y-16.683
X9.025 Y-16.701
X8.875 Y-16.732
X8.728 Y-16.755
X8.572 Y-16.772
X8.435 Y-16.78
X8.272 Y-16.782
X8.146 Y-16.778
X7.978 Y-16.767
X7.864 Y-16.754
X7.689 Y-16.728
X7.587 Y-16.71
X7.408 Y-16.67
X7.316 Y-16.647
X7.132 Y-16.594
X7.049 Y-16.568
X6.861 Y-16.502
X6.787 Y-16.474
X6.595 Y-16.394
X6.529 Y-16.366
X6.333 Y-16.274
X6.273 Y-16.244
X6.073 Y-16.14
X6.019 Y-16.11
X5.817 Y-15.993
X5.768 Y-15.963
X5.563 Y-15.835
X5.518 Y-15.805
X5.311 Y-15.664
X5.27 Y-15.635
X5.062 Y-15.483
X5.024 Y-15.454
X4.814 Y-15.29
X4.779 Y-15.261
X4.568 Y-15.086
X4.535 Y-15.058
X4.324 Y-14.872
X4.294 Y-14.844
X4.083 Y-14.647
X4.056 Y-14.621
X3.846 Y-14.415
X3.821 Y-14.391
X3.611 Y-14.175
X3.59 Y-14.153
X3.381 Y-13.929
G2 X3.219 Y-13.721 I1.096 J1.024
G1 X2.276 Y-12.266
X-0.756 Y-12.076
G2 X-1.835 Y-11.96 I0.755 J12.076
G1 X-3.252 Y-11.743
X-7.251 Y-16.442
G2 X-9.108 Y-16.788 I-1.142 J0.972
X-9.333 Y-16.664 I9.107 J16.789
G1 X-9.407 Y-16.62
X-9.478 Y-16.572
X-9.598 Y-16.486
X-9.664 Y-16.435
X-9.728 Y-16.38
X-9.839 Y-16.28
X-9.896 Y-16.225
X-9.951 Y-16.167
X-10.053 Y-16.053
X-10.146 Y-15.937
X-10.239 Y-15.81
X-10.314 Y-15.695
X-10.398 Y-15.555
X-10.457 Y-15.444
X-10.531 Y-15.292
X-10.578 Y-15.187
X-10.642 Y-15.024
X-10.677 Y-14.926
X-10.733 Y-14.751
X-10.759 Y-14.659
X-10.805 Y-14.473
X-10.823 Y-14.389
X-10.86 Y-14.193
X-10.873 Y-14.115
X-10.901 Y-13.908
X-10.909 Y-13.837
X-10.927 Y-13.621
X-10.931 Y-13.554
X-10.941 Y-13.329
X-10.942 Y-13.268
Y-13.034
X-10.941 Y-12.977
X-10.931 Y-12.735
X-10.928 Y-12.681
X-10.91 Y-12.432
X-10.905 Y-12.382
X-10.877 Y-12.125
X-10.871 Y-12.077
X-10.834 Y-11.814
X-10.827 Y-11.769
X-10.781 Y-11.499
X-10.773 Y-11.456
X-10.717 Y-11.181
X-10.708 Y-11.14
X-10.644 Y-10.86
X-10.635 Y-10.823
X-10.561 Y-10.538
X-10.552 Y-10.504
X-10.471 Y-10.215
X-10.462 Y-10.185
X-10.373 Y-9.893
G2 X-10.274 Y-9.648 I1.435 J-0.438
G1 X-9.485 Y-8.104
X-10.836 Y-5.384
G2 X-11.275 Y-4.391 I10.836 J5.384
G1 X-11.795 Y-3.055
X-17.864 Y-1.942
G2 X-19.093 Y-0.506 I0.271 J1.475
X-19.098 Y-0.249 I19.093 J0.508
G1 Y-0.223
Z-1.5 F333.3
X-19.091 Y-0.079 F700
X-19.076 Y0.069
X-19.065 Y0.151
X-19.05 Y0.233
X-19.018 Y0.38
X-18.999 Y0.458
X-18.976 Y0.535
X-18.928 Y0.68
X-18.875 Y0.818
X-18.811 Y0.962
X-18.749 Y1.086
X-18.67 Y1.228
X-18.604 Y1.334
X-18.509 Y1.474
X-18.441 Y1.567
X-18.332 Y1.705
X-18.265 Y1.784
X-18.141 Y1.92
X-18.074 Y1.988
X-17.936 Y2.121
X-17.873 Y2.179
X-17.721 Y2.309
X-17.66 Y2.359
X-17.496 Y2.486
X-17.437 Y2.529
X-17.26 Y2.653
X-17.204 Y2.69
X-17.014 Y2.81
X-16.961 Y2.842
X-16.759 Y2.959
X-16.708 Y2.987
X-16.495 Y3.099
X-16.447 Y3.124
X-16.221 Y3.232
X-16.175 Y3.253
X-15.939 Y3.358
X-15.895 Y3.376
X-15.648 Y3.476
X-15.606 Y3.492
X-15.349 Y3.587
X-15.308 Y3.601
X-15.041 Y3.691
X-15.002 Y3.703
X-14.727 Y3.788
X-14.69 Y3.798
X-14.407 Y3.877
X-14.373 Y3.886
X-14.082 Y3.96
X-14.051 Y3.968
X-13.753 Y4.037
G2 X-13.492 Y4.073 I0.338 J-1.461
G1 X-11.76 Y4.162
X-10.081 Y6.692
G2 X-9.44 Y7.569 I10.081 J-6.692
G1 X-8.543 Y8.688
X-10.614 Y14.5
G2 X-9.985 Y16.282 I1.413 J0.503
X-9.765 Y16.415 I9.983 J-16.283
G1 X-9.691 Y16.456
X-9.614 Y16.494
X-9.479 Y16.554
X-9.402 Y16.587
X-9.322 Y16.615
X-9.18 Y16.661
X-9.103 Y16.683
X-9.025 Y16.701
X-8.875 Y16.732
X-8.728 Y16.755
X-8.572 Y16.772
X-8.435 Y16.78
X-8.272 Y16.782
X-8.146 Y16.778
X-7.978 Y16.767
X-7.864 Y16.754
X-7.689 Y16.728
X-7.587 Y16.71
X-7.408 Y16.67
X-7.316 Y16.647
X-7.132 Y16.594
X-7.049 Y16.568
X-6.861 Y16.502
X-6.787 Y16.474
X-6.595 Y16.394
X-6.529 Y16.366
X-6.333 Y16.274
X-6.273 Y16.244
X-6.073 Y16.14
X-6.019 Y16.11
X-5.817 Y15.993
X-5.768 Y15.963
X-5.563 Y15.835
X-5.518 Y15.805
X-5.311 Y15.664
X-5.27 Y15.635
X-5.062 Y15.483
X-5.024 Y15.454
X-4.814 Y15.29
X-4.779 Y15.261
X-4.568 Y15.086
X-4.535 Y15.058
X-4.324 Y14.872
X-4.294 Y14.844
X-4.083 Y14.647
X-4.056 Y14.621
X-3.846 Y14.415
X-3.821 Y14.391
X-3.611 Y14.175
X-3.59 Y14.153
X-3.381 Y13.929
G2 X-3.219 Y13.721 I-1.096 J-1.024
G1 X-2.276 Y12.266
X0.756 Y12.076
G2 X1.835 Y11.96 I-0.755 J-12.076
G1 X3.252 Y11.743
X7.251 Y16.442
G2 X9.108 Y16.788 I1.142 J-0.972
X9.333 Y16.664 I-9.107 J-16.789
G1 X9.407 Y16.62
X9.478 Y16.572
X9.598 Y16.486
X9.664 Y16.435
X9.728 Y16.38
X9.839 Y16.28
X9.896 Y16.225
X9.951 Y16.167
X10.053 Y16.053
X10.146 Y15.937
X10.239 Y15.81
X10.314 Y15.695
X10.398 Y15.555
X10.457 Y15.444
X10.531 Y15.292
X10.578 Y15.187
X10.642 Y15.024
X10.677 Y14.926
X10.733 Y14.751
X10.759 Y14.659
X10.805 Y14.473
X10.823 Y14.389
X10.86 Y14.193
X10.873 Y14.115
X10.901 Y13.908
X10.909 Y13.837
X10.927 Y13.621
X10.931 Y13.554
X10.941 Y13.329
X10.942 Y13.268
Y13.034
X10.941 Y12.977
X10.931 Y12.735
X10.928 Y12.681
X10.91 Y12.432
X10.905 Y12.382
X10.877 Y12.125
X10.871 Y12.077
X10.834 Y11.814
X10.827 Y11.769
X10.781 Y11.499
X10.773 Y11.456
X10.717 Y11.181
X10.708 Y11.14
X10.644 Y10.86
X10.635 Y10.823
X10.561 Y10.538
X10.552 Y10.504
X10.471 Y10.215
X10.462 Y10.185
X10.373 Y9.893
G2 X10.274 Y9.648 I-1.435 J0.438
G1 X9.485 Y8.104
X10.836 Y5.384
G2 X11.275 Y4.391 I-10.836 J-5.384
G1 X11.795 Y3.055
X17.864 Y1.942
G2 X19.093 Y0.506 I-0.271 J-1.475
X19.098 Y0.249 I-19.093 J-0.508
G1 X19.097 Y0.164
X19.091 Y0.079
X19.076 Y-0.069
X19.065 Y-0.151
X19.05 Y-0.233
X19.018 Y-0.38
X18.999 Y-0.458
X18.976 Y-0.535
X18.928 Y-0.68
X18.875 Y-0.818
X18.811 Y-0.962
X18.749 Y-1.086
X18.67 Y-1.228
X18.604 Y-1.334
X18.509 Y-1.474
X18.441 Y-1.567
X18.332 Y-1.705
X18.265 Y-1.784
X18.141 Y-1.92
X18.074 Y-1.988
X17.936 Y-2.121
X17.873 Y-2.179
X17.721 Y-2.309
X17.66 Y-2.359
X17.496 Y-2.486
X17.437 Y-2.529
X17.26 Y-2.653
X17.204 Y-2.69
X17.014 Y-2.81
X16.961 Y-2.842
X16.759 Y-2.959
X16.708 Y-2.987
X16.495 Y-3.099
X16.447 Y-3.124
X16.221 Y-3.232
X16.175 Y-3.253
X15.939 Y-3.358
X15.895 Y-3.376
X15.648 Y-3.476
X15.606 Y-3.492
X15.349 Y-3.587
X15.308 Y-3.601
X15.041 Y-3.691
X15.002 Y-3.703
X14.727 Y-3.788
X14.69 Y-3.798
X14.407 Y-3.877
X14.373 Y-3.886
X14.082 Y-3.96
X14.051 Y-3.968
X13.753 Y-4.037
G2 X13.492 Y-4.073 I-0.338 J1.461
G1 X11.76 Y-4.162
X10.081 Y-6.692
G2 X9.44 Y-7.569 I-10.081 J6.692
G1 X8.543 Y-8.688
X10.614 Y-14.5
G2 X9.985 Y-16.282 I-1.413 J-0.503
X9.765 Y-16.415 I-9.983 J16.283
G1 X9.691 Y-16.456
X9.614 Y-16.494
X9.479 Y-16.554
X9.402 Y-16.587
X9.322 Y-16.615
X9.18 Y-16.661
X9.103 Y-16.683
X9.025 Y-16.701
X8.875 Y-16.732
X8.728 Y-16.755
X8.572 Y-16.772
X8.435 Y-16.78
X8.272 Y-16.782
X8.146 Y-16.778
X7.978 Y-16.767
X7.864 Y-16.754
X7.689 Y-16.728
X7.587 Y-16.71
X7.408 Y-16.67
X7.316 Y-16.647
X7.132 Y-16.594
X7.049 Y-16.568
X6.861 Y-16.502
X6.787 Y-16.474
X6.595 Y-16.394
X6.529 Y-16.366
X6.333 Y-16.274
X6.273 Y-16.244
X6.073 Y-16.14
X6.019 Y-16.11
X5.817 Y-15.993
X5.768 Y-15.963
X5.563 Y-15.835
X5.518 Y-15.805
X5.311 Y-15.664
X5.27 Y-15.635
X5.062 Y-15.483
X5.024 Y-15.454
X4.814 Y-15.29
X4.779 Y-15.261
X4.568 Y-15.086
X4.535 Y-15.058
X4.324 Y-14.872
X4.294 Y-14.844
X4.083 Y-14.647
X4.056 Y-14.621
X3.846 Y-14.415
X3.821 Y-14.391
X3.611 Y-14.175
X3.59 Y-14.153
X3.381 Y-13.929
G2 X3.219 Y-13.721 I1.096 J1.024
G1 X2.276 Y-12.266
X-0.756 Y-12.076
G2 X-1.835 Y-11.96 I0.755 J12.076
G1 X-3.252 Y-11.743
X-7.251 Y-16.442
G2 X-9.108 Y-16.788 I-1.142 J0.972
X-9.333 Y-16.664 I9.107 J16.789
G1 X-9.407 Y-16.62
X-9.478 Y-16.572
X-9.598 Y-16.486
X-9.664 Y-16.435
X-9.728 Y-16.38
X-9.839 Y-16.28
X-9.896 Y-16.225
X-9.951 Y-16.167
X-10.053 Y-16.053
X-10.146 Y-15.937
X-10.239 Y-15.81
X-10.314 Y-15.695
X-10.398 Y-15.555
X-10.457 Y-15.444
X-10.531 Y-15.292
X-10.578 Y-15.187
X-10.642 Y-15.024
X-10.677 Y-14.926
X-10.733 Y-14.751
X-10.759 Y-14.659
X-10.805 Y-14.473
X-10.823 Y-14.389
X-10.86 Y-14.193
X-10.873 Y-14.115
X-10.901 Y-13.908
X-10.909 Y-13.837
X-10.927 Y-13.621
X-10.931 Y-13.554
X-10.941 Y-13.329
X-10.942 Y-13.268
Y-13.034
X-10.941 Y-12.977
X-10.931 Y-12.735
X-10.928 Y-12.681
X-10.91 Y-12.432
X-10.905 Y-12.382
X-10.877 Y-12.125
X-10.871 Y-12.077
X-10.834 Y-11.814
X-10.827 Y-11.769
X-10.781 Y-11.499
X-10.773 Y-11.456
X-10.717 Y-11.181
X-10.708 Y-11.14
X-10.644 Y-10.86
X-10.635 Y-10.823
X-10.561 Y-10.538
X-10.552 Y-10.504
X-10.471 Y-10.215
X-10.462 Y-10.185
X-10.373 Y-9.893
G2 X-10.274 Y-9.648 I1.435 J-0.438
G1 X-9.485 Y-8.104
X-10.836 Y-5.384
G2 X-11.275 Y-4.391 I10.836 J5.384
G1 X-11.795 Y-3.055
X-17.864 Y-1.942
G2 X-19.093 Y-0.506 I0.271 J1.475
X-19.098 Y-0.249 I19.093 J0.508
G1 Y-0.223
Z-1.8 F333.3
X-19.091 Y-0.079 F700
X-19.076 Y0.069
X-19.065 Y0.151
X-19.05 Y0.233
X-19.018 Y0.38
X-18.999 Y0.458
X-18.976 Y0.535
X-18.928 Y0.68
X-18.875 Y0.818
X-18.811 Y0.962
X-18.749 Y1.086
X-18.67 Y1.228
X-18.604 Y1.334
X-18.509 Y1.474
X-18.441 Y1.567
X-18.332 Y1.705
X-18.265 Y1.784
X-18.141 Y1.92
X-18.074 Y1.988
X-17.936 Y2.121
X-17.873 Y2.179
X-17.721 Y2.309
X-17.66 Y2.359
X-17.496 Y2.486
X-17.437 Y2.529
X-17.26 Y2.653
X-17.204 Y2.69
X-17.014 Y2.81
X-16.961 Y2.842
X-16.759 Y2.959
X-16.708 Y2.987
X-16.495 Y3.099
X-16.447 Y3.124
X-16.221 Y3.232
X-16.175 Y3.253
X-15.939 Y3.358
X-15.895 Y3.376
X-15.648 Y3.476
X-15.606 Y3.492
X-15.349 Y3.587
X-15.308 Y3.601
X-15.041 Y3.691
X-15.002 Y3.703
X-14.727 Y3.788
X-14.69 Y3.798
X-14.407 Y3.877
X-14.373 Y3.886
X-14.082 Y3.96
X-14.051 Y3.968
X-13.753 Y4.037
G2 X-13.492 Y4.073 I0.338 J-1.461
G1 X-11.76 Y4.162
X-10.081 Y6.692
G2 X-9.44 Y7.569 I10.081 J-6.692
G1 X-8.543 Y8.688
X-10.614 Y14.5
G2 X-9.985 Y16.282 I1.413 J0.503
X-9.765 Y16.415 I9.983 J-16.283
G1 X-9.691 Y16.456
X-9.614 Y16.494
X-9.479 Y16.554
X-9.402 Y16.587
X-9.322 Y16.615
X-9.18 Y16.661
X-9.103 Y16.683
X-9.025 Y16.701
X-8.875 Y16.732
X-8.728 Y16.755
X-8.572 Y16.772
X-8.435 Y16.78
X-8.272 Y16.782
X-8.146 Y16.778
X-7.978 Y16.767
X-7.864 Y16.754
X-7.689 Y16.728
X-7.587 Y16.71
X-7.408 Y16.67
X-7.316 Y16.647
X-7.132 Y16.594
X-7.049 Y16.568
X-6.861 Y16.502
X-6.787 Y16.474
X-6.595 Y16.394
X-6.529 Y16.366
X-6.333 Y16.274
X-6.273 Y16.244
X-6.073 Y16.14
X-6.019 Y16.11
X-5.817 Y15.993
X-5.768 Y15.963
X-5.563 Y15.835
X-5.518 Y15.805
X-5.311 Y15.664
X-5.27 Y15.635
X-5.062 Y15.483
X-5.024 Y15.454
X-4.814 Y15.29
X-4.779 Y15.261
X-4.568 Y15.086
X-4.535 Y15.058
X-4.324 Y14.872
X-4.294 Y14.844
X-4.083 Y14.647
X-4.056 Y14.621
X-3.846 Y14.415
X-3.821 Y14.391
X-3.611 Y14.175
X-3.59 Y14.153
X-3.381 Y13.929
G2 X-3.219 Y13.721 I-1.096 J-1.024
G1 X-2.276 Y12.266
X0.756 Y12.076
G2 X1.835 Y11.96 I-0.755 J-12.076
G1 X3.252 Y11.743
X7.251 Y16.442
G2 X9.108 Y16.788 I1.142 J-0.972
X9.333 Y16.664 I-9.107 J-16.789
G1 X9.407 Y16.62
X9.478 Y16.572
X9.598 Y16.486
X9.664 Y16.435
X9.728 Y16.38
X9.839 Y16.28
X9.896 Y16.225
X9.951 Y16.167
X10.053 Y16.053
X10.146 Y15.937
X10.239 Y15.81
X10.314 Y15.695
X10.398 Y15.555
X10.457 Y15.444
X10.531 Y15.292
X10.578 Y15.187
X10.642 Y15.024
X10.677 Y14.926
X10.733 Y14.751
X10.759 Y14.659
X10.805 Y14.473
X10.823 Y14.389
X10.86 Y14.193
X10.873 Y14.115
X10.901 Y13.908
X10.909 Y13.837
X10.927 Y13.621
X10.931 Y13.554
X10.941 Y13.329
X10.942 Y13.268
Y13.034
X10.941 Y12.977
X10.931 Y12.735
X10.928 Y12.681
X10.91 Y12.432
X10.905 Y12.382
X10.877 Y12.125
X10.871 Y12.077
X10.834 Y11.814
X10.827 Y11.769
X10.781 Y11.499
X10.773 Y11.456
X10.717 Y11.181
X10.708 Y11.14
X10.644 Y10.86
X10.635 Y10.823
X10.561 Y10.538
X10.552 Y10.504
X10.471 Y10.215
X10.462 Y10.185
X10.373 Y9.893
G2 X10.274 Y9.648 I-1.435 J0.438
G1 X9.485 Y8.104
X10.836 Y5.384
G2 X11.275 Y4.391 I-10.836 J-5.384
G1 X11.795 Y3.055
X17.864 Y1.942
G2 X19.093 Y0.506 I-0.271 J-1.475
X19.098 Y0.249 I-19.093 J-0.508
G1 X19.097 Y0.164
X19.091 Y0.079
X19.076 Y-0.069
X19.065 Y-0.151
X19.05 Y-0.233
X19.018 Y-0.38
X18.999 Y-0.458
X18.976 Y-0.535
X18.928 Y-0.68
X18.875 Y-0.818
X18.811 Y-0.962
X18.749 Y-1.086
X18.67 Y-1.228
X18.604 Y-1.334
X18.509 Y-1.474
X18.441 Y-1.567
X18.332 Y-1.705
X18.265 Y-1.784
X18.141 Y-1.92
X18.074 Y-1.988
X17.936 Y-2.121
X17.873 Y-2.179
X17.721 Y-2.309
X17.66 Y-2.359
X17.496 Y-2.486
X17.437 Y-2.529
X17.26 Y-2.653
X17.204 Y-2.69
X17.014 Y-2.81
X16.961 Y-2.842
X16.759 Y-2.959
X16.708 Y-2.987
X16.495 Y-3.099
X16.447 Y-3.124
X16.221 Y-3.232
X16.175 Y-3.253
X15.939 Y-3.358
X15.895 Y-3.376
X15.648 Y-3.476
X15.606 Y-3.492
X15.349 Y-3.587
X15.308 Y-3.601
X15.041 Y-3.691
X15.002 Y-3.703
X14.727 Y-3.788
X14.69 Y-3.798
X14.407 Y-3.877
X14.373 Y-3.886
X14.082 Y-3.96
X14.051 Y-3.968
X13.753 Y-4.037
G2 X13.492 Y-4.073 I-0.338 J1.461
G1 X11.76 Y-4.162
X10.081 Y-6.692
G2 X9.44 Y-7.569 I-10.081 J6.692
G1 X8.543 Y-8.688
X10.614 Y-14.5
G2 X9.985 Y-16.282 I-1.413 J-0.503
X9.765 Y-16.415 I-9.983 J16.283
G1 X9.691 Y-16.456
X9.614 Y-16.494
X9.479 Y-16.554
X9.402 Y-16.587
X9.322 Y-16.615
X9.18 Y-16.661
X9.103 Y-16.683
X9.025 Y-16.701
X8.875 Y-16.732
X8.728 Y-16.755
X8.572 Y-16.772
X8.435 Y-16.78
X8.272 Y-16.782
X8.146 Y-16.778
X7.978 Y-16.767
X7.864 Y-16.754
X7.689 Y-16.728
X7.587 Y-16.71
X7.408 Y-16.67
X7.316 Y-16.647
X7.132 Y-16.594
X7.049 Y-16.568
X6.861 Y-16.502
X6.787 Y-16.474
X6.595 Y-16.394
X6.529 Y-16.366
X6.333 Y-16.274
X6.273 Y-16.244
X6.073 Y-16.14
X6.019 Y-16.11
X5.817 Y-15.993
X5.768 Y-15.963
X5.563 Y-15.835
X5.518 Y-15.805
X5.311 Y-15.664
X5.27 Y-15.635
X5.062 Y-15.483
X5.024 Y-15.454
X4.814 Y-15.29
X4.779 Y-15.261
X4.568 Y-15.086
X4.535 Y-15.058
X4.324 Y-14.872
X4.294 Y-14.844
X4.083 Y-14.647
X4.056 Y-14.621
X3.846 Y-14.415
X3.821 Y-14.391
X3.611 Y-14.175
X3.59 Y-14.153
X3.381 Y-13.929
G2 X3.219 Y-13.721 I1.096 J1.024
G1 X2.276 Y-12.266
X-0.756 Y-12.076
G2 X-1.835 Y-11.96 I0.755 J12.076
G1 X-3.252 Y-11.743
X-7.251 Y-16.442
G2 X-9.108 Y-16.788 I-1.142 J0.972
X-9.333 Y-16.664 I9.107 J16.789
G1 X-9.407 Y-16.62
X-9.478 Y-16.572
X-9.598 Y-16.486
X-9.664 Y-16.435
X-9.728 Y-16.38
X-9.839 Y-16.28
X-9.896 Y-16.225
X-9.951 Y-16.167
X-10.053 Y-16.053
X-10.146 Y-15.937
X-10.239 Y-15.81
X-10.314 Y-15.695
X-10.398 Y-15.555
X-10.457 Y-15.444
X-10.531 Y-15.292
X-10.578 Y-15.187
X-10.642 Y-15.024
X-10.677 Y-14.926
X-10.733 Y-14.751
X-10.759 Y-14.659
X-10.805 Y-14.473
X-10.823 Y-14.389
X-10.86 Y-14.193
X-10.873 Y-14.115
X-10.901 Y-13.908
X-10.909 Y-13.837
X-10.927 Y-13.621
X-10.931 Y-13.554
X-10.941 Y-13.329
X-10.942 Y-13.268
Y-13.034
X-10.941 Y-12.977
X-10.931 Y-12.735
X-10.928 Y-12.681
X-10.91 Y-12.432
X-10.905 Y-12.382
X-10.877 Y-12.125
X-10.871 Y-12.077
X-10.834 Y-11.814
X-10.827 Y-11.769
X-10.781 Y-11.499
X-10.773 Y-11.456
X-10.717 Y-11.181
X-10.708 Y-11.14
X-10.644 Y-10.86
X-10.635 Y-10.823
X-10.561 Y-10.538
X-10.552 Y-10.504
X-10.471 Y-10.215
X-10.462 Y-10.185
X-10.373 Y-9.893
G2 X-10.274 Y-9.648 I1.435 J-0.438
G1 X-9.485 Y-8.104
X-10.836 Y-5.384
G2 X-11.275 Y-4.391 I10.836 J5.384
G1 X-11.795 Y-3.055
X-17.864 Y-1.942
G2 X-19.093 Y-0.506 I0.271 J1.475
X-19.098 Y-0.249 I19.093 J0.508
G1 Y-0.223
Z-2.1 F333.3
X-19.091 Y-0.079 F700
X-19.076 Y0.069
X-19.065 Y0.151
X-19.05 Y0.233
X-19.018 Y0.38
X-18.999 Y0.458
X-18.976 Y0.535
X-18.928 Y0.68
X-18.875 Y0.818
X-18.811 Y0.962
X-18.749 Y1.086
X-18.67 Y1.228
X-18.604 Y1.334
X-18.509 Y1.474
X-18.441 Y1.567
X-18.332 Y1.705
X-18.265 Y1.784
X-18.141 Y1.92
X-18.074 Y1.988
X-17.936 Y2.121
X-17.873 Y2.179
X-17.721 Y2.309
X-17.66 Y2.359
X-17.496 Y2.486
X-17.437 Y2.529
X-17.26 Y2.653
X-17.204 Y2.69
X-17.014 Y2.81
X-16.961 Y2.842
X-16.759 Y2.959
X-16.708 Y2.987
X-16.495 Y3.099
X-16.447 Y3.124
X-16.221 Y3.232
X-16.175 Y3.253
X-15.939 Y3.358
X-15.895 Y3.376
X-15.648 Y3.476
X-15.606 Y3.492
X-15.349 Y3.587
X-15.308 Y3.601
X-15.041 Y3.691
X-15.002 Y3.703
X-14.727 Y3.788
X-14.69 Y3.798
X-14.407 Y3.877
X-14.373 Y3.886
X-14.082 Y3.96
X-14.051 Y3.968
X-13.753 Y4.037
G2 X-13.492 Y4.073 I0.338 J-1.461
G1 X-11.76 Y4.162
X-10.081 Y6.692
G2 X-9.44 Y7.569 I10.081 J-6.692
G1 X-8.543 Y8.688
X-10.614 Y14.5
G2 X-9.985 Y16.282 I1.413 J0.503
X-9.765 Y16.415 I9.983 J-16.283
G1 X-9.691 Y16.456
X-9.614 Y16.494
X-9.479 Y16.554
X-9.402 Y16.587
X-9.322 Y16.615
X-9.18 Y16.661
X-9.103 Y16.683
X-9.025 Y16.701
X-8.875 Y16.732
X-8.728 Y16.755
X-8.572 Y16.772
X-8.435 Y16.78
X-8.272 Y16.782
X-8.146 Y16.778
X-7.978 Y16.767
X-7.864 Y16.754
X-7.689 Y16.728
X-7.587 Y16.71
X-7.408 Y16.67
X-7.316 Y16.647
X-7.132 Y16.594
X-7.049 Y16.568
X-6.861 Y16.502
X-6.787 Y16.474
X-6.595 Y16.394
X-6.529 Y16.366
X-6.333 Y16.274
X-6.273 Y16.244
X-6.073 Y16.14
X-6.019 Y16.11
X-5.817 Y15.993
X-5.768 Y15.963
X-5.563 Y15.835
X-5.518 Y15.805
X-5.311 Y15.664
X-5.27 Y15.635
X-5.062 Y15.483
X-5.024 Y15.454
X-4.814 Y15.29
X-4.779 Y15.261
X-4.568 Y15.086
X-4.535 Y15.058
X-4.324 Y14.872
X-4.294 Y14.844
X-4.083 Y14.647
X-4.056 Y14.621
X-3.846 Y14.415
X-3.821 Y14.391
X-3.611 Y14.175
X-3.59 Y14.153
X-3.381 Y13.929
G2 X-3.219 Y13.721 I-1.096 J-1.024
G1 X-2.276 Y12.266
X0.756 Y12.076
G2 X1.835 Y11.96 I-0.755 J-12.076
G1 X3.252 Y11.743
X7.251 Y16.442
G2 X9.108 Y16.788 I1.142 J-0.972
X9.333 Y16.664 I-9.107 J-16.789
G1 X9.407 Y16.62
X9.478 Y16.572
X9.598 Y16.486
X9.664 Y16.435
X9.728 Y16.38
X9.839 Y16.28
X9.896 Y16.225
X9.951 Y16.167
X10.053 Y16.053
X10.146 Y15.937
X10.239 Y15.81
X10.314 Y15.695
X10.398 Y15.555
X10.457 Y15.444
X10.531 Y15.292
X10.578 Y15.187
X10.642 Y15.024
X10.677 Y14.926
X10.733 Y14.751
X10.759 Y14.659
X10.805 Y14.473
X10.823 Y14.389
X10.86 Y14.193
X10.873 Y14.115
X10.901 Y13.908
X10.909 Y13.837
X10.927 Y13.621
X10.931 Y13.554
X10.941 Y13.329
X10.942 Y13.268
Y13.034
X10.941 Y12.977
X10.931 Y12.735
X10.928 Y12.681
X10.91 Y12.432
X10.905 Y12.382
X10.877 Y12.125
X10.871 Y12.077
X10.834 Y11.814
X10.827 Y11.769
X10.781 Y11.499
X10.773 Y11.456
X10.717 Y11.181
X10.708 Y11.14
X10.644 Y10.86
X10.635 Y10.823
X10.561 Y10.538
X10.552 Y10.504
X10.471 Y10.215
X10.462 Y10.185
X10.373 Y9.893
G2 X10.274 Y9.648 I-1.435 J0.438
G1 X9.485 Y8.104
X10.836 Y5.384
G2 X11.275 Y4.391 I-10.836 J-5.384
G1 X11.795 Y3.055
X17.864 Y1.942
G2 X19.093 Y0.506 I-0.271 J-1.475
X19.098 Y0.249 I-19.093 J-0.508
G1 X19.097 Y0.164
X19.091 Y0.079
X19.076 Y-0.069
X19.065 Y-0.151
X19.05 Y-0.233
X19.018 Y-0.38
X18.999 Y-0.458
X18.976 Y-0.535
X18.928 Y-0.68
X18.875 Y-0.818
X18.811 Y-0.962
X18.749 Y-1.086
X18.67 Y-1.228
X18.604 Y-1.334
X18.509 Y-1.474
X18.441 Y-1.567
X18.332 Y-1.705
X18.265 Y-1.784
X18.141 Y-1.92
X18.074 Y-1.988
X17.936 Y-2.121
X17.873 Y-2.179
X17.721 Y-2.309
X17.66 Y-2.359
X17.496 Y-2.486
X17.437 Y-2.529
X17.26 Y-2.653
X17.204 Y-2.69
X17.014 Y-2.81
X16.961 Y-2.842
X16.759 Y-2.959
X16.708 Y-2.987
X16.495 Y-3.099
X16.447 Y-3.124
X16.221 Y-3.232
X16.175 Y-3.253
X15.939 Y-3.358
X15.895 Y-3.376
X15.648 Y-3.476
X15.606 Y-3.492
X15.349 Y-3.587
X15.308 Y-3.601
X15.041 Y-3.691
X15.002 Y-3.703
X14.727 Y-3.788
X14.69 Y-3.798
X14.407 Y-3.877
X14.373 Y-3.886
X14.082 Y-3.96
X14.051 Y-3.968
X13.753 Y-4.037
G2 X13.492 Y-4.073 I-0.338 J1.461
G1 X11.76 Y-4.162
X10.081 Y-6.692
G2 X9.44 Y-7.569 I-10.081 J6.692
G1 X8.543 Y-8.688
X10.614 Y-14.5
G2 X9.985 Y-16.282 I-1.413 J-0.503
X9.765 Y-16.415 I-9.983 J16.283
G1 X9.691 Y-16.456
X9.614 Y-16.494
X9.479 Y-16.554
X9.402 Y-16.587
X9.322 Y-16.615
X9.18 Y-16.661
X9.103 Y-16.683
X9.025 Y-16.701
X8.875 Y-16.732
X8.728 Y-16.755
X8.572 Y-16.772
X8.435 Y-16.78
X8.272 Y-16.782
X8.146 Y-16.778
X7.978 Y-16.767
X7.864 Y-16.754
X7.689 Y-16.728
X7.587 Y-16.71
X7.408 Y-16.67
X7.316 Y-16.647
X7.132 Y-16.594
X7.049 Y-16.568
X6.861 Y-16.502
X6.787 Y-16.474
X6.595 Y-16.394
X6.529 Y-16.366
X6.333 Y-16.274
X6.273 Y-16.244
X6.073 Y-16.14
X6.019 Y-16.11
X5.817 Y-15.993
X5.768 Y-15.963
X5.563 Y-15.835
X5.518 Y-15.805
X5.311 Y-15.664
X5.27 Y-15.635
X5.062 Y-15.483
X5.024 Y-15.454
X4.814 Y-15.29
X4.779 Y-15.261
X4.568 Y-15.086
X4.535 Y-15.058
X4.324 Y-14.872
X4.294 Y-14.844
X4.083 Y-14.647
X4.056 Y-14.621
X3.846 Y-14.415
X3.821 Y-14.391
X3.611 Y-14.175
X3.59 Y-14.153
X3.381 Y-13.929
G2 X3.219 Y-13.721 I1.096 J1.024
G1 X2.276 Y-12.266
X-0.756 Y-12.076
G2 X-1.835 Y-11.96 I0.755 J12.076
G1 X-3.252 Y-11.743
X-7.251 Y-16.442
G2 X-9.108 Y-16.788 I-1.142 J0.972
X-9.333 Y-16.664 I9.107 J16.789
G1 X-9.407 Y-16.62
X-9.478 Y-16.572
X-9.598 Y-16.486
X-9.664 Y-16.435
X-9.728 Y-16.38
X-9.839 Y-16.28
X-9.896 Y-16.225
X-9.951 Y-16.167
X-10.053 Y-16.053
X-10.146 Y-15.937
X-10.239 Y-15.81
X-10.314 Y-15.695
X-10.398 Y-15.555
X-10.457 Y-15.444
X-10.531 Y-15.292
X-10.578 Y-15.187
X-10.642 Y-15.024
X-10.677 Y-14.926
X-10.733 Y-14.751
X-10.759 Y-14.659
X-10.805 Y-14.473
X-10.823 Y-14.389
X-10.86 Y-14.193
X-10.873 Y-14.115
X-10.901 Y-13.908
X-10.909 Y-13.837
X-10.927 Y-13.621
X-10.931 Y-13.554
X-10.941 Y-13.329
X-10.942 Y-13.268
Y-13.034
X-10.941 Y-12.977
X-10.931 Y-12.735
X-10.928 Y-12.681
X-10.91 Y-12.432
X-10.905 Y-12.382
X-10.877 Y-12.125
X-10.871 Y-12.077
X-10.834 Y-11.814
X-10.827 Y-11.769
X-10.781 Y-11.499
X-10.773 Y-11.456
X-10.717 Y-11.181
X-10.708 Y-11.14
X-10.644 Y-10.86
X-10.635 Y-10.823
X-10.561 Y-10.538
X-10.552 Y-10.504
X-10.471 Y-10.215
X-10.462 Y-10.185
X-10.373 Y-9.893
G2 X-10.274 Y-9.648 I1.435 J-0.438
G1 X-9.485 Y-8.104
X-10.836 Y-5.384
G2 X-11.275 Y-4.391 I10.836 J5.384
G1 X-11.795 Y-3.055
X-17.864 Y-1.942
G2 X-19.093 Y-0.506 I0.271 J1.475
X-19.098 Y-0.249 I19.093 J0.508
G1 Y-0.223
Z-2.4 F333.3
X-19.091 Y-0.079 F700
X-19.076 Y0.069
X-19.065 Y0.151
X-19.05 Y0.233
X-19.018 Y0.38
X-18.999 Y0.458
X-18.976 Y0.535
X-18.928 Y0.68
X-18.875 Y0.818
X-18.811 Y0.962
X-18.749 Y1.086
X-18.67 Y1.228
X-18.604 Y1.334
X-18.509 Y1.474
X-18.441 Y1.567
X-18.332 Y1.705
X-18.265 Y1.784
X-18.141 Y1.92
X-18.074 Y1.988
X-17.936 Y2.121
X-17.873 Y2.179
X-17.721 Y2.309
X-17.66 Y2.359
X-17.496 Y2.486
X-17.437 Y2.529
X-17.26 Y2.653
X-17.204 Y2.69
X-17.014 Y2.81
X-16.961 Y2.842
X-16.759 Y2.959
X-16.708 Y2.987
X-16.495 Y3.099
X-16.447 Y3.124
X-16.221 Y3.232
X-16.175 Y3.253
X-15.939 Y3.358
X-15.895 Y3.376
X-15.648 Y3.476
X-15.606 Y3.492
X-15.349 Y3.587
X-15.308 Y3.601
X-15.041 Y3.691
X-15.002 Y3.703
X-14.727 Y3.788
X-14.69 Y3.798
X-14.407 Y3.877
X-14.373 Y3.886
X-14.082 Y3.96
X-14.051 Y3.968
X-13.753 Y4.037
G2 X-13.492 Y4.073 I0.338 J-1.461
G1 X-11.76 Y4.162
X-10.081 Y6.692
G2 X-9.44 Y7.569 I10.081 J-6.692
G1 X-8.543 Y8.688
X-10.614 Y14.5
G2 X-9.985 Y16.282 I1.413 J0.503
X-9.765 Y16.415 I9.983 J-16.283
G1 X-9.691 Y16.456
X-9.614 Y16.494
X-9.479 Y16.554
X-9.402 Y16.587
X-9.322 Y16.615
X-9.18 Y16.661
X-9.103 Y16.683
X-9.025 Y16.701
X-8.875 Y16.732
X-8.728 Y16.755
X-8.572 Y16.772
X-8.435 Y16.78
X-8.272 Y16.782
X-8.146 Y16.778
X-7.978 Y16.767
X-7.864 Y16.754
X-7.689 Y16.728
X-7.587 Y16.71
X-7.408 Y16.67
X-7.316 Y16.647
X-7.132 Y16.594
X-7.049 Y16.568
X-6.861 Y16.502
X-6.787 Y16.474
X-6.595 Y16.394
X-6.529 Y16.366
X-6.333 Y16.274
X-6.273 Y16.244
X-6.073 Y16.14
X-6.019 Y16.11
X-5.817 Y15.993
X-5.768 Y15.963
X-5.563 Y15.835
X-5.518 Y15.805
X-5.311 Y15.664
X-5.27 Y15.635
X-5.062 Y15.483
X-5.024 Y15.454
X-4.814 Y15.29
X-4.779 Y15.261
X-4.568 Y15.086
X-4.535 Y15.058
X-4.324 Y14.872
X-4.294 Y14.844
X-4.083 Y14.647
X-4.056 Y14.621
X-3.846 Y14.415
X-3.821 Y14.391
X-3.611 Y14.175
X-3.59 Y14.153
X-3.381 Y13.929
G2 X-3.219 Y13.721 I-1.096 J-1.024
G1 X-2.276 Y12.266
X0.756 Y12.076
G2 X1.835 Y11.96 I-0.755 J-12.076
G1 X3.252 Y11.743
X7.251 Y16.442
G2 X9.108 Y16.788 I1.142 J-0.972
X9.333 Y16.664 I-9.107 J-16.789
G1 X9.407 Y16.62
X9.478 Y16.572
X9.598 Y16.486
X9.664 Y16.435
X9.728 Y16.38
X9.839 Y16.28
X9.896 Y16.225
X9.951 Y16.167
X10.053 Y16.053
X10.146 Y15.937
X10.239 Y15.81
X10.314 Y15.695
X10.398 Y15.555
X10.457 Y15.444
X10.531 Y15.292
X10.578 Y15.187
X10.642 Y15.024
X10.677 Y14.926
X10.733 Y14.751
X10.759 Y14.659
X10.805 Y14.473
X10.823 Y14.389
X10.86 Y14.193
X10.873 Y14.115
X10.901 Y13.908
X10.909 Y13.837
X10.927 Y13.621
X10.931 Y13.554
X10.941 Y13.329
X10.942 Y13.268
Y13.034
X10.941 Y12.977
X10.931 Y12.735
X10.928 Y12.681
X10.91 Y12.432
X10.905 Y12.382
X10.877 Y12.125
X10.871 Y12.077
X10.834 Y11.814
X10.827 Y11.769
X10.781 Y11.499
X10.773 Y11.456
X10.717 Y11.181
X10.708 Y11.14
X10.644 Y10.86
X10.635 Y10.823
X10.561 Y10.538
X10.552 Y10.504
X10.471 Y10.215
X10.462 Y10.185
X10.373 Y9.893
G2 X10.274 Y9.648 I-1.435 J0.438
G1 X9.485 Y8.104
X10.836 Y5.384
G2 X11.275 Y4.391 I-10.836 J-5.384
G1 X11.795 Y3.055
X17.864 Y1.942
G2 X19.093 Y0.506 I-0.271 J-1.475
X19.098 Y0.249 I-19.093 J-0.508
G1 X19.097 Y0.164
X19.091 Y0.079
X19.076 Y-0.069
X19.065 Y-0.151
X19.05 Y-0.233
X19.018 Y-0.38
X18.999 Y-0.458
X18.976 Y-0.535
X18.928 Y-0.68
X18.875 Y-0.818
X18.811 Y-0.962
X18.749 Y-1.086
X18.67 Y-1.228
X18.604 Y-1.334
X18.509 Y-1.474
X18.441 Y-1.567
X18.332 Y-1.705
X18.265 Y-1.784
X18.141 Y-1.92
X18.074 Y-1.988
X17.936 Y-2.121
X17.873 Y-2.179
X17.721 Y-2.309
X17.66 Y-2.359
X17.496 Y-2.486
X17.437 Y-2.529
X17.26 Y-2.653
X17.204 Y-2.69
X17.014 Y-2.81
X16.961 Y-2.842
X16.759 Y-2.959
X16.708 Y-2.987
X16.495 Y-3.099
X16.447 Y-3.124
X16.221 Y-3.232
X16.175 Y-3.253
X15.939 Y-3.358
X15.895 Y-3.376
X15.648 Y-3.476
X15.606 Y-3.492
X15.349 Y-3.587
X15.308 Y-3.601
X15.041 Y-3.691
X15.002 Y-3.703
X14.727 Y-3.788
X14.69 Y-3.798
X14.407 Y-3.877
X14.373 Y-3.886
X14.082 Y-3.96
X14.051 Y-3.968
X13.753 Y-4.037
G2 X13.492 Y-4.073 I-0.338 J1.461
G1 X11.76 Y-4.162
X10.081 Y-6.692
G2 X9.44 Y-7.569 I-10.081 J6.692
G1 X8.543 Y-8.688
X10.614 Y-14.5
G2 X9.985 Y-16.282 I-1.413 J-0.503
X9.765 Y-16.415 I-9.983 J16.283
G1 X9.691 Y-16.456
X9.614 Y-16.494
X9.479 Y-16.554
X9.402 Y-16.587
X9.322 Y-16.615
X9.18 Y-16.661
X9.103 Y-16.683
X9.025 Y-16.701
X8.875 Y-16.732
X8.728 Y-16.755
X8.572 Y-16.772
X8.435 Y-16.78
X8.272 Y-16.782
X8.146 Y-16.778
X7.978 Y-16.767
X7.864 Y-16.754
X7.689 Y-16.728
X7.587 Y-16.71
X7.408 Y-16.67
X7.316 Y-16.647
X7.132 Y-16.594
X7.049 Y-16.568
X6.861 Y-16.502
X6.787 Y-16.474
X6.595 Y-16.394
X6.529 Y-16.366
X6.333 Y-16.274
X6.273 Y-16.244
X6.073 Y-16.14
X6.019 Y-16.11
X5.817 Y-15.993
X5.768 Y-15.963
X5.563 Y-15.835
X5.518 Y-15.805
X5.311 Y-15.664
X5.27 Y-15.635
X5.062 Y-15.483
X5.024 Y-15.454
X4.814 Y-15.29
X4.779 Y-15.261
X4.568 Y-15.086
X4.535 Y-15.058
X4.324 Y-14.872
X4.294 Y-14.844
X4.083 Y-14.647
X4.056 Y-14.621
X3.846 Y-14.415
X3.821 Y-14.391
X3.611 Y-14.175
X3.59 Y-14.153
X3.381 Y-13.929
G2 X3.219 Y-13.721 I1.096 J1.024
G1 X2.276 Y-12.266
X-0.756 Y-12.076
G2 X-1.835 Y-11.96 I0.755 J12.076
G1 X-3.252 Y-11.743
X-7.251 Y-16.442
G2 X-9.108 Y-16.788 I-1.142 J0.972
X-9.333 Y-16.664 I9.107 J16.789
G1 X-9.407 Y-16.62
X-9.478 Y-16.572
X-9.598 Y-16.486
X-9.664 Y-16.435
X-9.728 Y-16.38
X-9.839 Y-16.28
X-9.896 Y-16.225
X-9.951 Y-16.167
X-10.053 Y-16.053
X-10.146 Y-15.937
X-10.239 Y-15.81
X-10.314 Y-15.695
X-10.398 Y-15.555
X-10.457 Y-15.444
X-10.531 Y-15.292
X-10.578 Y-15.187
X-10.642 Y-15.024
X-10.677 Y-14.926
X-10.733 Y-14.751
X-10.759 Y-14.659
X-10.805 Y-14.473
X-10.823 Y-14.389
X-10.86 Y-14.193
X-10.873 Y-14.115
X-10.901 Y-13.908
X-10.909 Y-13.837
X-10.927 Y-13.621
X-10.931 Y-13.554
X-10.941 Y-13.329
X-10.942 Y-13.268
Y-13.034
X-10.941 Y-12.977
X-10.931 Y-12.735
X-10.928 Y-12.681
X-10.91 Y-12.432
X-10.905 Y-12.382
X-10.877 Y-12.125
X-10.871 Y-12.077
X-10.834 Y-11.814
X-10.827 Y-11.769
X-10.781 Y-11.499
X-10.773 Y-11.456
X-10.717 Y-11.181
X-10.708 Y-11.14
X-10.644 Y-10.86
X-10.635 Y-10.823
X-10.561 Y-10.538
X-10.552 Y-10.504
X-10.471 Y-10.215
X-10.462 Y-10.185
X-10.373 Y-9.893
G2 X-10.274 Y-9.648 I1.435 J-0.438
G1 X-9.485 Y-8.104
X-10.836 Y-5.384
G2 X-11.275 Y-4.391 I10.836 J5.384
G1 X-11.795 Y-3.055
X-17.864 Y-1.942
G2 X-19.093 Y-0.506 I0.271 J1.475
X-19.098 Y-0.249 I19.093 J0.508
G1 Y-0.223
Z-2.7 F333.3
X-19.091 Y-0.079 F700
X-19.076 Y0.069
X-19.065 Y0.151
X-19.05 Y0.233
X-19.018 Y0.38
X-18.999 Y0.458
X-18.976 Y0.535
X-18.928 Y0.68
X-18.875 Y0.818
X-18.811 Y0.962
X-18.749 Y1.086
X-18.67 Y1.228
X-18.604 Y1.334
X-18.509 Y1.474
X-18.441 Y1.567
X-18.332 Y1.705
X-18.265 Y1.784
X-18.141 Y1.92
X-18.074 Y1.988
X-17.936 Y2.121
X-17.873 Y2.179
X-17.721 Y2.309
X-17.66 Y2.359
X-17.496 Y2.486
X-17.437 Y2.529
X-17.26 Y2.653
X-17.204 Y2.69
X-17.014 Y2.81
X-16.961 Y2.842
X-16.759 Y2.959
X-16.708 Y2.987
X-16.495 Y3.099
X-16.447 Y3.124
X-16.221 Y3.232
X-16.175 Y3.253
X-15.939 Y3.358
X-15.895 Y3.376
X-15.648 Y3.476
X-15.606 Y3.492
X-15.349 Y3.587
X-15.308 Y3.601
X-15.041 Y3.691
X-15.002 Y3.703
X-14.727 Y3.788
X-14.69 Y3.798
X-14.407 Y3.877
X-14.373 Y3.886
X-14.082 Y3.96
X-14.051 Y3.968
X-13.753 Y4.037
G2 X-13.492 Y4.073 I0.338 J-1.461
G1 X-11.76 Y4.162
X-10.081 Y6.692
G2 X-9.44 Y7.569 I10.081 J-6.692
G1 X-8.543 Y8.688
X-10.614 Y14.5
G2 X-9.985 Y16.282 I1.413 J0.503
X-9.765 Y16.415 I9.983 J-16.283
G1 X-9.691 Y16.456
X-9.614 Y16.494
X-9.479 Y16.554
X-9.402 Y16.587
X-9.322 Y16.615
X-9.18 Y16.661
X-9.103 Y16.683
X-9.025 Y16.701
X-8.875 Y16.732
X-8.728 Y16.755
X-8.572 Y16.772
X-8.435 Y16.78
X-8.272 Y16.782
X-8.146 Y16.778
X-7.978 Y16.767
X-7.864 Y16.754
X-7.689 Y16.728
X-7.587 Y16.71
X-7.408 Y16.67
X-7.316 Y16.647
X-7.132 Y16.594
X-7.049 Y16.568
X-6.861 Y16.502
X-6.787 Y16.474
X-6.595 Y16.394
X-6.529 Y16.366
X-6.333 Y16.274
X-6.273 Y16.244
X-6.073 Y16.14
X-6.019 Y16.11
X-5.817 Y15.993
X-5.768 Y15.963
X-5.563 Y15.835
X-5.518 Y15.805
X-5.311 Y15.664
X-5.27 Y15.635
X-5.062 Y15.483
X-5.024 Y15.454
X-4.814 Y15.29
X-4.779 Y15.261
X-4.568 Y15.086
X-4.535 Y15.058
X-4.324 Y14.872
X-4.294 Y14.844
X-4.083 Y14.647
X-4.056 Y14.621
X-3.846 Y14.415
X-3.821 Y14.391
X-3.611 Y14.175
X-3.59 Y14.153
X-3.381 Y13.929
G2 X-3.219 Y13.721 I-1.096 J-1.024
G1 X-2.276 Y12.266
X0.756 Y12.076
G2 X1.835 Y11.96 I-0.755 J-12.076
G1 X3.252 Y11.743
X7.251 Y16.442
G2 X9.108 Y16.788 I1.142 J-0.972
X9.333 Y16.664 I-9.107 J-16.789
G1 X9.407 Y16.62
X9.478 Y16.572
X9.598 Y16.486
X9.664 Y16.435
X9.728 Y16.38
X9.839 Y16.28
X9.896 Y16.225
X9.951 Y16.167
X10.053 Y16.053
X10.146 Y15.937
X10.239 Y15.81
X10.314 Y15.695
X10.398 Y15.555
X10.457 Y15.444
X10.531 Y15.292
X10.578 Y15.187
X10.642 Y15.024
X10.677 Y14.926
X10.733 Y14.751
X10.759 Y14.659
X10.805 Y14.473
X10.823 Y14.389
X10.86 Y14.193
X10.873 Y14.115
X10.901 Y13.908
X10.909 Y13.837
X10.927 Y13.621
X10.931 Y13.554
X10.941 Y13.329
X10.942 Y13.268
Y13.034
X10.941 Y12.977
X10.931 Y12.735
X10.928 Y12.681
X10.91 Y12.432
X10.905 Y12.382
X10.877 Y12.125
X10.871 Y12.077
X10.834 Y11.814
X10.827 Y11.769
X10.781 Y11.499
X10.773 Y11.456
X10.717 Y11.181
X10.708 Y11.14
X10.644 Y10.86
X10.635 Y10.823
X10.561 Y10.538
X10.552 Y10.504
X10.471 Y10.215
X10.462 Y10.185
X10.373 Y9.893
G2 X10.274 Y9.648 I-1.435 J0.438
G1 X9.485 Y8.104
X10.836 Y5.384
G2 X11.275 Y4.391 I-10.836 J-5.384
G1 X11.795 Y3.055
X17.864 Y1.942
G2 X19.093 Y0.506 I-0.271 J-1.475
X19.098 Y0.249 I-19.093 J-0.508
G1 X19.097 Y0.164
X19.091 Y0.079
X19.076 Y-0.069
X19.065 Y-0.151
X19.05 Y-0.233
X19.018 Y-0.38
X18.999 Y-0.458
X18.976 Y-0.535
X18.928 Y-0.68
X18.875 Y-0.818
X18.811 Y-0.962
X18.749 Y-1.086
X18.67 Y-1.228
X18.604 Y-1.334
X18.509 Y-1.474
X18.441 Y-1.567
X18.332 Y-1.705
X18.265 Y-1.784
X18.141 Y-1.92
X18.074 Y-1.988
X17.936 Y-2.121
X17.873 Y-2.179
X17.721 Y-2.309
X17.66 Y-2.359
X17.496 Y-2.486
X17.437 Y-2.529
X17.26 Y-2.653
X17.204 Y-2.69
X17.014 Y-2.81
X16.961 Y-2.842
X16.759 Y-2.959
X16.708 Y-2.987
X16.495 Y-3.099
X16.447 Y-3.124
X16.221 Y-3.232
X16.175 Y-3.253
X15.939 Y-3.358
X15.895 Y-3.376
X15.648 Y-3.476
X15.606 Y-3.492
X15.349 Y-3.587
X15.308 Y-3.601
X15.041 Y-3.691
X15.002 Y-3.703
X14.727 Y-3.788
X14.69 Y-3.798
X14.407 Y-3.877
X14.373 Y-3.886
X14.082 Y-3.96
X14.051 Y-3.968
X13.753 Y-4.037
G2 X13.492 Y-4.073 I-0.338 J1.461
G1 X11.76 Y-4.162
X10.081 Y-6.692
G2 X9.44 Y-7.569 I-10.081 J6.692
G1 X8.543 Y-8.688
X10.614 Y-14.5
G2 X9.985 Y-16.282 I-1.413 J-0.503
X9.765 Y-16.415 I-9.983 J16.283
G1 X9.691 Y-16.456
X9.614 Y-16.494
X9.479 Y-16.554
X9.402 Y-16.587
X9.322 Y-16.615
X9.18 Y-16.661
X9.103 Y-16.683
X9.025 Y-16.701
X8.875 Y-16.732
X8.728 Y-16.755
X8.572 Y-16.772
X8.435 Y-16.78
X8.272 Y-16.782
X8.146 Y-16.778
X7.978 Y-16.767
X7.864 Y-16.754
X7.689 Y-16.728
X7.587 Y-16.71
X7.408 Y-16.67
X7.316 Y-16.647
X7.132 Y-16.594
X7.049 Y-16.568
X6.861 Y-16.502
X6.787 Y-16.474
X6.595 Y-16.394
X6.529 Y-16.366
X6.333 Y-16.274
X6.273 Y-16.244
X6.073 Y-16.14
X6.019 Y-16.11
X5.817 Y-15.993
X5.768 Y-15.963
X5.563 Y-15.835
X5.518 Y-15.805
X5.311 Y-15.664
X5.27 Y-15.635
X5.062 Y-15.483
X5.024 Y-15.454
X4.814 Y-15.29
X4.779 Y-15.261
X4.568 Y-15.086
X4.535 Y-15.058
X4.324 Y-14.872
X4.294 Y-14.844
X4.083 Y-14.647
X4.056 Y-14.621
X3.846 Y-14.415
X3.821 Y-14.391
X3.611 Y-14.175
X3.59 Y-14.153
X3.381 Y-13.929
G2 X3.219 Y-13.721 I1.096 J1.024
G1 X2.276 Y-12.266
X-0.756 Y-12.076
G2 X-1.835 Y-11.96 I0.755 J12.076
G1 X-3.252 Y-11.743
X-7.251 Y-16.442
G2 X-9.108 Y-16.788 I-1.142 J0.972
X-9.333 Y-16.664 I9.107 J16.789
G1 X-9.407 Y-16.62
X-9.478 Y-16.572
X-9.598 Y-16.486
X-9.664 Y-16.435
X-9.728 Y-16.38
X-9.839 Y-16.28
X-9.896 Y-16.225
X-9.951 Y-16.167
X-10.053 Y-16.053
X-10.146 Y-15.937
X-10.239 Y-15.81
X-10.314 Y-15.695
X-10.398 Y-15.555
X-10.457 Y-15.444
X-10.531 Y-15.292
X-10.578 Y-15.187
X-10.642 Y-15.024
X-10.677 Y-14.926
X-10.733 Y-14.751
X-10.759 Y-14.659
X-10.805 Y-14.473
X-10.823 Y-14.389
X-10.86 Y-14.193
X-10.873 Y-14.115
X-10.901 Y-13.908
X-10.909 Y-13.837
X-10.927 Y-13.621
X-10.931 Y-13.554
X-10.941 Y-13.329
X-10.942 Y-13.268
Y-13.034
X-10.941 Y-12.977
X-10.931 Y-12.735
X-10.928 Y-12.681
X-10.91 Y-12.432
X-10.905 Y-12.382
X-10.877 Y-12.125
X-10.871 Y-12.077
X-10.834 Y-11.814
X-10.827 Y-11.769
X-10.781 Y-11.499
X-10.773 Y-11.456
X-10.717 Y-11.181
X-10.708 Y-11.14
X-10.644 Y-10.86
X-10.635 Y-10.823
X-10.561 Y-10.538
X-10.552 Y-10.504
X-10.471 Y-10.215
X-10.462 Y-10.185
X-10.373 Y-9.893
G2 X-10.274 Y-9.648 I1.435 J-0.438
G1 X-9.485 Y-8.104
X-10.836 Y-5.384
G2 X-11.275 Y-4.391 I10.836 J5.384
G1 X-11.795 Y-3.055
X-17.864 Y-1.942
G2 X-19.093 Y-0.506 I0.271 J1.475
X-19.098 Y-0.249 I19.093 J0.508
G1 Y-0.223
Z-3 F333.3
X-19.091 Y-0.079 F700
X-19.076 Y0.069
X-19.065 Y0.151
X-19.05 Y0.233
X-19.018 Y0.38
X-18.999 Y0.458
X-18.976 Y0.535
X-18.928 Y0.68
X-18.875 Y0.818
X-18.811 Y0.962
X-18.749 Y1.086
X-18.67 Y1.228
X-18.604 Y1.334
X-18.509 Y1.474
X-18.441 Y1.567
X-18.332 Y1.705
X-18.265 Y1.784
X-18.141 Y1.92
X-18.074 Y1.988
X-17.936 Y2.121
X-17.873 Y2.179
X-17.721 Y2.309
X-17.66 Y2.359
X-17.496 Y2.486
X-17.437 Y2.529
X-17.26 Y2.653
X-17.204 Y2.69
X-17.014 Y2.81
X-16.961 Y2.842
X-16.759 Y2.959
X-16.708 Y2.987
X-16.495 Y3.099
X-16.447 Y3.124
X-16.221 Y3.232
X-16.175 Y3.253
X-15.939 Y3.358
X-15.895 Y3.376
X-15.648 Y3.476
X-15.606 Y3.492
X-15.349 Y3.587
X-15.308 Y3.601
X-15.041 Y3.691
X-15.002 Y3.703
X-14.727 Y3.788
X-14.69 Y3.798
X-14.407 Y3.877
X-14.373 Y3.886
X-14.082 Y3.96
X-14.051 Y3.968
X-13.753 Y4.037
G2 X-13.492 Y4.073 I0.338 J-1.461
G1 X-11.76 Y4.162
X-10.081 Y6.692
G2 X-9.44 Y7.569 I10.081 J-6.692
G1 X-8.543 Y8.688
X-10.614 Y14.5
G2 X-9.985 Y16.282 I1.413 J0.503
X-9.765 Y16.415 I9.983 J-16.283
G1 X-9.691 Y16.456
X-9.614 Y16.494
X-9.479 Y16.554
X-9.402 Y16.587
X-9.322 Y16.615
X-9.18 Y16.661
X-9.103 Y16.683
X-9.025 Y16.701
X-8.875 Y16.732
X-8.728 Y16.755
X-8.572 Y16.772
X-8.435 Y16.78
X-8.272 Y16.782
X-8.146 Y16.778
X-7.978 Y16.767
X-7.864 Y16.754
X-7.689 Y16.728
X-7.587 Y16.71
X-7.408 Y16.67
X-7.316 Y16.647
X-7.132 Y16.594
X-7.049 Y16.568
X-6.861 Y16.502
X-6.787 Y16.474
X-6.595 Y16.394
X-6.529 Y16.366
X-6.333 Y16.274
X-6.273 Y16.244
X-6.073 Y16.14
X-6.019 Y16.11
X-5.817 Y15.993
X-5.768 Y15.963
X-5.563 Y15.835
X-5.518 Y15.805
X-5.311 Y15.664
X-5.27 Y15.635
X-5.062 Y15.483
X-5.024 Y15.454
X-4.814 Y15.29
X-4.779 Y15.261
X-4.568 Y15.086
X-4.535 Y15.058
X-4.324 Y14.872
X-4.294 Y14.844
X-4.083 Y14.647
X-4.056 Y14.621
X-3.846 Y14.415
X-3.821 Y14.391
X-3.611 Y14.175
X-3.59 Y14.153
X-3.381 Y13.929
G2 X-3.219 Y13.721 I-1.096 J-1.024
G1 X-2.276 Y12.266
X0.756 Y12.076
G2 X1.835 Y11.96 I-0.755 J-12.076
G1 X3.252 Y11.743
X7.251 Y16.442
G2 X9.108 Y16.788 I1.142 J-0.972
X9.333 Y16.664 I-9.107 J-16.789
G1 X9.407 Y16.62
X9.478 Y16.572
X9.598 Y16.486
X9.664 Y16.435
X9.728 Y16.38
X9.839 Y16.28
X9.896 Y16.225
X9.951 Y16.167
X10.053 Y16.053
X10.146 Y15.937
X10.239 Y15.81
X10.314 Y15.695
X10.398 Y15.555
X10.457 Y15.444
X10.531 Y15.292
X10.578 Y15.187
X10.642 Y15.024
X10.677 Y14.926
X10.733 Y14.751
X10.759 Y14.659
X10.805 Y14.473
X10.823 Y14.389
X10.86 Y14.193
X10.873 Y14.115
X10.901 Y13.908
X10.909 Y13.837
X10.927 Y13.621
X10.931 Y13.554
X10.941 Y13.329
X10.942 Y13.268
Y13.034
X10.941 Y12.977
X10.931 Y12.735
X10.928 Y12.681
X10.91 Y12.432
X10.905 Y12.382
X10.877 Y12.125
X10.871 Y12.077
X10.834 Y11.814
X10.827 Y11.769
X10.781 Y11.499
X10.773 Y11.456
X10.717 Y11.181
X10.708 Y11.14
X10.644 Y10.86
X10.635 Y10.823
X10.561 Y10.538
X10.552 Y10.504
X10.471 Y10.215
X10.462 Y10.185
X10.373 Y9.893
G2 X10.274 Y9.648 I-1.435 J0.438
G1 X9.485 Y8.104
X10.836 Y5.384
G2 X11.275 Y4.391 I-10.836 J-5.384
G1 X11.795 Y3.055
X17.864 Y1.942
G2 X19.093 Y0.506 I-0.271 J-1.475
X19.098 Y0.249 I-19.093 J-0.508
G1 X19.097 Y0.164
X19.091 Y0.079
X19.076 Y-0.069
X19.065 Y-0.151
X19.05 Y-0.233
X19.018 Y-0.38
X18.999 Y-0.458
X18.976 Y-0.535
X18.928 Y-0.68
X18.875 Y-0.818
X18.811 Y-0.962
X18.749 Y-1.086
X18.67 Y-1.228
X18.604 Y-1.334
X18.509 Y-1.474
X18.441 Y-1.567
X18.332 Y-1.705
X18.265 Y-1.784
X18.141 Y-1.92
X18.074 Y-1.988
X17.936 Y-2.121
X17.873 Y-2.179
X17.721 Y-2.309
X17.66 Y-2.359
X17.496 Y-2.486
X17.437 Y-2.529
X17.26 Y-2.653
X17.204 Y-2.69
X17.014 Y-2.81
X16.961 Y-2.842
X16.759 Y-2.959
X16.708 Y-2.987
X16.495 Y-3.099
X16.447 Y-3.124
X16.221 Y-3.232
X16.175 Y-3.253
X15.939 Y-3.358
X15.895 Y-3.376
X15.648 Y-3.476
X15.606 Y-3.492
X15.349 Y-3.587
X15.308 Y-3.601
X15.041 Y-3.691
X15.002 Y-3.703
X14.727 Y-3.788
X14.69 Y-3.798
X14.407 Y-3.877
X14.373 Y-3.886
X14.082 Y-3.96
X14.051 Y-3.968
X13.753 Y-4.037
G2 X13.492 Y-4.073 I-0.338 J1.461
G1 X11.76 Y-4.162
X10.081 Y-6.692
G2 X9.44 Y-7.569 I-10.081 J6.692
G1 X8.543 Y-8.688
X10.614 Y-14.5
G2 X9.985 Y-16.282 I-1.413 J-0.503
X9.765 Y-16.415 I-9.983 J16.283
G1 X9.691 Y-16.456
X9.614 Y-16.494
X9.479 Y-16.554
X9.402 Y-16.587
X9.322 Y-16.615
X9.18 Y-16.661
X9.103 Y-16.683
X9.025 Y-16.701
X8.875 Y-16.732
X8.728 Y-16.755
X8.572 Y-16.772
X8.435 Y-16.78
X8.272 Y-16.782
X8.146 Y-16.778
X7.978 Y-16.767
X7.864 Y-16.754
X7.689 Y-16.728
X7.587 Y-16.71
X7.408 Y-16.67
X7.316 Y-16.647
X7.132 Y-16.594
X7.049 Y-16.568
X6.861 Y-16.502
X6.787 Y-16.474
X6.595 Y-16.394
X6.529 Y-16.366
X6.333 Y-16.274
X6.273 Y-16.244
X6.073 Y-16.14
X6.019 Y-16.11
X5.817 Y-15.993
X5.768 Y-15.963
X5.563 Y-15.835
X5.518 Y-15.805
X5.311 Y-15.664
X5.27 Y-15.635
X5.062 Y-15.483
X5.024 Y-15.454
X4.814 Y-15.29
X4.779 Y-15.261
X4.568 Y-15.086
X4.535 Y-15.058
X4.324 Y-14.872
X4.294 Y-14.844
X4.083 Y-14.647
X4.056 Y-14.621
X3.846 Y-14.415
X3.821 Y-14.391
X3.611 Y-14.175
X3.59 Y-14.153
X3.381 Y-13.929
G2 X3.219 Y-13.721 I1.096 J1.024
G1 X2.276 Y-12.266
X-0.756 Y-12.076
G2 X-1.835 Y-11.96 I0.755 J12.076
G1 X-3.252 Y-11.743
X-7.251 Y-16.442
G2 X-9.108 Y-16.788 I-1.142 J0.972
X-9.333 Y-16.664 I9.107 J16.789
G1 X-9.407 Y-16.62
X-9.478 Y-16.572
X-9.598 Y-16.486
X-9.664 Y-16.435
X-9.728 Y-16.38
X-9.839 Y-16.28
X-9.896 Y-16.225
X-9.951 Y-16.167
X-10.053 Y-16.053
X-10.146 Y-15.937
X-10.239 Y-15.81
X-10.314 Y-15.695
X-10.398 Y-15.555
X-10.457 Y-15.444
X-10.531 Y-15.292
X-10.578 Y-15.187
X-10.642 Y-15.024
X-10.677 Y-14.926
X-10.733 Y-14.751
X-10.759 Y-14.659
X-10.805 Y-14.473
X-10.823 Y-14.389
X-10.86 Y-14.193
X-10.873 Y-14.115
X-10.901 Y-13.908
X-10.909 Y-13.837
X-10.927 Y-13.621
X-10.931 Y-13.554
X-10.941 Y-13.329
X-10.942 Y-13.268
Y-13.034
X-10.941 Y-12.977
X-10.931 Y-12.735
X-10.928 Y-12.681
X-10.91 Y-12.432
X-10.905 Y-12.382
X-10.877 Y-12.125
X-10.871 Y-12.077
X-10.834 Y-11.814
X-10.827 Y-11.769
X-10.781 Y-11.499
X-10.773 Y-11.456
X-10.717 Y-11.181
X-10.708 Y-11.14
X-10.644 Y-10.86
X-10.635 Y-10.823
X-10.561 Y-10.538
X-10.552 Y-10.504
X-10.471 Y-10.215
X-10.462 Y-10.185
X-10.373 Y-9.893
G2 X-10.274 Y-9.648 I1.435 J-0.438
G1 X-9.485 Y-8.104
X-10.836 Y-5.384
G2 X-11.275 Y-4.391 I10.836 J5.384
G1 X-11.795 Y-3.055
X-17.864 Y-1.942
G2 X-19.093 Y-0.506 I0.271 J1.475
X-19.098 Y-0.249 I19.093 J0.508
G1 Y-0.223
Z-3.3 F333.3
X-19.091 Y-0.079 F700
X-19.076 Y0.069
X-19.065 Y0.151
X-19.05 Y0.233
X-19.018 Y0.38
X-18.999 Y0.458
X-18.976 Y0.535
X-18.928 Y0.68
X-18.875 Y0.818
X-18.811 Y0.962
X-18.749 Y1.086
X-18.67 Y1.228
X-18.604 Y1.334
X-18.509 Y1.474
X-18.441 Y1.567
X-18.332 Y1.705
X-18.265 Y1.784
X-18.141 Y1.92
X-18.074 Y1.988
X-17.936 Y2.121
X-17.873 Y2.179
X-17.721 Y2.309
X-17.66 Y2.359
X-17.496 Y2.486
X-17.437 Y2.529
X-17.26 Y2.653
X-17.204 Y2.69
X-17.014 Y2.81
X-16.961 Y2.842
X-16.759 Y2.959
X-16.708 Y2.987
X-16.495 Y3.099
X-16.447 Y3.124
X-16.221 Y3.232
X-16.175 Y3.253
X-15.939 Y3.358
X-15.895 Y3.376
X-15.648 Y3.476
X-15.606 Y3.492
X-15.349 Y3.587
X-15.308 Y3.601
X-15.041 Y3.691
X-15.002 Y3.703
X-14.727 Y3.788
X-14.69 Y3.798
X-14.407 Y3.877
X-14.373 Y3.886
X-14.082 Y3.96
X-14.051 Y3.968
X-13.753 Y4.037
G2 X-13.492 Y4.073 I0.338 J-1.461
G1 X-11.76 Y4.162
X-10.081 Y6.692
G2 X-9.44 Y7.569 I10.081 J-6.692
G1 X-8.543 Y8.688
X-10.614 Y14.5
G2 X-9.985 Y16.282 I1.413 J0.503
X-9.765 Y16.415 I9.983 J-16.283
G1 X-9.691 Y16.456
X-9.614 Y16.494
X-9.479 Y16.554
X-9.402 Y16.587
X-9.322 Y16.615
X-9.18 Y16.661
X-9.103 Y16.683
X-9.025 Y16.701
X-8.875 Y16.732
X-8.728 Y16.755
X-8.572 Y16.772
X-8.435 Y16.78
X-8.272 Y16.782
X-8.146 Y16.778
X-7.978 Y16.767
X-7.864 Y16.754
X-7.689 Y16.728
X-7.587 Y16.71
X-7.408 Y16.67
X-7.316 Y16.647
X-7.132 Y16.594
X-7.049 Y16.568
X-6.861 Y16.502
X-6.787 Y16.474
X-6.595 Y16.394
X-6.529 Y16.366
X-6.333 Y16.274
X-6.273 Y16.244
X-6.073 Y16.14
X-6.019 Y16.11
X-5.817 Y15.993
X-5.768 Y15.963
X-5.563 Y15.835
X-5.518 Y15.805
X-5.311 Y15.664
X-5.27 Y15.635
X-5.062 Y15.483
X-5.024 Y15.454
X-4.814 Y15.29
X-4.779 Y15.261
X-4.568 Y15.086
X-4.535 Y15.058
X-4.324 Y14.872
X-4.294 Y14.844
X-4.083 Y14.647
X-4.056 Y14.621
X-3.846 Y14.415
X-3.821 Y14.391
X-3.611 Y14.175
X-3.59 Y14.153
X-3.381 Y13.929
G2 X-3.219 Y13.721 I-1.096 J-1.024
G1 X-2.276 Y12.266
X0.756 Y12.076
G2 X1.835 Y11.96 I-0.755 J-12.076
G1 X3.252 Y11.743
X7.251 Y16.442
G2 X9.108 Y16.788 I1.142 J-0.972
X9.333 Y16.664 I-9.107 J-16.789
G1 X9.407 Y16.62
X9.478 Y16.572
X9.598 Y16.486
X9.664 Y16.435
X9.728 Y16.38
X9.839 Y16.28
X9.896 Y16.225
X9.951 Y16.167
X10.053 Y16.053
X10.146 Y15.937
X10.239 Y15.81
X10.314 Y15.695
X10.398 Y15.555
X10.457 Y15.444
X10.531 Y15.292
X10.578 Y15.187
X10.642 Y15.024
X10.677 Y14.926
X10.733 Y14.751
X10.759 Y14.659
X10.805 Y14.473
X10.823 Y14.389
X10.86 Y14.193
X10.873 Y14.115
X10.901 Y13.908
X10.909 Y13.837
X10.927 Y13.621
X10.931 Y13.554
X10.941 Y13.329
X10.942 Y13.268
Y13.034
X10.941 Y12.977
X10.931 Y12.735
X10.928 Y12.681
X10.91 Y12.432
X10.905 Y12.382
X10.877 Y12.125
X10.871 Y12.077
X10.834 Y11.814
X10.827 Y11.769
X10.781 Y11.499
X10.773 Y11.456
X10.717 Y11.181
X10.708 Y11.14
X10.644 Y10.86
X10.635 Y10.823
X10.561 Y10.538
X10.552 Y10.504
X10.471 Y10.215
X10.462 Y10.185
X10.373 Y9.893
G2 X10.274 Y9.648 I-1.435 J0.438
G1 X9.485 Y8.104
X10.836 Y5.384
G2 X11.275 Y4.391 I-10.836 J-5.384
G1 X11.795 Y3.055
X17.864 Y1.942
G2 X19.093 Y0.506 I-0.271 J-1.475
X19.098 Y0.249 I-19.093 J-0.508
G1 X19.097 Y0.164
X19.091 Y0.079
X19.076 Y-0.069
X19.065 Y-0.151
X19.05 Y-0.233
X19.018 Y-0.38
X18.999 Y-0.458
X18.976 Y-0.535
X18.928 Y-0.68
X18.875 Y-0.818
X18.811 Y-0.962
X18.749 Y-1.086
X18.67 Y-1.228
X18.604 Y-1.334
X18.509 Y-1.474
X18.441 Y-1.567
X18.332 Y-1.705
X18.265 Y-1.784
X18.141 Y-1.92
X18.074 Y-1.988
X17.936 Y-2.121
X17.873 Y-2.179
X17.721 Y-2.309
X17.66 Y-2.359
X17.496 Y-2.486
X17.437 Y-2.529
X17.26 Y-2.653
X17.204 Y-2.69
X17.014 Y-2.81
X16.961 Y-2.842
X16.759 Y-2.959
X16.708 Y-2.987
X16.495 Y-3.099
X16.447 Y-3.124
X16.221 Y-3.232
X16.175 Y-3.253
X15.939 Y-3.358
X15.895 Y-3.376
X15.648 Y-3.476
X15.606 Y-3.492
X15.349 Y-3.587
X15.308 Y-3.601
X15.041 Y-3.691
X15.002 Y-3.703
X14.727 Y-3.788
X14.69 Y-3.798
X14.407 Y-3.877
X14.373 Y-3.886
X14.082 Y-3.96
X14.051 Y-3.968
X13.753 Y-4.037
G2 X13.492 Y-4.073 I-0.338 J1.461
G1 X11.76 Y-4.162
X10.081 Y-6.692
G2 X9.44 Y-7.569 I-10.081 J6.692
G1 X8.543 Y-8.688
X10.614 Y-14.5
G2 X9.985 Y-16.282 I-1.413 J-0.503
X9.765 Y-16.415 I-9.983 J16.283
G1 X9.691 Y-16.456
X9.614 Y-16.494
X9.479 Y-16.554
X9.402 Y-16.587
X9.322 Y-16.615
X9.18 Y-16.661
X9.103 Y-16.683
X9.025 Y-16.701
X8.875 Y-16.732
X8.728 Y-16.755
X8.572 Y-16.772
X8.435 Y-16.78
X8.272 Y-16.782
X8.146 Y-16.778
X7.978 Y-16.767
X7.864 Y-16.754
X7.689 Y-16.728
X7.587 Y-16.71
X7.408 Y-16.67
X7.316 Y-16.647
X7.132 Y-16.594
X7.049 Y-16.568
X6.861 Y-16.502
X6.787 Y-16.474
X6.595 Y-16.394
X6.529 Y-16.366
X6.333 Y-16.274
X6.273 Y-16.244
X6.073 Y-16.14
X6.019 Y-16.11
X5.817 Y-15.993
X5.768 Y-15.963
X5.563 Y-15.835
X5.518 Y-15.805
X5.311 Y-15.664
X5.27 Y-15.635
X5.062 Y-15.483
X5.024 Y-15.454
X4.814 Y-15.29
X4.779 Y-15.261
X4.568 Y-15.086
X4.535 Y-15.058
X4.324 Y-14.872
X4.294 Y-14.844
X4.083 Y-14.647
X4.056 Y-14.621
X3.846 Y-14.415
X3.821 Y-14.391
X3.611 Y-14.175
X3.59 Y-14.153
X3.381 Y-13.929
G2 X3.219 Y-13.721 I1.096 J1.024
G1 X2.276 Y-12.266
X-0.756 Y-12.076
G2 X-1.835 Y-11.96 I0.755 J12.076
G1 X-3.252 Y-11.743
X-7.251 Y-16.442
G2 X-9.108 Y-16.788 I-1.142 J0.972
X-9.333 Y-16.664 I9.107 J16.789
G1 X-9.407 Y-16.62
X-9.478 Y-16.572
X-9.598 Y-16.486
X-9.664 Y-16.435
X-9.728 Y-16.38
X-9.839 Y-16.28
X-9.896 Y-16.225
X-9.951 Y-16.167
X-10.053 Y-16.053
X-10.146 Y-15.937
X-10.239 Y-15.81
X-10.314 Y-15.695
X-10.398 Y-15.555
X-10.457 Y-15.444
X-10.531 Y-15.292
X-10.578 Y-15.187
X-10.642 Y-15.024
X-10.677 Y-14.926
X-10.733 Y-14.751
X-10.759 Y-14.659
X-10.805 Y-14.473
X-10.823 Y-14.389
X-10.86 Y-14.193
X-10.873 Y-14.115
X-10.901 Y-13.908
X-10.909 Y-13.837
X-10.927 Y-13.621
X-10.931 Y-13.554
X-10.941 Y-13.329
X-10.942 Y-13.268
Y-13.034
X-10.941 Y-12.977
X-10.931 Y-12.735
X-10.928 Y-12.681
X-10.91 Y-12.432
X-10.905 Y-12.382
X-10.877 Y-12.125
X-10.871 Y-12.077
X-10.834 Y-11.814
X-10.827 Y-11.769
X-10.781 Y-11.499
X-10.773 Y-11.456
X-10.717 Y-11.181
X-10.708 Y-11.14
X-10.644 Y-10.86
X-10.635 Y-10.823
X-10.561 Y-10.538
X-10.552 Y-10.504
X-10.471 Y-10.215
X-10.462 Y-10.185
X-10.373 Y-9.893
G2 X-10.274 Y-9.648 I1.435 J-0.438
G1 X-9.485 Y-8.104
X-10.836 Y-5.384
G2 X-11.275 Y-4.391 I10.836 J5.384
G1 X-11.795 Y-3.055
X-17.864 Y-1.942
G2 X-19.093 Y-0.506 I0.271 J1.475
X-19.098 Y-0.249 I19.093 J0.508
G1 Y-0.223
Z-3.6 F333.3
X-19.091 Y-0.079 F700
X-19.076 Y0.069
X-19.065 Y0.151
X-19.05 Y0.233
X-19.018 Y0.38
X-18.999 Y0.458
X-18.976 Y0.535
X-18.928 Y0.68
X-18.875 Y0.818
X-18.811 Y0.962
X-18.749 Y1.086
X-18.67 Y1.228
X-18.604 Y1.334
X-18.509 Y1.474
X-18.441 Y1.567
X-18.332 Y1.705
X-18.265 Y1.784
X-18.141 Y1.92
X-18.074 Y1.988
X-17.936 Y2.121
X-17.873 Y2.179
X-17.721 Y2.309
X-17.66 Y2.359
X-17.496 Y2.486
X-17.437 Y2.529
X-17.26 Y2.653
X-17.204 Y2.69
X-17.014 Y2.81
X-16.961 Y2.842
X-16.759 Y2.959
X-16.708 Y2.987
X-16.495 Y3.099
X-16.447 Y3.124
X-16.221 Y3.232
X-16.175 Y3.253
X-15.939 Y3.358
X-15.895 Y3.376
X-15.648 Y3.476
X-15.606 Y3.492
X-15.349 Y3.587
X-15.308 Y3.601
X-15.041 Y3.691
X-15.002 Y3.703
X-14.727 Y3.788
X-14.69 Y3.798
X-14.407 Y3.877
X-14.373 Y3.886
X-14.082 Y3.96
X-14.051 Y3.968
X-13.753 Y4.037
G2 X-13.492 Y4.073 I0.338 J-1.461
G1 X-11.76 Y4.162
X-10.081 Y6.692
G2 X-9.44 Y7.569 I10.081 J-6.692
G1 X-8.543 Y8.688
X-10.614 Y14.5
G2 X-9.985 Y16.282 I1.413 J0.503
X-9.765 Y16.415 I9.983 J-16.283
G1 X-9.691 Y16.456
X-9.614 Y16.494
X-9.479 Y16.554
X-9.402 Y16.587
X-9.322 Y16.615
X-9.18 Y16.661
X-9.103 Y16.683
X-9.025 Y16.701
X-8.875 Y16.732
X-8.728 Y16.755
X-8.572 Y16.772
X-8.435 Y16.78
X-8.272 Y16.782
X-8.146 Y16.778
X-7.978 Y16.767
X-7.864 Y16.754
X-7.689 Y16.728
X-7.587 Y16.71
X-7.408 Y16.67
X-7.316 Y16.647
X-7.132 Y16.594
X-7.049 Y16.568
X-6.861 Y16.502
X-6.787 Y16.474
X-6.595 Y16.394
X-6.529 Y16.366
X-6.333 Y16.274
X-6.273 Y16.244
X-6.073 Y16.14
X-6.019 Y16.11
X-5.817 Y15.993
X-5.768 Y15.963
X-5.563 Y15.835
X-5.518 Y15.805
X-5.311 Y15.664
X-5.27 Y15.635
X-5.062 Y15.483
X-5.024 Y15.454
X-4.814 Y15.29
X-4.779 Y15.261
X-4.568 Y15.086
X-4.535 Y15.058
X-4.324 Y14.872
X-4.294 Y14.844
X-4.083 Y14.647
X-4.056 Y14.621
X-3.846 Y14.415
X-3.821 Y14.391
X-3.611 Y14.175
X-3.59 Y14.153
X-3.381 Y13.929
G2 X-3.219 Y13.721 I-1.096 J-1.024
G1 X-2.276 Y12.266
X0.756 Y12.076
G2 X1.835 Y11.96 I-0.755 J-12.076
G1 X3.252 Y11.743
X7.251 Y16.442
G2 X9.108 Y16.788 I1.142 J-0.972
X9.333 Y16.664 I-9.107 J-16.789
G1 X9.407 Y16.62
X9.478 Y16.572
X9.598 Y16.486
X9.664 Y16.435
X9.728 Y16.38
X9.839 Y16.28
X9.896 Y16.225
X9.951 Y16.167
X10.053 Y16.053
X10.146 Y15.937
X10.239 Y15.81
X10.314 Y15.695
X10.398 Y15.555
X10.457 Y15.444
X10.531 Y15.292
X10.578 Y15.187
X10.642 Y15.024
X10.677 Y14.926
X10.733 Y14.751
X10.759 Y14.659
X10.805 Y14.473
X10.823 Y14.389
X10.86 Y14.193
X10.873 Y14.115
X10.901 Y13.908
X10.909 Y13.837
X10.927 Y13.621
X10.931 Y13.554
X10.941 Y13.329
X10.942 Y13.268
Y13.034
X10.941 Y12.977
X10.931 Y12.735
X10.928 Y12.681
X10.91 Y12.432
X10.905 Y12.382
X10.877 Y12.125
X10.871 Y12.077
X10.834 Y11.814
X10.827 Y11.769
X10.781 Y11.499
X10.773 Y11.456
X10.717 Y11.181
X10.708 Y11.14
X10.644 Y10.86
X10.635 Y10.823
X10.561 Y10.538
X10.552 Y10.504
X10.471 Y10.215
X10.462 Y10.185
X10.373 Y9.893
G2 X10.274 Y9.648 I-1.435 J0.438
G1 X9.485 Y8.104
X10.836 Y5.384
G2 X11.275 Y4.391 I-10.836 J-5.384
G1 X11.795 Y3.055
X17.864 Y1.942
G2 X19.093 Y0.506 I-0.271 J-1.475
X19.098 Y0.249 I-19.093 J-0.508
G1 X19.097 Y0.164
X19.091 Y0.079
X19.076 Y-0.069
X19.065 Y-0.151
X19.05 Y-0.233
X19.018 Y-0.38
X18.999 Y-0.458
X18.976 Y-0.535
X18.928 Y-0.68
X18.875 Y-0.818
X18.811 Y-0.962
X18.749 Y-1.086
X18.67 Y-1.228
X18.604 Y-1.334
X18.509 Y-1.474
X18.441 Y-1.567
X18.332 Y-1.705
X18.265 Y-1.784
X18.141 Y-1.92
X18.074 Y-1.988
X17.936 Y-2.121
X17.873 Y-2.179
X17.721 Y-2.309
X17.66 Y-2.359
X17.496 Y-2.486
X17.437 Y-2.529
X17.26 Y-2.653
X17.204 Y-2.69
X17.014 Y-2.81
X16.961 Y-2.842
X16.759 Y-2.959
X16.708 Y-2.987
X16.495 Y-3.099
X16.447 Y-3.124
X16.221 Y-3.232
X16.175 Y-3.253
X15.939 Y-3.358
X15.895 Y-3.376
X15.648 Y-3.476
X15.606 Y-3.492
X15.349 Y-3.587
X15.308 Y-3.601
X15.041 Y-3.691
X15.002 Y-3.703
X14.727 Y-3.788
X14.69 Y-3.798
X14.407 Y-3.877
X14.373 Y-3.886
X14.082 Y-3.96
X14.051 Y-3.968
X13.753 Y-4.037
G2 X13.492 Y-4.073 I-0.338 J1.461
G1 X11.76 Y-4.162
X10.081 Y-6.692
G2 X9.44 Y-7.569 I-10.081 J6.692
G1 X8.543 Y-8.688
X10.614 Y-14.5
G2 X9.985 Y-16.282 I-1.413 J-0.503
X9.765 Y-16.415 I-9.983 J16.283
G1 X9.691 Y-16.456
X9.614 Y-16.494
X9.479 Y-16.554
X9.402 Y-16.587
X9.322 Y-16.615
X9.18 Y-16.661
X9.103 Y-16.683
X9.025 Y-16.701
X8.875 Y-16.732
X8.728 Y-16.755
X8.572 Y-16.772
X8.435 Y-16.78
X8.272 Y-16.782
X8.146 Y-16.778
X7.978 Y-16.767
X7.864 Y-16.754
X7.689 Y-16.728
X7.587 Y-16.71
X7.408 Y-16.67
X7.316 Y-16.647
X7.132 Y-16.594
X7.049 Y-16.568
X6.861 Y-16.502
X6.787 Y-16.474
X6.595 Y-16.394
X6.529 Y-16.366
X6.333 Y-16.274
X6.273 Y-16.244
X6.073 Y-16.14
X6.019 Y-16.11
X5.817 Y-15.993
X5.768 Y-15.963
X5.563 Y-15.835
X5.518 Y-15.805
X5.311 Y-15.664
X5.27 Y-15.635
X5.062 Y-15.483
X5.024 Y-15.454
X4.814 Y-15.29
X4.779 Y-15.261
X4.568 Y-15.086
X4.535 Y-15.058
X4.324 Y-14.872
X4.294 Y-14.844
X4.083 Y-14.647
X4.056 Y-14.621
X3.846 Y-14.415
X3.821 Y-14.391
X3.611 Y-14.175
X3.59 Y-14.153
X3.381 Y-13.929
G2 X3.219 Y-13.721 I1.096 J1.024
G1 X2.276 Y-12.266
X-0.756 Y-12.076
G2 X-1.835 Y-11.96 I0.755 J12.076
G1 X-3.252 Y-11.743
X-7.251 Y-16.442
G2 X-9.108 Y-16.788 I-1.142 J0.972
X-9.333 Y-16.664 I9.107 J16.789
G1 X-9.407 Y-16.62
X-9.478 Y-16.572
X-9.598 Y-16.486
X-9.664 Y-16.435
X-9.728 Y-16.38
X-9.839 Y-16.28
X-9.896 Y-16.225
X-9.951 Y-16.167
X-10.053 Y-16.053
X-10.146 Y-15.937
X-10.239 Y-15.81
X-10.314 Y-15.695
X-10.398 Y-15.555
X-10.457 Y-15.444
X-10.531 Y-15.292
X-10.578 Y-15.187
X-10.642 Y-15.024
X-10.677 Y-14.926
X-10.733 Y-14.751
X-10.759 Y-14.659
X-10.805 Y-14.473
X-10.823 Y-14.389
X-10.86 Y-14.193
X-10.873 Y-14.115
X-10.901 Y-13.908
X-10.909 Y-13.837
X-10.927 Y-13.621
X-10.931 Y-13.554
X-10.941 Y-13.329
X-10.942 Y-13.268
Y-13.034
X-10.941 Y-12.977
X-10.931 Y-12.735
X-10.928 Y-12.681
X-10.91 Y-12.432
X-10.905 Y-12.382
X-10.877 Y-12.125
X-10.871 Y-12.077
X-10.834 Y-11.814
X-10.827 Y-11.769
X-10.781 Y-11.499
X-10.773 Y-11.456
X-10.717 Y-11.181
X-10.708 Y-11.14
X-10.644 Y-10.86
X-10.635 Y-10.823
X-10.561 Y-10.538
X-10.552 Y-10.504
X-10.471 Y-10.215
X-10.462 Y-10.185
X-10.373 Y-9.893
G2 X-10.274 Y-9.648 I1.435 J-0.438
G1 X-9.485 Y-8.104
X-10.836 Y-5.384
G2 X-11.275 Y-4.391 I10.836 J5.384
G1 X-11.795 Y-3.055
X-17.864 Y-1.942
G2 X-19.093 Y-0.506 I0.271 J1.475
X-19.098 Y-0.249 I19.093 J0.508
G1 Y-0.223
Z-3.9 F333.3
X-19.091 Y-0.079 F700
X-19.076 Y0.069
X-19.065 Y0.151
X-19.05 Y0.233
X-19.018 Y0.38
X-18.999 Y0.458
X-18.976 Y0.535
X-18.928 Y0.68
X-18.875 Y0.818
X-18.811 Y0.962
X-18.749 Y1.086
X-18.67 Y1.228
X-18.604 Y1.334
X-18.509 Y1.474
X-18.441 Y1.567
X-18.332 Y1.705
X-18.265 Y1.784
X-18.141 Y1.92
X-18.074 Y1.988
X-17.936 Y2.121
X-17.873 Y2.179
X-17.721 Y2.309
X-17.66 Y2.359
X-17.496 Y2.486
X-17.437 Y2.529
X-17.26 Y2.653
X-17.204 Y2.69
X-17.014 Y2.81
X-16.961 Y2.842
X-16.759 Y2.959
X-16.708 Y2.987
X-16.495 Y3.099
X-16.447 Y3.124
X-16.221 Y3.232
X-16.175 Y3.253
X-15.939 Y3.358
X-15.895 Y3.376
X-15.648 Y3.476
X-15.606 Y3.492
X-15.349 Y3.587
X-15.308 Y3.601
X-15.041 Y3.691
X-15.002 Y3.703
X-14.727 Y3.788
X-14.69 Y3.798
X-14.407 Y3.877
X-14.373 Y3.886
X-14.082 Y3.96
X-14.051 Y3.968
X-13.753 Y4.037
G2 X-13.492 Y4.073 I0.338 J-1.461
G1 X-11.76 Y4.162
X-10.081 Y6.692
G2 X-9.44 Y7.569 I10.081 J-6.692
G1 X-8.543 Y8.688
X-10.614 Y14.5
G2 X-9.985 Y16.282 I1.413 J0.503
X-9.765 Y16.415 I9.983 J-16.283
G1 X-9.691 Y16.456
X-9.614 Y16.494
X-9.479 Y16.554
X-9.402 Y16.587
X-9.322 Y16.615
X-9.18 Y16.661
X-9.103 Y16.683
X-9.025 Y16.701
X-8.875 Y16.732
X-8.728 Y16.755
X-8.572 Y16.772
X-8.435 Y16.78
X-8.272 Y16.782
X-8.146 Y16.778
X-7.978 Y16.767
X-7.864 Y16.754
X-7.689 Y16.728
X-7.587 Y16.71
X-7.408 Y16.67
X-7.316 Y16.647
X-7.132 Y16.594
X-7.049 Y16.568
X-6.861 Y16.502
X-6.787 Y16.474
X-6.595 Y16.394
X-6.529 Y16.366
X-6.333 Y16.274
X-6.273 Y16.244
X-6.073 Y16.14
X-6.019 Y16.11
X-5.817 Y15.993
X-5.768 Y15.963
X-5.563 Y15.835
X-5.518 Y15.805
X-5.311 Y15.664
X-5.27 Y15.635
X-5.062 Y15.483
X-5.024 Y15.454
X-4.814 Y15.29
X-4.779 Y15.261
X-4.568 Y15.086
X-4.535 Y15.058
X-4.324 Y14.872
X-4.294 Y14.844
X-4.083 Y14.647
X-4.056 Y14.621
X-3.846 Y14.415
X-3.821 Y14.391
X-3.611 Y14.175
X-3.59 Y14.153
X-3.381 Y13.929
G2 X-3.219 Y13.721 I-1.096 J-1.024
G1 X-2.276 Y12.266
X0.756 Y12.076
G2 X1.835 Y11.96 I-0.755 J-12.076
G1 X3.252 Y11.743
X7.251 Y16.442
G2 X9.108 Y16.788 I1.142 J-0.972
X9.333 Y16.664 I-9.107 J-16.789
G1 X9.407 Y16.62
X9.478 Y16.572
X9.598 Y16.486
X9.664 Y16.435
X9.728 Y16.38
X9.839 Y16.28
X9.896 Y16.225
X9.951 Y16.167
X10.053 Y16.053
X10.146 Y15.937
X10.239 Y15.81
X10.314 Y15.695
X10.398 Y15.555
X10.457 Y15.444
X10.531 Y15.292
X10.578 Y15.187
X10.642 Y15.024
X10.677 Y14.926
X10.733 Y14.751
X10.759 Y14.659
X10.805 Y14.473
X10.823 Y14.389
X10.86 Y14.193
X10.873 Y14.115
X10.901 Y13.908
X10.909 Y13.837
X10.927 Y13.621
X10.931 Y13.554
X10.941 Y13.329
X10.942 Y13.268
Y13.034
X10.941 Y12.977
X10.931 Y12.735
X10.928 Y12.681
X10.91 Y12.432
X10.905 Y12.382
X10.877 Y12.125
X10.871 Y12.077
X10.834 Y11.814
X10.827 Y11.769
X10.781 Y11.499
X10.773 Y11.456
X10.717 Y11.181
X10.708 Y11.14
X10.644 Y10.86
X10.635 Y10.823
X10.561 Y10.538
X10.552 Y10.504
X10.471 Y10.215
X10.462 Y10.185
X10.373 Y9.893
G2 X10.274 Y9.648 I-1.435 J0.438
G1 X9.485 Y8.104
X10.836 Y5.384
G2 X11.275 Y4.391 I-10.836 J-5.384
G1 X11.795 Y3.055
X17.864 Y1.942
G2 X19.093 Y0.506 I-0.271 J-1.475
X19.098 Y0.249 I-19.093 J-0.508
G1 X19.097 Y0.164
X19.091 Y0.079
X19.076 Y-0.069
X19.065 Y-0.151
X19.05 Y-0.233
X19.018 Y-0.38
X18.999 Y-0.458
X18.976 Y-0.535
X18.928 Y-0.68
X18.875 Y-0.818
X18.811 Y-0.962
X18.749 Y-1.086
X18.67 Y-1.228
X18.604 Y-1.334
X18.509 Y-1.474
X18.441 Y-1.567
X18.332 Y-1.705
X18.265 Y-1.784
X18.141 Y-1.92
X18.074 Y-1.988
X17.936 Y-2.121
X17.873 Y-2.179
X17.721 Y-2.309
X17.66 Y-2.359
X17.496 Y-2.486
X17.437 Y-2.529
X17.26 Y-2.653
X17.204 Y-2.69
X17.014 Y-2.81
X16.961 Y-2.842
X16.759 Y-2.959
X16.708 Y-2.987
X16.495 Y-3.099
X16.447 Y-3.124
X16.221 Y-3.232
X16.175 Y-3.253
X15.939 Y-3.358
X15.895 Y-3.376
X15.648 Y-3.476
X15.606 Y-3.492
X15.349 Y-3.587
X15.308 Y-3.601
X15.041 Y-3.691
X15.002 Y-3.703
X14.727 Y-3.788
X14.69 Y-3.798
X14.407 Y-3.877
X14.373 Y-3.886
X14.082 Y-3.96
X14.051 Y-3.968
X13.753 Y-4.037
G2 X13.492 Y-4.073 I-0.338 J1.461
G1 X11.76 Y-4.162
X10.081 Y-6.692
G2 X9.44 Y-7.569 I-10.081 J6.692
G1 X8.543 Y-8.688
X10.614 Y-14.5
G2 X9.985 Y-16.282 I-1.413 J-0.503
X9.765 Y-16.415 I-9.983 J16.283
G1 X9.691 Y-16.456
X9.614 Y-16.494
X9.479 Y-16.554
X9.402 Y-16.587
X9.322 Y-16.615
X9.18 Y-16.661
X9.103 Y-16.683
X9.025 Y-16.701
X8.875 Y-16.732
X8.728 Y-16.755
X8.572 Y-16.772
X8.435 Y-16.78
X8.272 Y-16.782
X8.146 Y-16.778
X7.978 Y-16.767
X7.864 Y-16.754
X7.689 Y-16.728
X7.587 Y-16.71
X7.408 Y-16.67
X7.316 Y-16.647
X7.132 Y-16.594
X7.049 Y-16.568
X6.861 Y-16.502
X6.787 Y-16.474
X6.595 Y-16.394
X6.529 Y-16.366
X6.333 Y-16.274
X6.273 Y-16.244
X6.073 Y-16.14
X6.019 Y-16.11
X5.817 Y-15.993
X5.768 Y-15.963
X5.563 Y-15.835
X5.518 Y-15.805
X5.311 Y-15.664
X5.27 Y-15.635
X5.062 Y-15.483
X5.024 Y-15.454
X4.814 Y-15.29
X4.779 Y-15.261
X4.568 Y-15.086
X4.535 Y-15.058
X4.324 Y-14.872
X4.294 Y-14.844
X4.083 Y-14.647
X4.056 Y-14.621
X3.846 Y-14.415
X3.821 Y-14.391
X3.611 Y-14.175
X3.59 Y-14.153
X3.381 Y-13.929
G2 X3.219 Y-13.721 I1.096 J1.024
G1 X2.276 Y-12.266
X-0.756 Y-12.076
G2 X-1.835 Y-11.96 I0.755 J12.076
G1 X-3.252 Y-11.743
X-7.251 Y-16.442
G2 X-9.108 Y-16.788 I-1.142 J0.972
X-9.333 Y-16.664 I9.107 J16.789
G1 X-9.407 Y-16.62
X-9.478 Y-16.572
X-9.598 Y-16.486
X-9.664 Y-16.435
X-9.728 Y-16.38
X-9.839 Y-16.28
X-9.896 Y-16.225
X-9.951 Y-16.167
X-10.053 Y-16.053
X-10.146 Y-15.937
X-10.239 Y-15.81
X-10.314 Y-15.695
X-10.398 Y-15.555
X-10.457 Y-15.444
X-10.531 Y-15.292
X-10.578 Y-15.187
X-10.642 Y-15.024
X-10.677 Y-14.926
X-10.733 Y-14.751
X-10.759 Y-14.659
X-10.805 Y-14.473
X-10.823 Y-14.389
X-10.86 Y-14.193
X-10.873 Y-14.115
X-10.901 Y-13.908
X-10.909 Y-13.837
X-10.927 Y-13.621
X-10.931 Y-13.554
X-10.941 Y-13.329
X-10.942 Y-13.268
Y-13.034
X-10.941 Y-12.977
X-10.931 Y-12.735
X-10.928 Y-12.681
X-10.91 Y-12.432
X-10.905 Y-12.382
X-10.877 Y-12.125
X-10.871 Y-12.077
X-10.834 Y-11.814
X-10.827 Y-11.769
X-10.781 Y-11.499
X-10.773 Y-11.456
X-10.717 Y-11.181
X-10.708 Y-11.14
X-10.644 Y-10.86
X-10.635 Y-10.823
X-10.561 Y-10.538
X-10.552 Y-10.504
X-10.471 Y-10.215
X-10.462 Y-10.185
X-10.373 Y-9.893
G2 X-10.274 Y-9.648 I1.435 J-0.438
G1 X-9.485 Y-8.104
X-10.836 Y-5.384
G2 X-11.275 Y-4.391 I10.836 J5.384
G1 X-11.795 Y-3.055
X-17.864 Y-1.942
G2 X-19.093 Y-0.506 I0.271 J1.475
X-19.098 Y-0.249 I19.093 J0.508
G1 Y-0.223
Z-4.2 F333.3
X-19.091 Y-0.079 F700
X-19.076 Y0.069
X-19.065 Y0.151
X-19.05 Y0.233
X-19.018 Y0.38
X-18.999 Y0.458
X-18.976 Y0.535
X-18.928 Y0.68
X-18.875 Y0.818
X-18.811 Y0.962
X-18.749 Y1.086
X-18.67 Y1.228
X-18.604 Y1.334
X-18.509 Y1.474
X-18.441 Y1.567
X-18.332 Y1.705
X-18.265 Y1.784
X-18.141 Y1.92
X-18.074 Y1.988
X-17.936 Y2.121
X-17.873 Y2.179
X-17.721 Y2.309
X-17.66 Y2.359
X-17.496 Y2.486
X-17.437 Y2.529
X-17.26 Y2.653
X-17.204 Y2.69
X-17.014 Y2.81
X-16.961 Y2.842
X-16.759 Y2.959
X-16.708 Y2.987
X-16.495 Y3.099
X-16.447 Y3.124
X-16.221 Y3.232
X-16.175 Y3.253
X-15.939 Y3.358
X-15.895 Y3.376
X-15.648 Y3.476
X-15.606 Y3.492
X-15.349 Y3.587
X-15.308 Y3.601
X-15.041 Y3.691
X-15.002 Y3.703
X-14.727 Y3.788
X-14.69 Y3.798
X-14.407 Y3.877
X-14.373 Y3.886
X-14.082 Y3.96
X-14.051 Y3.968
X-13.753 Y4.037
G2 X-13.492 Y4.073 I0.338 J-1.461
G1 X-11.76 Y4.162
X-10.081 Y6.692
G2 X-9.44 Y7.569 I10.081 J-6.692
G1 X-8.543 Y8.688
X-10.614 Y14.5
G2 X-9.985 Y16.282 I1.413 J0.503
X-9.765 Y16.415 I9.983 J-16.283
G1 X-9.691 Y16.456
X-9.614 Y16.494
X-9.479 Y16.554
X-9.402 Y16.587
X-9.322 Y16.615
X-9.18 Y16.661
X-9.103 Y16.683
X-9.025 Y16.701
X-8.875 Y16.732
X-8.728 Y16.755
X-8.572 Y16.772
X-8.435 Y16.78
X-8.272 Y16.782
X-8.146 Y16.778
X-7.978 Y16.767
X-7.864 Y16.754
X-7.689 Y16.728
X-7.587 Y16.71
X-7.408 Y16.67
X-7.316 Y16.647
X-7.132 Y16.594
X-7.049 Y16.568
X-6.861 Y16.502
X-6.787 Y16.474
X-6.595 Y16.394
X-6.529 Y16.366
X-6.333 Y16.274
X-6.273 Y16.244
X-6.073 Y16.14
X-6.019 Y16.11
X-5.817 Y15.993
X-5.768 Y15.963
X-5.563 Y15.835
X-5.518 Y15.805
X-5.311 Y15.664
X-5.27 Y15.635
X-5.062 Y15.483
X-5.024 Y15.454
X-4.814 Y15.29
X-4.779 Y15.261
X-4.568 Y15.086
X-4.535 Y15.058
X-4.324 Y14.872
X-4.294 Y14.844
X-4.083 Y14.647
X-4.056 Y14.621
X-3.846 Y14.415
X-3.821 Y14.391
X-3.611 Y14.175
X-3.59 Y14.153
X-3.381 Y13.929
G2 X-3.219 Y13.721 I-1.096 J-1.024
G1 X-2.276 Y12.266
X0.756 Y12.076
G2 X1.835 Y11.96 I-0.755 J-12.076
G1 X3.252 Y11.743
X7.251 Y16.442
G2 X9.108 Y16.788 I1.142 J-0.972
X9.333 Y16.664 I-9.107 J-16.789
G1 X9.407 Y16.62
X9.478 Y16.572
X9.598 Y16.486
X9.664 Y16.435
X9.728 Y16.38
X9.839 Y16.28
X9.896 Y16.225
X9.951 Y16.167
X10.053 Y16.053
X10.146 Y15.937
X10.239 Y15.81
X10.314 Y15.695
X10.398 Y15.555
X10.457 Y15.444
X10.531 Y15.292
X10.578 Y15.187
X10.642 Y15.024
X10.677 Y14.926
X10.733 Y14.751
X10.759 Y14.659
X10.805 Y14.473
X10.823 Y14.389
X10.86 Y14.193
X10.873 Y14.115
X10.901 Y13.908
X10.909 Y13.837
X10.927 Y13.621
X10.931 Y13.554
X10.941 Y13.329
X10.942 Y13.268
Y13.034
X10.941 Y12.977
X10.931 Y12.735
X10.928 Y12.681
X10.91 Y12.432
X10.905 Y12.382
X10.877 Y12.125
X10.871 Y12.077
X10.834 Y11.814
X10.827 Y11.769
X10.781 Y11.499
X10.773 Y11.456
X10.717 Y11.181
X10.708 Y11.14
X10.644 Y10.86
X10.635 Y10.823
X10.561 Y10.538
X10.552 Y10.504
X10.471 Y10.215
X10.462 Y10.185
X10.373 Y9.893
G2 X10.274 Y9.648 I-1.435 J0.438
G1 X9.485 Y8.104
X10.836 Y5.384
G2 X11.275 Y4.391 I-10.836 J-5.384
G1 X11.795 Y3.055
X17.864 Y1.942
G2 X19.093 Y0.506 I-0.271 J-1.475
X19.098 Y0.249 I-19.093 J-0.508
G1 X19.097 Y0.164
X19.091 Y0.079
X19.076 Y-0.069
X19.065 Y-0.151
X19.05 Y-0.233
X19.018 Y-0.38
X18.999 Y-0.458
X18.976 Y-0.535
X18.928 Y-0.68
X18.875 Y-0.818
X18.811 Y-0.962
X18.749 Y-1.086
X18.67 Y-1.228
X18.604 Y-1.334
X18.509 Y-1.474
X18.441 Y-1.567
X18.332 Y-1.705
X18.265 Y-1.784
X18.141 Y-1.92
X18.074 Y-1.988
X17.936 Y-2.121
X17.873 Y-2.179
X17.721 Y-2.309
X17.66 Y-2.359
X17.496 Y-2.486
X17.437 Y-2.529
X17.26 Y-2.653
X17.204 Y-2.69
X17.014 Y-2.81
X16.961 Y-2.842
X16.759 Y-2.959
X16.708 Y-2.987
X16.495 Y-3.099
X16.447 Y-3.124
X16.221 Y-3.232
X16.175 Y-3.253
X15.939 Y-3.358
X15.895 Y-3.376
X15.648 Y-3.476
X15.606 Y-3.492
X15.349 Y-3.587
X15.308 Y-3.601
X15.041 Y-3.691
X15.002 Y-3.703
X14.727 Y-3.788
X14.69 Y-3.798
X14.407 Y-3.877
X14.373 Y-3.886
X14.082 Y-3.96
X14.051 Y-3.968
X13.753 Y-4.037
G2 X13.492 Y-4.073 I-0.338 J1.461
G1 X11.76 Y-4.162
X10.081 Y-6.692
G2 X9.44 Y-7.569 I-10.081 J6.692
G1 X8.543 Y-8.688
X10.614 Y-14.5
G2 X9.985 Y-16.282 I-1.413 J-0.503
X9.765 Y-16.415 I-9.983 J16.283
G1 X9.691 Y-16.456
X9.614 Y-16.494
X9.479 Y-16.554
X9.402 Y-16.587
X9.322 Y-16.615
X9.18 Y-16.661
X9.103 Y-16.683
X9.025 Y-16.701
X8.875 Y-16.732
X8.728 Y-16.755
X8.572 Y-16.772
X8.435 Y-16.78
X8.272 Y-16.782
X8.146 Y-16.778
X7.978 Y-16.767
X7.864 Y-16.754
X7.689 Y-16.728
X7.587 Y-16.71
X7.408 Y-16.67
X7.316 Y-16.647
X7.132 Y-16.594
X7.049 Y-16.568
X6.861 Y-16.502
X6.787 Y-16.474
X6.595 Y-16.394
X6.529 Y-16.366
X6.333 Y-16.274
X6.273 Y-16.244
X6.073 Y-16.14
X6.019 Y-16.11
X5.817 Y-15.993
X5.768 Y-15.963
X5.563 Y-15.835
X5.518 Y-15.805
X5.311 Y-15.664
X5.27 Y-15.635
X5.062 Y-15.483
X5.024 Y-15.454
X4.814 Y-15.29
X4.779 Y-15.261
X4.568 Y-15.086
X4.535 Y-15.058
X4.324 Y-14.872
X4.294 Y-14.844
X4.083 Y-14.647
X4.056 Y-14.621
X3.846 Y-14.415
X3.821 Y-14.391
X3.611 Y-14.175
X3.59 Y-14.153
X3.381 Y-13.929
G2 X3.219 Y-13.721 I1.096 J1.024
G1 X2.276 Y-12.266
X-0.756 Y-12.076
G2 X-1.835 Y-11.96 I0.755 J12.076
G1 X-3.252 Y-11.743
X-7.251 Y-16.442
G2 X-9.108 Y-16.788 I-1.142 J0.972
X-9.333 Y-16.664 I9.107 J16.789
G1 X-9.407 Y-16.62
X-9.478 Y-16.572
X-9.598 Y-16.486
X-9.664 Y-16.435
X-9.728 Y-16.38
X-9.839 Y-16.28
X-9.896 Y-16.225
X-9.951 Y-16.167
X-10.053 Y-16.053
X-10.146 Y-15.937
X-10.239 Y-15.81
X-10.314 Y-15.695
X-10.398 Y-15.555
X-10.457 Y-15.444
X-10.531 Y-15.292
X-10.578 Y-15.187
X-10.642 Y-15.024
X-10.677 Y-14.926
X-10.733 Y-14.751
X-10.759 Y-14.659
X-10.805 Y-14.473
X-10.823 Y-14.389
X-10.86 Y-14.193
X-10.873 Y-14.115
X-10.901 Y-13.908
X-10.909 Y-13.837
X-10.927 Y-13.621
X-10.931 Y-13.554
X-10.941 Y-13.329
X-10.942 Y-13.268
Y-13.034
X-10.941 Y-12.977
X-10.931 Y-12.735
X-10.928 Y-12.681
X-10.91 Y-12.432
X-10.905 Y-12.382
X-10.877 Y-12.125
X-10.871 Y-12.077
X-10.834 Y-11.814
X-10.827 Y-11.769
X-10.781 Y-11.499
X-10.773 Y-11.456
X-10.717 Y-11.181
X-10.708 Y-11.14
X-10.644 Y-10.86
X-10.635 Y-10.823
X-10.561 Y-10.538
X-10.552 Y-10.504
X-10.471 Y-10.215
X-10.462 Y-10.185
X-10.373 Y-9.893
G2 X-10.274 Y-9.648 I1.435 J-0.438
G1 X-9.485 Y-8.104
X-10.836 Y-5.384
G2 X-11.275 Y-4.391 I10.836 J5.384
G1 X-11.795 Y-3.055
X-17.864 Y-1.942
G2 X-19.093 Y-0.506 I0.271 J1.475
X-19.098 Y-0.249 I19.093 J0.508
G1 Y-0.223
Z-4.5 F333.3
X-19.091 Y-0.079 F700
X-19.076 Y0.069
X-19.065 Y0.151
X-19.05 Y0.233
X-19.018 Y0.38
X-18.999 Y0.458
X-18.976 Y0.535
X-18.928 Y0.68
X-18.875 Y0.818
X-18.811 Y0.962
X-18.749 Y1.086
X-18.67 Y1.228
X-18.604 Y1.334
X-18.509 Y1.474
X-18.441 Y1.567
X-18.332 Y1.705
X-18.265 Y1.784
X-18.141 Y1.92
X-18.074 Y1.988
X-17.936 Y2.121
X-17.873 Y2.179
X-17.721 Y2.309
X-17.66 Y2.359
X-17.496 Y2.486
X-17.437 Y2.529
X-17.26 Y2.653
X-17.204 Y2.69
X-17.014 Y2.81
X-16.961 Y2.842
X-16.759 Y2.959
X-16.708 Y2.987
X-16.495 Y3.099
X-16.447 Y3.124
X-16.221 Y3.232
X-16.175 Y3.253
X-15.939 Y3.358
X-15.895 Y3.376
X-15.648 Y3.476
X-15.606 Y3.492
X-15.349 Y3.587
X-15.308 Y3.601
X-15.041 Y3.691
X-15.002 Y3.703
X-14.727 Y3.788
X-14.69 Y3.798
X-14.407 Y3.877
X-14.373 Y3.886
X-14.082 Y3.96
X-14.051 Y3.968
X-13.753 Y4.037
G2 X-13.492 Y4.073 I0.338 J-1.461
G1 X-11.76 Y4.162
X-10.081 Y6.692
G2 X-9.44 Y7.569 I10.081 J-6.692
G1 X-8.543 Y8.688
X-10.614 Y14.5
G2 X-9.985 Y16.282 I1.413 J0.503
X-9.765 Y16.415 I9.983 J-16.283
G1 X-9.691 Y16.456
X-9.614 Y16.494
X-9.479 Y16.554
X-9.402 Y16.587
X-9.322 Y16.615
X-9.18 Y16.661
X-9.103 Y16.683
X-9.025 Y16.701
X-8.875 Y16.732
X-8.728 Y16.755
X-8.572 Y16.772
X-8.435 Y16.78
X-8.272 Y16.782
X-8.146 Y16.778
X-7.978 Y16.767
X-7.864 Y16.754
X-7.689 Y16.728
X-7.587 Y16.71
X-7.408 Y16.67
X-7.316 Y16.647
X-7.132 Y16.594
X-7.049 Y16.568
X-6.861 Y16.502
X-6.787 Y16.474
X-6.595 Y16.394
X-6.529 Y16.366
X-6.333 Y16.274
X-6.273 Y16.244
X-6.073 Y16.14
X-6.019 Y16.11
X-5.817 Y15.993
X-5.768 Y15.963
X-5.563 Y15.835
X-5.518 Y15.805
X-5.311 Y15.664
X-5.27 Y15.635
X-5.062 Y15.483
X-5.024 Y15.454
X-4.814 Y15.29
X-4.779 Y15.261
X-4.568 Y15.086
X-4.535 Y15.058
X-4.324 Y14.872
X-4.294 Y14.844
X-4.083 Y14.647
X-4.056 Y14.621
X-3.846 Y14.415
X-3.821 Y14.391
X-3.611 Y14.175
X-3.59 Y14.153
X-3.381 Y13.929
G2 X-3.219 Y13.721 I-1.096 J-1.024
G1 X-2.276 Y12.266
X0.756 Y12.076
G2 X1.835 Y11.96 I-0.755 J-12.076
G1 X3.252 Y11.743
X7.251 Y16.442
G2 X9.108 Y16.788 I1.142 J-0.972
X9.333 Y16.664 I-9.107 J-16.789
G1 X9.407 Y16.62
X9.478 Y16.572
X9.598 Y16.486
X9.664 Y16.435
X9.728 Y16.38
X9.839 Y16.28
X9.896 Y16.225
X9.951 Y16.167
X10.053 Y16.053
X10.146 Y15.937
X10.239 Y15.81
X10.314 Y15.695
X10.398 Y15.555
X10.457 Y15.444
X10.531 Y15.292
X10.578 Y15.187
X10.642 Y15.024
X10.677 Y14.926
X10.733 Y14.751
X10.759 Y14.659
X10.805 Y14.473
X10.823 Y14.389
X10.86 Y14.193
X10.873 Y14.115
X10.901 Y13.908
X10.909 Y13.837
X10.927 Y13.621
X10.931 Y13.554
X10.941 Y13.329
X10.942 Y13.268
Y13.034
X10.941 Y12.977
X10.931 Y12.735
X10.928 Y12.681
X10.91 Y12.432
X10.905 Y12.382
X10.877 Y12.125
X10.871 Y12.077
X10.834 Y11.814
X10.827 Y11.769
X10.781 Y11.499
X10.773 Y11.456
X10.717 Y11.181
X10.708 Y11.14
X10.644 Y10.86
X10.635 Y10.823
X10.561 Y10.538
X10.552 Y10.504
X10.471 Y10.215
X10.462 Y10.185
X10.373 Y9.893
G2 X10.274 Y9.648 I-1.435 J0.438
G1 X9.485 Y8.104
X10.836 Y5.384
G2 X11.275 Y4.391 I-10.836 J-5.384
G1 X11.795 Y3.055
X17.864 Y1.942
G2 X19.093 Y0.506 I-0.271 J-1.475
X19.098 Y0.249 I-19.093 J-0.508
G1 X19.097 Y0.164
X19.091 Y0.079
X19.076 Y-0.069
X19.065 Y-0.151
X19.05 Y-0.233
X19.018 Y-0.38
X18.999 Y-0.458
X18.976 Y-0.535
X18.928 Y-0.68
X18.875 Y-0.818
X18.811 Y-0.962
X18.749 Y-1.086
X18.67 Y-1.228
X18.604 Y-1.334
X18.509 Y-1.474
X18.441 Y-1.567
X18.332 Y-1.705
X18.265 Y-1.784
X18.141 Y-1.92
X18.074 Y-1.988
X17.936 Y-2.121
X17.873 Y-2.179
X17.721 Y-2.309
X17.66 Y-2.359
X17.496 Y-2.486
X17.437 Y-2.529
X17.26 Y-2.653
X17.204 Y-2.69
X17.014 Y-2.81
X16.961 Y-2.842
X16.759 Y-2.959
X16.708 Y-2.987
X16.495 Y-3.099
X16.447 Y-3.124
X16.221 Y-3.232
X16.175 Y-3.253
X15.939 Y-3.358
X15.895 Y-3.376
X15.648 Y-3.476
X15.606 Y-3.492
X15.349 Y-3.587
X15.308 Y-3.601
X15.041 Y-3.691
X15.002 Y-3.703
X14.727 Y-3.788
X14.69 Y-3.798
X14.407 Y-3.877
X14.373 Y-3.886
X14.082 Y-3.96
X14.051 Y-3.968
X13.753 Y-4.037
G2 X13.492 Y-4.073 I-0.338 J1.461
G1 X11.76 Y-4.162
X10.081 Y-6.692
G2 X9.44 Y-7.569 I-10.081 J6.692
G1 X8.543 Y-8.688
X10.614 Y-14.5
G2 X9.985 Y-16.282 I-1.413 J-0.503
X9.765 Y-16.415 I-9.983 J16.283
G1 X9.691 Y-16.456
X9.614 Y-16.494
X9.479 Y-16.554
X9.402 Y-16.587
X9.322 Y-16.615
X9.18 Y-16.661
X9.103 Y-16.683
X9.025 Y-16.701
X8.875 Y-16.732
X8.728 Y-16.755
X8.572 Y-16.772
X8.435 Y-16.78
X8.272 Y-16.782
X8.146 Y-16.778
X7.978 Y-16.767
X7.864 Y-16.754
X7.689 Y-16.728
X7.587 Y-16.71
X7.408 Y-16.67
X7.316 Y-16.647
X7.132 Y-16.594
X7.049 Y-16.568
X6.861 Y-16.502
X6.787 Y-16.474
X6.595 Y-16.394
X6.529 Y-16.366
X6.333 Y-16.274
X6.273 Y-16.244
X6.073 Y-16.14
X6.019 Y-16.11
X5.817 Y-15.993
X5.768 Y-15.963
X5.563 Y-15.835
X5.518 Y-15.805
X5.311 Y-15.664
X5.27 Y-15.635
X5.062 Y-15.483
X5.024 Y-15.454
X4.814 Y-15.29
X4.779 Y-15.261
X4.568 Y-15.086
X4.535 Y-15.058
X4.324 Y-14.872
X4.294 Y-14.844
X4.083 Y-14.647
X4.056 Y-14.621
X3.846 Y-14.415
X3.821 Y-14.391
X3.611 Y-14.175
X3.59 Y-14.153
X3.381 Y-13.929
G2 X3.219 Y-13.721 I1.096 J1.024
G1 X2.276 Y-12.266
X-0.756 Y-12.076
G2 X-1.835 Y-11.96 I0.755 J12.076
G1 X-3.252 Y-11.743
X-7.251 Y-16.442
G2 X-9.108 Y-16.788 I-1.142 J0.972
X-9.333 Y-16.664 I9.107 J16.789
G1 X-9.407 Y-16.62
X-9.478 Y-16.572
X-9.598 Y-16.486
X-9.664 Y-16.435
X-9.728 Y-16.38
X-9.839 Y-16.28
X-9.896 Y-16.225
X-9.951 Y-16.167
X-10.053 Y-16.053
X-10.146 Y-15.937
X-10.239 Y-15.81
X-10.314 Y-15.695
X-10.398 Y-15.555
X-10.457 Y-15.444
X-10.531 Y-15.292
X-10.578 Y-15.187
X-10.642 Y-15.024
X-10.677 Y-14.926
X-10.733 Y-14.751
X-10.759 Y-14.659
X-10.805 Y-14.473
X-10.823 Y-14.389
X-10.86 Y-14.193
X-10.873 Y-14.115
X-10.901 Y-13.908
X-10.909 Y-13.837
X-10.927 Y-13.621
X-10.931 Y-13.554
X-10.941 Y-13.329
X-10.942 Y-13.268
Y-13.034
X-10.941 Y-12.977
X-10.931 Y-12.735
X-10.928 Y-12.681
X-10.91 Y-12.432
X-10.905 Y-12.382
X-10.877 Y-12.125
X-10.871 Y-12.077
X-10.834 Y-11.814
X-10.827 Y-11.769
X-10.781 Y-11.499
X-10.773 Y-11.456
X-10.717 Y-11.181
X-10.708 Y-11.14
X-10.644 Y-10.86
X-10.635 Y-10.823
X-10.561 Y-10.538
X-10.552 Y-10.504
X-10.471 Y-10.215
X-10.462 Y-10.185
X-10.373 Y-9.893
G2 X-10.274 Y-9.648 I1.435 J-0.438
G1 X-9.485 Y-8.104
X-10.836 Y-5.384
G2 X-11.275 Y-4.391 I10.836 J5.384
G1 X-11.795 Y-3.055
X-17.864 Y-1.942
G2 X-19.093 Y-0.506 I0.271 J1.475
X-19.098 Y-0.249 I19.093 J0.508
G1 Y-0.223
Z-4.8 F333.3
X-19.091 Y-0.079 F700
X-19.076 Y0.069
X-19.065 Y0.151
X-19.05 Y0.233
X-19.018 Y0.38
X-18.999 Y0.458
X-18.976 Y0.535
X-18.928 Y0.68
X-18.875 Y0.818
X-18.811 Y0.962
X-18.749 Y1.086
X-18.67 Y1.228
X-18.604 Y1.334
X-18.509 Y1.474
X-18.441 Y1.567
X-18.332 Y1.705
X-18.265 Y1.784
X-18.141 Y1.92
X-18.074 Y1.988
X-17.936 Y2.121
X-17.873 Y2.179
X-17.721 Y2.309
X-17.66 Y2.359
X-17.496 Y2.486
X-17.437 Y2.529
X-17.26 Y2.653
X-17.204 Y2.69
X-17.014 Y2.81
X-16.961 Y2.842
X-16.759 Y2.959
X-16.708 Y2.987
X-16.495 Y3.099
X-16.447 Y3.124
X-16.221 Y3.232
X-16.175 Y3.253
X-15.939 Y3.358
X-15.895 Y3.376
X-15.648 Y3.476
X-15.606 Y3.492
X-15.349 Y3.587
X-15.308 Y3.601
X-15.041 Y3.691
X-15.002 Y3.703
X-14.727 Y3.788
X-14.69 Y3.798
X-14.407 Y3.877
X-14.373 Y3.886
X-14.082 Y3.96
X-14.051 Y3.968
X-13.753 Y4.037
G2 X-13.492 Y4.073 I0.338 J-1.461
G1 X-11.76 Y4.162
X-10.081 Y6.692
G2 X-9.44 Y7.569 I10.081 J-6.692
G1 X-8.543 Y8.688
X-10.614 Y14.5
G2 X-9.985 Y16.282 I1.413 J0.503
X-9.765 Y16.415 I9.983 J-16.283
G1 X-9.691 Y16.456
X-9.614 Y16.494
X-9.479 Y16.554
X-9.402 Y16.587
X-9.322 Y16.615
X-9.18 Y16.661
X-9.103 Y16.683
X-9.025 Y16.701
X-8.875 Y16.732
X-8.728 Y16.755
X-8.572 Y16.772
X-8.435 Y16.78
X-8.272 Y16.782
X-8.146 Y16.778
X-7.978 Y16.767
X-7.864 Y16.754
X-7.689 Y16.728
X-7.587 Y16.71
X-7.408 Y16.67
X-7.316 Y16.647
X-7.132 Y16.594
X-7.049 Y16.568
X-6.861 Y16.502
X-6.787 Y16.474
X-6.595 Y16.394
X-6.529 Y16.366
X-6.333 Y16.274
X-6.273 Y16.244
X-6.073 Y16.14
X-6.019 Y16.11
X-5.817 Y15.993
X-5.768 Y15.963
X-5.563 Y15.835
X-5.518 Y15.805
X-5.311 Y15.664
X-5.27 Y15.635
X-5.062 Y15.483
X-5.024 Y15.454
X-4.814 Y15.29
X-4.779 Y15.261
X-4.568 Y15.086
X-4.535 Y15.058
X-4.324 Y14.872
X-4.294 Y14.844
X-4.083 Y14.647
X-4.056 Y14.621
X-3.846 Y14.415
X-3.821 Y14.391
X-3.611 Y14.175
X-3.59 Y14.153
X-3.381 Y13.929
G2 X-3.219 Y13.721 I-1.096 J-1.024
G1 X-2.276 Y12.266
X0.756 Y12.076
G2 X1.835 Y11.96 I-0.755 J-12.076
G1 X3.252 Y11.743
X7.251 Y16.442
G2 X9.108 Y16.788 I1.142 J-0.972
X9.333 Y16.664 I-9.107 J-16.789
G1 X9.407 Y16.62
X9.478 Y16.572
X9.598 Y16.486
X9.664 Y16.435
X9.728 Y16.38
X9.839 Y16.28
X9.896 Y16.225
X9.951 Y16.167
X10.053 Y16.053
X10.146 Y15.937
X10.239 Y15.81
X10.314 Y15.695
X10.398 Y15.555
X10.457 Y15.444
X10.531 Y15.292
X10.578 Y15.187
X10.642 Y15.024
X10.677 Y14.926
X10.733 Y14.751
X10.759 Y14.659
X10.805 Y14.473
X10.823 Y14.389
X10.86 Y14.193
X10.873 Y14.115
X10.901 Y13.908
X10.909 Y13.837
X10.927 Y13.621
X10.931 Y13.554
X10.941 Y13.329
X10.942 Y13.268
Y13.034
X10.941 Y12.977
X10.931 Y12.735
X10.928 Y12.681
X10.91 Y12.432
X10.905 Y12.382
X10.877 Y12.125
X10.871 Y12.077
X10.834 Y11.814
X10.827 Y11.769
X10.781 Y11.499
X10.773 Y11.456
X10.717 Y11.181
X10.708 Y11.14
X10.644 Y10.86
X10.635 Y10.823
X10.561 Y10.538
X10.552 Y10.504
X10.471 Y10.215
X10.462 Y10.185
X10.373 Y9.893
G2 X10.274 Y9.648 I-1.435 J0.438
G1 X9.485 Y8.104
X10.836 Y5.384
G2 X11.275 Y4.391 I-10.836 J-5.384
G1 X11.795 Y3.055
X17.864 Y1.942
G2 X19.093 Y0.506 I-0.271 J-1.475
X19.098 Y0.249 I-19.093 J-0.508
G1 X19.097 Y0.164
X19.091 Y0.079
X19.076 Y-0.069
X19.065 Y-0.151
X19.05 Y-0.233
X19.018 Y-0.38
X18.999 Y-0.458
X18.976 Y-0.535
X18.928 Y-0.68
X18.875 Y-0.818
X18.811 Y-0.962
X18.749 Y-1.086
X18.67 Y-1.228
X18.604 Y-1.334
X18.509 Y-1.474
X18.441 Y-1.567
X18.332 Y-1.705
X18.265 Y-1.784
X18.141 Y-1.92
X18.074 Y-1.988
X17.936 Y-2.121
X17.873 Y-2.179
X17.721 Y-2.309
X17.66 Y-2.359
X17.496 Y-2.486
X17.437 Y-2.529
X17.26 Y-2.653
X17.204 Y-2.69
X17.014 Y-2.81
X16.961 Y-2.842
X16.759 Y-2.959
X16.708 Y-2.987
X16.495 Y-3.099
X16.447 Y-3.124
X16.221 Y-3.232
X16.175 Y-3.253
X15.939 Y-3.358
X15.895 Y-3.376
X15.648 Y-3.476
X15.606 Y-3.492
X15.349 Y-3.587
X15.308 Y-3.601
X15.041 Y-3.691
X15.002 Y-3.703
X14.727 Y-3.788
X14.69 Y-3.798
X14.407 Y-3.877
X14.373 Y-3.886
X14.082 Y-3.96
X14.051 Y-3.968
X13.753 Y-4.037
G2 X13.492 Y-4.073 I-0.338 J1.461
G1 X11.76 Y-4.162
X10.081 Y-6.692
G2 X9.44 Y-7.569 I-10.081 J6.692
G1 X8.543 Y-8.688
X10.614 Y-14.5
G2 X9.985 Y-16.282 I-1.413 J-0.503
X9.765 Y-16.415 I-9.983 J16.283
G1 X9.691 Y-16.456
X9.614 Y-16.494
X9.479 Y-16.554
X9.402 Y-16.587
X9.322 Y-16.615
X9.18 Y-16.661
X9.103 Y-16.683
X9.025 Y-16.701
X8.875 Y-16.732
X8.728 Y-16.755
X8.572 Y-16.772
X8.435 Y-16.78
X8.272 Y-16.782
X8.146 Y-16.778
X7.978 Y-16.767
X7.864 Y-16.754
X7.689 Y-16.728
X7.587 Y-16.71
X7.408 Y-16.67
X7.316 Y-16.647
X7.132 Y-16.594
X7.049 Y-16.568
X6.861 Y-16.502
X6.787 Y-16.474
X6.595 Y-16.394
X6.529 Y-16.366
X6.333 Y-16.274
X6.273 Y-16.244
X6.073 Y-16.14
X6.019 Y-16.11
X5.817 Y-15.993
X5.768 Y-15.963
X5.563 Y-15.835
X5.518 Y-15.805
X5.311 Y-15.664
X5.27 Y-15.635
X5.062 Y-15.483
X5.024 Y-15.454
X4.814 Y-15.29
X4.779 Y-15.261
X4.568 Y-15.086
X4.535 Y-15.058
X4.324 Y-14.872
X4.294 Y-14.844
X4.083 Y-14.647
X4.056 Y-14.621
X3.846 Y-14.415
X3.821 Y-14.391
X3.611 Y-14.175
X3.59 Y-14.153
X3.381 Y-13.929
G2 X3.219 Y-13.721 I1.096 J1.024
G1 X2.276 Y-12.266
X-0.756 Y-12.076
G2 X-1.835 Y-11.96 I0.755 J12.076
G1 X-3.252 Y-11.743
X-7.251 Y-16.442
G2 X-9.108 Y-16.788 I-1.142 J0.972
X-9.333 Y-16.664 I9.107 J16.789
G1 X-9.407 Y-16.62
X-9.478 Y-16.572
X-9.598 Y-16.486
X-9.664 Y-16.435
X-9.728 Y-16.38
X-9.839 Y-16.28
X-9.896 Y-16.225
X-9.951 Y-16.167
X-10.053 Y-16.053
X-10.146 Y-15.937
X-10.239 Y-15.81
X-10.314 Y-15.695
X-10.398 Y-15.555
X-10.457 Y-15.444
X-10.531 Y-15.292
X-10.578 Y-15.187
X-10.642 Y-15.024
X-10.677 Y-14.926
X-10.733 Y-14.751
X-10.759 Y-14.659
X-10.805 Y-14.473
X-10.823 Y-14.389
X-10.86 Y-14.193
X-10.873 Y-14.115
X-10.901 Y-13.908
X-10.909 Y-13.837
X-10.927 Y-13.621
X-10.931 Y-13.554
X-10.941 Y-13.329
X-10.942 Y-13.268
Y-13.034
X-10.941 Y-12.977
X-10.931 Y-12.735
X-10.928 Y-12.681
X-10.91 Y-12.432
X-10.905 Y-12.382
X-10.877 Y-12.125
X-10.871 Y-12.077
X-10.834 Y-11.814
X-10.827 Y-11.769
X-10.781 Y-11.499
X-10.773 Y-11.456
