(1001)
(T4  D=3 CR=0 - ZMIN=-17.5 - flat end mill)
G90 G94
G17
G21

(2D Pocket1)
T4
S15000 M3
G54
M8
G0 X12.458 Y90.806
Z6
Z2
G1 Z1.8 F500
G2 X13.972 Y88.391 Z1.011 I0.757 J-1.207 F333.3
X12.458 Y90.806 Z0.221 I-0.757 J1.207
X13.972 Y88.391 Z-0.568 I0.757 J-1.207
X12.458 Y90.806 Z-1.358 I-0.757 J1.207
X13.225 Y91.023 Z-1.5 I0.757 J-1.207
G1 X13.299 F1000
G3 X13.629 Y91.032 I0.019 J5.293
G2 X13.96 Y91.041 I0.312 J-5.283
X14.402 Y90.999 I-0.008 J-2.395
G1 X15.917 Y90.708
G2 X16.343 Y90.585 I-0.451 J-2.352
G1 X17.779 Y90.02
G2 X18.175 Y89.82 I-0.877 J-2.229
G1 X19.482 Y89
G2 X19.834 Y88.73 I-1.273 J-2.029
G1 X20.967 Y87.683
G2 X21.264 Y87.353 I-1.626 J-1.759
G1 X22.184 Y86.114
G2 X22.414 Y85.735 I-1.922 J-1.428
G1 X23.09 Y84.348
G2 X23.246 Y83.933 I-2.153 J-1.049
G1 X23.654 Y82.445
G2 X23.732 Y82.008 I-2.31 J-0.634
G1 X23.858 Y80.471
G2 X23.853 Y80.027 I-2.387 J-0.196
G1 X23.694 Y78.493
G2 X23.607 Y78.057 I-2.382 J0.247
G1 X23.167 Y76.578
G2 X23.002 Y76.167 I-2.296 J0.683
G1 X22.297 Y74.795
G2 X22.058 Y74.42 I-2.13 J1.095
G1 X21.112 Y73.202
G2 X20.808 Y72.878 I-1.891 J1.469
G1 X19.653 Y71.856
G2 X19.295 Y71.594 I-1.588 J1.793
G1 X17.971 Y70.802
G2 X17.571 Y70.61 I-1.229 J2.055
G1 X16.123 Y70.076
G2 X15.694 Y69.962 I-0.829 J2.247
G1 X14.173 Y69.704
G2 X13.731 Y69.671 I-0.4 J2.361
G1 X12.188 Y69.699
G2 X11.747 Y69.748 I0.043 J2.395
G1 X10.236 Y70.059
G2 X9.812 Y70.189 I0.484 J2.346
G1 X8.385 Y70.774
G2 X7.991 Y70.98 I0.909 J2.216
G1 X6.697 Y71.819
G2 X6.348 Y72.094 I1.302 J2.01
G1 X5.23 Y73.157
G2 X4.938 Y73.491 I1.651 J1.735
G1 X4.036 Y74.743
G2 X3.811 Y75.125 I1.943 J1.401
G1 X3.155 Y76.521
G2 X3.005 Y76.939 I2.168 J1.018
G1 X2.618 Y78.432
G2 X2.547 Y78.871 I2.318 J0.601
G1 X2.442 Y80.41
G2 X2.453 Y80.854 I2.389 J0.162
G1 X2.635 Y82.385
G2 X2.728 Y82.82 I2.378 J-0.282
G1 X3.189 Y84.291
G2 X3.36 Y84.701 I2.286 J-0.716
X3.524 Y84.988 I4.674 J-2.488
G3 X3.689 Y85.275 I-4.51 J2.775
X4.697 Y87.451 I-19.148 J10.193
X5.478 Y89.718 I-23.857 J9.488
G2 X5.697 Y90.234 I2.298 J-0.674
G1 X5.778 Y90.375
G2 X6.297 Y91.003 I2.079 J-1.189
G1 X6.307 Y91.012
G2 X7.006 Y91.43 I1.561 J-1.817
G1 X7.019 Y91.435
G2 X7.817 Y91.594 I0.862 J-2.234
G1 X7.98 Y91.599
G2 X8.538 Y91.548 I0.064 J-2.394
G3 X10.905 Y91.164 I5.291 J25.122
X13.225 Y91.023 I2.471 J21.552
G2 X15.426 Y89.387 I-0.016 J-2.321
G3 X17.135 Y87.241 I3.596 J1.11
G2 X19.064 Y85.675 I-3.985 J-6.877
X8.229 Y74.122 I-5.913 J-5.312
X5.382 Y78.669 I4.93 J6.253
X6.113 Y83.985 I7.591 J1.664
G3 X7.148 Y86.226 I-19.425 J10.34
X7.969 Y88.554 I-30.244 J11.971
G2 X8.385 Y88.803 I0.346 J-0.107
G3 X10.825 Y88.425 I6.198 J31.93
X13.289 Y88.277 I2.543 J21.858
X13.602 Y88.284 I0.024 J6.749
G2 X13.916 Y88.275 I0.096 J-2.249
X17.135 Y87.241 I-0.765 J-7.912
X18.131 Y84.84 I-1.073 J-1.852
G3 X18.253 Y82.243 I4.168 J-1.106
G2 X13.558 Y74.941 I-5.102 J-1.88
X8.614 Y77.328 I-0.41 J5.464
X8.32 Y82.81 I4.397 J2.985
G3 X9.011 Y84.252 I-16.865 J8.977
X9.622 Y85.731 I-53.383 J22.911
G2 X10.091 Y86.011 I0.417 J-0.166
G3 X11.682 Y85.85 I6.655 J57.694
X13.28 Y85.777 I1.666 J19.035
G1 X13.477 Y85.781
X13.576 Y85.782
X13.674 Y85.776
G2 X18.253 Y82.243 I-0.523 J-5.412
X17.235 Y79.49 I-2.121 J-0.781
G3 X14.726 Y77.966 I20.053 J-35.851
G2 X10.452 Y79.39 I-1.576 J2.398
X10.478 Y81.269 I2.509 J0.905
X11.222 Y82.995 I26.337 J-10.332
X11.744 Y83.308 I0.493 J-0.232
X12.507 Y83.254 I-1.165 J-22.212
G3 X13.271 Y83.22 I0.797 J9.157
G2 X15.051 Y82.532 I-0.009 J-2.671
X15.976 Y80.863 I-1.967 J-2.18
X14.726 Y77.966 I-2.825 J-0.499
X12.789 Y78.503 I-0.734 J1.116
X12.939 Y80.508 I1.812 J0.872
X13.362 Y80.22 I0.212 J-0.144
X12.939 Y80.508 I-0.212 J0.144
G3 X13.165 Y81.554 Z-1.643 I-1.178 J0.802 F333.3
G1 X11.811 Y89.355 Z-2.675
G2 X13.225 Y91.023 Z-3 I1.404 J0.244
G1 X13.299 F1000
G3 X13.629 Y91.032 I0.019 J5.293
G2 X13.96 Y91.041 I0.312 J-5.283
X14.402 Y90.999 I-0.008 J-2.395
G1 X15.917 Y90.708
G2 X16.343 Y90.585 I-0.451 J-2.352
G1 X17.779 Y90.02
G2 X18.175 Y89.82 I-0.877 J-2.229
G1 X19.482 Y89
G2 X19.834 Y88.73 I-1.273 J-2.029
G1 X20.967 Y87.683
G2 X21.264 Y87.353 I-1.626 J-1.759
G1 X22.184 Y86.114
G2 X22.414 Y85.735 I-1.922 J-1.428
G1 X23.09 Y84.348
G2 X23.246 Y83.933 I-2.153 J-1.049
G1 X23.654 Y82.445
G2 X23.732 Y82.008 I-2.31 J-0.634
G1 X23.858 Y80.471
G2 X23.853 Y80.027 I-2.387 J-0.196
G1 X23.694 Y78.493
G2 X23.607 Y78.057 I-2.382 J0.247
G1 X23.167 Y76.578
G2 X23.002 Y76.167 I-2.296 J0.683
G1 X22.297 Y74.795
G2 X22.058 Y74.42 I-2.13 J1.095
G1 X21.112 Y73.202
G2 X20.808 Y72.878 I-1.891 J1.469
G1 X19.653 Y71.856
G2 X19.295 Y71.594 I-1.588 J1.793
G1 X17.971 Y70.802
G2 X17.571 Y70.61 I-1.229 J2.055
G1 X16.123 Y70.076
G2 X15.694 Y69.962 I-0.829 J2.247
G1 X14.173 Y69.704
G2 X13.731 Y69.671 I-0.4 J2.361
G1 X12.188 Y69.699
G2 X11.747 Y69.748 I0.043 J2.395
G1 X10.236 Y70.059
G2 X9.812 Y70.189 I0.484 J2.346
G1 X8.385 Y70.774
G2 X7.991 Y70.98 I0.909 J2.216
G1 X6.697 Y71.819
G2 X6.348 Y72.094 I1.302 J2.01
G1 X5.23 Y73.157
G2 X4.938 Y73.491 I1.651 J1.735
G1 X4.036 Y74.743
G2 X3.811 Y75.125 I1.943 J1.401
G1 X3.155 Y76.521
G2 X3.005 Y76.939 I2.168 J1.018
G1 X2.618 Y78.432
G2 X2.547 Y78.871 I2.318 J0.601
G1 X2.442 Y80.41
G2 X2.453 Y80.854 I2.389 J0.162
G1 X2.635 Y82.385
G2 X2.728 Y82.82 I2.378 J-0.282
G1 X3.189 Y84.291
G2 X3.36 Y84.701 I2.286 J-0.716
X3.524 Y84.988 I4.674 J-2.488
G3 X3.689 Y85.275 I-4.51 J2.775
X4.697 Y87.451 I-19.148 J10.193
X5.478 Y89.718 I-23.857 J9.488
G2 X5.697 Y90.234 I2.298 J-0.674
G1 X5.778 Y90.375
G2 X6.297 Y91.003 I2.079 J-1.189
G1 X6.307 Y91.012
G2 X7.006 Y91.43 I1.561 J-1.817
G1 X7.019 Y91.435
G2 X7.817 Y91.594 I0.862 J-2.234
G1 X7.98 Y91.599
G2 X8.538 Y91.548 I0.064 J-2.394
G3 X10.905 Y91.164 I5.291 J25.122
X13.225 Y91.023 I2.471 J21.552
G2 X15.426 Y89.387 I-0.016 J-2.321
G3 X17.135 Y87.241 I3.596 J1.11
G2 X19.064 Y85.675 I-3.985 J-6.877
X8.229 Y74.122 I-5.913 J-5.312
X5.382 Y78.669 I4.93 J6.253
X6.113 Y83.985 I7.591 J1.664
G3 X7.148 Y86.226 I-19.425 J10.34
X7.969 Y88.554 I-30.244 J11.971
G2 X8.385 Y88.803 I0.346 J-0.107
G3 X10.825 Y88.425 I6.198 J31.93
X13.289 Y88.277 I2.543 J21.858
X13.602 Y88.284 I0.024 J6.749
G2 X13.916 Y88.275 I0.096 J-2.249
X17.135 Y87.241 I-0.765 J-7.912
X18.131 Y84.84 I-1.073 J-1.852
G3 X18.253 Y82.243 I4.168 J-1.106
G2 X13.558 Y74.941 I-5.102 J-1.88
X8.614 Y77.328 I-0.41 J5.464
X8.32 Y82.81 I4.397 J2.985
G3 X9.011 Y84.252 I-16.865 J8.977
X9.622 Y85.731 I-53.383 J22.911
G2 X10.091 Y86.011 I0.417 J-0.166
G3 X11.682 Y85.85 I6.655 J57.694
X13.28 Y85.777 I1.666 J19.035
G1 X13.477 Y85.781
X13.576 Y85.782
X13.674 Y85.776
G2 X18.253 Y82.243 I-0.523 J-5.412
X17.235 Y79.49 I-2.121 J-0.781
G3 X14.726 Y77.966 I20.053 J-35.851
G2 X10.452 Y79.39 I-1.576 J2.398
X10.478 Y81.269 I2.509 J0.905
X11.222 Y82.995 I26.337 J-10.332
X11.744 Y83.308 I0.493 J-0.232
X12.507 Y83.254 I-1.165 J-22.212
G3 X13.271 Y83.22 I0.797 J9.157
G2 X15.051 Y82.532 I-0.009 J-2.671
X15.976 Y80.863 I-1.967 J-2.18
X14.726 Y77.966 I-2.825 J-0.499
X12.789 Y78.503 I-0.734 J1.116
X12.939 Y80.508 I1.812 J0.872
X13.362 Y80.22 I0.212 J-0.144
X12.939 Y80.508 I-0.212 J0.144
G3 X13.165 Y81.554 Z-3.143 I-1.178 J0.802 F333.3
G1 X11.811 Y89.355 Z-4.175
G2 X13.225 Y91.023 Z-4.5 I1.404 J0.244
G1 X13.299 F1000
G3 X13.629 Y91.032 I0.019 J5.293
G2 X13.96 Y91.041 I0.312 J-5.283
X14.402 Y90.999 I-0.008 J-2.395
G1 X15.917 Y90.708
G2 X16.343 Y90.585 I-0.451 J-2.352
G1 X17.779 Y90.02
G2 X18.175 Y89.82 I-0.877 J-2.229
G1 X19.482 Y89
G2 X19.834 Y88.73 I-1.273 J-2.029
G1 X20.967 Y87.683
G2 X21.264 Y87.353 I-1.626 J-1.759
G1 X22.184 Y86.114
G2 X22.414 Y85.735 I-1.922 J-1.428
G1 X23.09 Y84.348
G2 X23.246 Y83.933 I-2.153 J-1.049
G1 X23.654 Y82.445
G2 X23.732 Y82.008 I-2.31 J-0.634
G1 X23.858 Y80.471
G2 X23.853 Y80.027 I-2.387 J-0.196
G1 X23.694 Y78.493
G2 X23.607 Y78.057 I-2.382 J0.247
G1 X23.167 Y76.578
G2 X23.002 Y76.167 I-2.296 J0.683
G1 X22.297 Y74.795
G2 X22.058 Y74.42 I-2.13 J1.095
G1 X21.112 Y73.202
G2 X20.808 Y72.878 I-1.891 J1.469
G1 X19.653 Y71.856
G2 X19.295 Y71.594 I-1.588 J1.793
G1 X17.971 Y70.802
G2 X17.571 Y70.61 I-1.229 J2.055
G1 X16.123 Y70.076
G2 X15.694 Y69.962 I-0.829 J2.247
G1 X14.173 Y69.704
G2 X13.731 Y69.671 I-0.4 J2.361
G1 X12.188 Y69.699
G2 X11.747 Y69.748 I0.043 J2.395
G1 X10.236 Y70.059
G2 X9.812 Y70.189 I0.484 J2.346
G1 X8.385 Y70.774
G2 X7.991 Y70.98 I0.909 J2.216
G1 X6.697 Y71.819
G2 X6.348 Y72.094 I1.302 J2.01
G1 X5.23 Y73.157
G2 X4.938 Y73.491 I1.651 J1.735
G1 X4.036 Y74.743
G2 X3.811 Y75.125 I1.943 J1.401
G1 X3.155 Y76.521
G2 X3.005 Y76.939 I2.168 J1.018
G1 X2.618 Y78.432
G2 X2.547 Y78.871 I2.318 J0.601
G1 X2.442 Y80.41
G2 X2.453 Y80.854 I2.389 J0.162
G1 X2.635 Y82.385
G2 X2.728 Y82.82 I2.378 J-0.282
G1 X3.189 Y84.291
G2 X3.36 Y84.701 I2.286 J-0.716
X3.524 Y84.988 I4.674 J-2.488
G3 X3.689 Y85.275 I-4.51 J2.775
X4.697 Y87.451 I-19.148 J10.193
X5.478 Y89.718 I-23.857 J9.488
G2 X5.697 Y90.234 I2.298 J-0.674
G1 X5.778 Y90.375
G2 X6.297 Y91.003 I2.079 J-1.189
G1 X6.307 Y91.012
G2 X7.006 Y91.43 I1.561 J-1.817
G1 X7.019 Y91.435
G2 X7.817 Y91.594 I0.862 J-2.234
G1 X7.98 Y91.599
G2 X8.538 Y91.548 I0.064 J-2.394
G3 X10.905 Y91.164 I5.291 J25.122
X13.225 Y91.023 I2.471 J21.552
G2 X15.426 Y89.387 I-0.016 J-2.321
G3 X17.135 Y87.241 I3.596 J1.11
G2 X19.064 Y85.675 I-3.985 J-6.877
X8.229 Y74.122 I-5.913 J-5.312
X5.382 Y78.669 I4.93 J6.253
X6.113 Y83.985 I7.591 J1.664
G3 X7.148 Y86.226 I-19.425 J10.34
X7.969 Y88.554 I-30.244 J11.971
G2 X8.385 Y88.803 I0.346 J-0.107
G3 X10.825 Y88.425 I6.198 J31.93
X13.289 Y88.277 I2.543 J21.858
X13.602 Y88.284 I0.024 J6.749
G2 X13.916 Y88.275 I0.096 J-2.249
X17.135 Y87.241 I-0.765 J-7.912
X18.131 Y84.84 I-1.073 J-1.852
G3 X18.253 Y82.243 I4.168 J-1.106
G2 X13.558 Y74.941 I-5.102 J-1.88
X8.614 Y77.328 I-0.41 J5.464
X8.32 Y82.81 I4.397 J2.985
G3 X9.011 Y84.252 I-16.865 J8.977
X9.622 Y85.731 I-53.383 J22.911
G2 X10.091 Y86.011 I0.417 J-0.166
G3 X11.682 Y85.85 I6.655 J57.694
X13.28 Y85.777 I1.666 J19.035
G1 X13.477 Y85.781
X13.576 Y85.782
X13.674 Y85.776
G2 X18.253 Y82.243 I-0.523 J-5.412
X17.235 Y79.49 I-2.121 J-0.781
G3 X14.726 Y77.966 I20.053 J-35.851
G2 X10.452 Y79.39 I-1.576 J2.398
X10.478 Y81.269 I2.509 J0.905
X11.222 Y82.995 I26.337 J-10.332
X11.744 Y83.308 I0.493 J-0.232
X12.507 Y83.254 I-1.165 J-22.212
G3 X13.271 Y83.22 I0.797 J9.157
G2 X15.051 Y82.532 I-0.009 J-2.671
X15.976 Y80.863 I-1.967 J-2.18
X14.726 Y77.966 I-2.825 J-0.499
X12.789 Y78.503 I-0.734 J1.116
X12.939 Y80.508 I1.812 J0.872
X13.362 Y80.22 I0.212 J-0.144
X12.939 Y80.508 I-0.212 J0.144
G3 X13.165 Y81.554 Z-4.643 I-1.178 J0.802 F333.3
G1 X11.811 Y89.355 Z-5.675
G2 X13.225 Y91.023 Z-6 I1.404 J0.244
G1 X13.299 F1000
G3 X13.629 Y91.032 I0.019 J5.293
G2 X13.96 Y91.041 I0.312 J-5.283
X14.402 Y90.999 I-0.008 J-2.395
G1 X15.917 Y90.708
G2 X16.343 Y90.585 I-0.451 J-2.352
G1 X17.779 Y90.02
G2 X18.175 Y89.82 I-0.877 J-2.229
G1 X19.482 Y89
G2 X19.834 Y88.73 I-1.273 J-2.029
G1 X20.967 Y87.683
G2 X21.264 Y87.353 I-1.626 J-1.759
G1 X22.184 Y86.114
G2 X22.414 Y85.735 I-1.922 J-1.428
G1 X23.09 Y84.348
G2 X23.246 Y83.933 I-2.153 J-1.049
G1 X23.654 Y82.445
G2 X23.732 Y82.008 I-2.31 J-0.634
G1 X23.858 Y80.471
G2 X23.853 Y80.027 I-2.387 J-0.196
G1 X23.694 Y78.493
G2 X23.607 Y78.057 I-2.382 J0.247
G1 X23.167 Y76.578
G2 X23.002 Y76.167 I-2.296 J0.683
G1 X22.297 Y74.795
G2 X22.058 Y74.42 I-2.13 J1.095
G1 X21.112 Y73.202
G2 X20.808 Y72.878 I-1.891 J1.469
G1 X19.653 Y71.856
G2 X19.295 Y71.594 I-1.588 J1.793
G1 X17.971 Y70.802
G2 X17.571 Y70.61 I-1.229 J2.055
G1 X16.123 Y70.076
G2 X15.694 Y69.962 I-0.829 J2.247
G1 X14.173 Y69.704
G2 X13.731 Y69.671 I-0.4 J2.361
G1 X12.188 Y69.699
G2 X11.747 Y69.748 I0.043 J2.395
G1 X10.236 Y70.059
G2 X9.812 Y70.189 I0.484 J2.346
G1 X8.385 Y70.774
G2 X7.991 Y70.98 I0.909 J2.216
G1 X6.697 Y71.819
G2 X6.348 Y72.094 I1.302 J2.01
G1 X5.23 Y73.157
G2 X4.938 Y73.491 I1.651 J1.735
G1 X4.036 Y74.743
G2 X3.811 Y75.125 I1.943 J1.401
G1 X3.155 Y76.521
G2 X3.005 Y76.939 I2.168 J1.018
G1 X2.618 Y78.432
G2 X2.547 Y78.871 I2.318 J0.601
G1 X2.442 Y80.41
G2 X2.453 Y80.854 I2.389 J0.162
G1 X2.635 Y82.385
G2 X2.728 Y82.82 I2.378 J-0.282
G1 X3.189 Y84.291
G2 X3.36 Y84.701 I2.286 J-0.716
X3.524 Y84.988 I4.674 J-2.488
G3 X3.689 Y85.275 I-4.51 J2.775
X4.697 Y87.451 I-19.148 J10.193
X5.478 Y89.718 I-23.857 J9.488
G2 X5.697 Y90.234 I2.298 J-0.674
G1 X5.778 Y90.375
G2 X6.297 Y91.003 I2.079 J-1.189
G1 X6.307 Y91.012
G2 X7.006 Y91.43 I1.561 J-1.817
G1 X7.019 Y91.435
G2 X7.817 Y91.594 I0.862 J-2.234
G1 X7.98 Y91.599
G2 X8.538 Y91.548 I0.064 J-2.394
G3 X10.905 Y91.164 I5.291 J25.122
X13.225 Y91.023 I2.471 J21.552
G2 X15.426 Y89.387 I-0.016 J-2.321
G3 X17.135 Y87.241 I3.596 J1.11
G2 X19.064 Y85.675 I-3.985 J-6.877
X8.229 Y74.122 I-5.913 J-5.312
X5.382 Y78.669 I4.93 J6.253
X6.113 Y83.985 I7.591 J1.664
G3 X7.148 Y86.226 I-19.425 J10.34
X7.969 Y88.554 I-30.244 J11.971
G2 X8.385 Y88.803 I0.346 J-0.107
G3 X10.825 Y88.425 I6.198 J31.93
X13.289 Y88.277 I2.543 J21.858
X13.602 Y88.284 I0.024 J6.749
G2 X13.916 Y88.275 I0.096 J-2.249
X17.135 Y87.241 I-0.765 J-7.912
X18.131 Y84.84 I-1.073 J-1.852
G3 X18.253 Y82.243 I4.168 J-1.106
G2 X13.558 Y74.941 I-5.102 J-1.88
X8.614 Y77.328 I-0.41 J5.464
X8.32 Y82.81 I4.397 J2.985
G3 X9.011 Y84.252 I-16.865 J8.977
X9.622 Y85.731 I-53.383 J22.911
G2 X10.091 Y86.011 I0.417 J-0.166
G3 X11.682 Y85.85 I6.655 J57.694
X13.28 Y85.777 I1.666 J19.035
G1 X13.477 Y85.781
X13.576 Y85.782
X13.674 Y85.776
G2 X18.253 Y82.243 I-0.523 J-5.412
X17.235 Y79.49 I-2.121 J-0.781
G3 X14.726 Y77.966 I20.053 J-35.851
G2 X10.452 Y79.39 I-1.576 J2.398
X10.478 Y81.269 I2.509 J0.905
X11.222 Y82.995 I26.337 J-10.332
X11.744 Y83.308 I0.493 J-0.232
X12.507 Y83.254 I-1.165 J-22.212
G3 X13.271 Y83.22 I0.797 J9.157
G2 X15.051 Y82.532 I-0.009 J-2.671
X15.976 Y80.863 I-1.967 J-2.18
X14.726 Y77.966 I-2.825 J-0.499
X12.789 Y78.503 I-0.734 J1.116
X12.939 Y80.508 I1.812 J0.872
X13.362 Y80.22 I0.212 J-0.144
X12.939 Y80.508 I-0.212 J0.144
G3 X13.165 Y81.554 Z-6.143 I-1.178 J0.802 F333.3
G1 X11.811 Y89.355 Z-7.175
G2 X13.225 Y91.023 Z-7.5 I1.404 J0.244
G1 X13.299 F1000
G3 X13.629 Y91.032 I0.019 J5.293
G2 X13.96 Y91.041 I0.312 J-5.283
X14.402 Y90.999 I-0.008 J-2.395
G1 X15.917 Y90.708
G2 X16.343 Y90.585 I-0.451 J-2.352
G1 X17.779 Y90.02
G2 X18.175 Y89.82 I-0.877 J-2.229
G1 X19.482 Y89
G2 X19.834 Y88.73 I-1.273 J-2.029
G1 X20.967 Y87.683
G2 X21.264 Y87.353 I-1.626 J-1.759
G1 X22.184 Y86.114
G2 X22.414 Y85.735 I-1.922 J-1.428
G1 X23.09 Y84.348
G2 X23.246 Y83.933 I-2.153 J-1.049
G1 X23.654 Y82.445
G2 X23.732 Y82.008 I-2.31 J-0.634
G1 X23.858 Y80.471
G2 X23.853 Y80.027 I-2.387 J-0.196
G1 X23.694 Y78.493
G2 X23.607 Y78.057 I-2.382 J0.247
G1 X23.167 Y76.578
G2 X23.002 Y76.167 I-2.296 J0.683
G1 X22.297 Y74.795
G2 X22.058 Y74.42 I-2.13 J1.095
G1 X21.112 Y73.202
G2 X20.808 Y72.878 I-1.891 J1.469
G1 X19.653 Y71.856
G2 X19.295 Y71.594 I-1.588 J1.793
G1 X17.971 Y70.802
G2 X17.571 Y70.61 I-1.229 J2.055
G1 X16.123 Y70.076
G2 X15.694 Y69.962 I-0.829 J2.247
G1 X14.173 Y69.704
G2 X13.731 Y69.671 I-0.4 J2.361
G1 X12.188 Y69.699
G2 X11.747 Y69.748 I0.043 J2.395
G1 X10.236 Y70.059
G2 X9.812 Y70.189 I0.484 J2.346
G1 X8.385 Y70.774
G2 X7.991 Y70.98 I0.909 J2.216
G1 X6.697 Y71.819
G2 X6.348 Y72.094 I1.302 J2.01
G1 X5.23 Y73.157
G2 X4.938 Y73.491 I1.651 J1.735
G1 X4.036 Y74.743
G2 X3.811 Y75.125 I1.943 J1.401
G1 X3.155 Y76.521
G2 X3.005 Y76.939 I2.168 J1.018
G1 X2.618 Y78.432
G2 X2.547 Y78.871 I2.318 J0.601
G1 X2.442 Y80.41
G2 X2.453 Y80.854 I2.389 J0.162
G1 X2.635 Y82.385
G2 X2.728 Y82.82 I2.378 J-0.282
G1 X3.189 Y84.291
G2 X3.36 Y84.701 I2.286 J-0.716
X3.524 Y84.988 I4.674 J-2.488
G3 X3.689 Y85.275 I-4.51 J2.775
X4.697 Y87.451 I-19.148 J10.193
X5.478 Y89.718 I-23.857 J9.488
G2 X5.697 Y90.234 I2.298 J-0.674
G1 X5.778 Y90.375
G2 X6.297 Y91.003 I2.079 J-1.189
G1 X6.307 Y91.012
G2 X7.006 Y91.43 I1.561 J-1.817
G1 X7.019 Y91.435
G2 X7.817 Y91.594 I0.862 J-2.234
G1 X7.98 Y91.599
G2 X8.538 Y91.548 I0.064 J-2.394
G3 X10.905 Y91.164 I5.291 J25.122
X13.225 Y91.023 I2.471 J21.552
G2 X15.426 Y89.387 I-0.016 J-2.321
G3 X17.135 Y87.241 I3.596 J1.11
G2 X19.064 Y85.675 I-3.985 J-6.877
X8.229 Y74.122 I-5.913 J-5.312
X5.382 Y78.669 I4.93 J6.253
X6.113 Y83.985 I7.591 J1.664
G3 X7.148 Y86.226 I-19.425 J10.34
X7.969 Y88.554 I-30.244 J11.971
G2 X8.385 Y88.803 I0.346 J-0.107
G3 X10.825 Y88.425 I6.198 J31.93
X13.289 Y88.277 I2.543 J21.858
X13.602 Y88.284 I0.024 J6.749
G2 X13.916 Y88.275 I0.096 J-2.249
X17.135 Y87.241 I-0.765 J-7.912
X18.131 Y84.84 I-1.073 J-1.852
G3 X18.253 Y82.243 I4.168 J-1.106
G2 X13.558 Y74.941 I-5.102 J-1.88
X8.614 Y77.328 I-0.41 J5.464
X8.32 Y82.81 I4.397 J2.985
G3 X9.011 Y84.252 I-16.865 J8.977
X9.622 Y85.731 I-53.383 J22.911
G2 X10.091 Y86.011 I0.417 J-0.166
G3 X11.682 Y85.85 I6.655 J57.694
X13.28 Y85.777 I1.666 J19.035
G1 X13.477 Y85.781
X13.576 Y85.782
X13.674 Y85.776
G2 X18.253 Y82.243 I-0.523 J-5.412
X17.235 Y79.49 I-2.121 J-0.781
G3 X14.726 Y77.966 I20.053 J-35.851
G2 X10.452 Y79.39 I-1.576 J2.398
X10.478 Y81.269 I2.509 J0.905
X11.222 Y82.995 I26.337 J-10.332
X11.744 Y83.308 I0.493 J-0.232
X12.507 Y83.254 I-1.165 J-22.212
G3 X13.271 Y83.22 I0.797 J9.157
G2 X15.051 Y82.532 I-0.009 J-2.671
X15.976 Y80.863 I-1.967 J-2.18
X14.726 Y77.966 I-2.825 J-0.499
X12.789 Y78.503 I-0.734 J1.116
X12.939 Y80.508 I1.812 J0.872
X13.362 Y80.22 I0.212 J-0.144
X12.939 Y80.508 I-0.212 J0.144
G3 X13.165 Y81.554 Z-7.643 I-1.178 J0.802 F333.3
G1 X11.811 Y89.355 Z-8.675
G2 X13.225 Y91.023 Z-9 I1.404 J0.244
G1 X13.299 F1000
G3 X13.629 Y91.032 I0.019 J5.293
G2 X13.96 Y91.041 I0.312 J-5.283
X14.402 Y90.999 I-0.008 J-2.395
G1 X15.917 Y90.708
G2 X16.343 Y90.585 I-0.451 J-2.352
G1 X17.779 Y90.02
G2 X18.175 Y89.82 I-0.877 J-2.229
G1 X19.482 Y89
G2 X19.834 Y88.73 I-1.273 J-2.029
G1 X20.967 Y87.683
G2 X21.264 Y87.353 I-1.626 J-1.759
G1 X22.184 Y86.114
G2 X22.414 Y85.735 I-1.922 J-1.428
G1 X23.09 Y84.348
G2 X23.246 Y83.933 I-2.153 J-1.049
G1 X23.654 Y82.445
G2 X23.732 Y82.008 I-2.31 J-0.634
G1 X23.858 Y80.471
G2 X23.853 Y80.027 I-2.387 J-0.196
G1 X23.694 Y78.493
G2 X23.607 Y78.057 I-2.382 J0.247
G1 X23.167 Y76.578
G2 X23.002 Y76.167 I-2.296 J0.683
G1 X22.297 Y74.795
G2 X22.058 Y74.42 I-2.13 J1.095
G1 X21.112 Y73.202
G2 X20.808 Y72.878 I-1.891 J1.469
G1 X19.653 Y71.856
G2 X19.295 Y71.594 I-1.588 J1.793
G1 X17.971 Y70.802
G2 X17.571 Y70.61 I-1.229 J2.055
G1 X16.123 Y70.076
G2 X15.694 Y69.962 I-0.829 J2.247
G1 X14.173 Y69.704
G2 X13.731 Y69.671 I-0.4 J2.361
G1 X12.188 Y69.699
G2 X11.747 Y69.748 I0.043 J2.395
G1 X10.236 Y70.059
G2 X9.812 Y70.189 I0.484 J2.346
G1 X8.385 Y70.774
G2 X7.991 Y70.98 I0.909 J2.216
G1 X6.697 Y71.819
G2 X6.348 Y72.094 I1.302 J2.01
G1 X5.23 Y73.157
G2 X4.938 Y73.491 I1.651 J1.735
G1 X4.036 Y74.743
G2 X3.811 Y75.125 I1.943 J1.401
G1 X3.155 Y76.521
G2 X3.005 Y76.939 I2.168 J1.018
G1 X2.618 Y78.432
G2 X2.547 Y78.871 I2.318 J0.601
G1 X2.442 Y80.41
G2 X2.453 Y80.854 I2.389 J0.162
G1 X2.635 Y82.385
G2 X2.728 Y82.82 I2.378 J-0.282
G1 X3.189 Y84.291
G2 X3.36 Y84.701 I2.286 J-0.716
X3.524 Y84.988 I4.674 J-2.488
G3 X3.689 Y85.275 I-4.51 J2.775
X4.697 Y87.451 I-19.148 J10.193
X5.478 Y89.718 I-23.857 J9.488
G2 X5.697 Y90.234 I2.298 J-0.674
G1 X5.778 Y90.375
G2 X6.297 Y91.003 I2.079 J-1.189
G1 X6.307 Y91.012
G2 X7.006 Y91.43 I1.561 J-1.817
G1 X7.019 Y91.435
G2 X7.817 Y91.594 I0.862 J-2.234
G1 X7.98 Y91.599
G2 X8.538 Y91.548 I0.064 J-2.394
G3 X10.905 Y91.164 I5.291 J25.122
X13.225 Y91.023 I2.471 J21.552
G2 X15.426 Y89.387 I-0.016 J-2.321
G3 X17.135 Y87.241 I3.596 J1.11
G2 X19.064 Y85.675 I-3.985 J-6.877
X8.229 Y74.122 I-5.913 J-5.312
X5.382 Y78.669 I4.93 J6.253
X6.113 Y83.985 I7.591 J1.664
G3 X7.148 Y86.226 I-19.425 J10.34
X7.969 Y88.554 I-30.244 J11.971
G2 X8.385 Y88.803 I0.346 J-0.107
G3 X10.825 Y88.425 I6.198 J31.93
X13.289 Y88.277 I2.543 J21.858
X13.602 Y88.284 I0.024 J6.749
G2 X13.916 Y88.275 I0.096 J-2.249
X17.135 Y87.241 I-0.765 J-7.912
X18.131 Y84.84 I-1.073 J-1.852
G3 X18.253 Y82.243 I4.168 J-1.106
G2 X13.558 Y74.941 I-5.102 J-1.88
X8.614 Y77.328 I-0.41 J5.464
X8.32 Y82.81 I4.397 J2.985
G3 X9.011 Y84.252 I-16.865 J8.977
X9.622 Y85.731 I-53.383 J22.911
G2 X10.091 Y86.011 I0.417 J-0.166
G3 X11.682 Y85.85 I6.655 J57.694
X13.28 Y85.777 I1.666 J19.035
G1 X13.477 Y85.781
X13.576 Y85.782
X13.674 Y85.776
G2 X18.253 Y82.243 I-0.523 J-5.412
X17.235 Y79.49 I-2.121 J-0.781
G3 X14.726 Y77.966 I20.053 J-35.851
G2 X10.452 Y79.39 I-1.576 J2.398
X10.478 Y81.269 I2.509 J0.905
X11.222 Y82.995 I26.337 J-10.332
X11.744 Y83.308 I0.493 J-0.232
X12.507 Y83.254 I-1.165 J-22.212
G3 X13.271 Y83.22 I0.797 J9.157
G2 X15.051 Y82.532 I-0.009 J-2.671
X15.976 Y80.863 I-1.967 J-2.18
X14.726 Y77.966 I-2.825 J-0.499
X12.789 Y78.503 I-0.734 J1.116
X12.939 Y80.508 I1.812 J0.872
X13.362 Y80.22 I0.212 J-0.144
X12.939 Y80.508 I-0.212 J0.144
G3 X13.165 Y81.554 Z-9.143 I-1.178 J0.802 F333.3
G1 X11.811 Y89.355 Z-10.175
G2 X13.225 Y91.023 Z-10.5 I1.404 J0.244
G1 X13.299 F1000
G3 X13.629 Y91.032 I0.019 J5.293
G2 X13.96 Y91.041 I0.312 J-5.283
X14.402 Y90.999 I-0.008 J-2.395
G1 X15.917 Y90.708
G2 X16.343 Y90.585 I-0.451 J-2.352
G1 X17.779 Y90.02
G2 X18.175 Y89.82 I-0.877 J-2.229
G1 X19.482 Y89
G2 X19.834 Y88.73 I-1.273 J-2.029
G1 X20.967 Y87.683
G2 X21.264 Y87.353 I-1.626 J-1.759
G1 X22.184 Y86.114
G2 X22.414 Y85.735 I-1.922 J-1.428
G1 X23.09 Y84.348
G2 X23.246 Y83.933 I-2.153 J-1.049
G1 X23.654 Y82.445
G2 X23.732 Y82.008 I-2.31 J-0.634
G1 X23.858 Y80.471
G2 X23.853 Y80.027 I-2.387 J-0.196
G1 X23.694 Y78.493
G2 X23.607 Y78.057 I-2.382 J0.247
G1 X23.167 Y76.578
G2 X23.002 Y76.167 I-2.296 J0.683
G1 X22.297 Y74.795
G2 X22.058 Y74.42 I-2.13 J1.095
G1 X21.112 Y73.202
G2 X20.808 Y72.878 I-1.891 J1.469
G1 X19.653 Y71.856
G2 X19.295 Y71.594 I-1.588 J1.793
G1 X17.971 Y70.802
G2 X17.571 Y70.61 I-1.229 J2.055
G1 X16.123 Y70.076
G2 X15.694 Y69.962 I-0.829 J2.247
G1 X14.173 Y69.704
G2 X13.731 Y69.671 I-0.4 J2.361
G1 X12.188 Y69.699
G2 X11.747 Y69.748 I0.043 J2.395
G1 X10.236 Y70.059
G2 X9.812 Y70.189 I0.484 J2.346
G1 X8.385 Y70.774
G2 X7.991 Y70.98 I0.909 J2.216
G1 X6.697 Y71.819
G2 X6.348 Y72.094 I1.302 J2.01
G1 X5.23 Y73.157
G2 X4.938 Y73.491 I1.651 J1.735
G1 X4.036 Y74.743
G2 X3.811 Y75.125 I1.943 J1.401
G1 X3.155 Y76.521
G2 X3.005 Y76.939 I2.168 J1.018
G1 X2.618 Y78.432
G2 X2.547 Y78.871 I2.318 J0.601
G1 X2.442 Y80.41
G2 X2.453 Y80.854 I2.389 J0.162
G1 X2.635 Y82.385
G2 X2.728 Y82.82 I2.378 J-0.282
G1 X3.189 Y84.291
G2 X3.36 Y84.701 I2.286 J-0.716
X3.524 Y84.988 I4.674 J-2.488
G3 X3.689 Y85.275 I-4.51 J2.775
X4.697 Y87.451 I-19.148 J10.193
X5.478 Y89.718 I-23.857 J9.488
G2 X5.697 Y90.234 I2.298 J-0.674
G1 X5.778 Y90.375
G2 X6.297 Y91.003 I2.079 J-1.189
G1 X6.307 Y91.012
G2 X7.006 Y91.43 I1.561 J-1.817
G1 X7.019 Y91.435
G2 X7.817 Y91.594 I0.862 J-2.234
G1 X7.98 Y91.599
G2 X8.538 Y91.548 I0.064 J-2.394
G3 X10.905 Y91.164 I5.291 J25.122
X13.225 Y91.023 I2.471 J21.552
G2 X15.426 Y89.387 I-0.016 J-2.321
G3 X17.135 Y87.241 I3.596 J1.11
G2 X19.064 Y85.675 I-3.985 J-6.877
X8.229 Y74.122 I-5.913 J-5.312
X5.382 Y78.669 I4.93 J6.253
X6.113 Y83.985 I7.591 J1.664
G3 X7.148 Y86.226 I-19.425 J10.34
X7.969 Y88.554 I-30.244 J11.971
G2 X8.385 Y88.803 I0.346 J-0.107
G3 X10.825 Y88.425 I6.198 J31.93
X13.289 Y88.277 I2.543 J21.858
X13.602 Y88.284 I0.024 J6.749
G2 X13.916 Y88.275 I0.096 J-2.249
X17.135 Y87.241 I-0.765 J-7.912
X18.131 Y84.84 I-1.073 J-1.852
G3 X18.253 Y82.243 I4.168 J-1.106
G2 X13.558 Y74.941 I-5.102 J-1.88
X8.614 Y77.328 I-0.41 J5.464
X8.32 Y82.81 I4.397 J2.985
G3 X9.011 Y84.252 I-16.865 J8.977
X9.622 Y85.731 I-53.383 J22.911
G2 X10.091 Y86.011 I0.417 J-0.166
G3 X11.682 Y85.85 I6.655 J57.694
X13.28 Y85.777 I1.666 J19.035
G1 X13.477 Y85.781
X13.576 Y85.782
X13.674 Y85.776
G2 X18.253 Y82.243 I-0.523 J-5.412
X17.235 Y79.49 I-2.121 J-0.781
G3 X14.726 Y77.966 I20.053 J-35.851
G2 X10.452 Y79.39 I-1.576 J2.398
X10.478 Y81.269 I2.509 J0.905
X11.222 Y82.995 I26.337 J-10.332
X11.744 Y83.308 I0.493 J-0.232
X12.507 Y83.254 I-1.165 J-22.212
G3 X13.271 Y83.22 I0.797 J9.157
G2 X15.051 Y82.532 I-0.009 J-2.671
X15.976 Y80.863 I-1.967 J-2.18
X14.726 Y77.966 I-2.825 J-0.499
X12.789 Y78.503 I-0.734 J1.116
X12.939 Y80.508 I1.812 J0.872
X13.362 Y80.22 I0.212 J-0.144
X12.939 Y80.508 I-0.212 J0.144
G3 X13.165 Y81.554 Z-10.643 I-1.178 J0.802 F333.3
G1 X11.811 Y89.355 Z-11.675
G2 X13.225 Y91.023 Z-12 I1.404 J0.244
G1 X13.299 F1000
G3 X13.629 Y91.032 I0.019 J5.293
G2 X13.96 Y91.041 I0.312 J-5.283
X14.402 Y90.999 I-0.008 J-2.395
G1 X15.917 Y90.708
G2 X16.343 Y90.585 I-0.451 J-2.352
G1 X17.779 Y90.02
G2 X18.175 Y89.82 I-0.877 J-2.229
G1 X19.482 Y89
G2 X19.834 Y88.73 I-1.273 J-2.029
G1 X20.967 Y87.683
G2 X21.264 Y87.353 I-1.626 J-1.759
G1 X22.184 Y86.114
G2 X22.414 Y85.735 I-1.922 J-1.428
G1 X23.09 Y84.348
G2 X23.246 Y83.933 I-2.153 J-1.049
G1 X23.654 Y82.445
G2 X23.732 Y82.008 I-2.31 J-0.634
G1 X23.858 Y80.471
G2 X23.853 Y80.027 I-2.387 J-0.196
G1 X23.694 Y78.493
G2 X23.607 Y78.057 I-2.382 J0.247
G1 X23.167 Y76.578
G2 X23.002 Y76.167 I-2.296 J0.683
G1 X22.297 Y74.795
G2 X22.058 Y74.42 I-2.13 J1.095
G1 X21.112 Y73.202
G2 X20.808 Y72.878 I-1.891 J1.469
G1 X19.653 Y71.856
G2 X19.295 Y71.594 I-1.588 J1.793
G1 X17.971 Y70.802
G2 X17.571 Y70.61 I-1.229 J2.055
G1 X16.123 Y70.076
G2 X15.694 Y69.962 I-0.829 J2.247
G1 X14.173 Y69.704
G2 X13.731 Y69.671 I-0.4 J2.361
G1 X12.188 Y69.699
G2 X11.747 Y69.748 I0.043 J2.395
G1 X10.236 Y70.059
G2 X9.812 Y70.189 I0.484 J2.346
G1 X8.385 Y70.774
G2 X7.991 Y70.98 I0.909 J2.216
G1 X6.697 Y71.819
G2 X6.348 Y72.094 I1.302 J2.01
G1 X5.23 Y73.157
G2 X4.938 Y73.491 I1.651 J1.735
G1 X4.036 Y74.743
G2 X3.811 Y75.125 I1.943 J1.401
G1 X3.155 Y76.521
G2 X3.005 Y76.939 I2.168 J1.018
G1 X2.618 Y78.432
G2 X2.547 Y78.871 I2.318 J0.601
G1 X2.442 Y80.41
G2 X2.453 Y80.854 I2.389 J0.162
G1 X2.635 Y82.385
G2 X2.728 Y82.82 I2.378 J-0.282
G1 X3.189 Y84.291
G2 X3.36 Y84.701 I2.286 J-0.716
X3.524 Y84.988 I4.674 J-2.488
G3 X3.689 Y85.275 I-4.51 J2.775
X4.697 Y87.451 I-19.148 J10.193
X5.478 Y89.718 I-23.857 J9.488
G2 X5.697 Y90.234 I2.298 J-0.674
G1 X5.778 Y90.375
G2 X6.297 Y91.003 I2.079 J-1.189
G1 X6.307 Y91.012
G2 X7.006 Y91.43 I1.561 J-1.817
G1 X7.019 Y91.435
G2 X7.817 Y91.594 I0.862 J-2.234
G1 X7.98 Y91.599
G2 X8.538 Y91.548 I0.064 J-2.394
G3 X10.905 Y91.164 I5.291 J25.122
X13.225 Y91.023 I2.471 J21.552
G2 X15.426 Y89.387 I-0.016 J-2.321
G3 X17.135 Y87.241 I3.596 J1.11
G2 X19.064 Y85.675 I-3.985 J-6.877
X8.229 Y74.122 I-5.913 J-5.312
X5.382 Y78.669 I4.93 J6.253
X6.113 Y83.985 I7.591 J1.664
G3 X7.148 Y86.226 I-19.425 J10.34
X7.969 Y88.554 I-30.244 J11.971
G2 X8.385 Y88.803 I0.346 J-0.107
G3 X10.825 Y88.425 I6.198 J31.93
X13.289 Y88.277 I2.543 J21.858
X13.602 Y88.284 I0.024 J6.749
G2 X13.916 Y88.275 I0.096 J-2.249
X17.135 Y87.241 I-0.765 J-7.912
X18.131 Y84.84 I-1.073 J-1.852
G3 X18.253 Y82.243 I4.168 J-1.106
G2 X13.558 Y74.941 I-5.102 J-1.88
X8.614 Y77.328 I-0.41 J5.464
X8.32 Y82.81 I4.397 J2.985
G3 X9.011 Y84.252 I-16.865 J8.977
X9.622 Y85.731 I-53.383 J22.911
G2 X10.091 Y86.011 I0.417 J-0.166
G3 X11.682 Y85.85 I6.655 J57.694
X13.28 Y85.777 I1.666 J19.035
G1 X13.477 Y85.781
X13.576 Y85.782
X13.674 Y85.776
G2 X18.253 Y82.243 I-0.523 J-5.412
X17.235 Y79.49 I-2.121 J-0.781
G3 X14.726 Y77.966 I20.053 J-35.851
G2 X10.452 Y79.39 I-1.576 J2.398
X10.478 Y81.269 I2.509 J0.905
X11.222 Y82.995 I26.337 J-10.332
X11.744 Y83.308 I0.493 J-0.232
X12.507 Y83.254 I-1.165 J-22.212
G3 X13.271 Y83.22 I0.797 J9.157
G2 X15.051 Y82.532 I-0.009 J-2.671
X15.976 Y80.863 I-1.967 J-2.18
X14.726 Y77.966 I-2.825 J-0.499
X12.789 Y78.503 I-0.734 J1.116
X12.939 Y80.508 I1.812 J0.872
X13.362 Y80.22 I0.212 J-0.144
X12.939 Y80.508 I-0.212 J0.144
G3 X13.165 Y81.554 Z-12.048 I-1.178 J0.802 F333.3
G1 X11.811 Y89.355 Z-12.392
G2 X13.225 Y91.023 Z-12.5 I1.404 J0.244
G1 X13.299 F1000
G3 X13.629 Y91.032 I0.019 J5.293
G2 X13.96 Y91.041 I0.312 J-5.283
X14.402 Y90.999 I-0.008 J-2.395
G1 X15.917 Y90.708
G2 X16.343 Y90.585 I-0.451 J-2.352
G1 X17.779 Y90.02
G2 X18.175 Y89.82 I-0.877 J-2.229
G1 X19.482 Y89
G2 X19.834 Y88.73 I-1.273 J-2.029
G1 X20.967 Y87.683
G2 X21.264 Y87.353 I-1.626 J-1.759
G1 X22.184 Y86.114
G2 X22.414 Y85.735 I-1.922 J-1.428
G1 X23.09 Y84.348
G2 X23.246 Y83.933 I-2.153 J-1.049
G1 X23.654 Y82.445
G2 X23.732 Y82.008 I-2.31 J-0.634
G1 X23.858 Y80.471
G2 X23.853 Y80.027 I-2.387 J-0.196
G1 X23.694 Y78.493
G2 X23.607 Y78.057 I-2.382 J0.247
G1 X23.167 Y76.578
G2 X23.002 Y76.167 I-2.296 J0.683
G1 X22.297 Y74.795
G2 X22.058 Y74.42 I-2.13 J1.095
G1 X21.112 Y73.202
G2 X20.808 Y72.878 I-1.891 J1.469
G1 X19.653 Y71.856
G2 X19.295 Y71.594 I-1.588 J1.793
G1 X17.971 Y70.802
G2 X17.571 Y70.61 I-1.229 J2.055
G1 X16.123 Y70.076
G2 X15.694 Y69.962 I-0.829 J2.247
G1 X14.173 Y69.704
G2 X13.731 Y69.671 I-0.4 J2.361
G1 X12.188 Y69.699
G2 X11.747 Y69.748 I0.043 J2.395
G1 X10.236 Y70.059
G2 X9.812 Y70.189 I0.484 J2.346
G1 X8.385 Y70.774
G2 X7.991 Y70.98 I0.909 J2.216
G1 X6.697 Y71.819
G2 X6.348 Y72.094 I1.302 J2.01
G1 X5.23 Y73.157
G2 X4.938 Y73.491 I1.651 J1.735
G1 X4.036 Y74.743
G2 X3.811 Y75.125 I1.943 J1.401
G1 X3.155 Y76.521
G2 X3.005 Y76.939 I2.168 J1.018
G1 X2.618 Y78.432
G2 X2.547 Y78.871 I2.318 J0.601
G1 X2.442 Y80.41
G2 X2.453 Y80.854 I2.389 J0.162
G1 X2.635 Y82.385
G2 X2.728 Y82.82 I2.378 J-0.282
G1 X3.189 Y84.291
G2 X3.36 Y84.701 I2.286 J-0.716
X3.524 Y84.988 I4.674 J-2.488
G3 X3.689 Y85.275 I-4.51 J2.775
X4.697 Y87.451 I-19.148 J10.193
X5.478 Y89.718 I-23.857 J9.488
G2 X5.697 Y90.234 I2.298 J-0.674
G1 X5.778 Y90.375
G2 X6.297 Y91.003 I2.079 J-1.189
G1 X6.307 Y91.012
G2 X7.006 Y91.43 I1.561 J-1.817
G1 X7.019 Y91.435
G2 X7.817 Y91.594 I0.862 J-2.234
G1 X7.98 Y91.599
G2 X8.538 Y91.548 I0.064 J-2.394
G3 X10.905 Y91.164 I5.291 J25.122
X13.225 Y91.023 I2.471 J21.552
G2 X15.426 Y89.387 I-0.016 J-2.321
G3 X17.135 Y87.241 I3.596 J1.11
G2 X19.064 Y85.675 I-3.985 J-6.877
X8.229 Y74.122 I-5.913 J-5.312
X5.382 Y78.669 I4.93 J6.253
X6.113 Y83.985 I7.591 J1.664
G3 X7.148 Y86.226 I-19.425 J10.34
X7.969 Y88.554 I-30.244 J11.971
G2 X8.385 Y88.803 I0.346 J-0.107
G3 X10.825 Y88.425 I6.198 J31.93
X13.289 Y88.277 I2.543 J21.858
X13.602 Y88.284 I0.024 J6.749
G2 X13.916 Y88.275 I0.096 J-2.249
X17.135 Y87.241 I-0.765 J-7.912
X18.131 Y84.84 I-1.073 J-1.852
G3 X18.253 Y82.243 I4.168 J-1.106
G2 X13.558 Y74.941 I-5.102 J-1.88
X8.614 Y77.328 I-0.41 J5.464
X8.32 Y82.81 I4.397 J2.985
G3 X9.011 Y84.252 I-16.865 J8.977
X9.622 Y85.731 I-53.383 J22.911
G2 X10.091 Y86.011 I0.417 J-0.166
G3 X11.682 Y85.85 I6.655 J57.694
X13.28 Y85.777 I1.666 J19.035
G1 X13.477 Y85.781
X13.576 Y85.782
X13.674 Y85.776
G2 X18.253 Y82.243 I-0.523 J-5.412
X17.235 Y79.49 I-2.121 J-0.781
G3 X14.726 Y77.966 I20.053 J-35.851
G2 X10.452 Y79.39 I-1.576 J2.398
X10.478 Y81.269 I2.509 J0.905
X11.222 Y82.995 I26.337 J-10.332
X11.744 Y83.308 I0.493 J-0.232
X12.507 Y83.254 I-1.165 J-22.212
G3 X13.271 Y83.22 I0.797 J9.157
G2 X15.051 Y82.532 I-0.009 J-2.671
X15.976 Y80.863 I-1.967 J-2.18
X14.726 Y77.966 I-2.825 J-0.499
X12.789 Y78.503 I-0.734 J1.116
X12.939 Y80.508 I1.812 J0.872
X13.362 Y80.22 I0.212 J-0.144
X12.939 Y80.508 I-0.212 J0.144
G0 Z6
X13.391 Y59.078
Z2
G1 Z1.8 F500
G2 X14.694 Y56.543 Z1.011 I0.652 J-1.267 F333.3
X13.391 Y59.078 Z0.221 I-0.652 J1.267
X14.694 Y56.543 Z-0.568 I0.652 J-1.267
X13.391 Y59.078 Z-1.358 I-0.652 J1.267
X14.174 Y59.229 Z-1.5 I0.652 J-1.267
G1 X14.279 Y59.22 F1000
G3 X14.606 Y59.201 I0.457 J5.219
G2 X14.932 Y59.183 I-0.13 J-5.237
X15.369 Y59.103 I-0.209 J-2.386
G1 X16.936 Y58.665
G2 X17.35 Y58.506 I-0.646 J-2.306
G1 X18.809 Y57.786
G2 X19.187 Y57.553 I-1.06 J-2.147
G1 X20.488 Y56.576
G2 X20.816 Y56.277 I-1.439 J-1.915
G1 X21.914 Y55.077
G2 X22.182 Y54.723 I-1.767 J-1.616
G1 X23.04 Y53.341
G2 X23.238 Y52.943 I-2.035 J-1.262
G1 X23.826 Y51.426
G2 X23.947 Y50.999 I-2.233 J-0.865
G1 X24.244 Y49.4
G2 X24.285 Y48.958 I-2.355 J-0.438
G1 X24.282 Y47.331
G2 X24.24 Y46.889 I-2.395 J0.004
G1 X23.937 Y45.291
G2 X23.814 Y44.864 I-2.353 J0.446
G1 X23.221 Y43.349
G2 X23.022 Y42.953 I-2.23 J0.873
G1 X22.16 Y41.573
G2 X21.89 Y41.22 I-2.031 J1.269
G1 X20.788 Y40.023
G2 X20.459 Y39.726 I-1.762 J1.622
G1 X19.155 Y38.753
G2 X18.776 Y38.522 I-1.432 J1.92
G1 X17.315 Y37.807
G2 X16.899 Y37.649 I-1.053 J2.151
G1 X15.332 Y37.216
G2 X14.894 Y37.138 I-0.638 J2.309
G1 X13.273 Y37.002
G2 X12.829 Y37.006 I-0.201 J2.387
G1 X11.211 Y37.171
G2 X10.776 Y37.257 I0.243 J2.383
G1 X9.215 Y37.718
G2 X8.803 Y37.882 I0.679 J2.297
G1 X7.355 Y38.624
G2 X6.98 Y38.861 I1.091 J2.132
G1 X5.694 Y39.857
G2 X5.369 Y40.16 I1.466 J1.894
G1 X4.289 Y41.376
G2 X4.026 Y41.734 I1.79 J1.591
G1 X3.188 Y43.128
G2 X2.996 Y43.529 I2.053 J1.233
G1 X2.43 Y45.054
G2 X2.315 Y45.483 I2.245 J0.833
G1 X2.04 Y47.086
G2 X2.006 Y47.529 I2.361 J0.404
G1 X2.032 Y49.155
G2 X2.08 Y49.597 I2.395 J-0.038
G1 X2.406 Y51.19
G2 X2.535 Y51.615 I2.346 J-0.48
G1 X3.149 Y53.122
G2 X3.354 Y53.515 I2.218 J-0.905
X3.54 Y53.785 I4.399 J-2.838
G3 X3.726 Y54.054 I-4.213 J3.107
X4.914 Y56.14 I-18.248 J11.773
X5.884 Y58.338 I-22.949 J11.437
G2 X6.146 Y58.833 I2.234 J-0.863
G1 X6.314 Y59.078
G2 X6.883 Y59.66 I1.972 J-1.359
G1 X7.021 Y59.76
G2 X7.752 Y60.117 I1.403 J-1.941
G1 X7.915 Y60.165
G2 X8.724 Y60.258 I0.672 J-2.299
G1 X9.02 Y60.241
G2 X9.572 Y60.143 I-0.137 J-2.391
G3 X11.902 Y59.561 I7.374 J24.559
X14.174 Y59.229 I4.272 J21.29
G2 X16.246 Y57.404 I-0.216 J-2.333
G3 X17.804 Y55.125 I3.619 J0.804
G2 X19.712 Y42.961 I-4.654 J-6.962
X7.434 Y42.045 I-6.562 J5.202
X4.84 Y47.047 I5.752 J6.156
X6.058 Y52.549 I8.027 J1.109
G3 X7.345 Y54.826 I-18.842 J12.156
X8.4 Y57.22 I-28.492 J13.984
G2 X8.912 Y57.471 I0.393 J-0.154
G3 X11.449 Y56.836 I8.97 J30.445
X14.037 Y56.456 I4.545 J21.957
X14.345 Y56.436 I0.58 J6.625
G2 X14.651 Y56.402 I-0.091 J-2.216
X17.804 Y55.125 I-1.501 J-8.238
X18.645 Y52.703 I-1.181 J-1.766
G3 X18.682 Y50.14 I3.779 J-1.227
G2 X9.14 Y43.871 I-5.532 J-1.976
X7.315 Y47.356 I4.063 J4.348
X8.149 Y51.2 I5.534 J0.812
G3 X9.044 Y52.729 I-17.126 J11.049
X9.843 Y54.31 I-43.242 J22.844
G2 X10.324 Y54.546 I0.391 J-0.189
G3 X12.063 Y54.207 I10.223 J47.833
X13.82 Y53.976 I3.535 J20.07
G1 X14.012 Y53.964
X14.108 Y53.956
X14.203 Y53.942
G2 X18.682 Y50.14 I-1.053 J-5.779
X17.707 Y47.46 I-2.104 J-0.752
G3 X15.424 Y45.751 I6.375 J-10.895
G2 X9.855 Y48.524 I-2.274 J2.412
X10.388 Y50.05 I3.574 J-0.391
G3 X11.215 Y51.438 I-28.033 J17.662
G2 X11.752 Y51.7 I0.459 J-0.259
X12.672 Y51.555 I-7.377 J-49.852
G3 X13.597 Y51.438 I1.968 J11.788
G2 X13.973 Y51.374 I-0.208 J-2.374
X14.336 Y51.259 I-0.789 J-3.124
X16.336 Y47.247 I-1.186 J-3.095
X15.424 Y45.751 I-3.186 J0.917
X14.117 Y46.373 I-0.533 J0.565
G3 X13.141 Y47.442 I-0.995 J0.072
G2 X12.659 Y47.637 I0.014 J0.727
X12.428 Y48.115 I0.502 J0.537
X12.556 Y48.631 I0.833 J0.067
X13.146 Y48.92 I0.531 J-0.338
X13.474 Y48.825 I-0.086 J-0.909
X13.735 Y48.606 I-0.344 J-0.677
X13.141 Y47.442 I-0.58 J-0.438
X11.75 Y49.005 Z-1.76 I0.027 J1.425 F333.3
G1 X12.625 Y57.949 Z-2.753
G2 X14.174 Y59.229 Z-3 I1.418 J-0.139
G1 X14.279 Y59.22 F1000
G3 X14.606 Y59.201 I0.457 J5.219
G2 X14.932 Y59.183 I-0.13 J-5.237
X15.369 Y59.103 I-0.209 J-2.386
G1 X16.936 Y58.665
G2 X17.35 Y58.506 I-0.646 J-2.306
G1 X18.809 Y57.786
G2 X19.187 Y57.553 I-1.06 J-2.147
G1 X20.488 Y56.576
G2 X20.816 Y56.277 I-1.439 J-1.915
G1 X21.914 Y55.077
G2 X22.182 Y54.723 I-1.767 J-1.616
G1 X23.04 Y53.341
G2 X23.238 Y52.943 I-2.035 J-1.262
G1 X23.826 Y51.426
G2 X23.947 Y50.999 I-2.233 J-0.865
G1 X24.244 Y49.4
G2 X24.285 Y48.958 I-2.355 J-0.438
G1 X24.282 Y47.331
G2 X24.24 Y46.889 I-2.395 J0.004
G1 X23.937 Y45.291
G2 X23.814 Y44.864 I-2.353 J0.446
G1 X23.221 Y43.349
G2 X23.022 Y42.953 I-2.23 J0.873
G1 X22.16 Y41.573
G2 X21.89 Y41.22 I-2.031 J1.269
G1 X20.788 Y40.023
G2 X20.459 Y39.726 I-1.762 J1.622
G1 X19.155 Y38.753
G2 X18.776 Y38.522 I-1.432 J1.92
G1 X17.315 Y37.807
G2 X16.899 Y37.649 I-1.053 J2.151
G1 X15.332 Y37.216
G2 X14.894 Y37.138 I-0.638 J2.309
G1 X13.273 Y37.002
G2 X12.829 Y37.006 I-0.201 J2.387
G1 X11.211 Y37.171
G2 X10.776 Y37.257 I0.243 J2.383
G1 X9.215 Y37.718
G2 X8.803 Y37.882 I0.679 J2.297
G1 X7.355 Y38.624
G2 X6.98 Y38.861 I1.091 J2.132
G1 X5.694 Y39.857
G2 X5.369 Y40.16 I1.466 J1.894
G1 X4.289 Y41.376
G2 X4.026 Y41.734 I1.79 J1.591
G1 X3.188 Y43.128
G2 X2.996 Y43.529 I2.053 J1.233
G1 X2.43 Y45.054
G2 X2.315 Y45.483 I2.245 J0.833
G1 X2.04 Y47.086
G2 X2.006 Y47.529 I2.361 J0.404
G1 X2.032 Y49.155
G2 X2.08 Y49.597 I2.395 J-0.038
G1 X2.406 Y51.19
G2 X2.535 Y51.615 I2.346 J-0.48
G1 X3.149 Y53.122
G2 X3.354 Y53.515 I2.218 J-0.905
X3.54 Y53.785 I4.399 J-2.838
G3 X3.726 Y54.054 I-4.213 J3.107
X4.914 Y56.14 I-18.248 J11.773
X5.884 Y58.338 I-22.949 J11.437
G2 X6.146 Y58.833 I2.234 J-0.863
G1 X6.314 Y59.078
G2 X6.883 Y59.66 I1.972 J-1.359
G1 X7.021 Y59.76
G2 X7.752 Y60.117 I1.403 J-1.941
G1 X7.915 Y60.165
G2 X8.724 Y60.258 I0.672 J-2.299
G1 X9.02 Y60.241
G2 X9.572 Y60.143 I-0.137 J-2.391
G3 X11.902 Y59.561 I7.374 J24.559
X14.174 Y59.229 I4.272 J21.29
G2 X16.246 Y57.404 I-0.216 J-2.333
G3 X17.804 Y55.125 I3.619 J0.804
G2 X19.712 Y42.961 I-4.654 J-6.962
X7.434 Y42.045 I-6.562 J5.202
X4.84 Y47.047 I5.752 J6.156
X6.058 Y52.549 I8.027 J1.109
G3 X7.345 Y54.826 I-18.842 J12.156
X8.4 Y57.22 I-28.492 J13.984
G2 X8.912 Y57.471 I0.393 J-0.154
G3 X11.449 Y56.836 I8.97 J30.445
X14.037 Y56.456 I4.545 J21.957
X14.345 Y56.436 I0.58 J6.625
G2 X14.651 Y56.402 I-0.091 J-2.216
X17.804 Y55.125 I-1.501 J-8.238
X18.645 Y52.703 I-1.181 J-1.766
G3 X18.682 Y50.14 I3.779 J-1.227
G2 X9.14 Y43.871 I-5.532 J-1.976
X7.315 Y47.356 I4.063 J4.348
X8.149 Y51.2 I5.534 J0.812
G3 X9.044 Y52.729 I-17.126 J11.049
X9.843 Y54.31 I-43.242 J22.844
G2 X10.324 Y54.546 I0.391 J-0.189
G3 X12.063 Y54.207 I10.223 J47.833
X13.82 Y53.976 I3.535 J20.07
G1 X14.012 Y53.964
X14.108 Y53.956
X14.203 Y53.942
G2 X18.682 Y50.14 I-1.053 J-5.779
X17.707 Y47.46 I-2.104 J-0.752
G3 X15.424 Y45.751 I6.375 J-10.895
G2 X9.855 Y48.524 I-2.274 J2.412
X10.388 Y50.05 I3.574 J-0.391
G3 X11.215 Y51.438 I-28.033 J17.662
G2 X11.752 Y51.7 I0.459 J-0.259
X12.672 Y51.555 I-7.377 J-49.852
G3 X13.597 Y51.438 I1.968 J11.788
G2 X13.973 Y51.374 I-0.208 J-2.374
X14.336 Y51.259 I-0.789 J-3.124
X16.336 Y47.247 I-1.186 J-3.095
X15.424 Y45.751 I-3.186 J0.917
X14.117 Y46.373 I-0.533 J0.565
G3 X13.141 Y47.442 I-0.995 J0.072
G2 X12.659 Y47.637 I0.014 J0.727
X12.428 Y48.115 I0.502 J0.537
X12.556 Y48.631 I0.833 J0.067
X13.146 Y48.92 I0.531 J-0.338
X13.474 Y48.825 I-0.086 J-0.909
X13.735 Y48.606 I-0.344 J-0.677
X13.141 Y47.442 I-0.58 J-0.438
X11.75 Y49.005 Z-3.26 I0.027 J1.425 F333.3
G1 X12.625 Y57.949 Z-4.253
G2 X14.174 Y59.229 Z-4.5 I1.418 J-0.139
G1 X14.279 Y59.22 F1000
G3 X14.606 Y59.201 I0.457 J5.219
G2 X14.932 Y59.183 I-0.13 J-5.237
X15.369 Y59.103 I-0.209 J-2.386
G1 X16.936 Y58.665
G2 X17.35 Y58.506 I-0.646 J-2.306
G1 X18.809 Y57.786
G2 X19.187 Y57.553 I-1.06 J-2.147
G1 X20.488 Y56.576
G2 X20.816 Y56.277 I-1.439 J-1.915
G1 X21.914 Y55.077
G2 X22.182 Y54.723 I-1.767 J-1.616
G1 X23.04 Y53.341
G2 X23.238 Y52.943 I-2.035 J-1.262
G1 X23.826 Y51.426
G2 X23.947 Y50.999 I-2.233 J-0.865
G1 X24.244 Y49.4
G2 X24.285 Y48.958 I-2.355 J-0.438
G1 X24.282 Y47.331
G2 X24.24 Y46.889 I-2.395 J0.004
G1 X23.937 Y45.291
G2 X23.814 Y44.864 I-2.353 J0.446
G1 X23.221 Y43.349
G2 X23.022 Y42.953 I-2.23 J0.873
G1 X22.16 Y41.573
G2 X21.89 Y41.22 I-2.031 J1.269
G1 X20.788 Y40.023
G2 X20.459 Y39.726 I-1.762 J1.622
G1 X19.155 Y38.753
G2 X18.776 Y38.522 I-1.432 J1.92
G1 X17.315 Y37.807
G2 X16.899 Y37.649 I-1.053 J2.151
G1 X15.332 Y37.216
G2 X14.894 Y37.138 I-0.638 J2.309
G1 X13.273 Y37.002
G2 X12.829 Y37.006 I-0.201 J2.387
G1 X11.211 Y37.171
G2 X10.776 Y37.257 I0.243 J2.383
G1 X9.215 Y37.718
G2 X8.803 Y37.882 I0.679 J2.297
G1 X7.355 Y38.624
G2 X6.98 Y38.861 I1.091 J2.132
G1 X5.694 Y39.857
G2 X5.369 Y40.16 I1.466 J1.894
G1 X4.289 Y41.376
G2 X4.026 Y41.734 I1.79 J1.591
G1 X3.188 Y43.128
G2 X2.996 Y43.529 I2.053 J1.233
G1 X2.43 Y45.054
G2 X2.315 Y45.483 I2.245 J0.833
G1 X2.04 Y47.086
G2 X2.006 Y47.529 I2.361 J0.404
G1 X2.032 Y49.155
G2 X2.08 Y49.597 I2.395 J-0.038
G1 X2.406 Y51.19
G2 X2.535 Y51.615 I2.346 J-0.48
G1 X3.149 Y53.122
G2 X3.354 Y53.515 I2.218 J-0.905
X3.54 Y53.785 I4.399 J-2.838
G3 X3.726 Y54.054 I-4.213 J3.107
X4.914 Y56.14 I-18.248 J11.773
X5.884 Y58.338 I-22.949 J11.437
G2 X6.146 Y58.833 I2.234 J-0.863
G1 X6.314 Y59.078
G2 X6.883 Y59.66 I1.972 J-1.359
G1 X7.021 Y59.76
G2 X7.752 Y60.117 I1.403 J-1.941
G1 X7.915 Y60.165
G2 X8.724 Y60.258 I0.672 J-2.299
G1 X9.02 Y60.241
G2 X9.572 Y60.143 I-0.137 J-2.391
G3 X11.902 Y59.561 I7.374 J24.559
X14.174 Y59.229 I4.272 J21.29
G2 X16.246 Y57.404 I-0.216 J-2.333
G3 X17.804 Y55.125 I3.619 J0.804
G2 X19.712 Y42.961 I-4.654 J-6.962
X7.434 Y42.045 I-6.562 J5.202
X4.84 Y47.047 I5.752 J6.156
X6.058 Y52.549 I8.027 J1.109
G3 X7.345 Y54.826 I-18.842 J12.156
X8.4 Y57.22 I-28.492 J13.984
G2 X8.912 Y57.471 I0.393 J-0.154
G3 X11.449 Y56.836 I8.97 J30.445
X14.037 Y56.456 I4.545 J21.957
X14.345 Y56.436 I0.58 J6.625
G2 X14.651 Y56.402 I-0.091 J-2.216
X17.804 Y55.125 I-1.501 J-8.238
X18.645 Y52.703 I-1.181 J-1.766
G3 X18.682 Y50.14 I3.779 J-1.227
G2 X9.14 Y43.871 I-5.532 J-1.976
X7.315 Y47.356 I4.063 J4.348
X8.149 Y51.2 I5.534 J0.812
G3 X9.044 Y52.729 I-17.126 J11.049
X9.843 Y54.31 I-43.242 J22.844
G2 X10.324 Y54.546 I0.391 J-0.189
G3 X12.063 Y54.207 I10.223 J47.833
X13.82 Y53.976 I3.535 J20.07
G1 X14.012 Y53.964
X14.108 Y53.956
X14.203 Y53.942
G2 X18.682 Y50.14 I-1.053 J-5.779
X17.707 Y47.46 I-2.104 J-0.752
G3 X15.424 Y45.751 I6.375 J-10.895
G2 X9.855 Y48.524 I-2.274 J2.412
X10.388 Y50.05 I3.574 J-0.391
G3 X11.215 Y51.438 I-28.033 J17.662
G2 X11.752 Y51.7 I0.459 J-0.259
X12.672 Y51.555 I-7.377 J-49.852
G3 X13.597 Y51.438 I1.968 J11.788
G2 X13.973 Y51.374 I-0.208 J-2.374
X14.336 Y51.259 I-0.789 J-3.124
X16.336 Y47.247 I-1.186 J-3.095
X15.424 Y45.751 I-3.186 J0.917
X14.117 Y46.373 I-0.533 J0.565
G3 X13.141 Y47.442 I-0.995 J0.072
G2 X12.659 Y47.637 I0.014 J0.727
X12.428 Y48.115 I0.502 J0.537
X12.556 Y48.631 I0.833 J0.067
X13.146 Y48.92 I0.531 J-0.338
X13.474 Y48.825 I-0.086 J-0.909
X13.735 Y48.606 I-0.344 J-0.677
X13.141 Y47.442 I-0.58 J-0.438
X11.75 Y49.005 Z-4.76 I0.027 J1.425 F333.3
G1 X12.625 Y57.949 Z-5.753
G2 X14.174 Y59.229 Z-6 I1.418 J-0.139
G1 X14.279 Y59.22 F1000
G3 X14.606 Y59.201 I0.457 J5.219
G2 X14.932 Y59.183 I-0.13 J-5.237
X15.369 Y59.103 I-0.209 J-2.386
G1 X16.936 Y58.665
G2 X17.35 Y58.506 I-0.646 J-2.306
G1 X18.809 Y57.786
G2 X19.187 Y57.553 I-1.06 J-2.147
G1 X20.488 Y56.576
G2 X20.816 Y56.277 I-1.439 J-1.915
G1 X21.914 Y55.077
G2 X22.182 Y54.723 I-1.767 J-1.616
G1 X23.04 Y53.341
G2 X23.238 Y52.943 I-2.035 J-1.262
G1 X23.826 Y51.426
G2 X23.947 Y50.999 I-2.233 J-0.865
G1 X24.244 Y49.4
G2 X24.285 Y48.958 I-2.355 J-0.438
G1 X24.282 Y47.331
G2 X24.24 Y46.889 I-2.395 J0.004
G1 X23.937 Y45.291
G2 X23.814 Y44.864 I-2.353 J0.446
G1 X23.221 Y43.349
G2 X23.022 Y42.953 I-2.23 J0.873
G1 X22.16 Y41.573
G2 X21.89 Y41.22 I-2.031 J1.269
G1 X20.788 Y40.023
G2 X20.459 Y39.726 I-1.762 J1.622
G1 X19.155 Y38.753
G2 X18.776 Y38.522 I-1.432 J1.92
G1 X17.315 Y37.807
G2 X16.899 Y37.649 I-1.053 J2.151
G1 X15.332 Y37.216
G2 X14.894 Y37.138 I-0.638 J2.309
G1 X13.273 Y37.002
G2 X12.829 Y37.006 I-0.201 J2.387
G1 X11.211 Y37.171
G2 X10.776 Y37.257 I0.243 J2.383
G1 X9.215 Y37.718
G2 X8.803 Y37.882 I0.679 J2.297
G1 X7.355 Y38.624
G2 X6.98 Y38.861 I1.091 J2.132
G1 X5.694 Y39.857
G2 X5.369 Y40.16 I1.466 J1.894
G1 X4.289 Y41.376
G2 X4.026 Y41.734 I1.79 J1.591
G1 X3.188 Y43.128
G2 X2.996 Y43.529 I2.053 J1.233
G1 X2.43 Y45.054
G2 X2.315 Y45.483 I2.245 J0.833
G1 X2.04 Y47.086
G2 X2.006 Y47.529 I2.361 J0.404
G1 X2.032 Y49.155
G2 X2.08 Y49.597 I2.395 J-0.038
G1 X2.406 Y51.19
G2 X2.535 Y51.615 I2.346 J-0.48
G1 X3.149 Y53.122
G2 X3.354 Y53.515 I2.218 J-0.905
X3.54 Y53.785 I4.399 J-2.838
G3 X3.726 Y54.054 I-4.213 J3.107
X4.914 Y56.14 I-18.248 J11.773
X5.884 Y58.338 I-22.949 J11.437
G2 X6.146 Y58.833 I2.234 J-0.863
G1 X6.314 Y59.078
G2 X6.883 Y59.66 I1.972 J-1.359
G1 X7.021 Y59.76
G2 X7.752 Y60.117 I1.403 J-1.941
G1 X7.915 Y60.165
G2 X8.724 Y60.258 I0.672 J-2.299
G1 X9.02 Y60.241
G2 X9.572 Y60.143 I-0.137 J-2.391
G3 X11.902 Y59.561 I7.374 J24.559
X14.174 Y59.229 I4.272 J21.29
G2 X16.246 Y57.404 I-0.216 J-2.333
G3 X17.804 Y55.125 I3.619 J0.804
G2 X19.712 Y42.961 I-4.654 J-6.962
X7.434 Y42.045 I-6.562 J5.202
X4.84 Y47.047 I5.752 J6.156
X6.058 Y52.549 I8.027 J1.109
G3 X7.345 Y54.826 I-18.842 J12.156
X8.4 Y57.22 I-28.492 J13.984
G2 X8.912 Y57.471 I0.393 J-0.154
G3 X11.449 Y56.836 I8.97 J30.445
X14.037 Y56.456 I4.545 J21.957
X14.345 Y56.436 I0.58 J6.625
G2 X14.651 Y56.402 I-0.091 J-2.216
X17.804 Y55.125 I-1.501 J-8.238
X18.645 Y52.703 I-1.181 J-1.766
G3 X18.682 Y50.14 I3.779 J-1.227
G2 X9.14 Y43.871 I-5.532 J-1.976
X7.315 Y47.356 I4.063 J4.348
X8.149 Y51.2 I5.534 J0.812
G3 X9.044 Y52.729 I-17.126 J11.049
X9.843 Y54.31 I-43.242 J22.844
G2 X10.324 Y54.546 I0.391 J-0.189
G3 X12.063 Y54.207 I10.223 J47.833
X13.82 Y53.976 I3.535 J20.07
G1 X14.012 Y53.964
X14.108 Y53.956
X14.203 Y53.942
G2 X18.682 Y50.14 I-1.053 J-5.779
X17.707 Y47.46 I-2.104 J-0.752
G3 X15.424 Y45.751 I6.375 J-10.895
G2 X9.855 Y48.524 I-2.274 J2.412
X10.388 Y50.05 I3.574 J-0.391
G3 X11.215 Y51.438 I-28.033 J17.662
G2 X11.752 Y51.7 I0.459 J-0.259
X12.672 Y51.555 I-7.377 J-49.852
G3 X13.597 Y51.438 I1.968 J11.788
G2 X13.973 Y51.374 I-0.208 J-2.374
X14.336 Y51.259 I-0.789 J-3.124
X16.336 Y47.247 I-1.186 J-3.095
X15.424 Y45.751 I-3.186 J0.917
X14.117 Y46.373 I-0.533 J0.565
G3 X13.141 Y47.442 I-0.995 J0.072
G2 X12.659 Y47.637 I0.014 J0.727
X12.428 Y48.115 I0.502 J0.537
X12.556 Y48.631 I0.833 J0.067
X13.146 Y48.92 I0.531 J-0.338
X13.474 Y48.825 I-0.086 J-0.909
X13.735 Y48.606 I-0.344 J-0.677
X13.141 Y47.442 I-0.58 J-0.438
X11.75 Y49.005 Z-6.26 I0.027 J1.425 F333.3
G1 X12.625 Y57.949 Z-7.253
G2 X14.174 Y59.229 Z-7.5 I1.418 J-0.139
G1 X14.279 Y59.22 F1000
G3 X14.606 Y59.201 I0.457 J5.219
G2 X14.932 Y59.183 I-0.13 J-5.237
X15.369 Y59.103 I-0.209 J-2.386
G1 X16.936 Y58.665
G2 X17.35 Y58.506 I-0.646 J-2.306
G1 X18.809 Y57.786
G2 X19.187 Y57.553 I-1.06 J-2.147
G1 X20.488 Y56.576
G2 X20.816 Y56.277 I-1.439 J-1.915
G1 X21.914 Y55.077
G2 X22.182 Y54.723 I-1.767 J-1.616
G1 X23.04 Y53.341
G2 X23.238 Y52.943 I-2.035 J-1.262
G1 X23.826 Y51.426
G2 X23.947 Y50.999 I-2.233 J-0.865
G1 X24.244 Y49.4
G2 X24.285 Y48.958 I-2.355 J-0.438
G1 X24.282 Y47.331
G2 X24.24 Y46.889 I-2.395 J0.004
G1 X23.937 Y45.291
G2 X23.814 Y44.864 I-2.353 J0.446
G1 X23.221 Y43.349
G2 X23.022 Y42.953 I-2.23 J0.873
G1 X22.16 Y41.573
G2 X21.89 Y41.22 I-2.031 J1.269
G1 X20.788 Y40.023
G2 X20.459 Y39.726 I-1.762 J1.622
G1 X19.155 Y38.753
G2 X18.776 Y38.522 I-1.432 J1.92
G1 X17.315 Y37.807
G2 X16.899 Y37.649 I-1.053 J2.151
G1 X15.332 Y37.216
G2 X14.894 Y37.138 I-0.638 J2.309
G1 X13.273 Y37.002
G2 X12.829 Y37.006 I-0.201 J2.387
G1 X11.211 Y37.171
G2 X10.776 Y37.257 I0.243 J2.383
G1 X9.215 Y37.718
G2 X8.803 Y37.882 I0.679 J2.297
G1 X7.355 Y38.624
G2 X6.98 Y38.861 I1.091 J2.132
G1 X5.694 Y39.857
G2 X5.369 Y40.16 I1.466 J1.894
G1 X4.289 Y41.376
G2 X4.026 Y41.734 I1.79 J1.591
G1 X3.188 Y43.128
G2 X2.996 Y43.529 I2.053 J1.233
G1 X2.43 Y45.054
G2 X2.315 Y45.483 I2.245 J0.833
G1 X2.04 Y47.086
G2 X2.006 Y47.529 I2.361 J0.404
G1 X2.032 Y49.155
G2 X2.08 Y49.597 I2.395 J-0.038
G1 X2.406 Y51.19
G2 X2.535 Y51.615 I2.346 J-0.48
G1 X3.149 Y53.122
G2 X3.354 Y53.515 I2.218 J-0.905
X3.54 Y53.785 I4.399 J-2.838
G3 X3.726 Y54.054 I-4.213 J3.107
X4.914 Y56.14 I-18.248 J11.773
X5.884 Y58.338 I-22.949 J11.437
G2 X6.146 Y58.833 I2.234 J-0.863
G1 X6.314 Y59.078
G2 X6.883 Y59.66 I1.972 J-1.359
G1 X7.021 Y59.76
G2 X7.752 Y60.117 I1.403 J-1.941
G1 X7.915 Y60.165
G2 X8.724 Y60.258 I0.672 J-2.299
G1 X9.02 Y60.241
G2 X9.572 Y60.143 I-0.137 J-2.391
G3 X11.902 Y59.561 I7.374 J24.559
X14.174 Y59.229 I4.272 J21.29
G2 X16.246 Y57.404 I-0.216 J-2.333
G3 X17.804 Y55.125 I3.619 J0.804
G2 X19.712 Y42.961 I-4.654 J-6.962
X7.434 Y42.045 I-6.562 J5.202
X4.84 Y47.047 I5.752 J6.156
X6.058 Y52.549 I8.027 J1.109
G3 X7.345 Y54.826 I-18.842 J12.156
X8.4 Y57.22 I-28.492 J13.984
G2 X8.912 Y57.471 I0.393 J-0.154
G3 X11.449 Y56.836 I8.97 J30.445
X14.037 Y56.456 I4.545 J21.957
X14.345 Y56.436 I0.58 J6.625
G2 X14.651 Y56.402 I-0.091 J-2.216
X17.804 Y55.125 I-1.501 J-8.238
X18.645 Y52.703 I-1.181 J-1.766
G3 X18.682 Y50.14 I3.779 J-1.227
G2 X9.14 Y43.871 I-5.532 J-1.976
X7.315 Y47.356 I4.063 J4.348
X8.149 Y51.2 I5.534 J0.812
G3 X9.044 Y52.729 I-17.126 J11.049
X9.843 Y54.31 I-43.242 J22.844
G2 X10.324 Y54.546 I0.391 J-0.189
G3 X12.063 Y54.207 I10.223 J47.833
X13.82 Y53.976 I3.535 J20.07
G1 X14.012 Y53.964
X14.108 Y53.956
X14.203 Y53.942
G2 X18.682 Y50.14 I-1.053 J-5.779
X17.707 Y47.46 I-2.104 J-0.752
G3 X15.424 Y45.751 I6.375 J-10.895
G2 X9.855 Y48.524 I-2.274 J2.412
X10.388 Y50.05 I3.574 J-0.391
G3 X11.215 Y51.438 I-28.033 J17.662
G2 X11.752 Y51.7 I0.459 J-0.259
X12.672 Y51.555 I-7.377 J-49.852
G3 X13.597 Y51.438 I1.968 J11.788
G2 X13.973 Y51.374 I-0.208 J-2.374
X14.336 Y51.259 I-0.789 J-3.124
X16.336 Y47.247 I-1.186 J-3.095
X15.424 Y45.751 I-3.186 J0.917
X14.117 Y46.373 I-0.533 J0.565
G3 X13.141 Y47.442 I-0.995 J0.072
G2 X12.659 Y47.637 I0.014 J0.727
X12.428 Y48.115 I0.502 J0.537
X12.556 Y48.631 I0.833 J0.067
X13.146 Y48.92 I0.531 J-0.338
X13.474 Y48.825 I-0.086 J-0.909
X13.735 Y48.606 I-0.344 J-0.677
X13.141 Y47.442 I-0.58 J-0.438
X11.75 Y49.005 Z-7.76 I0.027 J1.425 F333.3
G1 X12.625 Y57.949 Z-8.753
G2 X14.174 Y59.229 Z-9 I1.418 J-0.139
G1 X14.279 Y59.22 F1000
G3 X14.606 Y59.201 I0.457 J5.219
G2 X14.932 Y59.183 I-0.13 J-5.237
X15.369 Y59.103 I-0.209 J-2.386
G1 X16.936 Y58.665
G2 X17.35 Y58.506 I-0.646 J-2.306
G1 X18.809 Y57.786
G2 X19.187 Y57.553 I-1.06 J-2.147
G1 X20.488 Y56.576
G2 X20.816 Y56.277 I-1.439 J-1.915
G1 X21.914 Y55.077
G2 X22.182 Y54.723 I-1.767 J-1.616
G1 X23.04 Y53.341
G2 X23.238 Y52.943 I-2.035 J-1.262
G1 X23.826 Y51.426
G2 X23.947 Y50.999 I-2.233 J-0.865
G1 X24.244 Y49.4
G2 X24.285 Y48.958 I-2.355 J-0.438
G1 X24.282 Y47.331
G2 X24.24 Y46.889 I-2.395 J0.004
G1 X23.937 Y45.291
G2 X23.814 Y44.864 I-2.353 J0.446
G1 X23.221 Y43.349
G2 X23.022 Y42.953 I-2.23 J0.873
G1 X22.16 Y41.573
G2 X21.89 Y41.22 I-2.031 J1.269
G1 X20.788 Y40.023
G2 X20.459 Y39.726 I-1.762 J1.622
G1 X19.155 Y38.753
G2 X18.776 Y38.522 I-1.432 J1.92
G1 X17.315 Y37.807
G2 X16.899 Y37.649 I-1.053 J2.151
G1 X15.332 Y37.216
G2 X14.894 Y37.138 I-0.638 J2.309
G1 X13.273 Y37.002
G2 X12.829 Y37.006 I-0.201 J2.387
G1 X11.211 Y37.171
G2 X10.776 Y37.257 I0.243 J2.383
G1 X9.215 Y37.718
G2 X8.803 Y37.882 I0.679 J2.297
G1 X7.355 Y38.624
G2 X6.98 Y38.861 I1.091 J2.132
G1 X5.694 Y39.857
G2 X5.369 Y40.16 I1.466 J1.894
G1 X4.289 Y41.376
G2 X4.026 Y41.734 I1.79 J1.591
G1 X3.188 Y43.128
G2 X2.996 Y43.529 I2.053 J1.233
G1 X2.43 Y45.054
G2 X2.315 Y45.483 I2.245 J0.833
G1 X2.04 Y47.086
G2 X2.006 Y47.529 I2.361 J0.404
G1 X2.032 Y49.155
G2 X2.08 Y49.597 I2.395 J-0.038
G1 X2.406 Y51.19
G2 X2.535 Y51.615 I2.346 J-0.48
G1 X3.149 Y53.122
G2 X3.354 Y53.515 I2.218 J-0.905
X3.54 Y53.785 I4.399 J-2.838
G3 X3.726 Y54.054 I-4.213 J3.107
X4.914 Y56.14 I-18.248 J11.773
X5.884 Y58.338 I-22.949 J11.437
G2 X6.146 Y58.833 I2.234 J-0.863
G1 X6.314 Y59.078
G2 X6.883 Y59.66 I1.972 J-1.359
G1 X7.021 Y59.76
G2 X7.752 Y60.117 I1.403 J-1.941
G1 X7.915 Y60.165
G2 X8.724 Y60.258 I0.672 J-2.299
G1 X9.02 Y60.241
G2 X9.572 Y60.143 I-0.137 J-2.391
G3 X11.902 Y59.561 I7.374 J24.559
X14.174 Y59.229 I4.272 J21.29
G2 X16.246 Y57.404 I-0.216 J-2.333
G3 X17.804 Y55.125 I3.619 J0.804
G2 X19.712 Y42.961 I-4.654 J-6.962
X7.434 Y42.045 I-6.562 J5.202
X4.84 Y47.047 I5.752 J6.156
X6.058 Y52.549 I8.027 J1.109
G3 X7.345 Y54.826 I-18.842 J12.156
X8.4 Y57.22 I-28.492 J13.984
G2 X8.912 Y57.471 I0.393 J-0.154
G3 X11.449 Y56.836 I8.97 J30.445
X14.037 Y56.456 I4.545 J21.957
X14.345 Y56.436 I0.58 J6.625
G2 X14.651 Y56.402 I-0.091 J-2.216
X17.804 Y55.125 I-1.501 J-8.238
X18.645 Y52.703 I-1.181 J-1.766
G3 X18.682 Y50.14 I3.779 J-1.227
G2 X9.14 Y43.871 I-5.532 J-1.976
X7.315 Y47.356 I4.063 J4.348
X8.149 Y51.2 I5.534 J0.812
G3 X9.044 Y52.729 I-17.126 J11.049
X9.843 Y54.31 I-43.242 J22.844
G2 X10.324 Y54.546 I0.391 J-0.189
G3 X12.063 Y54.207 I10.223 J47.833
X13.82 Y53.976 I3.535 J20.07
G1 X14.012 Y53.964
X14.108 Y53.956
X14.203 Y53.942
G2 X18.682 Y50.14 I-1.053 J-5.779
X17.707 Y47.46 I-2.104 J-0.752
G3 X15.424 Y45.751 I6.375 J-10.895
G2 X9.855 Y48.524 I-2.274 J2.412
X10.388 Y50.05 I3.574 J-0.391
G3 X11.215 Y51.438 I-28.033 J17.662
G2 X11.752 Y51.7 I0.459 J-0.259
X12.672 Y51.555 I-7.377 J-49.852
G3 X13.597 Y51.438 I1.968 J11.788
G2 X13.973 Y51.374 I-0.208 J-2.374
X14.336 Y51.259 I-0.789 J-3.124
X16.336 Y47.247 I-1.186 J-3.095
X15.424 Y45.751 I-3.186 J0.917
X14.117 Y46.373 I-0.533 J0.565
G3 X13.141 Y47.442 I-0.995 J0.072
G2 X12.659 Y47.637 I0.014 J0.727
X12.428 Y48.115 I0.502 J0.537
X12.556 Y48.631 I0.833 J0.067
X13.146 Y48.92 I0.531 J-0.338
X13.474 Y48.825 I-0.086 J-0.909
X13.735 Y48.606 I-0.344 J-0.677
X13.141 Y47.442 I-0.58 J-0.438
X11.75 Y49.005 Z-9.26 I0.027 J1.425 F333.3
G1 X12.625 Y57.949 Z-10.253
G2 X14.174 Y59.229 Z-10.5 I1.418 J-0.139
G1 X14.279 Y59.22 F1000
G3 X14.606 Y59.201 I0.457 J5.219
G2 X14.932 Y59.183 I-0.13 J-5.237
X15.369 Y59.103 I-0.209 J-2.386
G1 X16.936 Y58.665
G2 X17.35 Y58.506 I-0.646 J-2.306
G1 X18.809 Y57.786
G2 X19.187 Y57.553 I-1.06 J-2.147
G1 X20.488 Y56.576
G2 X20.816 Y56.277 I-1.439 J-1.915
G1 X21.914 Y55.077
G2 X22.182 Y54.723 I-1.767 J-1.616
G1 X23.04 Y53.341
G2 X23.238 Y52.943 I-2.035 J-1.262
G1 X23.826 Y51.426
G2 X23.947 Y50.999 I-2.233 J-0.865
G1 X24.244 Y49.4
G2 X24.285 Y48.958 I-2.355 J-0.438
G1 X24.282 Y47.331
G2 X24.24 Y46.889 I-2.395 J0.004
G1 X23.937 Y45.291
G2 X23.814 Y44.864 I-2.353 J0.446
G1 X23.221 Y43.349
G2 X23.022 Y42.953 I-2.23 J0.873
G1 X22.16 Y41.573
G2 X21.89 Y41.22 I-2.031 J1.269
G1 X20.788 Y40.023
G2 X20.459 Y39.726 I-1.762 J1.622
G1 X19.155 Y38.753
G2 X18.776 Y38.522 I-1.432 J1.92
G1 X17.315 Y37.807
G2 X16.899 Y37.649 I-1.053 J2.151
G1 X15.332 Y37.216
G2 X14.894 Y37.138 I-0.638 J2.309
G1 X13.273 Y37.002
G2 X12.829 Y37.006 I-0.201 J2.387
G1 X11.211 Y37.171
G2 X10.776 Y37.257 I0.243 J2.383
G1 X9.215 Y37.718
G2 X8.803 Y37.882 I0.679 J2.297
G1 X7.355 Y38.624
G2 X6.98 Y38.861 I1.091 J2.132
G1 X5.694 Y39.857
G2 X5.369 Y40.16 I1.466 J1.894
G1 X4.289 Y41.376
G2 X4.026 Y41.734 I1.79 J1.591
G1 X3.188 Y43.128
G2 X2.996 Y43.529 I2.053 J1.233
G1 X2.43 Y45.054
G2 X2.315 Y45.483 I2.245 J0.833
G1 X2.04 Y47.086
G2 X2.006 Y47.529 I2.361 J0.404
G1 X2.032 Y49.155
G2 X2.08 Y49.597 I2.395 J-0.038
G1 X2.406 Y51.19
G2 X2.535 Y51.615 I2.346 J-0.48
G1 X3.149 Y53.122
G2 X3.354 Y53.515 I2.218 J-0.905
X3.54 Y53.785 I4.399 J-2.838
G3 X3.726 Y54.054 I-4.213 J3.107
X4.914 Y56.14 I-18.248 J11.773
X5.884 Y58.338 I-22.949 J11.437
G2 X6.146 Y58.833 I2.234 J-0.863
G1 X6.314 Y59.078
G2 X6.883 Y59.66 I1.972 J-1.359
G1 X7.021 Y59.76
G2 X7.752 Y60.117 I1.403 J-1.941
G1 X7.915 Y60.165
G2 X8.724 Y60.258 I0.672 J-2.299
G1 X9.02 Y60.241
G2 X9.572 Y60.143 I-0.137 J-2.391
G3 X11.902 Y59.561 I7.374 J24.559
X14.174 Y59.229 I4.272 J21.29
G2 X16.246 Y57.404 I-0.216 J-2.333
G3 X17.804 Y55.125 I3.619 J0.804
G2 X19.712 Y42.961 I-4.654 J-6.962
X7.434 Y42.045 I-6.562 J5.202
X4.84 Y47.047 I5.752 J6.156
X6.058 Y52.549 I8.027 J1.109
G3 X7.345 Y54.826 I-18.842 J12.156
X8.4 Y57.22 I-28.492 J13.984
G2 X8.912 Y57.471 I0.393 J-0.154
G3 X11.449 Y56.836 I8.97 J30.445
X14.037 Y56.456 I4.545 J21.957
X14.345 Y56.436 I0.58 J6.625
G2 X14.651 Y56.402 I-0.091 J-2.216
X17.804 Y55.125 I-1.501 J-8.238
X18.645 Y52.703 I-1.181 J-1.766
G3 X18.682 Y50.14 I3.779 J-1.227
G2 X9.14 Y43.871 I-5.532 J-1.976
X7.315 Y47.356 I4.063 J4.348
X8.149 Y51.2 I5.534 J0.812
G3 X9.044 Y52.729 I-17.126 J11.049
X9.843 Y54.31 I-43.242 J22.844
G2 X10.324 Y54.546 I0.391 J-0.189
G3 X12.063 Y54.207 I10.223 J47.833
X13.82 Y53.976 I3.535 J20.07
G1 X14.012 Y53.964
X14.108 Y53.956
X14.203 Y53.942
G2 X18.682 Y50.14 I-1.053 J-5.779
X17.707 Y47.46 I-2.104 J-0.752
G3 X15.424 Y45.751 I6.375 J-10.895
G2 X9.855 Y48.524 I-2.274 J2.412
X10.388 Y50.05 I3.574 J-0.391
G3 X11.215 Y51.438 I-28.033 J17.662
G2 X11.752 Y51.7 I0.459 J-0.259
X12.672 Y51.555 I-7.377 J-49.852
G3 X13.597 Y51.438 I1.968 J11.788
G2 X13.973 Y51.374 I-0.208 J-2.374
X14.336 Y51.259 I-0.789 J-3.124
X16.336 Y47.247 I-1.186 J-3.095
X15.424 Y45.751 I-3.186 J0.917
X14.117 Y46.373 I-0.533 J0.565
G3 X13.141 Y47.442 I-0.995 J0.072
G2 X12.659 Y47.637 I0.014 J0.727
X12.428 Y48.115 I0.502 J0.537
X12.556 Y48.631 I0.833 J0.067
X13.146 Y48.92 I0.531 J-0.338
X13.474 Y48.825 I-0.086 J-0.909
X13.735 Y48.606 I-0.344 J-0.677
X13.141 Y47.442 I-0.58 J-0.438
X11.75 Y49.005 Z-10.76 I0.027 J1.425 F333.3
G1 X12.625 Y57.949 Z-11.753
G2 X14.174 Y59.229 Z-12 I1.418 J-0.139
G1 X14.279 Y59.22 F1000
G3 X14.606 Y59.201 I0.457 J5.219
G2 X14.932 Y59.183 I-0.13 J-5.237
X15.369 Y59.103 I-0.209 J-2.386
G1 X16.936 Y58.665
G2 X17.35 Y58.506 I-0.646 J-2.306
G1 X18.809 Y57.786
G2 X19.187 Y57.553 I-1.06 J-2.147
G1 X20.488 Y56.576
G2 X20.816 Y56.277 I-1.439 J-1.915
G1 X21.914 Y55.077
G2 X22.182 Y54.723 I-1.767 J-1.616
G1 X23.04 Y53.341
G2 X23.238 Y52.943 I-2.035 J-1.262
G1 X23.826 Y51.426
G2 X23.947 Y50.999 I-2.233 J-0.865
G1 X24.244 Y49.4
G2 X24.285 Y48.958 I-2.355 J-0.438
G1 X24.282 Y47.331
G2 X24.24 Y46.889 I-2.395 J0.004
G1 X23.937 Y45.291
G2 X23.814 Y44.864 I-2.353 J0.446
G1 X23.221 Y43.349
G2 X23.022 Y42.953 I-2.23 J0.873
G1 X22.16 Y41.573
G2 X21.89 Y41.22 I-2.031 J1.269
G1 X20.788 Y40.023
G2 X20.459 Y39.726 I-1.762 J1.622
G1 X19.155 Y38.753
G2 X18.776 Y38.522 I-1.432 J1.92
G1 X17.315 Y37.807
G2 X16.899 Y37.649 I-1.053 J2.151
G1 X15.332 Y37.216
G2 X14.894 Y37.138 I-0.638 J2.309
G1 X13.273 Y37.002
G2 X12.829 Y37.006 I-0.201 J2.387
G1 X11.211 Y37.171
G2 X10.776 Y37.257 I0.243 J2.383
G1 X9.215 Y37.718
G2 X8.803 Y37.882 I0.679 J2.297
G1 X7.355 Y38.624
G2 X6.98 Y38.861 I1.091 J2.132
G1 X5.694 Y39.857
G2 X5.369 Y40.16 I1.466 J1.894
G1 X4.289 Y41.376
G2 X4.026 Y41.734 I1.79 J1.591
G1 X3.188 Y43.128
G2 X2.996 Y43.529 I2.053 J1.233
G1 X2.43 Y45.054
G2 X2.315 Y45.483 I2.245 J0.833
G1 X2.04 Y47.086
G2 X2.006 Y47.529 I2.361 J0.404
G1 X2.032 Y49.155
G2 X2.08 Y49.597 I2.395 J-0.038
G1 X2.406 Y51.19
G2 X2.535 Y51.615 I2.346 J-0.48
G1 X3.149 Y53.122
G2 X3.354 Y53.515 I2.218 J-0.905
X3.54 Y53.785 I4.399 J-2.838
G3 X3.726 Y54.054 I-4.213 J3.107
X4.914 Y56.14 I-18.248 J11.773
X5.884 Y58.338 I-22.949 J11.437
G2 X6.146 Y58.833 I2.234 J-0.863
G1 X6.314 Y59.078
G2 X6.883 Y59.66 I1.972 J-1.359
G1 X7.021 Y59.76
G2 X7.752 Y60.117 I1.403 J-1.941
G1 X7.915 Y60.165
G2 X8.724 Y60.258 I0.672 J-2.299
G1 X9.02 Y60.241
G2 X9.572 Y60.143 I-0.137 J-2.391
G3 X11.902 Y59.561 I7.374 J24.559
X14.174 Y59.229 I4.272 J21.29
G2 X16.246 Y57.404 I-0.216 J-2.333
G3 X17.804 Y55.125 I3.619 J0.804
G2 X19.712 Y42.961 I-4.654 J-6.962
X7.434 Y42.045 I-6.562 J5.202
X4.84 Y47.047 I5.752 J6.156
X6.058 Y52.549 I8.027 J1.109
G3 X7.345 Y54.826 I-18.842 J12.156
X8.4 Y57.22 I-28.492 J13.984
G2 X8.912 Y57.471 I0.393 J-0.154
G3 X11.449 Y56.836 I8.97 J30.445
X14.037 Y56.456 I4.545 J21.957
X14.345 Y56.436 I0.58 J6.625
G2 X14.651 Y56.402 I-0.091 J-2.216
X17.804 Y55.125 I-1.501 J-8.238
X18.645 Y52.703 I-1.181 J-1.766
G3 X18.682 Y50.14 I3.779 J-1.227
G2 X9.14 Y43.871 I-5.532 J-1.976
X7.315 Y47.356 I4.063 J4.348
X8.149 Y51.2 I5.534 J0.812
G3 X9.044 Y52.729 I-17.126 J11.049
X9.843 Y54.31 I-43.242 J22.844
G2 X10.324 Y54.546 I0.391 J-0.189
G3 X12.063 Y54.207 I10.223 J47.833
X13.82 Y53.976 I3.535 J20.07
G1 X14.012 Y53.964
X14.108 Y53.956
X14.203 Y53.942
G2 X18.682 Y50.14 I-1.053 J-5.779
X17.707 Y47.46 I-2.104 J-0.752
G3 X15.424 Y45.751 I6.375 J-10.895
G2 X9.855 Y48.524 I-2.274 J2.412
X10.388 Y50.05 I3.574 J-0.391
G3 X11.215 Y51.438 I-28.033 J17.662
G2 X11.752 Y51.7 I0.459 J-0.259
X12.672 Y51.555 I-7.377 J-49.852
G3 X13.597 Y51.438 I1.968 J11.788
G2 X13.973 Y51.374 I-0.208 J-2.374
X14.336 Y51.259 I-0.789 J-3.124
X16.336 Y47.247 I-1.186 J-3.095
X15.424 Y45.751 I-3.186 J0.917
X14.117 Y46.373 I-0.533 J0.565
G3 X13.141 Y47.442 I-0.995 J0.072
G2 X12.659 Y47.637 I0.014 J0.727
X12.428 Y48.115 I0.502 J0.537
X12.556 Y48.631 I0.833 J0.067
X13.146 Y48.92 I0.531 J-0.338
X13.474 Y48.825 I-0.086 J-0.909
X13.735 Y48.606 I-0.344 J-0.677
X13.141 Y47.442 I-0.58 J-0.438
X11.75 Y49.005 Z-12.087 I0.027 J1.425 F333.3
G1 X12.625 Y57.949 Z-12.418
G2 X14.174 Y59.229 Z-12.5 I1.418 J-0.139
G1 X14.279 Y59.22 F1000
G3 X14.606 Y59.201 I0.457 J5.219
G2 X14.932 Y59.183 I-0.13 J-5.237
X15.369 Y59.103 I-0.209 J-2.386
G1 X16.936 Y58.665
G2 X17.35 Y58.506 I-0.646 J-2.306
G1 X18.809 Y57.786
G2 X19.187 Y57.553 I-1.06 J-2.147
G1 X20.488 Y56.576
G2 X20.816 Y56.277 I-1.439 J-1.915
G1 X21.914 Y55.077
G2 X22.182 Y54.723 I-1.767 J-1.616
G1 X23.04 Y53.341
G2 X23.238 Y52.943 I-2.035 J-1.262
G1 X23.826 Y51.426
G2 X23.947 Y50.999 I-2.233 J-0.865
G1 X24.244 Y49.4
G2 X24.285 Y48.958 I-2.355 J-0.438
G1 X24.282 Y47.331
G2 X24.24 Y46.889 I-2.395 J0.004
G1 X23.937 Y45.291
G2 X23.814 Y44.864 I-2.353 J0.446
G1 X23.221 Y43.349
G2 X23.022 Y42.953 I-2.23 J0.873
G1 X22.16 Y41.573
G2 X21.89 Y41.22 I-2.031 J1.269
G1 X20.788 Y40.023
G2 X20.459 Y39.726 I-1.762 J1.622
G1 X19.155 Y38.753
G2 X18.776 Y38.522 I-1.432 J1.92
G1 X17.315 Y37.807
G2 X16.899 Y37.649 I-1.053 J2.151
G1 X15.332 Y37.216
G2 X14.894 Y37.138 I-0.638 J2.309
G1 X13.273 Y37.002
G2 X12.829 Y37.006 I-0.201 J2.387
G1 X11.211 Y37.171
G2 X10.776 Y37.257 I0.243 J2.383
G1 X9.215 Y37.718
G2 X8.803 Y37.882 I0.679 J2.297
G1 X7.355 Y38.624
G2 X6.98 Y38.861 I1.091 J2.132
G1 X5.694 Y39.857
G2 X5.369 Y40.16 I1.466 J1.894
G1 X4.289 Y41.376
G2 X4.026 Y41.734 I1.79 J1.591
G1 X3.188 Y43.128
G2 X2.996 Y43.529 I2.053 J1.233
G1 X2.43 Y45.054
G2 X2.315 Y45.483 I2.245 J0.833
G1 X2.04 Y47.086
G2 X2.006 Y47.529 I2.361 J0.404
G1 X2.032 Y49.155
G2 X2.08 Y49.597 I2.395 J-0.038
G1 X2.406 Y51.19
G2 X2.535 Y51.615 I2.346 J-0.48
G1 X3.149 Y53.122
G2 X3.354 Y53.515 I2.218 J-0.905
X3.54 Y53.785 I4.399 J-2.838
G3 X3.726 Y54.054 I-4.213 J3.107
X4.914 Y56.14 I-18.248 J11.773
X5.884 Y58.338 I-22.949 J11.437
G2 X6.146 Y58.833 I2.234 J-0.863
G1 X6.314 Y59.078
G2 X6.883 Y59.66 I1.972 J-1.359
G1 X7.021 Y59.76
G2 X7.752 Y60.117 I1.403 J-1.941
G1 X7.915 Y60.165
G2 X8.724 Y60.258 I0.672 J-2.299
G1 X9.02 Y60.241
G2 X9.572 Y60.143 I-0.137 J-2.391
G3 X11.902 Y59.561 I7.374 J24.559
X14.174 Y59.229 I4.272 J21.29
G2 X16.246 Y57.404 I-0.216 J-2.333
G3 X17.804 Y55.125 I3.619 J0.804
G2 X19.712 Y42.961 I-4.654 J-6.962
X7.434 Y42.045 I-6.562 J5.202
X4.84 Y47.047 I5.752 J6.156
X6.058 Y52.549 I8.027 J1.109
G3 X7.345 Y54.826 I-18.842 J12.156
X8.4 Y57.22 I-28.492 J13.984
G2 X8.912 Y57.471 I0.393 J-0.154
G3 X11.449 Y56.836 I8.97 J30.445
X14.037 Y56.456 I4.545 J21.957
X14.345 Y56.436 I0.58 J6.625
G2 X14.651 Y56.402 I-0.091 J-2.216
X17.804 Y55.125 I-1.501 J-8.238
X18.645 Y52.703 I-1.181 J-1.766
G3 X18.682 Y50.14 I3.779 J-1.227
G2 X9.14 Y43.871 I-5.532 J-1.976
X7.315 Y47.356 I4.063 J4.348
X8.149 Y51.2 I5.534 J0.812
G3 X9.044 Y52.729 I-17.126 J11.049
X9.843 Y54.31 I-43.242 J22.844
G2 X10.324 Y54.546 I0.391 J-0.189
G3 X12.063 Y54.207 I10.223 J47.833
X13.82 Y53.976 I3.535 J20.07
G1 X14.012 Y53.964
X14.108 Y53.956
X14.203 Y53.942
G2 X18.682 Y50.14 I-1.053 J-5.779
X17.707 Y47.46 I-2.104 J-0.752
G3 X15.424 Y45.751 I6.375 J-10.895
G2 X9.855 Y48.524 I-2.274 J2.412
X10.388 Y50.05 I3.574 J-0.391
G3 X11.215 Y51.438 I-28.033 J17.662
G2 X11.752 Y51.7 I0.459 J-0.259
X12.672 Y51.555 I-7.377 J-49.852
G3 X13.597 Y51.438 I1.968 J11.788
G2 X13.973 Y51.374 I-0.208 J-2.374
X14.336 Y51.259 I-0.789 J-3.124
X16.336 Y47.247 I-1.186 J-3.095
X15.424 Y45.751 I-3.186 J0.917
X14.117 Y46.373 I-0.533 J0.565
G3 X13.141 Y47.442 I-0.995 J0.072
G2 X12.659 Y47.637 I0.014 J0.727
X12.428 Y48.115 I0.502 J0.537
X12.556 Y48.631 I0.833 J0.067
X13.146 Y48.92 I0.531 J-0.338
X13.474 Y48.825 I-0.086 J-0.909
X13.735 Y48.606 I-0.344 J-0.677
X13.141 Y47.442 I-0.58 J-0.438
G0 Z6
X186.548 Y90.903
Z2
G1 Z1.8 F500
G2 X188.155 Y88.549 Z1.011 I0.803 J-1.177 F333.3
X186.548 Y90.903 Z0.221 I-0.803 J1.177
X188.155 Y88.549 Z-0.568 I0.803 J-1.177
X186.548 Y90.903 Z-1.358 I-0.803 J1.177
X187.306 Y91.15 Z-1.5 I0.803 J-1.177
G3 X189.614 Y91.348 I-0.692 J21.685 F1000
X191.971 Y91.79 I-3.549 J25.422
G2 X192.528 Y91.854 I0.551 J-2.331
G1 X192.73
G2 X193.532 Y91.714 I-0.005 J-2.395
G1 X193.588 Y91.694
G2 X194.297 Y91.293 I-0.807 J-2.255
G1 X194.343 Y91.255
G2 X194.876 Y90.641 I-1.516 J-1.854
G1 X194.981 Y90.468
G2 X195.213 Y89.958 I-2.049 J-1.24
G3 X196.05 Y87.709 I24.446 J7.818
X197.111 Y85.558 I19.96 J8.511
X197.282 Y85.276 I4.598 J2.594
G2 X197.453 Y84.994 I-4.427 J-2.876
X197.634 Y84.589 I-2.086 J-1.177
G1 X198.139 Y83.105
G2 X198.243 Y82.673 I-2.267 J-0.772
G1 X198.465 Y81.122
G2 X198.487 Y80.679 I-2.371 J-0.34
G1 X198.419 Y79.113
G2 X198.359 Y78.673 I-2.393 J0.104
G1 X198.003 Y77.147
G2 X197.863 Y76.726 I-2.333 J0.543
G1 X197.232 Y75.291
G2 X197.016 Y74.903 I-2.192 J0.965
G1 X196.131 Y73.61
G2 X195.847 Y73.268 I-1.976 J1.353
G1 X194.738 Y72.161
G2 X194.397 Y71.877 I-1.693 J1.694
G1 X193.103 Y70.993
G2 X192.714 Y70.778 I-1.351 J1.978
G1 X191.279 Y70.148
G2 X190.858 Y70.008 I-0.963 J2.193
G1 X189.331 Y69.654
G2 X188.892 Y69.594 I-0.541 J2.333
G1 X187.326 Y69.527
G2 X186.882 Y69.55 I-0.102 J2.393
G1 X185.331 Y69.774
G2 X184.9 Y69.877 I0.342 J2.37
G1 X183.416 Y70.384
G2 X183.011 Y70.565 I0.774 J2.267
G1 X181.647 Y71.337
G2 X181.283 Y71.59 I1.179 J2.085
G1 X180.084 Y72.6
G2 X179.773 Y72.916 I1.543 J1.832
G1 X178.781 Y74.13
G2 X178.533 Y74.498 I1.855 J1.515
G1 X177.783 Y75.874
G2 X177.607 Y76.282 I2.103 J1.147
G1 X177.124 Y77.772
G2 X177.026 Y78.206 I2.278 J0.739
G1 X176.826 Y79.76
G2 X176.811 Y80.204 I2.375 J0.306
G1 X176.901 Y81.768
G2 X176.967 Y82.207 I2.391 J-0.138
G1 X177.345 Y83.728
G2 X177.491 Y84.147 I2.325 J-0.577
G1 X178.143 Y85.573
G2 X178.364 Y85.957 I2.178 J-0.996
G1 X179.268 Y87.238
G2 X179.556 Y87.575 I1.957 J-1.381
G1 X180.68 Y88.667
G2 X181.026 Y88.945 I1.668 J-1.718
G1 X182.333 Y89.811
G2 X182.724 Y90.021 I1.323 J-1.997
G1 X184.168 Y90.63
G2 X184.591 Y90.764 I0.931 J-2.207
G1 X186.123 Y91.096
G2 X186.563 Y91.15 I0.508 J-2.34
X186.894 Y91.149 I0.148 J-5.282
G3 X187.224 Y91.148 I0.182 J5.281
G1 X187.306 Y91.15
G2 X189.367 Y89.929 I0.071 J-2.229
G3 X191.521 Y88.88 I1.769 J0.896
X192.278 Y89.039 I-6.274 J31.684
G2 X192.698 Y88.802 I0.078 J-0.351
G3 X193.586 Y86.451 I30.635 J10.23
X194.695 Y84.195 I20.402 J8.629
X194.854 Y83.928 I5.838 J3.294
G2 X195 Y83.653 I-1.894 J-1.188
X195.29 Y77.817 I-7.35 J-3.289
X179.689 Y81.57 I-7.639 J2.547
X182.261 Y86.354 I7.985 J-1.21
X187.302 Y88.375 I5.261 J-5.826
G3 X189.806 Y88.588 I-0.622 J22.142
X191.521 Y88.88 I-4.559 J31.976
G2 X192.431 Y86.686 I0.235 J-1.188
G3 X191.788 Y84.4 I1.021 J-1.521
X192.519 Y82.968 I17.676 J8.128
G1 X192.619 Y82.8
X192.668 Y82.716
X192.711 Y82.628
G2 X192.91 Y78.61 I-5.061 J-2.265
X182.169 Y81.194 I-5.259 J1.753
X183.921 Y84.48 I5.529 J-0.838
X187.372 Y85.878 I3.601 J-3.931
G3 X189.01 Y85.993 I-0.547 J19.445
X190.639 Y86.202 I-6.21 J54.944
G2 X191.112 Y85.934 I0.063 J-0.441
G3 X191.773 Y84.431 I50.92 J21.498
G1 X191.788 Y84.4
G2 X191.553 Y81.969 I-2.205 J-1.014
G3 X190.562 Y79.737 I4.849 J-3.489
G2 X188.59 Y77.538 I-2.911 J0.627
X186.243 Y82.988 I-0.939 J2.826
X187.623 Y83.367 I1.522 J-2.839
G3 X189.051 Y83.456 I-1.797 J40.536
G2 X189.578 Y83.158 I0.043 J-0.539
X189.927 Y82.43 I-24.039 J-11.976
G3 X190.294 Y81.712 I8.989 J4.146
G2 X190.443 Y81.394 I-2.013 J-1.136
X190.546 Y81.058 I-2.608 J-0.986
X190.562 Y79.737 I-2.896 J-0.694
X188.931 Y79.078 I-1.039 J0.224
G3 X187.448 Y80.024 I-22.062 J-32.921
G2 X187.262 Y80.423 I0.206 J0.339
X187.415 Y80.678 I0.388 J-0.059
X187.695 Y80.777 I0.297 J-0.396
X187.981 Y80.615 I0.011 J-0.315
G1 X188.01 Y80.556
X188.031 Y80.495
X188.046 Y80.431
X188.051 Y80.366
X188.046 Y80.3
X188.03 Y80.237
G2 X187.448 Y80.024 I-0.376 J0.126
X186.77 Y81.102 Z-1.663 I0.74 J1.218 F333.3
G1 X185.934 Y89.586 Z-2.713
G2 X187.306 Y91.15 Z-3 I1.418 J0.14
G3 X189.614 Y91.348 I-0.692 J21.685 F1000
X191.971 Y91.79 I-3.549 J25.422
G2 X192.528 Y91.854 I0.551 J-2.331
G1 X192.73
G2 X193.532 Y91.714 I-0.005 J-2.395
G1 X193.588 Y91.694
G2 X194.297 Y91.293 I-0.807 J-2.255
G1 X194.343 Y91.255
G2 X194.876 Y90.641 I-1.516 J-1.854
G1 X194.981 Y90.468
G2 X195.213 Y89.958 I-2.049 J-1.24
G3 X196.05 Y87.709 I24.446 J7.818
X197.111 Y85.558 I19.96 J8.511
X197.282 Y85.276 I4.598 J2.594
G2 X197.453 Y84.994 I-4.427 J-2.876
X197.634 Y84.589 I-2.086 J-1.177
G1 X198.139 Y83.105
G2 X198.243 Y82.673 I-2.267 J-0.772
G1 X198.465 Y81.122
G2 X198.487 Y80.679 I-2.371 J-0.34
G1 X198.419 Y79.113
G2 X198.359 Y78.673 I-2.393 J0.104
G1 X198.003 Y77.147
G2 X197.863 Y76.726 I-2.333 J0.543
G1 X197.232 Y75.291
G2 X197.016 Y74.903 I-2.192 J0.965
G1 X196.131 Y73.61
G2 X195.847 Y73.268 I-1.976 J1.353
G1 X194.738 Y72.161
G2 X194.397 Y71.877 I-1.693 J1.694
G1 X193.103 Y70.993
G2 X192.714 Y70.778 I-1.351 J1.978
G1 X191.279 Y70.148
G2 X190.858 Y70.008 I-0.963 J2.193
G1 X189.331 Y69.654
G2 X188.892 Y69.594 I-0.541 J2.333
G1 X187.326 Y69.527
G2 X186.882 Y69.55 I-0.102 J2.393
G1 X185.331 Y69.774
G2 X184.9 Y69.877 I0.342 J2.37
G1 X183.416 Y70.384
G2 X183.011 Y70.565 I0.774 J2.267
G1 X181.647 Y71.337
G2 X181.283 Y71.59 I1.179 J2.085
G1 X180.084 Y72.6
G2 X179.773 Y72.916 I1.543 J1.832
G1 X178.781 Y74.13
G2 X178.533 Y74.498 I1.855 J1.515
G1 X177.783 Y75.874
G2 X177.607 Y76.282 I2.103 J1.147
G1 X177.124 Y77.772
G2 X177.026 Y78.206 I2.278 J0.739
G1 X176.826 Y79.76
G2 X176.811 Y80.204 I2.375 J0.306
G1 X176.901 Y81.768
G2 X176.967 Y82.207 I2.391 J-0.138
G1 X177.345 Y83.728
G2 X177.491 Y84.147 I2.325 J-0.577
G1 X178.143 Y85.573
G2 X178.364 Y85.957 I2.178 J-0.996
G1 X179.268 Y87.238
G2 X179.556 Y87.575 I1.957 J-1.381
G1 X180.68 Y88.667
G2 X181.026 Y88.945 I1.668 J-1.718
G1 X182.333 Y89.811
G2 X182.724 Y90.021 I1.323 J-1.997
G1 X184.168 Y90.63
G2 X184.591 Y90.764 I0.931 J-2.207
G1 X186.123 Y91.096
G2 X186.563 Y91.15 I0.508 J-2.34
X186.894 Y91.149 I0.148 J-5.282
G3 X187.224 Y91.148 I0.182 J5.281
G1 X187.306 Y91.15
G2 X189.367 Y89.929 I0.071 J-2.229
G3 X191.521 Y88.88 I1.769 J0.896
X192.278 Y89.039 I-6.274 J31.684
G2 X192.698 Y88.802 I0.078 J-0.351
G3 X193.586 Y86.451 I30.635 J10.23
X194.695 Y84.195 I20.402 J8.629
X194.854 Y83.928 I5.838 J3.294
G2 X195 Y83.653 I-1.894 J-1.188
X195.29 Y77.817 I-7.35 J-3.289
X179.689 Y81.57 I-7.639 J2.547
X182.261 Y86.354 I7.985 J-1.21
X187.302 Y88.375 I5.261 J-5.826
G3 X189.806 Y88.588 I-0.622 J22.142
X191.521 Y88.88 I-4.559 J31.976
G2 X192.431 Y86.686 I0.235 J-1.188
G3 X191.788 Y84.4 I1.021 J-1.521
X192.519 Y82.968 I17.676 J8.128
G1 X192.619 Y82.8
X192.668 Y82.716
X192.711 Y82.628
G2 X192.91 Y78.61 I-5.061 J-2.265
X182.169 Y81.194 I-5.259 J1.753
X183.921 Y84.48 I5.529 J-0.838
X187.372 Y85.878 I3.601 J-3.931
G3 X189.01 Y85.993 I-0.547 J19.445
X190.639 Y86.202 I-6.21 J54.944
G2 X191.112 Y85.934 I0.063 J-0.441
G3 X191.773 Y84.431 I50.92 J21.498
G1 X191.788 Y84.4
G2 X191.553 Y81.969 I-2.205 J-1.014
G3 X190.562 Y79.737 I4.849 J-3.489
G2 X188.59 Y77.538 I-2.911 J0.627
X186.243 Y82.988 I-0.939 J2.826
X187.623 Y83.367 I1.522 J-2.839
G3 X189.051 Y83.456 I-1.797 J40.536
G2 X189.578 Y83.158 I0.043 J-0.539
X189.927 Y82.43 I-24.039 J-11.976
G3 X190.294 Y81.712 I8.989 J4.146
G2 X190.443 Y81.394 I-2.013 J-1.136
X190.546 Y81.058 I-2.608 J-0.986
X190.562 Y79.737 I-2.896 J-0.694
X188.931 Y79.078 I-1.039 J0.224
G3 X187.448 Y80.024 I-22.062 J-32.921
G2 X187.262 Y80.423 I0.206 J0.339
X187.415 Y80.678 I0.388 J-0.059
X187.695 Y80.777 I0.297 J-0.396
X187.981 Y80.615 I0.011 J-0.315
G1 X188.01 Y80.556
X188.031 Y80.495
X188.046 Y80.431
X188.051 Y80.366
X188.046 Y80.3
X188.03 Y80.237
G2 X187.448 Y80.024 I-0.376 J0.126
X186.77 Y81.102 Z-3.163 I0.74 J1.218 F333.3
G1 X185.934 Y89.586 Z-4.213
G2 X187.306 Y91.15 Z-4.5 I1.418 J0.14
G3 X189.614 Y91.348 I-0.692 J21.685 F1000
X191.971 Y91.79 I-3.549 J25.422
G2 X192.528 Y91.854 I0.551 J-2.331
G1 X192.73
G2 X193.532 Y91.714 I-0.005 J-2.395
G1 X193.588 Y91.694
G2 X194.297 Y91.293 I-0.807 J-2.255
G1 X194.343 Y91.255
G2 X194.876 Y90.641 I-1.516 J-1.854
G1 X194.981 Y90.468
G2 X195.213 Y89.958 I-2.049 J-1.24
G3 X196.05 Y87.709 I24.446 J7.818
X197.111 Y85.558 I19.96 J8.511
X197.282 Y85.276 I4.598 J2.594
G2 X197.453 Y84.994 I-4.427 J-2.876
X197.634 Y84.589 I-2.086 J-1.177
G1 X198.139 Y83.105
G2 X198.243 Y82.673 I-2.267 J-0.772
G1 X198.465 Y81.122
G2 X198.487 Y80.679 I-2.371 J-0.34
G1 X198.419 Y79.113
G2 X198.359 Y78.673 I-2.393 J0.104
G1 X198.003 Y77.147
G2 X197.863 Y76.726 I-2.333 J0.543
G1 X197.232 Y75.291
G2 X197.016 Y74.903 I-2.192 J0.965
G1 X196.131 Y73.61
G2 X195.847 Y73.268 I-1.976 J1.353
G1 X194.738 Y72.161
G2 X194.397 Y71.877 I-1.693 J1.694
G1 X193.103 Y70.993
G2 X192.714 Y70.778 I-1.351 J1.978
G1 X191.279 Y70.148
G2 X190.858 Y70.008 I-0.963 J2.193
G1 X189.331 Y69.654
G2 X188.892 Y69.594 I-0.541 J2.333
G1 X187.326 Y69.527
G2 X186.882 Y69.55 I-0.102 J2.393
G1 X185.331 Y69.774
G2 X184.9 Y69.877 I0.342 J2.37
G1 X183.416 Y70.384
G2 X183.011 Y70.565 I0.774 J2.267
G1 X181.647 Y71.337
G2 X181.283 Y71.59 I1.179 J2.085
G1 X180.084 Y72.6
G2 X179.773 Y72.916 I1.543 J1.832
G1 X178.781 Y74.13
G2 X178.533 Y74.498 I1.855 J1.515
G1 X177.783 Y75.874
G2 X177.607 Y76.282 I2.103 J1.147
G1 X177.124 Y77.772
G2 X177.026 Y78.206 I2.278 J0.739
G1 X176.826 Y79.76
G2 X176.811 Y80.204 I2.375 J0.306
G1 X176.901 Y81.768
G2 X176.967 Y82.207 I2.391 J-0.138
G1 X177.345 Y83.728
G2 X177.491 Y84.147 I2.325 J-0.577
G1 X178.143 Y85.573
G2 X178.364 Y85.957 I2.178 J-0.996
G1 X179.268 Y87.238
G2 X179.556 Y87.575 I1.957 J-1.381
G1 X180.68 Y88.667
G2 X181.026 Y88.945 I1.668 J-1.718
G1 X182.333 Y89.811
G2 X182.724 Y90.021 I1.323 J-1.997
G1 X184.168 Y90.63
G2 X184.591 Y90.764 I0.931 J-2.207
G1 X186.123 Y91.096
G2 X186.563 Y91.15 I0.508 J-2.34
X186.894 Y91.149 I0.148 J-5.282
G3 X187.224 Y91.148 I0.182 J5.281
G1 X187.306 Y91.15
G2 X189.367 Y89.929 I0.071 J-2.229
G3 X191.521 Y88.88 I1.769 J0.896
X192.278 Y89.039 I-6.274 J31.684
G2 X192.698 Y88.802 I0.078 J-0.351
G3 X193.586 Y86.451 I30.635 J10.23
X194.695 Y84.195 I20.402 J8.629
X194.854 Y83.928 I5.838 J3.294
G2 X195 Y83.653 I-1.894 J-1.188
X195.29 Y77.817 I-7.35 J-3.289
X179.689 Y81.57 I-7.639 J2.547
X182.261 Y86.354 I7.985 J-1.21
X187.302 Y88.375 I5.261 J-5.826
G3 X189.806 Y88.588 I-0.622 J22.142
X191.521 Y88.88 I-4.559 J31.976
G2 X192.431 Y86.686 I0.235 J-1.188
G3 X191.788 Y84.4 I1.021 J-1.521
X192.519 Y82.968 I17.676 J8.128
G1 X192.619 Y82.8
X192.668 Y82.716
X192.711 Y82.628
G2 X192.91 Y78.61 I-5.061 J-2.265
X182.169 Y81.194 I-5.259 J1.753
X183.921 Y84.48 I5.529 J-0.838
X187.372 Y85.878 I3.601 J-3.931
G3 X189.01 Y85.993 I-0.547 J19.445
X190.639 Y86.202 I-6.21 J54.944
G2 X191.112 Y85.934 I0.063 J-0.441
G3 X191.773 Y84.431 I50.92 J21.498
G1 X191.788 Y84.4
G2 X191.553 Y81.969 I-2.205 J-1.014
G3 X190.562 Y79.737 I4.849 J-3.489
G2 X188.59 Y77.538 I-2.911 J0.627
X186.243 Y82.988 I-0.939 J2.826
X187.623 Y83.367 I1.522 J-2.839
G3 X189.051 Y83.456 I-1.797 J40.536
G2 X189.578 Y83.158 I0.043 J-0.539
X189.927 Y82.43 I-24.039 J-11.976
G3 X190.294 Y81.712 I8.989 J4.146
G2 X190.443 Y81.394 I-2.013 J-1.136
X190.546 Y81.058 I-2.608 J-0.986
X190.562 Y79.737 I-2.896 J-0.694
X188.931 Y79.078 I-1.039 J0.224
G3 X187.448 Y80.024 I-22.062 J-32.921
G2 X187.262 Y80.423 I0.206 J0.339
X187.415 Y80.678 I0.388 J-0.059
X187.695 Y80.777 I0.297 J-0.396
X187.981 Y80.615 I0.011 J-0.315
G1 X188.01 Y80.556
X188.031 Y80.495
X188.046 Y80.431
X188.051 Y80.366
X188.046 Y80.3
X188.03 Y80.237
G2 X187.448 Y80.024 I-0.376 J0.126
X186.77 Y81.102 Z-4.663 I0.74 J1.218 F333.3
G1 X185.934 Y89.586 Z-5.713
G2 X187.306 Y91.15 Z-6 I1.418 J0.14
G3 X189.614 Y91.348 I-0.692 J21.685 F1000
X191.971 Y91.79 I-3.549 J25.422
G2 X192.528 Y91.854 I0.551 J-2.331
G1 X192.73
G2 X193.532 Y91.714 I-0.005 J-2.395
G1 X193.588 Y91.694
G2 X194.297 Y91.293 I-0.807 J-2.255
G1 X194.343 Y91.255
G2 X194.876 Y90.641 I-1.516 J-1.854
G1 X194.981 Y90.468
G2 X195.213 Y89.958 I-2.049 J-1.24
G3 X196.05 Y87.709 I24.446 J7.818
X197.111 Y85.558 I19.96 J8.511
X197.282 Y85.276 I4.598 J2.594
G2 X197.453 Y84.994 I-4.427 J-2.876
X197.634 Y84.589 I-2.086 J-1.177
G1 X198.139 Y83.105
G2 X198.243 Y82.673 I-2.267 J-0.772
G1 X198.465 Y81.122
G2 X198.487 Y80.679 I-2.371 J-0.34
G1 X198.419 Y79.113
G2 X198.359 Y78.673 I-2.393 J0.104
G1 X198.003 Y77.147
G2 X197.863 Y76.726 I-2.333 J0.543
G1 X197.232 Y75.291
G2 X197.016 Y74.903 I-2.192 J0.965
G1 X196.131 Y73.61
G2 X195.847 Y73.268 I-1.976 J1.353
G1 X194.738 Y72.161
G2 X194.397 Y71.877 I-1.693 J1.694
G1 X193.103 Y70.993
G2 X192.714 Y70.778 I-1.351 J1.978
G1 X191.279 Y70.148
G2 X190.858 Y70.008 I-0.963 J2.193
G1 X189.331 Y69.654
G2 X188.892 Y69.594 I-0.541 J2.333
G1 X187.326 Y69.527
G2 X186.882 Y69.55 I-0.102 J2.393
G1 X185.331 Y69.774
G2 X184.9 Y69.877 I0.342 J2.37
G1 X183.416 Y70.384
G2 X183.011 Y70.565 I0.774 J2.267
G1 X181.647 Y71.337
G2 X181.283 Y71.59 I1.179 J2.085
G1 X180.084 Y72.6
G2 X179.773 Y72.916 I1.543 J1.832
G1 X178.781 Y74.13
G2 X178.533 Y74.498 I1.855 J1.515
G1 X177.783 Y75.874
G2 X177.607 Y76.282 I2.103 J1.147
G1 X177.124 Y77.772
G2 X177.026 Y78.206 I2.278 J0.739
G1 X176.826 Y79.76
G2 X176.811 Y80.204 I2.375 J0.306
G1 X176.901 Y81.768
G2 X176.967 Y82.207 I2.391 J-0.138
G1 X177.345 Y83.728
G2 X177.491 Y84.147 I2.325 J-0.577
G1 X178.143 Y85.573
G2 X178.364 Y85.957 I2.178 J-0.996
G1 X179.268 Y87.238
G2 X179.556 Y87.575 I1.957 J-1.381
G1 X180.68 Y88.667
G2 X181.026 Y88.945 I1.668 J-1.718
G1 X182.333 Y89.811
G2 X182.724 Y90.021 I1.323 J-1.997
G1 X184.168 Y90.63
G2 X184.591 Y90.764 I0.931 J-2.207
G1 X186.123 Y91.096
G2 X186.563 Y91.15 I0.508 J-2.34
X186.894 Y91.149 I0.148 J-5.282
G3 X187.224 Y91.148 I0.182 J5.281
G1 X187.306 Y91.15
G2 X189.367 Y89.929 I0.071 J-2.229
G3 X191.521 Y88.88 I1.769 J0.896
X192.278 Y89.039 I-6.274 J31.684
G2 X192.698 Y88.802 I0.078 J-0.351
G3 X193.586 Y86.451 I30.635 J10.23
X194.695 Y84.195 I20.402 J8.629
X194.854 Y83.928 I5.838 J3.294
G2 X195 Y83.653 I-1.894 J-1.188
X195.29 Y77.817 I-7.35 J-3.289
X179.689 Y81.57 I-7.639 J2.547
X182.261 Y86.354 I7.985 J-1.21
X187.302 Y88.375 I5.261 J-5.826
G3 X189.806 Y88.588 I-0.622 J22.142
X191.521 Y88.88 I-4.559 J31.976
G2 X192.431 Y86.686 I0.235 J-1.188
G3 X191.788 Y84.4 I1.021 J-1.521
X192.519 Y82.968 I17.676 J8.128
G1 X192.619 Y82.8
X192.668 Y82.716
X192.711 Y82.628
G2 X192.91 Y78.61 I-5.061 J-2.265
X182.169 Y81.194 I-5.259 J1.753
X183.921 Y84.48 I5.529 J-0.838
X187.372 Y85.878 I3.601 J-3.931
G3 X189.01 Y85.993 I-0.547 J19.445
X190.639 Y86.202 I-6.21 J54.944
G2 X191.112 Y85.934 I0.063 J-0.441
G3 X191.773 Y84.431 I50.92 J21.498
G1 X191.788 Y84.4
G2 X191.553 Y81.969 I-2.205 J-1.014
G3 X190.562 Y79.737 I4.849 J-3.489
G2 X188.59 Y77.538 I-2.911 J0.627
X186.243 Y82.988 I-0.939 J2.826
X187.623 Y83.367 I1.522 J-2.839
G3 X189.051 Y83.456 I-1.797 J40.536
G2 X189.578 Y83.158 I0.043 J-0.539
X189.927 Y82.43 I-24.039 J-11.976
G3 X190.294 Y81.712 I8.989 J4.146
G2 X190.443 Y81.394 I-2.013 J-1.136
X190.546 Y81.058 I-2.608 J-0.986
X190.562 Y79.737 I-2.896 J-0.694
X188.931 Y79.078 I-1.039 J0.224
G3 X187.448 Y80.024 I-22.062 J-32.921
G2 X187.262 Y80.423 I0.206 J0.339
X187.415 Y80.678 I0.388 J-0.059
X187.695 Y80.777 I0.297 J-0.396
X187.981 Y80.615 I0.011 J-0.315
G1 X188.01 Y80.556
X188.031 Y80.495
X188.046 Y80.431
X188.051 Y80.366
X188.046 Y80.3
X188.03 Y80.237
G2 X187.448 Y80.024 I-0.376 J0.126
X186.77 Y81.102 Z-6.163 I0.74 J1.218 F333.3
G1 X185.934 Y89.586 Z-7.213
G2 X187.306 Y91.15 Z-7.5 I1.418 J0.14
G3 X189.614 Y91.348 I-0.692 J21.685 F1000
X191.971 Y91.79 I-3.549 J25.422
G2 X192.528 Y91.854 I0.551 J-2.331
G1 X192.73
G2 X193.532 Y91.714 I-0.005 J-2.395
G1 X193.588 Y91.694
G2 X194.297 Y91.293 I-0.807 J-2.255
G1 X194.343 Y91.255
G2 X194.876 Y90.641 I-1.516 J-1.854
G1 X194.981 Y90.468
G2 X195.213 Y89.958 I-2.049 J-1.24
G3 X196.05 Y87.709 I24.446 J7.818
X197.111 Y85.558 I19.96 J8.511
X197.282 Y85.276 I4.598 J2.594
G2 X197.453 Y84.994 I-4.427 J-2.876
X197.634 Y84.589 I-2.086 J-1.177
G1 X198.139 Y83.105
G2 X198.243 Y82.673 I-2.267 J-0.772
G1 X198.465 Y81.122
G2 X198.487 Y80.679 I-2.371 J-0.34
G1 X198.419 Y79.113
G2 X198.359 Y78.673 I-2.393 J0.104
G1 X198.003 Y77.147
G2 X197.863 Y76.726 I-2.333 J0.543
G1 X197.232 Y75.291
G2 X197.016 Y74.903 I-2.192 J0.965
G1 X196.131 Y73.61
G2 X195.847 Y73.268 I-1.976 J1.353
G1 X194.738 Y72.161
G2 X194.397 Y71.877 I-1.693 J1.694
G1 X193.103 Y70.993
G2 X192.714 Y70.778 I-1.351 J1.978
G1 X191.279 Y70.148
G2 X190.858 Y70.008 I-0.963 J2.193
G1 X189.331 Y69.654
G2 X188.892 Y69.594 I-0.541 J2.333
G1 X187.326 Y69.527
G2 X186.882 Y69.55 I-0.102 J2.393
G1 X185.331 Y69.774
G2 X184.9 Y69.877 I0.342 J2.37
G1 X183.416 Y70.384
G2 X183.011 Y70.565 I0.774 J2.267
G1 X181.647 Y71.337
G2 X181.283 Y71.59 I1.179 J2.085
G1 X180.084 Y72.6
G2 X179.773 Y72.916 I1.543 J1.832
G1 X178.781 Y74.13
G2 X178.533 Y74.498 I1.855 J1.515
G1 X177.783 Y75.874
G2 X177.607 Y76.282 I2.103 J1.147
G1 X177.124 Y77.772
G2 X177.026 Y78.206 I2.278 J0.739
G1 X176.826 Y79.76
G2 X176.811 Y80.204 I2.375 J0.306
G1 X176.901 Y81.768
G2 X176.967 Y82.207 I2.391 J-0.138
G1 X177.345 Y83.728
G2 X177.491 Y84.147 I2.325 J-0.577
G1 X178.143 Y85.573
G2 X178.364 Y85.957 I2.178 J-0.996
G1 X179.268 Y87.238
G2 X179.556 Y87.575 I1.957 J-1.381
G1 X180.68 Y88.667
G2 X181.026 Y88.945 I1.668 J-1.718
G1 X182.333 Y89.811
G2 X182.724 Y90.021 I1.323 J-1.997
G1 X184.168 Y90.63
G2 X184.591 Y90.764 I0.931 J-2.207
G1 X186.123 Y91.096
G2 X186.563 Y91.15 I0.508 J-2.34
X186.894 Y91.149 I0.148 J-5.282
G3 X187.224 Y91.148 I0.182 J5.281
G1 X187.306 Y91.15
G2 X189.367 Y89.929 I0.071 J-2.229
G3 X191.521 Y88.88 I1.769 J0.896
X192.278 Y89.039 I-6.274 J31.684
G2 X192.698 Y88.802 I0.078 J-0.351
G3 X193.586 Y86.451 I30.635 J10.23
X194.695 Y84.195 I20.402 J8.629
X194.854 Y83.928 I5.838 J3.294
G2 X195 Y83.653 I-1.894 J-1.188
X195.29 Y77.817 I-7.35 J-3.289
X179.689 Y81.57 I-7.639 J2.547
X182.261 Y86.354 I7.985 J-1.21
X187.302 Y88.375 I5.261 J-5.826
G3 X189.806 Y88.588 I-0.622 J22.142
X191.521 Y88.88 I-4.559 J31.976
G2 X192.431 Y86.686 I0.235 J-1.188
G3 X191.788 Y84.4 I1.021 J-1.521
X192.519 Y82.968 I17.676 J8.128
G1 X192.619 Y82.8
X192.668 Y82.716
X192.711 Y82.628
G2 X192.91 Y78.61 I-5.061 J-2.265
X182.169 Y81.194 I-5.259 J1.753
X183.921 Y84.48 I5.529 J-0.838
X187.372 Y85.878 I3.601 J-3.931
G3 X189.01 Y85.993 I-0.547 J19.445
X190.639 Y86.202 I-6.21 J54.944
G2 X191.112 Y85.934 I0.063 J-0.441
G3 X191.773 Y84.431 I50.92 J21.498
G1 X191.788 Y84.4
G2 X191.553 Y81.969 I-2.205 J-1.014
G3 X190.562 Y79.737 I4.849 J-3.489
G2 X188.59 Y77.538 I-2.911 J0.627
X186.243 Y82.988 I-0.939 J2.826
X187.623 Y83.367 I1.522 J-2.839
G3 X189.051 Y83.456 I-1.797 J40.536
G2 X189.578 Y83.158 I0.043 J-0.539
X189.927 Y82.43 I-24.039 J-11.976
G3 X190.294 Y81.712 I8.989 J4.146
G2 X190.443 Y81.394 I-2.013 J-1.136
X190.546 Y81.058 I-2.608 J-0.986
X190.562 Y79.737 I-2.896 J-0.694
X188.931 Y79.078 I-1.039 J0.224
G3 X187.448 Y80.024 I-22.062 J-32.921
G2 X187.262 Y80.423 I0.206 J0.339
X187.415 Y80.678 I0.388 J-0.059
X187.695 Y80.777 I0.297 J-0.396
X187.981 Y80.615 I0.011 J-0.315
G1 X188.01 Y80.556
X188.031 Y80.495
X188.046 Y80.431
X188.051 Y80.366
X188.046 Y80.3
X188.03 Y80.237
G2 X187.448 Y80.024 I-0.376 J0.126
X186.77 Y81.102 Z-7.663 I0.74 J1.218 F333.3
G1 X185.934 Y89.586 Z-8.713
G2 X187.306 Y91.15 Z-9 I1.418 J0.14
G3 X189.614 Y91.348 I-0.692 J21.685 F1000
X191.971 Y91.79 I-3.549 J25.422
G2 X192.528 Y91.854 I0.551 J-2.331
G1 X192.73
G2 X193.532 Y91.714 I-0.005 J-2.395
G1 X193.588 Y91.694
G2 X194.297 Y91.293 I-0.807 J-2.255
G1 X194.343 Y91.255
G2 X194.876 Y90.641 I-1.516 J-1.854
G1 X194.981 Y90.468
G2 X195.213 Y89.958 I-2.049 J-1.24
G3 X196.05 Y87.709 I24.446 J7.818
X197.111 Y85.558 I19.96 J8.511
X197.282 Y85.276 I4.598 J2.594
G2 X197.453 Y84.994 I-4.427 J-2.876
X197.634 Y84.589 I-2.086 J-1.177
G1 X198.139 Y83.105
G2 X198.243 Y82.673 I-2.267 J-0.772
G1 X198.465 Y81.122
G2 X198.487 Y80.679 I-2.371 J-0.34
G1 X198.419 Y79.113
G2 X198.359 Y78.673 I-2.393 J0.104
G1 X198.003 Y77.147
G2 X197.863 Y76.726 I-2.333 J0.543
G1 X197.232 Y75.291
G2 X197.016 Y74.903 I-2.192 J0.965
G1 X196.131 Y73.61
G2 X195.847 Y73.268 I-1.976 J1.353
G1 X194.738 Y72.161
G2 X194.397 Y71.877 I-1.693 J1.694
G1 X193.103 Y70.993
G2 X192.714 Y70.778 I-1.351 J1.978
G1 X191.279 Y70.148
G2 X190.858 Y70.008 I-0.963 J2.193
G1 X189.331 Y69.654
G2 X188.892 Y69.594 I-0.541 J2.333
G1 X187.326 Y69.527
G2 X186.882 Y69.55 I-0.102 J2.393
G1 X185.331 Y69.774
G2 X184.9 Y69.877 I0.342 J2.37
G1 X183.416 Y70.384
G2 X183.011 Y70.565 I0.774 J2.267
G1 X181.647 Y71.337
G2 X181.283 Y71.59 I1.179 J2.085
G1 X180.084 Y72.6
G2 X179.773 Y72.916 I1.543 J1.832
G1 X178.781 Y74.13
G2 X178.533 Y74.498 I1.855 J1.515
G1 X177.783 Y75.874
G2 X177.607 Y76.282 I2.103 J1.147
G1 X177.124 Y77.772
G2 X177.026 Y78.206 I2.278 J0.739
G1 X176.826 Y79.76
G2 X176.811 Y80.204 I2.375 J0.306
G1 X176.901 Y81.768
G2 X176.967 Y82.207 I2.391 J-0.138
G1 X177.345 Y83.728
G2 X177.491 Y84.147 I2.325 J-0.577
G1 X178.143 Y85.573
G2 X178.364 Y85.957 I2.178 J-0.996
G1 X179.268 Y87.238
G2 X179.556 Y87.575 I1.957 J-1.381
G1 X180.68 Y88.667
G2 X181.026 Y88.945 I1.668 J-1.718
G1 X182.333 Y89.811
G2 X182.724 Y90.021 I1.323 J-1.997
G1 X184.168 Y90.63
G2 X184.591 Y90.764 I0.931 J-2.207
G1 X186.123 Y91.096
G2 X186.563 Y91.15 I0.508 J-2.34
X186.894 Y91.149 I0.148 J-5.282
G3 X187.224 Y91.148 I0.182 J5.281
G1 X187.306 Y91.15
G2 X189.367 Y89.929 I0.071 J-2.229
G3 X191.521 Y88.88 I1.769 J0.896
X192.278 Y89.039 I-6.274 J31.684
G2 X192.698 Y88.802 I0.078 J-0.351
G3 X193.586 Y86.451 I30.635 J10.23
X194.695 Y84.195 I20.402 J8.629
X194.854 Y83.928 I5.838 J3.294
G2 X195 Y83.653 I-1.894 J-1.188
X195.29 Y77.817 I-7.35 J-3.289
X179.689 Y81.57 I-7.639 J2.547
X182.261 Y86.354 I7.985 J-1.21
X187.302 Y88.375 I5.261 J-5.826
G3 X189.806 Y88.588 I-0.622 J22.142
X191.521 Y88.88 I-4.559 J31.976
G2 X192.431 Y86.686 I0.235 J-1.188
G3 X191.788 Y84.4 I1.021 J-1.521
X192.519 Y82.968 I17.676 J8.128
G1 X192.619 Y82.8
X192.668 Y82.716
X192.711 Y82.628
G2 X192.91 Y78.61 I-5.061 J-2.265
X182.169 Y81.194 I-5.259 J1.753
X183.921 Y84.48 I5.529 J-0.838
X187.372 Y85.878 I3.601 J-3.931
G3 X189.01 Y85.993 I-0.547 J19.445
X190.639 Y86.202 I-6.21 J54.944
G2 X191.112 Y85.934 I0.063 J-0.441
G3 X191.773 Y84.431 I50.92 J21.498
G1 X191.788 Y84.4
G2 X191.553 Y81.969 I-2.205 J-1.014
G3 X190.562 Y79.737 I4.849 J-3.489
G2 X188.59 Y77.538 I-2.911 J0.627
X186.243 Y82.988 I-0.939 J2.826
X187.623 Y83.367 I1.522 J-2.839
G3 X189.051 Y83.456 I-1.797 J40.536
G2 X189.578 Y83.158 I0.043 J-0.539
X189.927 Y82.43 I-24.039 J-11.976
G3 X190.294 Y81.712 I8.989 J4.146
G2 X190.443 Y81.394 I-2.013 J-1.136
X190.546 Y81.058 I-2.608 J-0.986
X190.562 Y79.737 I-2.896 J-0.694
X188.931 Y79.078 I-1.039 J0.224
G3 X187.448 Y80.024 I-22.062 J-32.921
G2 X187.262 Y80.423 I0.206 J0.339
X187.415 Y80.678 I0.388 J-0.059
X187.695 Y80.777 I0.297 J-0.396
X187.981 Y80.615 I0.011 J-0.315
G1 X188.01 Y80.556
X188.031 Y80.495
X188.046 Y80.431
X188.051 Y80.366
X188.046 Y80.3
X188.03 Y80.237
G2 X187.448 Y80.024 I-0.376 J0.126
X186.77 Y81.102 Z-9.163 I0.74 J1.218 F333.3
G1 X185.934 Y89.586 Z-10.213
G2 X187.306 Y91.15 Z-10.5 I1.418 J0.14
G3 X189.614 Y91.348 I-0.692 J21.685 F1000
X191.971 Y91.79 I-3.549 J25.422
G2 X192.528 Y91.854 I0.551 J-2.331
G1 X192.73
G2 X193.532 Y91.714 I-0.005 J-2.395
G1 X193.588 Y91.694
G2 X194.297 Y91.293 I-0.807 J-2.255
G1 X194.343 Y91.255
G2 X194.876 Y90.641 I-1.516 J-1.854
G1 X194.981 Y90.468
G2 X195.213 Y89.958 I-2.049 J-1.24
G3 X196.05 Y87.709 I24.446 J7.818
X197.111 Y85.558 I19.96 J8.511
X197.282 Y85.276 I4.598 J2.594
G2 X197.453 Y84.994 I-4.427 J-2.876
X197.634 Y84.589 I-2.086 J-1.177
G1 X198.139 Y83.105
G2 X198.243 Y82.673 I-2.267 J-0.772
G1 X198.465 Y81.122
G2 X198.487 Y80.679 I-2.371 J-0.34
G1 X198.419 Y79.113
G2 X198.359 Y78.673 I-2.393 J0.104
G1 X198.003 Y77.147
G2 X197.863 Y76.726 I-2.333 J0.543
G1 X197.232 Y75.291
G2 X197.016 Y74.903 I-2.192 J0.965
G1 X196.131 Y73.61
G2 X195.847 Y73.268 I-1.976 J1.353
G1 X194.738 Y72.161
G2 X194.397 Y71.877 I-1.693 J1.694
G1 X193.103 Y70.993
G2 X192.714 Y70.778 I-1.351 J1.978
G1 X191.279 Y70.148
G2 X190.858 Y70.008 I-0.963 J2.193
G1 X189.331 Y69.654
G2 X188.892 Y69.594 I-0.541 J2.333
G1 X187.326 Y69.527
G2 X186.882 Y69.55 I-0.102 J2.393
G1 X185.331 Y69.774
G2 X184.9 Y69.877 I0.342 J2.37
G1 X183.416 Y70.384
G2 X183.011 Y70.565 I0.774 J2.267
G1 X181.647 Y71.337
G2 X181.283 Y71.59 I1.179 J2.085
G1 X180.084 Y72.6
G2 X179.773 Y72.916 I1.543 J1.832
G1 X178.781 Y74.13
G2 X178.533 Y74.498 I1.855 J1.515
G1 X177.783 Y75.874
G2 X177.607 Y76.282 I2.103 J1.147
G1 X177.124 Y77.772
G2 X177.026 Y78.206 I2.278 J0.739
G1 X176.826 Y79.76
G2 X176.811 Y80.204 I2.375 J0.306
G1 X176.901 Y81.768
G2 X176.967 Y82.207 I2.391 J-0.138
G1 X177.345 Y83.728
G2 X177.491 Y84.147 I2.325 J-0.577
G1 X178.143 Y85.573
G2 X178.364 Y85.957 I2.178 J-0.996
G1 X179.268 Y87.238
G2 X179.556 Y87.575 I1.957 J-1.381
G1 X180.68 Y88.667
G2 X181.026 Y88.945 I1.668 J-1.718
G1 X182.333 Y89.811
G2 X182.724 Y90.021 I1.323 J-1.997
G1 X184.168 Y90.63
G2 X184.591 Y90.764 I0.931 J-2.207
G1 X186.123 Y91.096
G2 X186.563 Y91.15 I0.508 J-2.34
X186.894 Y91.149 I0.148 J-5.282
G3 X187.224 Y91.148 I0.182 J5.281
G1 X187.306 Y91.15
G2 X189.367 Y89.929 I0.071 J-2.229
G3 X191.521 Y88.88 I1.769 J0.896
X192.278 Y89.039 I-6.274 J31.684
G2 X192.698 Y88.802 I0.078 J-0.351
G3 X193.586 Y86.451 I30.635 J10.23
X194.695 Y84.195 I20.402 J8.629
X194.854 Y83.928 I5.838 J3.294
G2 X195 Y83.653 I-1.894 J-1.188
X195.29 Y77.817 I-7.35 J-3.289
X179.689 Y81.57 I-7.639 J2.547
X182.261 Y86.354 I7.985 J-1.21
X187.302 Y88.375 I5.261 J-5.826
G3 X189.806 Y88.588 I-0.622 J22.142
X191.521 Y88.88 I-4.559 J31.976
G2 X192.431 Y86.686 I0.235 J-1.188
G3 X191.788 Y84.4 I1.021 J-1.521
X192.519 Y82.968 I17.676 J8.128
G1 X192.619 Y82.8
X192.668 Y82.716
X192.711 Y82.628
G2 X192.91 Y78.61 I-5.061 J-2.265
X182.169 Y81.194 I-5.259 J1.753
X183.921 Y84.48 I5.529 J-0.838
X187.372 Y85.878 I3.601 J-3.931
G3 X189.01 Y85.993 I-0.547 J19.445
X190.639 Y86.202 I-6.21 J54.944
G2 X191.112 Y85.934 I0.063 J-0.441
G3 X191.773 Y84.431 I50.92 J21.498
G1 X191.788 Y84.4
G2 X191.553 Y81.969 I-2.205 J-1.014
G3 X190.562 Y79.737 I4.849 J-3.489
G2 X188.59 Y77.538 I-2.911 J0.627
X186.243 Y82.988 I-0.939 J2.826
X187.623 Y83.367 I1.522 J-2.839
G3 X189.051 Y83.456 I-1.797 J40.536
G2 X189.578 Y83.158 I0.043 J-0.539
X189.927 Y82.43 I-24.039 J-11.976
G3 X190.294 Y81.712 I8.989 J4.146
G2 X190.443 Y81.394 I-2.013 J-1.136
X190.546 Y81.058 I-2.608 J-0.986
X190.562 Y79.737 I-2.896 J-0.694
X188.931 Y79.078 I-1.039 J0.224
G3 X187.448 Y80.024 I-22.062 J-32.921
G2 X187.262 Y80.423 I0.206 J0.339
X187.415 Y80.678 I0.388 J-0.059
X187.695 Y80.777 I0.297 J-0.396
X187.981 Y80.615 I0.011 J-0.315
G1 X188.01 Y80.556
X188.031 Y80.495
X188.046 Y80.431
X188.051 Y80.366
X188.046 Y80.3
X188.03 Y80.237
G2 X187.448 Y80.024 I-0.376 J0.126
X186.77 Y81.102 Z-10.663 I0.74 J1.218 F333.3
G1 X185.934 Y89.586 Z-11.713
G2 X187.306 Y91.15 Z-12 I1.418 J0.14
G3 X189.614 Y91.348 I-0.692 J21.685 F1000
X191.971 Y91.79 I-3.549 J25.422
G2 X192.528 Y91.854 I0.551 J-2.331
G1 X192.73
G2 X193.532 Y91.714 I-0.005 J-2.395
G1 X193.588 Y91.694
G2 X194.297 Y91.293 I-0.807 J-2.255
G1 X194.343 Y91.255
G2 X194.876 Y90.641 I-1.516 J-1.854
G1 X194.981 Y90.468
G2 X195.213 Y89.958 I-2.049 J-1.24
G3 X196.05 Y87.709 I24.446 J7.818
X197.111 Y85.558 I19.96 J8.511
X197.282 Y85.276 I4.598 J2.594
G2 X197.453 Y84.994 I-4.427 J-2.876
X197.634 Y84.589 I-2.086 J-1.177
G1 X198.139 Y83.105
G2 X198.243 Y82.673 I-2.267 J-0.772
G1 X198.465 Y81.122
G2 X198.487 Y80.679 I-2.371 J-0.34
G1 X198.419 Y79.113
G2 X198.359 Y78.673 I-2.393 J0.104
G1 X198.003 Y77.147
G2 X197.863 Y76.726 I-2.333 J0.543
G1 X197.232 Y75.291
G2 X197.016 Y74.903 I-2.192 J0.965
G1 X196.131 Y73.61
G2 X195.847 Y73.268 I-1.976 J1.353
G1 X194.738 Y72.161
G2 X194.397 Y71.877 I-1.693 J1.694
G1 X193.103 Y70.993
G2 X192.714 Y70.778 I-1.351 J1.978
G1 X191.279 Y70.148
G2 X190.858 Y70.008 I-0.963 J2.193
G1 X189.331 Y69.654
G2 X188.892 Y69.594 I-0.541 J2.333
G1 X187.326 Y69.527
G2 X186.882 Y69.55 I-0.102 J2.393
G1 X185.331 Y69.774
G2 X184.9 Y69.877 I0.342 J2.37
G1 X183.416 Y70.384
G2 X183.011 Y70.565 I0.774 J2.267
G1 X181.647 Y71.337
G2 X181.283 Y71.59 I1.179 J2.085
G1 X180.084 Y72.6
G2 X179.773 Y72.916 I1.543 J1.832
G1 X178.781 Y74.13
G2 X178.533 Y74.498 I1.855 J1.515
G1 X177.783 Y75.874
G2 X177.607 Y76.282 I2.103 J1.147
G1 X177.124 Y77.772
G2 X177.026 Y78.206 I2.278 J0.739
G1 X176.826 Y79.76
G2 X176.811 Y80.204 I2.375 J0.306
G1 X176.901 Y81.768
G2 X176.967 Y82.207 I2.391 J-0.138
G1 X177.345 Y83.728
G2 X177.491 Y84.147 I2.325 J-0.577
G1 X178.143 Y85.573
G2 X178.364 Y85.957 I2.178 J-0.996
G1 X179.268 Y87.238
G2 X179.556 Y87.575 I1.957 J-1.381
G1 X180.68 Y88.667
G2 X181.026 Y88.945 I1.668 J-1.718
G1 X182.333 Y89.811
G2 X182.724 Y90.021 I1.323 J-1.997
G1 X184.168 Y90.63
G2 X184.591 Y90.764 I0.931 J-2.207
G1 X186.123 Y91.096
G2 X186.563 Y91.15 I0.508 J-2.34
X186.894 Y91.149 I0.148 J-5.282
G3 X187.224 Y91.148 I0.182 J5.281
G1 X187.306 Y91.15
G2 X189.367 Y89.929 I0.071 J-2.229
G3 X191.521 Y88.88 I1.769 J0.896
X192.278 Y89.039 I-6.274 J31.684
G2 X192.698 Y88.802 I0.078 J-0.351
G3 X193.586 Y86.451 I30.635 J10.23
X194.695 Y84.195 I20.402 J8.629
X194.854 Y83.928 I5.838 J3.294
G2 X195 Y83.653 I-1.894 J-1.188
X195.29 Y77.817 I-7.35 J-3.289
X179.689 Y81.57 I-7.639 J2.547
X182.261 Y86.354 I7.985 J-1.21
X187.302 Y88.375 I5.261 J-5.826
G3 X189.806 Y88.588 I-0.622 J22.142
X191.521 Y88.88 I-4.559 J31.976
G2 X192.431 Y86.686 I0.235 J-1.188
G3 X191.788 Y84.4 I1.021 J-1.521
X192.519 Y82.968 I17.676 J8.128
G1 X192.619 Y82.8
X192.668 Y82.716
X192.711 Y82.628
G2 X192.91 Y78.61 I-5.061 J-2.265
X182.169 Y81.194 I-5.259 J1.753
X183.921 Y84.48 I5.529 J-0.838
X187.372 Y85.878 I3.601 J-3.931
G3 X189.01 Y85.993 I-0.547 J19.445
X190.639 Y86.202 I-6.21 J54.944
G2 X191.112 Y85.934 I0.063 J-0.441
G3 X191.773 Y84.431 I50.92 J21.498
G1 X191.788 Y84.4
G2 X191.553 Y81.969 I-2.205 J-1.014
G3 X190.562 Y79.737 I4.849 J-3.489
G2 X188.59 Y77.538 I-2.911 J0.627
X186.243 Y82.988 I-0.939 J2.826
X187.623 Y83.367 I1.522 J-2.839
G3 X189.051 Y83.456 I-1.797 J40.536
G2 X189.578 Y83.158 I0.043 J-0.539
X189.927 Y82.43 I-24.039 J-11.976
G3 X190.294 Y81.712 I8.989 J4.146
G2 X190.443 Y81.394 I-2.013 J-1.136
X190.546 Y81.058 I-2.608 J-0.986
X190.562 Y79.737 I-2.896 J-0.694
X188.931 Y79.078 I-1.039 J0.224
G3 X187.448 Y80.024 I-22.062 J-32.921
G2 X187.262 Y80.423 I0.206 J0.339
X187.415 Y80.678 I0.388 J-0.059
X187.695 Y80.777 I0.297 J-0.396
X187.981 Y80.615 I0.011 J-0.315
G1 X188.01 Y80.556
X188.031 Y80.495
X188.046 Y80.431
X188.051 Y80.366
X188.046 Y80.3
X188.03 Y80.237
G2 X187.448 Y80.024 I-0.376 J0.126
X186.77 Y81.102 Z-12.054 I0.74 J1.218 F333.3
G1 X185.934 Y89.586 Z-12.404
G2 X187.306 Y91.15 Z-12.5 I1.418 J0.14
G3 X189.614 Y91.348 I-0.692 J21.685 F1000
X191.971 Y91.79 I-3.549 J25.422
G2 X192.528 Y91.854 I0.551 J-2.331
G1 X192.73
G2 X193.532 Y91.714 I-0.005 J-2.395
G1 X193.588 Y91.694
G2 X194.297 Y91.293 I-0.807 J-2.255
G1 X194.343 Y91.255
G2 X194.876 Y90.641 I-1.516 J-1.854
G1 X194.981 Y90.468
G2 X195.213 Y89.958 I-2.049 J-1.24
G3 X196.05 Y87.709 I24.446 J7.818
X197.111 Y85.558 I19.96 J8.511
X197.282 Y85.276 I4.598 J2.594
G2 X197.453 Y84.994 I-4.427 J-2.876
X197.634 Y84.589 I-2.086 J-1.177
G1 X198.139 Y83.105
G2 X198.243 Y82.673 I-2.267 J-0.772
G1 X198.465 Y81.122
G2 X198.487 Y80.679 I-2.371 J-0.34
G1 X198.419 Y79.113
G2 X198.359 Y78.673 I-2.393 J0.104
G1 X198.003 Y77.147
G2 X197.863 Y76.726 I-2.333 J0.543
G1 X197.232 Y75.291
G2 X197.016 Y74.903 I-2.192 J0.965
G1 X196.131 Y73.61
G2 X195.847 Y73.268 I-1.976 J1.353
G1 X194.738 Y72.161
G2 X194.397 Y71.877 I-1.693 J1.694
G1 X193.103 Y70.993
G2 X192.714 Y70.778 I-1.351 J1.978
G1 X191.279 Y70.148
G2 X190.858 Y70.008 I-0.963 J2.193
G1 X189.331 Y69.654
G2 X188.892 Y69.594 I-0.541 J2.333
G1 X187.326 Y69.527
G2 X186.882 Y69.55 I-0.102 J2.393
G1 X185.331 Y69.774
G2 X184.9 Y69.877 I0.342 J2.37
G1 X183.416 Y70.384
G2 X183.011 Y70.565 I0.774 J2.267
G1 X181.647 Y71.337
G2 X181.283 Y71.59 I1.179 J2.085
G1 X180.084 Y72.6
G2 X179.773 Y72.916 I1.543 J1.832
G1 X178.781 Y74.13
G2 X178.533 Y74.498 I1.855 J1.515
G1 X177.783 Y75.874
G2 X177.607 Y76.282 I2.103 J1.147
G1 X177.124 Y77.772
G2 X177.026 Y78.206 I2.278 J0.739
G1 X176.826 Y79.76
G2 X176.811 Y80.204 I2.375 J0.306
G1 X176.901 Y81.768
G2 X176.967 Y82.207 I2.391 J-0.138
G1 X177.345 Y83.728
G2 X177.491 Y84.147 I2.325 J-0.577
G1 X178.143 Y85.573
G2 X178.364 Y85.957 I2.178 J-0.996
G1 X179.268 Y87.238
G2 X179.556 Y87.575 I1.957 J-1.381
G1 X180.68 Y88.667
G2 X181.026 Y88.945 I1.668 J-1.718
G1 X182.333 Y89.811
G2 X182.724 Y90.021 I1.323 J-1.997
G1 X184.168 Y90.63
G2 X184.591 Y90.764 I0.931 J-2.207
G1 X186.123 Y91.096
G2 X186.563 Y91.15 I0.508 J-2.34
X186.894 Y91.149 I0.148 J-5.282
G3 X187.224 Y91.148 I0.182 J5.281
G1 X187.306 Y91.15
G2 X189.367 Y89.929 I0.071 J-2.229
G3 X191.521 Y88.88 I1.769 J0.896
X192.278 Y89.039 I-6.274 J31.684
G2 X192.698 Y88.802 I0.078 J-0.351
G3 X193.586 Y86.451 I30.635 J10.23
X194.695 Y84.195 I20.402 J8.629
X194.854 Y83.928 I5.838 J3.294
G2 X195 Y83.653 I-1.894 J-1.188
X195.29 Y77.817 I-7.35 J-3.289
X179.689 Y81.57 I-7.639 J2.547
X182.261 Y86.354 I7.985 J-1.21
X187.302 Y88.375 I5.261 J-5.826
G3 X189.806 Y88.588 I-0.622 J22.142
X191.521 Y88.88 I-4.559 J31.976
G2 X192.431 Y86.686 I0.235 J-1.188
G3 X191.788 Y84.4 I1.021 J-1.521
X192.519 Y82.968 I17.676 J8.128
G1 X192.619 Y82.8
X192.668 Y82.716
X192.711 Y82.628
G2 X192.91 Y78.61 I-5.061 J-2.265
X182.169 Y81.194 I-5.259 J1.753
X183.921 Y84.48 I5.529 J-0.838
X187.372 Y85.878 I3.601 J-3.931
G3 X189.01 Y85.993 I-0.547 J19.445
X190.639 Y86.202 I-6.21 J54.944
G2 X191.112 Y85.934 I0.063 J-0.441
G3 X191.773 Y84.431 I50.92 J21.498
G1 X191.788 Y84.4
G2 X191.553 Y81.969 I-2.205 J-1.014
G3 X190.562 Y79.737 I4.849 J-3.489
G2 X188.59 Y77.538 I-2.911 J0.627
X186.243 Y82.988 I-0.939 J2.826
X187.623 Y83.367 I1.522 J-2.839
G3 X189.051 Y83.456 I-1.797 J40.536
G2 X189.578 Y83.158 I0.043 J-0.539
X189.927 Y82.43 I-24.039 J-11.976
G3 X190.294 Y81.712 I8.989 J4.146
G2 X190.443 Y81.394 I-2.013 J-1.136
X190.546 Y81.058 I-2.608 J-0.986
X190.562 Y79.737 I-2.896 J-0.694
X188.931 Y79.078 I-1.039 J0.224
G3 X187.448 Y80.024 I-22.062 J-32.921
G2 X187.262 Y80.423 I0.206 J0.339
X187.415 Y80.678 I0.388 J-0.059
X187.695 Y80.777 I0.297 J-0.396
X187.981 Y80.615 I0.011 J-0.315
G1 X188.01 Y80.556
X188.031 Y80.495
X188.046 Y80.431
X188.051 Y80.366
X188.046 Y80.3
X188.03 Y80.237
G2 X187.448 Y80.024 I-0.376 J0.126
G0 Z6
X186.262 Y58.819
Z2
G1 Z1.8 F500
G2 X187.931 Y56.508 Z1.011 I0.834 J-1.155 F333.3
X186.262 Y58.819 Z0.221 I-0.834 J1.155
X187.931 Y56.508 Z-0.568 I0.834 J-1.155
X186.262 Y58.819 Z-1.358 I-0.834 J1.155
X187.014 Y59.086 Z-1.5 I0.834 J-1.155
G3 X189.306 Y59.342 I-1.263 J21.667 F1000
X191.652 Y59.846 I-4.204 J25.311
G2 X192.207 Y59.925 I0.611 J-2.316
G1 X192.453 Y59.93
G2 X193.259 Y59.811 I0.057 J-2.394
G1 X193.364 Y59.776
G2 X194.083 Y59.394 I-0.749 J-2.275
G1 X194.17 Y59.326
G2 X194.719 Y58.726 I-1.467 J-1.893
G1 X194.852 Y58.518
G2 X195.097 Y58.014 I-2.017 J-1.292
G3 X195.992 Y55.787 I24.223 J8.441
X197.11 Y53.663 I19.742 J9.028
X197.287 Y53.387 I4.508 J2.7
G2 X197.464 Y53.11 I-4.331 J-2.976
X197.656 Y52.71 I-2.055 J-1.23
G1 X198.209 Y51.214
G2 X198.323 Y50.785 I-2.247 J-0.83
G1 X198.59 Y49.213
G2 X198.624 Y48.77 I-2.361 J-0.401
G1 X198.596 Y47.176
G2 X198.547 Y46.734 I-2.395 J0.042
G1 X198.226 Y45.172
G2 X198.096 Y44.748 I-2.346 J0.483
G1 X197.492 Y43.272
G2 X197.286 Y42.878 I-2.216 J0.908
G1 X196.42 Y41.539
G2 X196.145 Y41.19 I-2.011 J1.301
G1 X195.046 Y40.034
G2 X194.712 Y39.742 I-1.736 J1.65
G1 X193.419 Y38.809
G2 X193.036 Y38.584 I-1.402 J1.942
G1 X191.593 Y37.905
G2 X191.176 Y37.754 I-1.019 J2.167
G1 X189.632 Y37.354
G2 X189.194 Y37.282 I-0.602 J2.318
G1 X187.603 Y37.174
G2 X187.159 Y37.185 I-0.163 J2.389
G1 X185.575 Y37.371
G2 X185.141 Y37.464 I0.28 J2.379
G1 X183.618 Y37.94
G2 X183.209 Y38.111 I0.715 J2.286
G1 X181.801 Y38.86
G2 X181.43 Y39.104 I1.124 J2.115
G1 X180.184 Y40.099
G2 X179.864 Y40.407 I1.495 J1.871
G1 X178.824 Y41.616
G2 X178.567 Y41.978 I1.815 J1.563
G1 X177.767 Y43.358
G2 X177.581 Y43.761 I2.072 J1.201
G1 X177.05 Y45.265
G2 X176.941 Y45.695 I2.258 J0.798
G1 X176.697 Y47.271
G2 X176.67 Y47.714 I2.367 J0.367
G1 X176.72 Y49.308
G2 X176.775 Y49.749 I2.394 J-0.076
G1 X177.119 Y51.306
G2 X177.255 Y51.729 I2.339 J-0.516
G1 X177.88 Y53.196
G2 X178.091 Y53.586 I2.203 J-0.939
G1 X178.977 Y54.913
G2 X179.257 Y55.258 I1.992 J-1.33
G1 X180.372 Y56.398
G2 X180.71 Y56.685 I1.712 J-1.675
G1 X182.016 Y57.6
G2 X182.402 Y57.82 I1.374 J-1.962
G1 X183.855 Y58.477
G2 X184.275 Y58.622 I0.988 J-2.182
G1 X185.824 Y59.001
G2 X186.263 Y59.066 I0.568 J-2.327
X186.592 Y59.073 I0.284 J-5.258
G3 X186.921 Y59.081 I0.045 J5.266
G1 X187.014 Y59.086
G2 X189.106 Y57.919 I0.13 J-2.226
G3 X191.287 Y56.926 I1.744 J0.941
X192.095 Y57.12 I-7.07 J31.313
G2 X192.59 Y56.857 I0.102 J-0.404
G3 X193.547 Y54.495 I30.2 J10.871
X194.729 Y52.237 I20.269 J9.172
X194.894 Y51.976 I5.721 J3.426
G2 X195.047 Y51.706 I-1.853 J-1.23
X195.495 Y45.772 I-7.397 J-3.543
X179.513 Y49.182 I-7.845 J2.391
X181.998 Y54.117 I8.173 J-1.023
X187.071 Y56.31 I5.502 J-5.764
G3 X189.602 Y56.593 I-1.2 J22.213
X191.287 Y56.926 I-5.385 J31.646
G2 X192.037 Y55.059 I0.225 J-0.994
G3 X191.453 Y53.132 I0.775 J-1.287
