(1001)
(T4  D=3 CR=0 - ZMIN=-17.5 - flat end mill)
G90 G94
G17
G21

(2D Pocket1 2)
T4
S15000 M3
G54
M8
G0 X90.827 Y104.237
Z6
Z2
G1 Z1.8 F500
G3 X88.423 Y105.769 Z1.011 I-1.202 J0.766 F333.3
X90.827 Y104.237 Z0.221 I1.202 J-0.766
X88.423 Y105.769 Z-0.568 I-1.202 J0.766
X90.827 Y104.237 Z-1.358 I1.202 J-0.766
X91.05 Y105.003 Z-1.5 I-1.202 J0.766
X88.95 Y105.003 I-1.05 J0 F1000
X93.9 Y105.003 I2.475 J0
X86.1 Y105.003 I-3.9 J0
X96.75 Y105.003 I5.325 J0
X83.25 Y105.003 I-6.75 J0
X96.75 Y105.003 I6.75 J0
X93.9 Y105.003 Z-2.25 I-1.425 J0 F333.3
G2 X91.05 Y105.003 Z-3 I-1.425 J0
G3 X88.95 Y105.003 I-1.05 J0 F1000
X93.9 Y105.003 I2.475 J0
X86.1 Y105.003 I-3.9 J0
X96.75 Y105.003 I5.325 J0
X83.25 Y105.003 I-6.75 J0
X96.75 Y105.003 I6.75 J0
X93.9 Y105.003 Z-3.75 I-1.425 J0 F333.3
G2 X91.05 Y105.003 Z-4.5 I-1.425 J0
G3 X88.95 Y105.003 I-1.05 J0 F1000
X93.9 Y105.003 I2.475 J0
X86.1 Y105.003 I-3.9 J0
X96.75 Y105.003 I5.325 J0
X83.25 Y105.003 I-6.75 J0
X96.75 Y105.003 I6.75 J0
X93.9 Y105.003 Z-5.25 I-1.425 J0 F333.3
G2 X91.05 Y105.003 Z-6 I-1.425 J0
G3 X88.95 Y105.003 I-1.05 J0 F1000
X93.9 Y105.003 I2.475 J0
X86.1 Y105.003 I-3.9 J0
X96.75 Y105.003 I5.325 J0
X83.25 Y105.003 I-6.75 J0
X96.75 Y105.003 I6.75 J0
X93.9 Y105.003 Z-6.75 I-1.425 J0 F333.3
G2 X91.05 Y105.003 Z-7.5 I-1.425 J0
G3 X88.95 Y105.003 I-1.05 J0 F1000
X93.9 Y105.003 I2.475 J0
X86.1 Y105.003 I-3.9 J0
X96.75 Y105.003 I5.325 J0
X83.25 Y105.003 I-6.75 J0
X96.75 Y105.003 I6.75 J0
X93.9 Y105.003 Z-8.25 I-1.425 J0 F333.3
G2 X91.05 Y105.003 Z-9 I-1.425 J0
G3 X88.95 Y105.003 I-1.05 J0 F1000
X93.9 Y105.003 I2.475 J0
X86.1 Y105.003 I-3.9 J0
X96.75 Y105.003 I5.325 J0
X83.25 Y105.003 I-6.75 J0
X96.75 Y105.003 I6.75 J0
X93.9 Y105.003 Z-9.75 I-1.425 J0 F333.3
G2 X91.05 Y105.003 Z-10.5 I-1.425 J0
G3 X88.95 Y105.003 I-1.05 J0 F1000
X93.9 Y105.003 I2.475 J0
X86.1 Y105.003 I-3.9 J0
X96.75 Y105.003 I5.325 J0
X83.25 Y105.003 I-6.75 J0
X96.75 Y105.003 I6.75 J0
X93.9 Y105.003 Z-11.25 I-1.425 J0 F333.3
G2 X91.05 Y105.003 Z-12 I-1.425 J0
G3 X88.95 Y105.003 I-1.05 J0 F1000
X93.9 Y105.003 I2.475 J0
X86.1 Y105.003 I-3.9 J0
X96.75 Y105.003 I5.325 J0
X83.25 Y105.003 I-6.75 J0
X96.75 Y105.003 I6.75 J0
X93.9 Y105.003 Z-12.75 I-1.425 J0 F333.3
G2 X91.05 Y105.003 Z-13.5 I-1.425 J0
G3 X88.95 Y105.003 I-1.05 J0 F1000
X93.9 Y105.003 I2.475 J0
X86.1 Y105.003 I-3.9 J0
X96.75 Y105.003 I5.325 J0
X83.25 Y105.003 I-6.75 J0
X96.75 Y105.003 I6.75 J0
X93.9 Y105.003 Z-14.25 I-1.425 J0 F333.3
G2 X91.05 Y105.003 Z-15 I-1.425 J0
G3 X88.95 Y105.003 I-1.05 J0 F1000
X93.9 Y105.003 I2.475 J0
X86.1 Y105.003 I-3.9 J0
X96.75 Y105.003 I5.325 J0
X83.25 Y105.003 I-6.75 J0
X96.75 Y105.003 I6.75 J0
X93.9 Y105.003 Z-15.75 I-1.425 J0 F333.3
G2 X91.05 Y105.003 Z-16.5 I-1.425 J0
G3 X88.95 Y105.003 I-1.05 J0 F1000
X93.9 Y105.003 I2.475 J0
X86.1 Y105.003 I-3.9 J0
X96.75 Y105.003 I5.325 J0
X83.25 Y105.003 I-6.75 J0
X96.75 Y105.003 I6.75 J0
X93.9 Y105.003 Z-17 I-1.425 J0 F333.3
G2 X91.05 Y105.003 Z-17.5 I-1.425 J0
G3 X88.95 Y105.003 I-1.05 J0 F1000
X93.9 Y105.003 I2.475 J0
X86.1 Y105.003 I-3.9 J0
X96.75 Y105.003 I5.325 J0
X83.25 Y105.003 I-6.75 J0
X96.75 Y105.003 I6.75 J0
G0 Z4
X110.827 Y104.237
Z2
G1 Z1.8 F500
G3 X108.423 Y105.769 Z1.011 I-1.202 J0.766 F333.3
X110.827 Y104.237 Z0.221 I1.202 J-0.766
X108.423 Y105.769 Z-0.568 I-1.202 J0.766
X110.827 Y104.237 Z-1.358 I1.202 J-0.766
X111.05 Y105.003 Z-1.5 I-1.202 J0.766
X108.95 Y105.003 I-1.05 J0 F1000
X113.9 Y105.003 I2.475 J0
X106.1 Y105.003 I-3.9 J0
X116.75 Y105.003 I5.325 J0
X103.25 Y105.003 I-6.75 J0
X116.75 Y105.003 I6.75 J0
X113.9 Y105.003 Z-2.25 I-1.425 J0 F333.3
G2 X111.05 Y105.003 Z-3 I-1.425 J0
G3 X108.95 Y105.003 I-1.05 J0 F1000
X113.9 Y105.003 I2.475 J0
X106.1 Y105.003 I-3.9 J0
X116.75 Y105.003 I5.325 J0
X103.25 Y105.003 I-6.75 J0
X116.75 Y105.003 I6.75 J0
X113.9 Y105.003 Z-3.75 I-1.425 J0 F333.3
G2 X111.05 Y105.003 Z-4.5 I-1.425 J0
G3 X108.95 Y105.003 I-1.05 J0 F1000
X113.9 Y105.003 I2.475 J0
X106.1 Y105.003 I-3.9 J0
X116.75 Y105.003 I5.325 J0
X103.25 Y105.003 I-6.75 J0
X116.75 Y105.003 I6.75 J0
X113.9 Y105.003 Z-5.25 I-1.425 J0 F333.3
G2 X111.05 Y105.003 Z-6 I-1.425 J0
G3 X108.95 Y105.003 I-1.05 J0 F1000
X113.9 Y105.003 I2.475 J0
X106.1 Y105.003 I-3.9 J0
X116.75 Y105.003 I5.325 J0
X103.25 Y105.003 I-6.75 J0
X116.75 Y105.003 I6.75 J0
X113.9 Y105.003 Z-6.75 I-1.425 J0 F333.3
G2 X111.05 Y105.003 Z-7.5 I-1.425 J0
G3 X108.95 Y105.003 I-1.05 J0 F1000
X113.9 Y105.003 I2.475 J0
X106.1 Y105.003 I-3.9 J0
X116.75 Y105.003 I5.325 J0
X103.25 Y105.003 I-6.75 J0
X116.75 Y105.003 I6.75 J0
X113.9 Y105.003 Z-8.25 I-1.425 J0 F333.3
G2 X111.05 Y105.003 Z-9 I-1.425 J0
G3 X108.95 Y105.003 I-1.05 J0 F1000
X113.9 Y105.003 I2.475 J0
X106.1 Y105.003 I-3.9 J0
X116.75 Y105.003 I5.325 J0
X103.25 Y105.003 I-6.75 J0
X116.75 Y105.003 I6.75 J0
X113.9 Y105.003 Z-9.75 I-1.425 J0 F333.3
G2 X111.05 Y105.003 Z-10.5 I-1.425 J0
G3 X108.95 Y105.003 I-1.05 J0 F1000
X113.9 Y105.003 I2.475 J0
X106.1 Y105.003 I-3.9 J0
X116.75 Y105.003 I5.325 J0
X103.25 Y105.003 I-6.75 J0
X116.75 Y105.003 I6.75 J0
X113.9 Y105.003 Z-11.25 I-1.425 J0 F333.3
G2 X111.05 Y105.003 Z-12 I-1.425 J0
G3 X108.95 Y105.003 I-1.05 J0 F1000
X113.9 Y105.003 I2.475 J0
X106.1 Y105.003 I-3.9 J0
X116.75 Y105.003 I5.325 J0
X103.25 Y105.003 I-6.75 J0
X116.75 Y105.003 I6.75 J0
X113.9 Y105.003 Z-12.75 I-1.425 J0 F333.3
G2 X111.05 Y105.003 Z-13.5 I-1.425 J0
G3 X108.95 Y105.003 I-1.05 J0 F1000
X113.9 Y105.003 I2.475 J0
X106.1 Y105.003 I-3.9 J0
X116.75 Y105.003 I5.325 J0
X103.25 Y105.003 I-6.75 J0
X116.75 Y105.003 I6.75 J0
X113.9 Y105.003 Z-14.25 I-1.425 J0 F333.3
G2 X111.05 Y105.003 Z-15 I-1.425 J0
G3 X108.95 Y105.003 I-1.05 J0 F1000
X113.9 Y105.003 I2.475 J0
X106.1 Y105.003 I-3.9 J0
X116.75 Y105.003 I5.325 J0
X103.25 Y105.003 I-6.75 J0
X116.75 Y105.003 I6.75 J0
X113.9 Y105.003 Z-15.75 I-1.425 J0 F333.3
G2 X111.05 Y105.003 Z-16.5 I-1.425 J0
G3 X108.95 Y105.003 I-1.05 J0 F1000
X113.9 Y105.003 I2.475 J0
X106.1 Y105.003 I-3.9 J0
X116.75 Y105.003 I5.325 J0
X103.25 Y105.003 I-6.75 J0
X116.75 Y105.003 I6.75 J0
X113.9 Y105.003 Z-17 I-1.425 J0 F333.3
G2 X111.05 Y105.003 Z-17.5 I-1.425 J0
G3 X108.95 Y105.003 I-1.05 J0 F1000
X113.9 Y105.003 I2.475 J0
X106.1 Y105.003 I-3.9 J0
X116.75 Y105.003 I5.325 J0
X103.25 Y105.003 I-6.75 J0
X116.75 Y105.003 I6.75 J0
G0 Z4
X130.827 Y104.237
Z2
G1 Z1.8 F500
G3 X128.423 Y105.769 Z1.011 I-1.202 J0.766 F333.3
X130.827 Y104.237 Z0.221 I1.202 J-0.766
X128.423 Y105.769 Z-0.568 I-1.202 J0.766
X130.827 Y104.237 Z-1.358 I1.202 J-0.766
X131.05 Y105.003 Z-1.5 I-1.202 J0.766
X128.95 Y105.003 I-1.05 J0 F1000
X133.9 Y105.003 I2.475 J0
X126.1 Y105.003 I-3.9 J0
X136.75 Y105.003 I5.325 J0
X123.25 Y105.003 I-6.75 J0
X136.75 Y105.003 I6.75 J0
X133.9 Y105.003 Z-2.25 I-1.425 J0 F333.3
G2 X131.05 Y105.003 Z-3 I-1.425 J0
G3 X128.95 Y105.003 I-1.05 J0 F1000
X133.9 Y105.003 I2.475 J0
X126.1 Y105.003 I-3.9 J0
X136.75 Y105.003 I5.325 J0
X123.25 Y105.003 I-6.75 J0
X136.75 Y105.003 I6.75 J0
X133.9 Y105.003 Z-3.75 I-1.425 J0 F333.3
G2 X131.05 Y105.003 Z-4.5 I-1.425 J0
G3 X128.95 Y105.003 I-1.05 J0 F1000
X133.9 Y105.003 I2.475 J0
X126.1 Y105.003 I-3.9 J0
X136.75 Y105.003 I5.325 J0
X123.25 Y105.003 I-6.75 J0
X136.75 Y105.003 I6.75 J0
X133.9 Y105.003 Z-5.25 I-1.425 J0 F333.3
G2 X131.05 Y105.003 Z-6 I-1.425 J0
G3 X128.95 Y105.003 I-1.05 J0 F1000
X133.9 Y105.003 I2.475 J0
X126.1 Y105.003 I-3.9 J0
X136.75 Y105.003 I5.325 J0
X123.25 Y105.003 I-6.75 J0
X136.75 Y105.003 I6.75 J0
X133.9 Y105.003 Z-6.75 I-1.425 J0 F333.3
G2 X131.05 Y105.003 Z-7.5 I-1.425 J0
G3 X128.95 Y105.003 I-1.05 J0 F1000
X133.9 Y105.003 I2.475 J0
X126.1 Y105.003 I-3.9 J0
X136.75 Y105.003 I5.325 J0
X123.25 Y105.003 I-6.75 J0
X136.75 Y105.003 I6.75 J0
X133.9 Y105.003 Z-8.25 I-1.425 J0 F333.3
G2 X131.05 Y105.003 Z-9 I-1.425 J0
G3 X128.95 Y105.003 I-1.05 J0 F1000
X133.9 Y105.003 I2.475 J0
X126.1 Y105.003 I-3.9 J0
X136.75 Y105.003 I5.325 J0
X123.25 Y105.003 I-6.75 J0
X136.75 Y105.003 I6.75 J0
X133.9 Y105.003 Z-9.75 I-1.425 J0 F333.3
G2 X131.05 Y105.003 Z-10.5 I-1.425 J0
G3 X128.95 Y105.003 I-1.05 J0 F1000
X133.9 Y105.003 I2.475 J0
X126.1 Y105.003 I-3.9 J0
X136.75 Y105.003 I5.325 J0
X123.25 Y105.003 I-6.75 J0
X136.75 Y105.003 I6.75 J0
X133.9 Y105.003 Z-11.25 I-1.425 J0 F333.3
G2 X131.05 Y105.003 Z-12 I-1.425 J0
G3 X128.95 Y105.003 I-1.05 J0 F1000
X133.9 Y105.003 I2.475 J0
X126.1 Y105.003 I-3.9 J0
X136.75 Y105.003 I5.325 J0
X123.25 Y105.003 I-6.75 J0
X136.75 Y105.003 I6.75 J0
X133.9 Y105.003 Z-12.75 I-1.425 J0 F333.3
G2 X131.05 Y105.003 Z-13.5 I-1.425 J0
G3 X128.95 Y105.003 I-1.05 J0 F1000
X133.9 Y105.003 I2.475 J0
X126.1 Y105.003 I-3.9 J0
X136.75 Y105.003 I5.325 J0
X123.25 Y105.003 I-6.75 J0
X136.75 Y105.003 I6.75 J0
X133.9 Y105.003 Z-14.25 I-1.425 J0 F333.3
G2 X131.05 Y105.003 Z-15 I-1.425 J0
G3 X128.95 Y105.003 I-1.05 J0 F1000
X133.9 Y105.003 I2.475 J0
X126.1 Y105.003 I-3.9 J0
X136.75 Y105.003 I5.325 J0
X123.25 Y105.003 I-6.75 J0
X136.75 Y105.003 I6.75 J0
X133.9 Y105.003 Z-15.75 I-1.425 J0 F333.3
G2 X131.05 Y105.003 Z-16.5 I-1.425 J0
G3 X128.95 Y105.003 I-1.05 J0 F1000
X133.9 Y105.003 I2.475 J0
X126.1 Y105.003 I-3.9 J0
X136.75 Y105.003 I5.325 J0
X123.25 Y105.003 I-6.75 J0
X136.75 Y105.003 I6.75 J0
X133.9 Y105.003 Z-17 I-1.425 J0 F333.3
G2 X131.05 Y105.003 Z-17.5 I-1.425 J0
G3 X128.95 Y105.003 I-1.05 J0 F1000
X133.9 Y105.003 I2.475 J0
X126.1 Y105.003 I-3.9 J0
X136.75 Y105.003 I5.325 J0
X123.25 Y105.003 I-6.75 J0
X136.75 Y105.003 I6.75 J0
G0 Z4
X150.827 Y104.237
Z2
G1 Z1.8 F500
G3 X148.423 Y105.769 Z1.011 I-1.202 J0.766 F333.3
X150.827 Y104.237 Z0.221 I1.202 J-0.766
X148.423 Y105.769 Z-0.568 I-1.202 J0.766
X150.827 Y104.237 Z-1.358 I1.202 J-0.766
X151.05 Y105.003 Z-1.5 I-1.202 J0.766
X148.95 Y105.003 I-1.05 J0 F1000
X153.9 Y105.003 I2.475 J0
X146.1 Y105.003 I-3.9 J0
X156.75 Y105.003 I5.325 J0
X143.25 Y105.003 I-6.75 J0
X156.75 Y105.003 I6.75 J0
X153.9 Y105.003 Z-2.25 I-1.425 J0 F333.3
G2 X151.05 Y105.003 Z-3 I-1.425 J0
G3 X148.95 Y105.003 I-1.05 J0 F1000
X153.9 Y105.003 I2.475 J0
X146.1 Y105.003 I-3.9 J0
X156.75 Y105.003 I5.325 J0
X143.25 Y105.003 I-6.75 J0
X156.75 Y105.003 I6.75 J0
X153.9 Y105.003 Z-3.75 I-1.425 J0 F333.3
G2 X151.05 Y105.003 Z-4.5 I-1.425 J0
G3 X148.95 Y105.003 I-1.05 J0 F1000
X153.9 Y105.003 I2.475 J0
X146.1 Y105.003 I-3.9 J0
X156.75 Y105.003 I5.325 J0
X143.25 Y105.003 I-6.75 J0
X156.75 Y105.003 I6.75 J0
X153.9 Y105.003 Z-5.25 I-1.425 J0 F333.3
G2 X151.05 Y105.003 Z-6 I-1.425 J0
G3 X148.95 Y105.003 I-1.05 J0 F1000
X153.9 Y105.003 I2.475 J0
X146.1 Y105.003 I-3.9 J0
X156.75 Y105.003 I5.325 J0
X143.25 Y105.003 I-6.75 J0
X156.75 Y105.003 I6.75 J0
X153.9 Y105.003 Z-6.75 I-1.425 J0 F333.3
G2 X151.05 Y105.003 Z-7.5 I-1.425 J0
G3 X148.95 Y105.003 I-1.05 J0 F1000
X153.9 Y105.003 I2.475 J0
X146.1 Y105.003 I-3.9 J0
X156.75 Y105.003 I5.325 J0
X143.25 Y105.003 I-6.75 J0
X156.75 Y105.003 I6.75 J0
X153.9 Y105.003 Z-8.25 I-1.425 J0 F333.3
G2 X151.05 Y105.003 Z-9 I-1.425 J0
G3 X148.95 Y105.003 I-1.05 J0 F1000
X153.9 Y105.003 I2.475 J0
X146.1 Y105.003 I-3.9 J0
X156.75 Y105.003 I5.325 J0
X143.25 Y105.003 I-6.75 J0
X156.75 Y105.003 I6.75 J0
X153.9 Y105.003 Z-9.75 I-1.425 J0 F333.3
G2 X151.05 Y105.003 Z-10.5 I-1.425 J0
G3 X148.95 Y105.003 I-1.05 J0 F1000
X153.9 Y105.003 I2.475 J0
X146.1 Y105.003 I-3.9 J0
X156.75 Y105.003 I5.325 J0
X143.25 Y105.003 I-6.75 J0
X156.75 Y105.003 I6.75 J0
X153.9 Y105.003 Z-11.25 I-1.425 J0 F333.3
G2 X151.05 Y105.003 Z-12 I-1.425 J0
G3 X148.95 Y105.003 I-1.05 J0 F1000
X153.9 Y105.003 I2.475 J0
X146.1 Y105.003 I-3.9 J0
X156.75 Y105.003 I5.325 J0
X143.25 Y105.003 I-6.75 J0
X156.75 Y105.003 I6.75 J0
X153.9 Y105.003 Z-12.75 I-1.425 J0 F333.3
G2 X151.05 Y105.003 Z-13.5 I-1.425 J0
G3 X148.95 Y105.003 I-1.05 J0 F1000
X153.9 Y105.003 I2.475 J0
X146.1 Y105.003 I-3.9 J0
X156.75 Y105.003 I5.325 J0
X143.25 Y105.003 I-6.75 J0
X156.75 Y105.003 I6.75 J0
X153.9 Y105.003 Z-14.25 I-1.425 J0 F333.3
G2 X151.05 Y105.003 Z-15 I-1.425 J0
G3 X148.95 Y105.003 I-1.05 J0 F1000
X153.9 Y105.003 I2.475 J0
X146.1 Y105.003 I-3.9 J0
X156.75 Y105.003 I5.325 J0
X143.25 Y105.003 I-6.75 J0
X156.75 Y105.003 I6.75 J0
X153.9 Y105.003 Z-15.75 I-1.425 J0 F333.3
G2 X151.05 Y105.003 Z-16.5 I-1.425 J0
G3 X148.95 Y105.003 I-1.05 J0 F1000
X153.9 Y105.003 I2.475 J0
X146.1 Y105.003 I-3.9 J0
X156.75 Y105.003 I5.325 J0
X143.25 Y105.003 I-6.75 J0
X156.75 Y105.003 I6.75 J0
X153.9 Y105.003 Z-17 I-1.425 J0 F333.3
G2 X151.05 Y105.003 Z-17.5 I-1.425 J0
G3 X148.95 Y105.003 I-1.05 J0 F1000
X153.9 Y105.003 I2.475 J0
X146.1 Y105.003 I-3.9 J0
X156.75 Y105.003 I5.325 J0
X143.25 Y105.003 I-6.75 J0
X156.75 Y105.003 I6.75 J0
G0 Z4
X170.827 Y104.237
Z2
G1 Z1.8 F500
G3 X168.423 Y105.769 Z1.011 I-1.202 J0.766 F333.3
X170.827 Y104.237 Z0.221 I1.202 J-0.766
X168.423 Y105.769 Z-0.568 I-1.202 J0.766
X170.827 Y104.237 Z-1.358 I1.202 J-0.766
X171.05 Y105.003 Z-1.5 I-1.202 J0.766
X168.95 Y105.003 I-1.05 J0 F1000
X173.9 Y105.003 I2.475 J0
X166.1 Y105.003 I-3.9 J0
X176.75 Y105.003 I5.325 J0
X163.25 Y105.003 I-6.75 J0
X176.75 Y105.003 I6.75 J0
X173.9 Y105.003 Z-2.25 I-1.425 J0 F333.3
G2 X171.05 Y105.003 Z-3 I-1.425 J0
G3 X168.95 Y105.003 I-1.05 J0 F1000
X173.9 Y105.003 I2.475 J0
X166.1 Y105.003 I-3.9 J0
X176.75 Y105.003 I5.325 J0
X163.25 Y105.003 I-6.75 J0
X176.75 Y105.003 I6.75 J0
X173.9 Y105.003 Z-3.75 I-1.425 J0 F333.3
G2 X171.05 Y105.003 Z-4.5 I-1.425 J0
G3 X168.95 Y105.003 I-1.05 J0 F1000
X173.9 Y105.003 I2.475 J0
X166.1 Y105.003 I-3.9 J0
X176.75 Y105.003 I5.325 J0
X163.25 Y105.003 I-6.75 J0
X176.75 Y105.003 I6.75 J0
X173.9 Y105.003 Z-5.25 I-1.425 J0 F333.3
G2 X171.05 Y105.003 Z-6 I-1.425 J0
G3 X168.95 Y105.003 I-1.05 J0 F1000
X173.9 Y105.003 I2.475 J0
X166.1 Y105.003 I-3.9 J0
X176.75 Y105.003 I5.325 J0
X163.25 Y105.003 I-6.75 J0
X176.75 Y105.003 I6.75 J0
X173.9 Y105.003 Z-6.75 I-1.425 J0 F333.3
G2 X171.05 Y105.003 Z-7.5 I-1.425 J0
G3 X168.95 Y105.003 I-1.05 J0 F1000
X173.9 Y105.003 I2.475 J0
X166.1 Y105.003 I-3.9 J0
X176.75 Y105.003 I5.325 J0
X163.25 Y105.003 I-6.75 J0
X176.75 Y105.003 I6.75 J0
X173.9 Y105.003 Z-8.25 I-1.425 J0 F333.3
G2 X171.05 Y105.003 Z-9 I-1.425 J0
G3 X168.95 Y105.003 I-1.05 J0 F1000
X173.9 Y105.003 I2.475 J0
X166.1 Y105.003 I-3.9 J0
X176.75 Y105.003 I5.325 J0
X163.25 Y105.003 I-6.75 J0
X176.75 Y105.003 I6.75 J0
X173.9 Y105.003 Z-9.75 I-1.425 J0 F333.3
G2 X171.05 Y105.003 Z-10.5 I-1.425 J0
G3 X168.95 Y105.003 I-1.05 J0 F1000
X173.9 Y105.003 I2.475 J0
X166.1 Y105.003 I-3.9 J0
X176.75 Y105.003 I5.325 J0
X163.25 Y105.003 I-6.75 J0
X176.75 Y105.003 I6.75 J0
X173.9 Y105.003 Z-11.25 I-1.425 J0 F333.3
G2 X171.05 Y105.003 Z-12 I-1.425 J0
G3 X168.95 Y105.003 I-1.05 J0 F1000
X173.9 Y105.003 I2.475 J0
X166.1 Y105.003 I-3.9 J0
X176.75 Y105.003 I5.325 J0
X163.25 Y105.003 I-6.75 J0
X176.75 Y105.003 I6.75 J0
X173.9 Y105.003 Z-12.75 I-1.425 J0 F333.3
G2 X171.05 Y105.003 Z-13.5 I-1.425 J0
G3 X168.95 Y105.003 I-1.05 J0 F1000
X173.9 Y105.003 I2.475 J0
X166.1 Y105.003 I-3.9 J0
X176.75 Y105.003 I5.325 J0
X163.25 Y105.003 I-6.75 J0
X176.75 Y105.003 I6.75 J0
X173.9 Y105.003 Z-14.25 I-1.425 J0 F333.3
G2 X171.05 Y105.003 Z-15 I-1.425 J0
G3 X168.95 Y105.003 I-1.05 J0 F1000
X173.9 Y105.003 I2.475 J0
X166.1 Y105.003 I-3.9 J0
X176.75 Y105.003 I5.325 J0
X163.25 Y105.003 I-6.75 J0
X176.75 Y105.003 I6.75 J0
X173.9 Y105.003 Z-15.75 I-1.425 J0 F333.3
G2 X171.05 Y105.003 Z-16.5 I-1.425 J0
G3 X168.95 Y105.003 I-1.05 J0 F1000
X173.9 Y105.003 I2.475 J0
X166.1 Y105.003 I-3.9 J0
X176.75 Y105.003 I5.325 J0
X163.25 Y105.003 I-6.75 J0
X176.75 Y105.003 I6.75 J0
X173.9 Y105.003 Z-17 I-1.425 J0 F333.3
G2 X171.05 Y105.003 Z-17.5 I-1.425 J0
G3 X168.95 Y105.003 I-1.05 J0 F1000
X173.9 Y105.003 I2.475 J0
X166.1 Y105.003 I-3.9 J0
X176.75 Y105.003 I5.325 J0
X163.25 Y105.003 I-6.75 J0
X176.75 Y105.003 I6.75 J0
G0 Z4
X180.004 Y119.432
Z2
G1 Z1.8 F500
G3 X182.408 Y117.9 Z1.011 I1.202 J-0.766 F333.3
X180.004 Y119.432 Z0.221 I-1.202 J0.766
X182.408 Y117.9 Z-0.568 I1.202 J-0.766
X180.004 Y119.432 Z-1.358 I-1.202 J0.766
X179.781 Y118.666 Z-1.5 I1.202 J-0.766
X180.731 Y118.666 I0.475 J0 F1000
X176.931 Y118.666 I-1.9 J0
X183.581 Y118.666 I3.325 J0
X174.081 Y118.666 I-4.75 J0
X183.581 Y118.666 I4.75 J0
X183.187 Y118.971 I-0.315 J0
G1 X181.746 Y118.601
X181.693 Y118.592
X180.16 Y118.639
G3 X179.85 Y118.227 I-0.01 J-0.315
X182.562 Y119.105 Z-2.289 I1.356 J0.439 F333.3
X179.781 Y118.666 Z-3 I-1.356 J-0.439
X180.731 Y118.666 I0.475 J0 F1000
X176.931 Y118.666 I-1.9 J0
X183.581 Y118.666 I3.325 J0
X174.081 Y118.666 I-4.75 J0
X183.581 Y118.666 I4.75 J0
X183.187 Y118.971 I-0.315 J0
G1 X181.746 Y118.601
X181.693 Y118.592
X180.16 Y118.639
G3 X179.85 Y118.227 I-0.01 J-0.315
X182.562 Y119.105 Z-3.789 I1.356 J0.439 F333.3
X179.781 Y118.666 Z-4.5 I-1.356 J-0.439
X180.731 Y118.666 I0.475 J0 F1000
X176.931 Y118.666 I-1.9 J0
X183.581 Y118.666 I3.325 J0
X174.081 Y118.666 I-4.75 J0
X183.581 Y118.666 I4.75 J0
X183.187 Y118.971 I-0.315 J0
G1 X181.746 Y118.601
X181.693 Y118.592
X180.16 Y118.639
G3 X179.85 Y118.227 I-0.01 J-0.315
X182.562 Y119.105 Z-5.289 I1.356 J0.439 F333.3
X179.781 Y118.666 Z-6 I-1.356 J-0.439
X180.731 Y118.666 I0.475 J0 F1000
X176.931 Y118.666 I-1.9 J0
X183.581 Y118.666 I3.325 J0
X174.081 Y118.666 I-4.75 J0
X183.581 Y118.666 I4.75 J0
X183.187 Y118.971 I-0.315 J0
G1 X181.746 Y118.601
X181.693 Y118.592
X180.16 Y118.639
G3 X179.85 Y118.227 I-0.01 J-0.315
X182.562 Y119.105 Z-6.789 I1.356 J0.439 F333.3
X179.781 Y118.666 Z-7.5 I-1.356 J-0.439
X180.731 Y118.666 I0.475 J0 F1000
X176.931 Y118.666 I-1.9 J0
X183.581 Y118.666 I3.325 J0
X174.081 Y118.666 I-4.75 J0
X183.581 Y118.666 I4.75 J0
X183.187 Y118.971 I-0.315 J0
G1 X181.746 Y118.601
X181.693 Y118.592
X180.16 Y118.639
G3 X179.85 Y118.227 I-0.01 J-0.315
X182.562 Y119.105 Z-8.289 I1.356 J0.439 F333.3
X179.781 Y118.666 Z-9 I-1.356 J-0.439
X180.731 Y118.666 I0.475 J0 F1000
X176.931 Y118.666 I-1.9 J0
X183.581 Y118.666 I3.325 J0
X174.081 Y118.666 I-4.75 J0
X183.581 Y118.666 I4.75 J0
X183.187 Y118.971 I-0.315 J0
G1 X181.746 Y118.601
X181.693 Y118.592
X180.16 Y118.639
G3 X179.85 Y118.227 I-0.01 J-0.315
X182.562 Y119.105 Z-9.789 I1.356 J0.439 F333.3
X179.781 Y118.666 Z-10.5 I-1.356 J-0.439
X180.731 Y118.666 I0.475 J0 F1000
X176.931 Y118.666 I-1.9 J0
X183.581 Y118.666 I3.325 J0
X174.081 Y118.666 I-4.75 J0
X183.581 Y118.666 I4.75 J0
X183.187 Y118.971 I-0.315 J0
G1 X181.746 Y118.601
X181.693 Y118.592
X180.16 Y118.639
G3 X179.85 Y118.227 I-0.01 J-0.315
X182.562 Y119.105 Z-11.289 I1.356 J0.439 F333.3
X179.781 Y118.666 Z-12 I-1.356 J-0.439
X180.731 Y118.666 I0.475 J0 F1000
X176.931 Y118.666 I-1.9 J0
X183.581 Y118.666 I3.325 J0
X174.081 Y118.666 I-4.75 J0
X183.581 Y118.666 I4.75 J0
X183.187 Y118.971 I-0.315 J0
G1 X181.746 Y118.601
X181.693 Y118.592
X180.16 Y118.639
G3 X179.85 Y118.227 I-0.01 J-0.315
X182.562 Y119.105 Z-12.789 I1.356 J0.439 F333.3
X179.781 Y118.666 Z-13.5 I-1.356 J-0.439
X180.731 Y118.666 I0.475 J0 F1000
X176.931 Y118.666 I-1.9 J0
X183.581 Y118.666 I3.325 J0
X174.081 Y118.666 I-4.75 J0
X183.581 Y118.666 I4.75 J0
X183.187 Y118.971 I-0.315 J0
G1 X181.746 Y118.601
X181.693 Y118.592
X180.16 Y118.639
G3 X179.85 Y118.227 I-0.01 J-0.315
X182.562 Y119.105 Z-14.289 I1.356 J0.439 F333.3
X179.781 Y118.666 Z-15 I-1.356 J-0.439
X180.731 Y118.666 I0.475 J0 F1000
X176.931 Y118.666 I-1.9 J0
X183.581 Y118.666 I3.325 J0
X174.081 Y118.666 I-4.75 J0
X183.581 Y118.666 I4.75 J0
X183.187 Y118.971 I-0.315 J0
G1 X181.746 Y118.601
X181.693 Y118.592
X180.16 Y118.639
G3 X179.85 Y118.227 I-0.01 J-0.315
X182.562 Y119.105 Z-15.789 I1.356 J0.439 F333.3
X179.781 Y118.666 Z-16.5 I-1.356 J-0.439
X180.731 Y118.666 I0.475 J0 F1000
X176.931 Y118.666 I-1.9 J0
X183.581 Y118.666 I3.325 J0
X174.081 Y118.666 I-4.75 J0
X183.581 Y118.666 I4.75 J0
X183.269 Y118.832 I-0.2 J0
G1 X181.914 Y117.921
G3 X181.867 Y117.632 I0.112 J-0.166
X182.159 Y117.607 I0.158 J0.123
X180.253 Y119.725 Z-17.289 I-0.953 J1.059 F333.3
X179.781 Y118.666 Z-17.5 I0.953 J-1.059
X180.731 Y118.666 I0.475 J0 F1000
X176.931 Y118.666 I-1.9 J0
X183.581 Y118.666 I3.325 J0
X174.081 Y118.666 I-4.75 J0
X183.581 Y118.666 I4.75 J0
G0 Z4
X160.004 Y119.432
Z2
G1 Z1.8 F500
G3 X162.408 Y117.9 Z1.011 I1.202 J-0.766 F333.3
X160.004 Y119.432 Z0.221 I-1.202 J0.766
X162.408 Y117.9 Z-0.568 I1.202 J-0.766
X160.004 Y119.432 Z-1.358 I-1.202 J0.766
X159.781 Y118.666 Z-1.5 I1.202 J-0.766
X160.731 Y118.666 I0.475 J0 F1000
X156.931 Y118.666 I-1.9 J0
X163.581 Y118.666 I3.325 J0
X154.081 Y118.666 I-4.75 J0
X163.581 Y118.666 I4.75 J0
X163.187 Y118.971 I-0.315 J0
G1 X161.746 Y118.601
X161.693 Y118.592
X160.16 Y118.639
G3 X159.85 Y118.227 I-0.01 J-0.315
X162.562 Y119.105 Z-2.289 I1.356 J0.439 F333.3
X159.781 Y118.666 Z-3 I-1.356 J-0.439
X160.731 Y118.666 I0.475 J0 F1000
X156.931 Y118.666 I-1.9 J0
X163.581 Y118.666 I3.325 J0
X154.081 Y118.666 I-4.75 J0
X163.581 Y118.666 I4.75 J0
X163.187 Y118.971 I-0.315 J0
G1 X161.746 Y118.601
X161.693 Y118.592
X160.16 Y118.639
G3 X159.85 Y118.227 I-0.01 J-0.315
X162.562 Y119.105 Z-3.789 I1.356 J0.439 F333.3
X159.781 Y118.666 Z-4.5 I-1.356 J-0.439
X160.731 Y118.666 I0.475 J0 F1000
X156.931 Y118.666 I-1.9 J0
X163.581 Y118.666 I3.325 J0
X154.081 Y118.666 I-4.75 J0
X163.581 Y118.666 I4.75 J0
X163.187 Y118.971 I-0.315 J0
G1 X161.746 Y118.601
X161.693 Y118.592
X160.16 Y118.639
G3 X159.85 Y118.227 I-0.01 J-0.315
X162.562 Y119.105 Z-5.289 I1.356 J0.439 F333.3
X159.781 Y118.666 Z-6 I-1.356 J-0.439
X160.731 Y118.666 I0.475 J0 F1000
X156.931 Y118.666 I-1.9 J0
X163.581 Y118.666 I3.325 J0
X154.081 Y118.666 I-4.75 J0
X163.581 Y118.666 I4.75 J0
X163.187 Y118.971 I-0.315 J0
G1 X161.746 Y118.601
X161.693 Y118.592
X160.16 Y118.639
G3 X159.85 Y118.227 I-0.01 J-0.315
X162.562 Y119.105 Z-6.789 I1.356 J0.439 F333.3
X159.781 Y118.666 Z-7.5 I-1.356 J-0.439
X160.731 Y118.666 I0.475 J0 F1000
X156.931 Y118.666 I-1.9 J0
X163.581 Y118.666 I3.325 J0
X154.081 Y118.666 I-4.75 J0
X163.581 Y118.666 I4.75 J0
X163.187 Y118.971 I-0.315 J0
G1 X161.746 Y118.601
X161.693 Y118.592
X160.16 Y118.639
G3 X159.85 Y118.227 I-0.01 J-0.315
X162.562 Y119.105 Z-8.289 I1.356 J0.439 F333.3
X159.781 Y118.666 Z-9 I-1.356 J-0.439
X160.731 Y118.666 I0.475 J0 F1000
X156.931 Y118.666 I-1.9 J0
X163.581 Y118.666 I3.325 J0
X154.081 Y118.666 I-4.75 J0
X163.581 Y118.666 I4.75 J0
X163.187 Y118.971 I-0.315 J0
G1 X161.746 Y118.601
X161.693 Y118.592
X160.16 Y118.639
G3 X159.85 Y118.227 I-0.01 J-0.315
X162.562 Y119.105 Z-9.789 I1.356 J0.439 F333.3
X159.781 Y118.666 Z-10.5 I-1.356 J-0.439
X160.731 Y118.666 I0.475 J0 F1000
X156.931 Y118.666 I-1.9 J0
X163.581 Y118.666 I3.325 J0
X154.081 Y118.666 I-4.75 J0
X163.581 Y118.666 I4.75 J0
X163.187 Y118.971 I-0.315 J0
G1 X161.746 Y118.601
X161.693 Y118.592
X160.16 Y118.639
G3 X159.85 Y118.227 I-0.01 J-0.315
X162.562 Y119.105 Z-11.289 I1.356 J0.439 F333.3
X159.781 Y118.666 Z-12 I-1.356 J-0.439
X160.731 Y118.666 I0.475 J0 F1000
X156.931 Y118.666 I-1.9 J0
X163.581 Y118.666 I3.325 J0
X154.081 Y118.666 I-4.75 J0
X163.581 Y118.666 I4.75 J0
X163.187 Y118.971 I-0.315 J0
G1 X161.746 Y118.601
X161.693 Y118.592
X160.16 Y118.639
G3 X159.85 Y118.227 I-0.01 J-0.315
X162.562 Y119.105 Z-12.789 I1.356 J0.439 F333.3
X159.781 Y118.666 Z-13.5 I-1.356 J-0.439
X160.731 Y118.666 I0.475 J0 F1000
X156.931 Y118.666 I-1.9 J0
X163.581 Y118.666 I3.325 J0
X154.081 Y118.666 I-4.75 J0
X163.581 Y118.666 I4.75 J0
X163.187 Y118.971 I-0.315 J0
G1 X161.746 Y118.601
X161.693 Y118.592
X160.16 Y118.639
G3 X159.85 Y118.227 I-0.01 J-0.315
X162.562 Y119.105 Z-14.289 I1.356 J0.439 F333.3
X159.781 Y118.666 Z-15 I-1.356 J-0.439
X160.731 Y118.666 I0.475 J0 F1000
X156.931 Y118.666 I-1.9 J0
X163.581 Y118.666 I3.325 J0
X154.081 Y118.666 I-4.75 J0
X163.581 Y118.666 I4.75 J0
X163.187 Y118.971 I-0.315 J0
G1 X161.746 Y118.601
X161.693 Y118.592
X160.16 Y118.639
G3 X159.85 Y118.227 I-0.01 J-0.315
X162.562 Y119.105 Z-15.789 I1.356 J0.439 F333.3
X159.781 Y118.666 Z-16.5 I-1.356 J-0.439
X160.731 Y118.666 I0.475 J0 F1000
X156.931 Y118.666 I-1.9 J0
X163.581 Y118.666 I3.325 J0
X154.081 Y118.666 I-4.75 J0
X163.581 Y118.666 I4.75 J0
X163.269 Y118.832 I-0.2 J0
G1 X161.914 Y117.921
G3 X161.867 Y117.632 I0.112 J-0.166
X162.159 Y117.607 I0.158 J0.123
X160.253 Y119.725 Z-17.289 I-0.953 J1.059 F333.3
X159.781 Y118.666 Z-17.5 I0.953 J-1.059
X160.731 Y118.666 I0.475 J0 F1000
X156.931 Y118.666 I-1.9 J0
X163.581 Y118.666 I3.325 J0
X154.081 Y118.666 I-4.75 J0
X163.581 Y118.666 I4.75 J0
G0 Z4
X140.004 Y119.432
Z2
G1 Z1.8 F500
G3 X142.408 Y117.9 Z1.011 I1.202 J-0.766 F333.3
X140.004 Y119.432 Z0.221 I-1.202 J0.766
X142.408 Y117.9 Z-0.568 I1.202 J-0.766
X140.004 Y119.432 Z-1.358 I-1.202 J0.766
X139.781 Y118.666 Z-1.5 I1.202 J-0.766
X140.731 Y118.666 I0.475 J0 F1000
X136.931 Y118.666 I-1.9 J0
X143.581 Y118.666 I3.325 J0
X134.081 Y118.666 I-4.75 J0
X143.581 Y118.666 I4.75 J0
X143.187 Y118.971 I-0.315 J0
G1 X141.746 Y118.601
X141.693 Y118.592
X140.16 Y118.639
G3 X139.85 Y118.227 I-0.01 J-0.315
X142.562 Y119.105 Z-2.289 I1.356 J0.439 F333.3
X139.781 Y118.666 Z-3 I-1.356 J-0.439
X140.731 Y118.666 I0.475 J0 F1000
X136.931 Y118.666 I-1.9 J0
X143.581 Y118.666 I3.325 J0
X134.081 Y118.666 I-4.75 J0
X143.581 Y118.666 I4.75 J0
X143.187 Y118.971 I-0.315 J0
G1 X141.746 Y118.601
X141.693 Y118.592
X140.16 Y118.639
G3 X139.85 Y118.227 I-0.01 J-0.315
X142.562 Y119.105 Z-3.789 I1.356 J0.439 F333.3
X139.781 Y118.666 Z-4.5 I-1.356 J-0.439
X140.731 Y118.666 I0.475 J0 F1000
X136.931 Y118.666 I-1.9 J0
X143.581 Y118.666 I3.325 J0
X134.081 Y118.666 I-4.75 J0
X143.581 Y118.666 I4.75 J0
X143.187 Y118.971 I-0.315 J0
G1 X141.746 Y118.601
X141.693 Y118.592
X140.16 Y118.639
G3 X139.85 Y118.227 I-0.01 J-0.315
X142.562 Y119.105 Z-5.289 I1.356 J0.439 F333.3
X139.781 Y118.666 Z-6 I-1.356 J-0.439
X140.731 Y118.666 I0.475 J0 F1000
X136.931 Y118.666 I-1.9 J0
X143.581 Y118.666 I3.325 J0
X134.081 Y118.666 I-4.75 J0
X143.581 Y118.666 I4.75 J0
X143.187 Y118.971 I-0.315 J0
G1 X141.746 Y118.601
X141.693 Y118.592
X140.16 Y118.639
G3 X139.85 Y118.227 I-0.01 J-0.315
X142.562 Y119.105 Z-6.789 I1.356 J0.439 F333.3
X139.781 Y118.666 Z-7.5 I-1.356 J-0.439
X140.731 Y118.666 I0.475 J0 F1000
X136.931 Y118.666 I-1.9 J0
X143.581 Y118.666 I3.325 J0
X134.081 Y118.666 I-4.75 J0
X143.581 Y118.666 I4.75 J0
X143.187 Y118.971 I-0.315 J0
G1 X141.746 Y118.601
X141.693 Y118.592
X140.16 Y118.639
G3 X139.85 Y118.227 I-0.01 J-0.315
X142.562 Y119.105 Z-8.289 I1.356 J0.439 F333.3
X139.781 Y118.666 Z-9 I-1.356 J-0.439
X140.731 Y118.666 I0.475 J0 F1000
X136.931 Y118.666 I-1.9 J0
X143.581 Y118.666 I3.325 J0
X134.081 Y118.666 I-4.75 J0
X143.581 Y118.666 I4.75 J0
X143.187 Y118.971 I-0.315 J0
G1 X141.746 Y118.601
X141.693 Y118.592
X140.16 Y118.639
G3 X139.85 Y118.227 I-0.01 J-0.315
X142.562 Y119.105 Z-9.789 I1.356 J0.439 F333.3
X139.781 Y118.666 Z-10.5 I-1.356 J-0.439
X140.731 Y118.666 I0.475 J0 F1000
X136.931 Y118.666 I-1.9 J0
X143.581 Y118.666 I3.325 J0
X134.081 Y118.666 I-4.75 J0
X143.581 Y118.666 I4.75 J0
X143.187 Y118.971 I-0.315 J0
G1 X141.746 Y118.601
X141.693 Y118.592
X140.16 Y118.639
G3 X139.85 Y118.227 I-0.01 J-0.315
X142.562 Y119.105 Z-11.289 I1.356 J0.439 F333.3
X139.781 Y118.666 Z-12 I-1.356 J-0.439
X140.731 Y118.666 I0.475 J0 F1000
X136.931 Y118.666 I-1.9 J0
X143.581 Y118.666 I3.325 J0
X134.081 Y118.666 I-4.75 J0
X143.581 Y118.666 I4.75 J0
X143.187 Y118.971 I-0.315 J0
G1 X141.746 Y118.601
X141.693 Y118.592
X140.16 Y118.639
G3 X139.85 Y118.227 I-0.01 J-0.315
X142.562 Y119.105 Z-12.789 I1.356 J0.439 F333.3
X139.781 Y118.666 Z-13.5 I-1.356 J-0.439
X140.731 Y118.666 I0.475 J0 F1000
X136.931 Y118.666 I-1.9 J0
X143.581 Y118.666 I3.325 J0
X134.081 Y118.666 I-4.75 J0
X143.581 Y118.666 I4.75 J0
X143.187 Y118.971 I-0.315 J0
G1 X141.746 Y118.601
X141.693 Y118.592
X140.16 Y118.639
G3 X139.85 Y118.227 I-0.01 J-0.315
X142.562 Y119.105 Z-14.289 I1.356 J0.439 F333.3
X139.781 Y118.666 Z-15 I-1.356 J-0.439
X140.731 Y118.666 I0.475 J0 F1000
X136.931 Y118.666 I-1.9 J0
X143.581 Y118.666 I3.325 J0
X134.081 Y118.666 I-4.75 J0
X143.581 Y118.666 I4.75 J0
X143.187 Y118.971 I-0.315 J0
G1 X141.746 Y118.601
X141.693 Y118.592
X140.16 Y118.639
G3 X139.85 Y118.227 I-0.01 J-0.315
X142.562 Y119.105 Z-15.789 I1.356 J0.439 F333.3
X139.781 Y118.666 Z-16.5 I-1.356 J-0.439
X140.731 Y118.666 I0.475 J0 F1000
X136.931 Y118.666 I-1.9 J0
X143.581 Y118.666 I3.325 J0
X134.081 Y118.666 I-4.75 J0
X143.581 Y118.666 I4.75 J0
X143.269 Y118.832 I-0.2 J0
G1 X141.914 Y117.921
G3 X141.867 Y117.632 I0.112 J-0.166
X142.159 Y117.607 I0.158 J0.123
X140.253 Y119.725 Z-17.289 I-0.953 J1.059 F333.3
X139.781 Y118.666 Z-17.5 I0.953 J-1.059
X140.731 Y118.666 I0.475 J0 F1000
X136.931 Y118.666 I-1.9 J0
X143.581 Y118.666 I3.325 J0
X134.081 Y118.666 I-4.75 J0
X143.581 Y118.666 I4.75 J0
G0 Z4
X120.004 Y119.432
Z2
G1 Z1.8 F500
G3 X122.408 Y117.9 Z1.011 I1.202 J-0.766 F333.3
X120.004 Y119.432 Z0.221 I-1.202 J0.766
X122.408 Y117.9 Z-0.568 I1.202 J-0.766
X120.004 Y119.432 Z-1.358 I-1.202 J0.766
X119.781 Y118.666 Z-1.5 I1.202 J-0.766
X120.731 Y118.666 I0.475 J0 F1000
X116.931 Y118.666 I-1.9 J0
X123.581 Y118.666 I3.325 J0
X114.081 Y118.666 I-4.75 J0
X123.581 Y118.666 I4.75 J0
X123.187 Y118.971 I-0.315 J0
G1 X121.746 Y118.601
X121.693 Y118.592
X120.16 Y118.639
G3 X119.85 Y118.227 I-0.01 J-0.315
X122.562 Y119.105 Z-2.289 I1.356 J0.439 F333.3
X119.781 Y118.666 Z-3 I-1.356 J-0.439
X120.731 Y118.666 I0.475 J0 F1000
X116.931 Y118.666 I-1.9 J0
X123.581 Y118.666 I3.325 J0
X114.081 Y118.666 I-4.75 J0
X123.581 Y118.666 I4.75 J0
X123.187 Y118.971 I-0.315 J0
G1 X121.746 Y118.601
X121.693 Y118.592
X120.16 Y118.639
G3 X119.85 Y118.227 I-0.01 J-0.315
X122.562 Y119.105 Z-3.789 I1.356 J0.439 F333.3
X119.781 Y118.666 Z-4.5 I-1.356 J-0.439
X120.731 Y118.666 I0.475 J0 F1000
X116.931 Y118.666 I-1.9 J0
X123.581 Y118.666 I3.325 J0
X114.081 Y118.666 I-4.75 J0
X123.581 Y118.666 I4.75 J0
X123.187 Y118.971 I-0.315 J0
G1 X121.746 Y118.601
X121.693 Y118.592
X120.16 Y118.639
G3 X119.85 Y118.227 I-0.01 J-0.315
X122.562 Y119.105 Z-5.289 I1.356 J0.439 F333.3
X119.781 Y118.666 Z-6 I-1.356 J-0.439
X120.731 Y118.666 I0.475 J0 F1000
X116.931 Y118.666 I-1.9 J0
X123.581 Y118.666 I3.325 J0
X114.081 Y118.666 I-4.75 J0
X123.581 Y118.666 I4.75 J0
X123.187 Y118.971 I-0.315 J0
G1 X121.746 Y118.601
X121.693 Y118.592
X120.16 Y118.639
G3 X119.85 Y118.227 I-0.01 J-0.315
X122.562 Y119.105 Z-6.789 I1.356 J0.439 F333.3
X119.781 Y118.666 Z-7.5 I-1.356 J-0.439
X120.731 Y118.666 I0.475 J0 F1000
X116.931 Y118.666 I-1.9 J0
X123.581 Y118.666 I3.325 J0
X114.081 Y118.666 I-4.75 J0
X123.581 Y118.666 I4.75 J0
X123.187 Y118.971 I-0.315 J0
G1 X121.746 Y118.601
X121.693 Y118.592
X120.16 Y118.639
G3 X119.85 Y118.227 I-0.01 J-0.315
X122.562 Y119.105 Z-8.289 I1.356 J0.439 F333.3
X119.781 Y118.666 Z-9 I-1.356 J-0.439
X120.731 Y118.666 I0.475 J0 F1000
X116.931 Y118.666 I-1.9 J0
X123.581 Y118.666 I3.325 J0
X114.081 Y118.666 I-4.75 J0
X123.581 Y118.666 I4.75 J0
X123.187 Y118.971 I-0.315 J0
G1 X121.746 Y118.601
X121.693 Y118.592
X120.16 Y118.639
G3 X119.85 Y118.227 I-0.01 J-0.315
X122.562 Y119.105 Z-9.789 I1.356 J0.439 F333.3
X119.781 Y118.666 Z-10.5 I-1.356 J-0.439
X120.731 Y118.666 I0.475 J0 F1000
X116.931 Y118.666 I-1.9 J0
X123.581 Y118.666 I3.325 J0
X114.081 Y118.666 I-4.75 J0
X123.581 Y118.666 I4.75 J0
X123.187 Y118.971 I-0.315 J0
G1 X121.746 Y118.601
X121.693 Y118.592
X120.16 Y118.639
G3 X119.85 Y118.227 I-0.01 J-0.315
X122.562 Y119.105 Z-11.289 I1.356 J0.439 F333.3
X119.781 Y118.666 Z-12 I-1.356 J-0.439
X120.731 Y118.666 I0.475 J0 F1000
X116.931 Y118.666 I-1.9 J0
X123.581 Y118.666 I3.325 J0
X114.081 Y118.666 I-4.75 J0
X123.581 Y118.666 I4.75 J0
X123.187 Y118.971 I-0.315 J0
G1 X121.746 Y118.601
X121.693 Y118.592
X120.16 Y118.639
G3 X119.85 Y118.227 I-0.01 J-0.315
X122.562 Y119.105 Z-12.789 I1.356 J0.439 F333.3
X119.781 Y118.666 Z-13.5 I-1.356 J-0.439
X120.731 Y118.666 I0.475 J0 F1000
X116.931 Y118.666 I-1.9 J0
X123.581 Y118.666 I3.325 J0
X114.081 Y118.666 I-4.75 J0
X123.581 Y118.666 I4.75 J0
X123.187 Y118.971 I-0.315 J0
G1 X121.746 Y118.601
X121.693 Y118.592
X120.16 Y118.639
G3 X119.85 Y118.227 I-0.01 J-0.315
X122.562 Y119.105 Z-14.289 I1.356 J0.439 F333.3
X119.781 Y118.666 Z-15 I-1.356 J-0.439
X120.731 Y118.666 I0.475 J0 F1000
X116.931 Y118.666 I-1.9 J0
X123.581 Y118.666 I3.325 J0
X114.081 Y118.666 I-4.75 J0
X123.581 Y118.666 I4.75 J0
X123.187 Y118.971 I-0.315 J0
G1 X121.746 Y118.601
X121.693 Y118.592
X120.16 Y118.639
G3 X119.85 Y118.227 I-0.01 J-0.315
X122.562 Y119.105 Z-15.789 I1.356 J0.439 F333.3
X119.781 Y118.666 Z-16.5 I-1.356 J-0.439
X120.731 Y118.666 I0.475 J0 F1000
X116.931 Y118.666 I-1.9 J0
X123.581 Y118.666 I3.325 J0
X114.081 Y118.666 I-4.75 J0
X123.581 Y118.666 I4.75 J0
X123.269 Y118.832 I-0.2 J0
G1 X121.914 Y117.921
G3 X121.867 Y117.632 I0.112 J-0.166
X122.159 Y117.607 I0.158 J0.123
X120.253 Y119.725 Z-17.289 I-0.953 J1.059 F333.3
X119.781 Y118.666 Z-17.5 I0.953 J-1.059
X120.731 Y118.666 I0.475 J0 F1000
X116.931 Y118.666 I-1.9 J0
X123.581 Y118.666 I3.325 J0
X114.081 Y118.666 I-4.75 J0
X123.581 Y118.666 I4.75 J0
G0 Z4
X98.978 Y119.313
Z2
G1 Z1.8 F500
G2 X98.45 Y119.217 Z1.705 I-0.528 J1.404 F333.3
G1 X96.5 Z1.361
Y119.117 Z1.343
X98.45 Z1
G2 X99.95 Y117.617 Z0.584 I0 J-1.5
G1 Y115.667 Z0.24
X100.05 Z0.223
Y117.617 Z-0.121
G2 X101.55 Y119.117 Z-0.537 I1.5 J0
G1 X103.5 Z-0.881
Y119.217 Z-0.898
X101.55 Z-1.242
G2 X100.308 Y119.876 Z-1.5 I0 J1.5
X100.05 Y120.717 I1.242 J0.841 F1000
G1 Y122.667
X99.95
Y120.717
G2 X98.45 Y119.217 I-1.5 J0
G1 X96.5
Y119.117
X98.45
G2 X99.95 Y117.617 I0 J-1.5
G1 Y115.667
X100.05
Y117.617
G2 X101.55 Y119.117 I1.5 J0
G1 X103.5
Y119.217
X101.55
G2 X100.308 Y119.876 I0 J1.5
X100.05 Y120.717 Z-1.657 I1.242 J0.841 F333.3
G1 Y122.667 Z-2.001
X99.95 Z-2.019
Y120.717 Z-2.363
G2 X98.45 Y119.217 Z-2.778 I-1.5 J0
G1 X97.192 Z-3
X96.5 F1000
Y119.117
X98.45
G2 X99.95 Y117.617 I0 J-1.5
G1 Y115.667
X100.05
Y117.617
G2 X101.55 Y119.117 I1.5 J0
G1 X103.5
Y119.217
X101.55
G2 X100.05 Y120.717 I0 J1.5
G1 Y122.667
X99.95
Y120.717
G2 X98.45 Y119.217 I-1.5 J0
G1 X97.192
X96.5 Z-3.122 F333.3
Y119.117 Z-3.14
X98.45 Z-3.484
G2 X99.95 Y117.617 Z-3.899 I0 J-1.5
G1 Y115.667 Z-4.243
X100.05 Z-4.26
Y117.025 Z-4.5
Y117.617 F1000
G2 X101.55 Y119.117 I1.5 J0
G1 X103.5
Y119.217
X101.55
G2 X100.05 Y120.717 I0 J1.5
G1 Y122.667
X99.95
Y120.717
G2 X98.45 Y119.217 I-1.5 J0
G1 X97.192
X96.5
Y119.117
X98.45
G2 X99.95 Y117.617 I0 J-1.5
G1 Y115.667
X100.05
Y117.025
Y117.617 Z-4.604 F333.3
G2 X101.55 Y119.117 Z-5.02 I1.5 J0
G1 X103.5 Z-5.364
Y119.217 Z-5.381
X101.55 Z-5.725
G2 X100.257 Y119.957 Z-6 I0 J1.5
X100.05 Y120.717 I1.293 J0.76 F1000
G1 Y122.667
X99.95
Y120.717
G2 X98.45 Y119.217 I-1.5 J0
G1 X96.5
Y119.117
X98.45
G2 X99.95 Y117.617 I0 J-1.5
G1 Y115.667
X100.05
Y117.025
Y117.617
G2 X101.55 Y119.117 I1.5 J0
G1 X103.5
Y119.217
X101.55
G2 X100.257 Y119.957 I0 J1.5
X100.05 Y120.717 Z-6.141 I1.293 J0.76 F333.3
G1 Y122.667 Z-6.484
X99.95 Z-6.502
Y120.717 Z-6.846
G2 X98.45 Y119.217 Z-7.261 I-1.5 J0
G1 X97.096 Z-7.5
X96.5 F1000
Y119.117
X98.45
G2 X99.95 Y117.617 I0 J-1.5
G1 Y115.667
X100.05
Y117.617
G2 X101.55 Y119.117 I1.5 J0
G1 X103.5
Y119.217
X101.55
G2 X100.05 Y120.717 I0 J1.5
G1 Y122.667
X99.95
Y120.717
G2 X98.45 Y119.217 I-1.5 J0
G1 X97.096
X96.5 Z-7.605 F333.3
Y119.117 Z-7.623
X98.45 Z-7.967
G2 X99.95 Y117.617 Z-8.382 I0 J-1.5
G1 Y115.667 Z-8.726
X100.05 Z-8.744
Y117.121 Z-9
Y117.617 F1000
G2 X101.55 Y119.117 I1.5 J0
G1 X103.5
Y119.217
X101.55
G2 X100.05 Y120.717 I0 J1.5
G1 Y122.667
X99.95
Y120.717
G2 X98.45 Y119.217 I-1.5 J0
G1 X97.096
X96.5
Y119.117
X98.45
G2 X99.95 Y117.617 I0 J-1.5
G1 Y115.667
X100.05
Y117.121
Y117.617 Z-9.087 F333.3
G2 X101.55 Y119.117 Z-9.503 I1.5 J0
G1 X103.5 Z-9.847
Y119.217 Z-9.864
X101.55 Z-10.208
G2 X100.211 Y120.041 Z-10.5 I0 J1.5
X100.05 Y120.717 I1.339 J0.676 F1000
G1 Y122.667
X99.95
Y120.717
G2 X98.45 Y119.217 I-1.5 J0
G1 X96.5
Y119.117
X98.45
G2 X99.95 Y117.617 I0 J-1.5
G1 Y115.667
X100.05
Y117.121
Y117.617
G2 X101.55 Y119.117 I1.5 J0
G1 X103.5
Y119.217
X101.55
G2 X100.211 Y120.041 I0 J1.5
X100.05 Y120.717 Z-10.624 I1.339 J0.676 F333.3
G1 Y122.667 Z-10.967
X99.95 Z-10.985
Y120.717 Z-11.329
G2 X98.45 Y119.217 Z-11.744 I-1.5 J0
G1 X97 Z-12
X96.5 F1000
Y119.117
X98.45
G2 X99.95 Y117.617 I0 J-1.5
G1 Y115.667
X100.05
Y117.617
G2 X101.55 Y119.117 I1.5 J0
G1 X103.5
Y119.217
X101.55
G2 X100.05 Y120.717 I0 J1.5
G1 Y122.667
X99.95
Y120.717
G2 X98.45 Y119.217 I-1.5 J0
G1 X97
X96.5 Z-12.088 F333.3
Y119.117 Z-12.106
X98.45 Z-12.45
G2 X99.95 Y117.617 Z-12.865 I0 J-1.5
G1 Y115.667 Z-13.209
X100.05 Z-13.227
Y117.217 Z-13.5
Y117.617 F1000
G2 X101.55 Y119.117 I1.5 J0
G1 X103.5
Y119.217
X101.55
G2 X100.05 Y120.717 I0 J1.5
G1 Y122.667
X99.95
Y120.717
G2 X98.45 Y119.217 I-1.5 J0
G1 X97
X96.5
Y119.117
X98.45
G2 X99.95 Y117.617 I0 J-1.5
G1 Y115.667
X100.05
Y117.217
Y117.617 Z-13.57 F333.3
G2 X101.55 Y119.117 Z-13.986 I1.5 J0
G1 X103.5 Z-14.33
Y119.217 Z-14.347
X101.55 Z-14.691
G2 X100.17 Y120.128 Z-15 I0 J1.5
X100.05 Y120.717 I1.38 J0.589 F1000
G1 Y122.667
X99.95
Y120.717
G2 X98.45 Y119.217 I-1.5 J0
G1 X96.5
Y119.117
X98.45
G2 X99.95 Y117.617 I0 J-1.5
G1 Y115.667
X100.05
Y117.217
Y117.617
G2 X101.55 Y119.117 I1.5 J0
G1 X103.5
Y119.217
X101.55
G2 X100.17 Y120.128 I0 J1.5
X100.05 Y120.717 Z-15.107 I1.38 J0.589 F333.3
G1 Y122.667 Z-15.451
X99.95 Z-15.468
Y120.717 Z-15.812
G2 X98.45 Y119.217 Z-16.227 I-1.5 J0
G1 X96.904 Z-16.5
X96.5 F1000
Y119.117
X98.45
G2 X99.95 Y117.617 I0 J-1.5
G1 Y115.667
X100.05
Y117.617
G2 X101.55 Y119.117 I1.5 J0
G1 X103.5
Y119.217
X101.55
G2 X100.05 Y120.717 I0 J1.5
G1 Y122.667
X99.95
Y120.717
G2 X98.45 Y119.217 I-1.5 J0
G1 X96.904
X96.5 Z-16.571 F333.3
Y119.117 Z-16.589
X98.45 Z-16.933
G2 X99.95 Y117.617 Z-17.348 I0 J-1.5
G1 Y116.756 Z-17.5
Y115.667 F1000
X100.05
Y117.617
G2 X101.55 Y119.117 I1.5 J0
G1 X103.5
Y119.217
X101.55
G2 X100.05 Y120.717 I0 J1.5
G1 Y122.667
X99.95
Y120.717
G2 X98.45 Y119.217 I-1.5 J0
G1 X96.904
X96.5
Y119.117
X98.45
G2 X99.95 Y117.617 I0 J-1.5
G1 Y116.756
G0 Z4
X80.004 Y119.432
Z2
G1 Z1.8 F500
G3 X82.408 Y117.9 Z1.011 I1.202 J-0.766 F333.3
X80.004 Y119.432 Z0.221 I-1.202 J0.766
X82.408 Y117.9 Z-0.568 I1.202 J-0.766
X80.004 Y119.432 Z-1.358 I-1.202 J0.766
X79.781 Y118.666 Z-1.5 I1.202 J-0.766
X80.731 Y118.666 I0.475 J0 F1000
X76.931 Y118.666 I-1.9 J0
X83.581 Y118.666 I3.325 J0
X74.081 Y118.666 I-4.75 J0
X83.581 Y118.666 I4.75 J0
X83.187 Y118.971 I-0.315 J0
G1 X81.747 Y118.601
X81.693 Y118.592
X80.16 Y118.639
G3 X79.851 Y118.227 I-0.01 J-0.315
X82.562 Y119.105 Z-2.289 I1.356 J0.439 F333.3
X79.781 Y118.666 Z-3 I-1.356 J-0.439
X80.731 Y118.666 I0.475 J0 F1000
X76.931 Y118.666 I-1.9 J0
X83.581 Y118.666 I3.325 J0
X74.081 Y118.666 I-4.75 J0
X83.581 Y118.666 I4.75 J0
X83.187 Y118.971 I-0.315 J0
G1 X81.747 Y118.601
X81.693 Y118.592
X80.16 Y118.639
G3 X79.851 Y118.227 I-0.01 J-0.315
X82.562 Y119.105 Z-3.789 I1.356 J0.439 F333.3
X79.781 Y118.666 Z-4.5 I-1.356 J-0.439
X80.731 Y118.666 I0.475 J0 F1000
X76.931 Y118.666 I-1.9 J0
X83.581 Y118.666 I3.325 J0
X74.081 Y118.666 I-4.75 J0
X83.581 Y118.666 I4.75 J0
X83.187 Y118.971 I-0.315 J0
G1 X81.747 Y118.601
X81.693 Y118.592
X80.16 Y118.639
G3 X79.851 Y118.227 I-0.01 J-0.315
X82.562 Y119.105 Z-5.289 I1.356 J0.439 F333.3
X79.781 Y118.666 Z-6 I-1.356 J-0.439
X80.731 Y118.666 I0.475 J0 F1000
X76.931 Y118.666 I-1.9 J0
X83.581 Y118.666 I3.325 J0
X74.081 Y118.666 I-4.75 J0
X83.581 Y118.666 I4.75 J0
X83.187 Y118.971 I-0.315 J0
G1 X81.747 Y118.601
X81.693 Y118.592
X80.16 Y118.639
G3 X79.851 Y118.227 I-0.01 J-0.315
X82.562 Y119.105 Z-6.789 I1.356 J0.439 F333.3
X79.781 Y118.666 Z-7.5 I-1.356 J-0.439
X80.731 Y118.666 I0.475 J0 F1000
X76.931 Y118.666 I-1.9 J0
X83.581 Y118.666 I3.325 J0
X74.081 Y118.666 I-4.75 J0
X83.581 Y118.666 I4.75 J0
X83.187 Y118.971 I-0.315 J0
G1 X81.747 Y118.601
X81.693 Y118.592
X80.16 Y118.639
G3 X79.851 Y118.227 I-0.01 J-0.315
X82.562 Y119.105 Z-8.289 I1.356 J0.439 F333.3
X79.781 Y118.666 Z-9 I-1.356 J-0.439
X80.731 Y118.666 I0.475 J0 F1000
X76.931 Y118.666 I-1.9 J0
X83.581 Y118.666 I3.325 J0
X74.081 Y118.666 I-4.75 J0
X83.581 Y118.666 I4.75 J0
X83.187 Y118.971 I-0.315 J0
G1 X81.747 Y118.601
X81.693 Y118.592
X80.16 Y118.639
G3 X79.851 Y118.227 I-0.01 J-0.315
X82.562 Y119.105 Z-9.789 I1.356 J0.439 F333.3
X79.781 Y118.666 Z-10.5 I-1.356 J-0.439
X80.731 Y118.666 I0.475 J0 F1000
X76.931 Y118.666 I-1.9 J0
X83.581 Y118.666 I3.325 J0
X74.081 Y118.666 I-4.75 J0
X83.581 Y118.666 I4.75 J0
X83.187 Y118.971 I-0.315 J0
G1 X81.747 Y118.601
X81.693 Y118.592
X80.16 Y118.639
G3 X79.851 Y118.227 I-0.01 J-0.315
X82.562 Y119.105 Z-11.289 I1.356 J0.439 F333.3
X79.781 Y118.666 Z-12 I-1.356 J-0.439
X80.731 Y118.666 I0.475 J0 F1000
X76.931 Y118.666 I-1.9 J0
X83.581 Y118.666 I3.325 J0
X74.081 Y118.666 I-4.75 J0
X83.581 Y118.666 I4.75 J0
X83.187 Y118.971 I-0.315 J0
G1 X81.747 Y118.601
X81.693 Y118.592
X80.16 Y118.639
G3 X79.851 Y118.227 I-0.01 J-0.315
X82.562 Y119.105 Z-12.789 I1.356 J0.439 F333.3
X79.781 Y118.666 Z-13.5 I-1.356 J-0.439
X80.731 Y118.666 I0.475 J0 F1000
X76.931 Y118.666 I-1.9 J0
X83.581 Y118.666 I3.325 J0
X74.081 Y118.666 I-4.75 J0
X83.581 Y118.666 I4.75 J0
X83.187 Y118.971 I-0.315 J0
G1 X81.747 Y118.601
X81.693 Y118.592
X80.16 Y118.639
G3 X79.851 Y118.227 I-0.01 J-0.315
X82.562 Y119.105 Z-14.289 I1.356 J0.439 F333.3
X79.781 Y118.666 Z-15 I-1.356 J-0.439
X80.731 Y118.666 I0.475 J0 F1000
X76.931 Y118.666 I-1.9 J0
X83.581 Y118.666 I3.325 J0
X74.081 Y118.666 I-4.75 J0
X83.581 Y118.666 I4.75 J0
X83.187 Y118.971 I-0.315 J0
G1 X81.747 Y118.601
X81.693 Y118.592
X80.16 Y118.639
G3 X79.851 Y118.227 I-0.01 J-0.315
X82.562 Y119.105 Z-15.789 I1.356 J0.439 F333.3
X79.781 Y118.666 Z-16.5 I-1.356 J-0.439
X80.731 Y118.666 I0.475 J0 F1000
X76.931 Y118.666 I-1.9 J0
X83.581 Y118.666 I3.325 J0
X74.081 Y118.666 I-4.75 J0
X83.581 Y118.666 I4.75 J0
X83.27 Y118.832 I-0.2 J0
G1 X81.914 Y117.921
G3 X81.868 Y117.632 I0.112 J-0.166
X82.159 Y117.607 I0.158 J0.123
X80.253 Y119.725 Z-17.289 I-0.953 J1.059 F333.3
X79.781 Y118.666 Z-17.5 I0.953 J-1.059
X80.731 Y118.666 I0.475 J0 F1000
X76.931 Y118.666 I-1.9 J0
X83.581 Y118.666 I3.325 J0
X74.081 Y118.666 I-4.75 J0
X83.581 Y118.666 I4.75 J0
G0 Z4
X70.827 Y104.237
Z2
G1 Z1.8 F500
G3 X68.423 Y105.769 Z1.011 I-1.202 J0.766 F333.3
X70.827 Y104.237 Z0.221 I1.202 J-0.766
X68.423 Y105.769 Z-0.568 I-1.202 J0.766
X70.827 Y104.237 Z-1.358 I1.202 J-0.766
X71.05 Y105.003 Z-1.5 I-1.202 J0.766
X68.95 Y105.003 I-1.05 J0 F1000
X73.9 Y105.003 I2.475 J0
X66.1 Y105.003 I-3.9 J0
X76.75 Y105.003 I5.325 J0
X63.25 Y105.003 I-6.75 J0
X76.75 Y105.003 I6.75 J0
X73.9 Y105.003 Z-2.25 I-1.425 J0 F333.3
G2 X71.05 Y105.003 Z-3 I-1.425 J0
G3 X68.95 Y105.003 I-1.05 J0 F1000
X73.9 Y105.003 I2.475 J0
X66.1 Y105.003 I-3.9 J0
X76.75 Y105.003 I5.325 J0
X63.25 Y105.003 I-6.75 J0
X76.75 Y105.003 I6.75 J0
X73.9 Y105.003 Z-3.75 I-1.425 J0 F333.3
G2 X71.05 Y105.003 Z-4.5 I-1.425 J0
G3 X68.95 Y105.003 I-1.05 J0 F1000
X73.9 Y105.003 I2.475 J0
X66.1 Y105.003 I-3.9 J0
X76.75 Y105.003 I5.325 J0
X63.25 Y105.003 I-6.75 J0
X76.75 Y105.003 I6.75 J0
X73.9 Y105.003 Z-5.25 I-1.425 J0 F333.3
G2 X71.05 Y105.003 Z-6 I-1.425 J0
G3 X68.95 Y105.003 I-1.05 J0 F1000
X73.9 Y105.003 I2.475 J0
X66.1 Y105.003 I-3.9 J0
X76.75 Y105.003 I5.325 J0
X63.25 Y105.003 I-6.75 J0
X76.75 Y105.003 I6.75 J0
X73.9 Y105.003 Z-6.75 I-1.425 J0 F333.3
G2 X71.05 Y105.003 Z-7.5 I-1.425 J0
G3 X68.95 Y105.003 I-1.05 J0 F1000
X73.9 Y105.003 I2.475 J0
X66.1 Y105.003 I-3.9 J0
X76.75 Y105.003 I5.325 J0
X63.25 Y105.003 I-6.75 J0
X76.75 Y105.003 I6.75 J0
X73.9 Y105.003 Z-8.25 I-1.425 J0 F333.3
G2 X71.05 Y105.003 Z-9 I-1.425 J0
G3 X68.95 Y105.003 I-1.05 J0 F1000
X73.9 Y105.003 I2.475 J0
X66.1 Y105.003 I-3.9 J0
X76.75 Y105.003 I5.325 J0
X63.25 Y105.003 I-6.75 J0
X76.75 Y105.003 I6.75 J0
X73.9 Y105.003 Z-9.75 I-1.425 J0 F333.3
G2 X71.05 Y105.003 Z-10.5 I-1.425 J0
G3 X68.95 Y105.003 I-1.05 J0 F1000
X73.9 Y105.003 I2.475 J0
X66.1 Y105.003 I-3.9 J0
X76.75 Y105.003 I5.325 J0
X63.25 Y105.003 I-6.75 J0
X76.75 Y105.003 I6.75 J0
X73.9 Y105.003 Z-11.25 I-1.425 J0 F333.3
G2 X71.05 Y105.003 Z-12 I-1.425 J0
G3 X68.95 Y105.003 I-1.05 J0 F1000
X73.9 Y105.003 I2.475 J0
X66.1 Y105.003 I-3.9 J0
X76.75 Y105.003 I5.325 J0
X63.25 Y105.003 I-6.75 J0
X76.75 Y105.003 I6.75 J0
X73.9 Y105.003 Z-12.75 I-1.425 J0 F333.3
G2 X71.05 Y105.003 Z-13.5 I-1.425 J0
G3 X68.95 Y105.003 I-1.05 J0 F1000
X73.9 Y105.003 I2.475 J0
X66.1 Y105.003 I-3.9 J0
X76.75 Y105.003 I5.325 J0
X63.25 Y105.003 I-6.75 J0
X76.75 Y105.003 I6.75 J0
X73.9 Y105.003 Z-14.25 I-1.425 J0 F333.3
G2 X71.05 Y105.003 Z-15 I-1.425 J0
G3 X68.95 Y105.003 I-1.05 J0 F1000
X73.9 Y105.003 I2.475 J0
X66.1 Y105.003 I-3.9 J0
X76.75 Y105.003 I5.325 J0
X63.25 Y105.003 I-6.75 J0
X76.75 Y105.003 I6.75 J0
X73.9 Y105.003 Z-15.75 I-1.425 J0 F333.3
G2 X71.05 Y105.003 Z-16.5 I-1.425 J0
G3 X68.95 Y105.003 I-1.05 J0 F1000
X73.9 Y105.003 I2.475 J0
X66.1 Y105.003 I-3.9 J0
X76.75 Y105.003 I5.325 J0
X63.25 Y105.003 I-6.75 J0
X76.75 Y105.003 I6.75 J0
X73.9 Y105.003 Z-17 I-1.425 J0 F333.3
G2 X71.05 Y105.003 Z-17.5 I-1.425 J0
G3 X68.95 Y105.003 I-1.05 J0 F1000
X73.9 Y105.003 I2.475 J0
X66.1 Y105.003 I-3.9 J0
X76.75 Y105.003 I5.325 J0
X63.25 Y105.003 I-6.75 J0
X76.75 Y105.003 I6.75 J0
G0 Z4
X60.004 Y119.432
Z2
G1 Z1.8 F500
G3 X62.408 Y117.9 Z1.011 I1.202 J-0.766 F333.3
X60.004 Y119.432 Z0.221 I-1.202 J0.766
X62.408 Y117.9 Z-0.568 I1.202 J-0.766
X60.004 Y119.432 Z-1.358 I-1.202 J0.766
X59.781 Y118.666 Z-1.5 I1.202 J-0.766
X60.731 Y118.666 I0.475 J0 F1000
X56.931 Y118.666 I-1.9 J0
X63.581 Y118.666 I3.325 J0
X54.081 Y118.666 I-4.75 J0
X63.581 Y118.666 I4.75 J0
X63.187 Y118.971 I-0.315 J0
G1 X61.747 Y118.601
X61.693 Y118.592
X60.16 Y118.639
G3 X59.851 Y118.227 I-0.01 J-0.315
X62.562 Y119.105 Z-2.289 I1.356 J0.439 F333.3
X59.781 Y118.666 Z-3 I-1.356 J-0.439
X60.731 Y118.666 I0.475 J0 F1000
X56.931 Y118.666 I-1.9 J0
X63.581 Y118.666 I3.325 J0
X54.081 Y118.666 I-4.75 J0
X63.581 Y118.666 I4.75 J0
X63.187 Y118.971 I-0.315 J0
G1 X61.747 Y118.601
X61.693 Y118.592
X60.16 Y118.639
G3 X59.851 Y118.227 I-0.01 J-0.315
X62.562 Y119.105 Z-3.789 I1.356 J0.439 F333.3
X59.781 Y118.666 Z-4.5 I-1.356 J-0.439
X60.731 Y118.666 I0.475 J0 F1000
X56.931 Y118.666 I-1.9 J0
X63.581 Y118.666 I3.325 J0
X54.081 Y118.666 I-4.75 J0
X63.581 Y118.666 I4.75 J0
X63.187 Y118.971 I-0.315 J0
G1 X61.747 Y118.601
X61.693 Y118.592
X60.16 Y118.639
G3 X59.851 Y118.227 I-0.01 J-0.315
X62.562 Y119.105 Z-5.289 I1.356 J0.439 F333.3
X59.781 Y118.666 Z-6 I-1.356 J-0.439
X60.731 Y118.666 I0.475 J0 F1000
X56.931 Y118.666 I-1.9 J0
X63.581 Y118.666 I3.325 J0
X54.081 Y118.666 I-4.75 J0
X63.581 Y118.666 I4.75 J0
X63.187 Y118.971 I-0.315 J0
G1 X61.747 Y118.601
X61.693 Y118.592
X60.16 Y118.639
G3 X59.851 Y118.227 I-0.01 J-0.315
X62.562 Y119.105 Z-6.789 I1.356 J0.439 F333.3
X59.781 Y118.666 Z-7.5 I-1.356 J-0.439
X60.731 Y118.666 I0.475 J0 F1000
X56.931 Y118.666 I-1.9 J0
X63.581 Y118.666 I3.325 J0
X54.081 Y118.666 I-4.75 J0
X63.581 Y118.666 I4.75 J0
X63.187 Y118.971 I-0.315 J0
G1 X61.747 Y118.601
X61.693 Y118.592
X60.16 Y118.639
G3 X59.851 Y118.227 I-0.01 J-0.315
X62.562 Y119.105 Z-8.289 I1.356 J0.439 F333.3
X59.781 Y118.666 Z-9 I-1.356 J-0.439
X60.731 Y118.666 I0.475 J0 F1000
X56.931 Y118.666 I-1.9 J0
X63.581 Y118.666 I3.325 J0
X54.081 Y118.666 I-4.75 J0
X63.581 Y118.666 I4.75 J0
X63.187 Y118.971 I-0.315 J0
G1 X61.747 Y118.601
X61.693 Y118.592
X60.16 Y118.639
G3 X59.851 Y118.227 I-0.01 J-0.315
X62.562 Y119.105 Z-9.789 I1.356 J0.439 F333.3
X59.781 Y118.666 Z-10.5 I-1.356 J-0.439
X60.731 Y118.666 I0.475 J0 F1000
X56.931 Y118.666 I-1.9 J0
X63.581 Y118.666 I3.325 J0
X54.081 Y118.666 I-4.75 J0
X63.581 Y118.666 I4.75 J0
X63.187 Y118.971 I-0.315 J0
G1 X61.747 Y118.601
X61.693 Y118.592
X60.16 Y118.639
G3 X59.851 Y118.227 I-0.01 J-0.315
X62.562 Y119.105 Z-11.289 I1.356 J0.439 F333.3
X59.781 Y118.666 Z-12 I-1.356 J-0.439
X60.731 Y118.666 I0.475 J0 F1000
X56.931 Y118.666 I-1.9 J0
X63.581 Y118.666 I3.325 J0
X54.081 Y118.666 I-4.75 J0
X63.581 Y118.666 I4.75 J0
X63.187 Y118.971 I-0.315 J0
G1 X61.747 Y118.601
X61.693 Y118.592
X60.16 Y118.639
G3 X59.851 Y118.227 I-0.01 J-0.315
X62.562 Y119.105 Z-12.789 I1.356 J0.439 F333.3
X59.781 Y118.666 Z-13.5 I-1.356 J-0.439
X60.731 Y118.666 I0.475 J0 F1000
X56.931 Y118.666 I-1.9 J0
X63.581 Y118.666 I3.325 J0
X54.081 Y118.666 I-4.75 J0
X63.581 Y118.666 I4.75 J0
X63.187 Y118.971 I-0.315 J0
G1 X61.747 Y118.601
X61.693 Y118.592
X60.16 Y118.639
G3 X59.851 Y118.227 I-0.01 J-0.315
X62.562 Y119.105 Z-14.289 I1.356 J0.439 F333.3
X59.781 Y118.666 Z-15 I-1.356 J-0.439
X60.731 Y118.666 I0.475 J0 F1000
X56.931 Y118.666 I-1.9 J0
X63.581 Y118.666 I3.325 J0
X54.081 Y118.666 I-4.75 J0
X63.581 Y118.666 I4.75 J0
X63.187 Y118.971 I-0.315 J0
G1 X61.747 Y118.601
X61.693 Y118.592
X60.16 Y118.639
G3 X59.851 Y118.227 I-0.01 J-0.315
X62.562 Y119.105 Z-15.789 I1.356 J0.439 F333.3
X59.781 Y118.666 Z-16.5 I-1.356 J-0.439
X60.731 Y118.666 I0.475 J0 F1000
X56.931 Y118.666 I-1.9 J0
X63.581 Y118.666 I3.325 J0
X54.081 Y118.666 I-4.75 J0
X63.581 Y118.666 I4.75 J0
X63.27 Y118.832 I-0.2 J0
G1 X61.914 Y117.921
G3 X61.868 Y117.632 I0.112 J-0.166
X62.159 Y117.607 I0.158 J0.123
X60.253 Y119.725 Z-17.289 I-0.953 J1.059 F333.3
X59.781 Y118.666 Z-17.5 I0.953 J-1.059
X60.731 Y118.666 I0.475 J0 F1000
X56.931 Y118.666 I-1.9 J0
X63.581 Y118.666 I3.325 J0
X54.081 Y118.666 I-4.75 J0
X63.581 Y118.666 I4.75 J0
G0 Z4
X50.827 Y104.237
Z2
G1 Z1.8 F500
G3 X48.423 Y105.769 Z1.011 I-1.202 J0.766 F333.3
X50.827 Y104.237 Z0.221 I1.202 J-0.766
X48.423 Y105.769 Z-0.568 I-1.202 J0.766
X50.827 Y104.237 Z-1.358 I1.202 J-0.766
X51.05 Y105.003 Z-1.5 I-1.202 J0.766
X48.95 Y105.003 I-1.05 J0 F1000
X53.9 Y105.003 I2.475 J0
X46.1 Y105.003 I-3.9 J0
X56.75 Y105.003 I5.325 J0
X43.25 Y105.003 I-6.75 J0
X56.75 Y105.003 I6.75 J0
X53.9 Y105.003 Z-2.25 I-1.425 J0 F333.3
G2 X51.05 Y105.003 Z-3 I-1.425 J0
G3 X48.95 Y105.003 I-1.05 J0 F1000
X53.9 Y105.003 I2.475 J0
X46.1 Y105.003 I-3.9 J0
X56.75 Y105.003 I5.325 J0
X43.25 Y105.003 I-6.75 J0
X56.75 Y105.003 I6.75 J0
X53.9 Y105.003 Z-3.75 I-1.425 J0 F333.3
G2 X51.05 Y105.003 Z-4.5 I-1.425 J0
G3 X48.95 Y105.003 I-1.05 J0 F1000
X53.9 Y105.003 I2.475 J0
X46.1 Y105.003 I-3.9 J0
X56.75 Y105.003 I5.325 J0
X43.25 Y105.003 I-6.75 J0
X56.75 Y105.003 I6.75 J0
X53.9 Y105.003 Z-5.25 I-1.425 J0 F333.3
G2 X51.05 Y105.003 Z-6 I-1.425 J0
G3 X48.95 Y105.003 I-1.05 J0 F1000
X53.9 Y105.003 I2.475 J0
X46.1 Y105.003 I-3.9 J0
X56.75 Y105.003 I5.325 J0
X43.25 Y105.003 I-6.75 J0
X56.75 Y105.003 I6.75 J0
X53.9 Y105.003 Z-6.75 I-1.425 J0 F333.3
G2 X51.05 Y105.003 Z-7.5 I-1.425 J0
G3 X48.95 Y105.003 I-1.05 J0 F1000
X53.9 Y105.003 I2.475 J0
X46.1 Y105.003 I-3.9 J0
X56.75 Y105.003 I5.325 J0
X43.25 Y105.003 I-6.75 J0
X56.75 Y105.003 I6.75 J0
X53.9 Y105.003 Z-8.25 I-1.425 J0 F333.3
G2 X51.05 Y105.003 Z-9 I-1.425 J0
G3 X48.95 Y105.003 I-1.05 J0 F1000
X53.9 Y105.003 I2.475 J0
X46.1 Y105.003 I-3.9 J0
X56.75 Y105.003 I5.325 J0
X43.25 Y105.003 I-6.75 J0
X56.75 Y105.003 I6.75 J0
X53.9 Y105.003 Z-9.75 I-1.425 J0 F333.3
G2 X51.05 Y105.003 Z-10.5 I-1.425 J0
G3 X48.95 Y105.003 I-1.05 J0 F1000
X53.9 Y105.003 I2.475 J0
X46.1 Y105.003 I-3.9 J0
X56.75 Y105.003 I5.325 J0
X43.25 Y105.003 I-6.75 J0
X56.75 Y105.003 I6.75 J0
X53.9 Y105.003 Z-11.25 I-1.425 J0 F333.3
G2 X51.05 Y105.003 Z-12 I-1.425 J0
G3 X48.95 Y105.003 I-1.05 J0 F1000
X53.9 Y105.003 I2.475 J0
X46.1 Y105.003 I-3.9 J0
X56.75 Y105.003 I5.325 J0
X43.25 Y105.003 I-6.75 J0
X56.75 Y105.003 I6.75 J0
X53.9 Y105.003 Z-12.75 I-1.425 J0 F333.3
G2 X51.05 Y105.003 Z-13.5 I-1.425 J0
G3 X48.95 Y105.003 I-1.05 J0 F1000
X53.9 Y105.003 I2.475 J0
X46.1 Y105.003 I-3.9 J0
X56.75 Y105.003 I5.325 J0
X43.25 Y105.003 I-6.75 J0
X56.75 Y105.003 I6.75 J0
X53.9 Y105.003 Z-14.25 I-1.425 J0 F333.3
G2 X51.05 Y105.003 Z-15 I-1.425 J0
G3 X48.95 Y105.003 I-1.05 J0 F1000
X53.9 Y105.003 I2.475 J0
X46.1 Y105.003 I-3.9 J0
X56.75 Y105.003 I5.325 J0
X43.25 Y105.003 I-6.75 J0
X56.75 Y105.003 I6.75 J0
X53.9 Y105.003 Z-15.75 I-1.425 J0 F333.3
G2 X51.05 Y105.003 Z-16.5 I-1.425 J0
G3 X48.95 Y105.003 I-1.05 J0 F1000
X53.9 Y105.003 I2.475 J0
X46.1 Y105.003 I-3.9 J0
X56.75 Y105.003 I5.325 J0
X43.25 Y105.003 I-6.75 J0
X56.75 Y105.003 I6.75 J0
X53.9 Y105.003 Z-17 I-1.425 J0 F333.3
G2 X51.05 Y105.003 Z-17.5 I-1.425 J0
G3 X48.95 Y105.003 I-1.05 J0 F1000
X53.9 Y105.003 I2.475 J0
X46.1 Y105.003 I-3.9 J0
X56.75 Y105.003 I5.325 J0
X43.25 Y105.003 I-6.75 J0
X56.75 Y105.003 I6.75 J0
G0 Z4
X40.004 Y119.432
Z2
G1 Z1.8 F500
G3 X42.408 Y117.9 Z1.011 I1.202 J-0.766 F333.3
X40.004 Y119.432 Z0.221 I-1.202 J0.766
X42.408 Y117.9 Z-0.568 I1.202 J-0.766
X40.004 Y119.432 Z-1.358 I-1.202 J0.766
X39.781 Y118.666 Z-1.5 I1.202 J-0.766
X40.731 Y118.666 I0.475 J0 F1000
X36.931 Y118.666 I-1.9 J0
X43.581 Y118.666 I3.325 J0
X34.081 Y118.666 I-4.75 J0
X43.581 Y118.666 I4.75 J0
X43.187 Y118.971 I-0.315 J0
G1 X41.747 Y118.601
X41.693 Y118.592
X40.16 Y118.639
G3 X39.851 Y118.227 I-0.01 J-0.315
X42.562 Y119.105 Z-2.289 I1.356 J0.439 F333.3
X39.781 Y118.666 Z-3 I-1.356 J-0.439
X40.731 Y118.666 I0.475 J0 F1000
X36.931 Y118.666 I-1.9 J0
X43.581 Y118.666 I3.325 J0
X34.081 Y118.666 I-4.75 J0
X43.581 Y118.666 I4.75 J0
X43.187 Y118.971 I-0.315 J0
G1 X41.747 Y118.601
X41.693 Y118.592
X40.16 Y118.639
G3 X39.851 Y118.227 I-0.01 J-0.315
X42.562 Y119.105 Z-3.789 I1.356 J0.439 F333.3
X39.781 Y118.666 Z-4.5 I-1.356 J-0.439
X40.731 Y118.666 I0.475 J0 F1000
X36.931 Y118.666 I-1.9 J0
X43.581 Y118.666 I3.325 J0
X34.081 Y118.666 I-4.75 J0
X43.581 Y118.666 I4.75 J0
X43.187 Y118.971 I-0.315 J0
G1 X41.747 Y118.601
X41.693 Y118.592
X40.16 Y118.639
G3 X39.851 Y118.227 I-0.01 J-0.315
X42.562 Y119.105 Z-5.289 I1.356 J0.439 F333.3
X39.781 Y118.666 Z-6 I-1.356 J-0.439
X40.731 Y118.666 I0.475 J0 F1000
X36.931 Y118.666 I-1.9 J0
X43.581 Y118.666 I3.325 J0
X34.081 Y118.666 I-4.75 J0
X43.581 Y118.666 I4.75 J0
X43.187 Y118.971 I-0.315 J0
G1 X41.747 Y118.601
X41.693 Y118.592
X40.16 Y118.639
G3 X39.851 Y118.227 I-0.01 J-0.315
X42.562 Y119.105 Z-6.789 I1.356 J0.439 F333.3
X39.781 Y118.666 Z-7.5 I-1.356 J-0.439
X40.731 Y118.666 I0.475 J0 F1000
X36.931 Y118.666 I-1.9 J0
X43.581 Y118.666 I3.325 J0
X34.081 Y118.666 I-4.75 J0
X43.581 Y118.666 I4.75 J0
X43.187 Y118.971 I-0.315 J0
G1 X41.747 Y118.601
X41.693 Y118.592
X40.16 Y118.639
G3 X39.851 Y118.227 I-0.01 J-0.315
X42.562 Y119.105 Z-8.289 I1.356 J0.439 F333.3
X39.781 Y118.666 Z-9 I-1.356 J-0.439
X40.731 Y118.666 I0.475 J0 F1000
X36.931 Y118.666 I-1.9 J0
X43.581 Y118.666 I3.325 J0
X34.081 Y118.666 I-4.75 J0
X43.581 Y118.666 I4.75 J0
X43.187 Y118.971 I-0.315 J0
G1 X41.747 Y118.601
X41.693 Y118.592
X40.16 Y118.639
G3 X39.851 Y118.227 I-0.01 J-0.315
X42.562 Y119.105 Z-9.789 I1.356 J0.439 F333.3
X39.781 Y118.666 Z-10.5 I-1.356 J-0.439
X40.731 Y118.666 I0.475 J0 F1000
X36.931 Y118.666 I-1.9 J0
X43.581 Y118.666 I3.325 J0
X34.081 Y118.666 I-4.75 J0
X43.581 Y118.666 I4.75 J0
X43.187 Y118.971 I-0.315 J0
G1 X41.747 Y118.601
X41.693 Y118.592
X40.16 Y118.639
G3 X39.851 Y118.227 I-0.01 J-0.315
X42.562 Y119.105 Z-11.289 I1.356 J0.439 F333.3
X39.781 Y118.666 Z-12 I-1.356 J-0.439
X40.731 Y118.666 I0.475 J0 F1000
X36.931 Y118.666 I-1.9 J0
X43.581 Y118.666 I3.325 J0
X34.081 Y118.666 I-4.75 J0
X43.581 Y118.666 I4.75 J0
X43.187 Y118.971 I-0.315 J0
G1 X41.747 Y118.601
X41.693 Y118.592
X40.16 Y118.639
G3 X39.851 Y118.227 I-0.01 J-0.315
X42.562 Y119.105 Z-12.789 I1.356 J0.439 F333.3
X39.781 Y118.666 Z-13.5 I-1.356 J-0.439
X40.731 Y118.666 I0.475 J0 F1000
X36.931 Y118.666 I-1.9 J0
X43.581 Y118.666 I3.325 J0
X34.081 Y118.666 I-4.75 J0
X43.581 Y118.666 I4.75 J0
X43.187 Y118.971 I-0.315 J0
G1 X41.747 Y118.601
X41.693 Y118.592
X40.16 Y118.639
G3 X39.851 Y118.227 I-0.01 J-0.315
X42.562 Y119.105 Z-14.289 I1.356 J0.439 F333.3
X39.781 Y118.666 Z-15 I-1.356 J-0.439
X40.731 Y118.666 I0.475 J0 F1000
X36.931 Y118.666 I-1.9 J0
X43.581 Y118.666 I3.325 J0
X34.081 Y118.666 I-4.75 J0
X43.581 Y118.666 I4.75 J0
X43.187 Y118.971 I-0.315 J0
G1 X41.747 Y118.601
X41.693 Y118.592
X40.16 Y118.639
G3 X39.851 Y118.227 I-0.01 J-0.315
X42.562 Y119.105 Z-15.789 I1.356 J0.439 F333.3
X39.781 Y118.666 Z-16.5 I-1.356 J-0.439
X40.731 Y118.666 I0.475 J0 F1000
X36.931 Y118.666 I-1.9 J0
X43.581 Y118.666 I3.325 J0
X34.081 Y118.666 I-4.75 J0
X43.581 Y118.666 I4.75 J0
X43.27 Y118.832 I-0.2 J0
G1 X41.914 Y117.921
G3 X41.868 Y117.632 I0.112 J-0.166
X42.159 Y117.607 I0.158 J0.123
X40.253 Y119.725 Z-17.289 I-0.953 J1.059 F333.3
X39.781 Y118.666 Z-17.5 I0.953 J-1.059
X40.731 Y118.666 I0.475 J0 F1000
X36.931 Y118.666 I-1.9 J0
X43.581 Y118.666 I3.325 J0
X34.081 Y118.666 I-4.75 J0
X43.581 Y118.666 I4.75 J0
G0 Z4
X30.827 Y104.237
Z2
G1 Z1.8 F500
G3 X28.423 Y105.769 Z1.011 I-1.202 J0.766 F333.3
X30.827 Y104.237 Z0.221 I1.202 J-0.766
X28.423 Y105.769 Z-0.568 I-1.202 J0.766
X30.827 Y104.237 Z-1.358 I1.202 J-0.766
X31.05 Y105.003 Z-1.5 I-1.202 J0.766
X28.95 Y105.003 I-1.05 J0 F1000
X33.9 Y105.003 I2.475 J0
X26.1 Y105.003 I-3.9 J0
X36.75 Y105.003 I5.325 J0
X23.25 Y105.003 I-6.75 J0
X36.75 Y105.003 I6.75 J0
X33.9 Y105.003 Z-2.25 I-1.425 J0 F333.3
G2 X31.05 Y105.003 Z-3 I-1.425 J0
G3 X28.95 Y105.003 I-1.05 J0 F1000
X33.9 Y105.003 I2.475 J0
X26.1 Y105.003 I-3.9 J0
X36.75 Y105.003 I5.325 J0
X23.25 Y105.003 I-6.75 J0
X36.75 Y105.003 I6.75 J0
X33.9 Y105.003 Z-3.75 I-1.425 J0 F333.3
G2 X31.05 Y105.003 Z-4.5 I-1.425 J0
G3 X28.95 Y105.003 I-1.05 J0 F1000
X33.9 Y105.003 I2.475 J0
X26.1 Y105.003 I-3.9 J0
X36.75 Y105.003 I5.325 J0
X23.25 Y105.003 I-6.75 J0
X36.75 Y105.003 I6.75 J0
X33.9 Y105.003 Z-5.25 I-1.425 J0 F333.3
G2 X31.05 Y105.003 Z-6 I-1.425 J0
G3 X28.95 Y105.003 I-1.05 J0 F1000
X33.9 Y105.003 I2.475 J0
X26.1 Y105.003 I-3.9 J0
X36.75 Y105.003 I5.325 J0
X23.25 Y105.003 I-6.75 J0
X36.75 Y105.003 I6.75 J0
X33.9 Y105.003 Z-6.75 I-1.425 J0 F333.3
G2 X31.05 Y105.003 Z-7.5 I-1.425 J0
G3 X28.95 Y105.003 I-1.05 J0 F1000
X33.9 Y105.003 I2.475 J0
X26.1 Y105.003 I-3.9 J0
X36.75 Y105.003 I5.325 J0
X23.25 Y105.003 I-6.75 J0
X36.75 Y105.003 I6.75 J0
X33.9 Y105.003 Z-8.25 I-1.425 J0 F333.3
G2 X31.05 Y105.003 Z-9 I-1.425 J0
G3 X28.95 Y105.003 I-1.05 J0 F1000
X33.9 Y105.003 I2.475 J0
X26.1 Y105.003 I-3.9 J0
X36.75 Y105.003 I5.325 J0
X23.25 Y105.003 I-6.75 J0
X36.75 Y105.003 I6.75 J0
X33.9 Y105.003 Z-9.75 I-1.425 J0 F333.3
G2 X31.05 Y105.003 Z-10.5 I-1.425 J0
G3 X28.95 Y105.003 I-1.05 J0 F1000
X33.9 Y105.003 I2.475 J0
X26.1 Y105.003 I-3.9 J0
X36.75 Y105.003 I5.325 J0
X23.25 Y105.003 I-6.75 J0
X36.75 Y105.003 I6.75 J0
X33.9 Y105.003 Z-11.25 I-1.425 J0 F333.3
G2 X31.05 Y105.003 Z-12 I-1.425 J0
G3 X28.95 Y105.003 I-1.05 J0 F1000
X33.9 Y105.003 I2.475 J0
X26.1 Y105.003 I-3.9 J0
X36.75 Y105.003 I5.325 J0
X23.25 Y105.003 I-6.75 J0
X36.75 Y105.003 I6.75 J0
X33.9 Y105.003 Z-12.75 I-1.425 J0 F333.3
G2 X31.05 Y105.003 Z-13.5 I-1.425 J0
G3 X28.95 Y105.003 I-1.05 J0 F1000
X33.9 Y105.003 I2.475 J0
X26.1 Y105.003 I-3.9 J0
X36.75 Y105.003 I5.325 J0
X23.25 Y105.003 I-6.75 J0
X36.75 Y105.003 I6.75 J0
X33.9 Y105.003 Z-14.25 I-1.425 J0 F333.3
G2 X31.05 Y105.003 Z-15 I-1.425 J0
G3 X28.95 Y105.003 I-1.05 J0 F1000
X33.9 Y105.003 I2.475 J0
X26.1 Y105.003 I-3.9 J0
X36.75 Y105.003 I5.325 J0
X23.25 Y105.003 I-6.75 J0
X36.75 Y105.003 I6.75 J0
X33.9 Y105.003 Z-15.75 I-1.425 J0 F333.3
G2 X31.05 Y105.003 Z-16.5 I-1.425 J0
G3 X28.95 Y105.003 I-1.05 J0 F1000
X33.9 Y105.003 I2.475 J0
X26.1 Y105.003 I-3.9 J0
X36.75 Y105.003 I5.325 J0
X23.25 Y105.003 I-6.75 J0
X36.75 Y105.003 I6.75 J0
X33.9 Y105.003 Z-17 I-1.425 J0 F333.3
G2 X31.05 Y105.003 Z-17.5 I-1.425 J0
G3 X28.95 Y105.003 I-1.05 J0 F1000
X33.9 Y105.003 I2.475 J0
X26.1 Y105.003 I-3.9 J0
X36.75 Y105.003 I5.325 J0
X23.25 Y105.003 I-6.75 J0
X36.75 Y105.003 I6.75 J0
G0 Z4
X20.004 Y119.432
Z2
G1 Z1.8 F500
G3 X22.408 Y117.9 Z1.011 I1.202 J-0.766 F333.3
X20.004 Y119.432 Z0.221 I-1.202 J0.766
X22.408 Y117.9 Z-0.568 I1.202 J-0.766
X20.004 Y119.432 Z-1.358 I-1.202 J0.766
X19.781 Y118.666 Z-1.5 I1.202 J-0.766
X20.731 Y118.666 I0.475 J0 F1000
X16.931 Y118.666 I-1.9 J0
X23.581 Y118.666 I3.325 J0
X14.081 Y118.666 I-4.75 J0
X23.581 Y118.666 I4.75 J0
X23.187 Y118.971 I-0.315 J0
G1 X21.747 Y118.601
X21.693 Y118.592
X20.16 Y118.639
G3 X19.851 Y118.227 I-0.01 J-0.315
X22.562 Y119.105 Z-2.289 I1.356 J0.439 F333.3
X19.781 Y118.666 Z-3 I-1.356 J-0.439
X20.731 Y118.666 I0.475 J0 F1000
X16.931 Y118.666 I-1.9 J0
X23.581 Y118.666 I3.325 J0
X14.081 Y118.666 I-4.75 J0
X23.581 Y118.666 I4.75 J0
X23.187 Y118.971 I-0.315 J0
G1 X21.747 Y118.601
X21.693 Y118.592
X20.16 Y118.639
G3 X19.851 Y118.227 I-0.01 J-0.315
X22.562 Y119.105 Z-3.789 I1.356 J0.439 F333.3
X19.781 Y118.666 Z-4.5 I-1.356 J-0.439
X20.731 Y118.666 I0.475 J0 F1000
X16.931 Y118.666 I-1.9 J0
X23.581 Y118.666 I3.325 J0
X14.081 Y118.666 I-4.75 J0
X23.581 Y118.666 I4.75 J0
X23.187 Y118.971 I-0.315 J0
G1 X21.747 Y118.601
X21.693 Y118.592
X20.16 Y118.639
G3 X19.851 Y118.227 I-0.01 J-0.315
X22.562 Y119.105 Z-5.289 I1.356 J0.439 F333.3
X19.781 Y118.666 Z-6 I-1.356 J-0.439
X20.731 Y118.666 I0.475 J0 F1000
X16.931 Y118.666 I-1.9 J0
X23.581 Y118.666 I3.325 J0
X14.081 Y118.666 I-4.75 J0
X23.581 Y118.666 I4.75 J0
X23.187 Y118.971 I-0.315 J0
G1 X21.747 Y118.601
X21.693 Y118.592
X20.16 Y118.639
G3 X19.851 Y118.227 I-0.01 J-0.315
X22.562 Y119.105 Z-6.789 I1.356 J0.439 F333.3
X19.781 Y118.666 Z-7.5 I-1.356 J-0.439
X20.731 Y118.666 I0.475 J0 F1000
X16.931 Y118.666 I-1.9 J0
X23.581 Y118.666 I3.325 J0
X14.081 Y118.666 I-4.75 J0
X23.581 Y118.666 I4.75 J0
X23.187 Y118.971 I-0.315 J0
G1 X21.747 Y118.601
X21.693 Y118.592
X20.16 Y118.639
G3 X19.851 Y118.227 I-0.01 J-0.315
X22.562 Y119.105 Z-8.289 I1.356 J0.439 F333.3
X19.781 Y118.666 Z-9 I-1.356 J-0.439
X20.731 Y118.666 I0.475 J0 F1000
X16.931 Y118.666 I-1.9 J0
X23.581 Y118.666 I3.325 J0
X14.081 Y118.666 I-4.75 J0
X23.581 Y118.666 I4.75 J0
X23.187 Y118.971 I-0.315 J0
G1 X21.747 Y118.601
X21.693 Y118.592
X20.16 Y118.639
G3 X19.851 Y118.227 I-0.01 J-0.315
X22.562 Y119.105 Z-9.789 I1.356 J0.439 F333.3
X19.781 Y118.666 Z-10.5 I-1.356 J-0.439
X20.731 Y118.666 I0.475 J0 F1000
X16.931 Y118.666 I-1.9 J0
X23.581 Y118.666 I3.325 J0
X14.081 Y118.666 I-4.75 J0
X23.581 Y118.666 I4.75 J0
X23.187 Y118.971 I-0.315 J0
G1 X21.747 Y118.601
X21.693 Y118.592
X20.16 Y118.639
G3 X19.851 Y118.227 I-0.01 J-0.315
X22.562 Y119.105 Z-11.289 I1.356 J0.439 F333.3
X19.781 Y118.666 Z-12 I-1.356 J-0.439
X20.731 Y118.666 I0.475 J0 F1000
X16.931 Y118.666 I-1.9 J0
X23.581 Y118.666 I3.325 J0
X14.081 Y118.666 I-4.75 J0
X23.581 Y118.666 I4.75 J0
X23.187 Y118.971 I-0.315 J0
G1 X21.747 Y118.601
X21.693 Y118.592
X20.16 Y118.639
G3 X19.851 Y118.227 I-0.01 J-0.315
X22.562 Y119.105 Z-12.789 I1.356 J0.439 F333.3
X19.781 Y118.666 Z-13.5 I-1.356 J-0.439
X20.731 Y118.666 I0.475 J0 F1000
X16.931 Y118.666 I-1.9 J0
X23.581 Y118.666 I3.325 J0
X14.081 Y118.666 I-4.75 J0
X23.581 Y118.666 I4.75 J0
X23.187 Y118.971 I-0.315 J0
G1 X21.747 Y118.601
X21.693 Y118.592
X20.16 Y118.639
G3 X19.851 Y118.227 I-0.01 J-0.315
X22.562 Y119.105 Z-14.289 I1.356 J0.439 F333.3
X19.781 Y118.666 Z-15 I-1.356 J-0.439
X20.731 Y118.666 I0.475 J0 F1000
X16.931 Y118.666 I-1.9 J0
X23.581 Y118.666 I3.325 J0
X14.081 Y118.666 I-4.75 J0
X23.581 Y118.666 I4.75 J0
X23.187 Y118.971 I-0.315 J0
G1 X21.747 Y118.601
X21.693 Y118.592
X20.16 Y118.639
G3 X19.851 Y118.227 I-0.01 J-0.315
X22.562 Y119.105 Z-15.789 I1.356 J0.439 F333.3
X19.781 Y118.666 Z-16.5 I-1.356 J-0.439
X20.731 Y118.666 I0.475 J0 F1000
X16.931 Y118.666 I-1.9 J0
X23.581 Y118.666 I3.325 J0
X14.081 Y118.666 I-4.75 J0
X23.581 Y118.666 I4.75 J0
X23.27 Y118.832 I-0.2 J0
G1 X21.914 Y117.921
G3 X21.868 Y117.632 I0.112 J-0.166
X22.159 Y117.607 I0.158 J0.123
X20.253 Y119.725 Z-17.289 I-0.953 J1.059 F333.3
X19.781 Y118.666 Z-17.5 I0.953 J-1.059
X20.731 Y118.666 I0.475 J0 F1000
X16.931 Y118.666 I-1.9 J0
X23.581 Y118.666 I3.325 J0
X14.081 Y118.666 I-4.75 J0
X23.581 Y118.666 I4.75 J0
G0 Z4
X30.827 Y23.064
Z2
G1 Z1.8 F500
G3 X28.423 Y24.596 Z1.011 I-1.202 J0.766 F333.3
X30.827 Y23.064 Z0.221 I1.202 J-0.766
X28.423 Y24.596 Z-0.568 I-1.202 J0.766
X30.827 Y23.064 Z-1.358 I1.202 J-0.766
X31.05 Y23.83 Z-1.5 I-1.202 J0.766
X28.95 Y23.83 I-1.05 J0 F1000
X33.9 Y23.83 I2.475 J0
X26.1 Y23.83 I-3.9 J0
X36.75 Y23.83 I5.325 J0
X23.25 Y23.83 I-6.75 J0
X36.75 Y23.83 I6.75 J0
X33.9 Y23.83 Z-2.25 I-1.425 J0 F333.3
G2 X31.05 Y23.83 Z-3 I-1.425 J0
G3 X28.95 Y23.83 I-1.05 J0 F1000
X33.9 Y23.83 I2.475 J0
X26.1 Y23.83 I-3.9 J0
X36.75 Y23.83 I5.325 J0
X23.25 Y23.83 I-6.75 J0
X36.75 Y23.83 I6.75 J0
X33.9 Y23.83 Z-3.75 I-1.425 J0 F333.3
G2 X31.05 Y23.83 Z-4.5 I-1.425 J0
G3 X28.95 Y23.83 I-1.05 J0 F1000
X33.9 Y23.83 I2.475 J0
X26.1 Y23.83 I-3.9 J0
X36.75 Y23.83 I5.325 J0
X23.25 Y23.83 I-6.75 J0
X36.75 Y23.83 I6.75 J0
X33.9 Y23.83 Z-5.25 I-1.425 J0 F333.3
G2 X31.05 Y23.83 Z-6 I-1.425 J0
G3 X28.95 Y23.83 I-1.05 J0 F1000
X33.9 Y23.83 I2.475 J0
X26.1 Y23.83 I-3.9 J0
X36.75 Y23.83 I5.325 J0
X23.25 Y23.83 I-6.75 J0
X36.75 Y23.83 I6.75 J0
X33.9 Y23.83 Z-6.75 I-1.425 J0 F333.3
G2 X31.05 Y23.83 Z-7.5 I-1.425 J0
G3 X28.95 Y23.83 I-1.05 J0 F1000
X33.9 Y23.83 I2.475 J0
X26.1 Y23.83 I-3.9 J0
X36.75 Y23.83 I5.325 J0
X23.25 Y23.83 I-6.75 J0
X36.75 Y23.83 I6.75 J0
X33.9 Y23.83 Z-8.25 I-1.425 J0 F333.3
G2 X31.05 Y23.83 Z-9 I-1.425 J0
G3 X28.95 Y23.83 I-1.05 J0 F1000
X33.9 Y23.83 I2.475 J0
X26.1 Y23.83 I-3.9 J0
X36.75 Y23.83 I5.325 J0
X23.25 Y23.83 I-6.75 J0
X36.75 Y23.83 I6.75 J0
X33.9 Y23.83 Z-9.75 I-1.425 J0 F333.3
G2 X31.05 Y23.83 Z-10.5 I-1.425 J0
G3 X28.95 Y23.83 I-1.05 J0 F1000
X33.9 Y23.83 I2.475 J0
X26.1 Y23.83 I-3.9 J0
X36.75 Y23.83 I5.325 J0
X23.25 Y23.83 I-6.75 J0
X36.75 Y23.83 I6.75 J0
X33.9 Y23.83 Z-11.25 I-1.425 J0 F333.3
G2 X31.05 Y23.83 Z-12 I-1.425 J0
G3 X28.95 Y23.83 I-1.05 J0 F1000
X33.9 Y23.83 I2.475 J0
X26.1 Y23.83 I-3.9 J0
X36.75 Y23.83 I5.325 J0
X23.25 Y23.83 I-6.75 J0
X36.75 Y23.83 I6.75 J0
X33.9 Y23.83 Z-12.75 I-1.425 J0 F333.3
G2 X31.05 Y23.83 Z-13.5 I-1.425 J0
G3 X28.95 Y23.83 I-1.05 J0 F1000
X33.9 Y23.83 I2.475 J0
X26.1 Y23.83 I-3.9 J0
X36.75 Y23.83 I5.325 J0
X23.25 Y23.83 I-6.75 J0
X36.75 Y23.83 I6.75 J0
X33.9 Y23.83 Z-14.25 I-1.425 J0 F333.3
G2 X31.05 Y23.83 Z-15 I-1.425 J0
G3 X28.95 Y23.83 I-1.05 J0 F1000
X33.9 Y23.83 I2.475 J0
X26.1 Y23.83 I-3.9 J0
X36.75 Y23.83 I5.325 J0
X23.25 Y23.83 I-6.75 J0
X36.75 Y23.83 I6.75 J0
X33.9 Y23.83 Z-15.75 I-1.425 J0 F333.3
G2 X31.05 Y23.83 Z-16.5 I-1.425 J0
G3 X28.95 Y23.83 I-1.05 J0 F1000
X33.9 Y23.83 I2.475 J0
X26.1 Y23.83 I-3.9 J0
X36.75 Y23.83 I5.325 J0
X23.25 Y23.83 I-6.75 J0
X36.75 Y23.83 I6.75 J0
X33.9 Y23.83 Z-17 I-1.425 J0 F333.3
G2 X31.05 Y23.83 Z-17.5 I-1.425 J0
G3 X28.95 Y23.83 I-1.05 J0 F1000
X33.9 Y23.83 I2.475 J0
X26.1 Y23.83 I-3.9 J0
X36.75 Y23.83 I5.325 J0
X23.25 Y23.83 I-6.75 J0
X36.75 Y23.83 I6.75 J0
G0 Z4
X40.004 Y10.933
Z2
G1 Z1.8 F500
G3 X42.408 Y9.402 Z1.011 I1.202 J-0.766 F333.3
X40.004 Y10.933 Z0.221 I-1.202 J0.766
X42.408 Y9.402 Z-0.568 I1.202 J-0.766
X40.004 Y10.933 Z-1.358 I-1.202 J0.766
X39.781 Y10.167 Z-1.5 I1.202 J-0.766
X40.731 Y10.167 I0.475 J0 F1000
X36.931 Y10.167 I-1.9 J0
X43.581 Y10.167 I3.325 J0
X34.081 Y10.167 I-4.75 J0
X43.581 Y10.167 I4.75 J0
X43.187 Y10.473 I-0.315 J0
G1 X41.747 Y10.102
X41.693 Y10.093
X40.16 Y10.14
G3 X39.851 Y9.728 I-0.01 J-0.315
X42.562 Y10.607 Z-2.289 I1.356 J0.439 F333.3
X39.781 Y10.167 Z-3 I-1.356 J-0.439
X40.731 Y10.167 I0.475 J0 F1000
X36.931 Y10.167 I-1.9 J0
X43.581 Y10.167 I3.325 J0
X34.081 Y10.167 I-4.75 J0
X43.581 Y10.167 I4.75 J0
X43.187 Y10.473 I-0.315 J0
G1 X41.747 Y10.102
X41.693 Y10.093
X40.16 Y10.14
G3 X39.851 Y9.728 I-0.01 J-0.315
X42.562 Y10.607 Z-3.789 I1.356 J0.439 F333.3
X39.781 Y10.167 Z-4.5 I-1.356 J-0.439
X40.731 Y10.167 I0.475 J0 F1000
X36.931 Y10.167 I-1.9 J0
X43.581 Y10.167 I3.325 J0
X34.081 Y10.167 I-4.75 J0
X43.581 Y10.167 I4.75 J0
X43.187 Y10.473 I-0.315 J0
G1 X41.747 Y10.102
X41.693 Y10.093
X40.16 Y10.14
G3 X39.851 Y9.728 I-0.01 J-0.315
X42.562 Y10.607 Z-5.289 I1.356 J0.439 F333.3
X39.781 Y10.167 Z-6 I-1.356 J-0.439
X40.731 Y10.167 I0.475 J0 F1000
X36.931 Y10.167 I-1.9 J0
X43.581 Y10.167 I3.325 J0
X34.081 Y10.167 I-4.75 J0
X43.581 Y10.167 I4.75 J0
X43.187 Y10.473 I-0.315 J0
G1 X41.747 Y10.102
X41.693 Y10.093
X40.16 Y10.14
G3 X39.851 Y9.728 I-0.01 J-0.315
X42.562 Y10.607 Z-6.789 I1.356 J0.439 F333.3
X39.781 Y10.167 Z-7.5 I-1.356 J-0.439
X40.731 Y10.167 I0.475 J0 F1000
X36.931 Y10.167 I-1.9 J0
X43.581 Y10.167 I3.325 J0
X34.081 Y10.167 I-4.75 J0
X43.581 Y10.167 I4.75 J0
X43.187 Y10.473 I-0.315 J0
G1 X41.747 Y10.102
X41.693 Y10.093
X40.16 Y10.14
G3 X39.851 Y9.728 I-0.01 J-0.315
X42.562 Y10.607 Z-8.289 I1.356 J0.439 F333.3
X39.781 Y10.167 Z-9 I-1.356 J-0.439
X40.731 Y10.167 I0.475 J0 F1000
X36.931 Y10.167 I-1.9 J0
X43.581 Y10.167 I3.325 J0
X34.081 Y10.167 I-4.75 J0
X43.581 Y10.167 I4.75 J0
X43.187 Y10.473 I-0.315 J0
G1 X41.747 Y10.102
X41.693 Y10.093
X40.16 Y10.14
G3 X39.851 Y9.728 I-0.01 J-0.315
X42.562 Y10.607 Z-9.789 I1.356 J0.439 F333.3
X39.781 Y10.167 Z-10.5 I-1.356 J-0.439
X40.731 Y10.167 I0.475 J0 F1000
X36.931 Y10.167 I-1.9 J0
X43.581 Y10.167 I3.325 J0
X34.081 Y10.167 I-4.75 J0
X43.581 Y10.167 I4.75 J0
X43.187 Y10.473 I-0.315 J0
G1 X41.747 Y10.102
X41.693 Y10.093
X40.16 Y10.14
G3 X39.851 Y9.728 I-0.01 J-0.315
X42.562 Y10.607 Z-11.289 I1.356 J0.439 F333.3
X39.781 Y10.167 Z-12 I-1.356 J-0.439
X40.731 Y10.167 I0.475 J0 F1000
X36.931 Y10.167 I-1.9 J0
X43.581 Y10.167 I3.325 J0
X34.081 Y10.167 I-4.75 J0
X43.581 Y10.167 I4.75 J0
X43.187 Y10.473 I-0.315 J0
G1 X41.747 Y10.102
X41.693 Y10.093
X40.16 Y10.14
G3 X39.851 Y9.728 I-0.01 J-0.315
X42.562 Y10.607 Z-12.789 I1.356 J0.439 F333.3
X39.781 Y10.167 Z-13.5 I-1.356 J-0.439
X40.731 Y10.167 I0.475 J0 F1000
X36.931 Y10.167 I-1.9 J0
X43.581 Y10.167 I3.325 J0
X34.081 Y10.167 I-4.75 J0
X43.581 Y10.167 I4.75 J0
X43.187 Y10.473 I-0.315 J0
G1 X41.747 Y10.102
X41.693 Y10.093
X40.16 Y10.14
G3 X39.851 Y9.728 I-0.01 J-0.315
X42.562 Y10.607 Z-14.289 I1.356 J0.439 F333.3
X39.781 Y10.167 Z-15 I-1.356 J-0.439
X40.731 Y10.167 I0.475 J0 F1000
X36.931 Y10.167 I-1.9 J0
X43.581 Y10.167 I3.325 J0
X34.081 Y10.167 I-4.75 J0
X43.581 Y10.167 I4.75 J0
X43.187 Y10.473 I-0.315 J0
G1 X41.747 Y10.102
X41.693 Y10.093
X40.16 Y10.14
G3 X39.851 Y9.728 I-0.01 J-0.315
X42.562 Y10.607 Z-15.789 I1.356 J0.439 F333.3
X39.781 Y10.167 Z-16.5 I-1.356 J-0.439
X40.731 Y10.167 I0.475 J0 F1000
X36.931 Y10.167 I-1.9 J0
X43.581 Y10.167 I3.325 J0
X34.081 Y10.167 I-4.75 J0
X43.581 Y10.167 I4.75 J0
X43.27 Y10.333 I-0.2 J0
G1 X41.914 Y9.423
G3 X41.868 Y9.134 I0.112 J-0.166
X42.159 Y9.108 I0.158 J0.123
X40.253 Y11.227 Z-17.289 I-0.953 J1.059 F333.3
X39.781 Y10.167 Z-17.5 I0.953 J-1.059
X40.731 Y10.167 I0.475 J0 F1000
X36.931 Y10.167 I-1.9 J0
X43.581 Y10.167 I3.325 J0
X34.081 Y10.167 I-4.75 J0
X43.581 Y10.167 I4.75 J0
G0 Z4
X50.827 Y23.064
Z2
G1 Z1.8 F500
G3 X48.423 Y24.596 Z1.011 I-1.202 J0.766 F333.3
X50.827 Y23.064 Z0.221 I1.202 J-0.766
X48.423 Y24.596 Z-0.568 I-1.202 J0.766
X50.827 Y23.064 Z-1.358 I1.202 J-0.766
X51.05 Y23.83 Z-1.5 I-1.202 J0.766
X48.95 Y23.83 I-1.05 J0 F1000
X53.9 Y23.83 I2.475 J0
X46.1 Y23.83 I-3.9 J0
X56.75 Y23.83 I5.325 J0
X43.25 Y23.83 I-6.75 J0
X56.75 Y23.83 I6.75 J0
X53.9 Y23.83 Z-2.25 I-1.425 J0 F333.3
G2 X51.05 Y23.83 Z-3 I-1.425 J0
G3 X48.95 Y23.83 I-1.05 J0 F1000
X53.9 Y23.83 I2.475 J0
X46.1 Y23.83 I-3.9 J0
X56.75 Y23.83 I5.325 J0
X43.25 Y23.83 I-6.75 J0
X56.75 Y23.83 I6.75 J0
X53.9 Y23.83 Z-3.75 I-1.425 J0 F333.3
G2 X51.05 Y23.83 Z-4.5 I-1.425 J0
G3 X48.95 Y23.83 I-1.05 J0 F1000
X53.9 Y23.83 I2.475 J0
X46.1 Y23.83 I-3.9 J0
X56.75 Y23.83 I5.325 J0
X43.25 Y23.83 I-6.75 J0
X56.75 Y23.83 I6.75 J0
X53.9 Y23.83 Z-5.25 I-1.425 J0 F333.3
G2 X51.05 Y23.83 Z-6 I-1.425 J0
G3 X48.95 Y23.83 I-1.05 J0 F1000
X53.9 Y23.83 I2.475 J0
X46.1 Y23.83 I-3.9 J0
X56.75 Y23.83 I5.325 J0
X43.25 Y23.83 I-6.75 J0
X56.75 Y23.83 I6.75 J0
X53.9 Y23.83 Z-6.75 I-1.425 J0 F333.3
G2 X51.05 Y23.83 Z-7.5 I-1.425 J0
G3 X48.95 Y23.83 I-1.05 J0 F1000
X53.9 Y23.83 I2.475 J0
X46.1 Y23.83 I-3.9 J0
X56.75 Y23.83 I5.325 J0
X43.25 Y23.83 I-6.75 J0
X56.75 Y23.83 I6.75 J0
X53.9 Y23.83 Z-8.25 I-1.425 J0 F333.3
G2 X51.05 Y23.83 Z-9 I-1.425 J0
G3 X48.95 Y23.83 I-1.05 J0 F1000
X53.9 Y23.83 I2.475 J0
X46.1 Y23.83 I-3.9 J0
X56.75 Y23.83 I5.325 J0
X43.25 Y23.83 I-6.75 J0
X56.75 Y23.83 I6.75 J0
X53.9 Y23.83 Z-9.75 I-1.425 J0 F333.3
G2 X51.05 Y23.83 Z-10.5 I-1.425 J0
G3 X48.95 Y23.83 I-1.05 J0 F1000
X53.9 Y23.83 I2.475 J0
X46.1 Y23.83 I-3.9 J0
X56.75 Y23.83 I5.325 J0
X43.25 Y23.83 I-6.75 J0
X56.75 Y23.83 I6.75 J0
X53.9 Y23.83 Z-11.25 I-1.425 J0 F333.3
G2 X51.05 Y23.83 Z-12 I-1.425 J0
G3 X48.95 Y23.83 I-1.05 J0 F1000
X53.9 Y23.83 I2.475 J0
X46.1 Y23.83 I-3.9 J0
X56.75 Y23.83 I5.325 J0
X43.25 Y23.83 I-6.75 J0
X56.75 Y23.83 I6.75 J0
X53.9 Y23.83 Z-12.75 I-1.425 J0 F333.3
G2 X51.05 Y23.83 Z-13.5 I-1.425 J0
G3 X48.95 Y23.83 I-1.05 J0 F1000
X53.9 Y23.83 I2.475 J0
X46.1 Y23.83 I-3.9 J0
X56.75 Y23.83 I5.325 J0
X43.25 Y23.83 I-6.75 J0
X56.75 Y23.83 I6.75 J0
X53.9 Y23.83 Z-14.25 I-1.425 J0 F333.3
G2 X51.05 Y23.83 Z-15 I-1.425 J0
G3 X48.95 Y23.83 I-1.05 J0 F1000
X53.9 Y23.83 I2.475 J0
X46.1 Y23.83 I-3.9 J0
X56.75 Y23.83 I5.325 J0
X43.25 Y23.83 I-6.75 J0
X56.75 Y23.83 I6.75 J0
X53.9 Y23.83 Z-15.75 I-1.425 J0 F333.3
G2 X51.05 Y23.83 Z-16.5 I-1.425 J0
G3 X48.95 Y23.83 I-1.05 J0 F1000
X53.9 Y23.83 I2.475 J0
X46.1 Y23.83 I-3.9 J0
X56.75 Y23.83 I5.325 J0
X43.25 Y23.83 I-6.75 J0
X56.75 Y23.83 I6.75 J0
X53.9 Y23.83 Z-17 I-1.425 J0 F333.3
G2 X51.05 Y23.83 Z-17.5 I-1.425 J0
G3 X48.95 Y23.83 I-1.05 J0 F1000
X53.9 Y23.83 I2.475 J0
X46.1 Y23.83 I-3.9 J0
X56.75 Y23.83 I5.325 J0
X43.25 Y23.83 I-6.75 J0
X56.75 Y23.83 I6.75 J0
G0 Z4
X60.004 Y10.933
Z2
G1 Z1.8 F500
G3 X62.408 Y9.402 Z1.011 I1.202 J-0.766 F333.3
X60.004 Y10.933 Z0.221 I-1.202 J0.766
X62.408 Y9.402 Z-0.568 I1.202 J-0.766
X60.004 Y10.933 Z-1.358 I-1.202 J0.766
X59.781 Y10.167 Z-1.5 I1.202 J-0.766
X60.731 Y10.167 I0.475 J0 F1000
X56.931 Y10.167 I-1.9 J0
X63.581 Y10.167 I3.325 J0
X54.081 Y10.167 I-4.75 J0
X63.581 Y10.167 I4.75 J0
X63.187 Y10.473 I-0.315 J0
G1 X61.747 Y10.102
X61.693 Y10.093
X60.16 Y10.14
G3 X59.851 Y9.728 I-0.01 J-0.315
X62.562 Y10.607 Z-2.289 I1.356 J0.439 F333.3
X59.781 Y10.167 Z-3 I-1.356 J-0.439
X60.731 Y10.167 I0.475 J0 F1000
X56.931 Y10.167 I-1.9 J0
X63.581 Y10.167 I3.325 J0
X54.081 Y10.167 I-4.75 J0
X63.581 Y10.167 I4.75 J0
X63.187 Y10.473 I-0.315 J0
G1 X61.747 Y10.102
X61.693 Y10.093
X60.16 Y10.14
G3 X59.851 Y9.728 I-0.01 J-0.315
X62.562 Y10.607 Z-3.789 I1.356 J0.439 F333.3
X59.781 Y10.167 Z-4.5 I-1.356 J-0.439
X60.731 Y10.167 I0.475 J0 F1000
X56.931 Y10.167 I-1.9 J0
X63.581 Y10.167 I3.325 J0
X54.081 Y10.167 I-4.75 J0
X63.581 Y10.167 I4.75 J0
X63.187 Y10.473 I-0.315 J0
G1 X61.747 Y10.102
X61.693 Y10.093
X60.16 Y10.14
G3 X59.851 Y9.728 I-0.01 J-0.315
X62.562 Y10.607 Z-5.289 I1.356 J0.439 F333.3
X59.781 Y10.167 Z-6 I-1.356 J-0.439
X60.731 Y10.167 I0.475 J0 F1000
X56.931 Y10.167 I-1.9 J0
X63.581 Y10.167 I3.325 J0
X54.081 Y10.167 I-4.75 J0
X63.581 Y10.167 I4.75 J0
X63.187 Y10.473 I-0.315 J0
G1 X61.747 Y10.102
X61.693 Y10.093
X60.16 Y10.14
G3 X59.851 Y9.728 I-0.01 J-0.315
X62.562 Y10.607 Z-6.789 I1.356 J0.439 F333.3
X59.781 Y10.167 Z-7.5 I-1.356 J-0.439
X60.731 Y10.167 I0.475 J0 F1000
X56.931 Y10.167 I-1.9 J0
X63.581 Y10.167 I3.325 J0
X54.081 Y10.167 I-4.75 J0
X63.581 Y10.167 I4.75 J0
X63.187 Y10.473 I-0.315 J0
G1 X61.747 Y10.102
X61.693 Y10.093
X60.16 Y10.14
G3 X59.851 Y9.728 I-0.01 J-0.315
X62.562 Y10.607 Z-8.289 I1.356 J0.439 F333.3
X59.781 Y10.167 Z-9 I-1.356 J-0.439
X60.731 Y10.167 I0.475 J0 F1000
X56.931 Y10.167 I-1.9 J0
X63.581 Y10.167 I3.325 J0
X54.081 Y10.167 I-4.75 J0
X63.581 Y10.167 I4.75 J0
X63.187 Y10.473 I-0.315 J0
G1 X61.747 Y10.102
X61.693 Y10.093
X60.16 Y10.14
G3 X59.851 Y9.728 I-0.01 J-0.315
X62.562 Y10.607 Z-9.789 I1.356 J0.439 F333.3
X59.781 Y10.167 Z-10.5 I-1.356 J-0.439
X60.731 Y10.167 I0.475 J0 F1000
X56.931 Y10.167 I-1.9 J0
X63.581 Y10.167 I3.325 J0
X54.081 Y10.167 I-4.75 J0
X63.581 Y10.167 I4.75 J0
X63.187 Y10.473 I-0.315 J0
G1 X61.747 Y10.102
X61.693 Y10.093
X60.16 Y10.14
G3 X59.851 Y9.728 I-0.01 J-0.315
X62.562 Y10.607 Z-11.289 I1.356 J0.439 F333.3
X59.781 Y10.167 Z-12 I-1.356 J-0.439
X60.731 Y10.167 I0.475 J0 F1000
X56.931 Y10.167 I-1.9 J0
X63.581 Y10.167 I3.325 J0
X54.081 Y10.167 I-4.75 J0
X63.581 Y10.167 I4.75 J0
X63.187 Y10.473 I-0.315 J0
G1 X61.747 Y10.102
X61.693 Y10.093
X60.16 Y10.14
G3 X59.851 Y9.728 I-0.01 J-0.315
X62.562 Y10.607 Z-12.789 I1.356 J0.439 F333.3
X59.781 Y10.167 Z-13.5 I-1.356 J-0.439
X60.731 Y10.167 I0.475 J0 F1000
X56.931 Y10.167 I-1.9 J0
X63.581 Y10.167 I3.325 J0
X54.081 Y10.167 I-4.75 J0
X63.581 Y10.167 I4.75 J0
X63.187 Y10.473 I-0.315 J0
G1 X61.747 Y10.102
X61.693 Y10.093
X60.16 Y10.14
G3 X59.851 Y9.728 I-0.01 J-0.315
X62.562 Y10.607 Z-14.289 I1.356 J0.439 F333.3
X59.781 Y10.167 Z-15 I-1.356 J-0.439
X60.731 Y10.167 I0.475 J0 F1000
X56.931 Y10.167 I-1.9 J0
X63.581 Y10.167 I3.325 J0
X54.081 Y10.167 I-4.75 J0
X63.581 Y10.167 I4.75 J0
X63.187 Y10.473 I-0.315 J0
G1 X61.747 Y10.102
X61.693 Y10.093
X60.16 Y10.14
G3 X59.851 Y9.728 I-0.01 J-0.315
X62.562 Y10.607 Z-15.789 I1.356 J0.439 F333.3
X59.781 Y10.167 Z-16.5 I-1.356 J-0.439
X60.731 Y10.167 I0.475 J0 F1000
X56.931 Y10.167 I-1.9 J0
X63.581 Y10.167 I3.325 J0
X54.081 Y10.167 I-4.75 J0
X63.581 Y10.167 I4.75 J0
X63.27 Y10.333 I-0.2 J0
G1 X61.914 Y9.423
G3 X61.868 Y9.134 I0.112 J-0.166
X62.159 Y9.108 I0.158 J0.123
X60.253 Y11.227 Z-17.289 I-0.953 J1.059 F333.3
X59.781 Y10.167 Z-17.5 I0.953 J-1.059
X60.731 Y10.167 I0.475 J0 F1000
X56.931 Y10.167 I-1.9 J0
X63.581 Y10.167 I3.325 J0
X54.081 Y10.167 I-4.75 J0
X63.581 Y10.167 I4.75 J0
G0 Z4
X70.827 Y23.064
Z2
G1 Z1.8 F500
G3 X68.423 Y24.596 Z1.011 I-1.202 J0.766 F333.3
X70.827 Y23.064 Z0.221 I1.202 J-0.766
X68.423 Y24.596 Z-0.568 I-1.202 J0.766
X70.827 Y23.064 Z-1.358 I1.202 J-0.766
X71.05 Y23.83 Z-1.5 I-1.202 J0.766
X68.95 Y23.83 I-1.05 J0 F1000
X73.9 Y23.83 I2.475 J0
X66.1 Y23.83 I-3.9 J0
X76.75 Y23.83 I5.325 J0
X63.25 Y23.83 I-6.75 J0
X76.75 Y23.83 I6.75 J0
X73.9 Y23.83 Z-2.25 I-1.425 J0 F333.3
G2 X71.05 Y23.83 Z-3 I-1.425 J0
G3 X68.95 Y23.83 I-1.05 J0 F1000
X73.9 Y23.83 I2.475 J0
X66.1 Y23.83 I-3.9 J0
X76.75 Y23.83 I5.325 J0
X63.25 Y23.83 I-6.75 J0
X76.75 Y23.83 I6.75 J0
X73.9 Y23.83 Z-3.75 I-1.425 J0 F333.3
G2 X71.05 Y23.83 Z-4.5 I-1.425 J0
G3 X68.95 Y23.83 I-1.05 J0 F1000
X73.9 Y23.83 I2.475 J0
X66.1 Y23.83 I-3.9 J0
X76.75 Y23.83 I5.325 J0
X63.25 Y23.83 I-6.75 J0
X76.75 Y23.83 I6.75 J0
X73.9 Y23.83 Z-5.25 I-1.425 J0 F333.3
G2 X71.05 Y23.83 Z-6 I-1.425 J0
G3 X68.95 Y23.83 I-1.05 J0 F1000
X73.9 Y23.83 I2.475 J0
X66.1 Y23.83 I-3.9 J0
X76.75 Y23.83 I5.325 J0
X63.25 Y23.83 I-6.75 J0
X76.75 Y23.83 I6.75 J0
X73.9 Y23.83 Z-6.75 I-1.425 J0 F333.3
G2 X71.05 Y23.83 Z-7.5 I-1.425 J0
G3 X68.95 Y23.83 I-1.05 J0 F1000
X73.9 Y23.83 I2.475 J0
X66.1 Y23.83 I-3.9 J0
X76.75 Y23.83 I5.325 J0
X63.25 Y23.83 I-6.75 J0
X76.75 Y23.83 I6.75 J0
X73.9 Y23.83 Z-8.25 I-1.425 J0 F333.3
G2 X71.05 Y23.83 Z-9 I-1.425 J0
G3 X68.95 Y23.83 I-1.05 J0 F1000
X73.9 Y23.83 I2.475 J0
X66.1 Y23.83 I-3.9 J0
X76.75 Y23.83 I5.325 J0
X63.25 Y23.83 I-6.75 J0
X76.75 Y23.83 I6.75 J0
X73.9 Y23.83 Z-9.75 I-1.425 J0 F333.3
G2 X71.05 Y23.83 Z-10.5 I-1.425 J0
G3 X68.95 Y23.83 I-1.05 J0 F1000
X73.9 Y23.83 I2.475 J0
X66.1 Y23.83 I-3.9 J0
X76.75 Y23.83 I5.325 J0
X63.25 Y23.83 I-6.75 J0
X76.75 Y23.83 I6.75 J0
X73.9 Y23.83 Z-11.25 I-1.425 J0 F333.3
G2 X71.05 Y23.83 Z-12 I-1.425 J0
G3 X68.95 Y23.83 I-1.05 J0 F1000
X73.9 Y23.83 I2.475 J0
X66.1 Y23.83 I-3.9 J0
X76.75 Y23.83 I5.325 J0
X63.25 Y23.83 I-6.75 J0
X76.75 Y23.83 I6.75 J0
X73.9 Y23.83 Z-12.75 I-1.425 J0 F333.3
G2 X71.05 Y23.83 Z-13.5 I-1.425 J0
G3 X68.95 Y23.83 I-1.05 J0 F1000
X73.9 Y23.83 I2.475 J0
X66.1 Y23.83 I-3.9 J0
X76.75 Y23.83 I5.325 J0
X63.25 Y23.83 I-6.75 J0
X76.75 Y23.83 I6.75 J0
X73.9 Y23.83 Z-14.25 I-1.425 J0 F333.3
G2 X71.05 Y23.83 Z-15 I-1.425 J0
G3 X68.95 Y23.83 I-1.05 J0 F1000
X73.9 Y23.83 I2.475 J0
X66.1 Y23.83 I-3.9 J0
X76.75 Y23.83 I5.325 J0
X63.25 Y23.83 I-6.75 J0
X76.75 Y23.83 I6.75 J0
X73.9 Y23.83 Z-15.75 I-1.425 J0 F333.3
G2 X71.05 Y23.83 Z-16.5 I-1.425 J0
G3 X68.95 Y23.83 I-1.05 J0 F1000
X73.9 Y23.83 I2.475 J0
X66.1 Y23.83 I-3.9 J0
X76.75 Y23.83 I5.325 J0
X63.25 Y23.83 I-6.75 J0
X76.75 Y23.83 I6.75 J0
X73.9 Y23.83 Z-17 I-1.425 J0 F333.3
G2 X71.05 Y23.83 Z-17.5 I-1.425 J0
G3 X68.95 Y23.83 I-1.05 J0 F1000
X73.9 Y23.83 I2.475 J0
X66.1 Y23.83 I-3.9 J0
X76.75 Y23.83 I5.325 J0
X63.25 Y23.83 I-6.75 J0
X76.75 Y23.83 I6.75 J0
G0 Z4
X80.004 Y10.933
Z2
G1 Z1.8 F500
G3 X82.408 Y9.402 Z1.011 I1.202 J-0.766 F333.3
X80.004 Y10.933 Z0.221 I-1.202 J0.766
X82.408 Y9.402 Z-0.568 I1.202 J-0.766
X80.004 Y10.933 Z-1.358 I-1.202 J0.766
X79.781 Y10.167 Z-1.5 I1.202 J-0.766
X80.731 Y10.167 I0.475 J0 F1000
X76.931 Y10.167 I-1.9 J0
X83.581 Y10.167 I3.325 J0
X74.081 Y10.167 I-4.75 J0
X83.581 Y10.167 I4.75 J0
X83.187 Y10.473 I-0.315 J0
G1 X81.747 Y10.102
X81.693 Y10.093
X80.16 Y10.14
G3 X79.851 Y9.728 I-0.01 J-0.315
X82.562 Y10.607 Z-2.289 I1.356 J0.439 F333.3
X79.781 Y10.167 Z-3 I-1.356 J-0.439
X80.731 Y10.167 I0.475 J0 F1000
X76.931 Y10.167 I-1.9 J0
X83.581 Y10.167 I3.325 J0
X74.081 Y10.167 I-4.75 J0
X83.581 Y10.167 I4.75 J0
X83.187 Y10.473 I-0.315 J0
G1 X81.747 Y10.102
X81.693 Y10.093
X80.16 Y10.14
G3 X79.851 Y9.728 I-0.01 J-0.315
X82.562 Y10.607 Z-3.789 I1.356 J0.439 F333.3
X79.781 Y10.167 Z-4.5 I-1.356 J-0.439
X80.731 Y10.167 I0.475 J0 F1000
X76.931 Y10.167 I-1.9 J0
X83.581 Y10.167 I3.325 J0
X74.081 Y10.167 I-4.75 J0
X83.581 Y10.167 I4.75 J0
X83.187 Y10.473 I-0.315 J0
G1 X81.747 Y10.102
X81.693 Y10.093
X80.16 Y10.14
G3 X79.851 Y9.728 I-0.01 J-0.315
X82.562 Y10.607 Z-5.289 I1.356 J0.439 F333.3
X79.781 Y10.167 Z-6 I-1.356 J-0.439
X80.731 Y10.167 I0.475 J0 F1000
X76.931 Y10.167 I-1.9 J0
X83.581 Y10.167 I3.325 J0
X74.081 Y10.167 I-4.75 J0
X83.581 Y10.167 I4.75 J0
X83.187 Y10.473 I-0.315 J0
G1 X81.747 Y10.102
X81.693 Y10.093
X80.16 Y10.14
G3 X79.851 Y9.728 I-0.01 J-0.315
X82.562 Y10.607 Z-6.789 I1.356 J0.439 F333.3
X79.781 Y10.167 Z-7.5 I-1.356 J-0.439
X80.731 Y10.167 I0.475 J0 F1000
X76.931 Y10.167 I-1.9 J0
X83.581 Y10.167 I3.325 J0
X74.081 Y10.167 I-4.75 J0
X83.581 Y10.167 I4.75 J0
X83.187 Y10.473 I-0.315 J0
G1 X81.747 Y10.102
X81.693 Y10.093
X80.16 Y10.14
G3 X79.851 Y9.728 I-0.01 J-0.315
X82.562 Y10.607 Z-8.289 I1.356 J0.439 F333.3
X79.781 Y10.167 Z-9 I-1.356 J-0.439
X80.731 Y10.167 I0.475 J0 F1000
X76.931 Y10.167 I-1.9 J0
X83.581 Y10.167 I3.325 J0
X74.081 Y10.167 I-4.75 J0
X83.581 Y10.167 I4.75 J0
X83.187 Y10.473 I-0.315 J0
G1 X81.747 Y10.102
X81.693 Y10.093
X80.16 Y10.14
G3 X79.851 Y9.728 I-0.01 J-0.315
X82.562 Y10.607 Z-9.789 I1.356 J0.439 F333.3
X79.781 Y10.167 Z-10.5 I-1.356 J-0.439
X80.731 Y10.167 I0.475 J0 F1000
X76.931 Y10.167 I-1.9 J0
X83.581 Y10.167 I3.325 J0
X74.081 Y10.167 I-4.75 J0
X83.581 Y10.167 I4.75 J0
X83.187 Y10.473 I-0.315 J0
G1 X81.747 Y10.102
X81.693 Y10.093
X80.16 Y10.14
G3 X79.851 Y9.728 I-0.01 J-0.315
X82.562 Y10.607 Z-11.289 I1.356 J0.439 F333.3
X79.781 Y10.167 Z-12 I-1.356 J-0.439
X80.731 Y10.167 I0.475 J0 F1000
X76.931 Y10.167 I-1.9 J0
X83.581 Y10.167 I3.325 J0
X74.081 Y10.167 I-4.75 J0
X83.581 Y10.167 I4.75 J0
X83.187 Y10.473 I-0.315 J0
G1 X81.747 Y10.102
X81.693 Y10.093
X80.16 Y10.14
G3 X79.851 Y9.728 I-0.01 J-0.315
X82.562 Y10.607 Z-12.789 I1.356 J0.439 F333.3
X79.781 Y10.167 Z-13.5 I-1.356 J-0.439
X80.731 Y10.167 I0.475 J0 F1000
X76.931 Y10.167 I-1.9 J0
X83.581 Y10.167 I3.325 J0
X74.081 Y10.167 I-4.75 J0
X83.581 Y10.167 I4.75 J0
X83.187 Y10.473 I-0.315 J0
G1 X81.747 Y10.102
X81.693 Y10.093
X80.16 Y10.14
G3 X79.851 Y9.728 I-0.01 J-0.315
X82.562 Y10.607 Z-14.289 I1.356 J0.439 F333.3
X79.781 Y10.167 Z-15 I-1.356 J-0.439
X80.731 Y10.167 I0.475 J0 F1000
X76.931 Y10.167 I-1.9 J0
X83.581 Y10.167 I3.325 J0
X74.081 Y10.167 I-4.75 J0
X83.581 Y10.167 I4.75 J0
X83.187 Y10.473 I-0.315 J0
G1 X81.747 Y10.102
X81.693 Y10.093
X80.16 Y10.14
G3 X79.851 Y9.728 I-0.01 J-0.315
X82.562 Y10.607 Z-15.789 I1.356 J0.439 F333.3
X79.781 Y10.167 Z-16.5 I-1.356 J-0.439
X80.731 Y10.167 I0.475 J0 F1000
X76.931 Y10.167 I-1.9 J0
X83.581 Y10.167 I3.325 J0
X74.081 Y10.167 I-4.75 J0
X83.581 Y10.167 I4.75 J0
X83.27 Y10.333 I-0.2 J0
G1 X81.914 Y9.423
G3 X81.868 Y9.134 I0.112 J-0.166
X82.159 Y9.108 I0.158 J0.123
X80.253 Y11.227 Z-17.289 I-0.953 J1.059 F333.3
X79.781 Y10.167 Z-17.5 I0.953 J-1.059
X80.731 Y10.167 I0.475 J0 F1000
X76.931 Y10.167 I-1.9 J0
X83.581 Y10.167 I3.325 J0
X74.081 Y10.167 I-4.75 J0
X83.581 Y10.167 I4.75 J0
G0 Z4
X90.827 Y23.064
Z2
G1 Z1.8 F500
G3 X88.423 Y24.596 Z1.011 I-1.202 J0.766 F333.3
X90.827 Y23.064 Z0.221 I1.202 J-0.766
X88.423 Y24.596 Z-0.568 I-1.202 J0.766
X90.827 Y23.064 Z-1.358 I1.202 J-0.766
X91.05 Y23.83 Z-1.5 I-1.202 J0.766
X88.95 Y23.83 I-1.05 J0 F1000
X93.9 Y23.83 I2.475 J0
X86.1 Y23.83 I-3.9 J0
X96.75 Y23.83 I5.325 J0
X83.25 Y23.83 I-6.75 J0
X96.75 Y23.83 I6.75 J0
X93.9 Y23.83 Z-2.25 I-1.425 J0 F333.3
G2 X91.05 Y23.83 Z-3 I-1.425 J0
G3 X88.95 Y23.83 I-1.05 J0 F1000
X93.9 Y23.83 I2.475 J0
X86.1 Y23.83 I-3.9 J0
X96.75 Y23.83 I5.325 J0
X83.25 Y23.83 I-6.75 J0
X96.75 Y23.83 I6.75 J0
X93.9 Y23.83 Z-3.75 I-1.425 J0 F333.3
G2 X91.05 Y23.83 Z-4.5 I-1.425 J0
G3 X88.95 Y23.83 I-1.05 J0 F1000
X93.9 Y23.83 I2.475 J0
X86.1 Y23.83 I-3.9 J0
X96.75 Y23.83 I5.325 J0
X83.25 Y23.83 I-6.75 J0
X96.75 Y23.83 I6.75 J0
X93.9 Y23.83 Z-5.25 I-1.425 J0 F333.3
G2 X91.05 Y23.83 Z-6 I-1.425 J0
G3 X88.95 Y23.83 I-1.05 J0 F1000
X93.9 Y23.83 I2.475 J0
X86.1 Y23.83 I-3.9 J0
X96.75 Y23.83 I5.325 J0
X83.25 Y23.83 I-6.75 J0
X96.75 Y23.83 I6.75 J0
X93.9 Y23.83 Z-6.75 I-1.425 J0 F333.3
G2 X91.05 Y23.83 Z-7.5 I-1.425 J0
G3 X88.95 Y23.83 I-1.05 J0 F1000
X93.9 Y23.83 I2.475 J0
X86.1 Y23.83 I-3.9 J0
X96.75 Y23.83 I5.325 J0
X83.25 Y23.83 I-6.75 J0
X96.75 Y23.83 I6.75 J0
X93.9 Y23.83 Z-8.25 I-1.425 J0 F333.3
G2 X91.05 Y23.83 Z-9 I-1.425 J0
G3 X88.95 Y23.83 I-1.05 J0 F1000
X93.9 Y23.83 I2.475 J0
X86.1 Y23.83 I-3.9 J0
X96.75 Y23.83 I5.325 J0
X83.25 Y23.83 I-6.75 J0
X96.75 Y23.83 I6.75 J0
X93.9 Y23.83 Z-9.75 I-1.425 J0 F333.3
G2 X91.05 Y23.83 Z-10.5 I-1.425 J0
G3 X88.95 Y23.83 I-1.05 J0 F1000
X93.9 Y23.83 I2.475 J0
X86.1 Y23.83 I-3.9 J0
X96.75 Y23.83 I5.325 J0
X83.25 Y23.83 I-6.75 J0
X96.75 Y23.83 I6.75 J0
X93.9 Y23.83 Z-11.25 I-1.425 J0 F333.3
G2 X91.05 Y23.83 Z-12 I-1.425 J0
G3 X88.95 Y23.83 I-1.05 J0 F1000
X93.9 Y23.83 I2.475 J0
X86.1 Y23.83 I-3.9 J0
X96.75 Y23.83 I5.325 J0
X83.25 Y23.83 I-6.75 J0
X96.75 Y23.83 I6.75 J0
X93.9 Y23.83 Z-12.75 I-1.425 J0 F333.3
G2 X91.05 Y23.83 Z-13.5 I-1.425 J0
G3 X88.95 Y23.83 I-1.05 J0 F1000
X93.9 Y23.83 I2.475 J0
X86.1 Y23.83 I-3.9 J0
X96.75 Y23.83 I5.325 J0
X83.25 Y23.83 I-6.75 J0
X96.75 Y23.83 I6.75 J0
X93.9 Y23.83 Z-14.25 I-1.425 J0 F333.3
G2 X91.05 Y23.83 Z-15 I-1.425 J0
G3 X88.95 Y23.83 I-1.05 J0 F1000
X93.9 Y23.83 I2.475 J0
X86.1 Y23.83 I-3.9 J0
X96.75 Y23.83 I5.325 J0
X83.25 Y23.83 I-6.75 J0
X96.75 Y23.83 I6.75 J0
X93.9 Y23.83 Z-15.75 I-1.425 J0 F333.3
G2 X91.05 Y23.83 Z-16.5 I-1.425 J0
G3 X88.95 Y23.83 I-1.05 J0 F1000
X93.9 Y23.83 I2.475 J0
X86.1 Y23.83 I-3.9 J0
X96.75 Y23.83 I5.325 J0
X83.25 Y23.83 I-6.75 J0
X96.75 Y23.83 I6.75 J0
X93.9 Y23.83 Z-17 I-1.425 J0 F333.3
G2 X91.05 Y23.83 Z-17.5 I-1.425 J0
G3 X88.95 Y23.83 I-1.05 J0 F1000
X93.9 Y23.83 I2.475 J0
X86.1 Y23.83 I-3.9 J0
X96.75 Y23.83 I5.325 J0
X83.25 Y23.83 I-6.75 J0
X96.75 Y23.83 I6.75 J0
G0 Z4
X99.42 Y10.097
Z2
G1 Z1.8 F500
X103.5 Z1.081 F333.3
Y10.198 Z1.063
X96.5 Z-0.171
Y10.097 Z-0.189
X103.5 Z-1.423
Y10.198 Z-1.441
X103.165 Z-1.5
X96.5 F1000
Y10.097
X103.5
Y10.198
X103.165
X96.5 Z-2.675 F333.3
Y10.097 Z-2.693
X98.242 Z-3
X103.5 F1000
Y10.198
X96.5
Y10.097
X98.242
X103.5 Z-3.927 F333.3
Y10.198 Z-3.945
X100.351 Z-4.5
X96.5 F1000
Y10.097
X103.5
Y10.198
X100.351
X96.5 Z-5.179 F333.3
Y10.097 Z-5.197
X101.056 Z-6
X103.5 F1000
Y10.198
X96.5
Y10.097
X101.056
X103.5 Z-6.431 F333.3
Y10.198 Z-6.449
X97.537 Z-7.5
X96.5 F1000
Y10.097
X101.056
X103.5
Y10.198
X97.537
X96.5 Z-7.683 F333.3
Y10.097 Z-7.701
X103.5 Z-8.935
Y10.198 Z-8.952
X103.231 Z-9
X97.537 F1000
X96.5
Y10.097
X103.5
Y10.198
X103.231
X96.5 Z-10.187 F333.3
Y10.097 Z-10.204
X98.176 Z-10.5
X103.5 F1000
Y10.198
X96.5
Y10.097
X98.176
X103.5 Z-11.439 F333.3
Y10.198 Z-11.456
X100.417 Z-12
X96.5 F1000
Y10.097
X103.5
Y10.198
X100.417
X96.5 Z-12.691 F333.3
Y10.097 Z-12.708
X100.99 Z-13.5
X103.5 F1000
Y10.198
X96.5
Y10.097
X100.99
X103.5 Z-13.943 F333.3
Y10.198 Z-13.96
X97.603 Z-15
X96.5 F1000
Y10.097
X100.99
X103.5
Y10.198
X97.603
X96.5 Z-15.195 F333.3
Y10.097 Z-15.212
X103.5 Z-16.446
Y10.198 Z-16.464
X103.296 Z-16.5
X97.603 F1000
X96.5
Y10.097
X103.5
Y10.198
X103.296
X97.625 Z-17.5 F333.3
X96.5 F1000
Y10.097
X103.5
Y10.198
X97.625
G0 Z4
X110.827 Y23.064
Z2
G1 Z1.8 F500
G3 X108.423 Y24.596 Z1.011 I-1.202 J0.766 F333.3
X110.827 Y23.064 Z0.221 I1.202 J-0.766
X108.423 Y24.596 Z-0.568 I-1.202 J0.766
X110.827 Y23.064 Z-1.358 I1.202 J-0.766
X111.05 Y23.83 Z-1.5 I-1.202 J0.766
X108.95 Y23.83 I-1.05 J0 F1000
X113.9 Y23.83 I2.475 J0
X106.1 Y23.83 I-3.9 J0
X116.75 Y23.83 I5.325 J0
X103.25 Y23.83 I-6.75 J0
X116.75 Y23.83 I6.75 J0
X113.9 Y23.83 Z-2.25 I-1.425 J0 F333.3
G2 X111.05 Y23.83 Z-3 I-1.425 J0
G3 X108.95 Y23.83 I-1.05 J0 F1000
X113.9 Y23.83 I2.475 J0
X106.1 Y23.83 I-3.9 J0
X116.75 Y23.83 I5.325 J0
X103.25 Y23.83 I-6.75 J0
X116.75 Y23.83 I6.75 J0
X113.9 Y23.83 Z-3.75 I-1.425 J0 F333.3
G2 X111.05 Y23.83 Z-4.5 I-1.425 J0
G3 X108.95 Y23.83 I-1.05 J0 F1000
X113.9 Y23.83 I2.475 J0
X106.1 Y23.83 I-3.9 J0
X116.75 Y23.83 I5.325 J0
X103.25 Y23.83 I-6.75 J0
X116.75 Y23.83 I6.75 J0
X113.9 Y23.83 Z-5.25 I-1.425 J0 F333.3
G2 X111.05 Y23.83 Z-6 I-1.425 J0
G3 X108.95 Y23.83 I-1.05 J0 F1000
X113.9 Y23.83 I2.475 J0
X106.1 Y23.83 I-3.9 J0
X116.75 Y23.83 I5.325 J0
X103.25 Y23.83 I-6.75 J0
X116.75 Y23.83 I6.75 J0
X113.9 Y23.83 Z-6.75 I-1.425 J0 F333.3
G2 X111.05 Y23.83 Z-7.5 I-1.425 J0
G3 X108.95 Y23.83 I-1.05 J0 F1000
X113.9 Y23.83 I2.475 J0
X106.1 Y23.83 I-3.9 J0
X116.75 Y23.83 I5.325 J0
X103.25 Y23.83 I-6.75 J0
X116.75 Y23.83 I6.75 J0
X113.9 Y23.83 Z-8.25 I-1.425 J0 F333.3
G2 X111.05 Y23.83 Z-9 I-1.425 J0
G3 X108.95 Y23.83 I-1.05 J0 F1000
X113.9 Y23.83 I2.475 J0
X106.1 Y23.83 I-3.9 J0
X116.75 Y23.83 I5.325 J0
X103.25 Y23.83 I-6.75 J0
X116.75 Y23.83 I6.75 J0
X113.9 Y23.83 Z-9.75 I-1.425 J0 F333.3
G2 X111.05 Y23.83 Z-10.5 I-1.425 J0
G3 X108.95 Y23.83 I-1.05 J0 F1000
X113.9 Y23.83 I2.475 J0
X106.1 Y23.83 I-3.9 J0
X116.75 Y23.83 I5.325 J0
X103.25 Y23.83 I-6.75 J0
X116.75 Y23.83 I6.75 J0
X113.9 Y23.83 Z-11.25 I-1.425 J0 F333.3
G2 X111.05 Y23.83 Z-12 I-1.425 J0
G3 X108.95 Y23.83 I-1.05 J0 F1000
X113.9 Y23.83 I2.475 J0
X106.1 Y23.83 I-3.9 J0
X116.75 Y23.83 I5.325 J0
X103.25 Y23.83 I-6.75 J0
X116.75 Y23.83 I6.75 J0
X113.9 Y23.83 Z-12.75 I-1.425 J0 F333.3
G2 X111.05 Y23.83 Z-13.5 I-1.425 J0
G3 X108.95 Y23.83 I-1.05 J0 F1000
X113.9 Y23.83 I2.475 J0
X106.1 Y23.83 I-3.9 J0
X116.75 Y23.83 I5.325 J0
X103.25 Y23.83 I-6.75 J0
X116.75 Y23.83 I6.75 J0
X113.9 Y23.83 Z-14.25 I-1.425 J0 F333.3
G2 X111.05 Y23.83 Z-15 I-1.425 J0
G3 X108.95 Y23.83 I-1.05 J0 F1000
X113.9 Y23.83 I2.475 J0
X106.1 Y23.83 I-3.9 J0
X116.75 Y23.83 I5.325 J0
X103.25 Y23.83 I-6.75 J0
X116.75 Y23.83 I6.75 J0
X113.9 Y23.83 Z-15.75 I-1.425 J0 F333.3
G2 X111.05 Y23.83 Z-16.5 I-1.425 J0
G3 X108.95 Y23.83 I-1.05 J0 F1000
X113.9 Y23.83 I2.475 J0
X106.1 Y23.83 I-3.9 J0
X116.75 Y23.83 I5.325 J0
X103.25 Y23.83 I-6.75 J0
X116.75 Y23.83 I6.75 J0
X113.9 Y23.83 Z-17 I-1.425 J0 F333.3
G2 X111.05 Y23.83 Z-17.5 I-1.425 J0
G3 X108.95 Y23.83 I-1.05 J0 F1000
X113.9 Y23.83 I2.475 J0
X106.1 Y23.83 I-3.9 J0
X116.75 Y23.83 I5.325 J0
X103.25 Y23.83 I-6.75 J0
X116.75 Y23.83 I6.75 J0
G0 Z4
X120.004 Y10.933
Z2
G1 Z1.8 F500
G3 X122.408 Y9.402 Z1.011 I1.202 J-0.766 F333.3
X120.004 Y10.933 Z0.221 I-1.202 J0.766
X122.408 Y9.402 Z-0.568 I1.202 J-0.766
X120.004 Y10.933 Z-1.358 I-1.202 J0.766
X119.781 Y10.167 Z-1.5 I1.202 J-0.766
X120.731 Y10.167 I0.475 J0 F1000
X116.931 Y10.167 I-1.9 J0
X123.581 Y10.167 I3.325 J0
X114.081 Y10.167 I-4.75 J0
X123.581 Y10.167 I4.75 J0
X123.187 Y10.473 I-0.315 J0
G1 X121.746 Y10.102
X121.693 Y10.093
X120.16 Y10.14
G3 X119.85 Y9.728 I-0.01 J-0.315
X122.562 Y10.607 Z-2.289 I1.356 J0.439 F333.3
X119.781 Y10.167 Z-3 I-1.356 J-0.439
X120.731 Y10.167 I0.475 J0 F1000
X116.931 Y10.167 I-1.9 J0
X123.581 Y10.167 I3.325 J0
X114.081 Y10.167 I-4.75 J0
X123.581 Y10.167 I4.75 J0
X123.187 Y10.473 I-0.315 J0
G1 X121.746 Y10.102
X121.693 Y10.093
X120.16 Y10.14
G3 X119.85 Y9.728 I-0.01 J-0.315
X122.562 Y10.607 Z-3.789 I1.356 J0.439 F333.3
X119.781 Y10.167 Z-4.5 I-1.356 J-0.439
X120.731 Y10.167 I0.475 J0 F1000
X116.931 Y10.167 I-1.9 J0
X123.581 Y10.167 I3.325 J0
X114.081 Y10.167 I-4.75 J0
X123.581 Y10.167 I4.75 J0
X123.187 Y10.473 I-0.315 J0
G1 X121.746 Y10.102
X121.693 Y10.093
X120.16 Y10.14
G3 X119.85 Y9.728 I-0.01 J-0.315
X122.562 Y10.607 Z-5.289 I1.356 J0.439 F333.3
X119.781 Y10.167 Z-6 I-1.356 J-0.439
X120.731 Y10.167 I0.475 J0 F1000
X116.931 Y10.167 I-1.9 J0
X123.581 Y10.167 I3.325 J0
X114.081 Y10.167 I-4.75 J0
X123.581 Y10.167 I4.75 J0
X123.187 Y10.473 I-0.315 J0
G1 X121.746 Y10.102
X121.693 Y10.093
X120.16 Y10.14
G3 X119.85 Y9.728 I-0.01 J-0.315
X122.562 Y10.607 Z-6.789 I1.356 J0.439 F333.3
X119.781 Y10.167 Z-7.5 I-1.356 J-0.439
X120.731 Y10.167 I0.475 J0 F1000
X116.931 Y10.167 I-1.9 J0
X123.581 Y10.167 I3.325 J0
X114.081 Y10.167 I-4.75 J0
X123.581 Y10.167 I4.75 J0
X123.187 Y10.473 I-0.315 J0
G1 X121.746 Y10.102
X121.693 Y10.093
X120.16 Y10.14
G3 X119.85 Y9.728 I-0.01 J-0.315
X122.562 Y10.607 Z-8.289 I1.356 J0.439 F333.3
X119.781 Y10.167 Z-9 I-1.356 J-0.439
X120.731 Y10.167 I0.475 J0 F1000
X116.931 Y10.167 I-1.9 J0
X123.581 Y10.167 I3.325 J0
X114.081 Y10.167 I-4.75 J0
X123.581 Y10.167 I4.75 J0
X123.187 Y10.473 I-0.315 J0
G1 X121.746 Y10.102
X121.693 Y10.093
X120.16 Y10.14
G3 X119.85 Y9.728 I-0.01 J-0.315
X122.562 Y10.607 Z-9.789 I1.356 J0.439 F333.3
X119.781 Y10.167 Z-10.5 I-1.356 J-0.439
X120.731 Y10.167 I0.475 J0 F1000
X116.931 Y10.167 I-1.9 J0
X123.581 Y10.167 I3.325 J0
X114.081 Y10.167 I-4.75 J0
X123.581 Y10.167 I4.75 J0
X123.187 Y10.473 I-0.315 J0
G1 X121.746 Y10.102
X121.693 Y10.093
X120.16 Y10.14
G3 X119.85 Y9.728 I-0.01 J-0.315
X122.562 Y10.607 Z-11.289 I1.356 J0.439 F333.3
X119.781 Y10.167 Z-12 I-1.356 J-0.439
X120.731 Y10.167 I0.475 J0 F1000
X116.931 Y10.167 I-1.9 J0
X123.581 Y10.167 I3.325 J0
X114.081 Y10.167 I-4.75 J0
X123.581 Y10.167 I4.75 J0
X123.187 Y10.473 I-0.315 J0
G1 X121.746 Y10.102
X121.693 Y10.093
X120.16 Y10.14
G3 X119.85 Y9.728 I-0.01 J-0.315
X122.562 Y10.607 Z-12.789 I1.356 J0.439 F333.3
X119.781 Y10.167 Z-13.5 I-1.356 J-0.439
X120.731 Y10.167 I0.475 J0 F1000
X116.931 Y10.167 I-1.9 J0
X123.581 Y10.167 I3.325 J0
X114.081 Y10.167 I-4.75 J0
X123.581 Y10.167 I4.75 J0
X123.187 Y10.473 I-0.315 J0
G1 X121.746 Y10.102
X121.693 Y10.093
X120.16 Y10.14
G3 X119.85 Y9.728 I-0.01 J-0.315
X122.562 Y10.607 Z-14.289 I1.356 J0.439 F333.3
X119.781 Y10.167 Z-15 I-1.356 J-0.439
X120.731 Y10.167 I0.475 J0 F1000
X116.931 Y10.167 I-1.9 J0
X123.581 Y10.167 I3.325 J0
X114.081 Y10.167 I-4.75 J0
X123.581 Y10.167 I4.75 J0
X123.187 Y10.473 I-0.315 J0
G1 X121.746 Y10.102
X121.693 Y10.093
X120.16 Y10.14
G3 X119.85 Y9.728 I-0.01 J-0.315
X122.562 Y10.607 Z-15.789 I1.356 J0.439 F333.3
X119.781 Y10.167 Z-16.5 I-1.356 J-0.439
X120.731 Y10.167 I0.475 J0 F1000
X116.931 Y10.167 I-1.9 J0
X123.581 Y10.167 I3.325 J0
X114.081 Y10.167 I-4.75 J0
X123.581 Y10.167 I4.75 J0
X123.269 Y10.333 I-0.2 J0
G1 X121.914 Y9.423
G3 X121.867 Y9.134 I0.112 J-0.166
X122.159 Y9.108 I0.158 J0.123
X120.253 Y11.227 Z-17.289 I-0.953 J1.059 F333.3
X119.781 Y10.167 Z-17.5 I0.953 J-1.059
X120.731 Y10.167 I0.475 J0 F1000
X116.931 Y10.167 I-1.9 J0
X123.581 Y10.167 I3.325 J0
X114.081 Y10.167 I-4.75 J0
X123.581 Y10.167 I4.75 J0
G0 Z4
X130.827 Y23.064
Z2
G1 Z1.8 F500
G3 X128.423 Y24.596 Z1.011 I-1.202 J0.766 F333.3
X130.827 Y23.064 Z0.221 I1.202 J-0.766
X128.423 Y24.596 Z-0.568 I-1.202 J0.766
X130.827 Y23.064 Z-1.358 I1.202 J-0.766
X131.05 Y23.83 Z-1.5 I-1.202 J0.766
X128.95 Y23.83 I-1.05 J0 F1000
X133.9 Y23.83 I2.475 J0
X126.1 Y23.83 I-3.9 J0
X136.75 Y23.83 I5.325 J0
X123.25 Y23.83 I-6.75 J0
X136.75 Y23.83 I6.75 J0
X133.9 Y23.83 Z-2.25 I-1.425 J0 F333.3
G2 X131.05 Y23.83 Z-3 I-1.425 J0
G3 X128.95 Y23.83 I-1.05 J0 F1000
X133.9 Y23.83 I2.475 J0
X126.1 Y23.83 I-3.9 J0
X136.75 Y23.83 I5.325 J0
X123.25 Y23.83 I-6.75 J0
X136.75 Y23.83 I6.75 J0
X133.9 Y23.83 Z-3.75 I-1.425 J0 F333.3
G2 X131.05 Y23.83 Z-4.5 I-1.425 J0
G3 X128.95 Y23.83 I-1.05 J0 F1000
X133.9 Y23.83 I2.475 J0
X126.1 Y23.83 I-3.9 J0
X136.75 Y23.83 I5.325 J0
X123.25 Y23.83 I-6.75 J0
X136.75 Y23.83 I6.75 J0
X133.9 Y23.83 Z-5.25 I-1.425 J0 F333.3
G2 X131.05 Y23.83 Z-6 I-1.425 J0
G3 X128.95 Y23.83 I-1.05 J0 F1000
X133.9 Y23.83 I2.475 J0
X126.1 Y23.83 I-3.9 J0
X136.75 Y23.83 I5.325 J0
X123.25 Y23.83 I-6.75 J0
X136.75 Y23.83 I6.75 J0
X133.9 Y23.83 Z-6.75 I-1.425 J0 F333.3
G2 X131.05 Y23.83 Z-7.5 I-1.425 J0
G3 X128.95 Y23.83 I-1.05 J0 F1000
X133.9 Y23.83 I2.475 J0
X126.1 Y23.83 I-3.9 J0
X136.75 Y23.83 I5.325 J0
X123.25 Y23.83 I-6.75 J0
X136.75 Y23.83 I6.75 J0
X133.9 Y23.83 Z-8.25 I-1.425 J0 F333.3
G2 X131.05 Y23.83 Z-9 I-1.425 J0
G3 X128.95 Y23.83 I-1.05 J0 F1000
X133.9 Y23.83 I2.475 J0
X126.1 Y23.83 I-3.9 J0
X136.75 Y23.83 I5.325 J0
X123.25 Y23.83 I-6.75 J0
X136.75 Y23.83 I6.75 J0
X133.9 Y23.83 Z-9.75 I-1.425 J0 F333.3
G2 X131.05 Y23.83 Z-10.5 I-1.425 J0
G3 X128.95 Y23.83 I-1.05 J0 F1000
X133.9 Y23.83 I2.475 J0
X126.1 Y23.83 I-3.9 J0
X136.75 Y23.83 I5.325 J0
X123.25 Y23.83 I-6.75 J0
X136.75 Y23.83 I6.75 J0
X133.9 Y23.83 Z-11.25 I-1.425 J0 F333.3
G2 X131.05 Y23.83 Z-12 I-1.425 J0
G3 X128.95 Y23.83 I-1.05 J0 F1000
X133.9 Y23.83 I2.475 J0
X126.1 Y23.83 I-3.9 J0
X136.75 Y23.83 I5.325 J0
X123.25 Y23.83 I-6.75 J0
X136.75 Y23.83 I6.75 J0
X133.9 Y23.83 Z-12.75 I-1.425 J0 F333.3
G2 X131.05 Y23.83 Z-13.5 I-1.425 J0
G3 X128.95 Y23.83 I-1.05 J0 F1000
X133.9 Y23.83 I2.475 J0
X126.1 Y23.83 I-3.9 J0
X136.75 Y23.83 I5.325 J0
X123.25 Y23.83 I-6.75 J0
X136.75 Y23.83 I6.75 J0
X133.9 Y23.83 Z-14.25 I-1.425 J0 F333.3
G2 X131.05 Y23.83 Z-15 I-1.425 J0
G3 X128.95 Y23.83 I-1.05 J0 F1000
X133.9 Y23.83 I2.475 J0
X126.1 Y23.83 I-3.9 J0
X136.75 Y23.83 I5.325 J0
X123.25 Y23.83 I-6.75 J0
X136.75 Y23.83 I6.75 J0
X133.9 Y23.83 Z-15.75 I-1.425 J0 F333.3
G2 X131.05 Y23.83 Z-16.5 I-1.425 J0
G3 X128.95 Y23.83 I-1.05 J0 F1000
X133.9 Y23.83 I2.475 J0
X126.1 Y23.83 I-3.9 J0
X136.75 Y23.83 I5.325 J0
X123.25 Y23.83 I-6.75 J0
X136.75 Y23.83 I6.75 J0
X133.9 Y23.83 Z-17 I-1.425 J0 F333.3
G2 X131.05 Y23.83 Z-17.5 I-1.425 J0
G3 X128.95 Y23.83 I-1.05 J0 F1000
X133.9 Y23.83 I2.475 J0
X126.1 Y23.83 I-3.9 J0
X136.75 Y23.83 I5.325 J0
X123.25 Y23.83 I-6.75 J0
X136.75 Y23.83 I6.75 J0
G0 Z4
X140.004 Y10.933
Z2
G1 Z1.8 F500
G3 X142.408 Y9.402 Z1.011 I1.202 J-0.766 F333.3
X140.004 Y10.933 Z0.221 I-1.202 J0.766
X142.408 Y9.402 Z-0.568 I1.202 J-0.766
X140.004 Y10.933 Z-1.358 I-1.202 J0.766
X139.781 Y10.167 Z-1.5 I1.202 J-0.766
X140.731 Y10.167 I0.475 J0 F1000
X136.931 Y10.167 I-1.9 J0
X143.581 Y10.167 I3.325 J0
X134.081 Y10.167 I-4.75 J0
X143.581 Y10.167 I4.75 J0
X143.187 Y10.473 I-0.315 J0
G1 X141.746 Y10.102
X141.693 Y10.093
X140.16 Y10.14
G3 X139.85 Y9.728 I-0.01 J-0.315
X142.562 Y10.607 Z-2.289 I1.356 J0.439 F333.3
X139.781 Y10.167 Z-3 I-1.356 J-0.439
X140.731 Y10.167 I0.475 J0 F1000
X136.931 Y10.167 I-1.9 J0
X143.581 Y10.167 I3.325 J0
X134.081 Y10.167 I-4.75 J0
X143.581 Y10.167 I4.75 J0
X143.187 Y10.473 I-0.315 J0
G1 X141.746 Y10.102
X141.693 Y10.093
X140.16 Y10.14
G3 X139.85 Y9.728 I-0.01 J-0.315
X142.562 Y10.607 Z-3.789 I1.356 J0.439 F333.3
X139.781 Y10.167 Z-4.5 I-1.356 J-0.439
X140.731 Y10.167 I0.475 J0 F1000
X136.931 Y10.167 I-1.9 J0
X143.581 Y10.167 I3.325 J0
X134.081 Y10.167 I-4.75 J0
X143.581 Y10.167 I4.75 J0
X143.187 Y10.473 I-0.315 J0
G1 X141.746 Y10.102
X141.693 Y10.093
X140.16 Y10.14
G3 X139.85 Y9.728 I-0.01 J-0.315
X142.562 Y10.607 Z-5.289 I1.356 J0.439 F333.3
X139.781 Y10.167 Z-6 I-1.356 J-0.439
X140.731 Y10.167 I0.475 J0 F1000
X136.931 Y10.167 I-1.9 J0
X143.581 Y10.167 I3.325 J0
X134.081 Y10.167 I-4.75 J0
X143.581 Y10.167 I4.75 J0
X143.187 Y10.473 I-0.315 J0
G1 X141.746 Y10.102
X141.693 Y10.093
X140.16 Y10.14
G3 X139.85 Y9.728 I-0.01 J-0.315
X142.562 Y10.607 Z-6.789 I1.356 J0.439 F333.3
X139.781 Y10.167 Z-7.5 I-1.356 J-0.439
X140.731 Y10.167 I0.475 J0 F1000
X136.931 Y10.167 I-1.9 J0
X143.581 Y10.167 I3.325 J0
X134.081 Y10.167 I-4.75 J0
X143.581 Y10.167 I4.75 J0
X143.187 Y10.473 I-0.315 J0
G1 X141.746 Y10.102
X141.693 Y10.093
X140.16 Y10.14
G3 X139.85 Y9.728 I-0.01 J-0.315
X142.562 Y10.607 Z-8.289 I1.356 J0.439 F333.3
X139.781 Y10.167 Z-9 I-1.356 J-0.439
X140.731 Y10.167 I0.475 J0 F1000
X136.931 Y10.167 I-1.9 J0
X143.581 Y10.167 I3.325 J0
X134.081 Y10.167 I-4.75 J0
X143.581 Y10.167 I4.75 J0
X143.187 Y10.473 I-0.315 J0
G1 X141.746 Y10.102
X141.693 Y10.093
X140.16 Y10.14
G3 X139.85 Y9.728 I-0.01 J-0.315
X142.562 Y10.607 Z-9.789 I1.356 J0.439 F333.3
X139.781 Y10.167 Z-10.5 I-1.356 J-0.439
X140.731 Y10.167 I0.475 J0 F1000
X136.931 Y10.167 I-1.9 J0
X143.581 Y10.167 I3.325 J0
X134.081 Y10.167 I-4.75 J0
X143.581 Y10.167 I4.75 J0
X143.187 Y10.473 I-0.315 J0
G1 X141.746 Y10.102
X141.693 Y10.093
X140.16 Y10.14
G3 X139.85 Y9.728 I-0.01 J-0.315
X142.562 Y10.607 Z-11.289 I1.356 J0.439 F333.3
X139.781 Y10.167 Z-12 I-1.356 J-0.439
X140.731 Y10.167 I0.475 J0 F1000
X136.931 Y10.167 I-1.9 J0
X143.581 Y10.167 I3.325 J0
X134.081 Y10.167 I-4.75 J0
X143.581 Y10.167 I4.75 J0
X143.187 Y10.473 I-0.315 J0
