(1001)
(T4  D=3 CR=0 - ZMIN=-17.5 - flat end mill)
G90 G94
G17
G21

(2D Contour1)
T4
S15000 M3
G54
M8
G0 X10 Y131.5
Z6
Z2
G1 Z1.5 F333.3
Z-0.5
X190 F1000
G2 X201.5 Y120 I0 J-11.5
G1 Y10
G2 X190 Y-1.5 I-11.5 J0
G1 X10
G2 X-1.5 Y10 I0 J11.5
G1 Y120
G2 X10 Y131.5 I11.5 J0
G1 Z-1 F333.3
X190 F1000
G2 X201.5 Y120 I0 J-11.5
G1 Y10
G2 X190 Y-1.5 I-11.5 J0
G1 X10
G2 X-1.5 Y10 I0 J11.5
G1 Y120
G2 X10 Y131.5 I11.5 J0
G1 Z-1.5 F333.3
X190 F1000
G2 X201.5 Y120 I0 J-11.5
G1 Y10
G2 X190 Y-1.5 I-11.5 J0
G1 X10
G2 X-1.5 Y10 I0 J11.5
G1 Y120
G2 X10 Y131.5 I11.5 J0
G1 Z-2 F333.3
X190 F1000
G2 X201.5 Y120 I0 J-11.5
G1 Y10
G2 X190 Y-1.5 I-11.5 J0
G1 X10
G2 X-1.5 Y10 I0 J11.5
G1 Y120
G2 X10 Y131.5 I11.5 J0
G1 Z-2.5 F333.3
X190 F1000
G2 X201.5 Y120 I0 J-11.5
G1 Y10
G2 X190 Y-1.5 I-11.5 J0
G1 X10
G2 X-1.5 Y10 I0 J11.5
G1 Y120
G2 X10 Y131.5 I11.5 J0
G1 Z-3 F333.3
X190 F1000
G2 X201.5 Y120 I0 J-11.5
G1 Y10
G2 X190 Y-1.5 I-11.5 J0
G1 X10
G2 X-1.5 Y10 I0 J11.5
G1 Y120
G2 X10 Y131.5 I11.5 J0
G1 Z-3.5 F333.3
X190 F1000
G2 X201.5 Y120 I0 J-11.5
G1 Y10
G2 X190 Y-1.5 I-11.5 J0
G1 X10
G2 X-1.5 Y10 I0 J11.5
G1 Y120
G2 X10 Y131.5 I11.5 J0
G1 Z-4 F333.3
X190 F1000
G2 X201.5 Y120 I0 J-11.5
G1 Y10
G2 X190 Y-1.5 I-11.5 J0
G1 X10
G2 X-1.5 Y10 I0 J11.5
G1 Y120
G2 X10 Y131.5 I11.5 J0
G1 Z-4.5 F333.3
X190 F1000
G2 X201.5 Y120 I0 J-11.5
G1 Y10
G2 X190 Y-1.5 I-11.5 J0
G1 X10
G2 X-1.5 Y10 I0 J11.5
G1 Y120
G2 X10 Y131.5 I11.5 J0
G1 Z-5 F333.3
X190 F1000
G2 X201.5 Y120 I0 J-11.5
G1 Y10
G2 X190 Y-1.5 I-11.5 J0
G1 X10
G2 X-1.5 Y10 I0 J11.5
G1 Y120
G2 X10 Y131.5 I11.5 J0
G1 Z-5.5 F333.3
X190 F1000
G2 X201.5 Y120 I0 J-11.5
G1 Y10
G2 X190 Y-1.5 I-11.5 J0
G1 X10
G2 X-1.5 Y10 I0 J11.5
G1 Y120
G2 X10 Y131.5 I11.5 J0
G1 Z-6 F333.3
X190 F1000
G2 X201.5 Y120 I0 J-11.5
G1 Y10
G2 X190 Y-1.5 I-11.5 J0
G1 X10
G2 X-1.5 Y10 I0 J11.5
G1 Y120
G2 X10 Y131.5 I11.5 J0
G1 Z-6.5 F333.3
X190 F1000
G2 X201.5 Y120 I0 J-11.5
G1 Y10
G2 X190 Y-1.5 I-11.5 J0
G1 X10
G2 X-1.5 Y10 I0 J11.5
G1 Y120
G2 X10 Y131.5 I11.5 J0
G1 Z-7 F333.3
X190 F1000
G2 X201.5 Y120 I0 J-11.5
G1 Y10
G2 X190 Y-1.5 I-11.5 J0
G1 X10
G2 X-1.5 Y10 I0 J11.5
G1 Y120
G2 X10 Y131.5 I11.5 J0
G1 Z-7.5 F333.3
X190 F1000
G2 X201.5 Y120 I0 J-11.5
G1 Y10
G2 X190 Y-1.5 I-11.5 J0
G1 X10
G2 X-1.5 Y10 I0 J11.5
G1 Y120
G2 X10 Y131.5 I11.5 J0
G1 Z-8 F333.3
X190 F1000
G2 X201.5 Y120 I0 J-11.5
G1 Y10
G2 X190 Y-1.5 I-11.5 J0
G1 X10
G2 X-1.5 Y10 I0 J11.5
G1 Y120
G2 X10 Y131.5 I11.5 J0
G1 Z-8.5 F333.3
X190 F1000
G2 X201.5 Y120 I0 J-11.5
G1 Y10
G2 X190 Y-1.5 I-11.5 J0
G1 X10
G2 X-1.5 Y10 I0 J11.5
G1 Y120
G2 X10 Y131.5 I11.5 J0
G1 Z-9 F333.3
X190 F1000
G2 X201.5 Y120 I0 J-11.5
G1 Y10
G2 X190 Y-1.5 I-11.5 J0
G1 X10
G2 X-1.5 Y10 I0 J11.5
G1 Y120
G2 X10 Y131.5 I11.5 J0
G1 Z-9.5 F333.3
X190 F1000
G2 X201.5 Y120 I0 J-11.5
G1 Y10
G2 X190 Y-1.5 I-11.5 J0
G1 X10
G2 X-1.5 Y10 I0 J11.5
G1 Y120
G2 X10 Y131.5 I11.5 J0
G1 Z-10 F333.3
X190 F1000
G2 X201.5 Y120 I0 J-11.5
G1 Y10
G2 X190 Y-1.5 I-11.5 J0
G1 X10
G2 X-1.5 Y10 I0 J11.5
G1 Y120
G2 X10 Y131.5 I11.5 J0
G1 Z-10.5 F333.3
X190 F1000
G2 X201.5 Y120 I0 J-11.5
G1 Y10
G2 X190 Y-1.5 I-11.5 J0
G1 X10
G2 X-1.5 Y10 I0 J11.5
G1 Y120
G2 X10 Y131.5 I11.5 J0
G1 Z-11 F333.3
X190 F1000
G2 X201.5 Y120 I0 J-11.5
G1 Y10
G2 X190 Y-1.5 I-11.5 J0
G1 X10
G2 X-1.5 Y10 I0 J11.5
G1 Y120
G2 X10 Y131.5 I11.5 J0
G1 Z-11.5 F333.3
X190 F1000
G2 X201.5 Y120 I0 J-11.5
G1 Y10
G2 X190 Y-1.5 I-11.5 J0
G1 X10
G2 X-1.5 Y10 I0 J11.5
G1 Y120
G2 X10 Y131.5 I11.5 J0
G1 Z-12 F333.3
X190 F1000
G2 X201.5 Y120 I0 J-11.5
G1 Y10
G2 X190 Y-1.5 I-11.5 J0
G1 X10
G2 X-1.5 Y10 I0 J11.5
G1 Y120
G2 X10 Y131.5 I11.5 J0
G1 Z-12.5 F333.3
X190 F1000
G2 X201.5 Y120 I0 J-11.5
G1 Y10
G2 X190 Y-1.5 I-11.5 J0
G1 X10
G2 X-1.5 Y10 I0 J11.5
G1 Y120
G2 X10 Y131.5 I11.5 J0
G1 Z-13 F333.3
X190 F1000
G2 X201.5 Y120 I0 J-11.5
G1 Y10
G2 X190 Y-1.5 I-11.5 J0
G1 X10
G2 X-1.5 Y10 I0 J11.5
G1 Y120
G2 X10 Y131.5 I11.5 J0
G1 Z-13.5 F333.3
X190 F1000
G2 X201.5 Y120 I0 J-11.5
G1 Y10
G2 X190 Y-1.5 I-11.5 J0
G1 X10
G2 X-1.5 Y10 I0 J11.5
G1 Y120
G2 X10 Y131.5 I11.5 J0
G1 Z-14 F333.3
X190 F1000
G2 X201.5 Y120 I0 J-11.5
G1 Y10
G2 X190 Y-1.5 I-11.5 J0
G1 X10
G2 X-1.5 Y10 I0 J11.5
G1 Y120
G2 X10 Y131.5 I11.5 J0
G1 Z-14.5 F333.3
X190 F1000
G2 X201.5 Y120 I0 J-11.5
G1 Y10
G2 X190 Y-1.5 I-11.5 J0
G1 X10
G2 X-1.5 Y10 I0 J11.5
G1 Y120
G2 X10 Y131.5 I11.5 J0
G1 Z-15 F333.3
X190 F1000
G2 X201.5 Y120 I0 J-11.5
G1 Y10
G2 X190 Y-1.5 I-11.5 J0
G1 X10
G2 X-1.5 Y10 I0 J11.5
G1 Y120
G2 X10 Y131.5 I11.5 J0
G1 Z-15.5 F333.3
X190 F1000
G2 X201.5 Y120 I0 J-11.5
G1 Y10
G2 X190 Y-1.5 I-11.5 J0
G1 X10
G2 X-1.5 Y10 I0 J11.5
G1 Y120
G2 X10 Y131.5 I11.5 J0
G1 Z-16 F333.3
X190 F1000
G2 X201.5 Y120 I0 J-11.5
G1 Y10
G2 X190 Y-1.5 I-11.5 J0
G1 X10
G2 X-1.5 Y10 I0 J11.5
G1 Y120
G2 X10 Y131.5 I11.5 J0
G1 Z-16.5 F333.3
X190 F1000
G2 X201.5 Y120 I0 J-11.5
G1 Y10
G2 X190 Y-1.5 I-11.5 J0
G1 X10
G2 X-1.5 Y10 I0 J11.5
G1 Y120
G2 X10 Y131.5 I11.5 J0
G1 Z-17 F333.3
X190 F1000
G2 X201.5 Y120 I0 J-11.5
G1 Y10
G2 X190 Y-1.5 I-11.5 J0
G1 X10
G2 X-1.5 Y10 I0 J11.5
G1 Y120
G2 X10 Y131.5 I11.5 J0
G1 Z-17.5 F333.3
X190 F1000
G2 X201.5 Y120 I0 J-11.5
G1 Y10
G2 X190 Y-1.5 I-11.5 J0
G1 X10
G2 X-1.5 Y10 I0 J11.5
G1 Y120
G2 X10 Y131.5 I11.5 J0
G0 Z6
M9
M5
M30
