(1001)
(T4  D=3 CR=0 - ZMIN=-18 - flat end mill)
G90 G94
G17
G21

(2D Pocket1)
T4
S15000 M3
G54
M8
G0 X112.275 Y86.016
Z6
Z2
G1 Z1.8 F400
G3 X114.679 Y84.484 Z1.011 I1.202 J-0.766 F333.3
X112.275 Y86.016 Z0.221 I-1.202 J0.766
X114.679 Y84.484 Z-0.568 I1.202 J-0.766
X112.275 Y86.016 Z-1.358 I-1.202 J0.766
X112.052 Y85.25 Z-1.5 I1.202 J-0.766
G1 Y75.264 F400
G3 X112.371 Y74.945 I0.319 J0
G1 X113.343
G3 X113.662 Y75.264 I0 J0.319
G1 Y85.736
G3 X113.343 Y86.055 I-0.319 J0
G1 X112.371
G3 X112.052 Y85.736 I0 J-0.319
G1 Y85.25
G2 X110.854 Y83.453 I-1.947 J0
G3 X109.655 Y81.655 I0.749 J-1.797
G1 Y72.868
G3 X109.975 Y72.548 I0.319 J0
G1 X115.739
G3 X116.059 Y72.868 I0 J0.319
G1 Y88.132
G3 X115.739 Y88.452 I-0.319 J0
G1 X109.975
G3 X109.655 Y88.132 I0 J-0.319
G1 Y81.655
G2 X108.457 Y79.858 I-1.947 J0
G3 X107.259 Y78.06 I0.749 J-1.797
G1 Y70.471
G3 X107.578 Y70.152 I0.319 J0
G1 X118.136
G3 X118.455 Y70.471 I0 J0.319
G1 Y90.529
G3 X118.136 Y90.848 I-0.319 J0
G1 X107.578
G3 X107.259 Y90.529 I0 J-0.319
G1 Y78.06
G2 X106.058 Y76.259 I-1.951 J0
G3 X104.857 Y74.458 I0.751 J-1.801
G1 Y67.75
X120.857
Y93.25
X104.857
Y74.458
G3 X107.694 Y74.265 Z-1.824 I1.425 J0 F333.3
G1 X109.215 Y85.442 Z-2.676
G2 X112.052 Y85.25 Z-3 I1.412 J-0.192
G1 Y75.264 F400
G3 X112.371 Y74.945 I0.319 J0
G1 X113.343
G3 X113.662 Y75.264 I0 J0.319
G1 Y85.736
G3 X113.343 Y86.055 I-0.319 J0
G1 X112.371
G3 X112.052 Y85.736 I0 J-0.319
G1 Y85.25
G2 X110.854 Y83.453 I-1.947 J0
G3 X109.655 Y81.655 I0.749 J-1.797
G1 Y72.868
G3 X109.975 Y72.548 I0.319 J0
G1 X115.739
G3 X116.059 Y72.868 I0 J0.319
G1 Y88.132
G3 X115.739 Y88.452 I-0.319 J0
G1 X109.975
G3 X109.655 Y88.132 I0 J-0.319
G1 Y81.655
G2 X108.457 Y79.858 I-1.947 J0
G3 X107.259 Y78.06 I0.749 J-1.797
G1 Y70.471
G3 X107.578 Y70.152 I0.319 J0
G1 X118.136
G3 X118.455 Y70.471 I0 J0.319
G1 Y90.529
G3 X118.136 Y90.848 I-0.319 J0
G1 X107.578
G3 X107.259 Y90.529 I0 J-0.319
G1 Y78.06
G2 X106.058 Y76.259 I-1.951 J0
G3 X104.857 Y74.458 I0.751 J-1.801
G1 Y67.75
X120.857
Y93.25
X104.857
Y74.458
G3 X107.694 Y74.265 Z-3.324 I1.425 J0 F333.3
G1 X109.215 Y85.442 Z-4.176
G2 X112.052 Y85.25 Z-4.5 I1.412 J-0.192
G1 Y75.264 F400
G3 X112.371 Y74.945 I0.319 J0
G1 X113.343
G3 X113.662 Y75.264 I0 J0.319
G1 Y85.736
G3 X113.343 Y86.055 I-0.319 J0
G1 X112.371
G3 X112.052 Y85.736 I0 J-0.319
G1 Y85.25
G2 X110.854 Y83.453 I-1.947 J0
G3 X109.655 Y81.655 I0.749 J-1.797
G1 Y72.868
G3 X109.975 Y72.548 I0.319 J0
G1 X115.739
G3 X116.059 Y72.868 I0 J0.319
G1 Y88.132
G3 X115.739 Y88.452 I-0.319 J0
G1 X109.975
G3 X109.655 Y88.132 I0 J-0.319
G1 Y81.655
G2 X108.457 Y79.858 I-1.947 J0
G3 X107.259 Y78.06 I0.749 J-1.797
G1 Y70.471
G3 X107.578 Y70.152 I0.319 J0
G1 X118.136
G3 X118.455 Y70.471 I0 J0.319
G1 Y90.529
G3 X118.136 Y90.848 I-0.319 J0
G1 X107.578
G3 X107.259 Y90.529 I0 J-0.319
G1 Y78.06
G2 X106.058 Y76.259 I-1.951 J0
G3 X104.857 Y74.458 I0.751 J-1.801
G1 Y67.75
X120.857
Y93.25
X104.857
Y74.458
G3 X107.694 Y74.265 Z-4.824 I1.425 J0 F333.3
G1 X109.215 Y85.442 Z-5.676
G2 X112.052 Y85.25 Z-6 I1.412 J-0.192
G1 Y75.264 F400
G3 X112.371 Y74.945 I0.319 J0
G1 X113.343
G3 X113.662 Y75.264 I0 J0.319
G1 Y85.736
G3 X113.343 Y86.055 I-0.319 J0
G1 X112.371
G3 X112.052 Y85.736 I0 J-0.319
G1 Y85.25
G2 X110.854 Y83.453 I-1.947 J0
G3 X109.655 Y81.655 I0.749 J-1.797
G1 Y72.868
G3 X109.975 Y72.548 I0.319 J0
G1 X115.739
G3 X116.059 Y72.868 I0 J0.319
G1 Y88.132
G3 X115.739 Y88.452 I-0.319 J0
G1 X109.975
G3 X109.655 Y88.132 I0 J-0.319
G1 Y81.655
G2 X108.457 Y79.858 I-1.947 J0
G3 X107.259 Y78.06 I0.749 J-1.797
G1 Y70.471
G3 X107.578 Y70.152 I0.319 J0
G1 X118.136
G3 X118.455 Y70.471 I0 J0.319
G1 Y90.529
G3 X118.136 Y90.848 I-0.319 J0
G1 X107.578
G3 X107.259 Y90.529 I0 J-0.319
G1 Y78.06
G2 X106.058 Y76.259 I-1.951 J0
G3 X104.857 Y74.458 I0.751 J-1.801
G1 Y67.75
X120.857
Y93.25
X104.857
Y74.458
G3 X107.694 Y74.265 Z-6.324 I1.425 J0 F333.3
G1 X109.215 Y85.442 Z-7.176
G2 X112.052 Y85.25 Z-7.5 I1.412 J-0.192
G1 Y75.264 F400
G3 X112.371 Y74.945 I0.319 J0
G1 X113.343
G3 X113.662 Y75.264 I0 J0.319
G1 Y85.736
G3 X113.343 Y86.055 I-0.319 J0
G1 X112.371
G3 X112.052 Y85.736 I0 J-0.319
G1 Y85.25
G2 X110.854 Y83.453 I-1.947 J0
G3 X109.655 Y81.655 I0.749 J-1.797
G1 Y72.868
G3 X109.975 Y72.548 I0.319 J0
G1 X115.739
G3 X116.059 Y72.868 I0 J0.319
G1 Y88.132
G3 X115.739 Y88.452 I-0.319 J0
G1 X109.975
G3 X109.655 Y88.132 I0 J-0.319
G1 Y81.655
G2 X108.457 Y79.858 I-1.947 J0
G3 X107.259 Y78.06 I0.749 J-1.797
G1 Y70.471
G3 X107.578 Y70.152 I0.319 J0
G1 X118.136
G3 X118.455 Y70.471 I0 J0.319
G1 Y90.529
G3 X118.136 Y90.848 I-0.319 J0
G1 X107.578
G3 X107.259 Y90.529 I0 J-0.319
G1 Y78.06
G2 X106.058 Y76.259 I-1.951 J0
G3 X104.857 Y74.458 I0.751 J-1.801
G1 Y67.75
X120.857
Y93.25
X104.857
Y74.458
G3 X107.694 Y74.265 Z-7.824 I1.425 J0 F333.3
G1 X109.215 Y85.442 Z-8.676
G2 X112.052 Y85.25 Z-9 I1.412 J-0.192
G1 Y75.264 F400
G3 X112.371 Y74.945 I0.319 J0
G1 X113.343
G3 X113.662 Y75.264 I0 J0.319
G1 Y85.736
G3 X113.343 Y86.055 I-0.319 J0
G1 X112.371
G3 X112.052 Y85.736 I0 J-0.319
G1 Y85.25
G2 X110.854 Y83.453 I-1.947 J0
G3 X109.655 Y81.655 I0.749 J-1.797
G1 Y72.868
G3 X109.975 Y72.548 I0.319 J0
G1 X115.739
G3 X116.059 Y72.868 I0 J0.319
G1 Y88.132
G3 X115.739 Y88.452 I-0.319 J0
G1 X109.975
G3 X109.655 Y88.132 I0 J-0.319
G1 Y81.655
G2 X108.457 Y79.858 I-1.947 J0
G3 X107.259 Y78.06 I0.749 J-1.797
G1 Y70.471
G3 X107.578 Y70.152 I0.319 J0
G1 X118.136
G3 X118.455 Y70.471 I0 J0.319
G1 Y90.529
G3 X118.136 Y90.848 I-0.319 J0
G1 X107.578
G3 X107.259 Y90.529 I0 J-0.319
G1 Y78.06
G2 X106.058 Y76.259 I-1.951 J0
G3 X104.857 Y74.458 I0.751 J-1.801
G1 Y67.75
X120.857
Y93.25
X104.857
Y74.458
G3 X107.694 Y74.265 Z-9.324 I1.425 J0 F333.3
G1 X109.215 Y85.442 Z-10.176
G2 X112.052 Y85.25 Z-10.5 I1.412 J-0.192
G1 Y75.264 F400
G3 X112.371 Y74.945 I0.319 J0
G1 X113.343
G3 X113.662 Y75.264 I0 J0.319
G1 Y85.736
G3 X113.343 Y86.055 I-0.319 J0
G1 X112.371
G3 X112.052 Y85.736 I0 J-0.319
G1 Y85.25
G2 X110.854 Y83.453 I-1.947 J0
G3 X109.655 Y81.655 I0.749 J-1.797
G1 Y72.868
G3 X109.975 Y72.548 I0.319 J0
G1 X115.739
G3 X116.059 Y72.868 I0 J0.319
G1 Y88.132
G3 X115.739 Y88.452 I-0.319 J0
G1 X109.975
G3 X109.655 Y88.132 I0 J-0.319
G1 Y81.655
G2 X108.457 Y79.858 I-1.947 J0
G3 X107.259 Y78.06 I0.749 J-1.797
G1 Y70.471
G3 X107.578 Y70.152 I0.319 J0
G1 X118.136
G3 X118.455 Y70.471 I0 J0.319
G1 Y90.529
G3 X118.136 Y90.848 I-0.319 J0
G1 X107.578
G3 X107.259 Y90.529 I0 J-0.319
G1 Y78.06
G2 X106.058 Y76.259 I-1.951 J0
G3 X104.857 Y74.458 I0.751 J-1.801
G1 Y67.75
X120.857
Y93.25
X104.857
Y74.458
G3 X107.694 Y74.265 Z-10.824 I1.425 J0 F333.3
G1 X109.215 Y85.442 Z-11.676
G2 X112.052 Y85.25 Z-12 I1.412 J-0.192
G1 Y75.264 F400
G3 X112.371 Y74.945 I0.319 J0
G1 X113.343
G3 X113.662 Y75.264 I0 J0.319
G1 Y85.736
G3 X113.343 Y86.055 I-0.319 J0
G1 X112.371
G3 X112.052 Y85.736 I0 J-0.319
G1 Y85.25
G2 X110.854 Y83.453 I-1.947 J0
G3 X109.655 Y81.655 I0.749 J-1.797
G1 Y72.868
G3 X109.975 Y72.548 I0.319 J0
G1 X115.739
G3 X116.059 Y72.868 I0 J0.319
G1 Y88.132
G3 X115.739 Y88.452 I-0.319 J0
G1 X109.975
G3 X109.655 Y88.132 I0 J-0.319
G1 Y81.655
G2 X108.457 Y79.858 I-1.947 J0
G3 X107.259 Y78.06 I0.749 J-1.797
G1 Y70.471
G3 X107.578 Y70.152 I0.319 J0
G1 X118.136
G3 X118.455 Y70.471 I0 J0.319
G1 Y90.529
G3 X118.136 Y90.848 I-0.319 J0
G1 X107.578
G3 X107.259 Y90.529 I0 J-0.319
G1 Y78.06
G2 X106.058 Y76.259 I-1.951 J0
G3 X104.857 Y74.458 I0.751 J-1.801
G1 Y67.75
X120.857
Y93.25
X104.857
Y74.458
G3 X107.694 Y74.265 Z-12.324 I1.425 J0 F333.3
G1 X109.215 Y85.442 Z-13.176
G2 X112.052 Y85.25 Z-13.5 I1.412 J-0.192
G1 Y75.264 F400
G3 X112.371 Y74.945 I0.319 J0
G1 X113.343
G3 X113.662 Y75.264 I0 J0.319
G1 Y85.736
G3 X113.343 Y86.055 I-0.319 J0
G1 X112.371
G3 X112.052 Y85.736 I0 J-0.319
G1 Y85.25
G2 X110.854 Y83.453 I-1.947 J0
G3 X109.655 Y81.655 I0.749 J-1.797
G1 Y72.868
G3 X109.975 Y72.548 I0.319 J0
G1 X115.739
G3 X116.059 Y72.868 I0 J0.319
G1 Y88.132
G3 X115.739 Y88.452 I-0.319 J0
G1 X109.975
G3 X109.655 Y88.132 I0 J-0.319
G1 Y81.655
G2 X108.457 Y79.858 I-1.947 J0
G3 X107.259 Y78.06 I0.749 J-1.797
G1 Y70.471
G3 X107.578 Y70.152 I0.319 J0
G1 X118.136
G3 X118.455 Y70.471 I0 J0.319
G1 Y90.529
G3 X118.136 Y90.848 I-0.319 J0
G1 X107.578
G3 X107.259 Y90.529 I0 J-0.319
G1 Y78.06
G2 X106.058 Y76.259 I-1.951 J0
G3 X104.857 Y74.458 I0.751 J-1.801
G1 Y67.75
X120.857
Y93.25
X104.857
Y74.458
G3 X107.694 Y74.265 Z-13.824 I1.425 J0 F333.3
G1 X109.215 Y85.442 Z-14.676
G2 X112.052 Y85.25 Z-15 I1.412 J-0.192
G1 Y75.264 F400
G3 X112.371 Y74.945 I0.319 J0
G1 X113.343
G3 X113.662 Y75.264 I0 J0.319
G1 Y85.736
G3 X113.343 Y86.055 I-0.319 J0
G1 X112.371
G3 X112.052 Y85.736 I0 J-0.319
G1 Y85.25
G2 X110.854 Y83.453 I-1.947 J0
G3 X109.655 Y81.655 I0.749 J-1.797
G1 Y72.868
G3 X109.975 Y72.548 I0.319 J0
G1 X115.739
G3 X116.059 Y72.868 I0 J0.319
G1 Y88.132
G3 X115.739 Y88.452 I-0.319 J0
G1 X109.975
G3 X109.655 Y88.132 I0 J-0.319
G1 Y81.655
G2 X108.457 Y79.858 I-1.947 J0
G3 X107.259 Y78.06 I0.749 J-1.797
G1 Y70.471
G3 X107.578 Y70.152 I0.319 J0
G1 X118.136
G3 X118.455 Y70.471 I0 J0.319
G1 Y90.529
G3 X118.136 Y90.848 I-0.319 J0
G1 X107.578
G3 X107.259 Y90.529 I0 J-0.319
G1 Y78.06
G2 X106.058 Y76.259 I-1.951 J0
G3 X104.857 Y74.458 I0.751 J-1.801
G1 Y67.75
X120.857
Y93.25
X104.857
Y74.458
G3 X107.694 Y74.265 Z-15.324 I1.425 J0 F333.3
G1 X109.215 Y85.442 Z-16.176
G2 X112.052 Y85.25 Z-16.5 I1.412 J-0.192
G1 Y75.264 F400
G3 X112.371 Y74.945 I0.319 J0
G1 X113.343
G3 X113.662 Y75.264 I0 J0.319
G1 Y85.736
G3 X113.343 Y86.055 I-0.319 J0
G1 X112.371
G3 X112.052 Y85.736 I0 J-0.319
G1 Y85.25
G2 X110.854 Y83.453 I-1.947 J0
G3 X109.655 Y81.655 I0.749 J-1.797
G1 Y72.868
G3 X109.975 Y72.548 I0.319 J0
G1 X115.739
G3 X116.059 Y72.868 I0 J0.319
G1 Y88.132
G3 X115.739 Y88.452 I-0.319 J0
G1 X109.975
G3 X109.655 Y88.132 I0 J-0.319
G1 Y81.655
G2 X108.457 Y79.858 I-1.947 J0
G3 X107.259 Y78.06 I0.749 J-1.797
G1 Y70.471
G3 X107.578 Y70.152 I0.319 J0
G1 X118.136
G3 X118.455 Y70.471 I0 J0.319
G1 Y90.529
G3 X118.136 Y90.848 I-0.319 J0
G1 X107.578
G3 X107.259 Y90.529 I0 J-0.319
G1 Y78.06
G2 X106.058 Y76.259 I-1.951 J0
G3 X104.857 Y74.458 I0.751 J-1.801
G1 Y67.75
X120.857
Y93.25
X104.857
Y74.458
G3 X107.694 Y74.265 Z-16.824 I1.425 J0 F333.3
G1 X109.215 Y85.442 Z-17.676
G2 X112.052 Y85.25 Z-18 I1.412 J-0.192
G1 Y75.264 F400
G3 X112.371 Y74.945 I0.319 J0
G1 X113.343
G3 X113.662 Y75.264 I0 J0.319
G1 Y85.736
G3 X113.343 Y86.055 I-0.319 J0
G1 X112.371
G3 X112.052 Y85.736 I0 J-0.319
G1 Y85.25
G2 X110.854 Y83.453 I-1.947 J0
G3 X109.655 Y81.655 I0.749 J-1.797
G1 Y72.868
G3 X109.975 Y72.548 I0.319 J0
G1 X115.739
G3 X116.059 Y72.868 I0 J0.319
G1 Y88.132
G3 X115.739 Y88.452 I-0.319 J0
G1 X109.975
G3 X109.655 Y88.132 I0 J-0.319
G1 Y81.655
G2 X108.457 Y79.858 I-1.947 J0
G3 X107.259 Y78.06 I0.749 J-1.797
G1 Y70.471
G3 X107.578 Y70.152 I0.319 J0
G1 X118.136
G3 X118.455 Y70.471 I0 J0.319
G1 Y90.529
G3 X118.136 Y90.848 I-0.319 J0
G1 X107.578
G3 X107.259 Y90.529 I0 J-0.319
G1 Y78.06
G2 X106.058 Y76.259 I-1.951 J0
G3 X104.857 Y74.458 I0.751 J-1.801
G1 Y67.75
X120.857
Y93.25
X104.857
Y74.458
G0 Z4
X87.725 Y84.484
Z2
G1 Z1.8 F400
G3 X85.321 Y86.016 Z1.011 I-1.202 J0.766 F333.3
X87.725 Y84.484 Z0.221 I1.202 J-0.766
X85.321 Y86.016 Z-0.568 I-1.202 J0.766
X87.725 Y84.484 Z-1.358 I1.202 J-0.766
X87.948 Y85.25 Z-1.5 I-1.202 J0.766
G1 Y85.736 F400
G3 X87.629 Y86.055 I-0.319 J0
G1 X86.657
G3 X86.338 Y85.736 I0 J-0.319
G1 Y75.264
G3 X86.657 Y74.945 I0.319 J0
G1 X87.629
G3 X87.948 Y75.264 I0 J0.319
G1 Y85.25
G2 X88.945 Y86.713 I1.571 J0
G3 X88.616 Y88.452 I-0.329 J0.838
G1 X84.261
G3 X83.941 Y88.132 I0 J-0.319
G1 Y72.868
G3 X84.261 Y72.548 I0.319 J0
G1 X90.025
G3 X90.345 Y72.868 I0 J0.319
G1 Y88.132
G3 X90.025 Y88.452 I-0.319 J0
G1 X88.616
G2 X86.818 Y89.65 I0 J1.947
G3 X85.021 Y90.848 I-1.797 J-0.749
G1 X81.864
G3 X81.545 Y90.529 I0 J-0.319
G1 Y70.471
G3 X81.864 Y70.152 I0.319 J0
G1 X92.422
G3 X92.741 Y70.471 I0 J0.319
G1 Y90.529
G3 X92.422 Y90.848 I-0.319 J0
G1 X85.021
G2 X83.22 Y92.049 I0 J1.951
G3 X81.419 Y93.25 I-1.801 J-0.751
G1 X79.143
Y67.75
X95.143
Y93.25
X81.419
G3 X80.293 Y90.951 Z-1.817 I0 J-1.425 F333.3
G1 X85.397 Y84.376 Z-2.647
G3 X87.948 Y85.25 Z-3 I1.126 J0.874
G1 Y85.736 F400
G3 X87.629 Y86.055 I-0.319 J0
G1 X86.657
G3 X86.338 Y85.736 I0 J-0.319
G1 Y75.264
G3 X86.657 Y74.945 I0.319 J0
G1 X87.629
G3 X87.948 Y75.264 I0 J0.319
G1 Y85.25
G2 X88.945 Y86.713 I1.571 J0
G3 X88.616 Y88.452 I-0.329 J0.838
G1 X84.261
G3 X83.941 Y88.132 I0 J-0.319
G1 Y72.868
G3 X84.261 Y72.548 I0.319 J0
G1 X90.025
G3 X90.345 Y72.868 I0 J0.319
G1 Y88.132
G3 X90.025 Y88.452 I-0.319 J0
G1 X88.616
G2 X86.818 Y89.65 I0 J1.947
G3 X85.021 Y90.848 I-1.797 J-0.749
G1 X81.864
G3 X81.545 Y90.529 I0 J-0.319
G1 Y70.471
G3 X81.864 Y70.152 I0.319 J0
G1 X92.422
G3 X92.741 Y70.471 I0 J0.319
G1 Y90.529
G3 X92.422 Y90.848 I-0.319 J0
G1 X85.021
G2 X83.22 Y92.049 I0 J1.951
G3 X81.419 Y93.25 I-1.801 J-0.751
G1 X79.143
Y67.75
X95.143
Y93.25
X81.419
G3 X80.293 Y90.951 Z-3.317 I0 J-1.425 F333.3
G1 X85.397 Y84.376 Z-4.147
G3 X87.948 Y85.25 Z-4.5 I1.126 J0.874
G1 Y85.736 F400
G3 X87.629 Y86.055 I-0.319 J0
G1 X86.657
G3 X86.338 Y85.736 I0 J-0.319
G1 Y75.264
G3 X86.657 Y74.945 I0.319 J0
G1 X87.629
G3 X87.948 Y75.264 I0 J0.319
G1 Y85.25
G2 X88.945 Y86.713 I1.571 J0
G3 X88.616 Y88.452 I-0.329 J0.838
G1 X84.261
G3 X83.941 Y88.132 I0 J-0.319
G1 Y72.868
G3 X84.261 Y72.548 I0.319 J0
G1 X90.025
G3 X90.345 Y72.868 I0 J0.319
G1 Y88.132
G3 X90.025 Y88.452 I-0.319 J0
G1 X88.616
G2 X86.818 Y89.65 I0 J1.947
G3 X85.021 Y90.848 I-1.797 J-0.749
G1 X81.864
G3 X81.545 Y90.529 I0 J-0.319
G1 Y70.471
G3 X81.864 Y70.152 I0.319 J0
G1 X92.422
G3 X92.741 Y70.471 I0 J0.319
G1 Y90.529
G3 X92.422 Y90.848 I-0.319 J0
G1 X85.021
G2 X83.22 Y92.049 I0 J1.951
G3 X81.419 Y93.25 I-1.801 J-0.751
G1 X79.143
Y67.75
X95.143
Y93.25
X81.419
G3 X80.293 Y90.951 Z-4.817 I0 J-1.425 F333.3
G1 X85.397 Y84.376 Z-5.647
G3 X87.948 Y85.25 Z-6 I1.126 J0.874
G1 Y85.736 F400
G3 X87.629 Y86.055 I-0.319 J0
G1 X86.657
G3 X86.338 Y85.736 I0 J-0.319
G1 Y75.264
G3 X86.657 Y74.945 I0.319 J0
G1 X87.629
G3 X87.948 Y75.264 I0 J0.319
G1 Y85.25
G2 X88.945 Y86.713 I1.571 J0
G3 X88.616 Y88.452 I-0.329 J0.838
G1 X84.261
G3 X83.941 Y88.132 I0 J-0.319
G1 Y72.868
G3 X84.261 Y72.548 I0.319 J0
G1 X90.025
G3 X90.345 Y72.868 I0 J0.319
G1 Y88.132
G3 X90.025 Y88.452 I-0.319 J0
G1 X88.616
G2 X86.818 Y89.65 I0 J1.947
G3 X85.021 Y90.848 I-1.797 J-0.749
G1 X81.864
G3 X81.545 Y90.529 I0 J-0.319
G1 Y70.471
G3 X81.864 Y70.152 I0.319 J0
G1 X92.422
G3 X92.741 Y70.471 I0 J0.319
G1 Y90.529
G3 X92.422 Y90.848 I-0.319 J0
G1 X85.021
G2 X83.22 Y92.049 I0 J1.951
G3 X81.419 Y93.25 I-1.801 J-0.751
G1 X79.143
Y67.75
X95.143
Y93.25
X81.419
G3 X80.293 Y90.951 Z-6.317 I0 J-1.425 F333.3
G1 X85.397 Y84.376 Z-7.147
G3 X87.948 Y85.25 Z-7.5 I1.126 J0.874
G1 Y85.736 F400
G3 X87.629 Y86.055 I-0.319 J0
G1 X86.657
G3 X86.338 Y85.736 I0 J-0.319
G1 Y75.264
G3 X86.657 Y74.945 I0.319 J0
G1 X87.629
G3 X87.948 Y75.264 I0 J0.319
G1 Y85.25
G2 X88.945 Y86.713 I1.571 J0
G3 X88.616 Y88.452 I-0.329 J0.838
G1 X84.261
G3 X83.941 Y88.132 I0 J-0.319
G1 Y72.868
G3 X84.261 Y72.548 I0.319 J0
G1 X90.025
G3 X90.345 Y72.868 I0 J0.319
G1 Y88.132
G3 X90.025 Y88.452 I-0.319 J0
G1 X88.616
G2 X86.818 Y89.65 I0 J1.947
G3 X85.021 Y90.848 I-1.797 J-0.749
G1 X81.864
G3 X81.545 Y90.529 I0 J-0.319
G1 Y70.471
G3 X81.864 Y70.152 I0.319 J0
G1 X92.422
G3 X92.741 Y70.471 I0 J0.319
G1 Y90.529
G3 X92.422 Y90.848 I-0.319 J0
G1 X85.021
G2 X83.22 Y92.049 I0 J1.951
G3 X81.419 Y93.25 I-1.801 J-0.751
G1 X79.143
Y67.75
X95.143
Y93.25
X81.419
G3 X80.293 Y90.951 Z-7.817 I0 J-1.425 F333.3
G1 X85.397 Y84.376 Z-8.647
G3 X87.948 Y85.25 Z-9 I1.126 J0.874
G1 Y85.736 F400
G3 X87.629 Y86.055 I-0.319 J0
G1 X86.657
G3 X86.338 Y85.736 I0 J-0.319
G1 Y75.264
G3 X86.657 Y74.945 I0.319 J0
G1 X87.629
G3 X87.948 Y75.264 I0 J0.319
G1 Y85.25
G2 X88.945 Y86.713 I1.571 J0
G3 X88.616 Y88.452 I-0.329 J0.838
G1 X84.261
G3 X83.941 Y88.132 I0 J-0.319
G1 Y72.868
G3 X84.261 Y72.548 I0.319 J0
G1 X90.025
G3 X90.345 Y72.868 I0 J0.319
G1 Y88.132
G3 X90.025 Y88.452 I-0.319 J0
G1 X88.616
G2 X86.818 Y89.65 I0 J1.947
G3 X85.021 Y90.848 I-1.797 J-0.749
G1 X81.864
G3 X81.545 Y90.529 I0 J-0.319
G1 Y70.471
G3 X81.864 Y70.152 I0.319 J0
G1 X92.422
G3 X92.741 Y70.471 I0 J0.319
G1 Y90.529
G3 X92.422 Y90.848 I-0.319 J0
G1 X85.021
G2 X83.22 Y92.049 I0 J1.951
G3 X81.419 Y93.25 I-1.801 J-0.751
G1 X79.143
Y67.75
X95.143
Y93.25
X81.419
G3 X80.293 Y90.951 Z-9.317 I0 J-1.425 F333.3
G1 X85.397 Y84.376 Z-10.147
G3 X87.948 Y85.25 Z-10.5 I1.126 J0.874
G1 Y85.736 F400
G3 X87.629 Y86.055 I-0.319 J0
G1 X86.657
G3 X86.338 Y85.736 I0 J-0.319
G1 Y75.264
G3 X86.657 Y74.945 I0.319 J0
G1 X87.629
G3 X87.948 Y75.264 I0 J0.319
G1 Y85.25
G2 X88.945 Y86.713 I1.571 J0
G3 X88.616 Y88.452 I-0.329 J0.838
G1 X84.261
G3 X83.941 Y88.132 I0 J-0.319
G1 Y72.868
G3 X84.261 Y72.548 I0.319 J0
G1 X90.025
G3 X90.345 Y72.868 I0 J0.319
G1 Y88.132
G3 X90.025 Y88.452 I-0.319 J0
G1 X88.616
G2 X86.818 Y89.65 I0 J1.947
G3 X85.021 Y90.848 I-1.797 J-0.749
G1 X81.864
G3 X81.545 Y90.529 I0 J-0.319
G1 Y70.471
G3 X81.864 Y70.152 I0.319 J0
G1 X92.422
G3 X92.741 Y70.471 I0 J0.319
G1 Y90.529
G3 X92.422 Y90.848 I-0.319 J0
G1 X85.021
G2 X83.22 Y92.049 I0 J1.951
G3 X81.419 Y93.25 I-1.801 J-0.751
G1 X79.143
Y67.75
X95.143
Y93.25
X81.419
G3 X80.293 Y90.951 Z-10.817 I0 J-1.425 F333.3
G1 X85.397 Y84.376 Z-11.647
G3 X87.948 Y85.25 Z-12 I1.126 J0.874
G1 Y85.736 F400
G3 X87.629 Y86.055 I-0.319 J0
G1 X86.657
G3 X86.338 Y85.736 I0 J-0.319
G1 Y75.264
G3 X86.657 Y74.945 I0.319 J0
G1 X87.629
G3 X87.948 Y75.264 I0 J0.319
G1 Y85.25
G2 X88.945 Y86.713 I1.571 J0
G3 X88.616 Y88.452 I-0.329 J0.838
G1 X84.261
G3 X83.941 Y88.132 I0 J-0.319
G1 Y72.868
G3 X84.261 Y72.548 I0.319 J0
G1 X90.025
G3 X90.345 Y72.868 I0 J0.319
G1 Y88.132
G3 X90.025 Y88.452 I-0.319 J0
G1 X88.616
G2 X86.818 Y89.65 I0 J1.947
G3 X85.021 Y90.848 I-1.797 J-0.749
G1 X81.864
G3 X81.545 Y90.529 I0 J-0.319
G1 Y70.471
G3 X81.864 Y70.152 I0.319 J0
G1 X92.422
G3 X92.741 Y70.471 I0 J0.319
G1 Y90.529
G3 X92.422 Y90.848 I-0.319 J0
G1 X85.021
G2 X83.22 Y92.049 I0 J1.951
G3 X81.419 Y93.25 I-1.801 J-0.751
G1 X79.143
Y67.75
X95.143
Y93.25
X81.419
G3 X80.293 Y90.951 Z-12.317 I0 J-1.425 F333.3
G1 X85.397 Y84.376 Z-13.147
G3 X87.948 Y85.25 Z-13.5 I1.126 J0.874
G1 Y85.736 F400
G3 X87.629 Y86.055 I-0.319 J0
G1 X86.657
G3 X86.338 Y85.736 I0 J-0.319
G1 Y75.264
G3 X86.657 Y74.945 I0.319 J0
G1 X87.629
G3 X87.948 Y75.264 I0 J0.319
G1 Y85.25
G2 X88.945 Y86.713 I1.571 J0
G3 X88.616 Y88.452 I-0.329 J0.838
G1 X84.261
G3 X83.941 Y88.132 I0 J-0.319
G1 Y72.868
G3 X84.261 Y72.548 I0.319 J0
G1 X90.025
G3 X90.345 Y72.868 I0 J0.319
G1 Y88.132
G3 X90.025 Y88.452 I-0.319 J0
G1 X88.616
G2 X86.818 Y89.65 I0 J1.947
G3 X85.021 Y90.848 I-1.797 J-0.749
G1 X81.864
G3 X81.545 Y90.529 I0 J-0.319
G1 Y70.471
G3 X81.864 Y70.152 I0.319 J0
G1 X92.422
G3 X92.741 Y70.471 I0 J0.319
G1 Y90.529
G3 X92.422 Y90.848 I-0.319 J0
G1 X85.021
G2 X83.22 Y92.049 I0 J1.951
G3 X81.419 Y93.25 I-1.801 J-0.751
G1 X79.143
Y67.75
X95.143
Y93.25
X81.419
G3 X80.293 Y90.951 Z-13.817 I0 J-1.425 F333.3
G1 X85.397 Y84.376 Z-14.647
G3 X87.948 Y85.25 Z-15 I1.126 J0.874
G1 Y85.736 F400
G3 X87.629 Y86.055 I-0.319 J0
G1 X86.657
G3 X86.338 Y85.736 I0 J-0.319
G1 Y75.264
G3 X86.657 Y74.945 I0.319 J0
G1 X87.629
G3 X87.948 Y75.264 I0 J0.319
G1 Y85.25
G2 X88.945 Y86.713 I1.571 J0
G3 X88.616 Y88.452 I-0.329 J0.838
G1 X84.261
G3 X83.941 Y88.132 I0 J-0.319
G1 Y72.868
G3 X84.261 Y72.548 I0.319 J0
G1 X90.025
G3 X90.345 Y72.868 I0 J0.319
G1 Y88.132
G3 X90.025 Y88.452 I-0.319 J0
G1 X88.616
G2 X86.818 Y89.65 I0 J1.947
G3 X85.021 Y90.848 I-1.797 J-0.749
G1 X81.864
G3 X81.545 Y90.529 I0 J-0.319
G1 Y70.471
G3 X81.864 Y70.152 I0.319 J0
G1 X92.422
G3 X92.741 Y70.471 I0 J0.319
G1 Y90.529
G3 X92.422 Y90.848 I-0.319 J0
G1 X85.021
G2 X83.22 Y92.049 I0 J1.951
G3 X81.419 Y93.25 I-1.801 J-0.751
G1 X79.143
Y67.75
X95.143
Y93.25
X81.419
G3 X80.293 Y90.951 Z-15.317 I0 J-1.425 F333.3
G1 X85.397 Y84.376 Z-16.147
G3 X87.948 Y85.25 Z-16.5 I1.126 J0.874
G1 Y85.736 F400
G3 X87.629 Y86.055 I-0.319 J0
G1 X86.657
G3 X86.338 Y85.736 I0 J-0.319
G1 Y75.264
G3 X86.657 Y74.945 I0.319 J0
G1 X87.629
G3 X87.948 Y75.264 I0 J0.319
G1 Y85.25
G2 X88.945 Y86.713 I1.571 J0
G3 X88.616 Y88.452 I-0.329 J0.838
G1 X84.261
G3 X83.941 Y88.132 I0 J-0.319
G1 Y72.868
G3 X84.261 Y72.548 I0.319 J0
G1 X90.025
G3 X90.345 Y72.868 I0 J0.319
G1 Y88.132
G3 X90.025 Y88.452 I-0.319 J0
G1 X88.616
G2 X86.818 Y89.65 I0 J1.947
G3 X85.021 Y90.848 I-1.797 J-0.749
G1 X81.864
G3 X81.545 Y90.529 I0 J-0.319
G1 Y70.471
G3 X81.864 Y70.152 I0.319 J0
G1 X92.422
G3 X92.741 Y70.471 I0 J0.319
G1 Y90.529
G3 X92.422 Y90.848 I-0.319 J0
G1 X85.021
G2 X83.22 Y92.049 I0 J1.951
G3 X81.419 Y93.25 I-1.801 J-0.751
G1 X79.143
Y67.75
X95.143
Y93.25
X81.419
G3 X80.293 Y90.951 Z-16.817 I0 J-1.425 F333.3
G1 X85.397 Y84.376 Z-17.647
G3 X87.948 Y85.25 Z-18 I1.126 J0.874
G1 Y85.736 F400
G3 X87.629 Y86.055 I-0.319 J0
G1 X86.657
G3 X86.338 Y85.736 I0 J-0.319
G1 Y75.264
G3 X86.657 Y74.945 I0.319 J0
G1 X87.629
G3 X87.948 Y75.264 I0 J0.319
G1 Y85.25
G2 X88.945 Y86.713 I1.571 J0
G3 X88.616 Y88.452 I-0.329 J0.838
G1 X84.261
G3 X83.941 Y88.132 I0 J-0.319
G1 Y72.868
G3 X84.261 Y72.548 I0.319 J0
G1 X90.025
G3 X90.345 Y72.868 I0 J0.319
G1 Y88.132
G3 X90.025 Y88.452 I-0.319 J0
G1 X88.616
G2 X86.818 Y89.65 I0 J1.947
G3 X85.021 Y90.848 I-1.797 J-0.749
G1 X81.864
G3 X81.545 Y90.529 I0 J-0.319
G1 Y70.471
G3 X81.864 Y70.152 I0.319 J0
G1 X92.422
G3 X92.741 Y70.471 I0 J0.319
G1 Y90.529
G3 X92.422 Y90.848 I-0.319 J0
G1 X85.021
G2 X83.22 Y92.049 I0 J1.951
G3 X81.419 Y93.25 I-1.801 J-0.751
G1 X79.143
Y67.75
X95.143
Y93.25
X81.419
G0 Z4
X60.663 Y75.168
Z2
G1 Z1.8 F400
G3 X62.194 Y77.572 Z1.011 I0.766 J1.202 F333.3
X60.663 Y75.168 Z0.221 I-0.766 J-1.202
X62.194 Y77.572 Z-0.568 I0.766 J1.202
X60.663 Y75.168 Z-1.358 I-0.766 J-1.202
X61.429 Y74.945 Z-1.5 I0.766 J1.202
G1 X61.914 F400
G3 X62.234 Y75.264 I0 J0.319
G1 Y85.736
G3 X61.914 Y86.055 I-0.319 J0
G1 X60.943
G3 X60.624 Y85.736 I0 J-0.319
G1 Y75.264
G3 X60.943 Y74.945 I0.319 J0
G1 X61.429
G2 X62.891 Y73.948 I0 J-1.571
G3 X64.63 Y74.277 I0.838 J0.329
G1 Y88.132
G3 X64.311 Y88.452 I-0.319 J0
G1 X58.546
G3 X58.227 Y88.132 I0 J-0.319
G1 Y72.868
G3 X58.546 Y72.548 I0.319 J0
G1 X64.311
G3 X64.63 Y72.868 I0 J0.319
G1 Y74.277
G2 X65.829 Y76.074 I1.947 J0
G3 X67.027 Y77.872 I-0.749 J1.797
G1 Y90.529
G3 X66.708 Y90.848 I-0.319 J0
G1 X56.15
G3 X55.83 Y90.529 I0 J-0.319
G1 Y70.471
G3 X56.15 Y70.152 I0.319 J0
G1 X66.708
G3 X67.027 Y70.471 I0 J0.319
G1 Y77.872
G2 X68.228 Y79.673 I1.951 J0
G3 X69.429 Y81.474 I-0.751 J1.801
G1 Y93.25
X53.429
Y67.75
X69.429
Y81.474
G3 X67.13 Y82.6 Z-1.817 I-1.425 J0 F333.3
G1 X60.555 Y77.496 Z-2.647
G3 X61.429 Y74.945 Z-3 I0.874 J-1.126
G1 X61.914 F400
G3 X62.234 Y75.264 I0 J0.319
G1 Y85.736
G3 X61.914 Y86.055 I-0.319 J0
G1 X60.943
G3 X60.624 Y85.736 I0 J-0.319
G1 Y75.264
G3 X60.943 Y74.945 I0.319 J0
G1 X61.429
G2 X62.891 Y73.948 I0 J-1.571
G3 X64.63 Y74.277 I0.838 J0.329
G1 Y88.132
G3 X64.311 Y88.452 I-0.319 J0
G1 X58.546
G3 X58.227 Y88.132 I0 J-0.319
G1 Y72.868
G3 X58.546 Y72.548 I0.319 J0
G1 X64.311
G3 X64.63 Y72.868 I0 J0.319
G1 Y74.277
G2 X65.829 Y76.074 I1.947 J0
G3 X67.027 Y77.872 I-0.749 J1.797
G1 Y90.529
G3 X66.708 Y90.848 I-0.319 J0
G1 X56.15
G3 X55.83 Y90.529 I0 J-0.319
G1 Y70.471
G3 X56.15 Y70.152 I0.319 J0
G1 X66.708
G3 X67.027 Y70.471 I0 J0.319
G1 Y77.872
G2 X68.228 Y79.673 I1.951 J0
G3 X69.429 Y81.474 I-0.751 J1.801
G1 Y93.25
X53.429
Y67.75
X69.429
Y81.474
G3 X67.13 Y82.6 Z-3.317 I-1.425 J0 F333.3
G1 X60.555 Y77.496 Z-4.147
G3 X61.429 Y74.945 Z-4.5 I0.874 J-1.126
G1 X61.914 F400
G3 X62.234 Y75.264 I0 J0.319
G1 Y85.736
G3 X61.914 Y86.055 I-0.319 J0
G1 X60.943
G3 X60.624 Y85.736 I0 J-0.319
G1 Y75.264
G3 X60.943 Y74.945 I0.319 J0
G1 X61.429
G2 X62.891 Y73.948 I0 J-1.571
G3 X64.63 Y74.277 I0.838 J0.329
G1 Y88.132
G3 X64.311 Y88.452 I-0.319 J0
G1 X58.546
G3 X58.227 Y88.132 I0 J-0.319
G1 Y72.868
G3 X58.546 Y72.548 I0.319 J0
G1 X64.311
G3 X64.63 Y72.868 I0 J0.319
G1 Y74.277
G2 X65.829 Y76.074 I1.947 J0
G3 X67.027 Y77.872 I-0.749 J1.797
G1 Y90.529
G3 X66.708 Y90.848 I-0.319 J0
G1 X56.15
G3 X55.83 Y90.529 I0 J-0.319
G1 Y70.471
G3 X56.15 Y70.152 I0.319 J0
G1 X66.708
G3 X67.027 Y70.471 I0 J0.319
G1 Y77.872
G2 X68.228 Y79.673 I1.951 J0
G3 X69.429 Y81.474 I-0.751 J1.801
G1 Y93.25
X53.429
Y67.75
X69.429
Y81.474
G3 X67.13 Y82.6 Z-4.817 I-1.425 J0 F333.3
G1 X60.555 Y77.496 Z-5.647
G3 X61.429 Y74.945 Z-6 I0.874 J-1.126
G1 X61.914 F400
G3 X62.234 Y75.264 I0 J0.319
G1 Y85.736
G3 X61.914 Y86.055 I-0.319 J0
G1 X60.943
G3 X60.624 Y85.736 I0 J-0.319
G1 Y75.264
G3 X60.943 Y74.945 I0.319 J0
G1 X61.429
G2 X62.891 Y73.948 I0 J-1.571
G3 X64.63 Y74.277 I0.838 J0.329
G1 Y88.132
G3 X64.311 Y88.452 I-0.319 J0
G1 X58.546
G3 X58.227 Y88.132 I0 J-0.319
G1 Y72.868
G3 X58.546 Y72.548 I0.319 J0
G1 X64.311
G3 X64.63 Y72.868 I0 J0.319
G1 Y74.277
G2 X65.829 Y76.074 I1.947 J0
G3 X67.027 Y77.872 I-0.749 J1.797
G1 Y90.529
G3 X66.708 Y90.848 I-0.319 J0
G1 X56.15
G3 X55.83 Y90.529 I0 J-0.319
G1 Y70.471
G3 X56.15 Y70.152 I0.319 J0
G1 X66.708
G3 X67.027 Y70.471 I0 J0.319
G1 Y77.872
G2 X68.228 Y79.673 I1.951 J0
G3 X69.429 Y81.474 I-0.751 J1.801
G1 Y93.25
X53.429
Y67.75
X69.429
Y81.474
G3 X67.13 Y82.6 Z-6.317 I-1.425 J0 F333.3
G1 X60.555 Y77.496 Z-7.147
G3 X61.429 Y74.945 Z-7.5 I0.874 J-1.126
G1 X61.914 F400
G3 X62.234 Y75.264 I0 J0.319
G1 Y85.736
G3 X61.914 Y86.055 I-0.319 J0
G1 X60.943
G3 X60.624 Y85.736 I0 J-0.319
G1 Y75.264
G3 X60.943 Y74.945 I0.319 J0
G1 X61.429
G2 X62.891 Y73.948 I0 J-1.571
G3 X64.63 Y74.277 I0.838 J0.329
G1 Y88.132
G3 X64.311 Y88.452 I-0.319 J0
G1 X58.546
G3 X58.227 Y88.132 I0 J-0.319
G1 Y72.868
G3 X58.546 Y72.548 I0.319 J0
G1 X64.311
G3 X64.63 Y72.868 I0 J0.319
G1 Y74.277
G2 X65.829 Y76.074 I1.947 J0
G3 X67.027 Y77.872 I-0.749 J1.797
G1 Y90.529
G3 X66.708 Y90.848 I-0.319 J0
G1 X56.15
G3 X55.83 Y90.529 I0 J-0.319
G1 Y70.471
G3 X56.15 Y70.152 I0.319 J0
G1 X66.708
G3 X67.027 Y70.471 I0 J0.319
G1 Y77.872
G2 X68.228 Y79.673 I1.951 J0
G3 X69.429 Y81.474 I-0.751 J1.801
G1 Y93.25
X53.429
Y67.75
X69.429
Y81.474
G3 X67.13 Y82.6 Z-7.817 I-1.425 J0 F333.3
G1 X60.555 Y77.496 Z-8.647
G3 X61.429 Y74.945 Z-9 I0.874 J-1.126
G1 X61.914 F400
G3 X62.234 Y75.264 I0 J0.319
G1 Y85.736
G3 X61.914 Y86.055 I-0.319 J0
G1 X60.943
G3 X60.624 Y85.736 I0 J-0.319
G1 Y75.264
G3 X60.943 Y74.945 I0.319 J0
G1 X61.429
G2 X62.891 Y73.948 I0 J-1.571
G3 X64.63 Y74.277 I0.838 J0.329
G1 Y88.132
G3 X64.311 Y88.452 I-0.319 J0
G1 X58.546
G3 X58.227 Y88.132 I0 J-0.319
G1 Y72.868
G3 X58.546 Y72.548 I0.319 J0
G1 X64.311
G3 X64.63 Y72.868 I0 J0.319
G1 Y74.277
G2 X65.829 Y76.074 I1.947 J0
G3 X67.027 Y77.872 I-0.749 J1.797
G1 Y90.529
G3 X66.708 Y90.848 I-0.319 J0
G1 X56.15
G3 X55.83 Y90.529 I0 J-0.319
G1 Y70.471
G3 X56.15 Y70.152 I0.319 J0
G1 X66.708
G3 X67.027 Y70.471 I0 J0.319
G1 Y77.872
G2 X68.228 Y79.673 I1.951 J0
G3 X69.429 Y81.474 I-0.751 J1.801
G1 Y93.25
X53.429
Y67.75
X69.429
Y81.474
G3 X67.13 Y82.6 Z-9.317 I-1.425 J0 F333.3
G1 X60.555 Y77.496 Z-10.147
G3 X61.429 Y74.945 Z-10.5 I0.874 J-1.126
G1 X61.914 F400
G3 X62.234 Y75.264 I0 J0.319
G1 Y85.736
G3 X61.914 Y86.055 I-0.319 J0
G1 X60.943
G3 X60.624 Y85.736 I0 J-0.319
G1 Y75.264
G3 X60.943 Y74.945 I0.319 J0
G1 X61.429
G2 X62.891 Y73.948 I0 J-1.571
G3 X64.63 Y74.277 I0.838 J0.329
G1 Y88.132
G3 X64.311 Y88.452 I-0.319 J0
G1 X58.546
G3 X58.227 Y88.132 I0 J-0.319
G1 Y72.868
G3 X58.546 Y72.548 I0.319 J0
G1 X64.311
G3 X64.63 Y72.868 I0 J0.319
G1 Y74.277
G2 X65.829 Y76.074 I1.947 J0
G3 X67.027 Y77.872 I-0.749 J1.797
G1 Y90.529
G3 X66.708 Y90.848 I-0.319 J0
G1 X56.15
G3 X55.83 Y90.529 I0 J-0.319
G1 Y70.471
G3 X56.15 Y70.152 I0.319 J0
G1 X66.708
G3 X67.027 Y70.471 I0 J0.319
G1 Y77.872
G2 X68.228 Y79.673 I1.951 J0
G3 X69.429 Y81.474 I-0.751 J1.801
G1 Y93.25
X53.429
Y67.75
X69.429
Y81.474
G3 X67.13 Y82.6 Z-10.817 I-1.425 J0 F333.3
G1 X60.555 Y77.496 Z-11.647
G3 X61.429 Y74.945 Z-12 I0.874 J-1.126
G1 X61.914 F400
G3 X62.234 Y75.264 I0 J0.319
G1 Y85.736
G3 X61.914 Y86.055 I-0.319 J0
G1 X60.943
G3 X60.624 Y85.736 I0 J-0.319
G1 Y75.264
G3 X60.943 Y74.945 I0.319 J0
G1 X61.429
G2 X62.891 Y73.948 I0 J-1.571
G3 X64.63 Y74.277 I0.838 J0.329
G1 Y88.132
G3 X64.311 Y88.452 I-0.319 J0
G1 X58.546
G3 X58.227 Y88.132 I0 J-0.319
G1 Y72.868
G3 X58.546 Y72.548 I0.319 J0
G1 X64.311
G3 X64.63 Y72.868 I0 J0.319
G1 Y74.277
G2 X65.829 Y76.074 I1.947 J0
G3 X67.027 Y77.872 I-0.749 J1.797
G1 Y90.529
G3 X66.708 Y90.848 I-0.319 J0
G1 X56.15
G3 X55.83 Y90.529 I0 J-0.319
G1 Y70.471
G3 X56.15 Y70.152 I0.319 J0
G1 X66.708
G3 X67.027 Y70.471 I0 J0.319
G1 Y77.872
G2 X68.228 Y79.673 I1.951 J0
G3 X69.429 Y81.474 I-0.751 J1.801
G1 Y93.25
X53.429
Y67.75
X69.429
Y81.474
G3 X67.13 Y82.6 Z-12.317 I-1.425 J0 F333.3
G1 X60.555 Y77.496 Z-13.147
G3 X61.429 Y74.945 Z-13.5 I0.874 J-1.126
G1 X61.914 F400
G3 X62.234 Y75.264 I0 J0.319
G1 Y85.736
G3 X61.914 Y86.055 I-0.319 J0
G1 X60.943
G3 X60.624 Y85.736 I0 J-0.319
G1 Y75.264
G3 X60.943 Y74.945 I0.319 J0
G1 X61.429
G2 X62.891 Y73.948 I0 J-1.571
G3 X64.63 Y74.277 I0.838 J0.329
G1 Y88.132
G3 X64.311 Y88.452 I-0.319 J0
G1 X58.546
G3 X58.227 Y88.132 I0 J-0.319
G1 Y72.868
G3 X58.546 Y72.548 I0.319 J0
G1 X64.311
G3 X64.63 Y72.868 I0 J0.319
G1 Y74.277
G2 X65.829 Y76.074 I1.947 J0
G3 X67.027 Y77.872 I-0.749 J1.797
G1 Y90.529
G3 X66.708 Y90.848 I-0.319 J0
G1 X56.15
G3 X55.83 Y90.529 I0 J-0.319
G1 Y70.471
G3 X56.15 Y70.152 I0.319 J0
G1 X66.708
G3 X67.027 Y70.471 I0 J0.319
G1 Y77.872
G2 X68.228 Y79.673 I1.951 J0
G3 X69.429 Y81.474 I-0.751 J1.801
G1 Y93.25
X53.429
Y67.75
X69.429
Y81.474
G3 X67.13 Y82.6 Z-13.817 I-1.425 J0 F333.3
G1 X60.555 Y77.496 Z-14.647
G3 X61.429 Y74.945 Z-15 I0.874 J-1.126
G1 X61.914 F400
G3 X62.234 Y75.264 I0 J0.319
G1 Y85.736
G3 X61.914 Y86.055 I-0.319 J0
G1 X60.943
G3 X60.624 Y85.736 I0 J-0.319
G1 Y75.264
G3 X60.943 Y74.945 I0.319 J0
G1 X61.429
G2 X62.891 Y73.948 I0 J-1.571
G3 X64.63 Y74.277 I0.838 J0.329
G1 Y88.132
G3 X64.311 Y88.452 I-0.319 J0
G1 X58.546
G3 X58.227 Y88.132 I0 J-0.319
G1 Y72.868
G3 X58.546 Y72.548 I0.319 J0
G1 X64.311
G3 X64.63 Y72.868 I0 J0.319
G1 Y74.277
G2 X65.829 Y76.074 I1.947 J0
G3 X67.027 Y77.872 I-0.749 J1.797
G1 Y90.529
G3 X66.708 Y90.848 I-0.319 J0
G1 X56.15
G3 X55.83 Y90.529 I0 J-0.319
G1 Y70.471
G3 X56.15 Y70.152 I0.319 J0
G1 X66.708
G3 X67.027 Y70.471 I0 J0.319
G1 Y77.872
G2 X68.228 Y79.673 I1.951 J0
G3 X69.429 Y81.474 I-0.751 J1.801
G1 Y93.25
X53.429
Y67.75
X69.429
Y81.474
G3 X67.13 Y82.6 Z-15.317 I-1.425 J0 F333.3
G1 X60.555 Y77.496 Z-16.147
G3 X61.429 Y74.945 Z-16.5 I0.874 J-1.126
G1 X61.914 F400
G3 X62.234 Y75.264 I0 J0.319
G1 Y85.736
G3 X61.914 Y86.055 I-0.319 J0
G1 X60.943
G3 X60.624 Y85.736 I0 J-0.319
G1 Y75.264
G3 X60.943 Y74.945 I0.319 J0
G1 X61.429
G2 X62.891 Y73.948 I0 J-1.571
G3 X64.63 Y74.277 I0.838 J0.329
G1 Y88.132
G3 X64.311 Y88.452 I-0.319 J0
G1 X58.546
G3 X58.227 Y88.132 I0 J-0.319
G1 Y72.868
G3 X58.546 Y72.548 I0.319 J0
G1 X64.311
G3 X64.63 Y72.868 I0 J0.319
G1 Y74.277
G2 X65.829 Y76.074 I1.947 J0
G3 X67.027 Y77.872 I-0.749 J1.797
G1 Y90.529
G3 X66.708 Y90.848 I-0.319 J0
G1 X56.15
G3 X55.83 Y90.529 I0 J-0.319
G1 Y70.471
G3 X56.15 Y70.152 I0.319 J0
G1 X66.708
G3 X67.027 Y70.471 I0 J0.319
G1 Y77.872
G2 X68.228 Y79.673 I1.951 J0
G3 X69.429 Y81.474 I-0.751 J1.801
G1 Y93.25
X53.429
Y67.75
X69.429
Y81.474
G3 X67.13 Y82.6 Z-16.817 I-1.425 J0 F333.3
G1 X60.555 Y77.496 Z-17.647
G3 X61.429 Y74.945 Z-18 I0.874 J-1.126
G1 X61.914 F400
G3 X62.234 Y75.264 I0 J0.319
G1 Y85.736
G3 X61.914 Y86.055 I-0.319 J0
G1 X60.943
G3 X60.624 Y85.736 I0 J-0.319
G1 Y75.264
G3 X60.943 Y74.945 I0.319 J0
G1 X61.429
G2 X62.891 Y73.948 I0 J-1.571
G3 X64.63 Y74.277 I0.838 J0.329
G1 Y88.132
G3 X64.311 Y88.452 I-0.319 J0
G1 X58.546
G3 X58.227 Y88.132 I0 J-0.319
G1 Y72.868
G3 X58.546 Y72.548 I0.319 J0
G1 X64.311
G3 X64.63 Y72.868 I0 J0.319
G1 Y74.277
G2 X65.829 Y76.074 I1.947 J0
G3 X67.027 Y77.872 I-0.749 J1.797
G1 Y90.529
G3 X66.708 Y90.848 I-0.319 J0
G1 X56.15
G3 X55.83 Y90.529 I0 J-0.319
G1 Y70.471
G3 X56.15 Y70.152 I0.319 J0
G1 X66.708
G3 X67.027 Y70.471 I0 J0.319
G1 Y77.872
G2 X68.228 Y79.673 I1.951 J0
G3 X69.429 Y81.474 I-0.751 J1.801
G1 Y93.25
X53.429
Y67.75
X69.429
Y81.474
G0 Z4
X62.011 Y52.284
Z2
G1 Z1.8 F400
G3 X59.607 Y53.816 Z1.011 I-1.202 J0.766 F333.3
X62.011 Y52.284 Z0.221 I1.202 J-0.766
X59.607 Y53.816 Z-0.568 I-1.202 J0.766
X62.011 Y52.284 Z-1.358 I1.202 J-0.766
X62.234 Y53.05 Z-1.5 I-1.202 J0.766
G1 Y53.536 F400
G3 X61.914 Y53.855 I-0.319 J0
G1 X60.943
G3 X60.624 Y53.536 I0 J-0.319
G1 Y43.064
G3 X60.943 Y42.745 I0.319 J0
G1 X61.914
G3 X62.234 Y43.064 I0 J0.319
G1 Y53.05
G2 X63.231 Y54.513 I1.571 J0
G3 X62.902 Y56.252 I-0.329 J0.838
G1 X58.546
G3 X58.227 Y55.932 I0 J-0.319
G1 Y40.668
G3 X58.546 Y40.348 I0.319 J0
G1 X64.311
G3 X64.63 Y40.668 I0 J0.319
G1 Y55.932
G3 X64.311 Y56.252 I-0.319 J0
G1 X62.902
G2 X61.104 Y57.45 I0 J1.947
G3 X59.307 Y58.648 I-1.797 J-0.749
G1 X56.15
G3 X55.83 Y58.329 I0 J-0.319
G1 Y38.271
G3 X56.15 Y37.952 I0.319 J0
G1 X66.708
G3 X67.027 Y38.271 I0 J0.319
G1 Y58.329
G3 X66.708 Y58.648 I-0.319 J0
G1 X59.307
G2 X57.505 Y59.849 I0 J1.951
G3 X55.704 Y61.05 I-1.801 J-0.751
G1 X53.429
Y35.55
X69.429
Y61.05
X55.704
G3 X54.579 Y58.751 Z-1.817 I0 J-1.425 F333.3
G1 X59.683 Y52.176 Z-2.647
G3 X62.234 Y53.05 Z-3 I1.126 J0.874
G1 Y53.536 F400
G3 X61.914 Y53.855 I-0.319 J0
G1 X60.943
G3 X60.624 Y53.536 I0 J-0.319
G1 Y43.064
G3 X60.943 Y42.745 I0.319 J0
G1 X61.914
G3 X62.234 Y43.064 I0 J0.319
G1 Y53.05
G2 X63.231 Y54.513 I1.571 J0
G3 X62.902 Y56.252 I-0.329 J0.838
G1 X58.546
G3 X58.227 Y55.932 I0 J-0.319
G1 Y40.668
G3 X58.546 Y40.348 I0.319 J0
G1 X64.311
G3 X64.63 Y40.668 I0 J0.319
G1 Y55.932
G3 X64.311 Y56.252 I-0.319 J0
G1 X62.902
G2 X61.104 Y57.45 I0 J1.947
G3 X59.307 Y58.648 I-1.797 J-0.749
G1 X56.15
G3 X55.83 Y58.329 I0 J-0.319
G1 Y38.271
G3 X56.15 Y37.952 I0.319 J0
G1 X66.708
G3 X67.027 Y38.271 I0 J0.319
G1 Y58.329
G3 X66.708 Y58.648 I-0.319 J0
G1 X59.307
G2 X57.505 Y59.849 I0 J1.951
G3 X55.704 Y61.05 I-1.801 J-0.751
G1 X53.429
Y35.55
X69.429
Y61.05
X55.704
G3 X54.579 Y58.751 Z-3.317 I0 J-1.425 F333.3
G1 X59.683 Y52.176 Z-4.147
G3 X62.234 Y53.05 Z-4.5 I1.126 J0.874
G1 Y53.536 F400
G3 X61.914 Y53.855 I-0.319 J0
G1 X60.943
G3 X60.624 Y53.536 I0 J-0.319
G1 Y43.064
G3 X60.943 Y42.745 I0.319 J0
G1 X61.914
G3 X62.234 Y43.064 I0 J0.319
G1 Y53.05
G2 X63.231 Y54.513 I1.571 J0
G3 X62.902 Y56.252 I-0.329 J0.838
G1 X58.546
G3 X58.227 Y55.932 I0 J-0.319
G1 Y40.668
G3 X58.546 Y40.348 I0.319 J0
G1 X64.311
G3 X64.63 Y40.668 I0 J0.319
G1 Y55.932
G3 X64.311 Y56.252 I-0.319 J0
G1 X62.902
G2 X61.104 Y57.45 I0 J1.947
G3 X59.307 Y58.648 I-1.797 J-0.749
G1 X56.15
G3 X55.83 Y58.329 I0 J-0.319
G1 Y38.271
G3 X56.15 Y37.952 I0.319 J0
G1 X66.708
G3 X67.027 Y38.271 I0 J0.319
G1 Y58.329
G3 X66.708 Y58.648 I-0.319 J0
G1 X59.307
G2 X57.505 Y59.849 I0 J1.951
G3 X55.704 Y61.05 I-1.801 J-0.751
G1 X53.429
Y35.55
X69.429
Y61.05
X55.704
G3 X54.579 Y58.751 Z-4.817 I0 J-1.425 F333.3
G1 X59.683 Y52.176 Z-5.647
G3 X62.234 Y53.05 Z-6 I1.126 J0.874
G1 Y53.536 F400
G3 X61.914 Y53.855 I-0.319 J0
G1 X60.943
G3 X60.624 Y53.536 I0 J-0.319
G1 Y43.064
G3 X60.943 Y42.745 I0.319 J0
G1 X61.914
G3 X62.234 Y43.064 I0 J0.319
G1 Y53.05
G2 X63.231 Y54.513 I1.571 J0
G3 X62.902 Y56.252 I-0.329 J0.838
G1 X58.546
G3 X58.227 Y55.932 I0 J-0.319
G1 Y40.668
G3 X58.546 Y40.348 I0.319 J0
G1 X64.311
G3 X64.63 Y40.668 I0 J0.319
G1 Y55.932
G3 X64.311 Y56.252 I-0.319 J0
G1 X62.902
G2 X61.104 Y57.45 I0 J1.947
G3 X59.307 Y58.648 I-1.797 J-0.749
G1 X56.15
G3 X55.83 Y58.329 I0 J-0.319
G1 Y38.271
G3 X56.15 Y37.952 I0.319 J0
G1 X66.708
G3 X67.027 Y38.271 I0 J0.319
G1 Y58.329
G3 X66.708 Y58.648 I-0.319 J0
G1 X59.307
G2 X57.505 Y59.849 I0 J1.951
G3 X55.704 Y61.05 I-1.801 J-0.751
G1 X53.429
Y35.55
X69.429
Y61.05
X55.704
G3 X54.579 Y58.751 Z-6.317 I0 J-1.425 F333.3
G1 X59.683 Y52.176 Z-7.147
G3 X62.234 Y53.05 Z-7.5 I1.126 J0.874
G1 Y53.536 F400
G3 X61.914 Y53.855 I-0.319 J0
G1 X60.943
G3 X60.624 Y53.536 I0 J-0.319
G1 Y43.064
G3 X60.943 Y42.745 I0.319 J0
G1 X61.914
G3 X62.234 Y43.064 I0 J0.319
G1 Y53.05
G2 X63.231 Y54.513 I1.571 J0
G3 X62.902 Y56.252 I-0.329 J0.838
G1 X58.546
G3 X58.227 Y55.932 I0 J-0.319
G1 Y40.668
G3 X58.546 Y40.348 I0.319 J0
G1 X64.311
G3 X64.63 Y40.668 I0 J0.319
G1 Y55.932
G3 X64.311 Y56.252 I-0.319 J0
G1 X62.902
G2 X61.104 Y57.45 I0 J1.947
G3 X59.307 Y58.648 I-1.797 J-0.749
G1 X56.15
G3 X55.83 Y58.329 I0 J-0.319
G1 Y38.271
G3 X56.15 Y37.952 I0.319 J0
G1 X66.708
G3 X67.027 Y38.271 I0 J0.319
G1 Y58.329
G3 X66.708 Y58.648 I-0.319 J0
G1 X59.307
G2 X57.505 Y59.849 I0 J1.951
G3 X55.704 Y61.05 I-1.801 J-0.751
G1 X53.429
Y35.55
X69.429
Y61.05
X55.704
G3 X54.579 Y58.751 Z-7.817 I0 J-1.425 F333.3
G1 X59.683 Y52.176 Z-8.647
G3 X62.234 Y53.05 Z-9 I1.126 J0.874
G1 Y53.536 F400
G3 X61.914 Y53.855 I-0.319 J0
G1 X60.943
G3 X60.624 Y53.536 I0 J-0.319
G1 Y43.064
G3 X60.943 Y42.745 I0.319 J0
G1 X61.914
G3 X62.234 Y43.064 I0 J0.319
G1 Y53.05
G2 X63.231 Y54.513 I1.571 J0
G3 X62.902 Y56.252 I-0.329 J0.838
G1 X58.546
G3 X58.227 Y55.932 I0 J-0.319
G1 Y40.668
G3 X58.546 Y40.348 I0.319 J0
G1 X64.311
G3 X64.63 Y40.668 I0 J0.319
G1 Y55.932
G3 X64.311 Y56.252 I-0.319 J0
G1 X62.902
G2 X61.104 Y57.45 I0 J1.947
G3 X59.307 Y58.648 I-1.797 J-0.749
G1 X56.15
G3 X55.83 Y58.329 I0 J-0.319
G1 Y38.271
G3 X56.15 Y37.952 I0.319 J0
G1 X66.708
G3 X67.027 Y38.271 I0 J0.319
G1 Y58.329
G3 X66.708 Y58.648 I-0.319 J0
G1 X59.307
G2 X57.505 Y59.849 I0 J1.951
G3 X55.704 Y61.05 I-1.801 J-0.751
G1 X53.429
Y35.55
X69.429
Y61.05
X55.704
G3 X54.579 Y58.751 Z-9.317 I0 J-1.425 F333.3
G1 X59.683 Y52.176 Z-10.147
G3 X62.234 Y53.05 Z-10.5 I1.126 J0.874
G1 Y53.536 F400
G3 X61.914 Y53.855 I-0.319 J0
G1 X60.943
G3 X60.624 Y53.536 I0 J-0.319
G1 Y43.064
G3 X60.943 Y42.745 I0.319 J0
G1 X61.914
G3 X62.234 Y43.064 I0 J0.319
G1 Y53.05
G2 X63.231 Y54.513 I1.571 J0
G3 X62.902 Y56.252 I-0.329 J0.838
G1 X58.546
G3 X58.227 Y55.932 I0 J-0.319
G1 Y40.668
G3 X58.546 Y40.348 I0.319 J0
G1 X64.311
G3 X64.63 Y40.668 I0 J0.319
G1 Y55.932
G3 X64.311 Y56.252 I-0.319 J0
G1 X62.902
G2 X61.104 Y57.45 I0 J1.947
G3 X59.307 Y58.648 I-1.797 J-0.749
G1 X56.15
G3 X55.83 Y58.329 I0 J-0.319
G1 Y38.271
G3 X56.15 Y37.952 I0.319 J0
G1 X66.708
G3 X67.027 Y38.271 I0 J0.319
G1 Y58.329
G3 X66.708 Y58.648 I-0.319 J0
G1 X59.307
G2 X57.505 Y59.849 I0 J1.951
G3 X55.704 Y61.05 I-1.801 J-0.751
G1 X53.429
Y35.55
X69.429
Y61.05
X55.704
G3 X54.579 Y58.751 Z-10.817 I0 J-1.425 F333.3
G1 X59.683 Y52.176 Z-11.647
G3 X62.234 Y53.05 Z-12 I1.126 J0.874
G1 Y53.536 F400
G3 X61.914 Y53.855 I-0.319 J0
G1 X60.943
G3 X60.624 Y53.536 I0 J-0.319
G1 Y43.064
G3 X60.943 Y42.745 I0.319 J0
G1 X61.914
G3 X62.234 Y43.064 I0 J0.319
G1 Y53.05
G2 X63.231 Y54.513 I1.571 J0
G3 X62.902 Y56.252 I-0.329 J0.838
G1 X58.546
G3 X58.227 Y55.932 I0 J-0.319
G1 Y40.668
G3 X58.546 Y40.348 I0.319 J0
G1 X64.311
G3 X64.63 Y40.668 I0 J0.319
G1 Y55.932
G3 X64.311 Y56.252 I-0.319 J0
G1 X62.902
G2 X61.104 Y57.45 I0 J1.947
G3 X59.307 Y58.648 I-1.797 J-0.749
G1 X56.15
G3 X55.83 Y58.329 I0 J-0.319
G1 Y38.271
G3 X56.15 Y37.952 I0.319 J0
G1 X66.708
G3 X67.027 Y38.271 I0 J0.319
G1 Y58.329
G3 X66.708 Y58.648 I-0.319 J0
G1 X59.307
G2 X57.505 Y59.849 I0 J1.951
G3 X55.704 Y61.05 I-1.801 J-0.751
G1 X53.429
Y35.55
X69.429
Y61.05
X55.704
G3 X54.579 Y58.751 Z-12.317 I0 J-1.425 F333.3
G1 X59.683 Y52.176 Z-13.147
G3 X62.234 Y53.05 Z-13.5 I1.126 J0.874
G1 Y53.536 F400
G3 X61.914 Y53.855 I-0.319 J0
G1 X60.943
G3 X60.624 Y53.536 I0 J-0.319
G1 Y43.064
G3 X60.943 Y42.745 I0.319 J0
G1 X61.914
G3 X62.234 Y43.064 I0 J0.319
G1 Y53.05
G2 X63.231 Y54.513 I1.571 J0
G3 X62.902 Y56.252 I-0.329 J0.838
G1 X58.546
G3 X58.227 Y55.932 I0 J-0.319
G1 Y40.668
G3 X58.546 Y40.348 I0.319 J0
G1 X64.311
G3 X64.63 Y40.668 I0 J0.319
G1 Y55.932
G3 X64.311 Y56.252 I-0.319 J0
G1 X62.902
G2 X61.104 Y57.45 I0 J1.947
G3 X59.307 Y58.648 I-1.797 J-0.749
G1 X56.15
G3 X55.83 Y58.329 I0 J-0.319
G1 Y38.271
G3 X56.15 Y37.952 I0.319 J0
G1 X66.708
G3 X67.027 Y38.271 I0 J0.319
G1 Y58.329
G3 X66.708 Y58.648 I-0.319 J0
G1 X59.307
G2 X57.505 Y59.849 I0 J1.951
G3 X55.704 Y61.05 I-1.801 J-0.751
G1 X53.429
Y35.55
X69.429
Y61.05
X55.704
G3 X54.579 Y58.751 Z-13.817 I0 J-1.425 F333.3
G1 X59.683 Y52.176 Z-14.647
G3 X62.234 Y53.05 Z-15 I1.126 J0.874
G1 Y53.536 F400
G3 X61.914 Y53.855 I-0.319 J0
G1 X60.943
G3 X60.624 Y53.536 I0 J-0.319
G1 Y43.064
G3 X60.943 Y42.745 I0.319 J0
G1 X61.914
G3 X62.234 Y43.064 I0 J0.319
G1 Y53.05
G2 X63.231 Y54.513 I1.571 J0
G3 X62.902 Y56.252 I-0.329 J0.838
G1 X58.546
G3 X58.227 Y55.932 I0 J-0.319
G1 Y40.668
G3 X58.546 Y40.348 I0.319 J0
G1 X64.311
G3 X64.63 Y40.668 I0 J0.319
G1 Y55.932
G3 X64.311 Y56.252 I-0.319 J0
G1 X62.902
G2 X61.104 Y57.45 I0 J1.947
G3 X59.307 Y58.648 I-1.797 J-0.749
G1 X56.15
G3 X55.83 Y58.329 I0 J-0.319
G1 Y38.271
G3 X56.15 Y37.952 I0.319 J0
G1 X66.708
G3 X67.027 Y38.271 I0 J0.319
G1 Y58.329
G3 X66.708 Y58.648 I-0.319 J0
G1 X59.307
G2 X57.505 Y59.849 I0 J1.951
G3 X55.704 Y61.05 I-1.801 J-0.751
G1 X53.429
Y35.55
X69.429
Y61.05
X55.704
G3 X54.579 Y58.751 Z-15.317 I0 J-1.425 F333.3
G1 X59.683 Y52.176 Z-16.147
G3 X62.234 Y53.05 Z-16.5 I1.126 J0.874
G1 Y53.536 F400
G3 X61.914 Y53.855 I-0.319 J0
G1 X60.943
G3 X60.624 Y53.536 I0 J-0.319
G1 Y43.064
G3 X60.943 Y42.745 I0.319 J0
G1 X61.914
G3 X62.234 Y43.064 I0 J0.319
G1 Y53.05
G2 X63.231 Y54.513 I1.571 J0
G3 X62.902 Y56.252 I-0.329 J0.838
G1 X58.546
G3 X58.227 Y55.932 I0 J-0.319
G1 Y40.668
G3 X58.546 Y40.348 I0.319 J0
G1 X64.311
G3 X64.63 Y40.668 I0 J0.319
G1 Y55.932
G3 X64.311 Y56.252 I-0.319 J0
G1 X62.902
G2 X61.104 Y57.45 I0 J1.947
G3 X59.307 Y58.648 I-1.797 J-0.749
G1 X56.15
G3 X55.83 Y58.329 I0 J-0.319
G1 Y38.271
G3 X56.15 Y37.952 I0.319 J0
G1 X66.708
G3 X67.027 Y38.271 I0 J0.319
G1 Y58.329
G3 X66.708 Y58.648 I-0.319 J0
G1 X59.307
G2 X57.505 Y59.849 I0 J1.951
G3 X55.704 Y61.05 I-1.801 J-0.751
G1 X53.429
Y35.55
X69.429
Y61.05
X55.704
G3 X54.579 Y58.751 Z-16.817 I0 J-1.425 F333.3
G1 X59.683 Y52.176 Z-17.647
G3 X62.234 Y53.05 Z-18 I1.126 J0.874
G1 Y53.536 F400
G3 X61.914 Y53.855 I-0.319 J0
G1 X60.943
G3 X60.624 Y53.536 I0 J-0.319
G1 Y43.064
G3 X60.943 Y42.745 I0.319 J0
G1 X61.914
G3 X62.234 Y43.064 I0 J0.319
G1 Y53.05
G2 X63.231 Y54.513 I1.571 J0
G3 X62.902 Y56.252 I-0.329 J0.838
G1 X58.546
G3 X58.227 Y55.932 I0 J-0.319
G1 Y40.668
G3 X58.546 Y40.348 I0.319 J0
G1 X64.311
G3 X64.63 Y40.668 I0 J0.319
G1 Y55.932
G3 X64.311 Y56.252 I-0.319 J0
G1 X62.902
G2 X61.104 Y57.45 I0 J1.947
G3 X59.307 Y58.648 I-1.797 J-0.749
G1 X56.15
G3 X55.83 Y58.329 I0 J-0.319
G1 Y38.271
G3 X56.15 Y37.952 I0.319 J0
G1 X66.708
G3 X67.027 Y38.271 I0 J0.319
G1 Y58.329
G3 X66.708 Y58.648 I-0.319 J0
G1 X59.307
G2 X57.505 Y59.849 I0 J1.951
G3 X55.704 Y61.05 I-1.801 J-0.751
G1 X53.429
Y35.55
X69.429
Y61.05
X55.704
G0 Z4
X36.48 Y53.632
Z2
G1 Z1.8 F400
G3 X34.949 Y51.228 Z1.011 I-0.766 J-1.202 F333.3
X36.48 Y53.632 Z0.221 I0.766 J1.202
X34.949 Y51.228 Z-0.568 I-0.766 J-1.202
X36.48 Y53.632 Z-1.358 I0.766 J1.202
X35.714 Y53.855 Z-1.5 I-0.766 J-1.202
G1 X35.229 F400
G3 X34.909 Y53.536 I0 J-0.319
G1 Y43.064
G3 X35.229 Y42.745 I0.319 J0
G1 X36.2
G3 X36.519 Y43.064 I0 J0.319
G1 Y53.536
G3 X36.2 Y53.855 I-0.319 J0
G1 X35.714
G2 X34.252 Y54.852 I0 J1.571
G3 X32.513 Y54.523 I-0.838 J-0.329
G1 Y40.668
G3 X32.832 Y40.348 I0.319 J0
G1 X38.597
G3 X38.916 Y40.668 I0 J0.319
G1 Y55.932
G3 X38.597 Y56.252 I-0.319 J0
G1 X32.832
G3 X32.513 Y55.932 I0 J-0.319
G1 Y54.523
G2 X31.314 Y52.726 I-1.947 J0
G3 X30.116 Y50.928 I0.749 J-1.797
G1 Y38.271
G3 X30.435 Y37.952 I0.319 J0
G1 X40.993
G3 X41.313 Y38.271 I0 J0.319
G1 Y58.329
G3 X40.993 Y58.648 I-0.319 J0
G1 X30.435
G3 X30.116 Y58.329 I0 J-0.319
G1 Y50.928
G2 X28.915 Y49.127 I-1.951 J0
G3 X27.714 Y47.326 I0.751 J-1.801
G1 Y35.55
X43.714
Y61.05
X27.714
Y47.326
G3 X30.013 Y46.2 Z-1.817 I1.425 J0 F333.3
G1 X36.588 Y51.304 Z-2.647
G3 X35.714 Y53.855 Z-3 I-0.874 J1.126
G1 X35.229 F400
G3 X34.909 Y53.536 I0 J-0.319
G1 Y43.064
G3 X35.229 Y42.745 I0.319 J0
G1 X36.2
G3 X36.519 Y43.064 I0 J0.319
G1 Y53.536
G3 X36.2 Y53.855 I-0.319 J0
G1 X35.714
G2 X34.252 Y54.852 I0 J1.571
G3 X32.513 Y54.523 I-0.838 J-0.329
G1 Y40.668
G3 X32.832 Y40.348 I0.319 J0
G1 X38.597
G3 X38.916 Y40.668 I0 J0.319
G1 Y55.932
G3 X38.597 Y56.252 I-0.319 J0
G1 X32.832
G3 X32.513 Y55.932 I0 J-0.319
G1 Y54.523
G2 X31.314 Y52.726 I-1.947 J0
G3 X30.116 Y50.928 I0.749 J-1.797
G1 Y38.271
G3 X30.435 Y37.952 I0.319 J0
G1 X40.993
G3 X41.313 Y38.271 I0 J0.319
G1 Y58.329
G3 X40.993 Y58.648 I-0.319 J0
G1 X30.435
G3 X30.116 Y58.329 I0 J-0.319
G1 Y50.928
G2 X28.915 Y49.127 I-1.951 J0
G3 X27.714 Y47.326 I0.751 J-1.801
G1 Y35.55
X43.714
Y61.05
X27.714
Y47.326
G3 X30.013 Y46.2 Z-3.317 I1.425 J0 F333.3
G1 X36.588 Y51.304 Z-4.147
G3 X35.714 Y53.855 Z-4.5 I-0.874 J1.126
G1 X35.229 F400
G3 X34.909 Y53.536 I0 J-0.319
G1 Y43.064
G3 X35.229 Y42.745 I0.319 J0
G1 X36.2
G3 X36.519 Y43.064 I0 J0.319
G1 Y53.536
G3 X36.2 Y53.855 I-0.319 J0
G1 X35.714
G2 X34.252 Y54.852 I0 J1.571
G3 X32.513 Y54.523 I-0.838 J-0.329
G1 Y40.668
G3 X32.832 Y40.348 I0.319 J0
G1 X38.597
G3 X38.916 Y40.668 I0 J0.319
G1 Y55.932
G3 X38.597 Y56.252 I-0.319 J0
G1 X32.832
G3 X32.513 Y55.932 I0 J-0.319
G1 Y54.523
G2 X31.314 Y52.726 I-1.947 J0
G3 X30.116 Y50.928 I0.749 J-1.797
G1 Y38.271
G3 X30.435 Y37.952 I0.319 J0
G1 X40.993
G3 X41.313 Y38.271 I0 J0.319
G1 Y58.329
G3 X40.993 Y58.648 I-0.319 J0
G1 X30.435
G3 X30.116 Y58.329 I0 J-0.319
G1 Y50.928
G2 X28.915 Y49.127 I-1.951 J0
G3 X27.714 Y47.326 I0.751 J-1.801
G1 Y35.55
X43.714
Y61.05
X27.714
Y47.326
G3 X30.013 Y46.2 Z-4.817 I1.425 J0 F333.3
G1 X36.588 Y51.304 Z-5.647
G3 X35.714 Y53.855 Z-6 I-0.874 J1.126
G1 X35.229 F400
G3 X34.909 Y53.536 I0 J-0.319
G1 Y43.064
G3 X35.229 Y42.745 I0.319 J0
G1 X36.2
G3 X36.519 Y43.064 I0 J0.319
G1 Y53.536
G3 X36.2 Y53.855 I-0.319 J0
G1 X35.714
G2 X34.252 Y54.852 I0 J1.571
G3 X32.513 Y54.523 I-0.838 J-0.329
G1 Y40.668
G3 X32.832 Y40.348 I0.319 J0
G1 X38.597
G3 X38.916 Y40.668 I0 J0.319
G1 Y55.932
G3 X38.597 Y56.252 I-0.319 J0
G1 X32.832
G3 X32.513 Y55.932 I0 J-0.319
G1 Y54.523
G2 X31.314 Y52.726 I-1.947 J0
G3 X30.116 Y50.928 I0.749 J-1.797
G1 Y38.271
G3 X30.435 Y37.952 I0.319 J0
G1 X40.993
G3 X41.313 Y38.271 I0 J0.319
G1 Y58.329
G3 X40.993 Y58.648 I-0.319 J0
G1 X30.435
G3 X30.116 Y58.329 I0 J-0.319
G1 Y50.928
G2 X28.915 Y49.127 I-1.951 J0
G3 X27.714 Y47.326 I0.751 J-1.801
G1 Y35.55
X43.714
Y61.05
X27.714
Y47.326
G3 X30.013 Y46.2 Z-6.317 I1.425 J0 F333.3
G1 X36.588 Y51.304 Z-7.147
G3 X35.714 Y53.855 Z-7.5 I-0.874 J1.126
G1 X35.229 F400
G3 X34.909 Y53.536 I0 J-0.319
G1 Y43.064
G3 X35.229 Y42.745 I0.319 J0
G1 X36.2
G3 X36.519 Y43.064 I0 J0.319
G1 Y53.536
G3 X36.2 Y53.855 I-0.319 J0
G1 X35.714
G2 X34.252 Y54.852 I0 J1.571
G3 X32.513 Y54.523 I-0.838 J-0.329
G1 Y40.668
G3 X32.832 Y40.348 I0.319 J0
G1 X38.597
G3 X38.916 Y40.668 I0 J0.319
G1 Y55.932
G3 X38.597 Y56.252 I-0.319 J0
G1 X32.832
G3 X32.513 Y55.932 I0 J-0.319
G1 Y54.523
G2 X31.314 Y52.726 I-1.947 J0
G3 X30.116 Y50.928 I0.749 J-1.797
G1 Y38.271
G3 X30.435 Y37.952 I0.319 J0
G1 X40.993
G3 X41.313 Y38.271 I0 J0.319
G1 Y58.329
G3 X40.993 Y58.648 I-0.319 J0
G1 X30.435
G3 X30.116 Y58.329 I0 J-0.319
G1 Y50.928
G2 X28.915 Y49.127 I-1.951 J0
G3 X27.714 Y47.326 I0.751 J-1.801
G1 Y35.55
X43.714
Y61.05
X27.714
Y47.326
G3 X30.013 Y46.2 Z-7.817 I1.425 J0 F333.3
G1 X36.588 Y51.304 Z-8.647
G3 X35.714 Y53.855 Z-9 I-0.874 J1.126
G1 X35.229 F400
G3 X34.909 Y53.536 I0 J-0.319
G1 Y43.064
G3 X35.229 Y42.745 I0.319 J0
G1 X36.2
G3 X36.519 Y43.064 I0 J0.319
G1 Y53.536
G3 X36.2 Y53.855 I-0.319 J0
G1 X35.714
G2 X34.252 Y54.852 I0 J1.571
G3 X32.513 Y54.523 I-0.838 J-0.329
G1 Y40.668
G3 X32.832 Y40.348 I0.319 J0
G1 X38.597
G3 X38.916 Y40.668 I0 J0.319
G1 Y55.932
G3 X38.597 Y56.252 I-0.319 J0
G1 X32.832
G3 X32.513 Y55.932 I0 J-0.319
G1 Y54.523
G2 X31.314 Y52.726 I-1.947 J0
G3 X30.116 Y50.928 I0.749 J-1.797
G1 Y38.271
G3 X30.435 Y37.952 I0.319 J0
G1 X40.993
G3 X41.313 Y38.271 I0 J0.319
G1 Y58.329
G3 X40.993 Y58.648 I-0.319 J0
G1 X30.435
G3 X30.116 Y58.329 I0 J-0.319
G1 Y50.928
G2 X28.915 Y49.127 I-1.951 J0
G3 X27.714 Y47.326 I0.751 J-1.801
G1 Y35.55
X43.714
Y61.05
X27.714
Y47.326
G3 X30.013 Y46.2 Z-9.317 I1.425 J0 F333.3
G1 X36.588 Y51.304 Z-10.147
G3 X35.714 Y53.855 Z-10.5 I-0.874 J1.126
G1 X35.229 F400
G3 X34.909 Y53.536 I0 J-0.319
G1 Y43.064
G3 X35.229 Y42.745 I0.319 J0
G1 X36.2
G3 X36.519 Y43.064 I0 J0.319
G1 Y53.536
G3 X36.2 Y53.855 I-0.319 J0
G1 X35.714
G2 X34.252 Y54.852 I0 J1.571
G3 X32.513 Y54.523 I-0.838 J-0.329
G1 Y40.668
G3 X32.832 Y40.348 I0.319 J0
G1 X38.597
G3 X38.916 Y40.668 I0 J0.319
G1 Y55.932
G3 X38.597 Y56.252 I-0.319 J0
G1 X32.832
G3 X32.513 Y55.932 I0 J-0.319
G1 Y54.523
G2 X31.314 Y52.726 I-1.947 J0
G3 X30.116 Y50.928 I0.749 J-1.797
G1 Y38.271
G3 X30.435 Y37.952 I0.319 J0
G1 X40.993
G3 X41.313 Y38.271 I0 J0.319
G1 Y58.329
G3 X40.993 Y58.648 I-0.319 J0
G1 X30.435
G3 X30.116 Y58.329 I0 J-0.319
G1 Y50.928
G2 X28.915 Y49.127 I-1.951 J0
G3 X27.714 Y47.326 I0.751 J-1.801
G1 Y35.55
X43.714
Y61.05
X27.714
Y47.326
G3 X30.013 Y46.2 Z-10.817 I1.425 J0 F333.3
G1 X36.588 Y51.304 Z-11.647
G3 X35.714 Y53.855 Z-12 I-0.874 J1.126
G1 X35.229 F400
G3 X34.909 Y53.536 I0 J-0.319
G1 Y43.064
G3 X35.229 Y42.745 I0.319 J0
G1 X36.2
G3 X36.519 Y43.064 I0 J0.319
G1 Y53.536
G3 X36.2 Y53.855 I-0.319 J0
G1 X35.714
G2 X34.252 Y54.852 I0 J1.571
G3 X32.513 Y54.523 I-0.838 J-0.329
G1 Y40.668
G3 X32.832 Y40.348 I0.319 J0
G1 X38.597
G3 X38.916 Y40.668 I0 J0.319
G1 Y55.932
G3 X38.597 Y56.252 I-0.319 J0
G1 X32.832
G3 X32.513 Y55.932 I0 J-0.319
G1 Y54.523
G2 X31.314 Y52.726 I-1.947 J0
G3 X30.116 Y50.928 I0.749 J-1.797
G1 Y38.271
G3 X30.435 Y37.952 I0.319 J0
G1 X40.993
G3 X41.313 Y38.271 I0 J0.319
G1 Y58.329
G3 X40.993 Y58.648 I-0.319 J0
G1 X30.435
G3 X30.116 Y58.329 I0 J-0.319
G1 Y50.928
G2 X28.915 Y49.127 I-1.951 J0
G3 X27.714 Y47.326 I0.751 J-1.801
G1 Y35.55
X43.714
Y61.05
X27.714
Y47.326
G3 X30.013 Y46.2 Z-12.317 I1.425 J0 F333.3
G1 X36.588 Y51.304 Z-13.147
G3 X35.714 Y53.855 Z-13.5 I-0.874 J1.126
G1 X35.229 F400
G3 X34.909 Y53.536 I0 J-0.319
G1 Y43.064
G3 X35.229 Y42.745 I0.319 J0
G1 X36.2
G3 X36.519 Y43.064 I0 J0.319
G1 Y53.536
G3 X36.2 Y53.855 I-0.319 J0
G1 X35.714
G2 X34.252 Y54.852 I0 J1.571
G3 X32.513 Y54.523 I-0.838 J-0.329
G1 Y40.668
G3 X32.832 Y40.348 I0.319 J0
G1 X38.597
G3 X38.916 Y40.668 I0 J0.319
G1 Y55.932
G3 X38.597 Y56.252 I-0.319 J0
G1 X32.832
G3 X32.513 Y55.932 I0 J-0.319
G1 Y54.523
G2 X31.314 Y52.726 I-1.947 J0
G3 X30.116 Y50.928 I0.749 J-1.797
G1 Y38.271
G3 X30.435 Y37.952 I0.319 J0
G1 X40.993
G3 X41.313 Y38.271 I0 J0.319
G1 Y58.329
G3 X40.993 Y58.648 I-0.319 J0
G1 X30.435
G3 X30.116 Y58.329 I0 J-0.319
G1 Y50.928
G2 X28.915 Y49.127 I-1.951 J0
G3 X27.714 Y47.326 I0.751 J-1.801
G1 Y35.55
X43.714
Y61.05
X27.714
Y47.326
G3 X30.013 Y46.2 Z-13.817 I1.425 J0 F333.3
G1 X36.588 Y51.304 Z-14.647
G3 X35.714 Y53.855 Z-15 I-0.874 J1.126
G1 X35.229 F400
G3 X34.909 Y53.536 I0 J-0.319
G1 Y43.064
G3 X35.229 Y42.745 I0.319 J0
G1 X36.2
G3 X36.519 Y43.064 I0 J0.319
G1 Y53.536
G3 X36.2 Y53.855 I-0.319 J0
G1 X35.714
G2 X34.252 Y54.852 I0 J1.571
G3 X32.513 Y54.523 I-0.838 J-0.329
G1 Y40.668
G3 X32.832 Y40.348 I0.319 J0
G1 X38.597
G3 X38.916 Y40.668 I0 J0.319
G1 Y55.932
G3 X38.597 Y56.252 I-0.319 J0
G1 X32.832
G3 X32.513 Y55.932 I0 J-0.319
G1 Y54.523
G2 X31.314 Y52.726 I-1.947 J0
G3 X30.116 Y50.928 I0.749 J-1.797
G1 Y38.271
G3 X30.435 Y37.952 I0.319 J0
G1 X40.993
G3 X41.313 Y38.271 I0 J0.319
G1 Y58.329
G3 X40.993 Y58.648 I-0.319 J0
G1 X30.435
G3 X30.116 Y58.329 I0 J-0.319
G1 Y50.928
G2 X28.915 Y49.127 I-1.951 J0
G3 X27.714 Y47.326 I0.751 J-1.801
G1 Y35.55
X43.714
Y61.05
X27.714
Y47.326
G3 X30.013 Y46.2 Z-15.317 I1.425 J0 F333.3
G1 X36.588 Y51.304 Z-16.147
G3 X35.714 Y53.855 Z-16.5 I-0.874 J1.126
G1 X35.229 F400
G3 X34.909 Y53.536 I0 J-0.319
G1 Y43.064
G3 X35.229 Y42.745 I0.319 J0
G1 X36.2
G3 X36.519 Y43.064 I0 J0.319
G1 Y53.536
G3 X36.2 Y53.855 I-0.319 J0
G1 X35.714
G2 X34.252 Y54.852 I0 J1.571
G3 X32.513 Y54.523 I-0.838 J-0.329
G1 Y40.668
G3 X32.832 Y40.348 I0.319 J0
G1 X38.597
G3 X38.916 Y40.668 I0 J0.319
G1 Y55.932
G3 X38.597 Y56.252 I-0.319 J0
G1 X32.832
G3 X32.513 Y55.932 I0 J-0.319
G1 Y54.523
G2 X31.314 Y52.726 I-1.947 J0
G3 X30.116 Y50.928 I0.749 J-1.797
G1 Y38.271
G3 X30.435 Y37.952 I0.319 J0
G1 X40.993
G3 X41.313 Y38.271 I0 J0.319
G1 Y58.329
G3 X40.993 Y58.648 I-0.319 J0
G1 X30.435
G3 X30.116 Y58.329 I0 J-0.319
G1 Y50.928
G2 X28.915 Y49.127 I-1.951 J0
G3 X27.714 Y47.326 I0.751 J-1.801
G1 Y35.55
X43.714
Y61.05
X27.714
Y47.326
G3 X30.013 Y46.2 Z-16.817 I1.425 J0 F333.3
G1 X36.588 Y51.304 Z-17.647
G3 X35.714 Y53.855 Z-18 I-0.874 J1.126
G1 X35.229 F400
G3 X34.909 Y53.536 I0 J-0.319
G1 Y43.064
G3 X35.229 Y42.745 I0.319 J0
G1 X36.2
G3 X36.519 Y43.064 I0 J0.319
G1 Y53.536
G3 X36.2 Y53.855 I-0.319 J0
G1 X35.714
G2 X34.252 Y54.852 I0 J1.571
G3 X32.513 Y54.523 I-0.838 J-0.329
G1 Y40.668
G3 X32.832 Y40.348 I0.319 J0
G1 X38.597
G3 X38.916 Y40.668 I0 J0.319
G1 Y55.932
G3 X38.597 Y56.252 I-0.319 J0
G1 X32.832
G3 X32.513 Y55.932 I0 J-0.319
G1 Y54.523
G2 X31.314 Y52.726 I-1.947 J0
G3 X30.116 Y50.928 I0.749 J-1.797
G1 Y38.271
G3 X30.435 Y37.952 I0.319 J0
G1 X40.993
G3 X41.313 Y38.271 I0 J0.319
G1 Y58.329
G3 X40.993 Y58.648 I-0.319 J0
G1 X30.435
G3 X30.116 Y58.329 I0 J-0.319
G1 Y50.928
G2 X28.915 Y49.127 I-1.951 J0
G3 X27.714 Y47.326 I0.751 J-1.801
G1 Y35.55
X43.714
Y61.05
X27.714
Y47.326
G0 Z4
X36.296 Y84.484
Z2
G1 Z1.8 F400
G3 X33.892 Y86.016 Z1.011 I-1.202 J0.766 F333.3
X36.296 Y84.484 Z0.221 I1.202 J-0.766
X33.892 Y86.016 Z-0.568 I-1.202 J0.766
X36.296 Y84.484 Z-1.358 I1.202 J-0.766
X36.519 Y85.25 Z-1.5 I-1.202 J0.766
G1 Y85.736 F400
G3 X36.2 Y86.055 I-0.319 J0
G1 X35.229
G3 X34.909 Y85.736 I0 J-0.319
G1 Y75.264
G3 X35.229 Y74.945 I0.319 J0
G1 X36.2
G3 X36.519 Y75.264 I0 J0.319
G1 Y85.25
G2 X37.516 Y86.713 I1.571 J0
G3 X37.187 Y88.452 I-0.329 J0.838
G1 X32.832
G3 X32.513 Y88.132 I0 J-0.319
G1 Y72.868
G3 X32.832 Y72.548 I0.319 J0
G1 X38.597
G3 X38.916 Y72.868 I0 J0.319
G1 Y88.132
G3 X38.597 Y88.452 I-0.319 J0
G1 X37.187
G2 X35.39 Y89.65 I0 J1.947
G3 X33.592 Y90.848 I-1.797 J-0.749
G1 X30.435
G3 X30.116 Y90.529 I0 J-0.319
G1 Y70.471
G3 X30.435 Y70.152 I0.319 J0
G1 X40.993
G3 X41.313 Y70.471 I0 J0.319
G1 Y90.529
G3 X40.993 Y90.848 I-0.319 J0
G1 X33.592
G2 X31.791 Y92.049 I0 J1.951
G3 X29.99 Y93.25 I-1.801 J-0.751
G1 X27.714
Y67.75
X43.714
Y93.25
X29.99
G3 X28.864 Y90.951 Z-1.817 I0 J-1.425 F333.3
G1 X33.969 Y84.376 Z-2.647
G3 X36.519 Y85.25 Z-3 I1.126 J0.874
G1 Y85.736 F400
G3 X36.2 Y86.055 I-0.319 J0
G1 X35.229
G3 X34.909 Y85.736 I0 J-0.319
G1 Y75.264
G3 X35.229 Y74.945 I0.319 J0
G1 X36.2
G3 X36.519 Y75.264 I0 J0.319
G1 Y85.25
G2 X37.516 Y86.713 I1.571 J0
G3 X37.187 Y88.452 I-0.329 J0.838
G1 X32.832
G3 X32.513 Y88.132 I0 J-0.319
G1 Y72.868
G3 X32.832 Y72.548 I0.319 J0
G1 X38.597
G3 X38.916 Y72.868 I0 J0.319
G1 Y88.132
G3 X38.597 Y88.452 I-0.319 J0
G1 X37.187
G2 X35.39 Y89.65 I0 J1.947
G3 X33.592 Y90.848 I-1.797 J-0.749
G1 X30.435
G3 X30.116 Y90.529 I0 J-0.319
G1 Y70.471
G3 X30.435 Y70.152 I0.319 J0
G1 X40.993
G3 X41.313 Y70.471 I0 J0.319
G1 Y90.529
G3 X40.993 Y90.848 I-0.319 J0
G1 X33.592
G2 X31.791 Y92.049 I0 J1.951
G3 X29.99 Y93.25 I-1.801 J-0.751
G1 X27.714
Y67.75
X43.714
Y93.25
X29.99
G3 X28.864 Y90.951 Z-3.317 I0 J-1.425 F333.3
G1 X33.969 Y84.376 Z-4.147
G3 X36.519 Y85.25 Z-4.5 I1.126 J0.874
G1 Y85.736 F400
G3 X36.2 Y86.055 I-0.319 J0
G1 X35.229
G3 X34.909 Y85.736 I0 J-0.319
G1 Y75.264
G3 X35.229 Y74.945 I0.319 J0
G1 X36.2
G3 X36.519 Y75.264 I0 J0.319
G1 Y85.25
G2 X37.516 Y86.713 I1.571 J0
G3 X37.187 Y88.452 I-0.329 J0.838
G1 X32.832
G3 X32.513 Y88.132 I0 J-0.319
G1 Y72.868
G3 X32.832 Y72.548 I0.319 J0
G1 X38.597
G3 X38.916 Y72.868 I0 J0.319
G1 Y88.132
G3 X38.597 Y88.452 I-0.319 J0
G1 X37.187
G2 X35.39 Y89.65 I0 J1.947
G3 X33.592 Y90.848 I-1.797 J-0.749
G1 X30.435
G3 X30.116 Y90.529 I0 J-0.319
G1 Y70.471
G3 X30.435 Y70.152 I0.319 J0
G1 X40.993
G3 X41.313 Y70.471 I0 J0.319
G1 Y90.529
G3 X40.993 Y90.848 I-0.319 J0
G1 X33.592
G2 X31.791 Y92.049 I0 J1.951
G3 X29.99 Y93.25 I-1.801 J-0.751
G1 X27.714
Y67.75
X43.714
Y93.25
X29.99
G3 X28.864 Y90.951 Z-4.817 I0 J-1.425 F333.3
G1 X33.969 Y84.376 Z-5.647
G3 X36.519 Y85.25 Z-6 I1.126 J0.874
G1 Y85.736 F400
G3 X36.2 Y86.055 I-0.319 J0
G1 X35.229
G3 X34.909 Y85.736 I0 J-0.319
G1 Y75.264
G3 X35.229 Y74.945 I0.319 J0
G1 X36.2
G3 X36.519 Y75.264 I0 J0.319
G1 Y85.25
G2 X37.516 Y86.713 I1.571 J0
G3 X37.187 Y88.452 I-0.329 J0.838
G1 X32.832
G3 X32.513 Y88.132 I0 J-0.319
G1 Y72.868
G3 X32.832 Y72.548 I0.319 J0
G1 X38.597
G3 X38.916 Y72.868 I0 J0.319
G1 Y88.132
G3 X38.597 Y88.452 I-0.319 J0
G1 X37.187
G2 X35.39 Y89.65 I0 J1.947
G3 X33.592 Y90.848 I-1.797 J-0.749
G1 X30.435
G3 X30.116 Y90.529 I0 J-0.319
G1 Y70.471
G3 X30.435 Y70.152 I0.319 J0
G1 X40.993
G3 X41.313 Y70.471 I0 J0.319
G1 Y90.529
G3 X40.993 Y90.848 I-0.319 J0
G1 X33.592
G2 X31.791 Y92.049 I0 J1.951
G3 X29.99 Y93.25 I-1.801 J-0.751
G1 X27.714
Y67.75
X43.714
Y93.25
X29.99
G3 X28.864 Y90.951 Z-6.317 I0 J-1.425 F333.3
G1 X33.969 Y84.376 Z-7.147
G3 X36.519 Y85.25 Z-7.5 I1.126 J0.874
G1 Y85.736 F400
G3 X36.2 Y86.055 I-0.319 J0
G1 X35.229
G3 X34.909 Y85.736 I0 J-0.319
G1 Y75.264
G3 X35.229 Y74.945 I0.319 J0
G1 X36.2
G3 X36.519 Y75.264 I0 J0.319
G1 Y85.25
G2 X37.516 Y86.713 I1.571 J0
G3 X37.187 Y88.452 I-0.329 J0.838
G1 X32.832
G3 X32.513 Y88.132 I0 J-0.319
G1 Y72.868
G3 X32.832 Y72.548 I0.319 J0
G1 X38.597
G3 X38.916 Y72.868 I0 J0.319
G1 Y88.132
G3 X38.597 Y88.452 I-0.319 J0
G1 X37.187
G2 X35.39 Y89.65 I0 J1.947
G3 X33.592 Y90.848 I-1.797 J-0.749
G1 X30.435
G3 X30.116 Y90.529 I0 J-0.319
G1 Y70.471
G3 X30.435 Y70.152 I0.319 J0
G1 X40.993
G3 X41.313 Y70.471 I0 J0.319
G1 Y90.529
G3 X40.993 Y90.848 I-0.319 J0
G1 X33.592
G2 X31.791 Y92.049 I0 J1.951
G3 X29.99 Y93.25 I-1.801 J-0.751
G1 X27.714
Y67.75
X43.714
Y93.25
X29.99
G3 X28.864 Y90.951 Z-7.817 I0 J-1.425 F333.3
G1 X33.969 Y84.376 Z-8.647
G3 X36.519 Y85.25 Z-9 I1.126 J0.874
G1 Y85.736 F400
G3 X36.2 Y86.055 I-0.319 J0
G1 X35.229
G3 X34.909 Y85.736 I0 J-0.319
G1 Y75.264
G3 X35.229 Y74.945 I0.319 J0
G1 X36.2
G3 X36.519 Y75.264 I0 J0.319
G1 Y85.25
G2 X37.516 Y86.713 I1.571 J0
G3 X37.187 Y88.452 I-0.329 J0.838
G1 X32.832
G3 X32.513 Y88.132 I0 J-0.319
G1 Y72.868
G3 X32.832 Y72.548 I0.319 J0
G1 X38.597
G3 X38.916 Y72.868 I0 J0.319
G1 Y88.132
G3 X38.597 Y88.452 I-0.319 J0
G1 X37.187
G2 X35.39 Y89.65 I0 J1.947
G3 X33.592 Y90.848 I-1.797 J-0.749
G1 X30.435
G3 X30.116 Y90.529 I0 J-0.319
G1 Y70.471
G3 X30.435 Y70.152 I0.319 J0
G1 X40.993
G3 X41.313 Y70.471 I0 J0.319
G1 Y90.529
G3 X40.993 Y90.848 I-0.319 J0
G1 X33.592
G2 X31.791 Y92.049 I0 J1.951
G3 X29.99 Y93.25 I-1.801 J-0.751
G1 X27.714
Y67.75
X43.714
Y93.25
X29.99
G3 X28.864 Y90.951 Z-9.317 I0 J-1.425 F333.3
G1 X33.969 Y84.376 Z-10.147
G3 X36.519 Y85.25 Z-10.5 I1.126 J0.874
G1 Y85.736 F400
G3 X36.2 Y86.055 I-0.319 J0
G1 X35.229
G3 X34.909 Y85.736 I0 J-0.319
G1 Y75.264
G3 X35.229 Y74.945 I0.319 J0
G1 X36.2
G3 X36.519 Y75.264 I0 J0.319
G1 Y85.25
G2 X37.516 Y86.713 I1.571 J0
G3 X37.187 Y88.452 I-0.329 J0.838
G1 X32.832
G3 X32.513 Y88.132 I0 J-0.319
G1 Y72.868
G3 X32.832 Y72.548 I0.319 J0
G1 X38.597
G3 X38.916 Y72.868 I0 J0.319
G1 Y88.132
G3 X38.597 Y88.452 I-0.319 J0
G1 X37.187
G2 X35.39 Y89.65 I0 J1.947
G3 X33.592 Y90.848 I-1.797 J-0.749
G1 X30.435
G3 X30.116 Y90.529 I0 J-0.319
G1 Y70.471
G3 X30.435 Y70.152 I0.319 J0
G1 X40.993
G3 X41.313 Y70.471 I0 J0.319
G1 Y90.529
G3 X40.993 Y90.848 I-0.319 J0
G1 X33.592
G2 X31.791 Y92.049 I0 J1.951
G3 X29.99 Y93.25 I-1.801 J-0.751
G1 X27.714
Y67.75
X43.714
Y93.25
X29.99
G3 X28.864 Y90.951 Z-10.817 I0 J-1.425 F333.3
G1 X33.969 Y84.376 Z-11.647
G3 X36.519 Y85.25 Z-12 I1.126 J0.874
G1 Y85.736 F400
G3 X36.2 Y86.055 I-0.319 J0
G1 X35.229
G3 X34.909 Y85.736 I0 J-0.319
G1 Y75.264
G3 X35.229 Y74.945 I0.319 J0
G1 X36.2
G3 X36.519 Y75.264 I0 J0.319
G1 Y85.25
G2 X37.516 Y86.713 I1.571 J0
G3 X37.187 Y88.452 I-0.329 J0.838
G1 X32.832
G3 X32.513 Y88.132 I0 J-0.319
G1 Y72.868
G3 X32.832 Y72.548 I0.319 J0
G1 X38.597
G3 X38.916 Y72.868 I0 J0.319
G1 Y88.132
G3 X38.597 Y88.452 I-0.319 J0
G1 X37.187
G2 X35.39 Y89.65 I0 J1.947
G3 X33.592 Y90.848 I-1.797 J-0.749
G1 X30.435
G3 X30.116 Y90.529 I0 J-0.319
G1 Y70.471
G3 X30.435 Y70.152 I0.319 J0
G1 X40.993
G3 X41.313 Y70.471 I0 J0.319
G1 Y90.529
G3 X40.993 Y90.848 I-0.319 J0
G1 X33.592
G2 X31.791 Y92.049 I0 J1.951
G3 X29.99 Y93.25 I-1.801 J-0.751
G1 X27.714
Y67.75
X43.714
Y93.25
X29.99
G3 X28.864 Y90.951 Z-12.317 I0 J-1.425 F333.3
G1 X33.969 Y84.376 Z-13.147
G3 X36.519 Y85.25 Z-13.5 I1.126 J0.874
G1 Y85.736 F400
G3 X36.2 Y86.055 I-0.319 J0
G1 X35.229
G3 X34.909 Y85.736 I0 J-0.319
G1 Y75.264
G3 X35.229 Y74.945 I0.319 J0
G1 X36.2
G3 X36.519 Y75.264 I0 J0.319
G1 Y85.25
G2 X37.516 Y86.713 I1.571 J0
G3 X37.187 Y88.452 I-0.329 J0.838
G1 X32.832
G3 X32.513 Y88.132 I0 J-0.319
G1 Y72.868
G3 X32.832 Y72.548 I0.319 J0
G1 X38.597
G3 X38.916 Y72.868 I0 J0.319
G1 Y88.132
G3 X38.597 Y88.452 I-0.319 J0
G1 X37.187
G2 X35.39 Y89.65 I0 J1.947
G3 X33.592 Y90.848 I-1.797 J-0.749
G1 X30.435
G3 X30.116 Y90.529 I0 J-0.319
G1 Y70.471
G3 X30.435 Y70.152 I0.319 J0
G1 X40.993
G3 X41.313 Y70.471 I0 J0.319
G1 Y90.529
G3 X40.993 Y90.848 I-0.319 J0
G1 X33.592
G2 X31.791 Y92.049 I0 J1.951
G3 X29.99 Y93.25 I-1.801 J-0.751
G1 X27.714
Y67.75
X43.714
Y93.25
X29.99
G3 X28.864 Y90.951 Z-13.817 I0 J-1.425 F333.3
G1 X33.969 Y84.376 Z-14.647
G3 X36.519 Y85.25 Z-15 I1.126 J0.874
G1 Y85.736 F400
G3 X36.2 Y86.055 I-0.319 J0
G1 X35.229
G3 X34.909 Y85.736 I0 J-0.319
G1 Y75.264
G3 X35.229 Y74.945 I0.319 J0
G1 X36.2
G3 X36.519 Y75.264 I0 J0.319
G1 Y85.25
G2 X37.516 Y86.713 I1.571 J0
G3 X37.187 Y88.452 I-0.329 J0.838
G1 X32.832
G3 X32.513 Y88.132 I0 J-0.319
G1 Y72.868
G3 X32.832 Y72.548 I0.319 J0
G1 X38.597
G3 X38.916 Y72.868 I0 J0.319
G1 Y88.132
G3 X38.597 Y88.452 I-0.319 J0
G1 X37.187
G2 X35.39 Y89.65 I0 J1.947
G3 X33.592 Y90.848 I-1.797 J-0.749
G1 X30.435
G3 X30.116 Y90.529 I0 J-0.319
G1 Y70.471
G3 X30.435 Y70.152 I0.319 J0
G1 X40.993
G3 X41.313 Y70.471 I0 J0.319
G1 Y90.529
G3 X40.993 Y90.848 I-0.319 J0
G1 X33.592
G2 X31.791 Y92.049 I0 J1.951
G3 X29.99 Y93.25 I-1.801 J-0.751
G1 X27.714
Y67.75
X43.714
Y93.25
X29.99
G3 X28.864 Y90.951 Z-15.317 I0 J-1.425 F333.3
G1 X33.969 Y84.376 Z-16.147
G3 X36.519 Y85.25 Z-16.5 I1.126 J0.874
G1 Y85.736 F400
G3 X36.2 Y86.055 I-0.319 J0
G1 X35.229
G3 X34.909 Y85.736 I0 J-0.319
G1 Y75.264
G3 X35.229 Y74.945 I0.319 J0
G1 X36.2
G3 X36.519 Y75.264 I0 J0.319
G1 Y85.25
G2 X37.516 Y86.713 I1.571 J0
G3 X37.187 Y88.452 I-0.329 J0.838
G1 X32.832
G3 X32.513 Y88.132 I0 J-0.319
G1 Y72.868
G3 X32.832 Y72.548 I0.319 J0
G1 X38.597
G3 X38.916 Y72.868 I0 J0.319
G1 Y88.132
G3 X38.597 Y88.452 I-0.319 J0
G1 X37.187
G2 X35.39 Y89.65 I0 J1.947
G3 X33.592 Y90.848 I-1.797 J-0.749
G1 X30.435
G3 X30.116 Y90.529 I0 J-0.319
G1 Y70.471
G3 X30.435 Y70.152 I0.319 J0
G1 X40.993
G3 X41.313 Y70.471 I0 J0.319
G1 Y90.529
G3 X40.993 Y90.848 I-0.319 J0
G1 X33.592
G2 X31.791 Y92.049 I0 J1.951
G3 X29.99 Y93.25 I-1.801 J-0.751
G1 X27.714
Y67.75
X43.714
Y93.25
X29.99
G3 X28.864 Y90.951 Z-16.817 I0 J-1.425 F333.3
G1 X33.969 Y84.376 Z-17.647
G3 X36.519 Y85.25 Z-18 I1.126 J0.874
G1 Y85.736 F400
G3 X36.2 Y86.055 I-0.319 J0
G1 X35.229
G3 X34.909 Y85.736 I0 J-0.319
G1 Y75.264
G3 X35.229 Y74.945 I0.319 J0
G1 X36.2
G3 X36.519 Y75.264 I0 J0.319
G1 Y85.25
G2 X37.516 Y86.713 I1.571 J0
G3 X37.187 Y88.452 I-0.329 J0.838
G1 X32.832
G3 X32.513 Y88.132 I0 J-0.319
G1 Y72.868
G3 X32.832 Y72.548 I0.319 J0
G1 X38.597
G3 X38.916 Y72.868 I0 J0.319
G1 Y88.132
G3 X38.597 Y88.452 I-0.319 J0
G1 X37.187
G2 X35.39 Y89.65 I0 J1.947
G3 X33.592 Y90.848 I-1.797 J-0.749
G1 X30.435
G3 X30.116 Y90.529 I0 J-0.319
G1 Y70.471
G3 X30.435 Y70.152 I0.319 J0
G1 X40.993
G3 X41.313 Y70.471 I0 J0.319
G1 Y90.529
G3 X40.993 Y90.848 I-0.319 J0
G1 X33.592
G2 X31.791 Y92.049 I0 J1.951
G3 X29.99 Y93.25 I-1.801 J-0.751
G1 X27.714
Y67.75
X43.714
Y93.25
X29.99
G0 Z4
X86.377 Y42.968
Z2
G1 Z1.8 F400
G3 X87.908 Y45.372 Z1.011 I0.766 J1.202 F333.3
X86.377 Y42.968 Z0.221 I-0.766 J-1.202
X87.908 Y45.372 Z-0.568 I0.766 J1.202
X86.377 Y42.968 Z-1.358 I-0.766 J-1.202
X87.143 Y42.745 Z-1.5 I0.766 J1.202
G1 X87.629 F400
G3 X87.948 Y43.064 I0 J0.319
G1 Y53.536
G3 X87.629 Y53.855 I-0.319 J0
G1 X86.657
G3 X86.338 Y53.536 I0 J-0.319
G1 Y43.064
G3 X86.657 Y42.745 I0.319 J0
G1 X87.143
G2 X88.605 Y41.748 I0 J-1.571
G3 X90.345 Y42.077 I0.838 J0.329
G1 Y55.932
G3 X90.025 Y56.252 I-0.319 J0
G1 X84.261
G3 X83.941 Y55.932 I0 J-0.319
G1 Y40.668
G3 X84.261 Y40.348 I0.319 J0
G1 X90.025
G3 X90.345 Y40.668 I0 J0.319
G1 Y42.077
G2 X91.543 Y43.874 I1.947 J0
G3 X92.741 Y45.672 I-0.749 J1.797
G1 Y58.329
G3 X92.422 Y58.648 I-0.319 J0
G1 X81.864
G3 X81.545 Y58.329 I0 J-0.319
G1 Y38.271
G3 X81.864 Y37.952 I0.319 J0
G1 X92.422
G3 X92.741 Y38.271 I0 J0.319
G1 Y45.672
G2 X93.942 Y47.473 I1.951 J0
G3 X95.143 Y49.274 I-0.751 J1.801
G1 Y61.05
X79.143
Y35.55
X95.143
Y49.274
G3 X92.844 Y50.4 Z-1.817 I-1.425 J0 F333.3
G1 X86.269 Y45.296 Z-2.647
G3 X87.143 Y42.745 Z-3 I0.874 J-1.126
G1 X87.629 F400
G3 X87.948 Y43.064 I0 J0.319
G1 Y53.536
G3 X87.629 Y53.855 I-0.319 J0
G1 X86.657
G3 X86.338 Y53.536 I0 J-0.319
G1 Y43.064
G3 X86.657 Y42.745 I0.319 J0
G1 X87.143
G2 X88.605 Y41.748 I0 J-1.571
G3 X90.345 Y42.077 I0.838 J0.329
G1 Y55.932
G3 X90.025 Y56.252 I-0.319 J0
G1 X84.261
G3 X83.941 Y55.932 I0 J-0.319
G1 Y40.668
G3 X84.261 Y40.348 I0.319 J0
G1 X90.025
G3 X90.345 Y40.668 I0 J0.319
G1 Y42.077
G2 X91.543 Y43.874 I1.947 J0
G3 X92.741 Y45.672 I-0.749 J1.797
G1 Y58.329
G3 X92.422 Y58.648 I-0.319 J0
G1 X81.864
G3 X81.545 Y58.329 I0 J-0.319
G1 Y38.271
G3 X81.864 Y37.952 I0.319 J0
G1 X92.422
G3 X92.741 Y38.271 I0 J0.319
G1 Y45.672
G2 X93.942 Y47.473 I1.951 J0
G3 X95.143 Y49.274 I-0.751 J1.801
G1 Y61.05
X79.143
Y35.55
X95.143
Y49.274
G3 X92.844 Y50.4 Z-3.317 I-1.425 J0 F333.3
G1 X86.269 Y45.296 Z-4.147
G3 X87.143 Y42.745 Z-4.5 I0.874 J-1.126
G1 X87.629 F400
G3 X87.948 Y43.064 I0 J0.319
G1 Y53.536
G3 X87.629 Y53.855 I-0.319 J0
G1 X86.657
G3 X86.338 Y53.536 I0 J-0.319
G1 Y43.064
G3 X86.657 Y42.745 I0.319 J0
G1 X87.143
G2 X88.605 Y41.748 I0 J-1.571
G3 X90.345 Y42.077 I0.838 J0.329
G1 Y55.932
G3 X90.025 Y56.252 I-0.319 J0
G1 X84.261
G3 X83.941 Y55.932 I0 J-0.319
G1 Y40.668
G3 X84.261 Y40.348 I0.319 J0
G1 X90.025
G3 X90.345 Y40.668 I0 J0.319
G1 Y42.077
G2 X91.543 Y43.874 I1.947 J0
G3 X92.741 Y45.672 I-0.749 J1.797
G1 Y58.329
G3 X92.422 Y58.648 I-0.319 J0
G1 X81.864
G3 X81.545 Y58.329 I0 J-0.319
G1 Y38.271
G3 X81.864 Y37.952 I0.319 J0
G1 X92.422
G3 X92.741 Y38.271 I0 J0.319
G1 Y45.672
G2 X93.942 Y47.473 I1.951 J0
G3 X95.143 Y49.274 I-0.751 J1.801
G1 Y61.05
X79.143
Y35.55
X95.143
Y49.274
G3 X92.844 Y50.4 Z-4.817 I-1.425 J0 F333.3
G1 X86.269 Y45.296 Z-5.647
G3 X87.143 Y42.745 Z-6 I0.874 J-1.126
G1 X87.629 F400
G3 X87.948 Y43.064 I0 J0.319
G1 Y53.536
G3 X87.629 Y53.855 I-0.319 J0
G1 X86.657
G3 X86.338 Y53.536 I0 J-0.319
G1 Y43.064
G3 X86.657 Y42.745 I0.319 J0
G1 X87.143
G2 X88.605 Y41.748 I0 J-1.571
G3 X90.345 Y42.077 I0.838 J0.329
G1 Y55.932
G3 X90.025 Y56.252 I-0.319 J0
G1 X84.261
G3 X83.941 Y55.932 I0 J-0.319
G1 Y40.668
G3 X84.261 Y40.348 I0.319 J0
G1 X90.025
G3 X90.345 Y40.668 I0 J0.319
G1 Y42.077
G2 X91.543 Y43.874 I1.947 J0
G3 X92.741 Y45.672 I-0.749 J1.797
G1 Y58.329
G3 X92.422 Y58.648 I-0.319 J0
G1 X81.864
G3 X81.545 Y58.329 I0 J-0.319
G1 Y38.271
G3 X81.864 Y37.952 I0.319 J0
G1 X92.422
G3 X92.741 Y38.271 I0 J0.319
G1 Y45.672
G2 X93.942 Y47.473 I1.951 J0
G3 X95.143 Y49.274 I-0.751 J1.801
G1 Y61.05
X79.143
Y35.55
X95.143
Y49.274
G3 X92.844 Y50.4 Z-6.317 I-1.425 J0 F333.3
G1 X86.269 Y45.296 Z-7.147
G3 X87.143 Y42.745 Z-7.5 I0.874 J-1.126
G1 X87.629 F400
G3 X87.948 Y43.064 I0 J0.319
G1 Y53.536
G3 X87.629 Y53.855 I-0.319 J0
G1 X86.657
G3 X86.338 Y53.536 I0 J-0.319
G1 Y43.064
G3 X86.657 Y42.745 I0.319 J0
G1 X87.143
G2 X88.605 Y41.748 I0 J-1.571
G3 X90.345 Y42.077 I0.838 J0.329
G1 Y55.932
G3 X90.025 Y56.252 I-0.319 J0
G1 X84.261
G3 X83.941 Y55.932 I0 J-0.319
G1 Y40.668
G3 X84.261 Y40.348 I0.319 J0
G1 X90.025
G3 X90.345 Y40.668 I0 J0.319
G1 Y42.077
G2 X91.543 Y43.874 I1.947 J0
G3 X92.741 Y45.672 I-0.749 J1.797
G1 Y58.329
G3 X92.422 Y58.648 I-0.319 J0
G1 X81.864
G3 X81.545 Y58.329 I0 J-0.319
G1 Y38.271
G3 X81.864 Y37.952 I0.319 J0
G1 X92.422
G3 X92.741 Y38.271 I0 J0.319
G1 Y45.672
G2 X93.942 Y47.473 I1.951 J0
G3 X95.143 Y49.274 I-0.751 J1.801
G1 Y61.05
X79.143
Y35.55
X95.143
Y49.274
G3 X92.844 Y50.4 Z-7.817 I-1.425 J0 F333.3
G1 X86.269 Y45.296 Z-8.647
G3 X87.143 Y42.745 Z-9 I0.874 J-1.126
G1 X87.629 F400
G3 X87.948 Y43.064 I0 J0.319
G1 Y53.536
G3 X87.629 Y53.855 I-0.319 J0
G1 X86.657
G3 X86.338 Y53.536 I0 J-0.319
G1 Y43.064
G3 X86.657 Y42.745 I0.319 J0
G1 X87.143
G2 X88.605 Y41.748 I0 J-1.571
G3 X90.345 Y42.077 I0.838 J0.329
G1 Y55.932
G3 X90.025 Y56.252 I-0.319 J0
G1 X84.261
G3 X83.941 Y55.932 I0 J-0.319
G1 Y40.668
G3 X84.261 Y40.348 I0.319 J0
G1 X90.025
G3 X90.345 Y40.668 I0 J0.319
G1 Y42.077
G2 X91.543 Y43.874 I1.947 J0
G3 X92.741 Y45.672 I-0.749 J1.797
G1 Y58.329
G3 X92.422 Y58.648 I-0.319 J0
G1 X81.864
G3 X81.545 Y58.329 I0 J-0.319
G1 Y38.271
G3 X81.864 Y37.952 I0.319 J0
G1 X92.422
G3 X92.741 Y38.271 I0 J0.319
G1 Y45.672
G2 X93.942 Y47.473 I1.951 J0
G3 X95.143 Y49.274 I-0.751 J1.801
G1 Y61.05
X79.143
Y35.55
X95.143
Y49.274
G3 X92.844 Y50.4 Z-9.317 I-1.425 J0 F333.3
G1 X86.269 Y45.296 Z-10.147
G3 X87.143 Y42.745 Z-10.5 I0.874 J-1.126
G1 X87.629 F400
G3 X87.948 Y43.064 I0 J0.319
G1 Y53.536
G3 X87.629 Y53.855 I-0.319 J0
G1 X86.657
G3 X86.338 Y53.536 I0 J-0.319
G1 Y43.064
G3 X86.657 Y42.745 I0.319 J0
G1 X87.143
G2 X88.605 Y41.748 I0 J-1.571
G3 X90.345 Y42.077 I0.838 J0.329
G1 Y55.932
G3 X90.025 Y56.252 I-0.319 J0
G1 X84.261
G3 X83.941 Y55.932 I0 J-0.319
G1 Y40.668
G3 X84.261 Y40.348 I0.319 J0
G1 X90.025
G3 X90.345 Y40.668 I0 J0.319
G1 Y42.077
G2 X91.543 Y43.874 I1.947 J0
G3 X92.741 Y45.672 I-0.749 J1.797
G1 Y58.329
G3 X92.422 Y58.648 I-0.319 J0
G1 X81.864
G3 X81.545 Y58.329 I0 J-0.319
G1 Y38.271
G3 X81.864 Y37.952 I0.319 J0
G1 X92.422
G3 X92.741 Y38.271 I0 J0.319
G1 Y45.672
G2 X93.942 Y47.473 I1.951 J0
G3 X95.143 Y49.274 I-0.751 J1.801
G1 Y61.05
X79.143
Y35.55
X95.143
Y49.274
G3 X92.844 Y50.4 Z-10.817 I-1.425 J0 F333.3
G1 X86.269 Y45.296 Z-11.647
G3 X87.143 Y42.745 Z-12 I0.874 J-1.126
G1 X87.629 F400
G3 X87.948 Y43.064 I0 J0.319
G1 Y53.536
G3 X87.629 Y53.855 I-0.319 J0
G1 X86.657
G3 X86.338 Y53.536 I0 J-0.319
G1 Y43.064
G3 X86.657 Y42.745 I0.319 J0
G1 X87.143
G2 X88.605 Y41.748 I0 J-1.571
G3 X90.345 Y42.077 I0.838 J0.329
G1 Y55.932
G3 X90.025 Y56.252 I-0.319 J0
G1 X84.261
G3 X83.941 Y55.932 I0 J-0.319
G1 Y40.668
G3 X84.261 Y40.348 I0.319 J0
G1 X90.025
G3 X90.345 Y40.668 I0 J0.319
G1 Y42.077
G2 X91.543 Y43.874 I1.947 J0
G3 X92.741 Y45.672 I-0.749 J1.797
G1 Y58.329
G3 X92.422 Y58.648 I-0.319 J0
G1 X81.864
G3 X81.545 Y58.329 I0 J-0.319
G1 Y38.271
G3 X81.864 Y37.952 I0.319 J0
G1 X92.422
G3 X92.741 Y38.271 I0 J0.319
G1 Y45.672
G2 X93.942 Y47.473 I1.951 J0
G3 X95.143 Y49.274 I-0.751 J1.801
G1 Y61.05
X79.143
Y35.55
X95.143
Y49.274
G3 X92.844 Y50.4 Z-12.317 I-1.425 J0 F333.3
G1 X86.269 Y45.296 Z-13.147
G3 X87.143 Y42.745 Z-13.5 I0.874 J-1.126
G1 X87.629 F400
G3 X87.948 Y43.064 I0 J0.319
G1 Y53.536
G3 X87.629 Y53.855 I-0.319 J0
G1 X86.657
G3 X86.338 Y53.536 I0 J-0.319
G1 Y43.064
G3 X86.657 Y42.745 I0.319 J0
G1 X87.143
G2 X88.605 Y41.748 I0 J-1.571
G3 X90.345 Y42.077 I0.838 J0.329
G1 Y55.932
G3 X90.025 Y56.252 I-0.319 J0
G1 X84.261
G3 X83.941 Y55.932 I0 J-0.319
G1 Y40.668
G3 X84.261 Y40.348 I0.319 J0
G1 X90.025
G3 X90.345 Y40.668 I0 J0.319
G1 Y42.077
G2 X91.543 Y43.874 I1.947 J0
G3 X92.741 Y45.672 I-0.749 J1.797
G1 Y58.329
G3 X92.422 Y58.648 I-0.319 J0
G1 X81.864
G3 X81.545 Y58.329 I0 J-0.319
G1 Y38.271
G3 X81.864 Y37.952 I0.319 J0
G1 X92.422
G3 X92.741 Y38.271 I0 J0.319
G1 Y45.672
G2 X93.942 Y47.473 I1.951 J0
G3 X95.143 Y49.274 I-0.751 J1.801
G1 Y61.05
X79.143
Y35.55
X95.143
Y49.274
G3 X92.844 Y50.4 Z-13.817 I-1.425 J0 F333.3
G1 X86.269 Y45.296 Z-14.647
G3 X87.143 Y42.745 Z-15 I0.874 J-1.126
G1 X87.629 F400
G3 X87.948 Y43.064 I0 J0.319
G1 Y53.536
G3 X87.629 Y53.855 I-0.319 J0
G1 X86.657
G3 X86.338 Y53.536 I0 J-0.319
G1 Y43.064
G3 X86.657 Y42.745 I0.319 J0
G1 X87.143
G2 X88.605 Y41.748 I0 J-1.571
G3 X90.345 Y42.077 I0.838 J0.329
G1 Y55.932
G3 X90.025 Y56.252 I-0.319 J0
G1 X84.261
G3 X83.941 Y55.932 I0 J-0.319
G1 Y40.668
G3 X84.261 Y40.348 I0.319 J0
G1 X90.025
G3 X90.345 Y40.668 I0 J0.319
G1 Y42.077
G2 X91.543 Y43.874 I1.947 J0
G3 X92.741 Y45.672 I-0.749 J1.797
G1 Y58.329
G3 X92.422 Y58.648 I-0.319 J0
G1 X81.864
G3 X81.545 Y58.329 I0 J-0.319
G1 Y38.271
G3 X81.864 Y37.952 I0.319 J0
G1 X92.422
G3 X92.741 Y38.271 I0 J0.319
G1 Y45.672
G2 X93.942 Y47.473 I1.951 J0
G3 X95.143 Y49.274 I-0.751 J1.801
G1 Y61.05
X79.143
Y35.55
X95.143
Y49.274
G3 X92.844 Y50.4 Z-15.317 I-1.425 J0 F333.3
G1 X86.269 Y45.296 Z-16.147
G3 X87.143 Y42.745 Z-16.5 I0.874 J-1.126
G1 X87.629 F400
G3 X87.948 Y43.064 I0 J0.319
G1 Y53.536
G3 X87.629 Y53.855 I-0.319 J0
G1 X86.657
G3 X86.338 Y53.536 I0 J-0.319
G1 Y43.064
G3 X86.657 Y42.745 I0.319 J0
G1 X87.143
G2 X88.605 Y41.748 I0 J-1.571
G3 X90.345 Y42.077 I0.838 J0.329
G1 Y55.932
G3 X90.025 Y56.252 I-0.319 J0
G1 X84.261
G3 X83.941 Y55.932 I0 J-0.319
G1 Y40.668
G3 X84.261 Y40.348 I0.319 J0
G1 X90.025
G3 X90.345 Y40.668 I0 J0.319
G1 Y42.077
G2 X91.543 Y43.874 I1.947 J0
G3 X92.741 Y45.672 I-0.749 J1.797
G1 Y58.329
G3 X92.422 Y58.648 I-0.319 J0
G1 X81.864
G3 X81.545 Y58.329 I0 J-0.319
G1 Y38.271
G3 X81.864 Y37.952 I0.319 J0
G1 X92.422
G3 X92.741 Y38.271 I0 J0.319
G1 Y45.672
G2 X93.942 Y47.473 I1.951 J0
G3 X95.143 Y49.274 I-0.751 J1.801
G1 Y61.05
X79.143
Y35.55
X95.143
Y49.274
G3 X92.844 Y50.4 Z-16.817 I-1.425 J0 F333.3
G1 X86.269 Y45.296 Z-17.647
G3 X87.143 Y42.745 Z-18 I0.874 J-1.126
G1 X87.629 F400
G3 X87.948 Y43.064 I0 J0.319
G1 Y53.536
G3 X87.629 Y53.855 I-0.319 J0
G1 X86.657
G3 X86.338 Y53.536 I0 J-0.319
G1 Y43.064
G3 X86.657 Y42.745 I0.319 J0
G1 X87.143
G2 X88.605 Y41.748 I0 J-1.571
G3 X90.345 Y42.077 I0.838 J0.329
G1 Y55.932
G3 X90.025 Y56.252 I-0.319 J0
G1 X84.261
G3 X83.941 Y55.932 I0 J-0.319
G1 Y40.668
G3 X84.261 Y40.348 I0.319 J0
G1 X90.025
G3 X90.345 Y40.668 I0 J0.319
G1 Y42.077
G2 X91.543 Y43.874 I1.947 J0
G3 X92.741 Y45.672 I-0.749 J1.797
G1 Y58.329
G3 X92.422 Y58.648 I-0.319 J0
G1 X81.864
G3 X81.545 Y58.329 I0 J-0.319
G1 Y38.271
G3 X81.864 Y37.952 I0.319 J0
G1 X92.422
G3 X92.741 Y38.271 I0 J0.319
G1 Y45.672
G2 X93.942 Y47.473 I1.951 J0
G3 X95.143 Y49.274 I-0.751 J1.801
G1 Y61.05
X79.143
Y35.55
X95.143
Y49.274
G0 Z4
X113.439 Y42.784
Z2
G1 Z1.8 F400
G3 X111.035 Y44.316 Z1.011 I-1.202 J0.766 F333.3
X113.439 Y42.784 Z0.221 I1.202 J-0.766
X111.035 Y44.316 Z-0.568 I-1.202 J0.766
X113.439 Y42.784 Z-1.358 I1.202 J-0.766
X113.662 Y43.55 Z-1.5 I-1.202 J0.766
G1 Y53.536 F400
G3 X113.343 Y53.855 I-0.319 J0
G1 X112.371
G3 X112.052 Y53.536 I0 J-0.319
G1 Y43.064
G3 X112.371 Y42.745 I0.319 J0
G1 X113.343
G3 X113.662 Y43.064 I0 J0.319
G1 Y43.55
G2 X114.86 Y45.347 I1.947 J0
G3 X116.059 Y47.145 I-0.749 J1.797
G1 Y55.932
G3 X115.739 Y56.252 I-0.319 J0
G1 X109.975
G3 X109.655 Y55.932 I0 J-0.319
G1 Y40.668
G3 X109.975 Y40.348 I0.319 J0
G1 X115.739
G3 X116.059 Y40.668 I0 J0.319
G1 Y47.145
G2 X117.257 Y48.942 I1.947 J0
G3 X118.455 Y50.74 I-0.749 J1.797
G1 Y58.329
G3 X118.136 Y58.648 I-0.319 J0
G1 X107.578
G3 X107.259 Y58.329 I0 J-0.319
G1 Y38.271
G3 X107.578 Y37.952 I0.319 J0
G1 X118.136
G3 X118.455 Y38.271 I0 J0.319
G1 Y50.74
G2 X119.656 Y52.541 I1.951 J0
G3 X120.857 Y54.342 I-0.751 J1.801
G1 Y61.05
X104.857
Y35.55
X120.857
Y54.342
G3 X118.02 Y54.535 Z-1.824 I-1.425 J0 F333.3
G1 X116.499 Y43.358 Z-2.676
G2 X113.662 Y43.55 Z-3 I-1.412 J0.192
G1 Y53.536 F400
G3 X113.343 Y53.855 I-0.319 J0
G1 X112.371
G3 X112.052 Y53.536 I0 J-0.319
G1 Y43.064
G3 X112.371 Y42.745 I0.319 J0
G1 X113.343
G3 X113.662 Y43.064 I0 J0.319
G1 Y43.55
G2 X114.86 Y45.347 I1.947 J0
G3 X116.059 Y47.145 I-0.749 J1.797
G1 Y55.932
G3 X115.739 Y56.252 I-0.319 J0
G1 X109.975
G3 X109.655 Y55.932 I0 J-0.319
G1 Y40.668
G3 X109.975 Y40.348 I0.319 J0
G1 X115.739
G3 X116.059 Y40.668 I0 J0.319
G1 Y47.145
G2 X117.257 Y48.942 I1.947 J0
G3 X118.455 Y50.74 I-0.749 J1.797
G1 Y58.329
G3 X118.136 Y58.648 I-0.319 J0
G1 X107.578
G3 X107.259 Y58.329 I0 J-0.319
G1 Y38.271
G3 X107.578 Y37.952 I0.319 J0
G1 X118.136
G3 X118.455 Y38.271 I0 J0.319
G1 Y50.74
G2 X119.656 Y52.541 I1.951 J0
G3 X120.857 Y54.342 I-0.751 J1.801
G1 Y61.05
X104.857
Y35.55
X120.857
Y54.342
G3 X118.02 Y54.535 Z-3.324 I-1.425 J0 F333.3
G1 X116.499 Y43.358 Z-4.176
G2 X113.662 Y43.55 Z-4.5 I-1.412 J0.192
G1 Y53.536 F400
G3 X113.343 Y53.855 I-0.319 J0
G1 X112.371
G3 X112.052 Y53.536 I0 J-0.319
G1 Y43.064
G3 X112.371 Y42.745 I0.319 J0
G1 X113.343
G3 X113.662 Y43.064 I0 J0.319
G1 Y43.55
G2 X114.86 Y45.347 I1.947 J0
G3 X116.059 Y47.145 I-0.749 J1.797
G1 Y55.932
G3 X115.739 Y56.252 I-0.319 J0
G1 X109.975
G3 X109.655 Y55.932 I0 J-0.319
G1 Y40.668
G3 X109.975 Y40.348 I0.319 J0
G1 X115.739
G3 X116.059 Y40.668 I0 J0.319
G1 Y47.145
G2 X117.257 Y48.942 I1.947 J0
G3 X118.455 Y50.74 I-0.749 J1.797
G1 Y58.329
G3 X118.136 Y58.648 I-0.319 J0
G1 X107.578
G3 X107.259 Y58.329 I0 J-0.319
G1 Y38.271
G3 X107.578 Y37.952 I0.319 J0
G1 X118.136
G3 X118.455 Y38.271 I0 J0.319
G1 Y50.74
G2 X119.656 Y52.541 I1.951 J0
G3 X120.857 Y54.342 I-0.751 J1.801
G1 Y61.05
X104.857
Y35.55
X120.857
Y54.342
G3 X118.02 Y54.535 Z-4.824 I-1.425 J0 F333.3
G1 X116.499 Y43.358 Z-5.676
G2 X113.662 Y43.55 Z-6 I-1.412 J0.192
G1 Y53.536 F400
G3 X113.343 Y53.855 I-0.319 J0
G1 X112.371
G3 X112.052 Y53.536 I0 J-0.319
G1 Y43.064
G3 X112.371 Y42.745 I0.319 J0
G1 X113.343
G3 X113.662 Y43.064 I0 J0.319
G1 Y43.55
G2 X114.86 Y45.347 I1.947 J0
G3 X116.059 Y47.145 I-0.749 J1.797
G1 Y55.932
G3 X115.739 Y56.252 I-0.319 J0
G1 X109.975
G3 X109.655 Y55.932 I0 J-0.319
G1 Y40.668
G3 X109.975 Y40.348 I0.319 J0
G1 X115.739
G3 X116.059 Y40.668 I0 J0.319
G1 Y47.145
G2 X117.257 Y48.942 I1.947 J0
G3 X118.455 Y50.74 I-0.749 J1.797
G1 Y58.329
G3 X118.136 Y58.648 I-0.319 J0
G1 X107.578
G3 X107.259 Y58.329 I0 J-0.319
G1 Y38.271
G3 X107.578 Y37.952 I0.319 J0
G1 X118.136
G3 X118.455 Y38.271 I0 J0.319
G1 Y50.74
G2 X119.656 Y52.541 I1.951 J0
G3 X120.857 Y54.342 I-0.751 J1.801
G1 Y61.05
X104.857
Y35.55
X120.857
Y54.342
G3 X118.02 Y54.535 Z-6.324 I-1.425 J0 F333.3
G1 X116.499 Y43.358 Z-7.176
G2 X113.662 Y43.55 Z-7.5 I-1.412 J0.192
G1 Y53.536 F400
G3 X113.343 Y53.855 I-0.319 J0
G1 X112.371
G3 X112.052 Y53.536 I0 J-0.319
G1 Y43.064
G3 X112.371 Y42.745 I0.319 J0
G1 X113.343
G3 X113.662 Y43.064 I0 J0.319
G1 Y43.55
G2 X114.86 Y45.347 I1.947 J0
G3 X116.059 Y47.145 I-0.749 J1.797
G1 Y55.932
G3 X115.739 Y56.252 I-0.319 J0
G1 X109.975
G3 X109.655 Y55.932 I0 J-0.319
G1 Y40.668
G3 X109.975 Y40.348 I0.319 J0
G1 X115.739
G3 X116.059 Y40.668 I0 J0.319
G1 Y47.145
G2 X117.257 Y48.942 I1.947 J0
G3 X118.455 Y50.74 I-0.749 J1.797
G1 Y58.329
G3 X118.136 Y58.648 I-0.319 J0
G1 X107.578
G3 X107.259 Y58.329 I0 J-0.319
G1 Y38.271
G3 X107.578 Y37.952 I0.319 J0
G1 X118.136
G3 X118.455 Y38.271 I0 J0.319
G1 Y50.74
G2 X119.656 Y52.541 I1.951 J0
G3 X120.857 Y54.342 I-0.751 J1.801
G1 Y61.05
X104.857
Y35.55
X120.857
Y54.342
G3 X118.02 Y54.535 Z-7.824 I-1.425 J0 F333.3
G1 X116.499 Y43.358 Z-8.676
G2 X113.662 Y43.55 Z-9 I-1.412 J0.192
G1 Y53.536 F400
G3 X113.343 Y53.855 I-0.319 J0
G1 X112.371
G3 X112.052 Y53.536 I0 J-0.319
G1 Y43.064
G3 X112.371 Y42.745 I0.319 J0
G1 X113.343
G3 X113.662 Y43.064 I0 J0.319
G1 Y43.55
G2 X114.86 Y45.347 I1.947 J0
G3 X116.059 Y47.145 I-0.749 J1.797
G1 Y55.932
G3 X115.739 Y56.252 I-0.319 J0
G1 X109.975
G3 X109.655 Y55.932 I0 J-0.319
G1 Y40.668
G3 X109.975 Y40.348 I0.319 J0
G1 X115.739
G3 X116.059 Y40.668 I0 J0.319
G1 Y47.145
G2 X117.257 Y48.942 I1.947 J0
G3 X118.455 Y50.74 I-0.749 J1.797
G1 Y58.329
G3 X118.136 Y58.648 I-0.319 J0
G1 X107.578
G3 X107.259 Y58.329 I0 J-0.319
G1 Y38.271
G3 X107.578 Y37.952 I0.319 J0
G1 X118.136
G3 X118.455 Y38.271 I0 J0.319
G1 Y50.74
G2 X119.656 Y52.541 I1.951 J0
G3 X120.857 Y54.342 I-0.751 J1.801
G1 Y61.05
X104.857
Y35.55
X120.857
Y54.342
G3 X118.02 Y54.535 Z-9.324 I-1.425 J0 F333.3
G1 X116.499 Y43.358 Z-10.176
G2 X113.662 Y43.55 Z-10.5 I-1.412 J0.192
G1 Y53.536 F400
G3 X113.343 Y53.855 I-0.319 J0
G1 X112.371
G3 X112.052 Y53.536 I0 J-0.319
G1 Y43.064
G3 X112.371 Y42.745 I0.319 J0
G1 X113.343
G3 X113.662 Y43.064 I0 J0.319
G1 Y43.55
G2 X114.86 Y45.347 I1.947 J0
G3 X116.059 Y47.145 I-0.749 J1.797
G1 Y55.932
G3 X115.739 Y56.252 I-0.319 J0
G1 X109.975
G3 X109.655 Y55.932 I0 J-0.319
G1 Y40.668
G3 X109.975 Y40.348 I0.319 J0
G1 X115.739
G3 X116.059 Y40.668 I0 J0.319
G1 Y47.145
G2 X117.257 Y48.942 I1.947 J0
G3 X118.455 Y50.74 I-0.749 J1.797
G1 Y58.329
G3 X118.136 Y58.648 I-0.319 J0
G1 X107.578
G3 X107.259 Y58.329 I0 J-0.319
G1 Y38.271
G3 X107.578 Y37.952 I0.319 J0
G1 X118.136
G3 X118.455 Y38.271 I0 J0.319
G1 Y50.74
G2 X119.656 Y52.541 I1.951 J0
G3 X120.857 Y54.342 I-0.751 J1.801
G1 Y61.05
X104.857
Y35.55
X120.857
Y54.342
G3 X118.02 Y54.535 Z-10.824 I-1.425 J0 F333.3
G1 X116.499 Y43.358 Z-11.676
G2 X113.662 Y43.55 Z-12 I-1.412 J0.192
G1 Y53.536 F400
G3 X113.343 Y53.855 I-0.319 J0
G1 X112.371
G3 X112.052 Y53.536 I0 J-0.319
G1 Y43.064
G3 X112.371 Y42.745 I0.319 J0
G1 X113.343
G3 X113.662 Y43.064 I0 J0.319
G1 Y43.55
G2 X114.86 Y45.347 I1.947 J0
G3 X116.059 Y47.145 I-0.749 J1.797
G1 Y55.932
G3 X115.739 Y56.252 I-0.319 J0
G1 X109.975
G3 X109.655 Y55.932 I0 J-0.319
G1 Y40.668
G3 X109.975 Y40.348 I0.319 J0
G1 X115.739
G3 X116.059 Y40.668 I0 J0.319
G1 Y47.145
G2 X117.257 Y48.942 I1.947 J0
G3 X118.455 Y50.74 I-0.749 J1.797
G1 Y58.329
G3 X118.136 Y58.648 I-0.319 J0
G1 X107.578
G3 X107.259 Y58.329 I0 J-0.319
G1 Y38.271
G3 X107.578 Y37.952 I0.319 J0
G1 X118.136
G3 X118.455 Y38.271 I0 J0.319
G1 Y50.74
G2 X119.656 Y52.541 I1.951 J0
G3 X120.857 Y54.342 I-0.751 J1.801
G1 Y61.05
X104.857
Y35.55
X120.857
Y54.342
G3 X118.02 Y54.535 Z-12.324 I-1.425 J0 F333.3
G1 X116.499 Y43.358 Z-13.176
G2 X113.662 Y43.55 Z-13.5 I-1.412 J0.192
G1 Y53.536 F400
G3 X113.343 Y53.855 I-0.319 J0
G1 X112.371
G3 X112.052 Y53.536 I0 J-0.319
G1 Y43.064
G3 X112.371 Y42.745 I0.319 J0
G1 X113.343
G3 X113.662 Y43.064 I0 J0.319
G1 Y43.55
G2 X114.86 Y45.347 I1.947 J0
G3 X116.059 Y47.145 I-0.749 J1.797
G1 Y55.932
G3 X115.739 Y56.252 I-0.319 J0
G1 X109.975
G3 X109.655 Y55.932 I0 J-0.319
G1 Y40.668
G3 X109.975 Y40.348 I0.319 J0
G1 X115.739
G3 X116.059 Y40.668 I0 J0.319
G1 Y47.145
G2 X117.257 Y48.942 I1.947 J0
G3 X118.455 Y50.74 I-0.749 J1.797
G1 Y58.329
G3 X118.136 Y58.648 I-0.319 J0
G1 X107.578
G3 X107.259 Y58.329 I0 J-0.319
G1 Y38.271
G3 X107.578 Y37.952 I0.319 J0
G1 X118.136
G3 X118.455 Y38.271 I0 J0.319
G1 Y50.74
G2 X119.656 Y52.541 I1.951 J0
G3 X120.857 Y54.342 I-0.751 J1.801
G1 Y61.05
X104.857
Y35.55
X120.857
Y54.342
G3 X118.02 Y54.535 Z-13.824 I-1.425 J0 F333.3
G1 X116.499 Y43.358 Z-14.676
G2 X113.662 Y43.55 Z-15 I-1.412 J0.192
G1 Y53.536 F400
G3 X113.343 Y53.855 I-0.319 J0
G1 X112.371
G3 X112.052 Y53.536 I0 J-0.319
G1 Y43.064
G3 X112.371 Y42.745 I0.319 J0
G1 X113.343
G3 X113.662 Y43.064 I0 J0.319
G1 Y43.55
G2 X114.86 Y45.347 I1.947 J0
G3 X116.059 Y47.145 I-0.749 J1.797
G1 Y55.932
G3 X115.739 Y56.252 I-0.319 J0
G1 X109.975
G3 X109.655 Y55.932 I0 J-0.319
G1 Y40.668
G3 X109.975 Y40.348 I0.319 J0
G1 X115.739
G3 X116.059 Y40.668 I0 J0.319
G1 Y47.145
G2 X117.257 Y48.942 I1.947 J0
G3 X118.455 Y50.74 I-0.749 J1.797
G1 Y58.329
G3 X118.136 Y58.648 I-0.319 J0
G1 X107.578
G3 X107.259 Y58.329 I0 J-0.319
G1 Y38.271
G3 X107.578 Y37.952 I0.319 J0
G1 X118.136
G3 X118.455 Y38.271 I0 J0.319
G1 Y50.74
G2 X119.656 Y52.541 I1.951 J0
G3 X120.857 Y54.342 I-0.751 J1.801
G1 Y61.05
X104.857
Y35.55
X120.857
Y54.342
G3 X118.02 Y54.535 Z-15.324 I-1.425 J0 F333.3
G1 X116.499 Y43.358 Z-16.176
G2 X113.662 Y43.55 Z-16.5 I-1.412 J0.192
G1 Y53.536 F400
G3 X113.343 Y53.855 I-0.319 J0
G1 X112.371
G3 X112.052 Y53.536 I0 J-0.319
G1 Y43.064
G3 X112.371 Y42.745 I0.319 J0
G1 X113.343
G3 X113.662 Y43.064 I0 J0.319
G1 Y43.55
G2 X114.86 Y45.347 I1.947 J0
G3 X116.059 Y47.145 I-0.749 J1.797
G1 Y55.932
G3 X115.739 Y56.252 I-0.319 J0
G1 X109.975
G3 X109.655 Y55.932 I0 J-0.319
G1 Y40.668
G3 X109.975 Y40.348 I0.319 J0
G1 X115.739
G3 X116.059 Y40.668 I0 J0.319
G1 Y47.145
G2 X117.257 Y48.942 I1.947 J0
G3 X118.455 Y50.74 I-0.749 J1.797
G1 Y58.329
G3 X118.136 Y58.648 I-0.319 J0
G1 X107.578
G3 X107.259 Y58.329 I0 J-0.319
G1 Y38.271
G3 X107.578 Y37.952 I0.319 J0
G1 X118.136
G3 X118.455 Y38.271 I0 J0.319
G1 Y50.74
G2 X119.656 Y52.541 I1.951 J0
G3 X120.857 Y54.342 I-0.751 J1.801
G1 Y61.05
X104.857
Y35.55
X120.857
Y54.342
G3 X118.02 Y54.535 Z-16.824 I-1.425 J0 F333.3
G1 X116.499 Y43.358 Z-17.676
G2 X113.662 Y43.55 Z-18 I-1.412 J0.192
G1 Y53.536 F400
G3 X113.343 Y53.855 I-0.319 J0
G1 X112.371
G3 X112.052 Y53.536 I0 J-0.319
G1 Y43.064
G3 X112.371 Y42.745 I0.319 J0
G1 X113.343
G3 X113.662 Y43.064 I0 J0.319
G1 Y43.55
G2 X114.86 Y45.347 I1.947 J0
G3 X116.059 Y47.145 I-0.749 J1.797
G1 Y55.932
G3 X115.739 Y56.252 I-0.319 J0
G1 X109.975
G3 X109.655 Y55.932 I0 J-0.319
G1 Y40.668
G3 X109.975 Y40.348 I0.319 J0
G1 X115.739
G3 X116.059 Y40.668 I0 J0.319
G1 Y47.145
G2 X117.257 Y48.942 I1.947 J0
G3 X118.455 Y50.74 I-0.749 J1.797
G1 Y58.329
G3 X118.136 Y58.648 I-0.319 J0
G1 X107.578
G3 X107.259 Y58.329 I0 J-0.319
G1 Y38.271
G3 X107.578 Y37.952 I0.319 J0
G1 X118.136
G3 X118.455 Y38.271 I0 J0.319
G1 Y50.74
G2 X119.656 Y52.541 I1.951 J0
G3 X120.857 Y54.342 I-0.751 J1.801
G1 Y61.05
X104.857
Y35.55
X120.857
Y54.342
G0 Z4
X139.337 Y53.632
Z2
G1 Z1.8 F400
G3 X137.805 Y51.228 Z1.011 I-0.766 J-1.202 F333.3
X139.337 Y53.632 Z0.221 I0.766 J1.202
X137.805 Y51.228 Z-0.568 I-0.766 J-1.202
X139.337 Y53.632 Z-1.358 I0.766 J1.202
X138.571 Y53.855 Z-1.5 I-0.766 J-1.202
G1 X138.085 F400
G3 X137.766 Y53.536 I0 J-0.319
G1 Y43.064
G3 X138.085 Y42.745 I0.319 J0
G1 X139.057
G3 X139.376 Y43.064 I0 J0.319
G1 Y53.536
G3 X139.057 Y53.855 I-0.319 J0
G1 X138.571
G2 X137.108 Y54.852 I0 J1.571
G3 X135.369 Y54.523 I-0.838 J-0.329
G1 Y40.668
G3 X135.689 Y40.348 I0.319 J0
G1 X141.453
G3 X141.773 Y40.668 I0 J0.319
G1 Y55.932
G3 X141.453 Y56.252 I-0.319 J0
G1 X135.689
G3 X135.369 Y55.932 I0 J-0.319
G1 Y54.523
G2 X134.171 Y52.726 I-1.947 J0
G3 X132.973 Y50.928 I0.749 J-1.797
G1 Y38.271
G3 X133.292 Y37.952 I0.319 J0
G1 X143.85
G3 X144.169 Y38.271 I0 J0.319
G1 Y58.329
G3 X143.85 Y58.648 I-0.319 J0
G1 X133.292
G3 X132.973 Y58.329 I0 J-0.319
G1 Y50.928
G2 X131.772 Y49.127 I-1.951 J0
G3 X130.571 Y47.326 I0.751 J-1.801
G1 Y35.55
X146.571
Y61.05
X130.571
Y47.326
G3 X132.87 Y46.2 Z-1.817 I1.425 J0 F333.3
G1 X139.445 Y51.304 Z-2.647
G3 X138.571 Y53.855 Z-3 I-0.874 J1.126
G1 X138.085 F400
G3 X137.766 Y53.536 I0 J-0.319
G1 Y43.064
G3 X138.085 Y42.745 I0.319 J0
G1 X139.057
G3 X139.376 Y43.064 I0 J0.319
G1 Y53.536
G3 X139.057 Y53.855 I-0.319 J0
G1 X138.571
G2 X137.108 Y54.852 I0 J1.571
G3 X135.369 Y54.523 I-0.838 J-0.329
G1 Y40.668
G3 X135.689 Y40.348 I0.319 J0
G1 X141.453
G3 X141.773 Y40.668 I0 J0.319
G1 Y55.932
G3 X141.453 Y56.252 I-0.319 J0
G1 X135.689
G3 X135.369 Y55.932 I0 J-0.319
G1 Y54.523
G2 X134.171 Y52.726 I-1.947 J0
G3 X132.973 Y50.928 I0.749 J-1.797
G1 Y38.271
G3 X133.292 Y37.952 I0.319 J0
G1 X143.85
G3 X144.169 Y38.271 I0 J0.319
G1 Y58.329
G3 X143.85 Y58.648 I-0.319 J0
G1 X133.292
G3 X132.973 Y58.329 I0 J-0.319
G1 Y50.928
G2 X131.772 Y49.127 I-1.951 J0
G3 X130.571 Y47.326 I0.751 J-1.801
G1 Y35.55
X146.571
Y61.05
X130.571
Y47.326
G3 X132.87 Y46.2 Z-3.317 I1.425 J0 F333.3
G1 X139.445 Y51.304 Z-4.147
G3 X138.571 Y53.855 Z-4.5 I-0.874 J1.126
G1 X138.085 F400
G3 X137.766 Y53.536 I0 J-0.319
G1 Y43.064
G3 X138.085 Y42.745 I0.319 J0
G1 X139.057
G3 X139.376 Y43.064 I0 J0.319
G1 Y53.536
G3 X139.057 Y53.855 I-0.319 J0
G1 X138.571
G2 X137.108 Y54.852 I0 J1.571
G3 X135.369 Y54.523 I-0.838 J-0.329
G1 Y40.668
G3 X135.689 Y40.348 I0.319 J0
G1 X141.453
G3 X141.773 Y40.668 I0 J0.319
G1 Y55.932
G3 X141.453 Y56.252 I-0.319 J0
G1 X135.689
G3 X135.369 Y55.932 I0 J-0.319
G1 Y54.523
G2 X134.171 Y52.726 I-1.947 J0
G3 X132.973 Y50.928 I0.749 J-1.797
G1 Y38.271
G3 X133.292 Y37.952 I0.319 J0
G1 X143.85
G3 X144.169 Y38.271 I0 J0.319
G1 Y58.329
G3 X143.85 Y58.648 I-0.319 J0
G1 X133.292
G3 X132.973 Y58.329 I0 J-0.319
G1 Y50.928
G2 X131.772 Y49.127 I-1.951 J0
G3 X130.571 Y47.326 I0.751 J-1.801
G1 Y35.55
X146.571
Y61.05
X130.571
Y47.326
G3 X132.87 Y46.2 Z-4.817 I1.425 J0 F333.3
G1 X139.445 Y51.304 Z-5.647
G3 X138.571 Y53.855 Z-6 I-0.874 J1.126
G1 X138.085 F400
G3 X137.766 Y53.536 I0 J-0.319
G1 Y43.064
G3 X138.085 Y42.745 I0.319 J0
G1 X139.057
G3 X139.376 Y43.064 I0 J0.319
G1 Y53.536
G3 X139.057 Y53.855 I-0.319 J0
G1 X138.571
G2 X137.108 Y54.852 I0 J1.571
G3 X135.369 Y54.523 I-0.838 J-0.329
G1 Y40.668
G3 X135.689 Y40.348 I0.319 J0
G1 X141.453
G3 X141.773 Y40.668 I0 J0.319
G1 Y55.932
G3 X141.453 Y56.252 I-0.319 J0
G1 X135.689
G3 X135.369 Y55.932 I0 J-0.319
G1 Y54.523
G2 X134.171 Y52.726 I-1.947 J0
G3 X132.973 Y50.928 I0.749 J-1.797
G1 Y38.271
G3 X133.292 Y37.952 I0.319 J0
G1 X143.85
G3 X144.169 Y38.271 I0 J0.319
G1 Y58.329
G3 X143.85 Y58.648 I-0.319 J0
G1 X133.292
G3 X132.973 Y58.329 I0 J-0.319
G1 Y50.928
G2 X131.772 Y49.127 I-1.951 J0
G3 X130.571 Y47.326 I0.751 J-1.801
G1 Y35.55
X146.571
Y61.05
X130.571
Y47.326
G3 X132.87 Y46.2 Z-6.317 I1.425 J0 F333.3
G1 X139.445 Y51.304 Z-7.147
G3 X138.571 Y53.855 Z-7.5 I-0.874 J1.126
G1 X138.085 F400
G3 X137.766 Y53.536 I0 J-0.319
G1 Y43.064
G3 X138.085 Y42.745 I0.319 J0
G1 X139.057
G3 X139.376 Y43.064 I0 J0.319
G1 Y53.536
G3 X139.057 Y53.855 I-0.319 J0
G1 X138.571
G2 X137.108 Y54.852 I0 J1.571
G3 X135.369 Y54.523 I-0.838 J-0.329
G1 Y40.668
G3 X135.689 Y40.348 I0.319 J0
G1 X141.453
G3 X141.773 Y40.668 I0 J0.319
G1 Y55.932
G3 X141.453 Y56.252 I-0.319 J0
G1 X135.689
G3 X135.369 Y55.932 I0 J-0.319
G1 Y54.523
G2 X134.171 Y52.726 I-1.947 J0
G3 X132.973 Y50.928 I0.749 J-1.797
G1 Y38.271
G3 X133.292 Y37.952 I0.319 J0
G1 X143.85
G3 X144.169 Y38.271 I0 J0.319
G1 Y58.329
G3 X143.85 Y58.648 I-0.319 J0
G1 X133.292
G3 X132.973 Y58.329 I0 J-0.319
G1 Y50.928
G2 X131.772 Y49.127 I-1.951 J0
G3 X130.571 Y47.326 I0.751 J-1.801
G1 Y35.55
X146.571
Y61.05
X130.571
Y47.326
G3 X132.87 Y46.2 Z-7.817 I1.425 J0 F333.3
G1 X139.445 Y51.304 Z-8.647
G3 X138.571 Y53.855 Z-9 I-0.874 J1.126
G1 X138.085 F400
G3 X137.766 Y53.536 I0 J-0.319
G1 Y43.064
G3 X138.085 Y42.745 I0.319 J0
G1 X139.057
G3 X139.376 Y43.064 I0 J0.319
G1 Y53.536
G3 X139.057 Y53.855 I-0.319 J0
G1 X138.571
G2 X137.108 Y54.852 I0 J1.571
G3 X135.369 Y54.523 I-0.838 J-0.329
G1 Y40.668
G3 X135.689 Y40.348 I0.319 J0
G1 X141.453
G3 X141.773 Y40.668 I0 J0.319
G1 Y55.932
G3 X141.453 Y56.252 I-0.319 J0
G1 X135.689
G3 X135.369 Y55.932 I0 J-0.319
G1 Y54.523
G2 X134.171 Y52.726 I-1.947 J0
G3 X132.973 Y50.928 I0.749 J-1.797
G1 Y38.271
G3 X133.292 Y37.952 I0.319 J0
G1 X143.85
G3 X144.169 Y38.271 I0 J0.319
G1 Y58.329
G3 X143.85 Y58.648 I-0.319 J0
G1 X133.292
G3 X132.973 Y58.329 I0 J-0.319
G1 Y50.928
G2 X131.772 Y49.127 I-1.951 J0
G3 X130.571 Y47.326 I0.751 J-1.801
G1 Y35.55
X146.571
Y61.05
X130.571
Y47.326
G3 X132.87 Y46.2 Z-9.317 I1.425 J0 F333.3
G1 X139.445 Y51.304 Z-10.147
G3 X138.571 Y53.855 Z-10.5 I-0.874 J1.126
G1 X138.085 F400
G3 X137.766 Y53.536 I0 J-0.319
G1 Y43.064
G3 X138.085 Y42.745 I0.319 J0
G1 X139.057
G3 X139.376 Y43.064 I0 J0.319
G1 Y53.536
G3 X139.057 Y53.855 I-0.319 J0
G1 X138.571
G2 X137.108 Y54.852 I0 J1.571
G3 X135.369 Y54.523 I-0.838 J-0.329
G1 Y40.668
G3 X135.689 Y40.348 I0.319 J0
G1 X141.453
G3 X141.773 Y40.668 I0 J0.319
G1 Y55.932
G3 X141.453 Y56.252 I-0.319 J0
G1 X135.689
G3 X135.369 Y55.932 I0 J-0.319
G1 Y54.523
G2 X134.171 Y52.726 I-1.947 J0
G3 X132.973 Y50.928 I0.749 J-1.797
G1 Y38.271
G3 X133.292 Y37.952 I0.319 J0
G1 X143.85
G3 X144.169 Y38.271 I0 J0.319
G1 Y58.329
G3 X143.85 Y58.648 I-0.319 J0
G1 X133.292
G3 X132.973 Y58.329 I0 J-0.319
G1 Y50.928
G2 X131.772 Y49.127 I-1.951 J0
G3 X130.571 Y47.326 I0.751 J-1.801
G1 Y35.55
X146.571
Y61.05
X130.571
Y47.326
G3 X132.87 Y46.2 Z-10.817 I1.425 J0 F333.3
G1 X139.445 Y51.304 Z-11.647
G3 X138.571 Y53.855 Z-12 I-0.874 J1.126
G1 X138.085 F400
G3 X137.766 Y53.536 I0 J-0.319
G1 Y43.064
G3 X138.085 Y42.745 I0.319 J0
G1 X139.057
G3 X139.376 Y43.064 I0 J0.319
G1 Y53.536
G3 X139.057 Y53.855 I-0.319 J0
G1 X138.571
G2 X137.108 Y54.852 I0 J1.571
G3 X135.369 Y54.523 I-0.838 J-0.329
G1 Y40.668
G3 X135.689 Y40.348 I0.319 J0
G1 X141.453
G3 X141.773 Y40.668 I0 J0.319
G1 Y55.932
G3 X141.453 Y56.252 I-0.319 J0
G1 X135.689
G3 X135.369 Y55.932 I0 J-0.319
G1 Y54.523
G2 X134.171 Y52.726 I-1.947 J0
G3 X132.973 Y50.928 I0.749 J-1.797
G1 Y38.271
G3 X133.292 Y37.952 I0.319 J0
G1 X143.85
G3 X144.169 Y38.271 I0 J0.319
G1 Y58.329
G3 X143.85 Y58.648 I-0.319 J0
G1 X133.292
G3 X132.973 Y58.329 I0 J-0.319
G1 Y50.928
G2 X131.772 Y49.127 I-1.951 J0
G3 X130.571 Y47.326 I0.751 J-1.801
G1 Y35.55
X146.571
Y61.05
X130.571
Y47.326
G3 X132.87 Y46.2 Z-12.317 I1.425 J0 F333.3
G1 X139.445 Y51.304 Z-13.147
G3 X138.571 Y53.855 Z-13.5 I-0.874 J1.126
G1 X138.085 F400
G3 X137.766 Y53.536 I0 J-0.319
G1 Y43.064
G3 X138.085 Y42.745 I0.319 J0
G1 X139.057
G3 X139.376 Y43.064 I0 J0.319
G1 Y53.536
G3 X139.057 Y53.855 I-0.319 J0
G1 X138.571
G2 X137.108 Y54.852 I0 J1.571
G3 X135.369 Y54.523 I-0.838 J-0.329
G1 Y40.668
G3 X135.689 Y40.348 I0.319 J0
G1 X141.453
G3 X141.773 Y40.668 I0 J0.319
G1 Y55.932
G3 X141.453 Y56.252 I-0.319 J0
G1 X135.689
G3 X135.369 Y55.932 I0 J-0.319
G1 Y54.523
G2 X134.171 Y52.726 I-1.947 J0
G3 X132.973 Y50.928 I0.749 J-1.797
G1 Y38.271
G3 X133.292 Y37.952 I0.319 J0
G1 X143.85
G3 X144.169 Y38.271 I0 J0.319
G1 Y58.329
G3 X143.85 Y58.648 I-0.319 J0
G1 X133.292
G3 X132.973 Y58.329 I0 J-0.319
G1 Y50.928
G2 X131.772 Y49.127 I-1.951 J0
G3 X130.571 Y47.326 I0.751 J-1.801
G1 Y35.55
X146.571
Y61.05
X130.571
Y47.326
G3 X132.87 Y46.2 Z-13.817 I1.425 J0 F333.3
G1 X139.445 Y51.304 Z-14.647
G3 X138.571 Y53.855 Z-15 I-0.874 J1.126
G1 X138.085 F400
G3 X137.766 Y53.536 I0 J-0.319
G1 Y43.064
G3 X138.085 Y42.745 I0.319 J0
G1 X139.057
G3 X139.376 Y43.064 I0 J0.319
G1 Y53.536
G3 X139.057 Y53.855 I-0.319 J0
G1 X138.571
G2 X137.108 Y54.852 I0 J1.571
G3 X135.369 Y54.523 I-0.838 J-0.329
G1 Y40.668
G3 X135.689 Y40.348 I0.319 J0
G1 X141.453
G3 X141.773 Y40.668 I0 J0.319
G1 Y55.932
G3 X141.453 Y56.252 I-0.319 J0
G1 X135.689
G3 X135.369 Y55.932 I0 J-0.319
G1 Y54.523
G2 X134.171 Y52.726 I-1.947 J0
G3 X132.973 Y50.928 I0.749 J-1.797
G1 Y38.271
G3 X133.292 Y37.952 I0.319 J0
G1 X143.85
G3 X144.169 Y38.271 I0 J0.319
G1 Y58.329
G3 X143.85 Y58.648 I-0.319 J0
G1 X133.292
G3 X132.973 Y58.329 I0 J-0.319
G1 Y50.928
G2 X131.772 Y49.127 I-1.951 J0
G3 X130.571 Y47.326 I0.751 J-1.801
G1 Y35.55
X146.571
Y61.05
X130.571
Y47.326
G3 X132.87 Y46.2 Z-15.317 I1.425 J0 F333.3
G1 X139.445 Y51.304 Z-16.147
G3 X138.571 Y53.855 Z-16.5 I-0.874 J1.126
G1 X138.085 F400
G3 X137.766 Y53.536 I0 J-0.319
G1 Y43.064
G3 X138.085 Y42.745 I0.319 J0
G1 X139.057
G3 X139.376 Y43.064 I0 J0.319
G1 Y53.536
G3 X139.057 Y53.855 I-0.319 J0
G1 X138.571
G2 X137.108 Y54.852 I0 J1.571
G3 X135.369 Y54.523 I-0.838 J-0.329
G1 Y40.668
G3 X135.689 Y40.348 I0.319 J0
G1 X141.453
G3 X141.773 Y40.668 I0 J0.319
G1 Y55.932
G3 X141.453 Y56.252 I-0.319 J0
G1 X135.689
G3 X135.369 Y55.932 I0 J-0.319
G1 Y54.523
G2 X134.171 Y52.726 I-1.947 J0
G3 X132.973 Y50.928 I0.749 J-1.797
G1 Y38.271
G3 X133.292 Y37.952 I0.319 J0
G1 X143.85
G3 X144.169 Y38.271 I0 J0.319
G1 Y58.329
G3 X143.85 Y58.648 I-0.319 J0
G1 X133.292
G3 X132.973 Y58.329 I0 J-0.319
G1 Y50.928
G2 X131.772 Y49.127 I-1.951 J0
G3 X130.571 Y47.326 I0.751 J-1.801
G1 Y35.55
X146.571
Y61.05
X130.571
Y47.326
G3 X132.87 Y46.2 Z-16.817 I1.425 J0 F333.3
G1 X139.445 Y51.304 Z-17.647
G3 X138.571 Y53.855 Z-18 I-0.874 J1.126
G1 X138.085 F400
G3 X137.766 Y53.536 I0 J-0.319
G1 Y43.064
G3 X138.085 Y42.745 I0.319 J0
G1 X139.057
G3 X139.376 Y43.064 I0 J0.319
G1 Y53.536
G3 X139.057 Y53.855 I-0.319 J0
G1 X138.571
G2 X137.108 Y54.852 I0 J1.571
G3 X135.369 Y54.523 I-0.838 J-0.329
G1 Y40.668
G3 X135.689 Y40.348 I0.319 J0
G1 X141.453
G3 X141.773 Y40.668 I0 J0.319
G1 Y55.932
G3 X141.453 Y56.252 I-0.319 J0
G1 X135.689
G3 X135.369 Y55.932 I0 J-0.319
G1 Y54.523
G2 X134.171 Y52.726 I-1.947 J0
G3 X132.973 Y50.928 I0.749 J-1.797
G1 Y38.271
G3 X133.292 Y37.952 I0.319 J0
G1 X143.85
G3 X144.169 Y38.271 I0 J0.319
G1 Y58.329
G3 X143.85 Y58.648 I-0.319 J0
G1 X133.292
G3 X132.973 Y58.329 I0 J-0.319
G1 Y50.928
G2 X131.772 Y49.127 I-1.951 J0
G3 X130.571 Y47.326 I0.751 J-1.801
G1 Y35.55
X146.571
Y61.05
X130.571
Y47.326
G0 Z4
X137.805 Y75.168
Z2
G1 Z1.8 F400
G3 X139.337 Y77.572 Z1.011 I0.766 J1.202 F333.3
X137.805 Y75.168 Z0.221 I-0.766 J-1.202
X139.337 Y77.572 Z-0.568 I0.766 J1.202
X137.805 Y75.168 Z-1.358 I-0.766 J-1.202
X138.571 Y74.945 Z-1.5 I0.766 J1.202
G1 X139.057 F400
G3 X139.376 Y75.264 I0 J0.319
G1 Y85.736
G3 X139.057 Y86.055 I-0.319 J0
G1 X138.085
G3 X137.766 Y85.736 I0 J-0.319
G1 Y75.264
G3 X138.085 Y74.945 I0.319 J0
G1 X138.571
G2 X140.034 Y73.948 I0 J-1.571
G3 X141.773 Y74.277 I0.838 J0.329
G1 Y88.132
G3 X141.453 Y88.452 I-0.319 J0
G1 X135.689
G3 X135.369 Y88.132 I0 J-0.319
G1 Y72.868
G3 X135.689 Y72.548 I0.319 J0
G1 X141.453
G3 X141.773 Y72.868 I0 J0.319
G1 Y74.277
G2 X142.971 Y76.074 I1.947 J0
G3 X144.169 Y77.872 I-0.749 J1.797
G1 Y90.529
G3 X143.85 Y90.848 I-0.319 J0
G1 X133.292
G3 X132.973 Y90.529 I0 J-0.319
G1 Y70.471
G3 X133.292 Y70.152 I0.319 J0
G1 X143.85
G3 X144.169 Y70.471 I0 J0.319
G1 Y77.872
G2 X145.37 Y79.673 I1.951 J0
G3 X146.571 Y81.474 I-0.751 J1.801
G1 Y93.25
X130.571
Y67.75
X146.571
Y81.474
G3 X144.272 Y82.6 Z-1.817 I-1.425 J0 F333.3
G1 X137.697 Y77.496 Z-2.647
G3 X138.571 Y74.945 Z-3 I0.874 J-1.126
G1 X139.057 F400
G3 X139.376 Y75.264 I0 J0.319
G1 Y85.736
G3 X139.057 Y86.055 I-0.319 J0
G1 X138.085
G3 X137.766 Y85.736 I0 J-0.319
G1 Y75.264
G3 X138.085 Y74.945 I0.319 J0
G1 X138.571
G2 X140.034 Y73.948 I0 J-1.571
G3 X141.773 Y74.277 I0.838 J0.329
G1 Y88.132
G3 X141.453 Y88.452 I-0.319 J0
G1 X135.689
G3 X135.369 Y88.132 I0 J-0.319
G1 Y72.868
G3 X135.689 Y72.548 I0.319 J0
G1 X141.453
G3 X141.773 Y72.868 I0 J0.319
G1 Y74.277
G2 X142.971 Y76.074 I1.947 J0
G3 X144.169 Y77.872 I-0.749 J1.797
G1 Y90.529
G3 X143.85 Y90.848 I-0.319 J0
G1 X133.292
G3 X132.973 Y90.529 I0 J-0.319
G1 Y70.471
G3 X133.292 Y70.152 I0.319 J0
G1 X143.85
G3 X144.169 Y70.471 I0 J0.319
G1 Y77.872
G2 X145.37 Y79.673 I1.951 J0
G3 X146.571 Y81.474 I-0.751 J1.801
G1 Y93.25
X130.571
Y67.75
X146.571
Y81.474
G3 X144.272 Y82.6 Z-3.317 I-1.425 J0 F333.3
G1 X137.697 Y77.496 Z-4.147
G3 X138.571 Y74.945 Z-4.5 I0.874 J-1.126
G1 X139.057 F400
G3 X139.376 Y75.264 I0 J0.319
G1 Y85.736
G3 X139.057 Y86.055 I-0.319 J0
G1 X138.085
G3 X137.766 Y85.736 I0 J-0.319
G1 Y75.264
G3 X138.085 Y74.945 I0.319 J0
G1 X138.571
G2 X140.034 Y73.948 I0 J-1.571
G3 X141.773 Y74.277 I0.838 J0.329
G1 Y88.132
G3 X141.453 Y88.452 I-0.319 J0
G1 X135.689
G3 X135.369 Y88.132 I0 J-0.319
G1 Y72.868
G3 X135.689 Y72.548 I0.319 J0
G1 X141.453
G3 X141.773 Y72.868 I0 J0.319
G1 Y74.277
G2 X142.971 Y76.074 I1.947 J0
G3 X144.169 Y77.872 I-0.749 J1.797
G1 Y90.529
G3 X143.85 Y90.848 I-0.319 J0
G1 X133.292
G3 X132.973 Y90.529 I0 J-0.319
G1 Y70.471
G3 X133.292 Y70.152 I0.319 J0
G1 X143.85
G3 X144.169 Y70.471 I0 J0.319
G1 Y77.872
G2 X145.37 Y79.673 I1.951 J0
G3 X146.571 Y81.474 I-0.751 J1.801
G1 Y93.25
X130.571
Y67.75
X146.571
Y81.474
G3 X144.272 Y82.6 Z-4.817 I-1.425 J0 F333.3
G1 X137.697 Y77.496 Z-5.647
G3 X138.571 Y74.945 Z-6 I0.874 J-1.126
G1 X139.057 F400
G3 X139.376 Y75.264 I0 J0.319
G1 Y85.736
G3 X139.057 Y86.055 I-0.319 J0
G1 X138.085
G3 X137.766 Y85.736 I0 J-0.319
G1 Y75.264
G3 X138.085 Y74.945 I0.319 J0
G1 X138.571
G2 X140.034 Y73.948 I0 J-1.571
G3 X141.773 Y74.277 I0.838 J0.329
G1 Y88.132
G3 X141.453 Y88.452 I-0.319 J0
G1 X135.689
G3 X135.369 Y88.132 I0 J-0.319
G1 Y72.868
G3 X135.689 Y72.548 I0.319 J0
G1 X141.453
G3 X141.773 Y72.868 I0 J0.319
G1 Y74.277
G2 X142.971 Y76.074 I1.947 J0
G3 X144.169 Y77.872 I-0.749 J1.797
G1 Y90.529
G3 X143.85 Y90.848 I-0.319 J0
G1 X133.292
G3 X132.973 Y90.529 I0 J-0.319
G1 Y70.471
G3 X133.292 Y70.152 I0.319 J0
G1 X143.85
G3 X144.169 Y70.471 I0 J0.319
G1 Y77.872
G2 X145.37 Y79.673 I1.951 J0
G3 X146.571 Y81.474 I-0.751 J1.801
G1 Y93.25
X130.571
Y67.75
X146.571
Y81.474
G3 X144.272 Y82.6 Z-6.317 I-1.425 J0 F333.3
G1 X137.697 Y77.496 Z-7.147
G3 X138.571 Y74.945 Z-7.5 I0.874 J-1.126
G1 X139.057 F400
G3 X139.376 Y75.264 I0 J0.319
G1 Y85.736
G3 X139.057 Y86.055 I-0.319 J0
G1 X138.085
G3 X137.766 Y85.736 I0 J-0.319
G1 Y75.264
G3 X138.085 Y74.945 I0.319 J0
G1 X138.571
G2 X140.034 Y73.948 I0 J-1.571
G3 X141.773 Y74.277 I0.838 J0.329
G1 Y88.132
G3 X141.453 Y88.452 I-0.319 J0
G1 X135.689
G3 X135.369 Y88.132 I0 J-0.319
G1 Y72.868
G3 X135.689 Y72.548 I0.319 J0
G1 X141.453
G3 X141.773 Y72.868 I0 J0.319
G1 Y74.277
G2 X142.971 Y76.074 I1.947 J0
G3 X144.169 Y77.872 I-0.749 J1.797
G1 Y90.529
G3 X143.85 Y90.848 I-0.319 J0
G1 X133.292
G3 X132.973 Y90.529 I0 J-0.319
G1 Y70.471
G3 X133.292 Y70.152 I0.319 J0
G1 X143.85
G3 X144.169 Y70.471 I0 J0.319
G1 Y77.872
G2 X145.37 Y79.673 I1.951 J0
G3 X146.571 Y81.474 I-0.751 J1.801
G1 Y93.25
X130.571
Y67.75
X146.571
Y81.474
G3 X144.272 Y82.6 Z-7.817 I-1.425 J0 F333.3
G1 X137.697 Y77.496 Z-8.647
