(1001)
(Machine)
(  vendor: Autodesk)
(  description: Generic 3-axis)
(T5  D=1.5 CR=0 - ZMIN=-7.6 - flat end mill)
G90 G94
G17
G21

(2D Contour5)
T5
S5000 M3
G54
M8
G0 X10.975 Y12.674
Z15
Z5
G1 Z1.3 F333.3
Z-0.3
G3 X9.742 Y9.674 I-0.009 J-1.75 F1000
G1 X12.191
G3 X10.975 Y12.674 I-1.225 J1.25
G1 Z-0.6 F333.3
G3 X9.742 Y9.674 I-0.009 J-1.75 F1000
G1 X12.191
G3 X10.975 Y12.674 I-1.225 J1.25
G1 Z-0.9 F333.3
G3 X9.742 Y9.674 I-0.009 J-1.75 F1000
G1 X12.191
G3 X10.975 Y12.674 I-1.225 J1.25
G1 Z-1.2 F333.3
G3 X9.742 Y9.674 I-0.009 J-1.75 F1000
G1 X12.191
G3 X10.975 Y12.674 I-1.225 J1.25
G1 Z-1.5 F333.3
G3 X9.742 Y9.674 I-0.009 J-1.75 F1000
G1 X12.191
G3 X10.975 Y12.674 I-1.225 J1.25
G1 Z-1.8 F333.3
G3 X9.742 Y9.674 I-0.009 J-1.75 F1000
G1 X12.191
G3 X10.975 Y12.674 I-1.225 J1.25
G1 Z-2.1 F333.3
G3 X9.742 Y9.674 I-0.009 J-1.75 F1000
G1 X12.191
G3 X10.975 Y12.674 I-1.225 J1.25
G1 Z-2.4 F333.3
G3 X9.742 Y9.674 I-0.009 J-1.75 F1000
G1 X12.191
G3 X10.975 Y12.674 I-1.225 J1.25
G1 Z-2.7 F333.3
G3 X9.742 Y9.674 I-0.009 J-1.75 F1000
G1 X12.191
G3 X10.975 Y12.674 I-1.225 J1.25
G1 Z-3 F333.3
G3 X9.742 Y9.674 I-0.009 J-1.75 F1000
G1 X12.191
G3 X10.975 Y12.674 I-1.225 J1.25
G1 Z-3.3 F333.3
G3 X9.742 Y9.674 I-0.009 J-1.75 F1000
G1 X12.191
G3 X10.975 Y12.674 I-1.225 J1.25
G1 Z-3.6 F333.3
G3 X9.742 Y9.674 I-0.009 J-1.75 F1000
G1 X12.191
G3 X10.975 Y12.674 I-1.225 J1.25
G1 Z-3.9 F333.3
G3 X9.742 Y9.674 I-0.009 J-1.75 F1000
G1 X12.191
G3 X10.975 Y12.674 I-1.225 J1.25
G1 Z-4.2 F333.3
G3 X9.742 Y9.674 I-0.009 J-1.75 F1000
G1 X12.191
G3 X10.975 Y12.674 I-1.225 J1.25
G1 Z-4.5 F333.3
G3 X9.742 Y9.674 I-0.009 J-1.75 F1000
G1 X12.191
G3 X10.975 Y12.674 I-1.225 J1.25
G1 Z-4.8 F333.3
G3 X9.742 Y9.674 I-0.009 J-1.75 F1000
G1 X12.191
G3 X10.975 Y12.674 I-1.225 J1.25
G1 Z-5.1 F333.3
G3 X9.742 Y9.674 I-0.009 J-1.75 F1000
G1 X12.191
G3 X10.975 Y12.674 I-1.225 J1.25
G1 Z-5.4 F333.3
G3 X9.742 Y9.674 I-0.009 J-1.75 F1000
G1 X12.191
G3 X10.975 Y12.674 I-1.225 J1.25
G1 Z-5.7 F333.3
G3 X9.742 Y9.674 I-0.009 J-1.75 F1000
G1 X12.191
G3 X10.975 Y12.674 I-1.225 J1.25
G1 Z-6 F333.3
G3 X9.742 Y9.674 I-0.009 J-1.75 F1000
G1 X12.191
G3 X10.975 Y12.674 I-1.225 J1.25
G1 Z-6.3 F333.3
G3 X9.742 Y9.674 I-0.009 J-1.75 F1000
G1 X12.191
G3 X10.975 Y12.674 I-1.225 J1.25
G1 Z-6.6 F333.3
G3 X9.742 Y9.674 I-0.009 J-1.75 F1000
G1 X12.191
G3 X10.975 Y12.674 I-1.225 J1.25
G1 Z-6.9 F333.3
G3 X9.742 Y9.674 I-0.009 J-1.75 F1000
G1 X12.191
G3 X10.975 Y12.674 I-1.225 J1.25
G1 Z-7.2 F333.3
G3 X9.742 Y9.674 I-0.009 J-1.75 F1000
G1 X12.191
G3 X10.975 Y12.674 I-1.225 J1.25
G1 Z-7.5 F333.3
G3 X9.742 Y9.674 I-0.009 J-1.75 F1000
G1 X12.191
G3 X10.975 Y12.674 I-1.225 J1.25
G1 Z-7.6 F333.3
G3 X9.742 Y9.674 I-0.009 J-1.75 F1000
G1 X12.191
G3 X10.975 Y12.674 I-1.225 J1.25
G0 Z5
X33.966 Y11.674
G1 Z1.3 F333.3
Z-0.3
X33.385 F1000
G3 X33.385 Y10.174 I1.581 J-0.75
G1 X36.548
G3 X36.548 Y11.674 I-1.581 J0.75
G1 X33.966
Z-0.6 F333.3
X33.385 F1000
G3 X33.385 Y10.174 I1.581 J-0.75
G1 X36.548
G3 X36.548 Y11.674 I-1.581 J0.75
G1 X33.966
Z-0.9 F333.3
X33.385 F1000
G3 X33.385 Y10.174 I1.581 J-0.75
G1 X36.548
G3 X36.548 Y11.674 I-1.581 J0.75
G1 X33.966
Z-1.2 F333.3
X33.385 F1000
G3 X33.385 Y10.174 I1.581 J-0.75
G1 X36.548
G3 X36.548 Y11.674 I-1.581 J0.75
G1 X33.966
Z-1.5 F333.3
X33.385 F1000
G3 X33.385 Y10.174 I1.581 J-0.75
G1 X36.548
G3 X36.548 Y11.674 I-1.581 J0.75
G1 X33.966
Z-1.8 F333.3
X33.385 F1000
G3 X33.385 Y10.174 I1.581 J-0.75
G1 X36.548
G3 X36.548 Y11.674 I-1.581 J0.75
G1 X33.966
Z-2.1 F333.3
X33.385 F1000
G3 X33.385 Y10.174 I1.581 J-0.75
G1 X36.548
G3 X36.548 Y11.674 I-1.581 J0.75
G1 X33.966
Z-2.4 F333.3
X33.385 F1000
G3 X33.385 Y10.174 I1.581 J-0.75
G1 X36.548
G3 X36.548 Y11.674 I-1.581 J0.75
G1 X33.966
Z-2.7 F333.3
X33.385 F1000
G3 X33.385 Y10.174 I1.581 J-0.75
G1 X36.548
G3 X36.548 Y11.674 I-1.581 J0.75
G1 X33.966
Z-3 F333.3
X33.385 F1000
G3 X33.385 Y10.174 I1.581 J-0.75
G1 X36.548
G3 X36.548 Y11.674 I-1.581 J0.75
G1 X33.966
Z-3.3 F333.3
X33.385 F1000
G3 X33.385 Y10.174 I1.581 J-0.75
G1 X36.548
G3 X36.548 Y11.674 I-1.581 J0.75
G1 X33.966
Z-3.6 F333.3
X33.385 F1000
G3 X33.385 Y10.174 I1.581 J-0.75
G1 X36.548
G3 X36.548 Y11.674 I-1.581 J0.75
G1 X33.966
Z-3.9 F333.3
X33.385 F1000
G3 X33.385 Y10.174 I1.581 J-0.75
G1 X36.548
G3 X36.548 Y11.674 I-1.581 J0.75
G1 X33.966
Z-4.2 F333.3
X33.385 F1000
G3 X33.385 Y10.174 I1.581 J-0.75
G1 X36.548
G3 X36.548 Y11.674 I-1.581 J0.75
G1 X33.966
Z-4.5 F333.3
X33.385 F1000
G3 X33.385 Y10.174 I1.581 J-0.75
G1 X36.548
G3 X36.548 Y11.674 I-1.581 J0.75
G1 X33.966
Z-4.8 F333.3
X33.385 F1000
G3 X33.385 Y10.174 I1.581 J-0.75
G1 X36.548
G3 X36.548 Y11.674 I-1.581 J0.75
G1 X33.966
Z-5.1 F333.3
X33.385 F1000
G3 X33.385 Y10.174 I1.581 J-0.75
G1 X36.548
G3 X36.548 Y11.674 I-1.581 J0.75
G1 X33.966
Z-5.4 F333.3
X33.385 F1000
G3 X33.385 Y10.174 I1.581 J-0.75
G1 X36.548
G3 X36.548 Y11.674 I-1.581 J0.75
G1 X33.966
Z-5.7 F333.3
X33.385 F1000
G3 X33.385 Y10.174 I1.581 J-0.75
G1 X36.548
G3 X36.548 Y11.674 I-1.581 J0.75
G1 X33.966
Z-6 F333.3
X33.385 F1000
G3 X33.385 Y10.174 I1.581 J-0.75
G1 X36.548
G3 X36.548 Y11.674 I-1.581 J0.75
G1 X33.966
Z-6.3 F333.3
X33.385 F1000
G3 X33.385 Y10.174 I1.581 J-0.75
G1 X36.548
G3 X36.548 Y11.674 I-1.581 J0.75
G1 X33.966
Z-6.6 F333.3
X33.385 F1000
G3 X33.385 Y10.174 I1.581 J-0.75
G1 X36.548
G3 X36.548 Y11.674 I-1.581 J0.75
G1 X33.966
Z-6.9 F333.3
X33.385 F1000
G3 X33.385 Y10.174 I1.581 J-0.75
G1 X36.548
G3 X36.548 Y11.674 I-1.581 J0.75
G1 X33.966
Z-7.2 F333.3
X33.385 F1000
G3 X33.385 Y10.174 I1.581 J-0.75
G1 X36.548
G3 X36.548 Y11.674 I-1.581 J0.75
G1 X33.966
Z-7.5 F333.3
X33.385 F1000
G3 X33.385 Y10.174 I1.581 J-0.75
G1 X36.548
G3 X36.548 Y11.674 I-1.581 J0.75
G1 X33.966
Z-7.6 F333.3
X33.385 F1000
G3 X33.385 Y10.174 I1.581 J-0.75
G1 X36.548
G3 X36.548 Y11.674 I-1.581 J0.75
G1 X33.966
G0 Z15

(2D Contour6)
X23.721 Y9.628
Z15
Z5
G1 Z-0.3 F333.3
G2 X24.332 Y10.046 I0.674 J-0.329 F1000
G1 X25.01 Y10.102
X25.034 Y10.111
X25.05 Y10.131
X25.054 Y10.156
X25.046 Y10.181
X25.026 Y10.197
X25 Y10.202
X24.333 Y10.146
G2 X23.652 Y10.47 I-0.062 J0.747
X23.866 Y13.335 I1.898 J1.298
X24.599 Y13.551 I0.549 J-0.511
G1 X25.258 Y13.384
X25.283 Y13.385
X25.305 Y13.399
X25.318 Y13.421
X25.317 Y13.447
X25.304 Y13.469
X25.281 Y13.482
X24.632 Y13.646
G2 X24.093 Y14.174 I0.184 J0.727
X25.225 Y16.814 I2.217 J0.612
X25.989 Y16.78 I0.354 J-0.661
G1 X26.558 Y16.408
X26.583 Y16.401
X26.608 Y16.406
X26.627 Y16.424
X26.635 Y16.448
X26.629 Y16.473
X26.612 Y16.493
X26.051 Y16.859
G2 X25.713 Y17.533 I0.41 J0.628
X27.641 Y19.662 I2.296 J-0.141
X28.353 Y19.383 I0.12 J-0.74
G1 X28.77 Y18.846
X28.791 Y18.831
X28.816 Y18.828
X28.84 Y18.839
X28.855 Y18.859
X28.858 Y18.885
X28.848 Y18.908
X28.437 Y19.437
G2 X28.335 Y20.185 I0.592 J0.461
X30.851 Y21.572 I2.125 J-0.879
X31.433 Y21.077 I-0.127 J-0.739
G1 X31.653 Y20.434
X31.668 Y20.413
X31.691 Y20.402
X31.717 Y20.404
X31.738 Y20.418
X31.75 Y20.441
X31.748 Y20.467
X31.53 Y21.101
G2 X31.677 Y21.841 I0.709 J0.244
X34.506 Y22.337 I1.725 J-1.522
X34.896 Y21.679 I-0.36 J-0.658
G1 Y20.999
X34.903 Y20.975
X34.922 Y20.957
X34.947 Y20.95
X34.971 Y20.957
X34.99 Y20.975
X34.996 Y21
Y21.67
G2 X35.375 Y22.322 I0.75 J0
X38.213 Y21.872 I1.137 J-1.999
X38.368 Y21.124 I-0.554 J-0.505
G1 X38.147 Y20.481
X38.146 Y20.455
X38.157 Y20.432
X38.179 Y20.418
X38.204 Y20.416
X38.227 Y20.428
X38.242 Y20.449
X38.459 Y21.083
G2 X39.03 Y21.577 I0.709 J-0.244
X41.567 Y20.23 I0.426 J-2.26
X41.471 Y19.472 I-0.688 J-0.298
G1 X41.053 Y18.935
X41.044 Y18.912
X41.047 Y18.886
X41.063 Y18.866
X41.087 Y18.856
X41.112 Y18.859
X41.133 Y18.875
X41.544 Y19.404
G2 X42.244 Y19.685 I0.592 J-0.461
X44.207 Y17.588 I-0.331 J-2.276
X43.869 Y16.901 I-0.748 J-0.058
G1 X43.3 Y16.53
X43.283 Y16.51
X43.278 Y16.485
X43.287 Y16.461
X43.306 Y16.444
X43.331 Y16.438
X43.356 Y16.447
X43.917 Y16.813
G2 X44.67 Y16.852 I0.41 J-0.628
X45.845 Y14.231 I-1.052 J-2.045
X45.303 Y13.692 I-0.726 J0.188
G1 X44.644 Y13.525
X44.622 Y13.512
X44.609 Y13.49
Y13.464
X44.622 Y13.442
X44.644 Y13.428
X44.67
X45.319 Y13.593
G2 X46.044 Y13.385 I0.184 J-0.727
X46.305 Y10.525 I-1.659 J-1.593
X45.617 Y10.19 I-0.626 J0.413
G1 X44.94 Y10.247
X44.915 Y10.242
X44.895 Y10.225
X44.887 Y10.2
X44.891 Y10.175
X44.908 Y10.155
X44.932 Y10.147
X45.6 Y10.091
G2 X46.219 Y9.66 I-0.062 J-0.747
X45.536 Y6.87 I-2.086 J-0.968
X44.777 Y6.777 I-0.458 J0.594
G1 X44.155 Y7.05
X44.129 Y7.053
X44.105 Y7.044
X44.09 Y7.023
X44.086 Y6.998
X44.095 Y6.974
X44.115 Y6.958
X44.729 Y6.689
G2 X45.174 Y6.08 I-0.301 J-0.687
X43.622 Y3.662 I-2.288 J-0.238
X42.874 Y3.821 I-0.24 J0.711
G1 X42.375 Y4.281
X42.352 Y4.293
X42.326 Y4.291
X42.304 Y4.277
X42.292 Y4.254
X42.294 Y4.229
X42.307 Y4.207
X42.801 Y3.753
G2 X43.023 Y3.032 I-0.508 J-0.552
X40.771 Y1.25 I-2.241 J0.517
X40.115 Y1.643 I0.004 J0.75
G1 X39.792 Y2.24
X39.774 Y2.259
X39.749 Y2.266
X39.724 Y2.26
X39.705 Y2.242
X39.698 Y2.217
X39.704 Y2.192
X40.023 Y1.603
G2 X40 Y0.849 I-0.66 J-0.357
X37.291 Y-0.106 I-1.952 J1.217
X36.798 Y0.479 I0.247 J0.708
G1 X36.686 Y1.149
X36.675 Y1.172
X36.654 Y1.187
X36.628 Y1.189
X36.605 Y1.178
X36.59 Y1.157
X36.588 Y1.132
X36.698 Y0.471
G2 X36.431 Y-0.235 I-0.74 J-0.123
X33.559 Y-0.258 I-1.451 J1.785
X33.283 Y0.455 I0.464 J0.59
G1 X33.394 Y1.125
X33.392 Y1.151
X33.376 Y1.172
X33.353 Y1.182
X33.327 Y1.179
X33.306 Y1.164
X33.296 Y1.141
X33.185 Y0.48
G2 X32.704 Y-0.101 I-0.74 J0.124
X29.98 Y0.81 I-0.793 J2.159
X29.95 Y1.574 I0.63 J0.407
G1 X30.273 Y2.171
X30.279 Y2.197
X30.271 Y2.221
X30.252 Y2.239
X30.227 Y2.245
X30.203 Y2.237
X30.185 Y2.218
X29.866 Y1.629
G2 X29.222 Y1.236 I-0.66 J0.357
X26.941 Y2.982 I-0.049 J2.299
X27.161 Y3.714 I0.728 J0.18
G1 X27.661 Y4.174
X27.675 Y4.196
Y4.222
X27.663 Y4.245
X27.641 Y4.258
X27.616 Y4.259
X27.593 Y4.247
X27.1 Y3.793
G2 X26.363 Y3.631 I-0.508 J0.552
X24.773 Y6.023 I0.701 J2.191
X25.219 Y6.644 I0.747 J-0.066
G1 X25.841 Y6.917
X25.861 Y6.933
X25.87 Y6.957
X25.866 Y6.983
X25.849 Y7.003
X25.825 Y7.012
X25.8 Y7.008
X25.186 Y6.739
G2 X24.437 Y6.824 I-0.301 J0.687
X23.709 Y9.603 I1.374 J1.844
G1 X23.721 Y9.628
G0 Z5
X22.289 Y10.502
G1 Z-0.3 F333.3
G2 X21.617 Y10.19 I-0.61 J0.436 F1000
G1 X20.94 Y10.247
X20.915 Y10.242
X20.895 Y10.225
X20.887 Y10.2
X20.891 Y10.175
X20.908 Y10.155
X20.932 Y10.147
X21.6 Y10.091
G2 X22.219 Y9.66 I-0.062 J-0.747
X21.536 Y6.87 I-2.086 J-0.968
X20.777 Y6.777 I-0.458 J0.594
G1 X20.155 Y7.05
X20.129 Y7.053
X20.105 Y7.044
X20.09 Y7.023
X20.086 Y6.998
X20.095 Y6.974
X20.115 Y6.958
X20.729 Y6.689
G2 X21.174 Y6.08 I-0.301 J-0.687
X19.622 Y3.662 I-2.288 J-0.238
X18.874 Y3.821 I-0.24 J0.711
G1 X18.375 Y4.281
X18.352 Y4.293
X18.326 Y4.291
X18.304 Y4.277
X18.292 Y4.254
X18.294 Y4.229
X18.307 Y4.207
X18.801 Y3.753
G2 X19.023 Y3.032 I-0.508 J-0.552
X16.771 Y1.25 I-2.241 J0.517
X16.115 Y1.643 I0.004 J0.75
G1 X15.792 Y2.24
X15.774 Y2.259
X15.749 Y2.266
X15.724 Y2.26
X15.705 Y2.242
X15.698 Y2.217
X15.704 Y2.192
X16.023 Y1.603
G2 X16 Y0.849 I-0.66 J-0.357
X13.291 Y-0.106 I-1.952 J1.217
X12.798 Y0.479 I0.247 J0.708
G1 X12.686 Y1.149
X12.675 Y1.172
X12.654 Y1.187
X12.628 Y1.189
X12.605 Y1.178
X12.59 Y1.157
X12.588 Y1.132
X12.698 Y0.471
G2 X12.431 Y-0.235 I-0.74 J-0.123
X9.559 Y-0.258 I-1.451 J1.785
X9.283 Y0.455 I0.464 J0.59
G1 X9.394 Y1.125
X9.392 Y1.151
X9.376 Y1.172
X9.353 Y1.182
X9.327 Y1.179
X9.306 Y1.164
X9.296 Y1.141
X9.185 Y0.48
G2 X8.704 Y-0.101 I-0.74 J0.123
X5.98 Y0.81 I-0.793 J2.159
X5.95 Y1.574 I0.63 J0.407
G1 X6.273 Y2.171
X6.279 Y2.197
X6.271 Y2.221
X6.252 Y2.239
X6.227 Y2.245
X6.203 Y2.237
X6.185 Y2.218
X5.866 Y1.629
G2 X5.222 Y1.236 I-0.66 J0.357
X2.941 Y2.982 I-0.049 J2.299
X3.161 Y3.714 I0.728 J0.181
G1 X3.661 Y4.174
X3.675 Y4.196
Y4.222
X3.663 Y4.245
X3.641 Y4.258
X3.616 Y4.259
X3.593 Y4.247
X3.1 Y3.793
G2 X2.363 Y3.631 I-0.508 J0.552
X0.773 Y6.023 I0.701 J2.191
X1.219 Y6.644 I0.747 J-0.066
G1 X1.841 Y6.917
X1.861 Y6.933
X1.87 Y6.957
X1.866 Y6.983
X1.849 Y7.003
X1.825 Y7.012
X1.8 Y7.008
X1.186 Y6.739
G2 X0.437 Y6.824 I-0.301 J0.687
X-0.291 Y9.603 I1.374 J1.844
X0.332 Y10.046 I0.685 J-0.305
G1 X1.01 Y10.102
X1.034 Y10.111
X1.05 Y10.131
X1.054 Y10.156
X1.046 Y10.181
X1.026 Y10.197
X1 Y10.202
X0.333 Y10.146
G2 X-0.348 Y10.47 I-0.062 J0.747
X-0.134 Y13.335 I1.898 J1.298
X0.599 Y13.551 I0.549 J-0.511
G1 X1.258 Y13.384
X1.283 Y13.385
X1.305 Y13.399
X1.318 Y13.421
X1.317 Y13.447
X1.304 Y13.469
X1.281 Y13.482
X0.632 Y13.646
G2 X0.093 Y14.174 I0.184 J0.727
X1.225 Y16.814 I2.217 J0.612
X1.989 Y16.78 I0.354 J-0.661
G1 X2.558 Y16.408
X2.583 Y16.401
X2.608 Y16.406
X2.627 Y16.424
X2.635 Y16.448
X2.629 Y16.473
X2.612 Y16.493
X2.051 Y16.859
G2 X1.713 Y17.533 I0.41 J0.628
X3.641 Y19.662 I2.296 J-0.141
X4.353 Y19.383 I0.12 J-0.74
G1 X4.77 Y18.846
X4.791 Y18.831
X4.816 Y18.828
X4.84 Y18.838
X4.855 Y18.859
X4.858 Y18.885
X4.848 Y18.908
X4.437 Y19.437
G2 X4.335 Y20.185 I0.592 J0.461
X6.851 Y21.572 I2.125 J-0.879
X7.433 Y21.077 I-0.127 J-0.739
G1 X7.653 Y20.434
X7.668 Y20.413
X7.691 Y20.402
X7.717 Y20.404
X7.738 Y20.418
X7.75 Y20.442
X7.748 Y20.467
X7.53 Y21.101
G2 X7.677 Y21.841 I0.709 J0.244
X10.506 Y22.337 I1.725 J-1.522
X10.896 Y21.679 I-0.36 J-0.658
G1 Y20.999
X10.903 Y20.975
X10.922 Y20.957
X10.947 Y20.95
X10.971 Y20.957
X10.99 Y20.975
X10.996 Y21
Y21.67
G2 X11.375 Y22.322 I0.75 J0
X14.213 Y21.872 I1.137 J-1.999
X14.368 Y21.124 I-0.554 J-0.505
G1 X14.147 Y20.481
X14.146 Y20.455
X14.157 Y20.432
X14.179 Y20.418
X14.204 Y20.416
X14.227 Y20.428
X14.242 Y20.449
X14.459 Y21.083
G2 X15.03 Y21.577 I0.709 J-0.244
X17.567 Y20.23 I0.426 J-2.26
X17.471 Y19.472 I-0.688 J-0.298
G1 X17.053 Y18.935
X17.044 Y18.912
X17.047 Y18.886
X17.063 Y18.866
X17.087 Y18.856
X17.112 Y18.859
X17.133 Y18.875
X17.544 Y19.404
G2 X18.244 Y19.685 I0.592 J-0.461
X20.207 Y17.588 I-0.331 J-2.276
X19.869 Y16.901 I-0.748 J-0.058
G1 X19.3 Y16.53
X19.283 Y16.51
X19.278 Y16.485
X19.287 Y16.461
X19.306 Y16.444
X19.331 Y16.438
X19.356 Y16.447
X19.917 Y16.813
G2 X20.67 Y16.852 I0.41 J-0.628
X21.845 Y14.231 I-1.052 J-2.045
X21.303 Y13.692 I-0.726 J0.188
G1 X20.644 Y13.525
X20.622 Y13.512
X20.609 Y13.49
Y13.464
X20.622 Y13.442
X20.644 Y13.428
X20.67
X21.319 Y13.593
G2 X22.044 Y13.385 I0.184 J-0.727
X22.305 Y10.525 I-1.659 J-1.593
G1 X22.289 Y10.502
Z-0.6 F333.3
G2 X21.617 Y10.19 I-0.61 J0.436 F1000
G1 X20.94 Y10.247
X20.915 Y10.242
X20.895 Y10.225
X20.887 Y10.2
X20.891 Y10.175
X20.908 Y10.155
X20.932 Y10.147
X21.6 Y10.091
G2 X22.219 Y9.66 I-0.062 J-0.747
X21.536 Y6.87 I-2.086 J-0.968
X20.777 Y6.777 I-0.458 J0.594
G1 X20.155 Y7.05
X20.129 Y7.053
X20.105 Y7.044
X20.09 Y7.023
X20.086 Y6.998
X20.095 Y6.974
X20.115 Y6.958
X20.729 Y6.689
G2 X21.174 Y6.08 I-0.301 J-0.687
X19.622 Y3.662 I-2.288 J-0.238
X18.874 Y3.821 I-0.24 J0.711
G1 X18.375 Y4.281
X18.352 Y4.293
X18.326 Y4.291
X18.304 Y4.277
X18.292 Y4.254
X18.294 Y4.229
X18.307 Y4.207
X18.801 Y3.753
G2 X19.023 Y3.032 I-0.508 J-0.552
X16.771 Y1.25 I-2.241 J0.517
X16.115 Y1.643 I0.004 J0.75
G1 X15.792 Y2.24
X15.774 Y2.259
X15.749 Y2.266
X15.724 Y2.26
X15.705 Y2.242
X15.698 Y2.217
X15.704 Y2.192
X16.023 Y1.603
G2 X16 Y0.849 I-0.66 J-0.357
X13.291 Y-0.106 I-1.952 J1.217
X12.798 Y0.479 I0.247 J0.708
G1 X12.686 Y1.149
X12.675 Y1.172
X12.654 Y1.187
X12.628 Y1.189
X12.605 Y1.178
X12.59 Y1.157
X12.588 Y1.132
X12.698 Y0.471
G2 X12.431 Y-0.235 I-0.74 J-0.123
X9.559 Y-0.258 I-1.451 J1.785
X9.283 Y0.455 I0.464 J0.59
G1 X9.394 Y1.125
X9.392 Y1.151
X9.376 Y1.172
X9.353 Y1.182
X9.327 Y1.179
X9.306 Y1.164
X9.296 Y1.141
X9.185 Y0.48
G2 X8.704 Y-0.101 I-0.74 J0.123
X5.98 Y0.81 I-0.793 J2.159
X5.95 Y1.574 I0.63 J0.407
G1 X6.273 Y2.171
X6.279 Y2.197
X6.271 Y2.221
X6.252 Y2.239
X6.227 Y2.245
X6.203 Y2.237
X6.185 Y2.218
X5.866 Y1.629
G2 X5.222 Y1.236 I-0.66 J0.357
X2.941 Y2.982 I-0.049 J2.299
X3.161 Y3.714 I0.728 J0.181
G1 X3.661 Y4.174
X3.675 Y4.196
Y4.222
X3.663 Y4.245
X3.641 Y4.258
X3.616 Y4.259
X3.593 Y4.247
X3.1 Y3.793
G2 X2.363 Y3.631 I-0.508 J0.552
X0.773 Y6.023 I0.701 J2.191
X1.219 Y6.644 I0.747 J-0.066
G1 X1.841 Y6.917
X1.861 Y6.933
X1.87 Y6.957
X1.866 Y6.983
X1.849 Y7.003
X1.825 Y7.012
X1.8 Y7.008
X1.186 Y6.739
G2 X0.437 Y6.824 I-0.301 J0.687
X-0.291 Y9.603 I1.374 J1.844
X0.332 Y10.046 I0.685 J-0.305
G1 X1.01 Y10.102
X1.034 Y10.111
X1.05 Y10.131
X1.054 Y10.156
X1.046 Y10.181
X1.026 Y10.197
X1 Y10.202
X0.333 Y10.146
G2 X-0.348 Y10.47 I-0.062 J0.747
X-0.134 Y13.335 I1.898 J1.298
X0.599 Y13.551 I0.549 J-0.511
G1 X1.258 Y13.384
X1.283 Y13.385
X1.305 Y13.399
X1.318 Y13.421
X1.317 Y13.447
X1.304 Y13.469
X1.281 Y13.482
X0.632 Y13.646
G2 X0.093 Y14.174 I0.184 J0.727
X1.225 Y16.814 I2.217 J0.612
X1.989 Y16.78 I0.354 J-0.661
G1 X2.558 Y16.408
X2.583 Y16.401
X2.608 Y16.406
X2.627 Y16.424
X2.635 Y16.448
X2.629 Y16.473
X2.612 Y16.493
X2.051 Y16.859
G2 X1.713 Y17.533 I0.41 J0.628
X3.641 Y19.662 I2.296 J-0.141
X4.353 Y19.383 I0.12 J-0.74
G1 X4.77 Y18.846
X4.791 Y18.831
X4.816 Y18.828
X4.84 Y18.838
X4.855 Y18.859
X4.858 Y18.885
X4.848 Y18.908
X4.437 Y19.437
G2 X4.335 Y20.185 I0.592 J0.461
X6.851 Y21.572 I2.125 J-0.879
X7.433 Y21.077 I-0.127 J-0.739
G1 X7.653 Y20.434
X7.668 Y20.413
X7.691 Y20.402
X7.717 Y20.404
X7.738 Y20.418
X7.75 Y20.442
X7.748 Y20.467
X7.53 Y21.101
G2 X7.677 Y21.841 I0.709 J0.244
X10.506 Y22.337 I1.725 J-1.522
X10.896 Y21.679 I-0.36 J-0.658
G1 Y20.999
X10.903 Y20.975
X10.922 Y20.957
X10.947 Y20.95
X10.971 Y20.957
X10.99 Y20.975
X10.996 Y21
Y21.67
G2 X11.375 Y22.322 I0.75 J0
X14.213 Y21.872 I1.137 J-1.999
X14.368 Y21.124 I-0.554 J-0.505
G1 X14.147 Y20.481
X14.146 Y20.455
X14.157 Y20.432
X14.179 Y20.418
X14.204 Y20.416
X14.227 Y20.428
X14.242 Y20.449
X14.459 Y21.083
G2 X15.03 Y21.577 I0.709 J-0.244
X17.567 Y20.23 I0.426 J-2.26
X17.471 Y19.472 I-0.688 J-0.298
G1 X17.053 Y18.935
X17.044 Y18.912
X17.047 Y18.886
X17.063 Y18.866
X17.087 Y18.856
X17.112 Y18.859
X17.133 Y18.875
X17.544 Y19.404
G2 X18.244 Y19.685 I0.592 J-0.461
X20.207 Y17.588 I-0.331 J-2.276
X19.869 Y16.901 I-0.748 J-0.058
G1 X19.3 Y16.53
X19.283 Y16.51
X19.278 Y16.485
X19.287 Y16.461
X19.306 Y16.444
X19.331 Y16.438
X19.356 Y16.447
X19.917 Y16.813
G2 X20.67 Y16.852 I0.41 J-0.628
X21.845 Y14.231 I-1.052 J-2.045
X21.303 Y13.692 I-0.726 J0.188
G1 X20.644 Y13.525
X20.622 Y13.512
X20.609 Y13.49
Y13.464
X20.622 Y13.442
X20.644 Y13.428
X20.67
X21.319 Y13.593
G2 X22.044 Y13.385 I0.184 J-0.727
X22.305 Y10.525 I-1.659 J-1.593
G1 X22.289 Y10.502
G0 Z5
X23.721 Y9.628
G1 Z-0.6 F333.3
G2 X24.332 Y10.046 I0.674 J-0.329 F1000
G1 X25.01 Y10.102
X25.034 Y10.111
X25.05 Y10.131
X25.054 Y10.156
X25.046 Y10.181
X25.026 Y10.197
X25 Y10.202
X24.333 Y10.146
G2 X23.652 Y10.47 I-0.062 J0.747
X23.866 Y13.335 I1.898 J1.298
X24.599 Y13.551 I0.549 J-0.511
G1 X25.258 Y13.384
X25.283 Y13.385
X25.305 Y13.399
X25.318 Y13.421
X25.317 Y13.447
X25.304 Y13.469
X25.281 Y13.482
X24.632 Y13.646
G2 X24.093 Y14.174 I0.184 J0.727
X25.225 Y16.814 I2.217 J0.612
X25.989 Y16.78 I0.354 J-0.661
G1 X26.558 Y16.408
X26.583 Y16.401
X26.608 Y16.406
X26.627 Y16.424
X26.635 Y16.448
X26.629 Y16.473
X26.612 Y16.493
X26.051 Y16.859
G2 X25.713 Y17.533 I0.41 J0.628
X27.641 Y19.662 I2.296 J-0.141
X28.353 Y19.383 I0.12 J-0.74
G1 X28.77 Y18.846
X28.791 Y18.831
X28.816 Y18.828
X28.84 Y18.839
X28.855 Y18.859
X28.858 Y18.885
X28.848 Y18.908
X28.437 Y19.437
G2 X28.335 Y20.185 I0.592 J0.461
X30.851 Y21.572 I2.125 J-0.879
X31.433 Y21.077 I-0.127 J-0.739
G1 X31.653 Y20.434
X31.668 Y20.413
X31.691 Y20.402
X31.717 Y20.404
X31.738 Y20.418
X31.75 Y20.441
X31.748 Y20.467
X31.53 Y21.101
G2 X31.677 Y21.841 I0.709 J0.244
X34.506 Y22.337 I1.725 J-1.522
X34.896 Y21.679 I-0.36 J-0.658
G1 Y20.999
X34.903 Y20.975
X34.922 Y20.957
X34.947 Y20.95
X34.971 Y20.957
X34.99 Y20.975
X34.996 Y21
Y21.67
G2 X35.375 Y22.322 I0.75 J0
X38.213 Y21.872 I1.137 J-1.999
X38.368 Y21.124 I-0.554 J-0.505
G1 X38.147 Y20.481
X38.146 Y20.455
X38.157 Y20.432
X38.179 Y20.418
X38.204 Y20.416
X38.227 Y20.428
X38.242 Y20.449
X38.459 Y21.083
G2 X39.03 Y21.577 I0.709 J-0.244
X41.567 Y20.23 I0.426 J-2.26
X41.471 Y19.472 I-0.688 J-0.298
G1 X41.053 Y18.935
X41.044 Y18.912
X41.047 Y18.886
X41.063 Y18.866
X41.087 Y18.856
X41.112 Y18.859
X41.133 Y18.875
X41.544 Y19.404
G2 X42.244 Y19.685 I0.592 J-0.461
X44.207 Y17.588 I-0.331 J-2.276
X43.869 Y16.901 I-0.748 J-0.058
G1 X43.3 Y16.53
X43.283 Y16.51
X43.278 Y16.485
X43.287 Y16.461
X43.306 Y16.444
X43.331 Y16.438
X43.356 Y16.447
X43.917 Y16.813
G2 X44.67 Y16.852 I0.41 J-0.628
X45.845 Y14.231 I-1.052 J-2.045
X45.303 Y13.692 I-0.726 J0.188
G1 X44.644 Y13.525
X44.622 Y13.512
X44.609 Y13.49
Y13.464
X44.622 Y13.442
X44.644 Y13.428
X44.67
X45.319 Y13.593
G2 X46.044 Y13.385 I0.184 J-0.727
X46.305 Y10.525 I-1.659 J-1.593
X45.617 Y10.19 I-0.626 J0.413
G1 X44.94 Y10.247
X44.915 Y10.242
X44.895 Y10.225
X44.887 Y10.2
X44.891 Y10.175
X44.908 Y10.155
X44.932 Y10.147
X45.6 Y10.091
G2 X46.219 Y9.66 I-0.062 J-0.747
X45.536 Y6.87 I-2.086 J-0.968
X44.777 Y6.777 I-0.458 J0.594
G1 X44.155 Y7.05
X44.129 Y7.053
X44.105 Y7.044
X44.09 Y7.023
X44.086 Y6.998
X44.095 Y6.974
X44.115 Y6.958
X44.729 Y6.689
G2 X45.174 Y6.08 I-0.301 J-0.687
X43.622 Y3.662 I-2.288 J-0.238
X42.874 Y3.821 I-0.24 J0.711
G1 X42.375 Y4.281
X42.352 Y4.293
X42.326 Y4.291
X42.304 Y4.277
X42.292 Y4.254
X42.294 Y4.229
X42.307 Y4.207
X42.801 Y3.753
G2 X43.023 Y3.032 I-0.508 J-0.552
X40.771 Y1.25 I-2.241 J0.517
X40.115 Y1.643 I0.004 J0.75
G1 X39.792 Y2.24
X39.774 Y2.259
X39.749 Y2.266
X39.724 Y2.26
X39.705 Y2.242
X39.698 Y2.217
X39.704 Y2.192
X40.023 Y1.603
G2 X40 Y0.849 I-0.66 J-0.357
X37.291 Y-0.106 I-1.952 J1.217
X36.798 Y0.479 I0.247 J0.708
G1 X36.686 Y1.149
X36.675 Y1.172
X36.654 Y1.187
X36.628 Y1.189
X36.605 Y1.178
X36.59 Y1.157
X36.588 Y1.132
X36.698 Y0.471
G2 X36.431 Y-0.235 I-0.74 J-0.123
X33.559 Y-0.258 I-1.451 J1.785
X33.283 Y0.455 I0.464 J0.59
G1 X33.394 Y1.125
X33.392 Y1.151
X33.376 Y1.172
X33.353 Y1.182
X33.327 Y1.179
X33.306 Y1.164
X33.296 Y1.141
X33.185 Y0.48
G2 X32.704 Y-0.101 I-0.74 J0.124
X29.98 Y0.81 I-0.793 J2.159
X29.95 Y1.574 I0.63 J0.407
G1 X30.273 Y2.171
X30.279 Y2.197
X30.271 Y2.221
X30.252 Y2.239
X30.227 Y2.245
X30.203 Y2.237
X30.185 Y2.218
X29.866 Y1.629
G2 X29.222 Y1.236 I-0.66 J0.357
X26.941 Y2.982 I-0.049 J2.299
X27.161 Y3.714 I0.728 J0.18
G1 X27.661 Y4.174
X27.675 Y4.196
Y4.222
X27.663 Y4.245
X27.641 Y4.258
X27.616 Y4.259
X27.593 Y4.247
X27.1 Y3.793
G2 X26.363 Y3.631 I-0.508 J0.552
X24.773 Y6.023 I0.701 J2.191
X25.219 Y6.644 I0.747 J-0.066
G1 X25.841 Y6.917
X25.861 Y6.933
X25.87 Y6.957
X25.866 Y6.983
X25.849 Y7.003
X25.825 Y7.012
X25.8 Y7.008
X25.186 Y6.739
G2 X24.437 Y6.824 I-0.301 J0.687
X23.709 Y9.603 I1.374 J1.844
G1 X23.721 Y9.628
Z-0.9 F333.3
G2 X24.332 Y10.046 I0.674 J-0.329 F1000
G1 X25.01 Y10.102
X25.034 Y10.111
X25.05 Y10.131
X25.054 Y10.156
X25.046 Y10.181
X25.026 Y10.197
X25 Y10.202
X24.333 Y10.146
G2 X23.652 Y10.47 I-0.062 J0.747
X23.866 Y13.335 I1.898 J1.298
X24.599 Y13.551 I0.549 J-0.511
G1 X25.258 Y13.384
X25.283 Y13.385
X25.305 Y13.399
X25.318 Y13.421
X25.317 Y13.447
X25.304 Y13.469
X25.281 Y13.482
X24.632 Y13.646
G2 X24.093 Y14.174 I0.184 J0.727
X25.225 Y16.814 I2.217 J0.612
X25.989 Y16.78 I0.354 J-0.661
G1 X26.558 Y16.408
X26.583 Y16.401
X26.608 Y16.406
X26.627 Y16.424
X26.635 Y16.448
X26.629 Y16.473
X26.612 Y16.493
X26.051 Y16.859
G2 X25.713 Y17.533 I0.41 J0.628
X27.641 Y19.662 I2.296 J-0.141
X28.353 Y19.383 I0.12 J-0.74
G1 X28.77 Y18.846
X28.791 Y18.831
X28.816 Y18.828
X28.84 Y18.839
X28.855 Y18.859
X28.858 Y18.885
X28.848 Y18.908
X28.437 Y19.437
G2 X28.335 Y20.185 I0.592 J0.461
X30.851 Y21.572 I2.125 J-0.879
X31.433 Y21.077 I-0.127 J-0.739
G1 X31.653 Y20.434
X31.668 Y20.413
X31.691 Y20.402
X31.717 Y20.404
X31.738 Y20.418
X31.75 Y20.441
X31.748 Y20.467
X31.53 Y21.101
G2 X31.677 Y21.841 I0.709 J0.244
X34.506 Y22.337 I1.725 J-1.522
X34.896 Y21.679 I-0.36 J-0.658
G1 Y20.999
X34.903 Y20.975
X34.922 Y20.957
X34.947 Y20.95
X34.971 Y20.957
X34.99 Y20.975
X34.996 Y21
Y21.67
G2 X35.375 Y22.322 I0.75 J0
X38.213 Y21.872 I1.137 J-1.999
X38.368 Y21.124 I-0.554 J-0.505
G1 X38.147 Y20.481
X38.146 Y20.455
X38.157 Y20.432
X38.179 Y20.418
X38.204 Y20.416
X38.227 Y20.428
X38.242 Y20.449
X38.459 Y21.083
G2 X39.03 Y21.577 I0.709 J-0.244
X41.567 Y20.23 I0.426 J-2.26
X41.471 Y19.472 I-0.688 J-0.298
G1 X41.053 Y18.935
X41.044 Y18.912
X41.047 Y18.886
X41.063 Y18.866
X41.087 Y18.856
X41.112 Y18.859
X41.133 Y18.875
X41.544 Y19.404
G2 X42.244 Y19.685 I0.592 J-0.461
X44.207 Y17.588 I-0.331 J-2.276
X43.869 Y16.901 I-0.748 J-0.058
G1 X43.3 Y16.53
X43.283 Y16.51
X43.278 Y16.485
X43.287 Y16.461
X43.306 Y16.444
X43.331 Y16.438
X43.356 Y16.447
X43.917 Y16.813
G2 X44.67 Y16.852 I0.41 J-0.628
X45.845 Y14.231 I-1.052 J-2.045
X45.303 Y13.692 I-0.726 J0.188
G1 X44.644 Y13.525
X44.622 Y13.512
X44.609 Y13.49
Y13.464
X44.622 Y13.442
X44.644 Y13.428
X44.67
X45.319 Y13.593
G2 X46.044 Y13.385 I0.184 J-0.727
X46.305 Y10.525 I-1.659 J-1.593
X45.617 Y10.19 I-0.626 J0.413
G1 X44.94 Y10.247
X44.915 Y10.242
X44.895 Y10.225
X44.887 Y10.2
X44.891 Y10.175
X44.908 Y10.155
X44.932 Y10.147
X45.6 Y10.091
G2 X46.219 Y9.66 I-0.062 J-0.747
X45.536 Y6.87 I-2.086 J-0.968
X44.777 Y6.777 I-0.458 J0.594
G1 X44.155 Y7.05
X44.129 Y7.053
X44.105 Y7.044
X44.09 Y7.023
X44.086 Y6.998
X44.095 Y6.974
X44.115 Y6.958
X44.729 Y6.689
G2 X45.174 Y6.08 I-0.301 J-0.687
X43.622 Y3.662 I-2.288 J-0.238
X42.874 Y3.821 I-0.24 J0.711
G1 X42.375 Y4.281
X42.352 Y4.293
X42.326 Y4.291
X42.304 Y4.277
X42.292 Y4.254
X42.294 Y4.229
X42.307 Y4.207
X42.801 Y3.753
G2 X43.023 Y3.032 I-0.508 J-0.552
X40.771 Y1.25 I-2.241 J0.517
X40.115 Y1.643 I0.004 J0.75
G1 X39.792 Y2.24
X39.774 Y2.259
X39.749 Y2.266
X39.724 Y2.26
X39.705 Y2.242
X39.698 Y2.217
X39.704 Y2.192
X40.023 Y1.603
G2 X40 Y0.849 I-0.66 J-0.357
X37.291 Y-0.106 I-1.952 J1.217
X36.798 Y0.479 I0.247 J0.708
G1 X36.686 Y1.149
X36.675 Y1.172
X36.654 Y1.187
X36.628 Y1.189
X36.605 Y1.178
X36.59 Y1.157
X36.588 Y1.132
X36.698 Y0.471
G2 X36.431 Y-0.235 I-0.74 J-0.123
X33.559 Y-0.258 I-1.451 J1.785
X33.283 Y0.455 I0.464 J0.59
G1 X33.394 Y1.125
X33.392 Y1.151
X33.376 Y1.172
X33.353 Y1.182
X33.327 Y1.179
X33.306 Y1.164
X33.296 Y1.141
X33.185 Y0.48
G2 X32.704 Y-0.101 I-0.74 J0.124
X29.98 Y0.81 I-0.793 J2.159
X29.95 Y1.574 I0.63 J0.407
G1 X30.273 Y2.171
X30.279 Y2.197
X30.271 Y2.221
X30.252 Y2.239
X30.227 Y2.245
X30.203 Y2.237
X30.185 Y2.218
X29.866 Y1.629
G2 X29.222 Y1.236 I-0.66 J0.357
X26.941 Y2.982 I-0.049 J2.299
X27.161 Y3.714 I0.728 J0.18
G1 X27.661 Y4.174
X27.675 Y4.196
Y4.222
X27.663 Y4.245
X27.641 Y4.258
X27.616 Y4.259
X27.593 Y4.247
X27.1 Y3.793
G2 X26.363 Y3.631 I-0.508 J0.552
X24.773 Y6.023 I0.701 J2.191
X25.219 Y6.644 I0.747 J-0.066
G1 X25.841 Y6.917
X25.861 Y6.933
X25.87 Y6.957
X25.866 Y6.983
X25.849 Y7.003
X25.825 Y7.012
X25.8 Y7.008
X25.186 Y6.739
G2 X24.437 Y6.824 I-0.301 J0.687
X23.709 Y9.603 I1.374 J1.844
G1 X23.721 Y9.628
G0 Z5
X22.289 Y10.502
G1 Z-0.9 F333.3
G2 X21.617 Y10.19 I-0.61 J0.436 F1000
G1 X20.94 Y10.247
X20.915 Y10.242
X20.895 Y10.225
X20.887 Y10.2
X20.891 Y10.175
X20.908 Y10.155
X20.932 Y10.147
X21.6 Y10.091
G2 X22.219 Y9.66 I-0.062 J-0.747
X21.536 Y6.87 I-2.086 J-0.968
X20.777 Y6.777 I-0.458 J0.594
G1 X20.155 Y7.05
X20.129 Y7.053
X20.105 Y7.044
X20.09 Y7.023
X20.086 Y6.998
X20.095 Y6.974
X20.115 Y6.958
X20.729 Y6.689
G2 X21.174 Y6.08 I-0.301 J-0.687
X19.622 Y3.662 I-2.288 J-0.238
X18.874 Y3.821 I-0.24 J0.711
G1 X18.375 Y4.281
X18.352 Y4.293
X18.326 Y4.291
X18.304 Y4.277
X18.292 Y4.254
X18.294 Y4.229
X18.307 Y4.207
X18.801 Y3.753
G2 X19.023 Y3.032 I-0.508 J-0.552
X16.771 Y1.25 I-2.241 J0.517
X16.115 Y1.643 I0.004 J0.75
G1 X15.792 Y2.24
X15.774 Y2.259
X15.749 Y2.266
X15.724 Y2.26
X15.705 Y2.242
X15.698 Y2.217
X15.704 Y2.192
X16.023 Y1.603
G2 X16 Y0.849 I-0.66 J-0.357
X13.291 Y-0.106 I-1.952 J1.217
X12.798 Y0.479 I0.247 J0.708
G1 X12.686 Y1.149
X12.675 Y1.172
X12.654 Y1.187
X12.628 Y1.189
X12.605 Y1.178
X12.59 Y1.157
X12.588 Y1.132
X12.698 Y0.471
G2 X12.431 Y-0.235 I-0.74 J-0.123
X9.559 Y-0.258 I-1.451 J1.785
X9.283 Y0.455 I0.464 J0.59
G1 X9.394 Y1.125
X9.392 Y1.151
X9.376 Y1.172
X9.353 Y1.182
X9.327 Y1.179
X9.306 Y1.164
X9.296 Y1.141
X9.185 Y0.48
G2 X8.704 Y-0.101 I-0.74 J0.123
X5.98 Y0.81 I-0.793 J2.159
X5.95 Y1.574 I0.63 J0.407
G1 X6.273 Y2.171
X6.279 Y2.197
X6.271 Y2.221
X6.252 Y2.239
X6.227 Y2.245
X6.203 Y2.237
X6.185 Y2.218
X5.866 Y1.629
G2 X5.222 Y1.236 I-0.66 J0.357
X2.941 Y2.982 I-0.049 J2.299
X3.161 Y3.714 I0.728 J0.181
G1 X3.661 Y4.174
X3.675 Y4.196
Y4.222
X3.663 Y4.245
X3.641 Y4.258
X3.616 Y4.259
X3.593 Y4.247
X3.1 Y3.793
G2 X2.363 Y3.631 I-0.508 J0.552
X0.773 Y6.023 I0.701 J2.191
X1.219 Y6.644 I0.747 J-0.066
G1 X1.841 Y6.917
X1.861 Y6.933
X1.87 Y6.957
X1.866 Y6.983
X1.849 Y7.003
X1.825 Y7.012
X1.8 Y7.008
X1.186 Y6.739
G2 X0.437 Y6.824 I-0.301 J0.687
X-0.291 Y9.603 I1.374 J1.844
X0.332 Y10.046 I0.685 J-0.305
G1 X1.01 Y10.102
X1.034 Y10.111
X1.05 Y10.131
X1.054 Y10.156
X1.046 Y10.181
X1.026 Y10.197
X1 Y10.202
X0.333 Y10.146
G2 X-0.348 Y10.47 I-0.062 J0.747
X-0.134 Y13.335 I1.898 J1.298
X0.599 Y13.551 I0.549 J-0.511
G1 X1.258 Y13.384
X1.283 Y13.385
X1.305 Y13.399
X1.318 Y13.421
X1.317 Y13.447
X1.304 Y13.469
X1.281 Y13.482
X0.632 Y13.646
G2 X0.093 Y14.174 I0.184 J0.727
X1.225 Y16.814 I2.217 J0.612
X1.989 Y16.78 I0.354 J-0.661
G1 X2.558 Y16.408
X2.583 Y16.401
X2.608 Y16.406
X2.627 Y16.424
X2.635 Y16.448
X2.629 Y16.473
X2.612 Y16.493
X2.051 Y16.859
G2 X1.713 Y17.533 I0.41 J0.628
X3.641 Y19.662 I2.296 J-0.141
X4.353 Y19.383 I0.12 J-0.74
G1 X4.77 Y18.846
X4.791 Y18.831
X4.816 Y18.828
X4.84 Y18.838
X4.855 Y18.859
X4.858 Y18.885
X4.848 Y18.908
X4.437 Y19.437
G2 X4.335 Y20.185 I0.592 J0.461
X6.851 Y21.572 I2.125 J-0.879
X7.433 Y21.077 I-0.127 J-0.739
G1 X7.653 Y20.434
X7.668 Y20.413
X7.691 Y20.402
X7.717 Y20.404
X7.738 Y20.418
X7.75 Y20.442
X7.748 Y20.467
X7.53 Y21.101
G2 X7.677 Y21.841 I0.709 J0.244
X10.506 Y22.337 I1.725 J-1.522
X10.896 Y21.679 I-0.36 J-0.658
G1 Y20.999
X10.903 Y20.975
X10.922 Y20.957
X10.947 Y20.95
X10.971 Y20.957
X10.99 Y20.975
X10.996 Y21
Y21.67
G2 X11.375 Y22.322 I0.75 J0
X14.213 Y21.872 I1.137 J-1.999
X14.368 Y21.124 I-0.554 J-0.505
G1 X14.147 Y20.481
X14.146 Y20.455
X14.157 Y20.432
X14.179 Y20.418
X14.204 Y20.416
X14.227 Y20.428
X14.242 Y20.449
X14.459 Y21.083
G2 X15.03 Y21.577 I0.709 J-0.244
X17.567 Y20.23 I0.426 J-2.26
X17.471 Y19.472 I-0.688 J-0.298
G1 X17.053 Y18.935
X17.044 Y18.912
X17.047 Y18.886
X17.063 Y18.866
X17.087 Y18.856
X17.112 Y18.859
X17.133 Y18.875
X17.544 Y19.404
G2 X18.244 Y19.685 I0.592 J-0.461
X20.207 Y17.588 I-0.331 J-2.276
X19.869 Y16.901 I-0.748 J-0.058
G1 X19.3 Y16.53
X19.283 Y16.51
X19.278 Y16.485
X19.287 Y16.461
X19.306 Y16.444
X19.331 Y16.438
X19.356 Y16.447
X19.917 Y16.813
G2 X20.67 Y16.852 I0.41 J-0.628
X21.845 Y14.231 I-1.052 J-2.045
X21.303 Y13.692 I-0.726 J0.188
G1 X20.644 Y13.525
X20.622 Y13.512
X20.609 Y13.49
Y13.464
X20.622 Y13.442
X20.644 Y13.428
X20.67
X21.319 Y13.593
G2 X22.044 Y13.385 I0.184 J-0.727
X22.305 Y10.525 I-1.659 J-1.593
G1 X22.289 Y10.502
Z-1.2 F333.3
G2 X21.617 Y10.19 I-0.61 J0.436 F1000
G1 X20.94 Y10.247
X20.915 Y10.242
X20.895 Y10.225
X20.887 Y10.2
X20.891 Y10.175
X20.908 Y10.155
X20.932 Y10.147
X21.6 Y10.091
G2 X22.219 Y9.66 I-0.062 J-0.747
X21.536 Y6.87 I-2.086 J-0.968
X20.777 Y6.777 I-0.458 J0.594
G1 X20.155 Y7.05
X20.129 Y7.053
X20.105 Y7.044
X20.09 Y7.023
X20.086 Y6.998
X20.095 Y6.974
X20.115 Y6.958
X20.729 Y6.689
G2 X21.174 Y6.08 I-0.301 J-0.687
X19.622 Y3.662 I-2.288 J-0.238
X18.874 Y3.821 I-0.24 J0.711
G1 X18.375 Y4.281
X18.352 Y4.293
X18.326 Y4.291
X18.304 Y4.277
X18.292 Y4.254
X18.294 Y4.229
X18.307 Y4.207
X18.801 Y3.753
G2 X19.023 Y3.032 I-0.508 J-0.552
X16.771 Y1.25 I-2.241 J0.517
X16.115 Y1.643 I0.004 J0.75
G1 X15.792 Y2.24
X15.774 Y2.259
X15.749 Y2.266
X15.724 Y2.26
X15.705 Y2.242
X15.698 Y2.217
X15.704 Y2.192
X16.023 Y1.603
G2 X16 Y0.849 I-0.66 J-0.357
X13.291 Y-0.106 I-1.952 J1.217
X12.798 Y0.479 I0.247 J0.708
G1 X12.686 Y1.149
X12.675 Y1.172
X12.654 Y1.187
X12.628 Y1.189
X12.605 Y1.178
X12.59 Y1.157
X12.588 Y1.132
X12.698 Y0.471
G2 X12.431 Y-0.235 I-0.74 J-0.123
X9.559 Y-0.258 I-1.451 J1.785
X9.283 Y0.455 I0.464 J0.59
G1 X9.394 Y1.125
X9.392 Y1.151
X9.376 Y1.172
X9.353 Y1.182
X9.327 Y1.179
X9.306 Y1.164
X9.296 Y1.141
X9.185 Y0.48
G2 X8.704 Y-0.101 I-0.74 J0.123
X5.98 Y0.81 I-0.793 J2.159
X5.95 Y1.574 I0.63 J0.407
G1 X6.273 Y2.171
X6.279 Y2.197
X6.271 Y2.221
X6.252 Y2.239
X6.227 Y2.245
X6.203 Y2.237
X6.185 Y2.218
X5.866 Y1.629
G2 X5.222 Y1.236 I-0.66 J0.357
X2.941 Y2.982 I-0.049 J2.299
X3.161 Y3.714 I0.728 J0.181
G1 X3.661 Y4.174
X3.675 Y4.196
Y4.222
X3.663 Y4.245
X3.641 Y4.258
X3.616 Y4.259
X3.593 Y4.247
X3.1 Y3.793
G2 X2.363 Y3.631 I-0.508 J0.552
X0.773 Y6.023 I0.701 J2.191
X1.219 Y6.644 I0.747 J-0.066
G1 X1.841 Y6.917
X1.861 Y6.933
X1.87 Y6.957
X1.866 Y6.983
X1.849 Y7.003
X1.825 Y7.012
X1.8 Y7.008
X1.186 Y6.739
G2 X0.437 Y6.824 I-0.301 J0.687
X-0.291 Y9.603 I1.374 J1.844
X0.332 Y10.046 I0.685 J-0.305
G1 X1.01 Y10.102
X1.034 Y10.111
X1.05 Y10.131
X1.054 Y10.156
X1.046 Y10.181
X1.026 Y10.197
X1 Y10.202
X0.333 Y10.146
G2 X-0.348 Y10.47 I-0.062 J0.747
X-0.134 Y13.335 I1.898 J1.298
X0.599 Y13.551 I0.549 J-0.511
G1 X1.258 Y13.384
X1.283 Y13.385
X1.305 Y13.399
X1.318 Y13.421
X1.317 Y13.447
X1.304 Y13.469
X1.281 Y13.482
X0.632 Y13.646
G2 X0.093 Y14.174 I0.184 J0.727
X1.225 Y16.814 I2.217 J0.612
X1.989 Y16.78 I0.354 J-0.661
G1 X2.558 Y16.408
X2.583 Y16.401
X2.608 Y16.406
X2.627 Y16.424
X2.635 Y16.448
X2.629 Y16.473
X2.612 Y16.493
X2.051 Y16.859
G2 X1.713 Y17.533 I0.41 J0.628
X3.641 Y19.662 I2.296 J-0.141
X4.353 Y19.383 I0.12 J-0.74
G1 X4.77 Y18.846
X4.791 Y18.831
X4.816 Y18.828
X4.84 Y18.838
X4.855 Y18.859
X4.858 Y18.885
X4.848 Y18.908
X4.437 Y19.437
G2 X4.335 Y20.185 I0.592 J0.461
X6.851 Y21.572 I2.125 J-0.879
X7.433 Y21.077 I-0.127 J-0.739
G1 X7.653 Y20.434
X7.668 Y20.413
X7.691 Y20.402
X7.717 Y20.404
X7.738 Y20.418
X7.75 Y20.442
X7.748 Y20.467
X7.53 Y21.101
G2 X7.677 Y21.841 I0.709 J0.244
X10.506 Y22.337 I1.725 J-1.522
X10.896 Y21.679 I-0.36 J-0.658
G1 Y20.999
X10.903 Y20.975
X10.922 Y20.957
X10.947 Y20.95
X10.971 Y20.957
X10.99 Y20.975
X10.996 Y21
Y21.67
G2 X11.375 Y22.322 I0.75 J0
X14.213 Y21.872 I1.137 J-1.999
X14.368 Y21.124 I-0.554 J-0.505
G1 X14.147 Y20.481
X14.146 Y20.455
X14.157 Y20.432
X14.179 Y20.418
X14.204 Y20.416
X14.227 Y20.428
X14.242 Y20.449
X14.459 Y21.083
G2 X15.03 Y21.577 I0.709 J-0.244
X17.567 Y20.23 I0.426 J-2.26
X17.471 Y19.472 I-0.688 J-0.298
G1 X17.053 Y18.935
X17.044 Y18.912
X17.047 Y18.886
X17.063 Y18.866
X17.087 Y18.856
X17.112 Y18.859
X17.133 Y18.875
X17.544 Y19.404
G2 X18.244 Y19.685 I0.592 J-0.461
X20.207 Y17.588 I-0.331 J-2.276
X19.869 Y16.901 I-0.748 J-0.058
G1 X19.3 Y16.53
X19.283 Y16.51
X19.278 Y16.485
X19.287 Y16.461
X19.306 Y16.444
X19.331 Y16.438
X19.356 Y16.447
X19.917 Y16.813
G2 X20.67 Y16.852 I0.41 J-0.628
X21.845 Y14.231 I-1.052 J-2.045
X21.303 Y13.692 I-0.726 J0.188
G1 X20.644 Y13.525
X20.622 Y13.512
X20.609 Y13.49
Y13.464
X20.622 Y13.442
X20.644 Y13.428
X20.67
X21.319 Y13.593
G2 X22.044 Y13.385 I0.184 J-0.727
X22.305 Y10.525 I-1.659 J-1.593
G1 X22.289 Y10.502
G0 Z5
X23.721 Y9.628
G1 Z-1.2 F333.3
G2 X24.332 Y10.046 I0.674 J-0.329 F1000
G1 X25.01 Y10.102
X25.034 Y10.111
X25.05 Y10.131
X25.054 Y10.156
X25.046 Y10.181
X25.026 Y10.197
X25 Y10.202
X24.333 Y10.146
G2 X23.652 Y10.47 I-0.062 J0.747
X23.866 Y13.335 I1.898 J1.298
X24.599 Y13.551 I0.549 J-0.511
G1 X25.258 Y13.384
X25.283 Y13.385
X25.305 Y13.399
X25.318 Y13.421
X25.317 Y13.447
X25.304 Y13.469
X25.281 Y13.482
X24.632 Y13.646
G2 X24.093 Y14.174 I0.184 J0.727
X25.225 Y16.814 I2.217 J0.612
X25.989 Y16.78 I0.354 J-0.661
G1 X26.558 Y16.408
X26.583 Y16.401
X26.608 Y16.406
X26.627 Y16.424
X26.635 Y16.448
X26.629 Y16.473
X26.612 Y16.493
X26.051 Y16.859
G2 X25.713 Y17.533 I0.41 J0.628
X27.641 Y19.662 I2.296 J-0.141
X28.353 Y19.383 I0.12 J-0.74
G1 X28.77 Y18.846
X28.791 Y18.831
X28.816 Y18.828
X28.84 Y18.839
X28.855 Y18.859
X28.858 Y18.885
X28.848 Y18.908
X28.437 Y19.437
G2 X28.335 Y20.185 I0.592 J0.461
X30.851 Y21.572 I2.125 J-0.879
X31.433 Y21.077 I-0.127 J-0.739
G1 X31.653 Y20.434
X31.668 Y20.413
X31.691 Y20.402
X31.717 Y20.404
X31.738 Y20.418
X31.75 Y20.441
X31.748 Y20.467
X31.53 Y21.101
G2 X31.677 Y21.841 I0.709 J0.244
X34.506 Y22.337 I1.725 J-1.522
X34.896 Y21.679 I-0.36 J-0.658
G1 Y20.999
X34.903 Y20.975
X34.922 Y20.957
X34.947 Y20.95
X34.971 Y20.957
X34.99 Y20.975
X34.996 Y21
Y21.67
G2 X35.375 Y22.322 I0.75 J0
X38.213 Y21.872 I1.137 J-1.999
X38.368 Y21.124 I-0.554 J-0.505
G1 X38.147 Y20.481
X38.146 Y20.455
X38.157 Y20.432
X38.179 Y20.418
X38.204 Y20.416
X38.227 Y20.428
X38.242 Y20.449
X38.459 Y21.083
G2 X39.03 Y21.577 I0.709 J-0.244
X41.567 Y20.23 I0.426 J-2.26
X41.471 Y19.472 I-0.688 J-0.298
G1 X41.053 Y18.935
X41.044 Y18.912
X41.047 Y18.886
X41.063 Y18.866
X41.087 Y18.856
X41.112 Y18.859
X41.133 Y18.875
X41.544 Y19.404
G2 X42.244 Y19.685 I0.592 J-0.461
X44.207 Y17.588 I-0.331 J-2.276
X43.869 Y16.901 I-0.748 J-0.058
G1 X43.3 Y16.53
X43.283 Y16.51
X43.278 Y16.485
X43.287 Y16.461
X43.306 Y16.444
X43.331 Y16.438
X43.356 Y16.447
X43.917 Y16.813
G2 X44.67 Y16.852 I0.41 J-0.628
X45.845 Y14.231 I-1.052 J-2.045
X45.303 Y13.692 I-0.726 J0.188
G1 X44.644 Y13.525
X44.622 Y13.512
X44.609 Y13.49
Y13.464
X44.622 Y13.442
X44.644 Y13.428
X44.67
X45.319 Y13.593
G2 X46.044 Y13.385 I0.184 J-0.727
X46.305 Y10.525 I-1.659 J-1.593
X45.617 Y10.19 I-0.626 J0.413
G1 X44.94 Y10.247
X44.915 Y10.242
X44.895 Y10.225
X44.887 Y10.2
X44.891 Y10.175
X44.908 Y10.155
X44.932 Y10.147
X45.6 Y10.091
G2 X46.219 Y9.66 I-0.062 J-0.747
X45.536 Y6.87 I-2.086 J-0.968
X44.777 Y6.777 I-0.458 J0.594
G1 X44.155 Y7.05
X44.129 Y7.053
X44.105 Y7.044
X44.09 Y7.023
X44.086 Y6.998
X44.095 Y6.974
X44.115 Y6.958
X44.729 Y6.689
G2 X45.174 Y6.08 I-0.301 J-0.687
X43.622 Y3.662 I-2.288 J-0.238
X42.874 Y3.821 I-0.24 J0.711
G1 X42.375 Y4.281
X42.352 Y4.293
X42.326 Y4.291
X42.304 Y4.277
X42.292 Y4.254
X42.294 Y4.229
X42.307 Y4.207
X42.801 Y3.753
G2 X43.023 Y3.032 I-0.508 J-0.552
X40.771 Y1.25 I-2.241 J0.517
X40.115 Y1.643 I0.004 J0.75
G1 X39.792 Y2.24
X39.774 Y2.259
X39.749 Y2.266
X39.724 Y2.26
X39.705 Y2.242
X39.698 Y2.217
X39.704 Y2.192
X40.023 Y1.603
G2 X40 Y0.849 I-0.66 J-0.357
X37.291 Y-0.106 I-1.952 J1.217
X36.798 Y0.479 I0.247 J0.708
G1 X36.686 Y1.149
X36.675 Y1.172
X36.654 Y1.187
X36.628 Y1.189
X36.605 Y1.178
X36.59 Y1.157
X36.588 Y1.132
X36.698 Y0.471
G2 X36.431 Y-0.235 I-0.74 J-0.123
X33.559 Y-0.258 I-1.451 J1.785
X33.283 Y0.455 I0.464 J0.59
G1 X33.394 Y1.125
X33.392 Y1.151
X33.376 Y1.172
X33.353 Y1.182
X33.327 Y1.179
X33.306 Y1.164
X33.296 Y1.141
X33.185 Y0.48
G2 X32.704 Y-0.101 I-0.74 J0.124
X29.98 Y0.81 I-0.793 J2.159
X29.95 Y1.574 I0.63 J0.407
G1 X30.273 Y2.171
X30.279 Y2.197
X30.271 Y2.221
X30.252 Y2.239
X30.227 Y2.245
X30.203 Y2.237
X30.185 Y2.218
X29.866 Y1.629
G2 X29.222 Y1.236 I-0.66 J0.357
X26.941 Y2.982 I-0.049 J2.299
X27.161 Y3.714 I0.728 J0.18
G1 X27.661 Y4.174
X27.675 Y4.196
Y4.222
X27.663 Y4.245
X27.641 Y4.258
X27.616 Y4.259
X27.593 Y4.247
X27.1 Y3.793
G2 X26.363 Y3.631 I-0.508 J0.552
X24.773 Y6.023 I0.701 J2.191
X25.219 Y6.644 I0.747 J-0.066
G1 X25.841 Y6.917
X25.861 Y6.933
X25.87 Y6.957
X25.866 Y6.983
X25.849 Y7.003
X25.825 Y7.012
X25.8 Y7.008
X25.186 Y6.739
G2 X24.437 Y6.824 I-0.301 J0.687
X23.709 Y9.603 I1.374 J1.844
G1 X23.721 Y9.628
Z-1.5 F333.3
G2 X24.332 Y10.046 I0.674 J-0.329 F1000
G1 X25.01 Y10.102
X25.034 Y10.111
X25.05 Y10.131
X25.054 Y10.156
X25.046 Y10.181
X25.026 Y10.197
X25 Y10.202
X24.333 Y10.146
G2 X23.652 Y10.47 I-0.062 J0.747
X23.866 Y13.335 I1.898 J1.298
X24.599 Y13.551 I0.549 J-0.511
G1 X25.258 Y13.384
X25.283 Y13.385
X25.305 Y13.399
X25.318 Y13.421
X25.317 Y13.447
X25.304 Y13.469
X25.281 Y13.482
X24.632 Y13.646
G2 X24.093 Y14.174 I0.184 J0.727
X25.225 Y16.814 I2.217 J0.612
X25.989 Y16.78 I0.354 J-0.661
G1 X26.558 Y16.408
X26.583 Y16.401
X26.608 Y16.406
X26.627 Y16.424
X26.635 Y16.448
X26.629 Y16.473
X26.612 Y16.493
X26.051 Y16.859
G2 X25.713 Y17.533 I0.41 J0.628
X27.641 Y19.662 I2.296 J-0.141
X28.353 Y19.383 I0.12 J-0.74
G1 X28.77 Y18.846
X28.791 Y18.831
X28.816 Y18.828
X28.84 Y18.839
X28.855 Y18.859
X28.858 Y18.885
X28.848 Y18.908
X28.437 Y19.437
G2 X28.335 Y20.185 I0.592 J0.461
X30.851 Y21.572 I2.125 J-0.879
X31.433 Y21.077 I-0.127 J-0.739
G1 X31.653 Y20.434
X31.668 Y20.413
X31.691 Y20.402
X31.717 Y20.404
X31.738 Y20.418
X31.75 Y20.441
X31.748 Y20.467
X31.53 Y21.101
G2 X31.677 Y21.841 I0.709 J0.244
X34.506 Y22.337 I1.725 J-1.522
X34.896 Y21.679 I-0.36 J-0.658
G1 Y20.999
X34.903 Y20.975
X34.922 Y20.957
X34.947 Y20.95
X34.971 Y20.957
X34.99 Y20.975
X34.996 Y21
Y21.67
G2 X35.375 Y22.322 I0.75 J0
X38.213 Y21.872 I1.137 J-1.999
X38.368 Y21.124 I-0.554 J-0.505
G1 X38.147 Y20.481
X38.146 Y20.455
X38.157 Y20.432
X38.179 Y20.418
X38.204 Y20.416
X38.227 Y20.428
X38.242 Y20.449
X38.459 Y21.083
G2 X39.03 Y21.577 I0.709 J-0.244
X41.567 Y20.23 I0.426 J-2.26
X41.471 Y19.472 I-0.688 J-0.298
G1 X41.053 Y18.935
X41.044 Y18.912
X41.047 Y18.886
X41.063 Y18.866
X41.087 Y18.856
X41.112 Y18.859
X41.133 Y18.875
X41.544 Y19.404
G2 X42.244 Y19.685 I0.592 J-0.461
X44.207 Y17.588 I-0.331 J-2.276
X43.869 Y16.901 I-0.748 J-0.058
G1 X43.3 Y16.53
X43.283 Y16.51
X43.278 Y16.485
X43.287 Y16.461
X43.306 Y16.444
X43.331 Y16.438
X43.356 Y16.447
X43.917 Y16.813
G2 X44.67 Y16.852 I0.41 J-0.628
X45.845 Y14.231 I-1.052 J-2.045
X45.303 Y13.692 I-0.726 J0.188
G1 X44.644 Y13.525
X44.622 Y13.512
X44.609 Y13.49
Y13.464
X44.622 Y13.442
X44.644 Y13.428
X44.67
X45.319 Y13.593
G2 X46.044 Y13.385 I0.184 J-0.727
X46.305 Y10.525 I-1.659 J-1.593
X45.617 Y10.19 I-0.626 J0.413
G1 X44.94 Y10.247
X44.915 Y10.242
X44.895 Y10.225
X44.887 Y10.2
X44.891 Y10.175
X44.908 Y10.155
X44.932 Y10.147
X45.6 Y10.091
G2 X46.219 Y9.66 I-0.062 J-0.747
X45.536 Y6.87 I-2.086 J-0.968
X44.777 Y6.777 I-0.458 J0.594
G1 X44.155 Y7.05
X44.129 Y7.053
X44.105 Y7.044
X44.09 Y7.023
X44.086 Y6.998
X44.095 Y6.974
X44.115 Y6.958
X44.729 Y6.689
G2 X45.174 Y6.08 I-0.301 J-0.687
X43.622 Y3.662 I-2.288 J-0.238
X42.874 Y3.821 I-0.24 J0.711
G1 X42.375 Y4.281
X42.352 Y4.293
X42.326 Y4.291
X42.304 Y4.277
X42.292 Y4.254
X42.294 Y4.229
X42.307 Y4.207
X42.801 Y3.753
G2 X43.023 Y3.032 I-0.508 J-0.552
X40.771 Y1.25 I-2.241 J0.517
X40.115 Y1.643 I0.004 J0.75
G1 X39.792 Y2.24
X39.774 Y2.259
X39.749 Y2.266
X39.724 Y2.26
X39.705 Y2.242
X39.698 Y2.217
X39.704 Y2.192
X40.023 Y1.603
G2 X40 Y0.849 I-0.66 J-0.357
X37.291 Y-0.106 I-1.952 J1.217
X36.798 Y0.479 I0.247 J0.708
G1 X36.686 Y1.149
X36.675 Y1.172
X36.654 Y1.187
X36.628 Y1.189
X36.605 Y1.178
X36.59 Y1.157
X36.588 Y1.132
X36.698 Y0.471
G2 X36.431 Y-0.235 I-0.74 J-0.123
X33.559 Y-0.258 I-1.451 J1.785
X33.283 Y0.455 I0.464 J0.59
G1 X33.394 Y1.125
X33.392 Y1.151
X33.376 Y1.172
X33.353 Y1.182
X33.327 Y1.179
X33.306 Y1.164
X33.296 Y1.141
X33.185 Y0.48
G2 X32.704 Y-0.101 I-0.74 J0.124
X29.98 Y0.81 I-0.793 J2.159
X29.95 Y1.574 I0.63 J0.407
G1 X30.273 Y2.171
X30.279 Y2.197
X30.271 Y2.221
X30.252 Y2.239
X30.227 Y2.245
X30.203 Y2.237
X30.185 Y2.218
X29.866 Y1.629
G2 X29.222 Y1.236 I-0.66 J0.357
X26.941 Y2.982 I-0.049 J2.299
X27.161 Y3.714 I0.728 J0.18
G1 X27.661 Y4.174
X27.675 Y4.196
Y4.222
X27.663 Y4.245
X27.641 Y4.258
X27.616 Y4.259
X27.593 Y4.247
X27.1 Y3.793
G2 X26.363 Y3.631 I-0.508 J0.552
X24.773 Y6.023 I0.701 J2.191
X25.219 Y6.644 I0.747 J-0.066
G1 X25.841 Y6.917
X25.861 Y6.933
X25.87 Y6.957
X25.866 Y6.983
X25.849 Y7.003
X25.825 Y7.012
X25.8 Y7.008
X25.186 Y6.739
G2 X24.437 Y6.824 I-0.301 J0.687
X23.709 Y9.603 I1.374 J1.844
G1 X23.721 Y9.628
G0 Z5
X22.289 Y10.502
G1 Z-1.5 F333.3
G2 X21.617 Y10.19 I-0.61 J0.436 F1000
G1 X20.94 Y10.247
X20.915 Y10.242
X20.895 Y10.225
X20.887 Y10.2
X20.891 Y10.175
X20.908 Y10.155
X20.932 Y10.147
X21.6 Y10.091
G2 X22.219 Y9.66 I-0.062 J-0.747
X21.536 Y6.87 I-2.086 J-0.968
X20.777 Y6.777 I-0.458 J0.594
G1 X20.155 Y7.05
X20.129 Y7.053
X20.105 Y7.044
X20.09 Y7.023
X20.086 Y6.998
X20.095 Y6.974
X20.115 Y6.958
X20.729 Y6.689
G2 X21.174 Y6.08 I-0.301 J-0.687
X19.622 Y3.662 I-2.288 J-0.238
X18.874 Y3.821 I-0.24 J0.711
G1 X18.375 Y4.281
X18.352 Y4.293
X18.326 Y4.291
X18.304 Y4.277
X18.292 Y4.254
X18.294 Y4.229
X18.307 Y4.207
X18.801 Y3.753
G2 X19.023 Y3.032 I-0.508 J-0.552
X16.771 Y1.25 I-2.241 J0.517
X16.115 Y1.643 I0.004 J0.75
G1 X15.792 Y2.24
X15.774 Y2.259
X15.749 Y2.266
X15.724 Y2.26
X15.705 Y2.242
X15.698 Y2.217
X15.704 Y2.192
X16.023 Y1.603
G2 X16 Y0.849 I-0.66 J-0.357
X13.291 Y-0.106 I-1.952 J1.217
X12.798 Y0.479 I0.247 J0.708
G1 X12.686 Y1.149
X12.675 Y1.172
X12.654 Y1.187
X12.628 Y1.189
X12.605 Y1.178
X12.59 Y1.157
X12.588 Y1.132
X12.698 Y0.471
G2 X12.431 Y-0.235 I-0.74 J-0.123
X9.559 Y-0.258 I-1.451 J1.785
X9.283 Y0.455 I0.464 J0.59
G1 X9.394 Y1.125
X9.392 Y1.151
X9.376 Y1.172
X9.353 Y1.182
X9.327 Y1.179
X9.306 Y1.164
X9.296 Y1.141
X9.185 Y0.48
G2 X8.704 Y-0.101 I-0.74 J0.123
X5.98 Y0.81 I-0.793 J2.159
X5.95 Y1.574 I0.63 J0.407
G1 X6.273 Y2.171
X6.279 Y2.197
X6.271 Y2.221
X6.252 Y2.239
X6.227 Y2.245
X6.203 Y2.237
X6.185 Y2.218
X5.866 Y1.629
G2 X5.222 Y1.236 I-0.66 J0.357
X2.941 Y2.982 I-0.049 J2.299
X3.161 Y3.714 I0.728 J0.181
G1 X3.661 Y4.174
X3.675 Y4.196
Y4.222
X3.663 Y4.245
X3.641 Y4.258
X3.616 Y4.259
X3.593 Y4.247
X3.1 Y3.793
G2 X2.363 Y3.631 I-0.508 J0.552
X0.773 Y6.023 I0.701 J2.191
X1.219 Y6.644 I0.747 J-0.066
G1 X1.841 Y6.917
X1.861 Y6.933
X1.87 Y6.957
X1.866 Y6.983
X1.849 Y7.003
X1.825 Y7.012
X1.8 Y7.008
X1.186 Y6.739
G2 X0.437 Y6.824 I-0.301 J0.687
X-0.291 Y9.603 I1.374 J1.844
X0.332 Y10.046 I0.685 J-0.305
G1 X1.01 Y10.102
X1.034 Y10.111
X1.05 Y10.131
X1.054 Y10.156
X1.046 Y10.181
X1.026 Y10.197
X1 Y10.202
X0.333 Y10.146
G2 X-0.348 Y10.47 I-0.062 J0.747
X-0.134 Y13.335 I1.898 J1.298
X0.599 Y13.551 I0.549 J-0.511
G1 X1.258 Y13.384
X1.283 Y13.385
X1.305 Y13.399
X1.318 Y13.421
X1.317 Y13.447
X1.304 Y13.469
X1.281 Y13.482
X0.632 Y13.646
G2 X0.093 Y14.174 I0.184 J0.727
X1.225 Y16.814 I2.217 J0.612
X1.989 Y16.78 I0.354 J-0.661
G1 X2.558 Y16.408
X2.583 Y16.401
X2.608 Y16.406
X2.627 Y16.424
X2.635 Y16.448
X2.629 Y16.473
X2.612 Y16.493
X2.051 Y16.859
G2 X1.713 Y17.533 I0.41 J0.628
X3.641 Y19.662 I2.296 J-0.141
X4.353 Y19.383 I0.12 J-0.74
G1 X4.77 Y18.846
X4.791 Y18.831
X4.816 Y18.828
X4.84 Y18.838
X4.855 Y18.859
X4.858 Y18.885
X4.848 Y18.908
X4.437 Y19.437
G2 X4.335 Y20.185 I0.592 J0.461
X6.851 Y21.572 I2.125 J-0.879
X7.433 Y21.077 I-0.127 J-0.739
G1 X7.653 Y20.434
X7.668 Y20.413
X7.691 Y20.402
X7.717 Y20.404
X7.738 Y20.418
X7.75 Y20.442
X7.748 Y20.467
X7.53 Y21.101
G2 X7.677 Y21.841 I0.709 J0.244
X10.506 Y22.337 I1.725 J-1.522
X10.896 Y21.679 I-0.36 J-0.658
G1 Y20.999
X10.903 Y20.975
X10.922 Y20.957
X10.947 Y20.95
X10.971 Y20.957
X10.99 Y20.975
X10.996 Y21
Y21.67
G2 X11.375 Y22.322 I0.75 J0
X14.213 Y21.872 I1.137 J-1.999
X14.368 Y21.124 I-0.554 J-0.505
G1 X14.147 Y20.481
X14.146 Y20.455
X14.157 Y20.432
X14.179 Y20.418
X14.204 Y20.416
X14.227 Y20.428
X14.242 Y20.449
X14.459 Y21.083
G2 X15.03 Y21.577 I0.709 J-0.244
X17.567 Y20.23 I0.426 J-2.26
X17.471 Y19.472 I-0.688 J-0.298
G1 X17.053 Y18.935
X17.044 Y18.912
X17.047 Y18.886
X17.063 Y18.866
X17.087 Y18.856
X17.112 Y18.859
X17.133 Y18.875
X17.544 Y19.404
G2 X18.244 Y19.685 I0.592 J-0.461
X20.207 Y17.588 I-0.331 J-2.276
X19.869 Y16.901 I-0.748 J-0.058
G1 X19.3 Y16.53
X19.283 Y16.51
X19.278 Y16.485
X19.287 Y16.461
X19.306 Y16.444
X19.331 Y16.438
X19.356 Y16.447
X19.917 Y16.813
G2 X20.67 Y16.852 I0.41 J-0.628
X21.845 Y14.231 I-1.052 J-2.045
X21.303 Y13.692 I-0.726 J0.188
G1 X20.644 Y13.525
X20.622 Y13.512
X20.609 Y13.49
Y13.464
X20.622 Y13.442
X20.644 Y13.428
X20.67
X21.319 Y13.593
G2 X22.044 Y13.385 I0.184 J-0.727
X22.305 Y10.525 I-1.659 J-1.593
G1 X22.289 Y10.502
Z-1.8 F333.3
G2 X21.617 Y10.19 I-0.61 J0.436 F1000
G1 X20.94 Y10.247
X20.915 Y10.242
X20.895 Y10.225
X20.887 Y10.2
X20.891 Y10.175
X20.908 Y10.155
X20.932 Y10.147
X21.6 Y10.091
G2 X22.219 Y9.66 I-0.062 J-0.747
X21.536 Y6.87 I-2.086 J-0.968
X20.777 Y6.777 I-0.458 J0.594
G1 X20.155 Y7.05
X20.129 Y7.053
X20.105 Y7.044
X20.09 Y7.023
X20.086 Y6.998
X20.095 Y6.974
X20.115 Y6.958
X20.729 Y6.689
G2 X21.174 Y6.08 I-0.301 J-0.687
X19.622 Y3.662 I-2.288 J-0.238
X18.874 Y3.821 I-0.24 J0.711
G1 X18.375 Y4.281
X18.352 Y4.293
X18.326 Y4.291
X18.304 Y4.277
X18.292 Y4.254
X18.294 Y4.229
X18.307 Y4.207
X18.801 Y3.753
G2 X19.023 Y3.032 I-0.508 J-0.552
X16.771 Y1.25 I-2.241 J0.517
X16.115 Y1.643 I0.004 J0.75
G1 X15.792 Y2.24
X15.774 Y2.259
X15.749 Y2.266
X15.724 Y2.26
X15.705 Y2.242
X15.698 Y2.217
X15.704 Y2.192
X16.023 Y1.603
G2 X16 Y0.849 I-0.66 J-0.357
X13.291 Y-0.106 I-1.952 J1.217
X12.798 Y0.479 I0.247 J0.708
G1 X12.686 Y1.149
X12.675 Y1.172
X12.654 Y1.187
X12.628 Y1.189
X12.605 Y1.178
X12.59 Y1.157
X12.588 Y1.132
X12.698 Y0.471
G2 X12.431 Y-0.235 I-0.74 J-0.123
X9.559 Y-0.258 I-1.451 J1.785
X9.283 Y0.455 I0.464 J0.59
G1 X9.394 Y1.125
X9.392 Y1.151
X9.376 Y1.172
X9.353 Y1.182
X9.327 Y1.179
X9.306 Y1.164
X9.296 Y1.141
X9.185 Y0.48
G2 X8.704 Y-0.101 I-0.74 J0.123
X5.98 Y0.81 I-0.793 J2.159
X5.95 Y1.574 I0.63 J0.407
G1 X6.273 Y2.171
X6.279 Y2.197
X6.271 Y2.221
X6.252 Y2.239
X6.227 Y2.245
X6.203 Y2.237
X6.185 Y2.218
X5.866 Y1.629
G2 X5.222 Y1.236 I-0.66 J0.357
X2.941 Y2.982 I-0.049 J2.299
X3.161 Y3.714 I0.728 J0.181
G1 X3.661 Y4.174
X3.675 Y4.196
Y4.222
X3.663 Y4.245
X3.641 Y4.258
X3.616 Y4.259
X3.593 Y4.247
X3.1 Y3.793
G2 X2.363 Y3.631 I-0.508 J0.552
X0.773 Y6.023 I0.701 J2.191
X1.219 Y6.644 I0.747 J-0.066
G1 X1.841 Y6.917
X1.861 Y6.933
X1.87 Y6.957
X1.866 Y6.983
X1.849 Y7.003
X1.825 Y7.012
X1.8 Y7.008
X1.186 Y6.739
G2 X0.437 Y6.824 I-0.301 J0.687
X-0.291 Y9.603 I1.374 J1.844
X0.332 Y10.046 I0.685 J-0.305
G1 X1.01 Y10.102
X1.034 Y10.111
X1.05 Y10.131
X1.054 Y10.156
X1.046 Y10.181
X1.026 Y10.197
X1 Y10.202
X0.333 Y10.146
G2 X-0.348 Y10.47 I-0.062 J0.747
X-0.134 Y13.335 I1.898 J1.298
X0.599 Y13.551 I0.549 J-0.511
G1 X1.258 Y13.384
X1.283 Y13.385
X1.305 Y13.399
X1.318 Y13.421
X1.317 Y13.447
X1.304 Y13.469
X1.281 Y13.482
X0.632 Y13.646
G2 X0.093 Y14.174 I0.184 J0.727
X1.225 Y16.814 I2.217 J0.612
X1.989 Y16.78 I0.354 J-0.661
G1 X2.558 Y16.408
X2.583 Y16.401
X2.608 Y16.406
X2.627 Y16.424
X2.635 Y16.448
X2.629 Y16.473
X2.612 Y16.493
X2.051 Y16.859
G2 X1.713 Y17.533 I0.41 J0.628
X3.641 Y19.662 I2.296 J-0.141
X4.353 Y19.383 I0.12 J-0.74
G1 X4.77 Y18.846
X4.791 Y18.831
X4.816 Y18.828
X4.84 Y18.838
X4.855 Y18.859
X4.858 Y18.885
X4.848 Y18.908
X4.437 Y19.437
G2 X4.335 Y20.185 I0.592 J0.461
X6.851 Y21.572 I2.125 J-0.879
X7.433 Y21.077 I-0.127 J-0.739
G1 X7.653 Y20.434
X7.668 Y20.413
X7.691 Y20.402
X7.717 Y20.404
X7.738 Y20.418
X7.75 Y20.442
X7.748 Y20.467
X7.53 Y21.101
G2 X7.677 Y21.841 I0.709 J0.244
X10.506 Y22.337 I1.725 J-1.522
X10.896 Y21.679 I-0.36 J-0.658
G1 Y20.999
X10.903 Y20.975
X10.922 Y20.957
X10.947 Y20.95
X10.971 Y20.957
X10.99 Y20.975
X10.996 Y21
Y21.67
G2 X11.375 Y22.322 I0.75 J0
X14.213 Y21.872 I1.137 J-1.999
X14.368 Y21.124 I-0.554 J-0.505
G1 X14.147 Y20.481
X14.146 Y20.455
X14.157 Y20.432
X14.179 Y20.418
X14.204 Y20.416
X14.227 Y20.428
X14.242 Y20.449
X14.459 Y21.083
G2 X15.03 Y21.577 I0.709 J-0.244
X17.567 Y20.23 I0.426 J-2.26
X17.471 Y19.472 I-0.688 J-0.298
G1 X17.053 Y18.935
X17.044 Y18.912
X17.047 Y18.886
X17.063 Y18.866
X17.087 Y18.856
X17.112 Y18.859
X17.133 Y18.875
X17.544 Y19.404
G2 X18.244 Y19.685 I0.592 J-0.461
X20.207 Y17.588 I-0.331 J-2.276
X19.869 Y16.901 I-0.748 J-0.058
G1 X19.3 Y16.53
X19.283 Y16.51
X19.278 Y16.485
X19.287 Y16.461
X19.306 Y16.444
X19.331 Y16.438
X19.356 Y16.447
X19.917 Y16.813
G2 X20.67 Y16.852 I0.41 J-0.628
X21.845 Y14.231 I-1.052 J-2.045
X21.303 Y13.692 I-0.726 J0.188
G1 X20.644 Y13.525
X20.622 Y13.512
X20.609 Y13.49
Y13.464
X20.622 Y13.442
X20.644 Y13.428
X20.67
X21.319 Y13.593
G2 X22.044 Y13.385 I0.184 J-0.727
X22.305 Y10.525 I-1.659 J-1.593
G1 X22.289 Y10.502
G0 Z5
X23.721 Y9.628
G1 Z-1.8 F333.3
G2 X24.332 Y10.046 I0.674 J-0.329 F1000
G1 X25.01 Y10.102
X25.034 Y10.111
X25.05 Y10.131
X25.054 Y10.156
X25.046 Y10.181
X25.026 Y10.197
X25 Y10.202
X24.333 Y10.146
G2 X23.652 Y10.47 I-0.062 J0.747
X23.866 Y13.335 I1.898 J1.298
X24.599 Y13.551 I0.549 J-0.511
G1 X25.258 Y13.384
X25.283 Y13.385
X25.305 Y13.399
X25.318 Y13.421
X25.317 Y13.447
X25.304 Y13.469
X25.281 Y13.482
X24.632 Y13.646
G2 X24.093 Y14.174 I0.184 J0.727
X25.225 Y16.814 I2.217 J0.612
X25.989 Y16.78 I0.354 J-0.661
G1 X26.558 Y16.408
X26.583 Y16.401
X26.608 Y16.406
X26.627 Y16.424
X26.635 Y16.448
X26.629 Y16.473
X26.612 Y16.493
X26.051 Y16.859
G2 X25.713 Y17.533 I0.41 J0.628
X27.641 Y19.662 I2.296 J-0.141
X28.353 Y19.383 I0.12 J-0.74
G1 X28.77 Y18.846
X28.791 Y18.831
X28.816 Y18.828
X28.84 Y18.839
X28.855 Y18.859
X28.858 Y18.885
X28.848 Y18.908
X28.437 Y19.437
G2 X28.335 Y20.185 I0.592 J0.461
X30.851 Y21.572 I2.125 J-0.879
X31.433 Y21.077 I-0.127 J-0.739
G1 X31.653 Y20.434
X31.668 Y20.413
X31.691 Y20.402
X31.717 Y20.404
X31.738 Y20.418
X31.75 Y20.441
X31.748 Y20.467
X31.53 Y21.101
G2 X31.677 Y21.841 I0.709 J0.244
X34.506 Y22.337 I1.725 J-1.522
X34.896 Y21.679 I-0.36 J-0.658
G1 Y20.999
X34.903 Y20.975
X34.922 Y20.957
X34.947 Y20.95
X34.971 Y20.957
X34.99 Y20.975
X34.996 Y21
Y21.67
G2 X35.375 Y22.322 I0.75 J0
X38.213 Y21.872 I1.137 J-1.999
X38.368 Y21.124 I-0.554 J-0.505
G1 X38.147 Y20.481
X38.146 Y20.455
X38.157 Y20.432
X38.179 Y20.418
X38.204 Y20.416
X38.227 Y20.428
X38.242 Y20.449
X38.459 Y21.083
G2 X39.03 Y21.577 I0.709 J-0.244
X41.567 Y20.23 I0.426 J-2.26
X41.471 Y19.472 I-0.688 J-0.298
G1 X41.053 Y18.935
X41.044 Y18.912
X41.047 Y18.886
X41.063 Y18.866
X41.087 Y18.856
X41.112 Y18.859
X41.133 Y18.875
X41.544 Y19.404
G2 X42.244 Y19.685 I0.592 J-0.461
X44.207 Y17.588 I-0.331 J-2.276
X43.869 Y16.901 I-0.748 J-0.058
G1 X43.3 Y16.53
X43.283 Y16.51
X43.278 Y16.485
X43.287 Y16.461
X43.306 Y16.444
X43.331 Y16.438
X43.356 Y16.447
X43.917 Y16.813
G2 X44.67 Y16.852 I0.41 J-0.628
X45.845 Y14.231 I-1.052 J-2.045
X45.303 Y13.692 I-0.726 J0.188
G1 X44.644 Y13.525
X44.622 Y13.512
X44.609 Y13.49
Y13.464
X44.622 Y13.442
X44.644 Y13.428
X44.67
X45.319 Y13.593
G2 X46.044 Y13.385 I0.184 J-0.727
X46.305 Y10.525 I-1.659 J-1.593
X45.617 Y10.19 I-0.626 J0.413
G1 X44.94 Y10.247
X44.915 Y10.242
X44.895 Y10.225
X44.887 Y10.2
X44.891 Y10.175
X44.908 Y10.155
X44.932 Y10.147
X45.6 Y10.091
G2 X46.219 Y9.66 I-0.062 J-0.747
X45.536 Y6.87 I-2.086 J-0.968
X44.777 Y6.777 I-0.458 J0.594
G1 X44.155 Y7.05
X44.129 Y7.053
X44.105 Y7.044
X44.09 Y7.023
X44.086 Y6.998
X44.095 Y6.974
X44.115 Y6.958
X44.729 Y6.689
G2 X45.174 Y6.08 I-0.301 J-0.687
X43.622 Y3.662 I-2.288 J-0.238
X42.874 Y3.821 I-0.24 J0.711
G1 X42.375 Y4.281
X42.352 Y4.293
X42.326 Y4.291
X42.304 Y4.277
X42.292 Y4.254
X42.294 Y4.229
X42.307 Y4.207
X42.801 Y3.753
G2 X43.023 Y3.032 I-0.508 J-0.552
X40.771 Y1.25 I-2.241 J0.517
X40.115 Y1.643 I0.004 J0.75
G1 X39.792 Y2.24
X39.774 Y2.259
X39.749 Y2.266
X39.724 Y2.26
X39.705 Y2.242
X39.698 Y2.217
X39.704 Y2.192
X40.023 Y1.603
G2 X40 Y0.849 I-0.66 J-0.357
X37.291 Y-0.106 I-1.952 J1.217
X36.798 Y0.479 I0.247 J0.708
G1 X36.686 Y1.149
X36.675 Y1.172
X36.654 Y1.187
X36.628 Y1.189
X36.605 Y1.178
X36.59 Y1.157
X36.588 Y1.132
X36.698 Y0.471
G2 X36.431 Y-0.235 I-0.74 J-0.123
X33.559 Y-0.258 I-1.451 J1.785
X33.283 Y0.455 I0.464 J0.59
G1 X33.394 Y1.125
X33.392 Y1.151
X33.376 Y1.172
X33.353 Y1.182
X33.327 Y1.179
X33.306 Y1.164
X33.296 Y1.141
X33.185 Y0.48
G2 X32.704 Y-0.101 I-0.74 J0.124
X29.98 Y0.81 I-0.793 J2.159
X29.95 Y1.574 I0.63 J0.407
G1 X30.273 Y2.171
X30.279 Y2.197
X30.271 Y2.221
X30.252 Y2.239
X30.227 Y2.245
X30.203 Y2.237
X30.185 Y2.218
X29.866 Y1.629
G2 X29.222 Y1.236 I-0.66 J0.357
X26.941 Y2.982 I-0.049 J2.299
X27.161 Y3.714 I0.728 J0.18
G1 X27.661 Y4.174
X27.675 Y4.196
Y4.222
X27.663 Y4.245
X27.641 Y4.258
X27.616 Y4.259
X27.593 Y4.247
X27.1 Y3.793
G2 X26.363 Y3.631 I-0.508 J0.552
X24.773 Y6.023 I0.701 J2.191
X25.219 Y6.644 I0.747 J-0.066
G1 X25.841 Y6.917
X25.861 Y6.933
X25.87 Y6.957
X25.866 Y6.983
X25.849 Y7.003
X25.825 Y7.012
X25.8 Y7.008
X25.186 Y6.739
G2 X24.437 Y6.824 I-0.301 J0.687
X23.709 Y9.603 I1.374 J1.844
G1 X23.721 Y9.628
Z-2.1 F333.3
G2 X24.332 Y10.046 I0.674 J-0.329 F1000
G1 X25.01 Y10.102
X25.034 Y10.111
X25.05 Y10.131
X25.054 Y10.156
X25.046 Y10.181
X25.026 Y10.197
X25 Y10.202
X24.333 Y10.146
G2 X23.652 Y10.47 I-0.062 J0.747
X23.866 Y13.335 I1.898 J1.298
X24.599 Y13.551 I0.549 J-0.511
G1 X25.258 Y13.384
X25.283 Y13.385
X25.305 Y13.399
X25.318 Y13.421
X25.317 Y13.447
X25.304 Y13.469
X25.281 Y13.482
X24.632 Y13.646
G2 X24.093 Y14.174 I0.184 J0.727
X25.225 Y16.814 I2.217 J0.612
X25.989 Y16.78 I0.354 J-0.661
G1 X26.558 Y16.408
X26.583 Y16.401
X26.608 Y16.406
X26.627 Y16.424
X26.635 Y16.448
X26.629 Y16.473
X26.612 Y16.493
X26.051 Y16.859
G2 X25.713 Y17.533 I0.41 J0.628
X27.641 Y19.662 I2.296 J-0.141
X28.353 Y19.383 I0.12 J-0.74
G1 X28.77 Y18.846
X28.791 Y18.831
X28.816 Y18.828
X28.84 Y18.839
X28.855 Y18.859
X28.858 Y18.885
X28.848 Y18.908
X28.437 Y19.437
G2 X28.335 Y20.185 I0.592 J0.461
X30.851 Y21.572 I2.125 J-0.879
X31.433 Y21.077 I-0.127 J-0.739
G1 X31.653 Y20.434
X31.668 Y20.413
X31.691 Y20.402
X31.717 Y20.404
X31.738 Y20.418
X31.75 Y20.441
X31.748 Y20.467
X31.53 Y21.101
G2 X31.677 Y21.841 I0.709 J0.244
X34.506 Y22.337 I1.725 J-1.522
X34.896 Y21.679 I-0.36 J-0.658
G1 Y20.999
X34.903 Y20.975
X34.922 Y20.957
X34.947 Y20.95
X34.971 Y20.957
X34.99 Y20.975
X34.996 Y21
Y21.67
G2 X35.375 Y22.322 I0.75 J0
X38.213 Y21.872 I1.137 J-1.999
X38.368 Y21.124 I-0.554 J-0.505
G1 X38.147 Y20.481
X38.146 Y20.455
X38.157 Y20.432
X38.179 Y20.418
X38.204 Y20.416
X38.227 Y20.428
X38.242 Y20.449
X38.459 Y21.083
G2 X39.03 Y21.577 I0.709 J-0.244
X41.567 Y20.23 I0.426 J-2.26
X41.471 Y19.472 I-0.688 J-0.298
G1 X41.053 Y18.935
X41.044 Y18.912
X41.047 Y18.886
X41.063 Y18.866
X41.087 Y18.856
X41.112 Y18.859
X41.133 Y18.875
X41.544 Y19.404
G2 X42.244 Y19.685 I0.592 J-0.461
X44.207 Y17.588 I-0.331 J-2.276
X43.869 Y16.901 I-0.748 J-0.058
G1 X43.3 Y16.53
X43.283 Y16.51
X43.278 Y16.485
X43.287 Y16.461
X43.306 Y16.444
X43.331 Y16.438
X43.356 Y16.447
X43.917 Y16.813
G2 X44.67 Y16.852 I0.41 J-0.628
X45.845 Y14.231 I-1.052 J-2.045
X45.303 Y13.692 I-0.726 J0.188
G1 X44.644 Y13.525
X44.622 Y13.512
X44.609 Y13.49
Y13.464
X44.622 Y13.442
X44.644 Y13.428
X44.67
X45.319 Y13.593
G2 X46.044 Y13.385 I0.184 J-0.727
X46.305 Y10.525 I-1.659 J-1.593
X45.617 Y10.19 I-0.626 J0.413
G1 X44.94 Y10.247
X44.915 Y10.242
X44.895 Y10.225
X44.887 Y10.2
X44.891 Y10.175
X44.908 Y10.155
X44.932 Y10.147
X45.6 Y10.091
G2 X46.219 Y9.66 I-0.062 J-0.747
X45.536 Y6.87 I-2.086 J-0.968
X44.777 Y6.777 I-0.458 J0.594
G1 X44.155 Y7.05
X44.129 Y7.053
X44.105 Y7.044
X44.09 Y7.023
X44.086 Y6.998
X44.095 Y6.974
X44.115 Y6.958
X44.729 Y6.689
G2 X45.174 Y6.08 I-0.301 J-0.687
X43.622 Y3.662 I-2.288 J-0.238
X42.874 Y3.821 I-0.24 J0.711
G1 X42.375 Y4.281
X42.352 Y4.293
X42.326 Y4.291
X42.304 Y4.277
X42.292 Y4.254
X42.294 Y4.229
X42.307 Y4.207
X42.801 Y3.753
G2 X43.023 Y3.032 I-0.508 J-0.552
X40.771 Y1.25 I-2.241 J0.517
X40.115 Y1.643 I0.004 J0.75
G1 X39.792 Y2.24
X39.774 Y2.259
X39.749 Y2.266
X39.724 Y2.26
X39.705 Y2.242
X39.698 Y2.217
X39.704 Y2.192
X40.023 Y1.603
G2 X40 Y0.849 I-0.66 J-0.357
X37.291 Y-0.106 I-1.952 J1.217
X36.798 Y0.479 I0.247 J0.708
G1 X36.686 Y1.149
X36.675 Y1.172
X36.654 Y1.187
X36.628 Y1.189
X36.605 Y1.178
X36.59 Y1.157
X36.588 Y1.132
X36.698 Y0.471
G2 X36.431 Y-0.235 I-0.74 J-0.123
X33.559 Y-0.258 I-1.451 J1.785
X33.283 Y0.455 I0.464 J0.59
G1 X33.394 Y1.125
X33.392 Y1.151
X33.376 Y1.172
X33.353 Y1.182
X33.327 Y1.179
X33.306 Y1.164
X33.296 Y1.141
X33.185 Y0.48
G2 X32.704 Y-0.101 I-0.74 J0.124
X29.98 Y0.81 I-0.793 J2.159
X29.95 Y1.574 I0.63 J0.407
G1 X30.273 Y2.171
X30.279 Y2.197
X30.271 Y2.221
X30.252 Y2.239
X30.227 Y2.245
X30.203 Y2.237
X30.185 Y2.218
X29.866 Y1.629
G2 X29.222 Y1.236 I-0.66 J0.357
X26.941 Y2.982 I-0.049 J2.299
X27.161 Y3.714 I0.728 J0.18
G1 X27.661 Y4.174
X27.675 Y4.196
Y4.222
X27.663 Y4.245
X27.641 Y4.258
X27.616 Y4.259
X27.593 Y4.247
X27.1 Y3.793
G2 X26.363 Y3.631 I-0.508 J0.552
X24.773 Y6.023 I0.701 J2.191
X25.219 Y6.644 I0.747 J-0.066
G1 X25.841 Y6.917
X25.861 Y6.933
X25.87 Y6.957
X25.866 Y6.983
X25.849 Y7.003
X25.825 Y7.012
X25.8 Y7.008
X25.186 Y6.739
G2 X24.437 Y6.824 I-0.301 J0.687
X23.709 Y9.603 I1.374 J1.844
G1 X23.721 Y9.628
G0 Z5
X22.289 Y10.502
G1 Z-2.1 F333.3
G2 X21.617 Y10.19 I-0.61 J0.436 F1000
G1 X20.94 Y10.247
X20.915 Y10.242
X20.895 Y10.225
X20.887 Y10.2
X20.891 Y10.175
X20.908 Y10.155
X20.932 Y10.147
X21.6 Y10.091
G2 X22.219 Y9.66 I-0.062 J-0.747
X21.536 Y6.87 I-2.086 J-0.968
X20.777 Y6.777 I-0.458 J0.594
G1 X20.155 Y7.05
X20.129 Y7.053
X20.105 Y7.044
X20.09 Y7.023
X20.086 Y6.998
X20.095 Y6.974
X20.115 Y6.958
X20.729 Y6.689
G2 X21.174 Y6.08 I-0.301 J-0.687
X19.622 Y3.662 I-2.288 J-0.238
X18.874 Y3.821 I-0.24 J0.711
G1 X18.375 Y4.281
X18.352 Y4.293
X18.326 Y4.291
X18.304 Y4.277
X18.292 Y4.254
X18.294 Y4.229
X18.307 Y4.207
X18.801 Y3.753
G2 X19.023 Y3.032 I-0.508 J-0.552
X16.771 Y1.25 I-2.241 J0.517
X16.115 Y1.643 I0.004 J0.75
G1 X15.792 Y2.24
X15.774 Y2.259
X15.749 Y2.266
X15.724 Y2.26
X15.705 Y2.242
X15.698 Y2.217
X15.704 Y2.192
X16.023 Y1.603
G2 X16 Y0.849 I-0.66 J-0.357
X13.291 Y-0.106 I-1.952 J1.217
X12.798 Y0.479 I0.247 J0.708
G1 X12.686 Y1.149
X12.675 Y1.172
X12.654 Y1.187
X12.628 Y1.189
X12.605 Y1.178
X12.59 Y1.157
X12.588 Y1.132
X12.698 Y0.471
G2 X12.431 Y-0.235 I-0.74 J-0.123
X9.559 Y-0.258 I-1.451 J1.785
X9.283 Y0.455 I0.464 J0.59
G1 X9.394 Y1.125
X9.392 Y1.151
X9.376 Y1.172
X9.353 Y1.182
X9.327 Y1.179
X9.306 Y1.164
X9.296 Y1.141
X9.185 Y0.48
G2 X8.704 Y-0.101 I-0.74 J0.123
X5.98 Y0.81 I-0.793 J2.159
X5.95 Y1.574 I0.63 J0.407
G1 X6.273 Y2.171
X6.279 Y2.197
X6.271 Y2.221
X6.252 Y2.239
X6.227 Y2.245
X6.203 Y2.237
X6.185 Y2.218
X5.866 Y1.629
G2 X5.222 Y1.236 I-0.66 J0.357
X2.941 Y2.982 I-0.049 J2.299
X3.161 Y3.714 I0.728 J0.181
G1 X3.661 Y4.174
X3.675 Y4.196
Y4.222
X3.663 Y4.245
X3.641 Y4.258
X3.616 Y4.259
X3.593 Y4.247
X3.1 Y3.793
G2 X2.363 Y3.631 I-0.508 J0.552
X0.773 Y6.023 I0.701 J2.191
X1.219 Y6.644 I0.747 J-0.066
G1 X1.841 Y6.917
X1.861 Y6.933
X1.87 Y6.957
X1.866 Y6.983
X1.849 Y7.003
X1.825 Y7.012
X1.8 Y7.008
X1.186 Y6.739
G2 X0.437 Y6.824 I-0.301 J0.687
X-0.291 Y9.603 I1.374 J1.844
X0.332 Y10.046 I0.685 J-0.305
G1 X1.01 Y10.102
X1.034 Y10.111
X1.05 Y10.131
X1.054 Y10.156
X1.046 Y10.181
X1.026 Y10.197
X1 Y10.202
X0.333 Y10.146
G2 X-0.348 Y10.47 I-0.062 J0.747
X-0.134 Y13.335 I1.898 J1.298
X0.599 Y13.551 I0.549 J-0.511
G1 X1.258 Y13.384
X1.283 Y13.385
X1.305 Y13.399
X1.318 Y13.421
X1.317 Y13.447
X1.304 Y13.469
X1.281 Y13.482
X0.632 Y13.646
G2 X0.093 Y14.174 I0.184 J0.727
X1.225 Y16.814 I2.217 J0.612
X1.989 Y16.78 I0.354 J-0.661
G1 X2.558 Y16.408
X2.583 Y16.401
X2.608 Y16.406
X2.627 Y16.424
X2.635 Y16.448
X2.629 Y16.473
X2.612 Y16.493
X2.051 Y16.859
G2 X1.713 Y17.533 I0.41 J0.628
X3.641 Y19.662 I2.296 J-0.141
X4.353 Y19.383 I0.12 J-0.74
G1 X4.77 Y18.846
X4.791 Y18.831
X4.816 Y18.828
X4.84 Y18.838
X4.855 Y18.859
X4.858 Y18.885
X4.848 Y18.908
X4.437 Y19.437
G2 X4.335 Y20.185 I0.592 J0.461
X6.851 Y21.572 I2.125 J-0.879
X7.433 Y21.077 I-0.127 J-0.739
G1 X7.653 Y20.434
X7.668 Y20.413
X7.691 Y20.402
X7.717 Y20.404
X7.738 Y20.418
X7.75 Y20.442
X7.748 Y20.467
X7.53 Y21.101
G2 X7.677 Y21.841 I0.709 J0.244
X10.506 Y22.337 I1.725 J-1.522
X10.896 Y21.679 I-0.36 J-0.658
G1 Y20.999
X10.903 Y20.975
X10.922 Y20.957
X10.947 Y20.95
X10.971 Y20.957
X10.99 Y20.975
X10.996 Y21
Y21.67
G2 X11.375 Y22.322 I0.75 J0
X14.213 Y21.872 I1.137 J-1.999
X14.368 Y21.124 I-0.554 J-0.505
G1 X14.147 Y20.481
X14.146 Y20.455
X14.157 Y20.432
X14.179 Y20.418
X14.204 Y20.416
X14.227 Y20.428
X14.242 Y20.449
X14.459 Y21.083
G2 X15.03 Y21.577 I0.709 J-0.244
X17.567 Y20.23 I0.426 J-2.26
X17.471 Y19.472 I-0.688 J-0.298
G1 X17.053 Y18.935
X17.044 Y18.912
X17.047 Y18.886
X17.063 Y18.866
X17.087 Y18.856
X17.112 Y18.859
X17.133 Y18.875
X17.544 Y19.404
G2 X18.244 Y19.685 I0.592 J-0.461
X20.207 Y17.588 I-0.331 J-2.276
X19.869 Y16.901 I-0.748 J-0.058
G1 X19.3 Y16.53
X19.283 Y16.51
X19.278 Y16.485
X19.287 Y16.461
X19.306 Y16.444
X19.331 Y16.438
X19.356 Y16.447
X19.917 Y16.813
G2 X20.67 Y16.852 I0.41 J-0.628
X21.845 Y14.231 I-1.052 J-2.045
X21.303 Y13.692 I-0.726 J0.188
G1 X20.644 Y13.525
X20.622 Y13.512
X20.609 Y13.49
Y13.464
X20.622 Y13.442
X20.644 Y13.428
X20.67
X21.319 Y13.593
G2 X22.044 Y13.385 I0.184 J-0.727
X22.305 Y10.525 I-1.659 J-1.593
G1 X22.289 Y10.502
Z-2.4 F333.3
G2 X21.617 Y10.19 I-0.61 J0.436 F1000
G1 X20.94 Y10.247
X20.915 Y10.242
X20.895 Y10.225
X20.887 Y10.2
X20.891 Y10.175
X20.908 Y10.155
X20.932 Y10.147
X21.6 Y10.091
G2 X22.219 Y9.66 I-0.062 J-0.747
X21.536 Y6.87 I-2.086 J-0.968
X20.777 Y6.777 I-0.458 J0.594
G1 X20.155 Y7.05
X20.129 Y7.053
X20.105 Y7.044
X20.09 Y7.023
X20.086 Y6.998
X20.095 Y6.974
X20.115 Y6.958
X20.729 Y6.689
G2 X21.174 Y6.08 I-0.301 J-0.687
X19.622 Y3.662 I-2.288 J-0.238
X18.874 Y3.821 I-0.24 J0.711
G1 X18.375 Y4.281
X18.352 Y4.293
X18.326 Y4.291
X18.304 Y4.277
X18.292 Y4.254
X18.294 Y4.229
X18.307 Y4.207
X18.801 Y3.753
G2 X19.023 Y3.032 I-0.508 J-0.552
X16.771 Y1.25 I-2.241 J0.517
X16.115 Y1.643 I0.004 J0.75
G1 X15.792 Y2.24
X15.774 Y2.259
X15.749 Y2.266
X15.724 Y2.26
X15.705 Y2.242
X15.698 Y2.217
X15.704 Y2.192
X16.023 Y1.603
G2 X16 Y0.849 I-0.66 J-0.357
X13.291 Y-0.106 I-1.952 J1.217
X12.798 Y0.479 I0.247 J0.708
G1 X12.686 Y1.149
X12.675 Y1.172
X12.654 Y1.187
X12.628 Y1.189
X12.605 Y1.178
X12.59 Y1.157
X12.588 Y1.132
X12.698 Y0.471
G2 X12.431 Y-0.235 I-0.74 J-0.123
X9.559 Y-0.258 I-1.451 J1.785
X9.283 Y0.455 I0.464 J0.59
G1 X9.394 Y1.125
X9.392 Y1.151
X9.376 Y1.172
X9.353 Y1.182
X9.327 Y1.179
X9.306 Y1.164
X9.296 Y1.141
X9.185 Y0.48
G2 X8.704 Y-0.101 I-0.74 J0.123
X5.98 Y0.81 I-0.793 J2.159
X5.95 Y1.574 I0.63 J0.407
G1 X6.273 Y2.171
X6.279 Y2.197
X6.271 Y2.221
X6.252 Y2.239
X6.227 Y2.245
X6.203 Y2.237
X6.185 Y2.218
X5.866 Y1.629
G2 X5.222 Y1.236 I-0.66 J0.357
X2.941 Y2.982 I-0.049 J2.299
X3.161 Y3.714 I0.728 J0.181
G1 X3.661 Y4.174
X3.675 Y4.196
Y4.222
X3.663 Y4.245
X3.641 Y4.258
X3.616 Y4.259
X3.593 Y4.247
X3.1 Y3.793
G2 X2.363 Y3.631 I-0.508 J0.552
X0.773 Y6.023 I0.701 J2.191
X1.219 Y6.644 I0.747 J-0.066
G1 X1.841 Y6.917
X1.861 Y6.933
X1.87 Y6.957
X1.866 Y6.983
X1.849 Y7.003
X1.825 Y7.012
X1.8 Y7.008
X1.186 Y6.739
G2 X0.437 Y6.824 I-0.301 J0.687
X-0.291 Y9.603 I1.374 J1.844
X0.332 Y10.046 I0.685 J-0.305
G1 X1.01 Y10.102
X1.034 Y10.111
X1.05 Y10.131
X1.054 Y10.156
X1.046 Y10.181
X1.026 Y10.197
X1 Y10.202
X0.333 Y10.146
G2 X-0.348 Y10.47 I-0.062 J0.747
X-0.134 Y13.335 I1.898 J1.298
X0.599 Y13.551 I0.549 J-0.511
G1 X1.258 Y13.384
X1.283 Y13.385
X1.305 Y13.399
X1.318 Y13.421
X1.317 Y13.447
X1.304 Y13.469
X1.281 Y13.482
X0.632 Y13.646
G2 X0.093 Y14.174 I0.184 J0.727
X1.225 Y16.814 I2.217 J0.612
X1.989 Y16.78 I0.354 J-0.661
G1 X2.558 Y16.408
X2.583 Y16.401
X2.608 Y16.406
X2.627 Y16.424
X2.635 Y16.448
X2.629 Y16.473
X2.612 Y16.493
X2.051 Y16.859
G2 X1.713 Y17.533 I0.41 J0.628
X3.641 Y19.662 I2.296 J-0.141
X4.353 Y19.383 I0.12 J-0.74
G1 X4.77 Y18.846
X4.791 Y18.831
X4.816 Y18.828
X4.84 Y18.838
X4.855 Y18.859
X4.858 Y18.885
X4.848 Y18.908
X4.437 Y19.437
G2 X4.335 Y20.185 I0.592 J0.461
X6.851 Y21.572 I2.125 J-0.879
X7.433 Y21.077 I-0.127 J-0.739
G1 X7.653 Y20.434
X7.668 Y20.413
X7.691 Y20.402
X7.717 Y20.404
X7.738 Y20.418
X7.75 Y20.442
X7.748 Y20.467
X7.53 Y21.101
G2 X7.677 Y21.841 I0.709 J0.244
X10.506 Y22.337 I1.725 J-1.522
X10.896 Y21.679 I-0.36 J-0.658
G1 Y20.999
X10.903 Y20.975
X10.922 Y20.957
X10.947 Y20.95
X10.971 Y20.957
X10.99 Y20.975
X10.996 Y21
Y21.67
G2 X11.375 Y22.322 I0.75 J0
X14.213 Y21.872 I1.137 J-1.999
X14.368 Y21.124 I-0.554 J-0.505
G1 X14.147 Y20.481
X14.146 Y20.455
X14.157 Y20.432
X14.179 Y20.418
X14.204 Y20.416
X14.227 Y20.428
X14.242 Y20.449
X14.459 Y21.083
G2 X15.03 Y21.577 I0.709 J-0.244
X17.567 Y20.23 I0.426 J-2.26
X17.471 Y19.472 I-0.688 J-0.298
G1 X17.053 Y18.935
X17.044 Y18.912
X17.047 Y18.886
X17.063 Y18.866
X17.087 Y18.856
X17.112 Y18.859
X17.133 Y18.875
X17.544 Y19.404
G2 X18.244 Y19.685 I0.592 J-0.461
X20.207 Y17.588 I-0.331 J-2.276
X19.869 Y16.901 I-0.748 J-0.058
G1 X19.3 Y16.53
X19.283 Y16.51
X19.278 Y16.485
X19.287 Y16.461
X19.306 Y16.444
X19.331 Y16.438
X19.356 Y16.447
X19.917 Y16.813
G2 X20.67 Y16.852 I0.41 J-0.628
X21.845 Y14.231 I-1.052 J-2.045
X21.303 Y13.692 I-0.726 J0.188
G1 X20.644 Y13.525
X20.622 Y13.512
X20.609 Y13.49
Y13.464
X20.622 Y13.442
X20.644 Y13.428
X20.67
X21.319 Y13.593
G2 X22.044 Y13.385 I0.184 J-0.727
X22.305 Y10.525 I-1.659 J-1.593
G1 X22.289 Y10.502
G0 Z5
X23.721 Y9.628
G1 Z-2.4 F333.3
G2 X24.332 Y10.046 I0.674 J-0.329 F1000
G1 X25.01 Y10.102
X25.034 Y10.111
X25.05 Y10.131
X25.054 Y10.156
X25.046 Y10.181
X25.026 Y10.197
X25 Y10.202
X24.333 Y10.146
G2 X23.652 Y10.47 I-0.062 J0.747
X23.866 Y13.335 I1.898 J1.298
X24.599 Y13.551 I0.549 J-0.511
G1 X25.258 Y13.384
X25.283 Y13.385
X25.305 Y13.399
X25.318 Y13.421
X25.317 Y13.447
X25.304 Y13.469
X25.281 Y13.482
X24.632 Y13.646
G2 X24.093 Y14.174 I0.184 J0.727
X25.225 Y16.814 I2.217 J0.612
X25.989 Y16.78 I0.354 J-0.661
G1 X26.558 Y16.408
X26.583 Y16.401
X26.608 Y16.406
X26.627 Y16.424
X26.635 Y16.448
X26.629 Y16.473
X26.612 Y16.493
X26.051 Y16.859
G2 X25.713 Y17.533 I0.41 J0.628
X27.641 Y19.662 I2.296 J-0.141
X28.353 Y19.383 I0.12 J-0.74
G1 X28.77 Y18.846
X28.791 Y18.831
X28.816 Y18.828
X28.84 Y18.839
X28.855 Y18.859
X28.858 Y18.885
X28.848 Y18.908
X28.437 Y19.437
G2 X28.335 Y20.185 I0.592 J0.461
X30.851 Y21.572 I2.125 J-0.879
X31.433 Y21.077 I-0.127 J-0.739
G1 X31.653 Y20.434
X31.668 Y20.413
X31.691 Y20.402
X31.717 Y20.404
X31.738 Y20.418
X31.75 Y20.441
X31.748 Y20.467
X31.53 Y21.101
G2 X31.677 Y21.841 I0.709 J0.244
X34.506 Y22.337 I1.725 J-1.522
X34.896 Y21.679 I-0.36 J-0.658
G1 Y20.999
X34.903 Y20.975
X34.922 Y20.957
X34.947 Y20.95
X34.971 Y20.957
X34.99 Y20.975
X34.996 Y21
Y21.67
G2 X35.375 Y22.322 I0.75 J0
X38.213 Y21.872 I1.137 J-1.999
X38.368 Y21.124 I-0.554 J-0.505
G1 X38.147 Y20.481
X38.146 Y20.455
X38.157 Y20.432
X38.179 Y20.418
X38.204 Y20.416
X38.227 Y20.428
X38.242 Y20.449
X38.459 Y21.083
G2 X39.03 Y21.577 I0.709 J-0.244
X41.567 Y20.23 I0.426 J-2.26
X41.471 Y19.472 I-0.688 J-0.298
G1 X41.053 Y18.935
X41.044 Y18.912
X41.047 Y18.886
X41.063 Y18.866
X41.087 Y18.856
X41.112 Y18.859
X41.133 Y18.875
X41.544 Y19.404
G2 X42.244 Y19.685 I0.592 J-0.461
X44.207 Y17.588 I-0.331 J-2.276
X43.869 Y16.901 I-0.748 J-0.058
G1 X43.3 Y16.53
X43.283 Y16.51
X43.278 Y16.485
X43.287 Y16.461
X43.306 Y16.444
X43.331 Y16.438
X43.356 Y16.447
X43.917 Y16.813
G2 X44.67 Y16.852 I0.41 J-0.628
X45.845 Y14.231 I-1.052 J-2.045
X45.303 Y13.692 I-0.726 J0.188
G1 X44.644 Y13.525
X44.622 Y13.512
X44.609 Y13.49
Y13.464
X44.622 Y13.442
X44.644 Y13.428
X44.67
X45.319 Y13.593
G2 X46.044 Y13.385 I0.184 J-0.727
X46.305 Y10.525 I-1.659 J-1.593
X45.617 Y10.19 I-0.626 J0.413
G1 X44.94 Y10.247
X44.915 Y10.242
X44.895 Y10.225
X44.887 Y10.2
X44.891 Y10.175
X44.908 Y10.155
X44.932 Y10.147
X45.6 Y10.091
G2 X46.219 Y9.66 I-0.062 J-0.747
X45.536 Y6.87 I-2.086 J-0.968
X44.777 Y6.777 I-0.458 J0.594
G1 X44.155 Y7.05
X44.129 Y7.053
X44.105 Y7.044
X44.09 Y7.023
X44.086 Y6.998
X44.095 Y6.974
X44.115 Y6.958
X44.729 Y6.689
G2 X45.174 Y6.08 I-0.301 J-0.687
X43.622 Y3.662 I-2.288 J-0.238
X42.874 Y3.821 I-0.24 J0.711
G1 X42.375 Y4.281
X42.352 Y4.293
X42.326 Y4.291
X42.304 Y4.277
X42.292 Y4.254
X42.294 Y4.229
X42.307 Y4.207
X42.801 Y3.753
G2 X43.023 Y3.032 I-0.508 J-0.552
X40.771 Y1.25 I-2.241 J0.517
X40.115 Y1.643 I0.004 J0.75
G1 X39.792 Y2.24
X39.774 Y2.259
X39.749 Y2.266
X39.724 Y2.26
X39.705 Y2.242
X39.698 Y2.217
X39.704 Y2.192
X40.023 Y1.603
G2 X40 Y0.849 I-0.66 J-0.357
X37.291 Y-0.106 I-1.952 J1.217
X36.798 Y0.479 I0.247 J0.708
G1 X36.686 Y1.149
X36.675 Y1.172
X36.654 Y1.187
X36.628 Y1.189
X36.605 Y1.178
X36.59 Y1.157
X36.588 Y1.132
X36.698 Y0.471
G2 X36.431 Y-0.235 I-0.74 J-0.123
X33.559 Y-0.258 I-1.451 J1.785
X33.283 Y0.455 I0.464 J0.59
G1 X33.394 Y1.125
X33.392 Y1.151
X33.376 Y1.172
X33.353 Y1.182
X33.327 Y1.179
X33.306 Y1.164
X33.296 Y1.141
X33.185 Y0.48
G2 X32.704 Y-0.101 I-0.74 J0.124
X29.98 Y0.81 I-0.793 J2.159
X29.95 Y1.574 I0.63 J0.407
G1 X30.273 Y2.171
X30.279 Y2.197
X30.271 Y2.221
X30.252 Y2.239
X30.227 Y2.245
X30.203 Y2.237
X30.185 Y2.218
X29.866 Y1.629
G2 X29.222 Y1.236 I-0.66 J0.357
X26.941 Y2.982 I-0.049 J2.299
X27.161 Y3.714 I0.728 J0.18
G1 X27.661 Y4.174
X27.675 Y4.196
Y4.222
X27.663 Y4.245
X27.641 Y4.258
X27.616 Y4.259
X27.593 Y4.247
X27.1 Y3.793
G2 X26.363 Y3.631 I-0.508 J0.552
X24.773 Y6.023 I0.701 J2.191
X25.219 Y6.644 I0.747 J-0.066
G1 X25.841 Y6.917
X25.861 Y6.933
X25.87 Y6.957
X25.866 Y6.983
X25.849 Y7.003
X25.825 Y7.012
X25.8 Y7.008
X25.186 Y6.739
G2 X24.437 Y6.824 I-0.301 J0.687
X23.709 Y9.603 I1.374 J1.844
G1 X23.721 Y9.628
Z-2.7 F333.3
G2 X24.332 Y10.046 I0.674 J-0.329 F1000
G1 X25.01 Y10.102
X25.034 Y10.111
X25.05 Y10.131
X25.054 Y10.156
X25.046 Y10.181
X25.026 Y10.197
X25 Y10.202
X24.333 Y10.146
G2 X23.652 Y10.47 I-0.062 J0.747
X23.866 Y13.335 I1.898 J1.298
X24.599 Y13.551 I0.549 J-0.511
G1 X25.258 Y13.384
X25.283 Y13.385
X25.305 Y13.399
X25.318 Y13.421
X25.317 Y13.447
X25.304 Y13.469
X25.281 Y13.482
X24.632 Y13.646
G2 X24.093 Y14.174 I0.184 J0.727
X25.225 Y16.814 I2.217 J0.612
X25.989 Y16.78 I0.354 J-0.661
G1 X26.558 Y16.408
X26.583 Y16.401
X26.608 Y16.406
X26.627 Y16.424
X26.635 Y16.448
X26.629 Y16.473
X26.612 Y16.493
X26.051 Y16.859
G2 X25.713 Y17.533 I0.41 J0.628
X27.641 Y19.662 I2.296 J-0.141
X28.353 Y19.383 I0.12 J-0.74
G1 X28.77 Y18.846
X28.791 Y18.831
X28.816 Y18.828
X28.84 Y18.839
X28.855 Y18.859
X28.858 Y18.885
X28.848 Y18.908
X28.437 Y19.437
G2 X28.335 Y20.185 I0.592 J0.461
X30.851 Y21.572 I2.125 J-0.879
X31.433 Y21.077 I-0.127 J-0.739
G1 X31.653 Y20.434
X31.668 Y20.413
X31.691 Y20.402
X31.717 Y20.404
X31.738 Y20.418
X31.75 Y20.441
X31.748 Y20.467
X31.53 Y21.101
G2 X31.677 Y21.841 I0.709 J0.244
X34.506 Y22.337 I1.725 J-1.522
X34.896 Y21.679 I-0.36 J-0.658
G1 Y20.999
X34.903 Y20.975
X34.922 Y20.957
X34.947 Y20.95
X34.971 Y20.957
X34.99 Y20.975
X34.996 Y21
Y21.67
G2 X35.375 Y22.322 I0.75 J0
X38.213 Y21.872 I1.137 J-1.999
X38.368 Y21.124 I-0.554 J-0.505
G1 X38.147 Y20.481
X38.146 Y20.455
X38.157 Y20.432
X38.179 Y20.418
X38.204 Y20.416
X38.227 Y20.428
X38.242 Y20.449
X38.459 Y21.083
G2 X39.03 Y21.577 I0.709 J-0.244
X41.567 Y20.23 I0.426 J-2.26
X41.471 Y19.472 I-0.688 J-0.298
G1 X41.053 Y18.935
X41.044 Y18.912
X41.047 Y18.886
X41.063 Y18.866
X41.087 Y18.856
X41.112 Y18.859
X41.133 Y18.875
X41.544 Y19.404
G2 X42.244 Y19.685 I0.592 J-0.461
X44.207 Y17.588 I-0.331 J-2.276
X43.869 Y16.901 I-0.748 J-0.058
G1 X43.3 Y16.53
X43.283 Y16.51
X43.278 Y16.485
X43.287 Y16.461
X43.306 Y16.444
X43.331 Y16.438
X43.356 Y16.447
X43.917 Y16.813
G2 X44.67 Y16.852 I0.41 J-0.628
X45.845 Y14.231 I-1.052 J-2.045
X45.303 Y13.692 I-0.726 J0.188
G1 X44.644 Y13.525
X44.622 Y13.512
X44.609 Y13.49
Y13.464
X44.622 Y13.442
X44.644 Y13.428
X44.67
X45.319 Y13.593
G2 X46.044 Y13.385 I0.184 J-0.727
X46.305 Y10.525 I-1.659 J-1.593
X45.617 Y10.19 I-0.626 J0.413
G1 X44.94 Y10.247
X44.915 Y10.242
X44.895 Y10.225
X44.887 Y10.2
X44.891 Y10.175
X44.908 Y10.155
X44.932 Y10.147
X45.6 Y10.091
G2 X46.219 Y9.66 I-0.062 J-0.747
X45.536 Y6.87 I-2.086 J-0.968
X44.777 Y6.777 I-0.458 J0.594
G1 X44.155 Y7.05
X44.129 Y7.053
X44.105 Y7.044
X44.09 Y7.023
X44.086 Y6.998
X44.095 Y6.974
X44.115 Y6.958
X44.729 Y6.689
G2 X45.174 Y6.08 I-0.301 J-0.687
X43.622 Y3.662 I-2.288 J-0.238
X42.874 Y3.821 I-0.24 J0.711
G1 X42.375 Y4.281
X42.352 Y4.293
X42.326 Y4.291
X42.304 Y4.277
X42.292 Y4.254
X42.294 Y4.229
X42.307 Y4.207
X42.801 Y3.753
G2 X43.023 Y3.032 I-0.508 J-0.552
X40.771 Y1.25 I-2.241 J0.517
X40.115 Y1.643 I0.004 J0.75
G1 X39.792 Y2.24
X39.774 Y2.259
X39.749 Y2.266
X39.724 Y2.26
X39.705 Y2.242
X39.698 Y2.217
X39.704 Y2.192
X40.023 Y1.603
G2 X40 Y0.849 I-0.66 J-0.357
X37.291 Y-0.106 I-1.952 J1.217
X36.798 Y0.479 I0.247 J0.708
G1 X36.686 Y1.149
X36.675 Y1.172
X36.654 Y1.187
X36.628 Y1.189
X36.605 Y1.178
X36.59 Y1.157
X36.588 Y1.132
X36.698 Y0.471
G2 X36.431 Y-0.235 I-0.74 J-0.123
X33.559 Y-0.258 I-1.451 J1.785
X33.283 Y0.455 I0.464 J0.59
G1 X33.394 Y1.125
X33.392 Y1.151
X33.376 Y1.172
X33.353 Y1.182
X33.327 Y1.179
X33.306 Y1.164
X33.296 Y1.141
X33.185 Y0.48
G2 X32.704 Y-0.101 I-0.74 J0.124
X29.98 Y0.81 I-0.793 J2.159
X29.95 Y1.574 I0.63 J0.407
G1 X30.273 Y2.171
X30.279 Y2.197
X30.271 Y2.221
X30.252 Y2.239
X30.227 Y2.245
X30.203 Y2.237
X30.185 Y2.218
X29.866 Y1.629
G2 X29.222 Y1.236 I-0.66 J0.357
X26.941 Y2.982 I-0.049 J2.299
X27.161 Y3.714 I0.728 J0.18
G1 X27.661 Y4.174
X27.675 Y4.196
Y4.222
X27.663 Y4.245
X27.641 Y4.258
X27.616 Y4.259
X27.593 Y4.247
X27.1 Y3.793
G2 X26.363 Y3.631 I-0.508 J0.552
X24.773 Y6.023 I0.701 J2.191
X25.219 Y6.644 I0.747 J-0.066
G1 X25.841 Y6.917
X25.861 Y6.933
X25.87 Y6.957
X25.866 Y6.983
X25.849 Y7.003
X25.825 Y7.012
X25.8 Y7.008
X25.186 Y6.739
G2 X24.437 Y6.824 I-0.301 J0.687
X23.709 Y9.603 I1.374 J1.844
G1 X23.721 Y9.628
G0 Z5
X22.289 Y10.502
G1 Z-2.7 F333.3
G2 X21.617 Y10.19 I-0.61 J0.436 F1000
G1 X20.94 Y10.247
X20.915 Y10.242
X20.895 Y10.225
X20.887 Y10.2
X20.891 Y10.175
X20.908 Y10.155
X20.932 Y10.147
X21.6 Y10.091
G2 X22.219 Y9.66 I-0.062 J-0.747
X21.536 Y6.87 I-2.086 J-0.968
X20.777 Y6.777 I-0.458 J0.594
G1 X20.155 Y7.05
X20.129 Y7.053
X20.105 Y7.044
X20.09 Y7.023
X20.086 Y6.998
X20.095 Y6.974
X20.115 Y6.958
X20.729 Y6.689
G2 X21.174 Y6.08 I-0.301 J-0.687
X19.622 Y3.662 I-2.288 J-0.238
X18.874 Y3.821 I-0.24 J0.711
G1 X18.375 Y4.281
X18.352 Y4.293
X18.326 Y4.291
X18.304 Y4.277
X18.292 Y4.254
X18.294 Y4.229
X18.307 Y4.207
X18.801 Y3.753
G2 X19.023 Y3.032 I-0.508 J-0.552
X16.771 Y1.25 I-2.241 J0.517
X16.115 Y1.643 I0.004 J0.75
G1 X15.792 Y2.24
X15.774 Y2.259
X15.749 Y2.266
X15.724 Y2.26
X15.705 Y2.242
X15.698 Y2.217
X15.704 Y2.192
X16.023 Y1.603
G2 X16 Y0.849 I-0.66 J-0.357
X13.291 Y-0.106 I-1.952 J1.217
X12.798 Y0.479 I0.247 J0.708
G1 X12.686 Y1.149
X12.675 Y1.172
X12.654 Y1.187
X12.628 Y1.189
X12.605 Y1.178
X12.59 Y1.157
X12.588 Y1.132
X12.698 Y0.471
G2 X12.431 Y-0.235 I-0.74 J-0.123
X9.559 Y-0.258 I-1.451 J1.785
X9.283 Y0.455 I0.464 J0.59
G1 X9.394 Y1.125
X9.392 Y1.151
X9.376 Y1.172
X9.353 Y1.182
X9.327 Y1.179
X9.306 Y1.164
X9.296 Y1.141
X9.185 Y0.48
G2 X8.704 Y-0.101 I-0.74 J0.123
X5.98 Y0.81 I-0.793 J2.159
X5.95 Y1.574 I0.63 J0.407
G1 X6.273 Y2.171
X6.279 Y2.197
X6.271 Y2.221
X6.252 Y2.239
X6.227 Y2.245
X6.203 Y2.237
X6.185 Y2.218
X5.866 Y1.629
G2 X5.222 Y1.236 I-0.66 J0.357
X2.941 Y2.982 I-0.049 J2.299
X3.161 Y3.714 I0.728 J0.181
G1 X3.661 Y4.174
X3.675 Y4.196
Y4.222
X3.663 Y4.245
X3.641 Y4.258
X3.616 Y4.259
X3.593 Y4.247
X3.1 Y3.793
G2 X2.363 Y3.631 I-0.508 J0.552
X0.773 Y6.023 I0.701 J2.191
X1.219 Y6.644 I0.747 J-0.066
G1 X1.841 Y6.917
X1.861 Y6.933
X1.87 Y6.957
X1.866 Y6.983
X1.849 Y7.003
X1.825 Y7.012
X1.8 Y7.008
X1.186 Y6.739
G2 X0.437 Y6.824 I-0.301 J0.687
X-0.291 Y9.603 I1.374 J1.844
X0.332 Y10.046 I0.685 J-0.305
G1 X1.01 Y10.102
X1.034 Y10.111
X1.05 Y10.131
X1.054 Y10.156
X1.046 Y10.181
X1.026 Y10.197
X1 Y10.202
X0.333 Y10.146
G2 X-0.348 Y10.47 I-0.062 J0.747
X-0.134 Y13.335 I1.898 J1.298
X0.599 Y13.551 I0.549 J-0.511
G1 X1.258 Y13.384
X1.283 Y13.385
X1.305 Y13.399
X1.318 Y13.421
X1.317 Y13.447
X1.304 Y13.469
X1.281 Y13.482
X0.632 Y13.646
G2 X0.093 Y14.174 I0.184 J0.727
X1.225 Y16.814 I2.217 J0.612
X1.989 Y16.78 I0.354 J-0.661
G1 X2.558 Y16.408
X2.583 Y16.401
X2.608 Y16.406
X2.627 Y16.424
X2.635 Y16.448
X2.629 Y16.473
X2.612 Y16.493
X2.051 Y16.859
G2 X1.713 Y17.533 I0.41 J0.628
X3.641 Y19.662 I2.296 J-0.141
X4.353 Y19.383 I0.12 J-0.74
G1 X4.77 Y18.846
X4.791 Y18.831
X4.816 Y18.828
X4.84 Y18.838
X4.855 Y18.859
X4.858 Y18.885
X4.848 Y18.908
X4.437 Y19.437
G2 X4.335 Y20.185 I0.592 J0.461
X6.851 Y21.572 I2.125 J-0.879
X7.433 Y21.077 I-0.127 J-0.739
G1 X7.653 Y20.434
X7.668 Y20.413
X7.691 Y20.402
X7.717 Y20.404
X7.738 Y20.418
X7.75 Y20.442
X7.748 Y20.467
X7.53 Y21.101
G2 X7.677 Y21.841 I0.709 J0.244
X10.506 Y22.337 I1.725 J-1.522
X10.896 Y21.679 I-0.36 J-0.658
G1 Y20.999
X10.903 Y20.975
X10.922 Y20.957
X10.947 Y20.95
X10.971 Y20.957
X10.99 Y20.975
X10.996 Y21
Y21.67
G2 X11.375 Y22.322 I0.75 J0
X14.213 Y21.872 I1.137 J-1.999
X14.368 Y21.124 I-0.554 J-0.505
G1 X14.147 Y20.481
X14.146 Y20.455
X14.157 Y20.432
X14.179 Y20.418
X14.204 Y20.416
X14.227 Y20.428
X14.242 Y20.449
X14.459 Y21.083
G2 X15.03 Y21.577 I0.709 J-0.244
X17.567 Y20.23 I0.426 J-2.26
X17.471 Y19.472 I-0.688 J-0.298
G1 X17.053 Y18.935
X17.044 Y18.912
X17.047 Y18.886
X17.063 Y18.866
X17.087 Y18.856
X17.112 Y18.859
X17.133 Y18.875
X17.544 Y19.404
G2 X18.244 Y19.685 I0.592 J-0.461
X20.207 Y17.588 I-0.331 J-2.276
X19.869 Y16.901 I-0.748 J-0.058
G1 X19.3 Y16.53
X19.283 Y16.51
X19.278 Y16.485
X19.287 Y16.461
X19.306 Y16.444
X19.331 Y16.438
X19.356 Y16.447
X19.917 Y16.813
G2 X20.67 Y16.852 I0.41 J-0.628
X21.845 Y14.231 I-1.052 J-2.045
X21.303 Y13.692 I-0.726 J0.188
G1 X20.644 Y13.525
X20.622 Y13.512
X20.609 Y13.49
Y13.464
X20.622 Y13.442
X20.644 Y13.428
X20.67
X21.319 Y13.593
G2 X22.044 Y13.385 I0.184 J-0.727
X22.305 Y10.525 I-1.659 J-1.593
G1 X22.289 Y10.502
Z-3 F333.3
G2 X21.617 Y10.19 I-0.61 J0.436 F1000
G1 X20.94 Y10.247
X20.915 Y10.242
X20.895 Y10.225
X20.887 Y10.2
X20.891 Y10.175
X20.908 Y10.155
X20.932 Y10.147
X21.6 Y10.091
G2 X22.219 Y9.66 I-0.062 J-0.747
X21.536 Y6.87 I-2.086 J-0.968
X20.777 Y6.777 I-0.458 J0.594
G1 X20.155 Y7.05
X20.129 Y7.053
X20.105 Y7.044
X20.09 Y7.023
X20.086 Y6.998
X20.095 Y6.974
X20.115 Y6.958
X20.729 Y6.689
G2 X21.174 Y6.08 I-0.301 J-0.687
X19.622 Y3.662 I-2.288 J-0.238
X18.874 Y3.821 I-0.24 J0.711
G1 X18.375 Y4.281
X18.352 Y4.293
X18.326 Y4.291
X18.304 Y4.277
X18.292 Y4.254
X18.294 Y4.229
X18.307 Y4.207
X18.801 Y3.753
G2 X19.023 Y3.032 I-0.508 J-0.552
X16.771 Y1.25 I-2.241 J0.517
X16.115 Y1.643 I0.004 J0.75
G1 X15.792 Y2.24
X15.774 Y2.259
X15.749 Y2.266
X15.724 Y2.26
X15.705 Y2.242
X15.698 Y2.217
X15.704 Y2.192
X16.023 Y1.603
G2 X16 Y0.849 I-0.66 J-0.357
X13.291 Y-0.106 I-1.952 J1.217
X12.798 Y0.479 I0.247 J0.708
G1 X12.686 Y1.149
X12.675 Y1.172
X12.654 Y1.187
X12.628 Y1.189
X12.605 Y1.178
X12.59 Y1.157
X12.588 Y1.132
X12.698 Y0.471
G2 X12.431 Y-0.235 I-0.74 J-0.123
X9.559 Y-0.258 I-1.451 J1.785
X9.283 Y0.455 I0.464 J0.59
G1 X9.394 Y1.125
X9.392 Y1.151
X9.376 Y1.172
X9.353 Y1.182
X9.327 Y1.179
X9.306 Y1.164
X9.296 Y1.141
X9.185 Y0.48
G2 X8.704 Y-0.101 I-0.74 J0.123
X5.98 Y0.81 I-0.793 J2.159
X5.95 Y1.574 I0.63 J0.407
G1 X6.273 Y2.171
X6.279 Y2.197
X6.271 Y2.221
X6.252 Y2.239
X6.227 Y2.245
X6.203 Y2.237
X6.185 Y2.218
X5.866 Y1.629
G2 X5.222 Y1.236 I-0.66 J0.357
X2.941 Y2.982 I-0.049 J2.299
X3.161 Y3.714 I0.728 J0.181
G1 X3.661 Y4.174
X3.675 Y4.196
Y4.222
X3.663 Y4.245
X3.641 Y4.258
X3.616 Y4.259
X3.593 Y4.247
X3.1 Y3.793
G2 X2.363 Y3.631 I-0.508 J0.552
X0.773 Y6.023 I0.701 J2.191
X1.219 Y6.644 I0.747 J-0.066
G1 X1.841 Y6.917
X1.861 Y6.933
X1.87 Y6.957
X1.866 Y6.983
X1.849 Y7.003
X1.825 Y7.012
X1.8 Y7.008
X1.186 Y6.739
G2 X0.437 Y6.824 I-0.301 J0.687
X-0.291 Y9.603 I1.374 J1.844
X0.332 Y10.046 I0.685 J-0.305
G1 X1.01 Y10.102
X1.034 Y10.111
X1.05 Y10.131
X1.054 Y10.156
X1.046 Y10.181
X1.026 Y10.197
X1 Y10.202
X0.333 Y10.146
G2 X-0.348 Y10.47 I-0.062 J0.747
X-0.134 Y13.335 I1.898 J1.298
X0.599 Y13.551 I0.549 J-0.511
G1 X1.258 Y13.384
X1.283 Y13.385
X1.305 Y13.399
X1.318 Y13.421
X1.317 Y13.447
X1.304 Y13.469
X1.281 Y13.482
X0.632 Y13.646
G2 X0.093 Y14.174 I0.184 J0.727
X1.225 Y16.814 I2.217 J0.612
X1.989 Y16.78 I0.354 J-0.661
G1 X2.558 Y16.408
X2.583 Y16.401
X2.608 Y16.406
X2.627 Y16.424
X2.635 Y16.448
X2.629 Y16.473
X2.612 Y16.493
X2.051 Y16.859
G2 X1.713 Y17.533 I0.41 J0.628
X3.641 Y19.662 I2.296 J-0.141
X4.353 Y19.383 I0.12 J-0.74
G1 X4.77 Y18.846
X4.791 Y18.831
X4.816 Y18.828
X4.84 Y18.838
X4.855 Y18.859
X4.858 Y18.885
X4.848 Y18.908
X4.437 Y19.437
G2 X4.335 Y20.185 I0.592 J0.461
X6.851 Y21.572 I2.125 J-0.879
X7.433 Y21.077 I-0.127 J-0.739
G1 X7.653 Y20.434
X7.668 Y20.413
X7.691 Y20.402
X7.717 Y20.404
X7.738 Y20.418
X7.75 Y20.442
X7.748 Y20.467
X7.53 Y21.101
G2 X7.677 Y21.841 I0.709 J0.244
X10.506 Y22.337 I1.725 J-1.522
X10.896 Y21.679 I-0.36 J-0.658
G1 Y20.999
X10.903 Y20.975
X10.922 Y20.957
X10.947 Y20.95
X10.971 Y20.957
X10.99 Y20.975
X10.996 Y21
Y21.67
G2 X11.375 Y22.322 I0.75 J0
X14.213 Y21.872 I1.137 J-1.999
X14.368 Y21.124 I-0.554 J-0.505
G1 X14.147 Y20.481
X14.146 Y20.455
X14.157 Y20.432
X14.179 Y20.418
X14.204 Y20.416
X14.227 Y20.428
X14.242 Y20.449
X14.459 Y21.083
G2 X15.03 Y21.577 I0.709 J-0.244
X17.567 Y20.23 I0.426 J-2.26
X17.471 Y19.472 I-0.688 J-0.298
G1 X17.053 Y18.935
X17.044 Y18.912
X17.047 Y18.886
X17.063 Y18.866
X17.087 Y18.856
X17.112 Y18.859
X17.133 Y18.875
X17.544 Y19.404
G2 X18.244 Y19.685 I0.592 J-0.461
X20.207 Y17.588 I-0.331 J-2.276
X19.869 Y16.901 I-0.748 J-0.058
G1 X19.3 Y16.53
X19.283 Y16.51
X19.278 Y16.485
X19.287 Y16.461
X19.306 Y16.444
X19.331 Y16.438
X19.356 Y16.447
X19.917 Y16.813
G2 X20.67 Y16.852 I0.41 J-0.628
X21.845 Y14.231 I-1.052 J-2.045
X21.303 Y13.692 I-0.726 J0.188
G1 X20.644 Y13.525
X20.622 Y13.512
X20.609 Y13.49
Y13.464
X20.622 Y13.442
X20.644 Y13.428
X20.67
X21.319 Y13.593
G2 X22.044 Y13.385 I0.184 J-0.727
X22.305 Y10.525 I-1.659 J-1.593
G1 X22.289 Y10.502
G0 Z5
X23.721 Y9.628
G1 Z-3 F333.3
G2 X24.332 Y10.046 I0.674 J-0.329 F1000
G1 X25.01 Y10.102
X25.034 Y10.111
X25.05 Y10.131
X25.054 Y10.156
X25.046 Y10.181
X25.026 Y10.197
X25 Y10.202
X24.333 Y10.146
G2 X23.652 Y10.47 I-0.062 J0.747
X23.866 Y13.335 I1.898 J1.298
X24.599 Y13.551 I0.549 J-0.511
G1 X25.258 Y13.384
X25.283 Y13.385
X25.305 Y13.399
X25.318 Y13.421
X25.317 Y13.447
X25.304 Y13.469
X25.281 Y13.482
X24.632 Y13.646
G2 X24.093 Y14.174 I0.184 J0.727
X25.225 Y16.814 I2.217 J0.612
X25.989 Y16.78 I0.354 J-0.661
G1 X26.558 Y16.408
X26.583 Y16.401
X26.608 Y16.406
X26.627 Y16.424
X26.635 Y16.448
X26.629 Y16.473
X26.612 Y16.493
X26.051 Y16.859
G2 X25.713 Y17.533 I0.41 J0.628
X27.641 Y19.662 I2.296 J-0.141
X28.353 Y19.383 I0.12 J-0.74
G1 X28.77 Y18.846
X28.791 Y18.831
X28.816 Y18.828
X28.84 Y18.839
X28.855 Y18.859
X28.858 Y18.885
X28.848 Y18.908
X28.437 Y19.437
G2 X28.335 Y20.185 I0.592 J0.461
X30.851 Y21.572 I2.125 J-0.879
X31.433 Y21.077 I-0.127 J-0.739
G1 X31.653 Y20.434
X31.668 Y20.413
X31.691 Y20.402
X31.717 Y20.404
X31.738 Y20.418
X31.75 Y20.441
X31.748 Y20.467
X31.53 Y21.101
G2 X31.677 Y21.841 I0.709 J0.244
X34.506 Y22.337 I1.725 J-1.522
X34.896 Y21.679 I-0.36 J-0.658
G1 Y20.999
X34.903 Y20.975
X34.922 Y20.957
X34.947 Y20.95
X34.971 Y20.957
X34.99 Y20.975
X34.996 Y21
Y21.67
G2 X35.375 Y22.322 I0.75 J0
X38.213 Y21.872 I1.137 J-1.999
X38.368 Y21.124 I-0.554 J-0.505
G1 X38.147 Y20.481
X38.146 Y20.455
X38.157 Y20.432
X38.179 Y20.418
X38.204 Y20.416
X38.227 Y20.428
X38.242 Y20.449
X38.459 Y21.083
G2 X39.03 Y21.577 I0.709 J-0.244
X41.567 Y20.23 I0.426 J-2.26
X41.471 Y19.472 I-0.688 J-0.298
G1 X41.053 Y18.935
X41.044 Y18.912
X41.047 Y18.886
X41.063 Y18.866
X41.087 Y18.856
X41.112 Y18.859
X41.133 Y18.875
X41.544 Y19.404
G2 X42.244 Y19.685 I0.592 J-0.461
X44.207 Y17.588 I-0.331 J-2.276
X43.869 Y16.901 I-0.748 J-0.058
G1 X43.3 Y16.53
X43.283 Y16.51
X43.278 Y16.485
X43.287 Y16.461
X43.306 Y16.444
X43.331 Y16.438
X43.356 Y16.447
X43.917 Y16.813
G2 X44.67 Y16.852 I0.41 J-0.628
X45.845 Y14.231 I-1.052 J-2.045
X45.303 Y13.692 I-0.726 J0.188
G1 X44.644 Y13.525
X44.622 Y13.512
X44.609 Y13.49
Y13.464
X44.622 Y13.442
X44.644 Y13.428
X44.67
X45.319 Y13.593
G2 X46.044 Y13.385 I0.184 J-0.727
X46.305 Y10.525 I-1.659 J-1.593
X45.617 Y10.19 I-0.626 J0.413
G1 X44.94 Y10.247
X44.915 Y10.242
X44.895 Y10.225
X44.887 Y10.2
X44.891 Y10.175
X44.908 Y10.155
X44.932 Y10.147
X45.6 Y10.091
G2 X46.219 Y9.66 I-0.062 J-0.747
X45.536 Y6.87 I-2.086 J-0.968
X44.777 Y6.777 I-0.458 J0.594
G1 X44.155 Y7.05
X44.129 Y7.053
X44.105 Y7.044
X44.09 Y7.023
X44.086 Y6.998
X44.095 Y6.974
X44.115 Y6.958
X44.729 Y6.689
G2 X45.174 Y6.08 I-0.301 J-0.687
X43.622 Y3.662 I-2.288 J-0.238
X42.874 Y3.821 I-0.24 J0.711
G1 X42.375 Y4.281
X42.352 Y4.293
X42.326 Y4.291
X42.304 Y4.277
X42.292 Y4.254
X42.294 Y4.229
X42.307 Y4.207
X42.801 Y3.753
G2 X43.023 Y3.032 I-0.508 J-0.552
X40.771 Y1.25 I-2.241 J0.517
X40.115 Y1.643 I0.004 J0.75
G1 X39.792 Y2.24
X39.774 Y2.259
X39.749 Y2.266
X39.724 Y2.26
X39.705 Y2.242
X39.698 Y2.217
X39.704 Y2.192
X40.023 Y1.603
G2 X40 Y0.849 I-0.66 J-0.357
X37.291 Y-0.106 I-1.952 J1.217
X36.798 Y0.479 I0.247 J0.708
G1 X36.686 Y1.149
X36.675 Y1.172
X36.654 Y1.187
X36.628 Y1.189
X36.605 Y1.178
X36.59 Y1.157
X36.588 Y1.132
X36.698 Y0.471
G2 X36.431 Y-0.235 I-0.74 J-0.123
X33.559 Y-0.258 I-1.451 J1.785
X33.283 Y0.455 I0.464 J0.59
G1 X33.394 Y1.125
X33.392 Y1.151
X33.376 Y1.172
X33.353 Y1.182
X33.327 Y1.179
X33.306 Y1.164
X33.296 Y1.141
X33.185 Y0.48
G2 X32.704 Y-0.101 I-0.74 J0.124
X29.98 Y0.81 I-0.793 J2.159
X29.95 Y1.574 I0.63 J0.407
G1 X30.273 Y2.171
X30.279 Y2.197
X30.271 Y2.221
X30.252 Y2.239
X30.227 Y2.245
X30.203 Y2.237
X30.185 Y2.218
X29.866 Y1.629
G2 X29.222 Y1.236 I-0.66 J0.357
X26.941 Y2.982 I-0.049 J2.299
X27.161 Y3.714 I0.728 J0.18
G1 X27.661 Y4.174
X27.675 Y4.196
Y4.222
X27.663 Y4.245
X27.641 Y4.258
X27.616 Y4.259
X27.593 Y4.247
X27.1 Y3.793
G2 X26.363 Y3.631 I-0.508 J0.552
X24.773 Y6.023 I0.701 J2.191
X25.219 Y6.644 I0.747 J-0.066
G1 X25.841 Y6.917
X25.861 Y6.933
X25.87 Y6.957
X25.866 Y6.983
X25.849 Y7.003
X25.825 Y7.012
X25.8 Y7.008
X25.186 Y6.739
G2 X24.437 Y6.824 I-0.301 J0.687
X23.709 Y9.603 I1.374 J1.844
G1 X23.721 Y9.628
Z-3.3 F333.3
G2 X24.332 Y10.046 I0.674 J-0.329 F1000
G1 X25.01 Y10.102
X25.034 Y10.111
X25.05 Y10.131
X25.054 Y10.156
X25.046 Y10.181
X25.026 Y10.197
X25 Y10.202
X24.333 Y10.146
G2 X23.652 Y10.47 I-0.062 J0.747
X23.866 Y13.335 I1.898 J1.298
X24.599 Y13.551 I0.549 J-0.511
G1 X25.258 Y13.384
X25.283 Y13.385
X25.305 Y13.399
X25.318 Y13.421
X25.317 Y13.447
X25.304 Y13.469
X25.281 Y13.482
X24.632 Y13.646
G2 X24.093 Y14.174 I0.184 J0.727
X25.225 Y16.814 I2.217 J0.612
X25.989 Y16.78 I0.354 J-0.661
G1 X26.558 Y16.408
X26.583 Y16.401
X26.608 Y16.406
X26.627 Y16.424
X26.635 Y16.448
X26.629 Y16.473
X26.612 Y16.493
X26.051 Y16.859
G2 X25.713 Y17.533 I0.41 J0.628
X27.641 Y19.662 I2.296 J-0.141
X28.353 Y19.383 I0.12 J-0.74
G1 X28.77 Y18.846
X28.791 Y18.831
X28.816 Y18.828
X28.84 Y18.839
X28.855 Y18.859
X28.858 Y18.885
X28.848 Y18.908
X28.437 Y19.437
G2 X28.335 Y20.185 I0.592 J0.461
X30.851 Y21.572 I2.125 J-0.879
X31.433 Y21.077 I-0.127 J-0.739
G1 X31.653 Y20.434
X31.668 Y20.413
X31.691 Y20.402
X31.717 Y20.404
X31.738 Y20.418
X31.75 Y20.441
X31.748 Y20.467
X31.53 Y21.101
G2 X31.677 Y21.841 I0.709 J0.244
X34.506 Y22.337 I1.725 J-1.522
X34.896 Y21.679 I-0.36 J-0.658
G1 Y20.999
X34.903 Y20.975
X34.922 Y20.957
X34.947 Y20.95
X34.971 Y20.957
X34.99 Y20.975
X34.996 Y21
Y21.67
G2 X35.375 Y22.322 I0.75 J0
X38.213 Y21.872 I1.137 J-1.999
X38.368 Y21.124 I-0.554 J-0.505
G1 X38.147 Y20.481
X38.146 Y20.455
X38.157 Y20.432
X38.179 Y20.418
X38.204 Y20.416
X38.227 Y20.428
X38.242 Y20.449
X38.459 Y21.083
G2 X39.03 Y21.577 I0.709 J-0.244
X41.567 Y20.23 I0.426 J-2.26
X41.471 Y19.472 I-0.688 J-0.298
G1 X41.053 Y18.935
X41.044 Y18.912
X41.047 Y18.886
X41.063 Y18.866
X41.087 Y18.856
X41.112 Y18.859
X41.133 Y18.875
X41.544 Y19.404
G2 X42.244 Y19.685 I0.592 J-0.461
X44.207 Y17.588 I-0.331 J-2.276
X43.869 Y16.901 I-0.748 J-0.058
G1 X43.3 Y16.53
X43.283 Y16.51
X43.278 Y16.485
X43.287 Y16.461
X43.306 Y16.444
X43.331 Y16.438
X43.356 Y16.447
X43.917 Y16.813
G2 X44.67 Y16.852 I0.41 J-0.628
X45.845 Y14.231 I-1.052 J-2.045
X45.303 Y13.692 I-0.726 J0.188
G1 X44.644 Y13.525
X44.622 Y13.512
X44.609 Y13.49
Y13.464
X44.622 Y13.442
X44.644 Y13.428
X44.67
X45.319 Y13.593
G2 X46.044 Y13.385 I0.184 J-0.727
X46.305 Y10.525 I-1.659 J-1.593
X45.617 Y10.19 I-0.626 J0.413
G1 X44.94 Y10.247
X44.915 Y10.242
X44.895 Y10.225
X44.887 Y10.2
X44.891 Y10.175
X44.908 Y10.155
X44.932 Y10.147
X45.6 Y10.091
G2 X46.219 Y9.66 I-0.062 J-0.747
X45.536 Y6.87 I-2.086 J-0.968
X44.777 Y6.777 I-0.458 J0.594
G1 X44.155 Y7.05
X44.129 Y7.053
X44.105 Y7.044
X44.09 Y7.023
X44.086 Y6.998
X44.095 Y6.974
X44.115 Y6.958
X44.729 Y6.689
G2 X45.174 Y6.08 I-0.301 J-0.687
X43.622 Y3.662 I-2.288 J-0.238
X42.874 Y3.821 I-0.24 J0.711
G1 X42.375 Y4.281
X42.352 Y4.293
X42.326 Y4.291
X42.304 Y4.277
X42.292 Y4.254
X42.294 Y4.229
X42.307 Y4.207
X42.801 Y3.753
G2 X43.023 Y3.032 I-0.508 J-0.552
X40.771 Y1.25 I-2.241 J0.517
X40.115 Y1.643 I0.004 J0.75
G1 X39.792 Y2.24
X39.774 Y2.259
X39.749 Y2.266
X39.724 Y2.26
X39.705 Y2.242
X39.698 Y2.217
X39.704 Y2.192
X40.023 Y1.603
G2 X40 Y0.849 I-0.66 J-0.357
X37.291 Y-0.106 I-1.952 J1.217
X36.798 Y0.479 I0.247 J0.708
G1 X36.686 Y1.149
X36.675 Y1.172
X36.654 Y1.187
X36.628 Y1.189
X36.605 Y1.178
X36.59 Y1.157
X36.588 Y1.132
X36.698 Y0.471
G2 X36.431 Y-0.235 I-0.74 J-0.123
X33.559 Y-0.258 I-1.451 J1.785
X33.283 Y0.455 I0.464 J0.59
G1 X33.394 Y1.125
X33.392 Y1.151
X33.376 Y1.172
X33.353 Y1.182
X33.327 Y1.179
X33.306 Y1.164
X33.296 Y1.141
X33.185 Y0.48
G2 X32.704 Y-0.101 I-0.74 J0.124
X29.98 Y0.81 I-0.793 J2.159
X29.95 Y1.574 I0.63 J0.407
G1 X30.273 Y2.171
X30.279 Y2.197
X30.271 Y2.221
X30.252 Y2.239
X30.227 Y2.245
X30.203 Y2.237
X30.185 Y2.218
X29.866 Y1.629
G2 X29.222 Y1.236 I-0.66 J0.357
X26.941 Y2.982 I-0.049 J2.299
X27.161 Y3.714 I0.728 J0.18
G1 X27.661 Y4.174
X27.675 Y4.196
Y4.222
X27.663 Y4.245
X27.641 Y4.258
X27.616 Y4.259
X27.593 Y4.247
X27.1 Y3.793
G2 X26.363 Y3.631 I-0.508 J0.552
X24.773 Y6.023 I0.701 J2.191
X25.219 Y6.644 I0.747 J-0.066
G1 X25.841 Y6.917
X25.861 Y6.933
X25.87 Y6.957
X25.866 Y6.983
X25.849 Y7.003
X25.825 Y7.012
X25.8 Y7.008
X25.186 Y6.739
G2 X24.437 Y6.824 I-0.301 J0.687
X23.709 Y9.603 I1.374 J1.844
G1 X23.721 Y9.628
G0 Z5
X22.289 Y10.502
G1 Z-3.3 F333.3
G2 X21.617 Y10.19 I-0.61 J0.436 F1000
G1 X20.94 Y10.247
X20.915 Y10.242
X20.895 Y10.225
X20.887 Y10.2
X20.891 Y10.175
X20.908 Y10.155
X20.932 Y10.147
X21.6 Y10.091
G2 X22.219 Y9.66 I-0.062 J-0.747
X21.536 Y6.87 I-2.086 J-0.968
X20.777 Y6.777 I-0.458 J0.594
G1 X20.155 Y7.05
X20.129 Y7.053
X20.105 Y7.044
X20.09 Y7.023
X20.086 Y6.998
X20.095 Y6.974
X20.115 Y6.958
X20.729 Y6.689
G2 X21.174 Y6.08 I-0.301 J-0.687
X19.622 Y3.662 I-2.288 J-0.238
X18.874 Y3.821 I-0.24 J0.711
G1 X18.375 Y4.281
X18.352 Y4.293
X18.326 Y4.291
X18.304 Y4.277
X18.292 Y4.254
X18.294 Y4.229
X18.307 Y4.207
X18.801 Y3.753
G2 X19.023 Y3.032 I-0.508 J-0.552
X16.771 Y1.25 I-2.241 J0.517
X16.115 Y1.643 I0.004 J0.75
G1 X15.792 Y2.24
X15.774 Y2.259
X15.749 Y2.266
X15.724 Y2.26
X15.705 Y2.242
X15.698 Y2.217
X15.704 Y2.192
X16.023 Y1.603
G2 X16 Y0.849 I-0.66 J-0.357
X13.291 Y-0.106 I-1.952 J1.217
X12.798 Y0.479 I0.247 J0.708
G1 X12.686 Y1.149
X12.675 Y1.172
X12.654 Y1.187
X12.628 Y1.189
X12.605 Y1.178
X12.59 Y1.157
X12.588 Y1.132
X12.698 Y0.471
G2 X12.431 Y-0.235 I-0.74 J-0.123
X9.559 Y-0.258 I-1.451 J1.785
X9.283 Y0.455 I0.464 J0.59
G1 X9.394 Y1.125
X9.392 Y1.151
X9.376 Y1.172
X9.353 Y1.182
X9.327 Y1.179
X9.306 Y1.164
X9.296 Y1.141
X9.185 Y0.48
G2 X8.704 Y-0.101 I-0.74 J0.123
X5.98 Y0.81 I-0.793 J2.159
X5.95 Y1.574 I0.63 J0.407
G1 X6.273 Y2.171
X6.279 Y2.197
X6.271 Y2.221
X6.252 Y2.239
X6.227 Y2.245
X6.203 Y2.237
X6.185 Y2.218
X5.866 Y1.629
G2 X5.222 Y1.236 I-0.66 J0.357
X2.941 Y2.982 I-0.049 J2.299
X3.161 Y3.714 I0.728 J0.181
G1 X3.661 Y4.174
X3.675 Y4.196
Y4.222
X3.663 Y4.245
X3.641 Y4.258
X3.616 Y4.259
X3.593 Y4.247
X3.1 Y3.793
G2 X2.363 Y3.631 I-0.508 J0.552
X0.773 Y6.023 I0.701 J2.191
X1.219 Y6.644 I0.747 J-0.066
G1 X1.841 Y6.917
X1.861 Y6.933
X1.87 Y6.957
X1.866 Y6.983
X1.849 Y7.003
X1.825 Y7.012
X1.8 Y7.008
X1.186 Y6.739
G2 X0.437 Y6.824 I-0.301 J0.687
X-0.291 Y9.603 I1.374 J1.844
X0.332 Y10.046 I0.685 J-0.305
G1 X1.01 Y10.102
X1.034 Y10.111
X1.05 Y10.131
X1.054 Y10.156
X1.046 Y10.181
X1.026 Y10.197
X1 Y10.202
X0.333 Y10.146
G2 X-0.348 Y10.47 I-0.062 J0.747
X-0.134 Y13.335 I1.898 J1.298
X0.599 Y13.551 I0.549 J-0.511
G1 X1.258 Y13.384
X1.283 Y13.385
X1.305 Y13.399
X1.318 Y13.421
X1.317 Y13.447
X1.304 Y13.469
X1.281 Y13.482
X0.632 Y13.646
G2 X0.093 Y14.174 I0.184 J0.727
X1.225 Y16.814 I2.217 J0.612
X1.989 Y16.78 I0.354 J-0.661
G1 X2.558 Y16.408
X2.583 Y16.401
X2.608 Y16.406
X2.627 Y16.424
X2.635 Y16.448
X2.629 Y16.473
X2.612 Y16.493
X2.051 Y16.859
G2 X1.713 Y17.533 I0.41 J0.628
X3.641 Y19.662 I2.296 J-0.141
X4.353 Y19.383 I0.12 J-0.74
G1 X4.77 Y18.846
X4.791 Y18.831
X4.816 Y18.828
X4.84 Y18.838
X4.855 Y18.859
X4.858 Y18.885
X4.848 Y18.908
X4.437 Y19.437
G2 X4.335 Y20.185 I0.592 J0.461
X6.851 Y21.572 I2.125 J-0.879
X7.433 Y21.077 I-0.127 J-0.739
G1 X7.653 Y20.434
X7.668 Y20.413
X7.691 Y20.402
X7.717 Y20.404
X7.738 Y20.418
X7.75 Y20.442
X7.748 Y20.467
X7.53 Y21.101
G2 X7.677 Y21.841 I0.709 J0.244
X10.506 Y22.337 I1.725 J-1.522
X10.896 Y21.679 I-0.36 J-0.658
G1 Y20.999
X10.903 Y20.975
X10.922 Y20.957
X10.947 Y20.95
X10.971 Y20.957
X10.99 Y20.975
X10.996 Y21
Y21.67
G2 X11.375 Y22.322 I0.75 J0
X14.213 Y21.872 I1.137 J-1.999
X14.368 Y21.124 I-0.554 J-0.505
G1 X14.147 Y20.481
X14.146 Y20.455
X14.157 Y20.432
X14.179 Y20.418
X14.204 Y20.416
X14.227 Y20.428
X14.242 Y20.449
X14.459 Y21.083
G2 X15.03 Y21.577 I0.709 J-0.244
X17.567 Y20.23 I0.426 J-2.26
X17.471 Y19.472 I-0.688 J-0.298
G1 X17.053 Y18.935
X17.044 Y18.912
X17.047 Y18.886
X17.063 Y18.866
X17.087 Y18.856
X17.112 Y18.859
X17.133 Y18.875
X17.544 Y19.404
G2 X18.244 Y19.685 I0.592 J-0.461
X20.207 Y17.588 I-0.331 J-2.276
X19.869 Y16.901 I-0.748 J-0.058
G1 X19.3 Y16.53
X19.283 Y16.51
X19.278 Y16.485
X19.287 Y16.461
X19.306 Y16.444
X19.331 Y16.438
X19.356 Y16.447
X19.917 Y16.813
G2 X20.67 Y16.852 I0.41 J-0.628
X21.845 Y14.231 I-1.052 J-2.045
X21.303 Y13.692 I-0.726 J0.188
G1 X20.644 Y13.525
X20.622 Y13.512
X20.609 Y13.49
Y13.464
X20.622 Y13.442
X20.644 Y13.428
X20.67
X21.319 Y13.593
G2 X22.044 Y13.385 I0.184 J-0.727
X22.305 Y10.525 I-1.659 J-1.593
G1 X22.289 Y10.502
Z-3.6 F333.3
G2 X21.617 Y10.19 I-0.61 J0.436 F1000
G1 X20.94 Y10.247
X20.915 Y10.242
X20.895 Y10.225
X20.887 Y10.2
X20.891 Y10.175
X20.908 Y10.155
X20.932 Y10.147
X21.6 Y10.091
G2 X22.219 Y9.66 I-0.062 J-0.747
X21.536 Y6.87 I-2.086 J-0.968
X20.777 Y6.777 I-0.458 J0.594
G1 X20.155 Y7.05
X20.129 Y7.053
X20.105 Y7.044
X20.09 Y7.023
X20.086 Y6.998
X20.095 Y6.974
X20.115 Y6.958
X20.729 Y6.689
G2 X21.174 Y6.08 I-0.301 J-0.687
X19.622 Y3.662 I-2.288 J-0.238
X18.874 Y3.821 I-0.24 J0.711
G1 X18.375 Y4.281
X18.352 Y4.293
X18.326 Y4.291
X18.304 Y4.277
X18.292 Y4.254
X18.294 Y4.229
X18.307 Y4.207
X18.801 Y3.753
G2 X19.023 Y3.032 I-0.508 J-0.552
X16.771 Y1.25 I-2.241 J0.517
X16.115 Y1.643 I0.004 J0.75
G1 X15.792 Y2.24
X15.774 Y2.259
X15.749 Y2.266
X15.724 Y2.26
X15.705 Y2.242
X15.698 Y2.217
X15.704 Y2.192
X16.023 Y1.603
G2 X16 Y0.849 I-0.66 J-0.357
X13.291 Y-0.106 I-1.952 J1.217
X12.798 Y0.479 I0.247 J0.708
G1 X12.686 Y1.149
X12.675 Y1.172
X12.654 Y1.187
X12.628 Y1.189
X12.605 Y1.178
X12.59 Y1.157
X12.588 Y1.132
X12.698 Y0.471
G2 X12.431 Y-0.235 I-0.74 J-0.123
X9.559 Y-0.258 I-1.451 J1.785
X9.283 Y0.455 I0.464 J0.59
G1 X9.394 Y1.125
X9.392 Y1.151
X9.376 Y1.172
X9.353 Y1.182
X9.327 Y1.179
X9.306 Y1.164
X9.296 Y1.141
X9.185 Y0.48
G2 X8.704 Y-0.101 I-0.74 J0.123
X5.98 Y0.81 I-0.793 J2.159
X5.95 Y1.574 I0.63 J0.407
G1 X6.273 Y2.171
X6.279 Y2.197
X6.271 Y2.221
X6.252 Y2.239
X6.227 Y2.245
X6.203 Y2.237
X6.185 Y2.218
X5.866 Y1.629
G2 X5.222 Y1.236 I-0.66 J0.357
X2.941 Y2.982 I-0.049 J2.299
X3.161 Y3.714 I0.728 J0.181
G1 X3.661 Y4.174
X3.675 Y4.196
Y4.222
X3.663 Y4.245
X3.641 Y4.258
X3.616 Y4.259
X3.593 Y4.247
X3.1 Y3.793
G2 X2.363 Y3.631 I-0.508 J0.552
X0.773 Y6.023 I0.701 J2.191
X1.219 Y6.644 I0.747 J-0.066
G1 X1.841 Y6.917
X1.861 Y6.933
X1.87 Y6.957
X1.866 Y6.983
X1.849 Y7.003
X1.825 Y7.012
X1.8 Y7.008
X1.186 Y6.739
G2 X0.437 Y6.824 I-0.301 J0.687
X-0.291 Y9.603 I1.374 J1.844
X0.332 Y10.046 I0.685 J-0.305
G1 X1.01 Y10.102
X1.034 Y10.111
X1.05 Y10.131
X1.054 Y10.156
X1.046 Y10.181
X1.026 Y10.197
X1 Y10.202
X0.333 Y10.146
G2 X-0.348 Y10.47 I-0.062 J0.747
X-0.134 Y13.335 I1.898 J1.298
X0.599 Y13.551 I0.549 J-0.511
G1 X1.258 Y13.384
X1.283 Y13.385
X1.305 Y13.399
X1.318 Y13.421
X1.317 Y13.447
X1.304 Y13.469
X1.281 Y13.482
X0.632 Y13.646
G2 X0.093 Y14.174 I0.184 J0.727
X1.225 Y16.814 I2.217 J0.612
X1.989 Y16.78 I0.354 J-0.661
G1 X2.558 Y16.408
X2.583 Y16.401
X2.608 Y16.406
X2.627 Y16.424
X2.635 Y16.448
X2.629 Y16.473
X2.612 Y16.493
X2.051 Y16.859
G2 X1.713 Y17.533 I0.41 J0.628
X3.641 Y19.662 I2.296 J-0.141
X4.353 Y19.383 I0.12 J-0.74
G1 X4.77 Y18.846
X4.791 Y18.831
X4.816 Y18.828
X4.84 Y18.838
X4.855 Y18.859
X4.858 Y18.885
X4.848 Y18.908
X4.437 Y19.437
G2 X4.335 Y20.185 I0.592 J0.461
X6.851 Y21.572 I2.125 J-0.879
X7.433 Y21.077 I-0.127 J-0.739
G1 X7.653 Y20.434
X7.668 Y20.413
X7.691 Y20.402
X7.717 Y20.404
X7.738 Y20.418
X7.75 Y20.442
X7.748 Y20.467
X7.53 Y21.101
G2 X7.677 Y21.841 I0.709 J0.244
X10.506 Y22.337 I1.725 J-1.522
X10.896 Y21.679 I-0.36 J-0.658
G1 Y20.999
X10.903 Y20.975
X10.922 Y20.957
X10.947 Y20.95
X10.971 Y20.957
X10.99 Y20.975
X10.996 Y21
Y21.67
G2 X11.375 Y22.322 I0.75 J0
X14.213 Y21.872 I1.137 J-1.999
X14.368 Y21.124 I-0.554 J-0.505
G1 X14.147 Y20.481
X14.146 Y20.455
X14.157 Y20.432
X14.179 Y20.418
X14.204 Y20.416
X14.227 Y20.428
X14.242 Y20.449
X14.459 Y21.083
G2 X15.03 Y21.577 I0.709 J-0.244
X17.567 Y20.23 I0.426 J-2.26
X17.471 Y19.472 I-0.688 J-0.298
G1 X17.053 Y18.935
X17.044 Y18.912
X17.047 Y18.886
X17.063 Y18.866
X17.087 Y18.856
X17.112 Y18.859
X17.133 Y18.875
X17.544 Y19.404
G2 X18.244 Y19.685 I0.592 J-0.461
X20.207 Y17.588 I-0.331 J-2.276
