(1001)
(T4  D=5 CR=0 - ZMIN=-9 - flat end mill)
G90 G94
G17
G21
(When using Fusion 360 for Personal Use, the feedrate of rapid moves is reduced to match the feedrate of cutting moves, which can increase machining time. Unrestricted rapid moves are available with a Fusion 360 Subscription.)

(Pocket2)
T4
S5000 M3
G54
M8
G0 X-19.261 Y28.042
Z6
G1 Z1.4 F1000
Z0.42 F333.3
X-20.957 Z0.242
X-20.982 Y28.036
X-21 Y28.017
X-21.007 Y27.992
X-21 Y27.967
X-20.982 Y27.949
X-20.957 Y27.942
X-19.204 Z0.059
X-19.179 Y27.949
X-19.161 Y27.967
X-19.154 Y27.992
X-19.161 Y28.017
X-19.179 Y28.036
X-19.204 Y28.042
X-20.957 Z-0.125
X-20.982 Y28.036
X-21 Y28.017
X-21.007 Y27.992
X-21 Y27.967
X-20.982 Y27.949
X-20.957 Y27.942
X-19.204 Z-0.308
X-19.179 Y27.949
X-19.161 Y27.967
X-19.154 Y27.992
X-19.161 Y28.017
X-19.179 Y28.036
X-19.204 Y28.042
X-20.081 Z-0.4
X-20.151 Y28.038
X-20.22 Y28.025
X-20.287 Y28.004
X-21.574 Y27.5
G2 X-21.987 Y28.556 I-0.206 J0.528
X-21.214 Y28.016 I0.206 J-0.528
G1 X-21.42 Y18.269 F1000
G3 X-18.749 Y18.269 I1.336 J0
G1 X-18.748 Y47.02
G3 X-19.866 Y48.138 I-1.118 J0.001
G1 X-20.302
G3 X-21.419 Y47.021 I0 J-1.118
G1 X-21.206 Y28.411
X-21.214 Y28.016
G2 X-22.715 Y25.822 I-2.43 J0.051
G3 X-24.194 Y23.612 I0.914 J-2.211
G1 X-24.199 Y15.457
G3 X-22.929 Y14.07 I1.27 J-0.112
G1 X-17.507 Y14.071
G3 X-15.99 Y15.589 I0 J1.518
G1 X-15.991 Y48.893
G3 X-17.997 Y50.898 I-2.005 J0
G1 X-22.174
G3 X-24.179 Y48.893 I0 J-2.005
G1 X-24.194 Y23.612
G2 X-26.026 Y20.867 I-2.976 J0.002
G3 X-27.857 Y18.122 I1.141 J-2.745
G1 Y15.891
X-27.86 Y15.81
X-27.868 Y15.728
X-27.895 Y15.524
X-27.914 Y15.416
X-27.942 Y15.31
X-28.012 Y15.089
X-28.041 Y15.009
X-28.074 Y14.931
Y10.395
X-25.546 Y10.394
X-25.46 Y10.391
X-25.373 Y10.381
X-25.225 Y10.361
X-25.119 Y10.377
X-25.048 Y10.384
X-24.914 Y10.391
X-15.49 Y10.394
X-15.408 Y10.392
X-15.328 Y10.384
X-15.155 Y10.361
X-15.038 Y10.377
X-14.897 Y10.39
X-14.786 Y10.395
X-12.314
X-12.309 Y27.708
X-12.304 Y27.817
X-12.29 Y27.925
X-12.28 Y27.983
X-12.294 Y28.103
X-12.31 Y28.313
X-12.314 Y28.408
X-12.31 Y32.745
X-12.306 Y32.844
X-12.295 Y32.942
X-12.278 Y33.045
X-12.279 Y33.05
X-12.294 Y33.138
X-12.303 Y33.226
X-12.311 Y33.366
X-12.314 Y33.445
X-12.31 Y37.712
X-12.306 Y37.813
X-12.293 Y37.914
X-12.278 Y38.008
X-12.281 Y38.022
X-12.297 Y38.121
X-12.305 Y38.222
X-12.313 Y38.431
X-12.314 Y38.481
X-12.31 Y42.748
X-12.306 Y42.849
X-12.294 Y42.949
X-12.278 Y43.046
X-12.28 Y43.057
X-12.296 Y43.156
X-12.304 Y43.257
X-12.313 Y43.467
X-12.314 Y43.518
X-12.31 Y47.715
X-12.306 Y47.815
X-12.294 Y47.914
X-12.278 Y48.014
X-12.28 Y48.022
X-12.297 Y48.128
X-12.305 Y48.235
X-12.313 Y48.515
X-12.314 Y48.553
Y51.08
X-12.386 Y51.134
X-12.458 Y51.192
X-12.525 Y51.255
X-12.645 Y51.375
X-12.704 Y51.439
X-12.759 Y51.507
X-12.866 Y51.65
X-12.914 Y51.72
X-12.958 Y51.793
X-13.037 Y51.934
X-13.08 Y52.02
X-13.117 Y52.109
X-13.194 Y52.319
X-13.227 Y52.423
X-13.251 Y52.53
X-13.289 Y52.74
X-13.304 Y52.848
X-13.309 Y52.958
X-13.312 Y54.575
X-26.859
X-26.856 Y54.462
Y54.425
X-26.861 Y52.956
X-26.866 Y52.848
X-26.881 Y52.74
X-26.918 Y52.53
X-26.942 Y52.423
X-26.976 Y52.319
X-27.053 Y52.109
X-27.092 Y52.015
X-27.139 Y51.923
X-27.231 Y51.761
X-27.28 Y51.683
X-27.334 Y51.608
X-27.446 Y51.465
X-27.506 Y51.393
X-27.572 Y51.326
X-27.714 Y51.193
X-27.783 Y51.132
X-27.856 Y51.077
X-27.858 Y40.953
X-27.861 Y40.869
X-27.869 Y40.786
X-27.89 Y40.632
X-27.878 Y40.553
X-27.871 Y40.473
X-27.858 Y40.227
X-27.856 Y40.158
X-27.86 Y35.821
X-27.865 Y35.711
X-27.88 Y35.602
X-27.89 Y35.543
X-27.875 Y35.421
X-27.86 Y35.218
X-27.856 Y35.122
X-27.858 Y30.872
X-27.86 Y30.789
X-27.868 Y30.707
X-27.89 Y30.546
X-27.879 Y30.471
X-27.872 Y30.395
X-27.858 Y30.159
X-27.856 Y30.085
X-27.86 Y20.853
X-27.863 Y20.763
X-27.873 Y20.672
X-27.89 Y20.556
X-27.888 Y20.545
X-27.872 Y20.428
X-27.863 Y20.327
X-27.857 Y20.214
Y18.122
X-27.852 Y18.1
X-27.837 Y18.083
X-27.816 Y18.076
X-27.794 Y18.079
X-27.588 Y18.162
X-19.556 Y20.606
X-19.539 Y20.608
X-19.522 Y20.602
X-19.509 Y20.59
X-19.468 Y20.533
X-19.453 Y20.52
X-19.434 Y20.516
X-19.211 Z-0.481 F333.3
X-19.186 Y20.522
X-19.168 Y20.541
X-19.161 Y20.566
X-19.168 Y20.591
X-19.186 Y20.609
X-19.211 Y20.616
X-20.088 Z-0.8
X-20.166 Y20.611
X-20.244 Y20.596
X-20.319 Y20.572
X-21.781 Y20.008
G2 X-22.244 Y21.205 I-0.231 J0.599
X-21.371 Y20.593 I0.231 J-0.599
G1 X-21.42 Y18.269 F1000
G3 X-18.749 Y18.269 I1.336 J0
G1 X-18.748 Y47.02
G3 X-19.866 Y48.138 I-1.118 J0.001
G1 X-20.302
G3 X-21.419 Y47.021 I0 J-1.118
G1 X-21.206 Y28.411
X-21.371 Y20.593
G2 X-22.795 Y18.511 I-2.305 J0.049
G3 X-24.198 Y16.414 I0.867 J-2.098
G1 X-24.199 Y15.457
G3 X-22.929 Y14.07 I1.27 J-0.112
G1 X-17.507 Y14.071
G3 X-15.99 Y15.589 I0 J1.518
G1 X-15.991 Y48.893
G3 X-17.997 Y50.898 I-2.005 J0
G1 X-22.174
G3 X-24.179 Y48.893 I0 J-2.005
G1 X-24.198 Y16.414
G2 X-26.136 Y13.686 I-2.891 J0.002
G3 X-28.074 Y10.958 I0.951 J-2.728
G1 Y10.395
X-25.546 Y10.394
X-25.46 Y10.391
X-25.373 Y10.381
X-25.225 Y10.361
X-25.119 Y10.377
X-25.048 Y10.384
X-24.914 Y10.391
X-15.49 Y10.394
X-15.408 Y10.392
X-15.328 Y10.384
X-15.155 Y10.361
X-15.038 Y10.377
X-14.897 Y10.39
X-14.786 Y10.395
X-12.314
X-12.309 Y27.708
X-12.304 Y27.817
X-12.29 Y27.925
X-12.28 Y27.983
X-12.294 Y28.103
X-12.31 Y28.313
X-12.314 Y28.408
X-12.31 Y32.745
X-12.306 Y32.844
X-12.295 Y32.942
X-12.278 Y33.045
X-12.279 Y33.05
X-12.294 Y33.138
X-12.303 Y33.226
X-12.311 Y33.366
X-12.314 Y33.445
X-12.31 Y37.712
X-12.306 Y37.813
X-12.293 Y37.914
X-12.278 Y38.008
X-12.281 Y38.022
X-12.297 Y38.121
X-12.305 Y38.222
X-12.313 Y38.431
X-12.314 Y38.481
X-12.31 Y42.748
X-12.306 Y42.849
X-12.294 Y42.949
X-12.278 Y43.046
X-12.28 Y43.057
X-12.296 Y43.156
X-12.304 Y43.257
X-12.313 Y43.467
X-12.314 Y43.518
X-12.31 Y47.715
X-12.306 Y47.815
X-12.294 Y47.914
X-12.278 Y48.014
X-12.28 Y48.022
X-12.297 Y48.128
X-12.305 Y48.235
X-12.313 Y48.515
X-12.314 Y48.553
Y51.08
X-12.386 Y51.134
X-12.458 Y51.192
X-12.525 Y51.255
X-12.645 Y51.375
X-12.704 Y51.439
X-12.759 Y51.507
X-12.866 Y51.65
X-12.914 Y51.72
X-12.958 Y51.793
X-13.037 Y51.934
X-13.08 Y52.02
X-13.117 Y52.109
X-13.194 Y52.319
X-13.227 Y52.423
X-13.251 Y52.53
X-13.289 Y52.74
X-13.304 Y52.848
X-13.309 Y52.958
X-13.312 Y54.575
X-26.859
X-26.856 Y54.462
Y54.425
X-26.861 Y52.956
X-26.866 Y52.848
X-26.881 Y52.74
X-26.918 Y52.53
X-26.942 Y52.423
X-26.976 Y52.319
X-27.053 Y52.109
X-27.092 Y52.015
X-27.139 Y51.923
X-27.231 Y51.761
X-27.28 Y51.683
X-27.334 Y51.608
X-27.446 Y51.465
X-27.506 Y51.393
X-27.572 Y51.326
X-27.714 Y51.193
X-27.783 Y51.132
X-27.856 Y51.077
X-27.858 Y40.953
X-27.861 Y40.869
X-27.869 Y40.786
X-27.89 Y40.632
X-27.878 Y40.553
X-27.871 Y40.473
X-27.858 Y40.227
X-27.856 Y40.158
X-27.86 Y35.821
X-27.865 Y35.711
X-27.88 Y35.602
X-27.89 Y35.543
X-27.875 Y35.421
X-27.86 Y35.218
X-27.856 Y35.122
X-27.858 Y30.872
X-27.86 Y30.789
X-27.868 Y30.707
X-27.89 Y30.546
X-27.879 Y30.471
X-27.872 Y30.395
X-27.858 Y30.159
X-27.856 Y30.085
X-27.86 Y20.853
X-27.863 Y20.763
X-27.873 Y20.672
X-27.89 Y20.556
X-27.888 Y20.545
X-27.872 Y20.428
X-27.863 Y20.327
X-27.857 Y20.214
Y15.891
X-27.86 Y15.81
X-27.868 Y15.728
X-27.895 Y15.524
X-27.914 Y15.416
X-27.942 Y15.31
X-28.012 Y15.089
X-28.041 Y15.009
X-28.074 Y14.931
Y10.958
X-28.069 Y10.94
X-28.054 Y10.928
X-28.035 Y10.925
X-28.018 Y10.934
X-27.912 Y11.037
X-20.226 Y20.79
X-20.201 Y20.813
X-20.171 Y20.826
X-20.137 Y20.828
X-20.105 Y20.819
X-19.476 Y20.525
X-19.455 Y20.518
X-19.434 Y20.516
X-19.211 Z-0.881 F333.3
X-19.186 Y20.522
X-19.168 Y20.541
X-19.161 Y20.566
X-19.168 Y20.591
X-19.186 Y20.609
X-19.211 Y20.616
X-20.088 Z-1.2
X-20.166 Y20.611
X-20.244 Y20.596
X-20.319 Y20.572
X-21.781 Y20.008
G2 X-22.244 Y21.205 I-0.231 J0.599
X-21.371 Y20.593 I0.231 J-0.599
G1 X-21.42 Y18.269 F1000
G3 X-18.749 Y18.269 I1.336 J0
G1 X-18.748 Y47.02
G3 X-19.866 Y48.138 I-1.118 J0.001
G1 X-20.302
G3 X-21.419 Y47.021 I0 J-1.118
G1 X-21.206 Y28.411
X-21.371 Y20.593
G2 X-22.795 Y18.511 I-2.305 J0.049
G3 X-24.198 Y16.414 I0.867 J-2.098
G1 X-24.199 Y15.457
G3 X-22.929 Y14.07 I1.27 J-0.112
G1 X-17.507 Y14.071
G3 X-15.99 Y15.589 I0 J1.518
G1 X-15.991 Y48.893
G3 X-17.997 Y50.898 I-2.005 J0
G1 X-22.174
G3 X-24.179 Y48.893 I0 J-2.005
G1 X-24.198 Y16.414
G2 X-26.136 Y13.686 I-2.891 J0.002
G3 X-28.074 Y10.958 I0.951 J-2.728
G1 Y10.395
X-25.546 Y10.394
X-25.46 Y10.391
X-25.373 Y10.381
X-25.225 Y10.361
X-25.119 Y10.377
X-25.048 Y10.384
X-24.914 Y10.391
X-15.49 Y10.394
X-15.408 Y10.392
X-15.328 Y10.384
X-15.155 Y10.361
X-15.038 Y10.377
X-14.897 Y10.39
X-14.786 Y10.395
X-12.314
X-12.309 Y27.708
X-12.304 Y27.817
X-12.29 Y27.925
X-12.28 Y27.983
X-12.294 Y28.103
X-12.31 Y28.313
X-12.314 Y28.408
X-12.31 Y32.745
X-12.306 Y32.844
X-12.295 Y32.942
X-12.278 Y33.045
X-12.279 Y33.05
X-12.294 Y33.138
X-12.303 Y33.226
X-12.311 Y33.366
X-12.314 Y33.445
X-12.31 Y37.712
X-12.306 Y37.813
X-12.293 Y37.914
X-12.278 Y38.008
X-12.281 Y38.022
X-12.297 Y38.121
X-12.305 Y38.222
X-12.313 Y38.431
X-12.314 Y38.481
X-12.31 Y42.748
X-12.306 Y42.849
X-12.294 Y42.949
X-12.278 Y43.046
X-12.28 Y43.057
X-12.296 Y43.156
X-12.304 Y43.257
X-12.313 Y43.467
X-12.314 Y43.518
X-12.31 Y47.715
X-12.306 Y47.815
X-12.294 Y47.914
X-12.278 Y48.014
X-12.28 Y48.022
X-12.297 Y48.128
X-12.305 Y48.235
X-12.313 Y48.515
X-12.314 Y48.553
Y51.08
X-12.386 Y51.134
X-12.458 Y51.192
X-12.525 Y51.255
X-12.645 Y51.375
X-12.704 Y51.439
X-12.759 Y51.507
X-12.866 Y51.65
X-12.914 Y51.72
X-12.958 Y51.793
X-13.037 Y51.934
X-13.08 Y52.02
X-13.117 Y52.109
X-13.194 Y52.319
X-13.227 Y52.423
X-13.251 Y52.53
X-13.289 Y52.74
X-13.304 Y52.848
X-13.309 Y52.958
X-13.312 Y54.575
X-26.859
X-26.856 Y54.462
Y54.425
X-26.861 Y52.956
X-26.866 Y52.848
X-26.881 Y52.74
X-26.918 Y52.53
X-26.942 Y52.423
X-26.976 Y52.319
X-27.053 Y52.109
X-27.092 Y52.015
X-27.139 Y51.923
X-27.231 Y51.761
X-27.28 Y51.683
X-27.334 Y51.608
X-27.446 Y51.465
X-27.506 Y51.393
X-27.572 Y51.326
X-27.714 Y51.193
X-27.783 Y51.132
X-27.856 Y51.077
X-27.858 Y40.953
X-27.861 Y40.869
X-27.869 Y40.786
X-27.89 Y40.632
X-27.878 Y40.553
X-27.871 Y40.473
X-27.858 Y40.227
X-27.856 Y40.158
X-27.86 Y35.821
X-27.865 Y35.711
X-27.88 Y35.602
X-27.89 Y35.543
X-27.875 Y35.421
X-27.86 Y35.218
X-27.856 Y35.122
X-27.858 Y30.872
X-27.86 Y30.789
X-27.868 Y30.707
X-27.89 Y30.546
X-27.879 Y30.471
X-27.872 Y30.395
X-27.858 Y30.159
X-27.856 Y30.085
X-27.86 Y20.853
X-27.863 Y20.763
X-27.873 Y20.672
X-27.89 Y20.556
X-27.888 Y20.545
X-27.872 Y20.428
X-27.863 Y20.327
X-27.857 Y20.214
Y15.891
X-27.86 Y15.81
X-27.868 Y15.728
X-27.895 Y15.524
X-27.914 Y15.416
X-27.942 Y15.31
X-28.012 Y15.089
X-28.041 Y15.009
X-28.074 Y14.931
Y10.958
X-28.069 Y10.94
X-28.054 Y10.928
X-28.035 Y10.925
X-28.018 Y10.934
X-27.912 Y11.037
X-20.226 Y20.79
X-20.201 Y20.813
X-20.171 Y20.826
X-20.137 Y20.828
X-20.105 Y20.819
X-19.476 Y20.525
X-19.455 Y20.518
X-19.434 Y20.516
X-19.211 Z-1.281 F333.3
X-19.186 Y20.522
X-19.168 Y20.541
X-19.161 Y20.566
X-19.168 Y20.591
X-19.186 Y20.609
X-19.211 Y20.616
X-20.088 Z-1.6
X-20.166 Y20.611
X-20.244 Y20.596
X-20.319 Y20.572
X-21.781 Y20.008
G2 X-22.244 Y21.205 I-0.231 J0.599
X-21.371 Y20.593 I0.231 J-0.599
G1 X-21.42 Y18.269 F1000
G3 X-18.749 Y18.269 I1.336 J0
G1 X-18.748 Y47.02
G3 X-19.866 Y48.138 I-1.118 J0.001
G1 X-20.302
G3 X-21.419 Y47.021 I0 J-1.118
G1 X-21.206 Y28.411
X-21.371 Y20.593
G2 X-22.795 Y18.511 I-2.305 J0.049
G3 X-24.198 Y16.414 I0.867 J-2.098
G1 X-24.199 Y15.457
G3 X-22.929 Y14.07 I1.27 J-0.112
G1 X-17.507 Y14.071
G3 X-15.99 Y15.589 I0 J1.518
G1 X-15.991 Y48.893
G3 X-17.997 Y50.898 I-2.005 J0
G1 X-22.174
G3 X-24.179 Y48.893 I0 J-2.005
G1 X-24.198 Y16.414
G2 X-26.136 Y13.686 I-2.891 J0.002
G3 X-28.074 Y10.958 I0.951 J-2.728
G1 Y10.395
X-25.546 Y10.394
X-25.46 Y10.391
X-25.373 Y10.381
X-25.225 Y10.361
X-25.119 Y10.377
X-25.048 Y10.384
X-24.914 Y10.391
X-15.49 Y10.394
X-15.408 Y10.392
X-15.328 Y10.384
X-15.155 Y10.361
X-15.038 Y10.377
X-14.897 Y10.39
X-14.786 Y10.395
X-12.314
X-12.309 Y27.708
X-12.304 Y27.817
X-12.29 Y27.925
X-12.28 Y27.983
X-12.294 Y28.103
X-12.31 Y28.313
X-12.314 Y28.408
X-12.31 Y32.745
X-12.306 Y32.844
X-12.295 Y32.942
X-12.278 Y33.045
X-12.279 Y33.05
X-12.294 Y33.138
X-12.303 Y33.226
X-12.311 Y33.366
X-12.314 Y33.445
X-12.31 Y37.712
X-12.306 Y37.813
X-12.293 Y37.914
X-12.278 Y38.008
X-12.281 Y38.022
X-12.297 Y38.121
X-12.305 Y38.222
X-12.313 Y38.431
X-12.314 Y38.481
X-12.31 Y42.748
X-12.306 Y42.849
X-12.294 Y42.949
X-12.278 Y43.046
X-12.28 Y43.057
X-12.296 Y43.156
X-12.304 Y43.257
X-12.313 Y43.467
X-12.314 Y43.518
X-12.31 Y47.715
X-12.306 Y47.815
X-12.294 Y47.914
X-12.278 Y48.014
X-12.28 Y48.022
X-12.297 Y48.128
X-12.305 Y48.235
X-12.313 Y48.515
X-12.314 Y48.553
Y51.08
X-12.386 Y51.134
X-12.458 Y51.192
X-12.525 Y51.255
X-12.645 Y51.375
X-12.704 Y51.439
X-12.759 Y51.507
X-12.866 Y51.65
X-12.914 Y51.72
X-12.958 Y51.793
X-13.037 Y51.934
X-13.08 Y52.02
X-13.117 Y52.109
X-13.194 Y52.319
X-13.227 Y52.423
X-13.251 Y52.53
X-13.289 Y52.74
X-13.304 Y52.848
X-13.309 Y52.958
X-13.312 Y54.575
X-26.859
X-26.856 Y54.462
Y54.425
X-26.861 Y52.956
X-26.866 Y52.848
X-26.881 Y52.74
X-26.918 Y52.53
X-26.942 Y52.423
X-26.976 Y52.319
X-27.053 Y52.109
X-27.092 Y52.015
X-27.139 Y51.923
X-27.231 Y51.761
X-27.28 Y51.683
X-27.334 Y51.608
X-27.446 Y51.465
X-27.506 Y51.393
X-27.572 Y51.326
X-27.714 Y51.193
X-27.783 Y51.132
X-27.856 Y51.077
X-27.858 Y40.953
X-27.861 Y40.869
X-27.869 Y40.786
X-27.89 Y40.632
X-27.878 Y40.553
X-27.871 Y40.473
X-27.858 Y40.227
X-27.856 Y40.158
X-27.86 Y35.821
X-27.865 Y35.711
X-27.88 Y35.602
X-27.89 Y35.543
X-27.875 Y35.421
X-27.86 Y35.218
X-27.856 Y35.122
X-27.858 Y30.872
X-27.86 Y30.789
X-27.868 Y30.707
X-27.89 Y30.546
X-27.879 Y30.471
X-27.872 Y30.395
X-27.858 Y30.159
X-27.856 Y30.085
X-27.86 Y20.853
X-27.863 Y20.763
X-27.873 Y20.672
X-27.89 Y20.556
X-27.888 Y20.545
X-27.872 Y20.428
X-27.863 Y20.327
X-27.857 Y20.214
Y15.891
X-27.86 Y15.81
X-27.868 Y15.728
X-27.895 Y15.524
X-27.914 Y15.416
X-27.942 Y15.31
X-28.012 Y15.089
X-28.041 Y15.009
X-28.074 Y14.931
Y10.958
X-28.069 Y10.94
X-28.054 Y10.928
X-28.035 Y10.925
X-28.018 Y10.934
X-27.912 Y11.037
X-20.226 Y20.79
X-20.201 Y20.813
X-20.171 Y20.826
X-20.137 Y20.828
X-20.105 Y20.819
X-19.476 Y20.525
X-19.455 Y20.518
X-19.434 Y20.516
X-19.211 Z-1.681 F333.3
X-19.186 Y20.522
X-19.168 Y20.541
X-19.161 Y20.566
X-19.168 Y20.591
X-19.186 Y20.609
X-19.211 Y20.616
X-20.088 Z-2
X-20.166 Y20.611
X-20.244 Y20.596
X-20.319 Y20.572
X-21.781 Y20.008
G2 X-22.244 Y21.205 I-0.231 J0.599
X-21.371 Y20.593 I0.231 J-0.599
G1 X-21.42 Y18.269 F1000
G3 X-18.749 Y18.269 I1.336 J0
G1 X-18.748 Y47.02
G3 X-19.866 Y48.138 I-1.118 J0.001
G1 X-20.302
G3 X-21.419 Y47.021 I0 J-1.118
G1 X-21.206 Y28.411
X-21.371 Y20.593
G2 X-22.795 Y18.511 I-2.305 J0.049
G3 X-24.198 Y16.414 I0.867 J-2.098
G1 X-24.199 Y15.457
G3 X-22.929 Y14.07 I1.27 J-0.112
G1 X-17.507 Y14.071
G3 X-15.99 Y15.589 I0 J1.518
G1 X-15.991 Y48.893
G3 X-17.997 Y50.898 I-2.005 J0
G1 X-22.174
G3 X-24.179 Y48.893 I0 J-2.005
G1 X-24.198 Y16.414
G2 X-26.136 Y13.686 I-2.891 J0.002
G3 X-28.074 Y10.958 I0.951 J-2.728
G1 Y10.395
X-25.546 Y10.394
X-25.46 Y10.391
X-25.373 Y10.381
X-25.225 Y10.361
X-25.119 Y10.377
X-25.048 Y10.384
X-24.914 Y10.391
X-15.49 Y10.394
X-15.408 Y10.392
X-15.328 Y10.384
X-15.155 Y10.361
X-15.038 Y10.377
X-14.897 Y10.39
X-14.786 Y10.395
X-12.314
X-12.309 Y27.708
X-12.304 Y27.817
X-12.29 Y27.925
X-12.28 Y27.983
X-12.294 Y28.103
X-12.31 Y28.313
X-12.314 Y28.408
X-12.31 Y32.745
X-12.306 Y32.844
X-12.295 Y32.942
X-12.278 Y33.045
X-12.279 Y33.05
X-12.294 Y33.138
X-12.303 Y33.226
X-12.311 Y33.366
X-12.314 Y33.445
X-12.31 Y37.712
X-12.306 Y37.813
X-12.293 Y37.914
X-12.278 Y38.008
X-12.281 Y38.022
X-12.297 Y38.121
X-12.305 Y38.222
X-12.313 Y38.431
X-12.314 Y38.481
X-12.31 Y42.748
X-12.306 Y42.849
X-12.294 Y42.949
X-12.278 Y43.046
X-12.28 Y43.057
X-12.296 Y43.156
X-12.304 Y43.257
X-12.313 Y43.467
X-12.314 Y43.518
X-12.31 Y47.715
X-12.306 Y47.815
X-12.294 Y47.914
X-12.278 Y48.014
X-12.28 Y48.022
X-12.297 Y48.128
X-12.305 Y48.235
X-12.313 Y48.515
X-12.314 Y48.553
Y51.08
X-12.386 Y51.134
X-12.458 Y51.192
X-12.525 Y51.255
X-12.645 Y51.375
X-12.704 Y51.439
X-12.759 Y51.507
X-12.866 Y51.65
X-12.914 Y51.72
X-12.958 Y51.793
X-13.037 Y51.934
X-13.08 Y52.02
X-13.117 Y52.109
X-13.194 Y52.319
X-13.227 Y52.423
X-13.251 Y52.53
X-13.289 Y52.74
X-13.304 Y52.848
X-13.309 Y52.958
X-13.312 Y54.575
X-26.859
X-26.856 Y54.462
Y54.425
X-26.861 Y52.956
X-26.866 Y52.848
X-26.881 Y52.74
X-26.918 Y52.53
X-26.942 Y52.423
X-26.976 Y52.319
X-27.053 Y52.109
X-27.092 Y52.015
X-27.139 Y51.923
X-27.231 Y51.761
X-27.28 Y51.683
X-27.334 Y51.608
X-27.446 Y51.465
X-27.506 Y51.393
X-27.572 Y51.326
X-27.714 Y51.193
X-27.783 Y51.132
X-27.856 Y51.077
X-27.858 Y40.953
X-27.861 Y40.869
X-27.869 Y40.786
X-27.89 Y40.632
X-27.878 Y40.553
X-27.871 Y40.473
X-27.858 Y40.227
X-27.856 Y40.158
X-27.86 Y35.821
X-27.865 Y35.711
X-27.88 Y35.602
X-27.89 Y35.543
X-27.875 Y35.421
X-27.86 Y35.218
X-27.856 Y35.122
X-27.858 Y30.872
X-27.86 Y30.789
X-27.868 Y30.707
X-27.89 Y30.546
X-27.879 Y30.471
X-27.872 Y30.395
X-27.858 Y30.159
X-27.856 Y30.085
X-27.86 Y20.853
X-27.863 Y20.763
X-27.873 Y20.672
X-27.89 Y20.556
X-27.888 Y20.545
X-27.872 Y20.428
X-27.863 Y20.327
X-27.857 Y20.214
Y15.891
X-27.86 Y15.81
X-27.868 Y15.728
X-27.895 Y15.524
X-27.914 Y15.416
X-27.942 Y15.31
X-28.012 Y15.089
X-28.041 Y15.009
X-28.074 Y14.931
Y10.958
X-28.069 Y10.94
X-28.055 Y10.928
X-28.036 Y10.925
X-28.019 Y10.933
X-27.907 Y11.033
X-20.135 Y19.769
X-19.726 Y20.465
X-19.714 Y20.498
Y20.533
X-19.726 Y20.565
X-19.748 Y20.592
X-19.778 Y20.609
X-19.813 Y20.616
X-20.088 Z-2.1 F333.3
X-20.166 Y20.611
X-20.244 Y20.596
X-20.319 Y20.572
X-21.781 Y20.008
G2 X-22.244 Y21.205 I-0.231 J0.599
X-21.371 Y20.593 I0.231 J-0.599
G1 X-21.42 Y18.269 F1000
G3 X-18.749 Y18.269 I1.336 J0
G1 X-18.748 Y47.02
G3 X-19.866 Y48.138 I-1.118 J0.001
G1 X-20.302
G3 X-21.419 Y47.021 I0 J-1.118
G1 X-21.206 Y28.411
X-21.371 Y20.593
G2 X-22.795 Y18.511 I-2.305 J0.049
G3 X-24.198 Y16.414 I0.867 J-2.098
G1 X-24.199 Y15.457
G3 X-22.929 Y14.07 I1.27 J-0.112
G1 X-17.507 Y14.071
G3 X-15.99 Y15.589 I0 J1.518
G1 X-15.991 Y48.893
G3 X-17.997 Y50.898 I-2.005 J0
G1 X-22.174
G3 X-24.179 Y48.893 I0 J-2.005
G1 X-24.198 Y16.414
G2 X-26.136 Y13.686 I-2.891 J0.002
G3 X-28.074 Y10.958 I0.951 J-2.728
G1 Y10.395
X-25.546 Y10.394
X-25.46 Y10.391
X-25.373 Y10.381
X-25.225 Y10.361
X-25.119 Y10.377
X-25.048 Y10.384
X-24.914 Y10.391
X-15.49 Y10.394
X-15.408 Y10.392
X-15.328 Y10.384
X-15.155 Y10.361
X-15.038 Y10.377
X-14.897 Y10.39
X-14.786 Y10.395
X-12.314
X-12.309 Y27.708
X-12.304 Y27.817
X-12.29 Y27.925
X-12.28 Y27.983
X-12.294 Y28.103
X-12.31 Y28.313
X-12.314 Y28.408
X-12.31 Y32.745
X-12.306 Y32.844
X-12.295 Y32.942
X-12.278 Y33.045
X-12.279 Y33.05
X-12.294 Y33.138
X-12.303 Y33.226
X-12.311 Y33.366
X-12.314 Y33.445
X-12.31 Y37.712
X-12.306 Y37.813
X-12.293 Y37.914
X-12.278 Y38.008
X-12.281 Y38.022
X-12.297 Y38.121
X-12.305 Y38.222
X-12.313 Y38.431
X-12.314 Y38.481
X-12.31 Y42.748
X-12.306 Y42.849
X-12.294 Y42.949
X-12.278 Y43.046
X-12.28 Y43.057
X-12.296 Y43.156
X-12.304 Y43.257
X-12.313 Y43.467
X-12.314 Y43.518
X-12.31 Y47.715
X-12.306 Y47.815
X-12.294 Y47.914
X-12.278 Y48.014
X-12.28 Y48.022
X-12.297 Y48.128
X-12.305 Y48.235
X-12.313 Y48.515
X-12.314 Y48.553
Y51.08
X-12.386 Y51.134
X-12.458 Y51.192
X-12.525 Y51.255
X-12.645 Y51.375
X-12.704 Y51.439
X-12.759 Y51.507
X-12.866 Y51.65
X-12.914 Y51.72
X-12.958 Y51.793
X-13.037 Y51.934
X-13.08 Y52.02
X-13.117 Y52.109
X-13.194 Y52.319
X-13.227 Y52.423
X-13.251 Y52.53
X-13.289 Y52.74
X-13.304 Y52.848
X-13.309 Y52.958
X-13.312 Y54.575
X-26.859
X-26.856 Y54.462
Y54.425
X-26.861 Y52.956
X-26.866 Y52.848
X-26.881 Y52.74
X-26.918 Y52.53
X-26.942 Y52.423
X-26.976 Y52.319
X-27.053 Y52.109
X-27.092 Y52.015
X-27.139 Y51.923
X-27.231 Y51.761
X-27.28 Y51.683
X-27.334 Y51.608
X-27.446 Y51.465
X-27.506 Y51.393
X-27.572 Y51.326
X-27.714 Y51.193
X-27.783 Y51.132
X-27.856 Y51.077
X-27.858 Y40.953
X-27.861 Y40.869
X-27.869 Y40.786
X-27.89 Y40.632
X-27.878 Y40.553
X-27.871 Y40.473
X-27.858 Y40.227
X-27.856 Y40.158
X-27.86 Y35.821
X-27.865 Y35.711
X-27.88 Y35.602
X-27.89 Y35.543
X-27.875 Y35.421
X-27.86 Y35.218
X-27.856 Y35.122
X-27.858 Y30.872
X-27.86 Y30.789
X-27.868 Y30.707
X-27.89 Y30.546
X-27.879 Y30.471
X-27.872 Y30.395
X-27.858 Y30.159
X-27.856 Y30.085
X-27.86 Y20.853
X-27.863 Y20.763
X-27.873 Y20.672
X-27.89 Y20.556
X-27.888 Y20.545
X-27.872 Y20.428
X-27.863 Y20.327
X-27.857 Y20.214
Y15.891
X-27.86 Y15.81
X-27.868 Y15.728
X-27.895 Y15.524
X-27.914 Y15.416
X-27.942 Y15.31
X-28.012 Y15.089
X-28.041 Y15.009
X-28.074 Y14.931
Y10.958
X-28.068 Y10.922
X-28.049 Y10.891
X-28.02 Y10.869
X-27.984 Y10.859
X-27.948 Y10.862
X-27.915 Y10.878
X-27.209 Y11.397
X-27.187 Y11.42
X-20.798 Y20.529
X-20.774 Y20.605
X-20.996 Z-2.181 F333.3
X-21.021 Y20.599
X-21.04 Y20.58
X-21.046 Y20.555
X-21.04 Y20.53
X-21.021 Y20.512
X-20.996 Y20.505
X-20.12 Z-2.5
G3 X-19.866 Y20.558 I0 J0.644
G1 X-18.445 Y21.169
G2 X-17.937 Y19.986 I0.254 J-0.591
X-18.834 Y20.57 I-0.254 J0.591
G3 X-19.029 Y25.041 I-69.422 J-0.789 F1000
G2 X-18.727 Y30.344 I20.015 J1.521
G3 X-18.732 Y30.79 I-1.098 J0.211
G2 X-18.964 Y33.067 I10.159 J2.187
X-18.728 Y35.343 I12.112 J-0.105
G3 X-18.728 Y35.783 I-1.096 J0.22
G2 X-18.948 Y38.061 I11.056 J2.217
X-18.728 Y40.339 I12.585 J-0.068
G3 X-18.731 Y40.77 I-1.098 J0.208
G2 X-18.955 Y43.107 I11.076 J2.245
X-18.727 Y45.444 I13.144 J-0.107
G3 X-18.727 Y45.859 I-1.098 J0.208
G2 X-18.887 Y48.145 I9.674 J1.825
G3 X-18.833 Y50.436 I-49.01 J2.294
X-21.426 Y50.436 I-1.297 J0
G1 X-21.427 Y49.439
G2 X-21.529 Y48.365 I-5.712 J0.003
G3 X-21.528 Y47.934 I1.097 J-0.211
G2 X-21.53 Y38.26 I-24.116 J-4.833
G3 X-21.53 Y37.82 I1.096 J-0.22
G2 X-21.31 Y35.542 I-11.064 J-2.218
X-21.53 Y33.263 I-12.584 J0.068
G3 X-21.528 Y32.833 I1.098 J-0.208
G2 X-21.309 Y30.549 I-10.76 J-2.181
X-21.532 Y28.266 I-13.028 J0.122
G3 X-21.527 Y27.828 I1.098 J-0.206
G2 X-21.266 Y23.783 I-13.854 J-2.928
G3 X-21.425 Y19.733 I51.09 J-4.043
X-18.83 Y19.732 I1.298 J0
X-18.834 Y20.57 I-69.426 J0.049
G2 X-17.474 Y22.654 I2.237 J0.025
G3 X-16.114 Y24.737 I-0.913 J2.081
G1 Y25.188
X-16.112 Y25.266
X-16.105 Y25.344
X-16.081 Y25.53
X-16.095 Y25.628
X-16.108 Y25.767
X-16.114 Y25.889
Y27.708
X-16.111 Y27.788
X-16.104 Y27.869
X-16.081 Y28.041
X-16.096 Y28.152
X-16.109 Y28.292
X-16.115 Y28.41
X-16.112 Y29.389
X-16.109 Y29.483
X-16.098 Y29.577
X-16.065 Y29.787
X-16.044 Y29.893
X-16.014 Y29.997
X-15.943 Y30.207
X-15.909 Y30.296
X-15.868 Y30.382
X-15.796 Y30.522
X-15.78 Y30.552
X-15.824 Y30.63
X-15.862 Y30.712
X-15.953 Y30.921
X-15.992 Y31.025
X-16.022 Y31.132
X-16.07 Y31.342
X-16.087 Y31.43
X-16.098 Y31.518
X-16.11 Y31.658
X-16.115 Y31.768
X-16.112 Y32.748
X-16.108 Y32.845
X-16.096 Y32.942
X-16.08 Y33.045
X-16.081 Y33.05
X-16.095 Y33.138
X-16.104 Y33.226
X-16.113 Y33.366
X-16.115 Y33.445
X-16.114 Y34.354
X-16.112 Y34.432
X-16.104 Y34.51
X-16.078 Y34.72
X-16.06 Y34.826
X-16.032 Y34.931
X-15.968 Y35.14
X-15.937 Y35.229
X-15.899 Y35.315
X-15.832 Y35.455
X-15.778 Y35.554
X-15.806 Y35.601
X-15.855 Y35.691
X-15.897 Y35.785
X-15.979 Y35.995
X-16.015 Y36.099
X-16.041 Y36.206
X-16.083 Y36.416
X-16.097 Y36.503
X-16.105 Y36.591
X-16.113 Y36.731
X-16.115 Y36.803
X-16.114 Y37.713
X-16.111 Y37.794
X-16.103 Y37.876
X-16.081 Y38.041
X-16.093 Y38.116
X-16.1 Y38.192
X-16.113 Y38.402
X-16.115 Y38.485
X-16.112 Y39.394
X-16.108 Y39.489
X-16.097 Y39.583
X-16.064 Y39.793
X-16.043 Y39.9
X-16.012 Y40.004
X-15.94 Y40.214
X-15.906 Y40.303
X-15.865 Y40.388
X-15.792 Y40.528
X-15.78 Y40.551
X-15.836 Y40.656
X-15.911 Y40.814
X-15.949 Y40.905
X-15.98 Y40.999
X-16.042 Y41.209
X-16.064 Y41.296
X-16.079 Y41.385
X-16.099 Y41.525
X-16.108 Y41.611
X-16.111 Y41.697
X-16.112 Y42.747
X-16.108 Y42.848
X-16.095 Y42.949
X-16.079 Y43.046
X-16.082 Y43.057
X-16.098 Y43.156
X-16.106 Y43.257
X-16.114 Y43.467
X-16.115 Y43.521
X-16.112 Y44.501
X-16.107 Y44.599
X-16.096 Y44.697
X-16.061 Y44.907
X-16.039 Y45.013
X-16.008 Y45.117
X-15.935 Y45.327
X-15.9 Y45.416
X-15.859 Y45.502
X-15.785 Y45.641
X-15.779 Y45.652
X-15.856 Y45.796
X-15.898 Y45.882
X-15.933 Y45.972
X-16.007 Y46.182
X-16.038 Y46.286
X-16.061 Y46.392
X-16.095 Y46.602
X-16.107 Y46.702
X-16.112 Y46.802
X-16.114 Y47.711
X-16.111 Y47.797
X-16.102 Y47.882
X-16.081 Y48.041
X-16.098 Y48.166
X-16.11 Y48.306
X-16.115 Y48.414
X-16.114 Y52.121
X-16.112 Y52.197
X-16.105 Y52.272
X-16.08 Y52.482
X-16.063 Y52.586
X-16.037 Y52.688
X-15.977 Y52.888
X-15.944 Y52.985
X-15.903 Y53.079
X-15.814 Y53.26
X-15.764 Y53.354
X-15.705 Y53.443
X-15.575 Y53.624
X-15.51 Y53.706
X-15.439 Y53.783
X-15.3 Y53.92
X-15.223 Y53.99
X-15.141 Y54.053
X-14.961 Y54.179
X-14.873 Y54.236
X-14.78 Y54.285
X-14.6 Y54.371
X-14.509 Y54.41
X-14.414 Y54.442
X-14.224 Y54.498
X-14.124 Y54.523
X-14.023 Y54.54
X-13.812 Y54.565
X-13.737 Y54.572
X-13.661 Y54.575
X-13.312
X-26.859
X-26.528 Y54.57
X-26.421 Y54.566
X-26.314 Y54.551
X-26.103 Y54.514
X-26.004 Y54.492
X-25.907 Y54.463
X-25.725 Y54.399
X-25.632 Y54.362
X-25.543 Y54.318
X-25.361 Y54.219
X-25.284 Y54.174
X-25.21 Y54.123
X-25.089 Y54.033
X-25.023 Y53.979
X-24.96 Y53.922
X-24.825 Y53.789
X-24.754 Y53.713
X-24.689 Y53.631
X-24.557 Y53.448
X-24.497 Y53.359
X-24.446 Y53.264
X-24.356 Y53.081
X-24.315 Y52.987
X-24.281 Y52.889
X-24.221 Y52.688
X-24.196 Y52.586
X-24.178 Y52.482
X-24.153 Y52.272
X-24.146 Y52.196
X-24.144 Y52.12
X-24.145 Y49.322
X-24.149 Y49.23
X-24.159 Y49.139
X-24.19 Y48.929
X-24.211 Y48.823
X-24.241 Y48.718
X-24.31 Y48.508
X-24.344 Y48.42
X-24.384 Y48.334
X-24.455 Y48.194
X-24.478 Y48.152
X-24.432 Y48.065
X-24.356 Y47.907
X-24.317 Y47.817
X-24.284 Y47.724
X-24.221 Y47.514
X-24.195 Y47.409
X-24.178 Y47.303
X-24.152 Y47.093
X-24.146 Y47.019
X-24.144 Y46.944
X-24.146 Y40.858
X-24.15 Y40.759
X-24.162 Y40.66
X-24.179 Y40.558
X-24.178 Y40.552
X-24.163 Y40.465
X-24.154 Y40.377
X-24.145 Y40.237
X-24.143 Y40.158
X-24.144 Y39.248
X-24.146 Y39.17
X-24.154 Y39.093
X-24.18 Y38.883
X-24.199 Y38.776
X-24.226 Y38.672
X-24.291 Y38.462
X-24.321 Y38.374
X-24.359 Y38.288
X-24.426 Y38.148
X-24.48 Y38.048
X-24.453 Y38.003
X-24.403 Y37.912
X-24.361 Y37.817
X-24.279 Y37.608
X-24.243 Y37.504
X-24.217 Y37.397
X-24.175 Y37.187
X-24.161 Y37.099
X-24.153 Y37.011
X-24.145 Y36.871
X-24.143 Y36.799
X-24.144 Y35.89
X-24.147 Y35.808
X-24.155 Y35.727
X-24.177 Y35.562
X-24.166 Y35.486
X-24.158 Y35.411
X-24.145 Y35.201
X-24.143 Y35.118
X-24.146 Y34.209
X-24.15 Y34.114
X-24.161 Y34.019
X-24.194 Y33.809
X-24.216 Y33.703
X-24.246 Y33.598
X-24.318 Y33.389
X-24.352 Y33.3
X-24.393 Y33.214
X-24.466 Y33.074
X-24.478 Y33.052
X-24.423 Y32.949
X-24.348 Y32.789
X-24.309 Y32.698
X-24.278 Y32.604
X-24.217 Y32.394
X-24.195 Y32.307
X-24.179 Y32.218
X-24.159 Y32.078
X-24.15 Y31.992
X-24.147 Y31.905
Y30.856
X-24.151 Y30.754
X-24.163 Y30.654
X-24.179 Y30.557
X-24.176 Y30.546
X-24.16 Y30.446
X-24.152 Y30.345
X-24.144 Y30.136
X-24.143 Y30.077
X-24.149 Y29.168
X-24.155 Y29.056
X-24.171 Y28.946
X-24.21 Y28.736
X-24.235 Y28.63
X-24.268 Y28.527
X-24.345 Y28.322
X-24.382 Y28.235
X-24.425 Y28.151
X-24.48 Y28.052
X-24.434 Y27.972
X-24.394 Y27.889
X-24.32 Y27.72
X-24.283 Y27.627
X-24.254 Y27.53
X-24.2 Y27.32
X-24.18 Y27.233
X-24.168 Y27.145
X-24.152 Y27.005
X-24.145 Y26.868
X-24.143 Y15.592
X-16.114 Y15.594
X-16.111 Y20.153
X-16.107 Y20.257
X-16.094 Y20.359
X-16.063 Y20.544
X-16.075 Y20.617
X-16.103 Y20.827
X-16.111 Y20.91
X-16.114 Y20.993
X-16.112 Y22.742
X-16.108 Y22.839
X-16.097 Y22.936
X-16.08 Y23.044
X-16.092 Y23.114
X-16.101 Y23.184
X-16.107 Y23.254
X-16.113 Y23.369
X-16.114 Y24.737
X-16.12 Y24.771
X-16.137 Y24.801
X-16.163 Y24.823
X-16.195 Y24.835
X-16.229 Y24.836
X-19.237 Y24.371
X-19.268 Y24.369
X-19.298 Y24.376
X-19.325 Y24.392
X-20.713 Y25.566
X-20.743 Y25.583
X-20.777 Y25.589
X-21 Z-2.581 F333.3
X-21.025 Y25.583
X-21.043 Y25.564
X-21.05 Y25.539
X-21.043 Y25.514
X-21.025 Y25.496
X-21 Y25.489
X-20.124 Z-2.9
X-20.043 Y25.495
X-19.964 Y25.514
X-19.889 Y25.544
X-18.766 Y26.094
G2 X-18.297 Y25.138 I0.234 J-0.478
X-19.063 Y25.591 I-0.234 J0.478
X-18.727 Y30.344 I20.049 J0.97 F1000
G3 X-18.732 Y30.79 I-1.098 J0.211
G2 X-18.964 Y33.067 I10.159 J2.187
X-18.728 Y35.343 I12.112 J-0.105
G3 X-18.728 Y35.783 I-1.096 J0.22
G2 X-18.948 Y38.061 I11.056 J2.217
X-18.728 Y40.339 I12.585 J-0.068
G3 X-18.731 Y40.77 I-1.098 J0.208
G2 X-18.955 Y43.107 I11.076 J2.245
X-18.727 Y45.444 I13.144 J-0.107
G3 X-18.727 Y45.859 I-1.098 J0.208
G2 X-18.887 Y48.145 I9.674 J1.825
G3 X-18.833 Y50.436 I-49.01 J2.294
X-21.426 Y50.436 I-1.297 J0
G1 X-21.427 Y49.439
G2 X-21.529 Y48.365 I-5.712 J0.003
G3 X-21.528 Y47.934 I1.097 J-0.211
G2 X-21.53 Y38.26 I-24.116 J-4.833
G3 X-21.53 Y37.82 I1.096 J-0.22
G2 X-21.31 Y35.542 I-11.064 J-2.218
X-21.53 Y33.263 I-12.584 J0.068
G3 X-21.528 Y32.833 I1.098 J-0.208
G2 X-21.309 Y30.549 I-10.76 J-2.181
X-21.532 Y28.266 I-13.028 J0.122
G3 X-21.527 Y27.828 I1.098 J-0.206
G2 X-21.266 Y23.783 I-13.854 J-2.928
G3 X-21.425 Y19.733 I51.09 J-4.043
X-18.83 Y19.732 I1.298 J0
X-19.029 Y25.041 I-69.426 J0.049
G2 X-19.063 Y25.591 I20.015 J1.521
X-17.727 Y28.018 I2.641 J0.128
G3 X-15.961 Y30.154 I-1.919 J3.385
G1 X-15.943 Y30.207
X-15.909 Y30.296
X-15.868 Y30.382
X-15.796 Y30.522
X-15.78 Y30.552
X-15.824 Y30.63
X-15.862 Y30.712
X-15.953 Y30.921
X-15.992 Y31.025
X-16.022 Y31.132
X-16.07 Y31.342
X-16.087 Y31.43
X-16.098 Y31.518
X-16.11 Y31.658
X-16.115 Y31.768
X-16.112 Y32.748
X-16.108 Y32.845
X-16.096 Y32.942
X-16.08 Y33.045
X-16.081 Y33.05
X-16.095 Y33.138
X-16.104 Y33.226
X-16.113 Y33.366
X-16.115 Y33.445
X-16.114 Y34.354
X-16.112 Y34.432
X-16.104 Y34.51
X-16.078 Y34.72
X-16.06 Y34.826
X-16.032 Y34.931
X-15.968 Y35.14
X-15.937 Y35.229
X-15.899 Y35.315
X-15.832 Y35.455
X-15.778 Y35.554
X-15.806 Y35.601
X-15.855 Y35.691
X-15.897 Y35.785
X-15.979 Y35.995
X-16.015 Y36.099
X-16.041 Y36.206
X-16.083 Y36.416
X-16.097 Y36.503
X-16.105 Y36.591
X-16.113 Y36.731
X-16.115 Y36.803
X-16.114 Y37.713
X-16.111 Y37.794
X-16.103 Y37.876
X-16.081 Y38.041
X-16.093 Y38.116
X-16.1 Y38.192
X-16.113 Y38.402
X-16.115 Y38.485
X-16.112 Y39.394
X-16.108 Y39.489
X-16.097 Y39.583
X-16.064 Y39.793
X-16.043 Y39.9
X-16.012 Y40.004
X-15.94 Y40.214
X-15.906 Y40.303
X-15.865 Y40.388
X-15.792 Y40.528
X-15.78 Y40.551
X-15.836 Y40.656
X-15.911 Y40.814
X-15.949 Y40.905
X-15.98 Y40.999
X-16.042 Y41.209
X-16.064 Y41.296
X-16.079 Y41.385
X-16.099 Y41.525
X-16.108 Y41.611
X-16.111 Y41.697
X-16.112 Y42.747
X-16.108 Y42.848
X-16.095 Y42.949
X-16.079 Y43.046
X-16.082 Y43.057
X-16.098 Y43.156
X-16.106 Y43.257
X-16.114 Y43.467
X-16.115 Y43.521
X-16.112 Y44.501
X-16.107 Y44.599
X-16.096 Y44.697
X-16.061 Y44.907
X-16.039 Y45.013
X-16.008 Y45.117
X-15.935 Y45.327
X-15.9 Y45.416
X-15.859 Y45.502
X-15.785 Y45.641
X-15.779 Y45.652
X-15.856 Y45.796
X-15.898 Y45.882
X-15.933 Y45.972
X-16.007 Y46.182
X-16.038 Y46.286
X-16.061 Y46.392
X-16.095 Y46.602
X-16.107 Y46.702
X-16.112 Y46.802
X-16.114 Y47.711
X-16.111 Y47.797
X-16.102 Y47.882
X-16.081 Y48.041
X-16.098 Y48.166
X-16.11 Y48.306
X-16.115 Y48.414
X-16.114 Y52.121
X-16.112 Y52.197
X-16.105 Y52.272
X-16.08 Y52.482
X-16.063 Y52.586
X-16.037 Y52.688
X-15.977 Y52.888
X-15.944 Y52.985
X-15.903 Y53.079
X-15.814 Y53.26
X-15.764 Y53.354
X-15.705 Y53.443
X-15.575 Y53.624
X-15.51 Y53.706
X-15.439 Y53.783
X-15.3 Y53.92
X-15.223 Y53.99
X-15.141 Y54.053
X-14.961 Y54.179
X-14.873 Y54.236
X-14.78 Y54.285
X-14.6 Y54.371
X-14.509 Y54.41
X-14.414 Y54.442
X-14.224 Y54.498
X-14.124 Y54.523
X-14.023 Y54.54
X-13.812 Y54.565
X-13.737 Y54.572
X-13.661 Y54.575
X-13.312
X-26.859
X-26.528 Y54.57
X-26.421 Y54.566
X-26.314 Y54.551
X-26.103 Y54.514
X-26.004 Y54.492
X-25.907 Y54.463
X-25.725 Y54.399
X-25.632 Y54.362
X-25.543 Y54.318
X-25.361 Y54.219
X-25.284 Y54.174
X-25.21 Y54.123
X-25.089 Y54.033
X-25.023 Y53.979
X-24.96 Y53.922
X-24.825 Y53.789
X-24.754 Y53.713
X-24.689 Y53.631
X-24.557 Y53.448
X-24.497 Y53.359
X-24.446 Y53.264
X-24.356 Y53.081
X-24.315 Y52.987
X-24.281 Y52.889
X-24.221 Y52.688
X-24.196 Y52.586
X-24.178 Y52.482
X-24.153 Y52.272
X-24.146 Y52.196
X-24.144 Y52.12
X-24.145 Y49.322
X-24.149 Y49.23
X-24.159 Y49.139
X-24.19 Y48.929
X-24.211 Y48.823
X-24.241 Y48.718
X-24.31 Y48.508
X-24.344 Y48.42
X-24.384 Y48.334
X-24.455 Y48.194
X-24.478 Y48.152
X-24.432 Y48.065
X-24.356 Y47.907
X-24.317 Y47.817
X-24.284 Y47.724
X-24.221 Y47.514
X-24.195 Y47.409
X-24.178 Y47.303
X-24.152 Y47.093
X-24.146 Y47.019
X-24.144 Y46.944
X-24.146 Y40.858
X-24.15 Y40.759
X-24.162 Y40.66
X-24.179 Y40.558
X-24.178 Y40.552
X-24.163 Y40.465
X-24.154 Y40.377
X-24.145 Y40.237
X-24.143 Y40.158
X-24.144 Y39.248
X-24.146 Y39.17
X-24.154 Y39.093
X-24.18 Y38.883
X-24.199 Y38.776
X-24.226 Y38.672
X-24.291 Y38.462
X-24.321 Y38.374
X-24.359 Y38.288
X-24.426 Y38.148
X-24.48 Y38.048
X-24.453 Y38.003
X-24.403 Y37.912
X-24.361 Y37.817
X-24.279 Y37.608
X-24.243 Y37.504
X-24.217 Y37.397
X-24.175 Y37.187
X-24.161 Y37.099
X-24.153 Y37.011
X-24.145 Y36.871
X-24.143 Y36.799
X-24.144 Y35.89
X-24.147 Y35.808
X-24.155 Y35.727
X-24.177 Y35.562
X-24.166 Y35.486
X-24.158 Y35.411
X-24.145 Y35.201
X-24.143 Y35.118
X-24.146 Y34.209
X-24.15 Y34.114
X-24.161 Y34.019
X-24.194 Y33.809
X-24.216 Y33.703
X-24.246 Y33.598
X-24.318 Y33.389
X-24.352 Y33.3
X-24.393 Y33.214
X-24.466 Y33.074
X-24.478 Y33.052
X-24.423 Y32.949
X-24.348 Y32.789
X-24.309 Y32.698
X-24.278 Y32.604
X-24.217 Y32.394
X-24.195 Y32.307
X-24.179 Y32.218
X-24.159 Y32.078
X-24.15 Y31.992
X-24.147 Y31.905
Y30.856
X-24.151 Y30.754
X-24.163 Y30.654
X-24.179 Y30.557
X-24.176 Y30.546
X-24.16 Y30.446
X-24.152 Y30.345
X-24.144 Y30.136
X-24.143 Y30.077
X-24.149 Y29.168
X-24.155 Y29.056
X-24.171 Y28.946
X-24.21 Y28.736
X-24.235 Y28.63
X-24.268 Y28.527
X-24.345 Y28.322
X-24.382 Y28.235
X-24.425 Y28.151
X-24.48 Y28.052
X-24.434 Y27.972
X-24.394 Y27.889
X-24.32 Y27.72
X-24.283 Y27.627
X-24.254 Y27.53
X-24.2 Y27.32
X-24.18 Y27.233
X-24.168 Y27.145
X-24.152 Y27.005
X-24.145 Y26.868
X-24.143 Y15.592
X-16.114 Y15.594
X-16.111 Y20.153
X-16.107 Y20.257
X-16.094 Y20.359
X-16.063 Y20.544
X-16.075 Y20.617
X-16.103 Y20.827
X-16.111 Y20.91
X-16.114 Y20.993
X-16.112 Y22.742
X-16.108 Y22.839
X-16.097 Y22.936
X-16.08 Y23.044
X-16.092 Y23.114
X-16.101 Y23.184
X-16.107 Y23.254
X-16.113 Y23.369
X-16.114 Y25.188
X-16.112 Y25.266
X-16.105 Y25.344
X-16.081 Y25.53
X-16.095 Y25.628
X-16.108 Y25.767
X-16.114 Y25.889
Y27.708
X-16.111 Y27.788
X-16.104 Y27.869
X-16.081 Y28.041
X-16.096 Y28.152
X-16.109 Y28.292
X-16.115 Y28.41
X-16.112 Y29.389
X-16.109 Y29.483
X-16.098 Y29.577
X-16.065 Y29.787
X-16.044 Y29.893
X-16.014 Y29.997
X-15.961 Y30.154
X-15.956 Y30.189
X-15.963 Y30.224
X-15.982 Y30.254
X-16.01 Y30.275
X-16.044 Y30.285
X-18.338 Y30.55
X-19.753 Y30.555
X-19.8 Y30.602
X-20.074 Z-3 F333.3
X-20.155 Y30.597
X-20.234 Y30.581
X-20.311 Y30.555
X-21.691 Y29.984
G2 X-22.163 Y31.126 I-0.236 J0.571
X-21.309 Y30.549 I0.236 J-0.571
X-21.532 Y28.266 I-13.028 J0.122 F1000
G3 X-21.527 Y27.828 I1.098 J-0.206
G2 X-21.266 Y23.783 I-13.854 J-2.928
G3 X-21.425 Y19.733 I51.09 J-4.043
X-18.83 Y19.732 I1.298 J0
X-19.029 Y25.041 I-69.426 J0.049
G2 X-18.727 Y30.344 I20.015 J1.521
G3 X-18.732 Y30.79 I-1.098 J0.211
G2 X-18.964 Y33.067 I10.159 J2.187
X-18.728 Y35.343 I12.112 J-0.105
G3 X-18.728 Y35.783 I-1.096 J0.22
G2 X-18.948 Y38.061 I11.056 J2.217
X-18.728 Y40.339 I12.585 J-0.068
G3 X-18.731 Y40.77 I-1.098 J0.208
G2 X-18.955 Y43.107 I11.076 J2.245
X-18.727 Y45.444 I13.144 J-0.107
G3 X-18.727 Y45.859 I-1.098 J0.208
G2 X-18.887 Y48.145 I9.674 J1.825
G3 X-18.833 Y50.436 I-49.01 J2.294
X-21.426 Y50.436 I-1.297 J0
G1 X-21.427 Y49.439
G2 X-21.529 Y48.365 I-5.712 J0.003
G3 X-21.528 Y47.934 I1.097 J-0.211
G2 X-21.53 Y38.26 I-24.116 J-4.833
G3 X-21.53 Y37.82 I1.096 J-0.22
G2 X-21.31 Y35.542 I-11.064 J-2.218
X-21.53 Y33.263 I-12.584 J0.068
G3 X-21.528 Y32.833 I1.098 J-0.208
G2 X-21.309 Y30.549 I-10.76 J-2.181
X-22.727 Y28.473 I-2.26 J0.021
G3 X-24.145 Y26.397 I0.811 J-2.076
G1 X-24.143 Y15.592
X-16.114 Y15.594
X-16.111 Y20.153
X-16.107 Y20.257
X-16.094 Y20.359
X-16.063 Y20.544
X-16.075 Y20.617
X-16.103 Y20.827
X-16.111 Y20.91
X-16.114 Y20.993
X-16.112 Y22.742
X-16.108 Y22.839
X-16.097 Y22.936
X-16.08 Y23.044
X-16.092 Y23.114
X-16.101 Y23.184
X-16.107 Y23.254
X-16.113 Y23.369
X-16.114 Y25.188
X-16.112 Y25.266
X-16.105 Y25.344
X-16.081 Y25.53
X-16.095 Y25.628
X-16.108 Y25.767
X-16.114 Y25.889
Y27.708
X-16.111 Y27.788
X-16.104 Y27.869
X-16.081 Y28.041
X-16.096 Y28.152
X-16.109 Y28.292
X-16.115 Y28.41
X-16.112 Y29.389
X-16.109 Y29.483
X-16.098 Y29.577
X-16.065 Y29.787
X-16.044 Y29.893
X-16.014 Y29.997
X-15.943 Y30.207
X-15.909 Y30.296
X-15.868 Y30.382
X-15.796 Y30.522
X-15.78 Y30.552
X-15.824 Y30.63
X-15.862 Y30.712
X-15.953 Y30.921
X-15.992 Y31.025
X-16.022 Y31.132
X-16.07 Y31.342
X-16.087 Y31.43
X-16.098 Y31.518
X-16.11 Y31.658
X-16.115 Y31.768
X-16.112 Y32.748
X-16.108 Y32.845
X-16.096 Y32.942
X-16.08 Y33.045
X-16.081 Y33.05
X-16.095 Y33.138
X-16.104 Y33.226
X-16.113 Y33.366
X-16.115 Y33.445
X-16.114 Y34.354
X-16.112 Y34.432
X-16.104 Y34.51
X-16.078 Y34.72
X-16.06 Y34.826
X-16.032 Y34.931
X-15.968 Y35.14
X-15.937 Y35.229
X-15.899 Y35.315
X-15.832 Y35.455
X-15.778 Y35.554
X-15.806 Y35.601
X-15.855 Y35.691
X-15.897 Y35.785
X-15.979 Y35.995
X-16.015 Y36.099
X-16.041 Y36.206
X-16.083 Y36.416
X-16.097 Y36.503
X-16.105 Y36.591
X-16.113 Y36.731
X-16.115 Y36.803
X-16.114 Y37.713
X-16.111 Y37.794
X-16.103 Y37.876
X-16.081 Y38.041
X-16.093 Y38.116
X-16.1 Y38.192
X-16.113 Y38.402
X-16.115 Y38.485
X-16.112 Y39.394
X-16.108 Y39.489
X-16.097 Y39.583
X-16.064 Y39.793
X-16.043 Y39.9
X-16.012 Y40.004
X-15.94 Y40.214
X-15.906 Y40.303
X-15.865 Y40.388
X-15.792 Y40.528
X-15.78 Y40.551
X-15.836 Y40.656
X-15.911 Y40.814
X-15.949 Y40.905
X-15.98 Y40.999
X-16.042 Y41.209
X-16.064 Y41.296
X-16.079 Y41.385
X-16.099 Y41.525
X-16.108 Y41.611
X-16.111 Y41.697
X-16.112 Y42.747
X-16.108 Y42.848
X-16.095 Y42.949
X-16.079 Y43.046
X-16.082 Y43.057
X-16.098 Y43.156
X-16.106 Y43.257
X-16.114 Y43.467
X-16.115 Y43.521
X-16.112 Y44.501
X-16.107 Y44.599
X-16.096 Y44.697
X-16.061 Y44.907
X-16.039 Y45.013
X-16.008 Y45.117
X-15.935 Y45.327
X-15.9 Y45.416
X-15.859 Y45.502
X-15.785 Y45.641
X-15.779 Y45.652
X-15.856 Y45.796
X-15.898 Y45.882
X-15.933 Y45.972
X-16.007 Y46.182
X-16.038 Y46.286
X-16.061 Y46.392
X-16.095 Y46.602
X-16.107 Y46.702
X-16.112 Y46.802
X-16.114 Y47.711
X-16.111 Y47.797
X-16.102 Y47.882
X-16.081 Y48.041
X-16.098 Y48.166
X-16.11 Y48.306
X-16.115 Y48.414
X-16.114 Y52.121
X-16.112 Y52.197
X-16.105 Y52.272
X-16.08 Y52.482
X-16.063 Y52.586
X-16.037 Y52.688
X-15.977 Y52.888
X-15.944 Y52.985
X-15.903 Y53.079
X-15.814 Y53.26
X-15.764 Y53.354
X-15.705 Y53.443
X-15.575 Y53.624
X-15.51 Y53.706
X-15.439 Y53.783
X-15.3 Y53.92
X-15.223 Y53.99
X-15.141 Y54.053
X-14.961 Y54.179
X-14.873 Y54.236
X-14.78 Y54.285
X-14.6 Y54.371
X-14.509 Y54.41
X-14.414 Y54.442
X-14.224 Y54.498
X-14.124 Y54.523
X-14.023 Y54.54
X-13.812 Y54.565
X-13.737 Y54.572
X-13.661 Y54.575
X-13.312
X-26.859
X-26.528 Y54.57
X-26.421 Y54.566
X-26.314 Y54.551
X-26.103 Y54.514
X-26.004 Y54.492
X-25.907 Y54.463
X-25.725 Y54.399
X-25.632 Y54.362
X-25.543 Y54.318
X-25.361 Y54.219
X-25.284 Y54.174
X-25.21 Y54.123
X-25.089 Y54.033
X-25.023 Y53.979
X-24.96 Y53.922
X-24.825 Y53.789
X-24.754 Y53.713
X-24.689 Y53.631
X-24.557 Y53.448
X-24.497 Y53.359
X-24.446 Y53.264
X-24.356 Y53.081
X-24.315 Y52.987
X-24.281 Y52.889
X-24.221 Y52.688
X-24.196 Y52.586
X-24.178 Y52.482
X-24.153 Y52.272
X-24.146 Y52.196
X-24.144 Y52.12
X-24.145 Y49.322
X-24.149 Y49.23
X-24.159 Y49.139
X-24.19 Y48.929
X-24.211 Y48.823
X-24.241 Y48.718
X-24.31 Y48.508
X-24.344 Y48.42
X-24.384 Y48.334
X-24.455 Y48.194
X-24.478 Y48.152
X-24.432 Y48.065
X-24.356 Y47.907
X-24.317 Y47.817
X-24.284 Y47.724
X-24.221 Y47.514
X-24.195 Y47.409
X-24.178 Y47.303
X-24.152 Y47.093
X-24.146 Y47.019
X-24.144 Y46.944
X-24.146 Y40.858
X-24.15 Y40.759
X-24.162 Y40.66
X-24.179 Y40.558
X-24.178 Y40.552
X-24.163 Y40.465
X-24.154 Y40.377
X-24.145 Y40.237
X-24.143 Y40.158
X-24.144 Y39.248
X-24.146 Y39.17
X-24.154 Y39.093
X-24.18 Y38.883
X-24.199 Y38.776
X-24.226 Y38.672
X-24.291 Y38.462
X-24.321 Y38.374
X-24.359 Y38.288
X-24.426 Y38.148
X-24.48 Y38.048
X-24.453 Y38.003
X-24.403 Y37.912
X-24.361 Y37.817
X-24.279 Y37.608
X-24.243 Y37.504
X-24.217 Y37.397
X-24.175 Y37.187
X-24.161 Y37.099
X-24.153 Y37.011
X-24.145 Y36.871
X-24.143 Y36.799
X-24.144 Y35.89
X-24.147 Y35.808
X-24.155 Y35.727
X-24.177 Y35.562
X-24.166 Y35.486
X-24.158 Y35.411
X-24.145 Y35.201
X-24.143 Y35.118
X-24.146 Y34.209
X-24.15 Y34.114
X-24.161 Y34.019
X-24.194 Y33.809
X-24.216 Y33.703
X-24.246 Y33.598
X-24.318 Y33.389
X-24.352 Y33.3
X-24.393 Y33.214
X-24.466 Y33.074
X-24.478 Y33.052
X-24.423 Y32.949
X-24.348 Y32.789
X-24.309 Y32.698
X-24.278 Y32.604
X-24.217 Y32.394
X-24.195 Y32.307
X-24.179 Y32.218
X-24.159 Y32.078
X-24.15 Y31.992
X-24.147 Y31.905
Y30.856
X-24.151 Y30.754
X-24.163 Y30.654
X-24.179 Y30.557
X-24.176 Y30.546
X-24.16 Y30.446
X-24.152 Y30.345
X-24.144 Y30.136
X-24.143 Y30.077
X-24.149 Y29.168
X-24.155 Y29.056
X-24.171 Y28.946
X-24.21 Y28.736
X-24.235 Y28.63
X-24.268 Y28.527
X-24.345 Y28.322
X-24.382 Y28.235
X-24.425 Y28.151
X-24.48 Y28.052
X-24.434 Y27.972
X-24.394 Y27.889
X-24.32 Y27.72
X-24.283 Y27.627
X-24.254 Y27.53
X-24.2 Y27.32
X-24.18 Y27.233
X-24.168 Y27.145
X-24.152 Y27.005
X-24.145 Y26.868
Y26.397
X-24.137 Y26.36
X-24.116 Y26.328
X-24.085 Y26.306
X-21.756 Y25.28
X-21.736 Y25.268
X-21.719 Y25.252
X-21.692 Y25.229
X-21.658 Y25.217
X-21.622
X-20.758 Y25.391
X-20.724 Y25.405
X-20.697 Y25.43
X-20.681 Y25.463
X-20.678 Y25.499
X-20.688 Y25.534
X-20.71 Y25.563
X-20.742 Y25.583
X-20.777 Y25.589
X-21 Z-3.081 F333.3
X-21.025 Y25.583
X-21.043 Y25.564
X-21.05 Y25.539
X-21.043 Y25.514
X-21.025 Y25.496
X-21 Y25.489
X-20.124 Z-3.4
X-20.043 Y25.495
X-19.964 Y25.514
X-19.889 Y25.544
X-18.766 Y26.094
G2 X-18.297 Y25.138 I0.234 J-0.478
X-19.063 Y25.591 I-0.234 J0.478
X-18.727 Y30.344 I20.049 J0.97 F1000
G3 X-18.732 Y30.79 I-1.098 J0.211
G2 X-18.964 Y33.067 I10.159 J2.187
X-18.728 Y35.343 I12.112 J-0.105
G3 X-18.728 Y35.783 I-1.096 J0.22
G2 X-18.948 Y38.061 I11.056 J2.217
X-18.728 Y40.339 I12.585 J-0.068
G3 X-18.731 Y40.77 I-1.098 J0.208
G2 X-18.955 Y43.107 I11.076 J2.245
X-18.727 Y45.444 I13.144 J-0.107
G3 X-18.727 Y45.859 I-1.098 J0.208
G2 X-18.887 Y48.145 I9.674 J1.825
G3 X-18.833 Y50.436 I-49.01 J2.294
X-21.426 Y50.436 I-1.297 J0
G1 X-21.427 Y49.439
G2 X-21.529 Y48.365 I-5.712 J0.003
G3 X-21.528 Y47.934 I1.097 J-0.211
G2 X-21.53 Y38.26 I-24.116 J-4.833
G3 X-21.53 Y37.82 I1.096 J-0.22
G2 X-21.31 Y35.542 I-11.064 J-2.218
X-21.53 Y33.263 I-12.584 J0.068
G3 X-21.528 Y32.833 I1.098 J-0.208
G2 X-21.309 Y30.549 I-10.76 J-2.181
X-21.532 Y28.266 I-13.028 J0.122
G3 X-21.527 Y27.828 I1.098 J-0.206
G2 X-21.266 Y23.783 I-13.854 J-2.928
G3 X-21.425 Y19.733 I51.09 J-4.043
X-18.83 Y19.732 I1.298 J0
X-19.029 Y25.041 I-69.426 J0.049
G2 X-19.063 Y25.591 I20.015 J1.521
X-17.727 Y28.018 I2.641 J0.128
G3 X-15.961 Y30.154 I-1.919 J3.385
G1 X-15.943 Y30.207
X-15.909 Y30.296
X-15.868 Y30.382
X-15.796 Y30.522
X-15.78 Y30.552
X-15.824 Y30.63
X-15.862 Y30.712
X-15.953 Y30.921
X-15.992 Y31.025
X-16.022 Y31.132
X-16.07 Y31.342
X-16.087 Y31.43
X-16.098 Y31.518
X-16.11 Y31.658
X-16.115 Y31.768
X-16.112 Y32.748
X-16.108 Y32.845
X-16.096 Y32.942
X-16.08 Y33.045
X-16.081 Y33.05
X-16.095 Y33.138
X-16.104 Y33.226
X-16.113 Y33.366
X-16.115 Y33.445
X-16.114 Y34.354
X-16.112 Y34.432
X-16.104 Y34.51
X-16.078 Y34.72
X-16.06 Y34.826
X-16.032 Y34.931
X-15.968 Y35.14
X-15.937 Y35.229
X-15.899 Y35.315
X-15.832 Y35.455
X-15.778 Y35.554
X-15.806 Y35.601
X-15.855 Y35.691
X-15.897 Y35.785
X-15.979 Y35.995
X-16.015 Y36.099
X-16.041 Y36.206
X-16.083 Y36.416
X-16.097 Y36.503
X-16.105 Y36.591
X-16.113 Y36.731
X-16.115 Y36.803
X-16.114 Y37.713
X-16.111 Y37.794
X-16.103 Y37.876
X-16.081 Y38.041
X-16.093 Y38.116
X-16.1 Y38.192
X-16.113 Y38.402
X-16.115 Y38.485
X-16.112 Y39.394
X-16.108 Y39.489
X-16.097 Y39.583
X-16.064 Y39.793
X-16.043 Y39.9
X-16.012 Y40.004
X-15.94 Y40.214
X-15.906 Y40.303
X-15.865 Y40.388
X-15.792 Y40.528
X-15.78 Y40.551
X-15.836 Y40.656
X-15.911 Y40.814
X-15.949 Y40.905
X-15.98 Y40.999
X-16.042 Y41.209
X-16.064 Y41.296
X-16.079 Y41.385
X-16.099 Y41.525
X-16.108 Y41.611
X-16.111 Y41.697
X-16.112 Y42.747
X-16.108 Y42.848
X-16.095 Y42.949
X-16.079 Y43.046
X-16.082 Y43.057
X-16.098 Y43.156
X-16.106 Y43.257
X-16.114 Y43.467
X-16.115 Y43.521
X-16.112 Y44.501
X-16.107 Y44.599
X-16.096 Y44.697
X-16.061 Y44.907
X-16.039 Y45.013
X-16.008 Y45.117
X-15.935 Y45.327
X-15.9 Y45.416
X-15.859 Y45.502
X-15.785 Y45.641
X-15.779 Y45.652
X-15.856 Y45.796
X-15.898 Y45.882
X-15.933 Y45.972
X-16.007 Y46.182
X-16.038 Y46.286
X-16.061 Y46.392
X-16.095 Y46.602
X-16.107 Y46.702
X-16.112 Y46.802
X-16.114 Y47.711
X-16.111 Y47.797
X-16.102 Y47.882
X-16.081 Y48.041
X-16.098 Y48.166
X-16.11 Y48.306
X-16.115 Y48.414
X-16.114 Y52.121
X-16.112 Y52.197
X-16.105 Y52.272
X-16.08 Y52.482
X-16.063 Y52.586
X-16.037 Y52.688
X-15.977 Y52.888
X-15.944 Y52.985
X-15.903 Y53.079
X-15.814 Y53.26
X-15.764 Y53.354
X-15.705 Y53.443
X-15.575 Y53.624
X-15.51 Y53.706
X-15.439 Y53.783
X-15.3 Y53.92
X-15.223 Y53.99
X-15.141 Y54.053
X-14.961 Y54.179
X-14.873 Y54.236
X-14.78 Y54.285
X-14.6 Y54.371
X-14.509 Y54.41
X-14.414 Y54.442
X-14.224 Y54.498
X-14.124 Y54.523
X-14.023 Y54.54
X-13.812 Y54.565
X-13.737 Y54.572
X-13.661 Y54.575
X-13.312
X-26.859
X-26.528 Y54.57
X-26.421 Y54.566
X-26.314 Y54.551
X-26.103 Y54.514
X-26.004 Y54.492
X-25.907 Y54.463
X-25.725 Y54.399
X-25.632 Y54.362
X-25.543 Y54.318
X-25.361 Y54.219
X-25.284 Y54.174
X-25.21 Y54.123
X-25.089 Y54.033
X-25.023 Y53.979
X-24.96 Y53.922
X-24.825 Y53.789
X-24.754 Y53.713
X-24.689 Y53.631
X-24.557 Y53.448
X-24.497 Y53.359
X-24.446 Y53.264
X-24.356 Y53.081
X-24.315 Y52.987
X-24.281 Y52.889
X-24.221 Y52.688
X-24.196 Y52.586
X-24.178 Y52.482
X-24.153 Y52.272
X-24.146 Y52.196
X-24.144 Y52.12
X-24.145 Y49.322
X-24.149 Y49.23
X-24.159 Y49.139
X-24.19 Y48.929
X-24.211 Y48.823
X-24.241 Y48.718
X-24.31 Y48.508
X-24.344 Y48.42
X-24.384 Y48.334
X-24.455 Y48.194
X-24.478 Y48.152
X-24.432 Y48.065
X-24.356 Y47.907
X-24.317 Y47.817
X-24.284 Y47.724
X-24.221 Y47.514
X-24.195 Y47.409
X-24.178 Y47.303
X-24.152 Y47.093
X-24.146 Y47.019
X-24.144 Y46.944
X-24.146 Y40.858
X-24.15 Y40.759
X-24.162 Y40.66
X-24.179 Y40.558
X-24.178 Y40.552
X-24.163 Y40.465
X-24.154 Y40.377
X-24.145 Y40.237
X-24.143 Y40.158
X-24.144 Y39.248
X-24.146 Y39.17
X-24.154 Y39.093
X-24.18 Y38.883
X-24.199 Y38.776
X-24.226 Y38.672
X-24.291 Y38.462
X-24.321 Y38.374
X-24.359 Y38.288
X-24.426 Y38.148
X-24.48 Y38.048
X-24.453 Y38.003
X-24.403 Y37.912
X-24.361 Y37.817
X-24.279 Y37.608
X-24.243 Y37.504
X-24.217 Y37.397
X-24.175 Y37.187
X-24.161 Y37.099
X-24.153 Y37.011
X-24.145 Y36.871
X-24.143 Y36.799
X-24.144 Y35.89
X-24.147 Y35.808
X-24.155 Y35.727
X-24.177 Y35.562
X-24.166 Y35.486
X-24.158 Y35.411
X-24.145 Y35.201
X-24.143 Y35.118
X-24.146 Y34.209
X-24.15 Y34.114
X-24.161 Y34.019
X-24.194 Y33.809
X-24.216 Y33.703
X-24.246 Y33.598
X-24.318 Y33.389
X-24.352 Y33.3
X-24.393 Y33.214
X-24.466 Y33.074
X-24.478 Y33.052
X-24.423 Y32.949
X-24.348 Y32.789
X-24.309 Y32.698
X-24.278 Y32.604
X-24.217 Y32.394
X-24.195 Y32.307
X-24.179 Y32.218
X-24.159 Y32.078
X-24.15 Y31.992
X-24.147 Y31.905
Y30.856
X-24.151 Y30.754
X-24.163 Y30.654
X-24.179 Y30.557
X-24.176 Y30.546
X-24.16 Y30.446
X-24.152 Y30.345
X-24.144 Y30.136
X-24.143 Y30.077
X-24.149 Y29.168
X-24.155 Y29.056
X-24.171 Y28.946
X-24.21 Y28.736
X-24.235 Y28.63
X-24.268 Y28.527
X-24.345 Y28.322
X-24.382 Y28.235
X-24.425 Y28.151
X-24.48 Y28.052
X-24.434 Y27.972
X-24.394 Y27.889
X-24.32 Y27.72
X-24.283 Y27.627
X-24.254 Y27.53
X-24.2 Y27.32
X-24.18 Y27.233
X-24.168 Y27.145
X-24.152 Y27.005
X-24.145 Y26.868
X-24.143 Y15.592
X-16.114 Y15.594
X-16.111 Y20.153
X-16.107 Y20.257
X-16.094 Y20.359
X-16.063 Y20.544
X-16.075 Y20.617
X-16.103 Y20.827
X-16.111 Y20.91
X-16.114 Y20.993
X-16.112 Y22.742
X-16.108 Y22.839
X-16.097 Y22.936
X-16.08 Y23.044
X-16.092 Y23.114
X-16.101 Y23.184
X-16.107 Y23.254
X-16.113 Y23.369
X-16.114 Y25.188
X-16.112 Y25.266
X-16.105 Y25.344
X-16.081 Y25.53
X-16.095 Y25.628
X-16.108 Y25.767
X-16.114 Y25.889
Y27.708
X-16.111 Y27.788
X-16.104 Y27.869
X-16.081 Y28.041
X-16.096 Y28.152
X-16.109 Y28.292
X-16.115 Y28.41
X-16.112 Y29.389
X-16.109 Y29.483
X-16.098 Y29.577
X-16.065 Y29.787
X-16.044 Y29.893
X-16.014 Y29.997
X-15.961 Y30.154
X-15.956 Y30.189
X-15.963 Y30.224
X-15.982 Y30.254
X-16.01 Y30.275
X-16.044 Y30.285
X-18.338 Y30.553
X-19.363 Y30.559
X-19.426 Y30.539
X-19.437 Y30.531
X-19.439 Y30.518
X-19.433 Y30.506
X-19.42 Y30.502
X-19.198 Z-3.481 F333.3
X-19.173 Y30.509
X-19.155 Y30.527
X-19.148 Y30.552
X-19.155 Y30.577
X-19.173 Y30.595
X-19.198 Y30.602
X-20.074 Z-3.8
X-20.155 Y30.597
X-20.234 Y30.581
X-20.311 Y30.555
X-21.691 Y29.984
G2 X-22.163 Y31.126 I-0.236 J0.571
X-21.309 Y30.549 I0.236 J-0.571
X-21.532 Y28.266 I-13.028 J0.122 F1000
G3 X-21.527 Y27.828 I1.098 J-0.206
G2 X-21.266 Y23.783 I-13.854 J-2.928
G3 X-21.425 Y19.733 I51.09 J-4.043
X-18.83 Y19.732 I1.298 J0
X-19.029 Y25.041 I-69.426 J0.049
G2 X-18.727 Y30.344 I20.015 J1.521
G3 X-18.732 Y30.79 I-1.098 J0.211
G2 X-18.964 Y33.067 I10.159 J2.187
X-18.728 Y35.343 I12.112 J-0.105
G3 X-18.728 Y35.783 I-1.096 J0.22
G2 X-18.948 Y38.061 I11.056 J2.217
X-18.728 Y40.339 I12.585 J-0.068
G3 X-18.731 Y40.77 I-1.098 J0.208
G2 X-18.955 Y43.107 I11.076 J2.245
X-18.727 Y45.444 I13.144 J-0.107
G3 X-18.727 Y45.859 I-1.098 J0.208
G2 X-18.887 Y48.145 I9.674 J1.825
G3 X-18.833 Y50.436 I-49.01 J2.294
X-21.426 Y50.436 I-1.297 J0
G1 X-21.427 Y49.439
G2 X-21.529 Y48.365 I-5.712 J0.003
G3 X-21.528 Y47.934 I1.097 J-0.211
G2 X-21.53 Y38.26 I-24.116 J-4.833
G3 X-21.53 Y37.82 I1.096 J-0.22
G2 X-21.31 Y35.542 I-11.064 J-2.218
X-21.53 Y33.263 I-12.584 J0.068
G3 X-21.528 Y32.833 I1.098 J-0.208
G2 X-21.309 Y30.549 I-10.76 J-2.181
X-22.727 Y28.473 I-2.26 J0.021
G3 X-24.145 Y26.397 I0.811 J-2.076
G1 X-24.143 Y15.592
X-16.114 Y15.594
X-16.111 Y20.153
X-16.107 Y20.257
X-16.094 Y20.359
X-16.063 Y20.544
X-16.075 Y20.617
X-16.103 Y20.827
X-16.111 Y20.91
X-16.114 Y20.993
X-16.112 Y22.742
X-16.108 Y22.839
X-16.097 Y22.936
X-16.08 Y23.044
X-16.092 Y23.114
X-16.101 Y23.184
X-16.107 Y23.254
X-16.113 Y23.369
X-16.114 Y25.188
X-16.112 Y25.266
X-16.105 Y25.344
X-16.081 Y25.53
X-16.095 Y25.628
X-16.108 Y25.767
X-16.114 Y25.889
Y27.708
X-16.111 Y27.788
X-16.104 Y27.869
X-16.081 Y28.041
X-16.096 Y28.152
X-16.109 Y28.292
X-16.115 Y28.41
X-16.112 Y29.389
X-16.109 Y29.483
X-16.098 Y29.577
X-16.065 Y29.787
X-16.044 Y29.893
X-16.014 Y29.997
X-15.943 Y30.207
X-15.909 Y30.296
X-15.868 Y30.382
X-15.796 Y30.522
X-15.78 Y30.552
X-15.824 Y30.63
X-15.862 Y30.712
X-15.953 Y30.921
X-15.992 Y31.025
X-16.022 Y31.132
X-16.07 Y31.342
X-16.087 Y31.43
X-16.098 Y31.518
X-16.11 Y31.658
X-16.115 Y31.768
X-16.112 Y32.748
X-16.108 Y32.845
X-16.096 Y32.942
X-16.08 Y33.045
X-16.081 Y33.05
X-16.095 Y33.138
X-16.104 Y33.226
X-16.113 Y33.366
X-16.115 Y33.445
X-16.114 Y34.354
X-16.112 Y34.432
X-16.104 Y34.51
X-16.078 Y34.72
X-16.06 Y34.826
X-16.032 Y34.931
X-15.968 Y35.14
X-15.937 Y35.229
X-15.899 Y35.315
X-15.832 Y35.455
X-15.778 Y35.554
X-15.806 Y35.601
X-15.855 Y35.691
X-15.897 Y35.785
X-15.979 Y35.995
X-16.015 Y36.099
X-16.041 Y36.206
X-16.083 Y36.416
X-16.097 Y36.503
X-16.105 Y36.591
X-16.113 Y36.731
X-16.115 Y36.803
X-16.114 Y37.713
X-16.111 Y37.794
X-16.103 Y37.876
X-16.081 Y38.041
X-16.093 Y38.116
X-16.1 Y38.192
X-16.113 Y38.402
X-16.115 Y38.485
X-16.112 Y39.394
X-16.108 Y39.489
X-16.097 Y39.583
X-16.064 Y39.793
X-16.043 Y39.9
X-16.012 Y40.004
X-15.94 Y40.214
X-15.906 Y40.303
X-15.865 Y40.388
X-15.792 Y40.528
X-15.78 Y40.551
X-15.836 Y40.656
X-15.911 Y40.814
X-15.949 Y40.905
X-15.98 Y40.999
X-16.042 Y41.209
X-16.064 Y41.296
X-16.079 Y41.385
X-16.099 Y41.525
X-16.108 Y41.611
X-16.111 Y41.697
X-16.112 Y42.747
X-16.108 Y42.848
X-16.095 Y42.949
X-16.079 Y43.046
X-16.082 Y43.057
X-16.098 Y43.156
X-16.106 Y43.257
X-16.114 Y43.467
X-16.115 Y43.521
X-16.112 Y44.501
X-16.107 Y44.599
X-16.096 Y44.697
X-16.061 Y44.907
X-16.039 Y45.013
X-16.008 Y45.117
X-15.935 Y45.327
X-15.9 Y45.416
X-15.859 Y45.502
X-15.785 Y45.641
X-15.779 Y45.652
X-15.856 Y45.796
X-15.898 Y45.882
X-15.933 Y45.972
X-16.007 Y46.182
X-16.038 Y46.286
X-16.061 Y46.392
X-16.095 Y46.602
X-16.107 Y46.702
X-16.112 Y46.802
X-16.114 Y47.711
X-16.111 Y47.797
X-16.102 Y47.882
X-16.081 Y48.041
X-16.098 Y48.166
X-16.11 Y48.306
X-16.115 Y48.414
X-16.114 Y52.121
X-16.112 Y52.197
X-16.105 Y52.272
X-16.08 Y52.482
X-16.063 Y52.586
X-16.037 Y52.688
X-15.977 Y52.888
X-15.944 Y52.985
X-15.903 Y53.079
X-15.814 Y53.26
X-15.764 Y53.354
X-15.705 Y53.443
X-15.575 Y53.624
X-15.51 Y53.706
X-15.439 Y53.783
X-15.3 Y53.92
X-15.223 Y53.99
X-15.141 Y54.053
X-14.961 Y54.179
X-14.873 Y54.236
X-14.78 Y54.285
X-14.6 Y54.371
X-14.509 Y54.41
X-14.414 Y54.442
X-14.224 Y54.498
X-14.124 Y54.523
X-14.023 Y54.54
X-13.812 Y54.565
X-13.737 Y54.572
X-13.661 Y54.575
X-13.312
X-26.859
X-26.528 Y54.57
X-26.421 Y54.566
X-26.314 Y54.551
X-26.103 Y54.514
X-26.004 Y54.492
X-25.907 Y54.463
X-25.725 Y54.399
X-25.632 Y54.362
X-25.543 Y54.318
X-25.361 Y54.219
X-25.284 Y54.174
X-25.21 Y54.123
X-25.089 Y54.033
X-25.023 Y53.979
X-24.96 Y53.922
X-24.825 Y53.789
X-24.754 Y53.713
X-24.689 Y53.631
X-24.557 Y53.448
X-24.497 Y53.359
X-24.446 Y53.264
X-24.356 Y53.081
X-24.315 Y52.987
X-24.281 Y52.889
X-24.221 Y52.688
X-24.196 Y52.586
X-24.178 Y52.482
X-24.153 Y52.272
X-24.146 Y52.196
X-24.144 Y52.12
X-24.145 Y49.322
X-24.149 Y49.23
X-24.159 Y49.139
X-24.19 Y48.929
X-24.211 Y48.823
X-24.241 Y48.718
X-24.31 Y48.508
X-24.344 Y48.42
X-24.384 Y48.334
X-24.455 Y48.194
X-24.478 Y48.152
X-24.432 Y48.065
X-24.356 Y47.907
X-24.317 Y47.817
X-24.284 Y47.724
X-24.221 Y47.514
X-24.195 Y47.409
X-24.178 Y47.303
X-24.152 Y47.093
X-24.146 Y47.019
X-24.144 Y46.944
X-24.146 Y40.858
X-24.15 Y40.759
X-24.162 Y40.66
X-24.179 Y40.558
X-24.178 Y40.552
X-24.163 Y40.465
X-24.154 Y40.377
X-24.145 Y40.237
X-24.143 Y40.158
X-24.144 Y39.248
X-24.146 Y39.17
X-24.154 Y39.093
X-24.18 Y38.883
X-24.199 Y38.776
X-24.226 Y38.672
X-24.291 Y38.462
X-24.321 Y38.374
X-24.359 Y38.288
X-24.426 Y38.148
X-24.48 Y38.048
X-24.453 Y38.003
X-24.403 Y37.912
X-24.361 Y37.817
X-24.279 Y37.608
X-24.243 Y37.504
X-24.217 Y37.397
X-24.175 Y37.187
X-24.161 Y37.099
X-24.153 Y37.011
X-24.145 Y36.871
X-24.143 Y36.799
X-24.144 Y35.89
X-24.147 Y35.808
X-24.155 Y35.727
X-24.177 Y35.562
X-24.166 Y35.486
X-24.158 Y35.411
X-24.145 Y35.201
X-24.143 Y35.118
X-24.146 Y34.209
X-24.15 Y34.114
X-24.161 Y34.019
X-24.194 Y33.809
X-24.216 Y33.703
X-24.246 Y33.598
X-24.318 Y33.389
X-24.352 Y33.3
X-24.393 Y33.214
X-24.466 Y33.074
X-24.478 Y33.052
X-24.423 Y32.949
X-24.348 Y32.789
X-24.309 Y32.698
X-24.278 Y32.604
X-24.217 Y32.394
X-24.195 Y32.307
X-24.179 Y32.218
X-24.159 Y32.078
X-24.15 Y31.992
X-24.147 Y31.905
Y30.856
X-24.151 Y30.754
X-24.163 Y30.654
X-24.179 Y30.557
X-24.176 Y30.546
X-24.16 Y30.446
X-24.152 Y30.345
X-24.144 Y30.136
X-24.143 Y30.077
X-24.149 Y29.168
X-24.155 Y29.056
X-24.171 Y28.946
X-24.21 Y28.736
X-24.235 Y28.63
X-24.268 Y28.527
X-24.345 Y28.322
X-24.382 Y28.235
X-24.425 Y28.151
X-24.48 Y28.052
X-24.434 Y27.972
X-24.394 Y27.889
X-24.32 Y27.72
X-24.283 Y27.627
X-24.254 Y27.53
X-24.2 Y27.32
X-24.18 Y27.233
X-24.168 Y27.145
X-24.152 Y27.005
X-24.145 Y26.868
Y26.397
X-24.139 Y26.365
X-24.123 Y26.336
X-24.099 Y26.313
X-24.069 Y26.3
X-24.036 Y26.298
X-22.012 Y26.477
X-21.984 Y26.475
X-21.957 Y26.465
X-21.934 Y26.448
X-21.019 Y25.519
X-20.986 Y25.497
X-20.948 Y25.489
X-20.124 Z-4.1 F333.3
X-20.043 Y25.495
X-19.964 Y25.514
X-19.889 Y25.544
X-18.766 Y26.094
G2 X-18.297 Y25.138 I0.234 J-0.478
X-19.063 Y25.591 I-0.234 J0.478
X-18.727 Y30.344 I20.049 J0.97 F1000
G3 X-18.732 Y30.79 I-1.098 J0.211
G2 X-18.964 Y33.067 I10.159 J2.187
X-18.728 Y35.343 I12.112 J-0.105
G3 X-18.728 Y35.783 I-1.096 J0.22
G2 X-18.948 Y38.061 I11.056 J2.217
X-18.728 Y40.339 I12.585 J-0.068
G3 X-18.731 Y40.77 I-1.098 J0.208
G2 X-18.955 Y43.107 I11.076 J2.245
X-18.727 Y45.444 I13.144 J-0.107
G3 X-18.727 Y45.859 I-1.098 J0.208
G2 X-18.887 Y48.145 I9.674 J1.825
G3 X-18.833 Y50.436 I-49.01 J2.294
X-21.426 Y50.436 I-1.297 J0
G1 X-21.427 Y49.439
G2 X-21.529 Y48.365 I-5.712 J0.003
G3 X-21.528 Y47.934 I1.097 J-0.211
G2 X-21.53 Y38.26 I-24.116 J-4.833
G3 X-21.53 Y37.82 I1.096 J-0.22
G2 X-21.31 Y35.542 I-11.064 J-2.218
X-21.53 Y33.263 I-12.584 J0.068
G3 X-21.528 Y32.833 I1.098 J-0.208
G2 X-21.309 Y30.549 I-10.76 J-2.181
X-21.532 Y28.266 I-13.028 J0.122
G3 X-21.527 Y27.828 I1.098 J-0.206
G2 X-21.266 Y23.783 I-13.854 J-2.928
G3 X-21.425 Y19.733 I51.09 J-4.043
X-18.83 Y19.732 I1.298 J0
X-19.029 Y25.041 I-69.426 J0.049
G2 X-19.063 Y25.591 I20.015 J1.521
X-17.727 Y28.018 I2.641 J0.128
G3 X-15.961 Y30.154 I-1.919 J3.385
G1 X-15.943 Y30.207
X-15.909 Y30.296
X-15.868 Y30.382
X-15.796 Y30.522
X-15.78 Y30.552
X-15.824 Y30.63
X-15.862 Y30.712
X-15.953 Y30.921
X-15.992 Y31.025
X-16.022 Y31.132
X-16.07 Y31.342
X-16.087 Y31.43
X-16.098 Y31.518
X-16.11 Y31.658
X-16.115 Y31.768
X-16.112 Y32.748
X-16.108 Y32.845
X-16.096 Y32.942
X-16.08 Y33.045
X-16.081 Y33.05
X-16.095 Y33.138
X-16.104 Y33.226
X-16.113 Y33.366
X-16.115 Y33.445
X-16.114 Y34.354
X-16.112 Y34.432
X-16.104 Y34.51
X-16.078 Y34.72
X-16.06 Y34.826
X-16.032 Y34.931
X-15.968 Y35.14
X-15.937 Y35.229
X-15.899 Y35.315
X-15.832 Y35.455
X-15.778 Y35.554
X-15.806 Y35.601
X-15.855 Y35.691
X-15.897 Y35.785
X-15.979 Y35.995
X-16.015 Y36.099
X-16.041 Y36.206
X-16.083 Y36.416
X-16.097 Y36.503
X-16.105 Y36.591
X-16.113 Y36.731
X-16.115 Y36.803
X-16.114 Y37.713
X-16.111 Y37.794
X-16.103 Y37.876
X-16.081 Y38.041
X-16.093 Y38.116
X-16.1 Y38.192
X-16.113 Y38.402
X-16.115 Y38.485
X-16.112 Y39.394
X-16.108 Y39.489
X-16.097 Y39.583
X-16.064 Y39.793
X-16.043 Y39.9
X-16.012 Y40.004
X-15.94 Y40.214
X-15.906 Y40.303
X-15.865 Y40.388
X-15.792 Y40.528
X-15.78 Y40.551
X-15.836 Y40.656
X-15.911 Y40.814
X-15.949 Y40.905
X-15.98 Y40.999
X-16.042 Y41.209
X-16.064 Y41.296
X-16.079 Y41.385
X-16.099 Y41.525
X-16.108 Y41.611
X-16.111 Y41.697
X-16.112 Y42.747
X-16.108 Y42.848
X-16.095 Y42.949
X-16.079 Y43.046
X-16.082 Y43.057
X-16.098 Y43.156
X-16.106 Y43.257
X-16.114 Y43.467
X-16.115 Y43.521
X-16.112 Y44.501
X-16.107 Y44.599
X-16.096 Y44.697
X-16.061 Y44.907
X-16.039 Y45.013
X-16.008 Y45.117
X-15.935 Y45.327
X-15.9 Y45.416
X-15.859 Y45.502
X-15.785 Y45.641
X-15.779 Y45.652
X-15.856 Y45.796
X-15.898 Y45.882
X-15.933 Y45.972
X-16.007 Y46.182
X-16.038 Y46.286
X-16.061 Y46.392
X-16.095 Y46.602
X-16.107 Y46.702
X-16.112 Y46.802
X-16.114 Y47.711
X-16.111 Y47.797
X-16.102 Y47.882
X-16.081 Y48.041
X-16.098 Y48.166
X-16.11 Y48.306
X-16.115 Y48.414
X-16.114 Y52.121
X-16.112 Y52.197
X-16.105 Y52.272
X-16.08 Y52.482
X-16.063 Y52.586
X-16.037 Y52.688
X-15.977 Y52.888
X-15.944 Y52.985
X-15.903 Y53.079
X-15.814 Y53.26
X-15.764 Y53.354
X-15.705 Y53.443
X-15.575 Y53.624
X-15.51 Y53.706
X-15.439 Y53.783
X-15.3 Y53.92
X-15.223 Y53.99
X-15.141 Y54.053
X-14.961 Y54.179
X-14.873 Y54.236
X-14.78 Y54.285
X-14.6 Y54.371
X-14.509 Y54.41
X-14.414 Y54.442
X-14.224 Y54.498
X-14.124 Y54.523
X-14.023 Y54.54
X-13.812 Y54.565
X-13.737 Y54.572
X-13.661 Y54.575
X-13.312
X-26.859
X-26.528 Y54.57
X-26.421 Y54.566
X-26.314 Y54.551
X-26.103 Y54.514
X-26.004 Y54.492
X-25.907 Y54.463
X-25.725 Y54.399
X-25.632 Y54.362
X-25.543 Y54.318
X-25.361 Y54.219
X-25.284 Y54.174
X-25.21 Y54.123
X-25.089 Y54.033
X-25.023 Y53.979
X-24.96 Y53.922
X-24.825 Y53.789
X-24.754 Y53.713
X-24.689 Y53.631
X-24.557 Y53.448
X-24.497 Y53.359
X-24.446 Y53.264
X-24.356 Y53.081
X-24.315 Y52.987
X-24.281 Y52.889
X-24.221 Y52.688
X-24.196 Y52.586
X-24.178 Y52.482
X-24.153 Y52.272
X-24.146 Y52.196
X-24.144 Y52.12
X-24.145 Y49.322
X-24.149 Y49.23
X-24.159 Y49.139
X-24.19 Y48.929
X-24.211 Y48.823
X-24.241 Y48.718
X-24.31 Y48.508
X-24.344 Y48.42
X-24.384 Y48.334
X-24.455 Y48.194
X-24.478 Y48.152
X-24.432 Y48.065
X-24.356 Y47.907
X-24.317 Y47.817
X-24.284 Y47.724
X-24.221 Y47.514
X-24.195 Y47.409
X-24.178 Y47.303
X-24.152 Y47.093
X-24.146 Y47.019
X-24.144 Y46.944
X-24.146 Y40.858
X-24.15 Y40.759
X-24.162 Y40.66
X-24.179 Y40.558
X-24.178 Y40.552
X-24.163 Y40.465
X-24.154 Y40.377
X-24.145 Y40.237
X-24.143 Y40.158
X-24.144 Y39.248
X-24.146 Y39.17
X-24.154 Y39.093
X-24.18 Y38.883
X-24.199 Y38.776
X-24.226 Y38.672
X-24.291 Y38.462
X-24.321 Y38.374
X-24.359 Y38.288
X-24.426 Y38.148
X-24.48 Y38.048
X-24.453 Y38.003
X-24.403 Y37.912
X-24.361 Y37.817
X-24.279 Y37.608
X-24.243 Y37.504
X-24.217 Y37.397
X-24.175 Y37.187
X-24.161 Y37.099
X-24.153 Y37.011
X-24.145 Y36.871
X-24.143 Y36.799
X-24.144 Y35.89
X-24.147 Y35.808
X-24.155 Y35.727
X-24.177 Y35.562
X-24.166 Y35.486
X-24.158 Y35.411
X-24.145 Y35.201
X-24.143 Y35.118
X-24.146 Y34.209
X-24.15 Y34.114
X-24.161 Y34.019
X-24.194 Y33.809
X-24.216 Y33.703
X-24.246 Y33.598
X-24.318 Y33.389
X-24.352 Y33.3
X-24.393 Y33.214
X-24.466 Y33.074
X-24.478 Y33.052
X-24.423 Y32.949
X-24.348 Y32.789
X-24.309 Y32.698
X-24.278 Y32.604
X-24.217 Y32.394
X-24.195 Y32.307
X-24.179 Y32.218
X-24.159 Y32.078
X-24.15 Y31.992
X-24.147 Y31.905
Y30.856
X-24.151 Y30.754
X-24.163 Y30.654
X-24.179 Y30.557
X-24.176 Y30.546
X-24.16 Y30.446
X-24.152 Y30.345
X-24.144 Y30.136
X-24.143 Y30.077
X-24.149 Y29.168
X-24.155 Y29.056
X-24.171 Y28.946
X-24.21 Y28.736
X-24.235 Y28.63
X-24.268 Y28.527
X-24.345 Y28.322
X-24.382 Y28.235
X-24.425 Y28.151
X-24.48 Y28.052
X-24.434 Y27.972
X-24.394 Y27.889
X-24.32 Y27.72
X-24.283 Y27.627
X-24.254 Y27.53
X-24.2 Y27.32
X-24.18 Y27.233
X-24.168 Y27.145
X-24.152 Y27.005
X-24.145 Y26.868
X-24.143 Y15.592
X-16.114 Y15.594
X-16.111 Y20.153
X-16.107 Y20.257
X-16.094 Y20.359
X-16.063 Y20.544
X-16.075 Y20.617
X-16.103 Y20.827
X-16.111 Y20.91
X-16.114 Y20.993
X-16.112 Y22.742
X-16.108 Y22.839
X-16.097 Y22.936
X-16.08 Y23.044
X-16.092 Y23.114
X-16.101 Y23.184
X-16.107 Y23.254
X-16.113 Y23.369
X-16.114 Y25.188
X-16.112 Y25.266
X-16.105 Y25.344
X-16.081 Y25.53
X-16.095 Y25.628
X-16.108 Y25.767
X-16.114 Y25.889
Y27.708
X-16.111 Y27.788
X-16.104 Y27.869
X-16.081 Y28.041
X-16.096 Y28.152
X-16.109 Y28.292
X-16.115 Y28.41
X-16.112 Y29.389
X-16.109 Y29.483
X-16.098 Y29.577
X-16.065 Y29.787
X-16.044 Y29.893
X-16.014 Y29.997
X-15.961 Y30.154
X-15.956 Y30.178 Z-4.093
X-15.957 Y30.203 Z-4.087
X-15.97 Y30.237 Z-4.05
X-15.977 Y30.248 Z-4
Z4
X-2.105 Y27.872
Z0.42
X-3.8 Z0.242 F333.3
X-3.825 Y27.865
X-3.844 Y27.847
X-3.85 Y27.822
X-3.844 Y27.797
X-3.825 Y27.778
X-3.8 Y27.772
X-2.048 Z0.059
X-2.023 Y27.778
X-2.004 Y27.797
X-1.998 Y27.822
X-2.004 Y27.847
X-2.023 Y27.865
X-2.048 Y27.872
X-3.8 Z-0.125
X-3.825 Y27.865
X-3.844 Y27.847
X-3.85 Y27.822
X-3.844 Y27.797
X-3.825 Y27.778
X-3.8 Y27.772
X-2.048 Z-0.308
X-2.023 Y27.778
X-2.004 Y27.797
X-1.998 Y27.822
X-2.004 Y27.847
X-2.023 Y27.865
X-2.048 Y27.872
X-2.924 Z-0.4
X-2.996 Y27.864
X-3.065 Y27.841
X-3.818 Y27.505
G2 X-4.1 Y28.136 I-0.141 J0.316
X-3.614 Y27.821 I0.141 J-0.316
X-3.613 Y27.288 I-682.779 J-0.554 F1000
G1 X-3.672 Y8.28
G2 X-6.241 Y3.591 I-7.079 J0.83
X-6.608 Y3.34 I-1.594 J1.939
G3 X-6.988 Y3.108 I2.905 J-5.185
X-6.651 Y1.989 I0.337 J-0.509
G1 X-3.505
G3 X-1.988 Y3.506 I0 J1.517
G1 X-1.99 Y51.356
G3 X-3.826 Y51.357 I-0.918 J0
X-3.72 Y39.322 I635.639 J-0.396
G2 X-3.614 Y27.821 I-682.673 J-12.055
G1 Y27.771 Z-0.387
Y27.734 Z-0.35
Y27.721 Z-0.3
Z4
X-34.516 Y3.288
Z0.42
X-36.212 Z0.242 F333.3
X-36.237 Y3.281
X-36.255 Y3.263
X-36.262 Y3.238
X-36.255 Y3.213
X-36.237 Y3.195
X-36.212 Y3.188
X-34.459 Z0.059
X-34.434 Y3.195
X-34.416 Y3.213
X-34.409 Y3.238
X-34.416 Y3.263
X-34.434 Y3.281
X-34.459 Y3.288
X-36.212 Z-0.125
X-36.237 Y3.281
X-36.255 Y3.263
X-36.262 Y3.238
X-36.255 Y3.213
X-36.237 Y3.195
X-36.212 Y3.188
X-34.459 Z-0.308
X-34.434 Y3.195
X-34.416 Y3.213
X-34.409 Y3.238
X-34.416 Y3.263
X-34.434 Y3.281
X-34.459 Y3.288
X-35.335 Z-0.4
X-35.38 Y3.294
X-35.421 Y3.313
X-35.724 Y3.512
G2 X-35.553 Y3.772 I0.085 J0.13
X-35.545 Y3.518 I-0.085 J-0.13
G3 X-35.126 Y2.958 I0.21 J-0.28 F1000
X-35.545 Y3.518 I-0.21 J0.28
G2 X-37.685 Y2.388 I-4.624 J6.165
G3 X-37.29 Y0 I0.395 J-1.161
G1 X-0.026 Y0.001
X-0.004 Y0.004
X0 Y0.162
X-0.002 Y54.554
X-0.004 Y54.57
X-0.445 Y54.575
X-6.53
X-6.381 Y54.35
X-6.332 Y54.27
X-6.289 Y54.185
X-6.192 Y53.975
X-6.156 Y53.888
X-6.126 Y53.799
X-6.085 Y53.659
X-6.059 Y53.553
X-5.852 Y52.504
X-5.838 Y52.424
X-5.83 Y52.343
X-5.817 Y52.134
X-5.814 Y52.05
X-5.816 Y48.343
X-5.82 Y48.252
X-5.829 Y48.162
X-5.849 Y48.029
X-5.831 Y47.913
X-5.824 Y47.844
X-5.817 Y47.714
X-5.816 Y43.377
X-5.819 Y43.287
X-5.829 Y43.197
X-5.849 Y43.061
X-5.837 Y42.987
X-5.829 Y42.913
X-5.818 Y42.773
X-5.814 Y42.677
X-5.816 Y38.34
X-5.819 Y38.251
X-5.829 Y38.162
X-5.849 Y38.023
X-5.837 Y37.951
X-5.829 Y37.878
X-5.818 Y37.738
X-5.814 Y37.64
X-5.816 Y33.373
X-5.82 Y33.281
X-5.83 Y33.19
X-5.86 Y32.986
X-5.847 Y32.91
X-5.829 Y32.771
X-5.82 Y32.688
X-5.818 Y32.605
X-5.815 Y28.338
X-5.818 Y28.255
X-5.826 Y28.173
X-5.854 Y27.964
X-5.867 Y27.885
X-5.885 Y27.807
X-5.857 Y27.683
X-5.842 Y27.606
X-5.833 Y27.529
X-5.821 Y27.406
X-5.815 Y27.288
X-5.816 Y8.82
X-5.818 Y8.747
X-5.825 Y8.674
X-5.841 Y8.535
X-5.857 Y8.435
X-6.067 Y7.385
X-6.087 Y7.3
X-6.113 Y7.216
X-6.187 Y7.007
X-6.222 Y6.918
X-6.264 Y6.832
X-6.339 Y6.692
X-6.404 Y6.583
X-7.032 Y5.65
X-7.089 Y5.572
X-7.152 Y5.499
X-7.275 Y5.366
X-7.335 Y5.305
X-7.398 Y5.249
X-7.521 Y5.148
X-7.624 Y5.072
X-8.564 Y4.448
X-8.652 Y4.395
X-8.744 Y4.349
X-8.93 Y4.266
X-9.011 Y4.233
X-9.094 Y4.206
X-9.234 Y4.166
X-9.339 Y4.14
X-10.394 Y3.932
X-10.477 Y3.918
X-10.561 Y3.91
X-10.772 Y3.898
X-10.849 Y3.895
X-14.858 Y3.9
X-14.966 Y3.905
X-15.074 Y3.919
X-15.132 Y3.93
X-15.222 Y3.917
X-15.363 Y3.903
X-15.489 Y3.897
X-25.618 Y3.898
X-25.71 Y3.901
X-25.801 Y3.911
X-26.007 Y3.942
X-26.119 Y3.925
X-26.33 Y3.903
X-26.461 Y3.896
X-29.134 Y3.895
X-29.171 Y3.896
X-29.733 Y3.912
X-29.87 Y3.924
X-30.222 Y3.973
X-30.327 Y3.992
X-30.43 Y4.021
X-30.641 Y4.088
X-30.733 Y4.122
X-30.822 Y4.162
X-30.975 Y4.239
X-30.992 Y4.248
X-31.045 Y4.259
X-31.25 Y4.308
X-31.356 Y4.338
X-31.459 Y4.377
X-31.67 Y4.468
X-31.759 Y4.511
X-31.845 Y4.561
X-31.986 Y4.651
X-32.048 Y4.693
X-32.107 Y4.738
X-32.895 Y5.384
X-32.958 Y5.44
X-33.018 Y5.499
X-33.148 Y5.64
X-33.198 Y5.697
X-33.245 Y5.757
X-33.31 Y5.847
X-33.378 Y5.952
X-33.909 Y6.861
X-33.959 Y6.957
X-34.001 Y7.056
X-34.079 Y7.266
X-34.113 Y7.371
X-34.137 Y7.479
X-34.329 Y8.543
X-34.344 Y8.652
X-34.349 Y8.761
X-34.356 Y11.055
X-34.354 Y20.225
X-34.35 Y20.315
X-34.341 Y20.405
X-34.321 Y20.541
X-34.339 Y20.672
X-34.35 Y20.788
X-34.355 Y20.899
Y30.168
X-34.349 Y30.289
X-34.333 Y30.454
X-34.324 Y30.529
X-34.333 Y30.607
X-34.351 Y30.817
X-34.356 Y30.926
X-34.354 Y35.194
X-34.35 Y35.284
X-34.341 Y35.373
X-34.321 Y35.508
X-34.322 Y35.515
X-34.341 Y35.655
X-34.349 Y35.738
X-34.352 Y35.822
X-34.351 Y40.334
X-34.347 Y40.433
X-34.335 Y40.532
X-34.321 Y40.62
X-34.335 Y40.704
X-34.344 Y40.79
X-34.353 Y40.925
X-34.356 Y41.008
X-34.354 Y52.138
X-34.351 Y52.224
X-34.342 Y52.31
X-34.311 Y52.536
X-34.298 Y52.614
X-34.091 Y53.63
X-34.065 Y53.734
X-34.03 Y53.835
X-33.948 Y54.045
X-33.904 Y54.146
X-33.85 Y54.243
X-33.719 Y54.457
X-33.692 Y54.499
X-33.641 Y54.575
X-38.549 Y54.574
X-38.571 Y54.571
X-38.575 Y54.413
X-38.573 Y0.021
X-38.571 Y0.004
X-38.514 Y0
X-37.29
X-37.26 Y0.005
X-37.233 Y0.018
X-37.211 Y0.038
X-34.76 Y3.15
X-34.738 Y3.17
X-34.711 Y3.183
X-34.681 Y3.188
X-34.459 Z-0.481 F333.3
X-34.434 Y3.195
X-34.416 Y3.213
X-34.409 Y3.238
X-34.416 Y3.263
X-34.434 Y3.281
X-34.459 Y3.288
X-35.335 Z-0.8
X-35.38 Y3.294
X-35.421 Y3.313
X-35.724 Y3.512
G2 X-35.553 Y3.772 I0.085 J0.13
X-35.545 Y3.518 I-0.085 J-0.13
G3 X-35.126 Y2.958 I0.21 J-0.28 F1000
X-35.545 Y3.518 I-0.21 J0.28
G1 X-35.583 Y3.485 Z-0.787
X-35.607 Y3.458 Z-0.75
X-35.615 Y3.447 Z-0.7
Z4
X-2.945 Y3.815
Z0.02
X-4.64 Z-0.158 F333.3
X-4.665 Y3.808
X-4.684 Y3.79
X-4.69 Y3.765
X-4.684 Y3.74
X-4.665 Y3.722
X-4.64 Y3.715
X-2.887 Z-0.341
X-2.862 Y3.722
X-2.844 Y3.74
X-2.837 Y3.765
X-2.844 Y3.79
X-2.862 Y3.808
X-2.887 Y3.815
X-4.64 Z-0.525
X-4.665 Y3.808
X-4.684 Y3.79
X-4.69 Y3.765
X-4.684 Y3.74
X-4.665 Y3.722
X-4.64 Y3.715
X-2.887 Z-0.708
X-2.862 Y3.722
X-2.844 Y3.74
X-2.837 Y3.765
X-2.844 Y3.79
X-2.862 Y3.808
X-2.887 Y3.815
X-3.764 Z-0.8
G2 X-4.017 Y3.855 I0 J0.82
G1 X-5.995 Y4.498
G2 X-5.488 Y6.058 I0.253 J0.78
X-5.09 Y4.78 I-0.253 J-0.78
X-6.241 Y3.591 I-5.661 J4.331 F1000
X-6.608 Y3.34 I-1.594 J1.939
G3 X-6.988 Y3.108 I2.905 J-5.185
X-6.651 Y1.989 I0.337 J-0.509
G1 X-3.505
G3 X-1.988 Y3.506 I0 J1.517
G1 X-1.99 Y51.356
G3 X-3.826 Y51.357 I-0.918 J0
X-3.72 Y39.322 I635.639 J-0.396
G2 X-3.613 Y27.288 I-682.673 J-12.055
G1 X-3.672 Y8.28
G2 X-5.09 Y4.78 I-7.079 J0.83
X-7.1 Y4.146 I-1.456 J1.114
G3 X-9.208 Y4.173 I-1.099 J-3.465
G1 X-9.234 Y4.166
X-9.339 Y4.14
X-10.394 Y3.932
X-10.477 Y3.918
X-10.561 Y3.91
X-10.772 Y3.898
X-10.849 Y3.895
X-14.858 Y3.9
X-14.966 Y3.905
X-15.074 Y3.919
X-15.132 Y3.93
X-15.222 Y3.917
X-15.363 Y3.903
X-15.489 Y3.897
X-25.618 Y3.898
X-25.71 Y3.901
X-25.801 Y3.911
X-26.007 Y3.942
X-26.119 Y3.925
X-26.33 Y3.903
X-26.461 Y3.896
X-29.134 Y3.895
X-29.171 Y3.896
X-29.733 Y3.912
X-29.87 Y3.924
X-30.222 Y3.973
X-30.327 Y3.992
X-30.43 Y4.021
X-30.641 Y4.088
X-30.733 Y4.122
X-30.822 Y4.162
X-30.975 Y4.239
X-30.992 Y4.248
X-31.045 Y4.259
X-31.25 Y4.308
X-31.356 Y4.338
X-31.459 Y4.377
X-31.67 Y4.468
X-31.759 Y4.511
X-31.845 Y4.561
X-31.986 Y4.651
X-32.048 Y4.693
X-32.107 Y4.738
X-32.895 Y5.384
X-32.958 Y5.44
X-33.018 Y5.499
X-33.148 Y5.64
X-33.198 Y5.697
X-33.245 Y5.757
X-33.31 Y5.847
X-33.378 Y5.952
X-33.909 Y6.861
X-33.959 Y6.957
X-34.001 Y7.056
X-34.079 Y7.266
X-34.113 Y7.371
X-34.137 Y7.479
X-34.329 Y8.543
X-34.344 Y8.652
X-34.349 Y8.761
X-34.356 Y11.055
X-34.354 Y20.225
X-34.35 Y20.315
X-34.341 Y20.405
X-34.321 Y20.541
X-34.339 Y20.672
X-34.35 Y20.788
X-34.355 Y20.899
Y30.168
X-34.349 Y30.289
X-34.333 Y30.454
X-34.324 Y30.529
X-34.333 Y30.607
X-34.351 Y30.817
X-34.356 Y30.926
X-34.354 Y35.194
X-34.35 Y35.284
X-34.341 Y35.373
X-34.321 Y35.508
X-34.322 Y35.515
X-34.341 Y35.655
X-34.349 Y35.738
X-34.352 Y35.822
X-34.351 Y40.334
X-34.347 Y40.433
X-34.335 Y40.532
X-34.321 Y40.62
X-34.335 Y40.704
X-34.344 Y40.79
X-34.353 Y40.925
X-34.356 Y41.008
X-34.354 Y52.138
X-34.351 Y52.224
X-34.342 Y52.31
X-34.311 Y52.536
X-34.298 Y52.614
X-34.091 Y53.63
X-34.065 Y53.734
X-34.03 Y53.835
X-33.948 Y54.045
X-33.904 Y54.146
X-33.85 Y54.243
X-33.719 Y54.457
X-33.692 Y54.499
X-33.641 Y54.575
X-38.549 Y54.574
X-38.571 Y54.571
X-38.575 Y54.413
X-38.573 Y0.021
X-38.571 Y0.004
X-38.514 Y0
X-0.026 Y0.001
X-0.004 Y0.004
X0 Y0.162
X-0.002 Y54.554
X-0.004 Y54.57
X-0.445 Y54.575
X-6.53
X-6.381 Y54.35
X-6.332 Y54.27
X-6.289 Y54.185
X-6.192 Y53.975
X-6.156 Y53.888
X-6.126 Y53.799
X-6.085 Y53.659
X-6.059 Y53.553
X-5.852 Y52.504
X-5.838 Y52.424
X-5.83 Y52.343
X-5.817 Y52.134
X-5.814 Y52.05
X-5.816 Y48.343
X-5.82 Y48.252
X-5.829 Y48.162
X-5.849 Y48.029
X-5.831 Y47.913
X-5.824 Y47.844
X-5.817 Y47.714
X-5.816 Y43.377
X-5.819 Y43.287
X-5.829 Y43.197
X-5.849 Y43.061
X-5.837 Y42.987
X-5.829 Y42.913
X-5.818 Y42.773
X-5.814 Y42.677
X-5.816 Y38.34
X-5.819 Y38.251
X-5.829 Y38.162
X-5.849 Y38.023
X-5.837 Y37.951
X-5.829 Y37.878
X-5.818 Y37.738
X-5.814 Y37.64
X-5.816 Y33.373
X-5.82 Y33.281
X-5.83 Y33.19
X-5.86 Y32.986
X-5.847 Y32.91
X-5.829 Y32.771
X-5.82 Y32.688
X-5.818 Y32.605
X-5.815 Y28.338
X-5.818 Y28.255
X-5.826 Y28.173
X-5.854 Y27.964
X-5.867 Y27.885
X-5.885 Y27.807
X-5.857 Y27.683
X-5.842 Y27.606
X-5.833 Y27.529
X-5.821 Y27.406
X-5.815 Y27.288
X-5.816 Y8.82
X-5.818 Y8.747
X-5.825 Y8.674
X-5.841 Y8.535
X-5.857 Y8.435
X-6.067 Y7.385
X-6.087 Y7.3
X-6.113 Y7.216
X-6.187 Y7.007
X-6.222 Y6.918
X-6.264 Y6.832
X-6.339 Y6.692
X-6.404 Y6.583
X-7.032 Y5.65
X-7.089 Y5.572
X-7.152 Y5.499
X-7.275 Y5.366
X-7.335 Y5.305
X-7.398 Y5.249
X-7.521 Y5.148
X-7.624 Y5.072
X-8.564 Y4.448
X-8.652 Y4.395
X-8.744 Y4.349
X-8.93 Y4.266
X-9.011 Y4.233
X-9.094 Y4.206
X-9.208 Y4.173
X-9.225 Y4.163
X-9.235 Y4.145
Y4.125
X-9.225 Y4.107
X-9.208 Y4.097
X-9.055 Y4.054
X-3.261 Y3.871
X-3.238 Y3.864
X-3.22 Y3.847
X-3.153 Y3.739
X-3.135 Y3.721
X-3.11 Y3.715
X-2.887 Z-0.881 F333.3
X-2.862 Y3.722
X-2.844 Y3.74
X-2.837 Y3.765
X-2.844 Y3.79
X-2.862 Y3.808
X-2.887 Y3.815
X-3.764 Z-1.2
G2 X-4.017 Y3.855 I0 J0.82
G1 X-5.995 Y4.498
G2 X-5.488 Y6.058 I0.253 J0.78
X-5.09 Y4.78 I-0.253 J-0.78
X-6.241 Y3.591 I-5.661 J4.331 F1000
X-6.608 Y3.34 I-1.594 J1.939
G3 X-6.988 Y3.108 I2.905 J-5.185
X-6.651 Y1.989 I0.337 J-0.509
G1 X-3.505
G3 X-1.988 Y3.506 I0 J1.517
G1 X-1.99 Y51.356
G3 X-3.826 Y51.357 I-0.918 J0
X-3.72 Y39.322 I635.639 J-0.396
G2 X-3.613 Y27.288 I-682.673 J-12.055
G1 X-3.672 Y8.28
G2 X-5.09 Y4.78 I-7.079 J0.83
G1 X-5.101 Y4.757 Z-1.193
X-5.107 Y4.733 Z-1.187
X-5.104 Y4.697 Z-1.15
X-5.099 Y4.684 Z-1.1
Z4
X-34.516 Y3.288
Z1.4
Z-0.38 F333.3
X-36.212 Z-0.558
X-36.237 Y3.281
X-36.255 Y3.263
X-36.262 Y3.238
X-36.255 Y3.213
X-36.237 Y3.195
X-36.212 Y3.188
X-34.459 Z-0.741
X-34.434 Y3.195
X-34.416 Y3.213
X-34.409 Y3.238
X-34.416 Y3.263
X-34.434 Y3.281
X-34.459 Y3.288
X-36.212 Z-0.925
X-36.237 Y3.281
X-36.255 Y3.263
X-36.262 Y3.238
X-36.255 Y3.213
X-36.237 Y3.195
X-36.212 Y3.188
X-34.459 Z-1.108
X-34.434 Y3.195
X-34.416 Y3.213
X-34.409 Y3.238
X-34.416 Y3.263
X-34.434 Y3.281
X-34.459 Y3.288
X-35.335 Z-1.2
X-35.38 Y3.294
X-35.421 Y3.313
X-35.724 Y3.512
G2 X-35.553 Y3.772 I0.085 J0.13
X-35.545 Y3.518 I-0.085 J-0.13
G3 X-35.126 Y2.958 I0.21 J-0.28 F1000
X-35.545 Y3.518 I-0.21 J0.28
G2 X-37.685 Y2.388 I-4.624 J6.165
G3 X-37.29 Y0 I0.395 J-1.161
G1 X-0.026 Y0.001
X-0.004 Y0.004
X0 Y0.162
X-0.002 Y54.554
X-0.004 Y54.57
X-0.445 Y54.575
X-6.53
X-6.381 Y54.35
X-6.332 Y54.27
X-6.289 Y54.185
X-6.192 Y53.975
X-6.156 Y53.888
X-6.126 Y53.799
X-6.085 Y53.659
X-6.059 Y53.553
X-5.852 Y52.504
X-5.838 Y52.424
X-5.83 Y52.343
X-5.817 Y52.134
X-5.814 Y52.05
X-5.816 Y48.343
X-5.82 Y48.252
X-5.829 Y48.162
X-5.849 Y48.029
X-5.831 Y47.913
X-5.824 Y47.844
X-5.817 Y47.714
X-5.816 Y43.377
X-5.819 Y43.287
X-5.829 Y43.197
X-5.849 Y43.061
X-5.837 Y42.987
X-5.829 Y42.913
X-5.818 Y42.773
X-5.814 Y42.677
X-5.816 Y38.34
X-5.819 Y38.251
X-5.829 Y38.162
X-5.849 Y38.023
X-5.837 Y37.951
X-5.829 Y37.878
X-5.818 Y37.738
X-5.814 Y37.64
X-5.816 Y33.373
X-5.82 Y33.281
X-5.83 Y33.19
X-5.86 Y32.986
X-5.847 Y32.91
X-5.829 Y32.771
X-5.82 Y32.688
X-5.818 Y32.605
X-5.815 Y28.338
X-5.818 Y28.255
X-5.826 Y28.173
X-5.854 Y27.964
X-5.867 Y27.885
X-5.885 Y27.807
X-5.857 Y27.683
X-5.842 Y27.606
X-5.833 Y27.529
X-5.821 Y27.406
X-5.815 Y27.288
X-5.816 Y8.82
X-5.818 Y8.747
X-5.825 Y8.674
X-5.841 Y8.535
X-5.857 Y8.435
X-6.067 Y7.385
X-6.087 Y7.3
X-6.113 Y7.216
X-6.187 Y7.007
X-6.222 Y6.918
X-6.264 Y6.832
X-6.339 Y6.692
X-6.404 Y6.583
X-7.032 Y5.65
X-7.089 Y5.572
X-7.152 Y5.499
X-7.275 Y5.366
X-7.335 Y5.305
X-7.398 Y5.249
X-7.521 Y5.148
X-7.624 Y5.072
X-8.564 Y4.448
X-8.652 Y4.395
X-8.744 Y4.349
X-8.93 Y4.266
X-9.011 Y4.233
X-9.094 Y4.206
X-9.234 Y4.166
X-9.339 Y4.14
X-10.394 Y3.932
X-10.477 Y3.918
X-10.561 Y3.91
X-10.772 Y3.898
X-10.849 Y3.895
X-14.858 Y3.9
X-14.966 Y3.905
X-15.074 Y3.919
X-15.132 Y3.93
X-15.222 Y3.917
X-15.363 Y3.903
X-15.489 Y3.897
X-25.618 Y3.898
X-25.71 Y3.901
X-25.801 Y3.911
X-26.007 Y3.942
X-26.119 Y3.925
X-26.33 Y3.903
X-26.461 Y3.896
X-29.134 Y3.895
X-29.171 Y3.896
X-29.733 Y3.912
X-29.87 Y3.924
X-30.222 Y3.973
X-30.327 Y3.992
X-30.43 Y4.021
X-30.641 Y4.088
X-30.733 Y4.122
X-30.822 Y4.162
X-30.975 Y4.239
X-30.992 Y4.248
X-31.045 Y4.259
X-31.25 Y4.308
X-31.356 Y4.338
X-31.459 Y4.377
X-31.67 Y4.468
X-31.759 Y4.511
X-31.845 Y4.561
X-31.986 Y4.651
X-32.048 Y4.693
X-32.107 Y4.738
X-32.895 Y5.384
X-32.958 Y5.44
X-33.018 Y5.499
X-33.148 Y5.64
X-33.198 Y5.697
X-33.245 Y5.757
X-33.31 Y5.847
X-33.378 Y5.952
X-33.909 Y6.861
X-33.959 Y6.957
X-34.001 Y7.056
X-34.079 Y7.266
X-34.113 Y7.371
X-34.137 Y7.479
X-34.329 Y8.543
X-34.344 Y8.652
X-34.349 Y8.761
X-34.356 Y11.055
X-34.354 Y20.225
X-34.35 Y20.315
X-34.341 Y20.405
X-34.321 Y20.541
X-34.339 Y20.672
X-34.35 Y20.788
X-34.355 Y20.899
Y30.168
X-34.349 Y30.289
X-34.333 Y30.454
X-34.324 Y30.529
X-34.333 Y30.607
X-34.351 Y30.817
X-34.356 Y30.926
X-34.354 Y35.194
X-34.35 Y35.284
X-34.341 Y35.373
X-34.321 Y35.508
X-34.322 Y35.515
X-34.341 Y35.655
X-34.349 Y35.738
X-34.352 Y35.822
X-34.351 Y40.334
X-34.347 Y40.433
X-34.335 Y40.532
X-34.321 Y40.62
X-34.335 Y40.704
X-34.344 Y40.79
X-34.353 Y40.925
X-34.356 Y41.008
X-34.354 Y52.138
X-34.351 Y52.224
X-34.342 Y52.31
X-34.311 Y52.536
X-34.298 Y52.614
X-34.091 Y53.63
X-34.065 Y53.734
X-34.03 Y53.835
X-33.948 Y54.045
X-33.904 Y54.146
X-33.85 Y54.243
X-33.719 Y54.457
X-33.692 Y54.499
X-33.641 Y54.575
X-38.549 Y54.574
X-38.571 Y54.571
X-38.575 Y54.413
X-38.573 Y0.021
X-38.571 Y0.004
X-38.514 Y0
X-37.29
X-37.26 Y0.005
X-37.233 Y0.018
X-37.211 Y0.038
X-34.76 Y3.15
X-34.738 Y3.17
X-34.711 Y3.183
X-34.681 Y3.188
X-34.459 Z-1.281 F333.3
X-34.434 Y3.195
X-34.416 Y3.213
X-34.409 Y3.238
X-34.416 Y3.263
X-34.434 Y3.281
X-34.459 Y3.288
X-35.335 Z-1.6
X-35.38 Y3.294
X-35.421 Y3.313
X-35.724 Y3.512
G2 X-35.553 Y3.772 I0.085 J0.13
X-35.545 Y3.518 I-0.085 J-0.13
G3 X-35.126 Y2.958 I0.21 J-0.28 F1000
X-35.545 Y3.518 I-0.21 J0.28
G1 X-35.583 Y3.485 Z-1.587
X-35.607 Y3.458 Z-1.55
X-35.615 Y3.447 Z-1.5
Z4
X-2.945 Y3.815
Z-0.78
X-4.64 Z-0.958 F333.3
X-4.665 Y3.808
X-4.684 Y3.79
X-4.69 Y3.765
X-4.684 Y3.74
X-4.665 Y3.722
X-4.64 Y3.715
X-2.887 Z-1.141
X-2.862 Y3.722
X-2.844 Y3.74
X-2.837 Y3.765
X-2.844 Y3.79
X-2.862 Y3.808
X-2.887 Y3.815
X-4.64 Z-1.325
X-4.665 Y3.808
X-4.684 Y3.79
X-4.69 Y3.765
X-4.684 Y3.74
X-4.665 Y3.722
X-4.64 Y3.715
X-2.887 Z-1.508
X-2.862 Y3.722
X-2.844 Y3.74
X-2.837 Y3.765
X-2.844 Y3.79
X-2.862 Y3.808
X-2.887 Y3.815
X-3.764 Z-1.6
G2 X-4.017 Y3.855 I0 J0.82
G1 X-5.995 Y4.498
G2 X-5.488 Y6.058 I0.253 J0.78
X-5.09 Y4.78 I-0.253 J-0.78
X-6.241 Y3.591 I-5.661 J4.331 F1000
X-6.608 Y3.34 I-1.594 J1.939
G3 X-6.988 Y3.108 I2.905 J-5.185
X-6.651 Y1.989 I0.337 J-0.509
G1 X-3.505
G3 X-1.988 Y3.506 I0 J1.517
G1 X-1.99 Y51.356
G3 X-3.826 Y51.357 I-0.918 J0
X-3.72 Y39.322 I635.639 J-0.396
G2 X-3.613 Y27.288 I-682.673 J-12.055
G1 X-3.672 Y8.28
G2 X-5.09 Y4.78 I-7.079 J0.83
X-7.1 Y4.146 I-1.456 J1.114
G3 X-9.208 Y4.173 I-1.099 J-3.465
G1 X-9.234 Y4.166
X-9.339 Y4.14
X-10.394 Y3.932
X-10.477 Y3.918
X-10.561 Y3.91
X-10.772 Y3.898
X-10.849 Y3.895
X-14.858 Y3.9
X-14.966 Y3.905
X-15.074 Y3.919
X-15.132 Y3.93
X-15.222 Y3.917
X-15.363 Y3.903
X-15.489 Y3.897
X-25.618 Y3.898
X-25.71 Y3.901
X-25.801 Y3.911
X-26.007 Y3.942
X-26.119 Y3.925
X-26.33 Y3.903
X-26.461 Y3.896
X-29.134 Y3.895
X-29.171 Y3.896
X-29.733 Y3.912
X-29.87 Y3.924
X-30.222 Y3.973
X-30.327 Y3.992
X-30.43 Y4.021
X-30.641 Y4.088
X-30.733 Y4.122
X-30.822 Y4.162
X-30.975 Y4.239
X-30.992 Y4.248
X-31.045 Y4.259
X-31.25 Y4.308
X-31.356 Y4.338
X-31.459 Y4.377
X-31.67 Y4.468
X-31.759 Y4.511
X-31.845 Y4.561
X-31.986 Y4.651
X-32.048 Y4.693
X-32.107 Y4.738
X-32.895 Y5.384
X-32.958 Y5.44
X-33.018 Y5.499
X-33.148 Y5.64
X-33.198 Y5.697
X-33.245 Y5.757
X-33.31 Y5.847
X-33.378 Y5.952
X-33.909 Y6.861
X-33.959 Y6.957
X-34.001 Y7.056
X-34.079 Y7.266
X-34.113 Y7.371
X-34.137 Y7.479
X-34.329 Y8.543
X-34.344 Y8.652
X-34.349 Y8.761
X-34.356 Y11.055
X-34.354 Y20.225
X-34.35 Y20.315
X-34.341 Y20.405
X-34.321 Y20.541
X-34.339 Y20.672
X-34.35 Y20.788
X-34.355 Y20.899
Y30.168
X-34.349 Y30.289
X-34.333 Y30.454
X-34.324 Y30.529
X-34.333 Y30.607
X-34.351 Y30.817
X-34.356 Y30.926
X-34.354 Y35.194
X-34.35 Y35.284
X-34.341 Y35.373
X-34.321 Y35.508
X-34.322 Y35.515
X-34.341 Y35.655
X-34.349 Y35.738
X-34.352 Y35.822
X-34.351 Y40.334
X-34.347 Y40.433
X-34.335 Y40.532
X-34.321 Y40.62
X-34.335 Y40.704
X-34.344 Y40.79
X-34.353 Y40.925
X-34.356 Y41.008
X-34.354 Y52.138
X-34.351 Y52.224
X-34.342 Y52.31
X-34.311 Y52.536
X-34.298 Y52.614
X-34.091 Y53.63
X-34.065 Y53.734
X-34.03 Y53.835
X-33.948 Y54.045
X-33.904 Y54.146
X-33.85 Y54.243
X-33.719 Y54.457
X-33.692 Y54.499
X-33.641 Y54.575
X-38.549 Y54.574
X-38.571 Y54.571
X-38.575 Y54.413
X-38.573 Y0.021
X-38.571 Y0.004
X-38.514 Y0
X-0.026 Y0.001
X-0.004 Y0.004
X0 Y0.162
X-0.002 Y54.554
X-0.004 Y54.57
X-0.445 Y54.575
X-6.53
X-6.381 Y54.35
X-6.332 Y54.27
X-6.289 Y54.185
X-6.192 Y53.975
X-6.156 Y53.888
X-6.126 Y53.799
X-6.085 Y53.659
X-6.059 Y53.553
X-5.852 Y52.504
X-5.838 Y52.424
X-5.83 Y52.343
X-5.817 Y52.134
X-5.814 Y52.05
X-5.816 Y48.343
X-5.82 Y48.252
X-5.829 Y48.162
X-5.849 Y48.029
X-5.831 Y47.913
X-5.824 Y47.844
X-5.817 Y47.714
X-5.816 Y43.377
X-5.819 Y43.287
X-5.829 Y43.197
X-5.849 Y43.061
X-5.837 Y42.987
X-5.829 Y42.913
X-5.818 Y42.773
X-5.814 Y42.677
X-5.816 Y38.34
X-5.819 Y38.251
X-5.829 Y38.162
X-5.849 Y38.023
X-5.837 Y37.951
X-5.829 Y37.878
X-5.818 Y37.738
X-5.814 Y37.64
X-5.816 Y33.373
X-5.82 Y33.281
X-5.83 Y33.19
X-5.86 Y32.986
X-5.847 Y32.91
X-5.829 Y32.771
X-5.82 Y32.688
X-5.818 Y32.605
X-5.815 Y28.338
X-5.818 Y28.255
X-5.826 Y28.173
X-5.854 Y27.964
X-5.867 Y27.885
X-5.885 Y27.807
X-5.857 Y27.683
X-5.842 Y27.606
X-5.833 Y27.529
X-5.821 Y27.406
X-5.815 Y27.288
X-5.816 Y8.82
X-5.818 Y8.747
X-5.825 Y8.674
X-5.841 Y8.535
X-5.857 Y8.435
X-6.067 Y7.385
X-6.087 Y7.3
X-6.113 Y7.216
X-6.187 Y7.007
X-6.222 Y6.918
X-6.264 Y6.832
X-6.339 Y6.692
X-6.404 Y6.583
X-7.032 Y5.65
X-7.089 Y5.572
X-7.152 Y5.499
X-7.275 Y5.366
X-7.335 Y5.305
X-7.398 Y5.249
X-7.521 Y5.148
X-7.624 Y5.072
X-8.564 Y4.448
X-8.652 Y4.395
X-8.744 Y4.349
X-8.93 Y4.266
X-9.011 Y4.233
X-9.094 Y4.206
X-9.208 Y4.173
X-9.225 Y4.163
X-9.235 Y4.145
Y4.125
X-9.225 Y4.107
X-9.208 Y4.097
X-9.055 Y4.054
X-3.261 Y3.871
X-3.238 Y3.864
X-3.22 Y3.847
X-3.153 Y3.739
X-3.135 Y3.721
X-3.11 Y3.715
X-2.887 Z-1.681 F333.3
X-2.862 Y3.722
X-2.844 Y3.74
X-2.837 Y3.765
X-2.844 Y3.79
X-2.862 Y3.808
X-2.887 Y3.815
X-3.764 Z-2
G2 X-4.017 Y3.855 I0 J0.82
G1 X-5.995 Y4.498
G2 X-5.488 Y6.058 I0.253 J0.78
X-5.09 Y4.78 I-0.253 J-0.78
X-6.241 Y3.591 I-5.661 J4.331 F1000
X-6.608 Y3.34 I-1.594 J1.939
G3 X-6.988 Y3.108 I2.905 J-5.185
X-6.651 Y1.989 I0.337 J-0.509
G1 X-3.505
G3 X-1.988 Y3.506 I0 J1.517
G1 X-1.99 Y51.356
G3 X-3.826 Y51.357 I-0.918 J0
X-3.72 Y39.322 I635.639 J-0.396
G2 X-3.613 Y27.288 I-682.673 J-12.055
G1 X-3.672 Y8.28
G2 X-5.09 Y4.78 I-7.079 J0.83
G1 X-5.101 Y4.757 Z-1.993
X-5.107 Y4.733 Z-1.987
X-5.104 Y4.697 Z-1.95
X-5.099 Y4.684 Z-1.9
Z4
X-34.516 Y3.288
Z-1.18
X-36.212 Z-1.358 F333.3
X-36.237 Y3.281
X-36.255 Y3.263
X-36.262 Y3.238
X-36.255 Y3.213
X-36.237 Y3.195
X-36.212 Y3.188
X-34.459 Z-1.541
X-34.434 Y3.195
X-34.416 Y3.213
X-34.409 Y3.238
X-34.416 Y3.263
X-34.434 Y3.281
X-34.459 Y3.288
X-36.212 Z-1.725
X-36.237 Y3.281
X-36.255 Y3.263
X-36.262 Y3.238
X-36.255 Y3.213
X-36.237 Y3.195
X-36.212 Y3.188
X-34.459 Z-1.908
X-34.434 Y3.195
X-34.416 Y3.213
X-34.409 Y3.238
X-34.416 Y3.263
X-34.434 Y3.281
X-34.459 Y3.288
X-35.335 Z-2
X-35.38 Y3.294
X-35.421 Y3.313
X-35.724 Y3.512
G2 X-35.553 Y3.772 I0.085 J0.13
X-35.545 Y3.518 I-0.085 J-0.13
G3 X-35.126 Y2.958 I0.21 J-0.28 F1000
X-35.545 Y3.518 I-0.21 J0.28
G2 X-37.685 Y2.388 I-4.624 J6.165
G3 X-37.29 Y0 I0.395 J-1.161
G1 X-0.026 Y0.001
X-0.004 Y0.004
X0 Y0.162
X-0.002 Y54.554
X-0.004 Y54.57
X-0.445 Y54.575
X-6.53
X-6.381 Y54.35
X-6.332 Y54.27
X-6.289 Y54.185
X-6.192 Y53.975
X-6.156 Y53.888
X-6.126 Y53.799
X-6.085 Y53.659
X-6.059 Y53.553
X-5.852 Y52.504
X-5.838 Y52.424
X-5.83 Y52.343
X-5.817 Y52.134
X-5.814 Y52.05
X-5.816 Y48.343
X-5.82 Y48.252
X-5.829 Y48.162
X-5.849 Y48.029
X-5.831 Y47.913
X-5.824 Y47.844
X-5.817 Y47.714
X-5.816 Y43.377
X-5.819 Y43.287
X-5.829 Y43.197
X-5.849 Y43.061
X-5.837 Y42.987
X-5.829 Y42.913
X-5.818 Y42.773
X-5.814 Y42.677
X-5.816 Y38.34
X-5.819 Y38.251
X-5.829 Y38.162
X-5.849 Y38.023
X-5.837 Y37.951
X-5.829 Y37.878
X-5.818 Y37.738
X-5.814 Y37.64
X-5.816 Y33.373
X-5.82 Y33.281
X-5.83 Y33.19
X-5.86 Y32.986
X-5.847 Y32.91
X-5.829 Y32.771
X-5.82 Y32.688
X-5.818 Y32.605
X-5.815 Y28.338
X-5.818 Y28.255
X-5.826 Y28.173
X-5.854 Y27.964
X-5.867 Y27.885
X-5.885 Y27.807
X-5.857 Y27.683
X-5.842 Y27.606
X-5.833 Y27.529
X-5.821 Y27.406
X-5.815 Y27.288
X-5.816 Y8.82
X-5.818 Y8.747
X-5.825 Y8.674
X-5.841 Y8.535
X-5.857 Y8.435
X-6.067 Y7.385
X-6.087 Y7.3
X-6.113 Y7.216
X-6.187 Y7.007
X-6.222 Y6.918
X-6.264 Y6.832
X-6.339 Y6.692
X-6.404 Y6.583
X-7.032 Y5.65
X-7.089 Y5.572
X-7.152 Y5.499
X-7.275 Y5.366
X-7.335 Y5.305
X-7.398 Y5.249
X-7.521 Y5.148
X-7.624 Y5.072
X-8.564 Y4.448
X-8.652 Y4.395
X-8.744 Y4.349
X-8.93 Y4.266
X-9.011 Y4.233
X-9.094 Y4.206
X-9.234 Y4.166
X-9.339 Y4.14
X-10.394 Y3.932
X-10.477 Y3.918
X-10.561 Y3.91
X-10.772 Y3.898
X-10.849 Y3.895
X-14.858 Y3.9
X-14.966 Y3.905
X-15.074 Y3.919
X-15.132 Y3.93
X-15.222 Y3.917
X-15.363 Y3.903
X-15.489 Y3.897
X-25.618 Y3.898
X-25.71 Y3.901
X-25.801 Y3.911
X-26.007 Y3.942
X-26.119 Y3.925
X-26.33 Y3.903
X-26.461 Y3.896
X-29.134 Y3.895
X-29.171 Y3.896
X-29.733 Y3.912
X-29.87 Y3.924
X-30.222 Y3.973
X-30.327 Y3.992
X-30.43 Y4.021
X-30.641 Y4.088
X-30.733 Y4.122
X-30.822 Y4.162
X-30.975 Y4.239
X-30.992 Y4.248
X-31.045 Y4.259
X-31.25 Y4.308
X-31.356 Y4.338
X-31.459 Y4.377
X-31.67 Y4.468
X-31.759 Y4.511
X-31.845 Y4.561
X-31.986 Y4.651
X-32.048 Y4.693
X-32.107 Y4.738
X-32.895 Y5.384
X-32.958 Y5.44
X-33.018 Y5.499
X-33.148 Y5.64
X-33.198 Y5.697
X-33.245 Y5.757
X-33.31 Y5.847
X-33.378 Y5.952
X-33.909 Y6.861
X-33.959 Y6.957
X-34.001 Y7.056
X-34.079 Y7.266
X-34.113 Y7.371
X-34.137 Y7.479
X-34.329 Y8.543
X-34.344 Y8.652
X-34.349 Y8.761
X-34.356 Y11.055
X-34.354 Y20.225
X-34.35 Y20.315
X-34.341 Y20.405
X-34.321 Y20.541
X-34.339 Y20.672
X-34.35 Y20.788
X-34.355 Y20.899
Y30.168
X-34.349 Y30.289
X-34.333 Y30.454
X-34.324 Y30.529
X-34.333 Y30.607
X-34.351 Y30.817
X-34.356 Y30.926
X-34.354 Y35.194
X-34.35 Y35.284
X-34.341 Y35.373
X-34.321 Y35.508
X-34.322 Y35.515
X-34.341 Y35.655
X-34.349 Y35.738
X-34.352 Y35.822
X-34.351 Y40.334
X-34.347 Y40.433
X-34.335 Y40.532
X-34.321 Y40.62
X-34.335 Y40.704
X-34.344 Y40.79
X-34.353 Y40.925
X-34.356 Y41.008
X-34.354 Y52.138
X-34.351 Y52.224
X-34.342 Y52.31
X-34.311 Y52.536
X-34.298 Y52.614
X-34.091 Y53.63
X-34.065 Y53.734
X-34.03 Y53.835
X-33.948 Y54.045
X-33.904 Y54.146
X-33.85 Y54.243
X-33.719 Y54.457
X-33.692 Y54.499
X-33.641 Y54.575
X-38.549 Y54.574
X-38.571 Y54.571
X-38.575 Y54.413
X-38.573 Y0.021
X-38.571 Y0.004
X-38.514 Y0
X-37.29
X-37.26 Y0.005
X-37.233 Y0.018
X-37.211 Y0.039
X-37.196 Y0.065
X-36.629 Y1.603
X-36.619 Y1.622
X-36.605 Y1.639
X-35.147 Y3.081
X-35.029 Y3.222
X-35.02 Y3.242
X-35.024 Y3.265
X-35.039 Y3.282
X-35.061 Y3.288
X-35.335 Z-2.1 F333.3
X-35.38 Y3.294
X-35.421 Y3.313
X-35.724 Y3.512
G2 X-35.553 Y3.772 I0.085 J0.13
X-35.545 Y3.518 I-0.085 J-0.13
G3 X-35.126 Y2.958 I0.21 J-0.28 F1000
X-35.545 Y3.518 I-0.21 J0.28
G1 X-35.583 Y3.485 Z-2.087
X-35.607 Y3.458 Z-2.05
X-35.615 Y3.447 Z-2
Z4
X-3.471 Y3.715
Z-1.58
X-2.887 Z-1.641 F333.3
X-2.862 Y3.722
X-2.844 Y3.74
X-2.837 Y3.765
X-2.844 Y3.79
X-2.862 Y3.808
X-2.887 Y3.815
X-4.64 Z-1.825
X-4.665 Y3.808
X-4.684 Y3.79
X-4.69 Y3.765
X-4.684 Y3.74
X-4.665 Y3.722
X-4.64 Y3.715
X-2.887 Z-2.008
X-2.862 Y3.722
X-2.844 Y3.74
X-2.837 Y3.765
X-2.844 Y3.79
X-2.862 Y3.808
X-2.887 Y3.815
X-3.764 Z-2.1
G2 X-4.017 Y3.855 I0 J0.82
G1 X-5.995 Y4.498
G2 X-5.488 Y6.058 I0.253 J0.78
X-5.09 Y4.78 I-0.253 J-0.78
X-6.241 Y3.591 I-5.661 J4.331 F1000
X-6.608 Y3.34 I-1.594 J1.939
G3 X-6.988 Y3.108 I2.905 J-5.185
X-6.651 Y1.989 I0.337 J-0.509
G1 X-3.505
G3 X-1.988 Y3.506 I0 J1.517
G1 X-1.99 Y51.356
G3 X-3.826 Y51.357 I-0.918 J0
X-3.72 Y39.322 I635.639 J-0.396
G2 X-3.613 Y27.288 I-682.673 J-12.055
G1 X-3.672 Y8.28
G2 X-5.09 Y4.78 I-7.079 J0.83
X-7.1 Y4.146 I-1.456 J1.114
G3 X-9.208 Y4.173 I-1.099 J-3.465
G1 X-9.234 Y4.166
X-9.339 Y4.14
X-10.394 Y3.932
X-10.477 Y3.918
X-10.561 Y3.91
X-10.772 Y3.898
X-10.849 Y3.895
X-14.858 Y3.9
X-14.966 Y3.905
X-15.074 Y3.919
X-15.132 Y3.93
X-15.222 Y3.917
X-15.363 Y3.903
X-15.489 Y3.897
X-25.618 Y3.898
X-25.71 Y3.901
X-25.801 Y3.911
X-26.007 Y3.942
X-26.119 Y3.925
X-26.33 Y3.903
X-26.461 Y3.896
X-29.134 Y3.895
X-29.171 Y3.896
X-29.733 Y3.912
X-29.87 Y3.924
X-30.222 Y3.973
X-30.327 Y3.992
X-30.43 Y4.021
X-30.641 Y4.088
X-30.733 Y4.122
X-30.822 Y4.162
X-30.975 Y4.239
X-30.992 Y4.248
X-31.045 Y4.259
X-31.25 Y4.308
X-31.356 Y4.338
X-31.459 Y4.377
X-31.67 Y4.468
X-31.759 Y4.511
X-31.845 Y4.561
X-31.986 Y4.651
X-32.048 Y4.693
X-32.107 Y4.738
X-32.895 Y5.384
X-32.958 Y5.44
X-33.018 Y5.499
X-33.148 Y5.64
X-33.198 Y5.697
X-33.245 Y5.757
X-33.31 Y5.847
X-33.378 Y5.952
X-33.909 Y6.861
X-33.959 Y6.957
X-34.001 Y7.056
X-34.079 Y7.266
X-34.113 Y7.371
X-34.137 Y7.479
X-34.329 Y8.543
X-34.344 Y8.652
X-34.349 Y8.761
X-34.356 Y11.055
X-34.354 Y20.225
X-34.35 Y20.315
X-34.341 Y20.405
X-34.321 Y20.541
X-34.339 Y20.672
X-34.35 Y20.788
X-34.355 Y20.899
Y30.168
X-34.349 Y30.289
X-34.333 Y30.454
X-34.324 Y30.529
X-34.333 Y30.607
X-34.351 Y30.817
X-34.356 Y30.926
X-34.354 Y35.194
X-34.35 Y35.284
X-34.341 Y35.373
X-34.321 Y35.508
X-34.322 Y35.515
X-34.341 Y35.655
X-34.349 Y35.738
X-34.352 Y35.822
X-34.351 Y40.334
X-34.347 Y40.433
X-34.335 Y40.532
X-34.321 Y40.62
X-34.335 Y40.704
X-34.344 Y40.79
X-34.353 Y40.925
X-34.356 Y41.008
X-34.354 Y52.138
X-34.351 Y52.224
X-34.342 Y52.31
X-34.311 Y52.536
X-34.298 Y52.614
X-34.091 Y53.63
X-34.065 Y53.734
X-34.03 Y53.835
X-33.948 Y54.045
X-33.904 Y54.146
X-33.85 Y54.243
X-33.719 Y54.457
X-33.692 Y54.499
X-33.641 Y54.575
X-38.549 Y54.574
X-38.571 Y54.571
X-38.575 Y54.413
X-38.573 Y0.021
X-38.571 Y0.004
X-38.514 Y0
X-0.026 Y0.001
X-0.004 Y0.004
X0 Y0.162
X-0.002 Y54.554
X-0.004 Y54.57
X-0.445 Y54.575
X-6.53
X-6.381 Y54.35
X-6.332 Y54.27
X-6.289 Y54.185
X-6.192 Y53.975
X-6.156 Y53.888
X-6.126 Y53.799
X-6.085 Y53.659
X-6.059 Y53.553
X-5.852 Y52.504
X-5.838 Y52.424
X-5.83 Y52.343
X-5.817 Y52.134
X-5.814 Y52.05
X-5.816 Y48.343
X-5.82 Y48.252
X-5.829 Y48.162
X-5.849 Y48.029
X-5.831 Y47.913
X-5.824 Y47.844
X-5.817 Y47.714
X-5.816 Y43.377
X-5.819 Y43.287
X-5.829 Y43.197
X-5.849 Y43.061
X-5.837 Y42.987
X-5.829 Y42.913
X-5.818 Y42.773
X-5.814 Y42.677
X-5.816 Y38.34
X-5.819 Y38.251
X-5.829 Y38.162
X-5.849 Y38.023
X-5.837 Y37.951
X-5.829 Y37.878
X-5.818 Y37.738
X-5.814 Y37.64
X-5.816 Y33.373
X-5.82 Y33.281
X-5.83 Y33.19
X-5.86 Y32.986
X-5.847 Y32.91
X-5.829 Y32.771
X-5.82 Y32.688
X-5.818 Y32.605
X-5.815 Y28.338
X-5.818 Y28.255
X-5.826 Y28.173
X-5.854 Y27.964
X-5.867 Y27.885
X-5.885 Y27.807
X-5.857 Y27.683
X-5.842 Y27.606
X-5.833 Y27.529
X-5.821 Y27.406
X-5.815 Y27.288
X-5.816 Y8.82
X-5.818 Y8.747
X-5.825 Y8.674
X-5.841 Y8.535
X-5.857 Y8.435
X-6.067 Y7.385
X-6.087 Y7.3
X-6.113 Y7.216
X-6.187 Y7.007
X-6.222 Y6.918
X-6.264 Y6.832
X-6.339 Y6.692
X-6.404 Y6.583
X-7.032 Y5.65
X-7.089 Y5.572
X-7.152 Y5.499
X-7.275 Y5.366
X-7.335 Y5.305
X-7.398 Y5.249
X-7.521 Y5.148
X-7.624 Y5.072
X-8.564 Y4.448
X-8.652 Y4.395
X-8.744 Y4.349
X-8.93 Y4.266
X-9.011 Y4.233
X-9.094 Y4.206
X-9.208 Y4.173
X-9.225 Y4.163
X-9.235 Y4.145
Y4.125
X-9.225 Y4.107
X-9.208 Y4.097
X-9.055 Y4.054
X-3.261 Y3.871
X-3.238 Y3.864
X-3.22 Y3.847
X-3.153 Y3.739
X-3.135 Y3.721
X-3.11 Y3.715
X-2.887 Z-2.181 F333.3
X-2.862 Y3.722
X-2.844 Y3.74
X-2.837 Y3.765
X-2.844 Y3.79
X-2.862 Y3.808
X-2.887 Y3.815
X-3.764 Z-2.5
G2 X-4.017 Y3.855 I0 J0.82
G1 X-5.995 Y4.498
G2 X-5.488 Y6.058 I0.253 J0.78
X-5.09 Y4.78 I-0.253 J-0.78
X-6.241 Y3.591 I-5.661 J4.331 F1000
X-6.608 Y3.34 I-1.594 J1.939
G3 X-6.988 Y3.108 I2.905 J-5.185
X-6.651 Y1.989 I0.337 J-0.509
G1 X-3.505
G3 X-1.988 Y3.506 I0 J1.517
G1 X-1.99 Y51.356
G3 X-3.826 Y51.357 I-0.918 J0
X-3.72 Y39.322 I635.639 J-0.396
G2 X-3.613 Y27.288 I-682.673 J-12.055
G1 X-3.672 Y8.28
G2 X-5.09 Y4.78 I-7.079 J0.83
G1 X-5.101 Y4.757 Z-2.493
X-5.107 Y4.733 Z-2.487
X-5.104 Y4.697 Z-2.45
X-5.099 Y4.684 Z-2.4
Z4
X-34.516 Y3.288
Z-1.68
X-36.212 Z-1.858 F333.3
X-36.237 Y3.281
X-36.255 Y3.263
X-36.262 Y3.238
X-36.255 Y3.213
X-36.237 Y3.195
X-36.212 Y3.188
X-34.459 Z-2.041
X-34.434 Y3.195
X-34.416 Y3.213
X-34.409 Y3.238
X-34.416 Y3.263
X-34.434 Y3.281
X-34.459 Y3.288
X-36.212 Z-2.225
X-36.237 Y3.281
X-36.255 Y3.263
X-36.262 Y3.238
X-36.255 Y3.213
X-36.237 Y3.195
X-36.212 Y3.188
X-34.459 Z-2.408
X-34.434 Y3.195
X-34.416 Y3.213
X-34.409 Y3.238
X-34.416 Y3.263
X-34.434 Y3.281
X-34.459 Y3.288
X-35.335 Z-2.5
X-35.38 Y3.294
X-35.421 Y3.313
X-35.724 Y3.512
G2 X-35.553 Y3.772 I0.085 J0.13
X-35.545 Y3.518 I-0.085 J-0.13
G3 X-35.126 Y2.958 I0.21 J-0.28 F1000
X-35.545 Y3.518 I-0.21 J0.28
G2 X-37.685 Y2.388 I-4.624 J6.165
G3 X-37.29 Y0 I0.395 J-1.161
G1 X-0.026 Y0.001
X-0.004 Y0.004
X0 Y0.162
X-0.002 Y54.554
X-0.004 Y54.57
X-0.445 Y54.575
X-6.53
X-6.381 Y54.35
X-6.332 Y54.27
X-6.289 Y54.185
X-6.192 Y53.975
X-6.156 Y53.888
X-6.126 Y53.799
X-6.085 Y53.659
X-6.059 Y53.553
X-5.852 Y52.504
X-5.838 Y52.424
X-5.83 Y52.343
X-5.817 Y52.134
X-5.814 Y52.05
X-5.816 Y48.343
X-5.82 Y48.252
X-5.829 Y48.162
X-5.849 Y48.029
X-5.831 Y47.913
X-5.824 Y47.844
X-5.817 Y47.714
X-5.816 Y43.377
X-5.819 Y43.287
X-5.829 Y43.197
X-5.849 Y43.061
X-5.837 Y42.987
X-5.829 Y42.913
X-5.818 Y42.773
X-5.814 Y42.677
X-5.816 Y38.34
X-5.819 Y38.251
X-5.829 Y38.162
X-5.849 Y38.023
X-5.837 Y37.951
X-5.829 Y37.878
X-5.818 Y37.738
X-5.814 Y37.64
X-5.816 Y33.373
X-5.82 Y33.281
X-5.83 Y33.19
X-5.86 Y32.986
X-5.847 Y32.91
X-5.829 Y32.771
X-5.82 Y32.688
X-5.818 Y32.605
X-5.815 Y28.338
X-5.818 Y28.255
X-5.826 Y28.173
X-5.854 Y27.964
X-5.867 Y27.885
X-5.885 Y27.807
X-5.857 Y27.683
X-5.842 Y27.606
X-5.833 Y27.529
X-5.821 Y27.406
X-5.815 Y27.288
X-5.816 Y8.82
X-5.818 Y8.747
X-5.825 Y8.674
X-5.841 Y8.535
X-5.857 Y8.435
X-6.067 Y7.385
X-6.087 Y7.3
X-6.113 Y7.216
X-6.187 Y7.007
X-6.222 Y6.918
X-6.264 Y6.832
X-6.339 Y6.692
X-6.404 Y6.583
X-7.032 Y5.65
X-7.089 Y5.572
X-7.152 Y5.499
X-7.275 Y5.366
X-7.335 Y5.305
X-7.398 Y5.249
X-7.521 Y5.148
X-7.624 Y5.072
X-8.564 Y4.448
X-8.652 Y4.395
X-8.744 Y4.349
X-8.93 Y4.266
X-9.011 Y4.233
X-9.094 Y4.206
X-9.234 Y4.166
X-9.339 Y4.14
X-10.394 Y3.932
X-10.477 Y3.918
X-10.561 Y3.91
X-10.772 Y3.898
X-10.849 Y3.895
X-14.858 Y3.9
X-14.966 Y3.905
X-15.074 Y3.919
X-15.132 Y3.93
X-15.222 Y3.917
X-15.363 Y3.903
X-15.489 Y3.897
X-25.618 Y3.898
X-25.71 Y3.901
X-25.801 Y3.911
X-26.007 Y3.942
X-26.119 Y3.925
X-26.33 Y3.903
X-26.461 Y3.896
X-29.134 Y3.895
X-29.171 Y3.896
X-29.733 Y3.912
X-29.87 Y3.924
X-30.222 Y3.973
X-30.327 Y3.992
X-30.43 Y4.021
X-30.641 Y4.088
X-30.733 Y4.122
X-30.822 Y4.162
X-30.975 Y4.239
X-30.992 Y4.248
X-31.045 Y4.259
X-31.25 Y4.308
X-31.356 Y4.338
X-31.459 Y4.377
X-31.67 Y4.468
X-31.759 Y4.511
X-31.845 Y4.561
X-31.986 Y4.651
X-32.048 Y4.693
X-32.107 Y4.738
X-32.895 Y5.384
X-32.958 Y5.44
X-33.018 Y5.499
X-33.148 Y5.64
X-33.198 Y5.697
X-33.245 Y5.757
X-33.31 Y5.847
X-33.378 Y5.952
X-33.909 Y6.861
X-33.959 Y6.957
X-34.001 Y7.056
X-34.079 Y7.266
X-34.113 Y7.371
X-34.137 Y7.479
X-34.329 Y8.543
X-34.344 Y8.652
X-34.349 Y8.761
X-34.356 Y11.055
X-34.354 Y20.225
X-34.35 Y20.315
X-34.341 Y20.405
X-34.321 Y20.541
X-34.339 Y20.672
X-34.35 Y20.788
X-34.355 Y20.899
Y30.168
X-34.349 Y30.289
X-34.333 Y30.454
X-34.324 Y30.529
X-34.333 Y30.607
X-34.351 Y30.817
X-34.356 Y30.926
X-34.354 Y35.194
X-34.35 Y35.284
X-34.341 Y35.373
X-34.321 Y35.508
X-34.322 Y35.515
X-34.341 Y35.655
X-34.349 Y35.738
X-34.352 Y35.822
X-34.351 Y40.334
X-34.347 Y40.433
X-34.335 Y40.532
X-34.321 Y40.62
X-34.335 Y40.704
X-34.344 Y40.79
X-34.353 Y40.925
X-34.356 Y41.008
X-34.354 Y52.138
X-34.351 Y52.224
X-34.342 Y52.31
X-34.311 Y52.536
X-34.298 Y52.614
X-34.091 Y53.63
X-34.065 Y53.734
X-34.03 Y53.835
X-33.948 Y54.045
X-33.904 Y54.146
X-33.85 Y54.243
X-33.719 Y54.457
X-33.692 Y54.499
X-33.641 Y54.575
X-38.549 Y54.574
X-38.571 Y54.571
X-38.575 Y54.413
X-38.573 Y0.021
X-38.571 Y0.004
X-38.514 Y0
X-37.29
X-37.26 Y0.005
X-37.233 Y0.018
X-37.211 Y0.038
X-34.76 Y3.15
X-34.738 Y3.17
X-34.711 Y3.183
X-34.681 Y3.188
X-34.459 Z-2.581 F333.3
X-34.434 Y3.195
X-34.416 Y3.213
X-34.409 Y3.238
X-34.416 Y3.263
X-34.434 Y3.281
X-34.459 Y3.288
X-35.335 Z-2.9
X-35.38 Y3.294
X-35.421 Y3.313
X-35.724 Y3.512
G2 X-35.553 Y3.772 I0.085 J0.13
X-35.545 Y3.518 I-0.085 J-0.13
G3 X-35.126 Y2.958 I0.21 J-0.28 F1000
X-35.545 Y3.518 I-0.21 J0.28
G1 X-35.583 Y3.485 Z-2.887
X-35.607 Y3.458 Z-2.85
X-35.615 Y3.447 Z-2.8
Z4
X-2.945 Y3.815
Z-2.08
X-4.64 Z-2.258 F333.3
X-4.665 Y3.808
X-4.684 Y3.79
X-4.69 Y3.765
X-4.684 Y3.74
X-4.665 Y3.722
X-4.64 Y3.715
X-2.887 Z-2.441
X-2.862 Y3.722
X-2.844 Y3.74
X-2.837 Y3.765
X-2.844 Y3.79
X-2.862 Y3.808
X-2.887 Y3.815
X-4.64 Z-2.625
X-4.665 Y3.808
X-4.684 Y3.79
X-4.69 Y3.765
X-4.684 Y3.74
X-4.665 Y3.722
X-4.64 Y3.715
X-2.887 Z-2.808
X-2.862 Y3.722
X-2.844 Y3.74
X-2.837 Y3.765
X-2.844 Y3.79
X-2.862 Y3.808
X-2.887 Y3.815
X-3.764 Z-2.9
G2 X-4.017 Y3.855 I0 J0.82
G1 X-5.995 Y4.498
G2 X-5.488 Y6.058 I0.253 J0.78
X-5.09 Y4.78 I-0.253 J-0.78
X-6.241 Y3.591 I-5.661 J4.331 F1000
X-6.608 Y3.34 I-1.594 J1.939
G3 X-6.988 Y3.108 I2.905 J-5.185
X-6.651 Y1.989 I0.337 J-0.509
G1 X-3.505
G3 X-1.988 Y3.506 I0 J1.517
G1 X-1.99 Y51.356
G3 X-3.826 Y51.357 I-0.918 J0
X-3.72 Y39.322 I635.639 J-0.396
G2 X-3.613 Y27.288 I-682.673 J-12.055
G1 X-3.672 Y8.28
G2 X-5.09 Y4.78 I-7.079 J0.83
X-7.1 Y4.146 I-1.456 J1.114
G3 X-9.208 Y4.173 I-1.099 J-3.465
G1 X-9.234 Y4.166
X-9.339 Y4.14
X-10.394 Y3.932
X-10.477 Y3.918
X-10.561 Y3.91
X-10.772 Y3.898
X-10.849 Y3.895
X-14.858 Y3.9
X-14.966 Y3.905
X-15.074 Y3.919
X-15.132 Y3.93
X-15.222 Y3.917
X-15.363 Y3.903
X-15.489 Y3.897
X-25.618 Y3.898
X-25.71 Y3.901
X-25.801 Y3.911
X-26.007 Y3.942
X-26.119 Y3.925
X-26.33 Y3.903
X-26.461 Y3.896
X-29.134 Y3.895
X-29.171 Y3.896
X-29.733 Y3.912
X-29.87 Y3.924
X-30.222 Y3.973
X-30.327 Y3.992
X-30.43 Y4.021
X-30.641 Y4.088
X-30.733 Y4.122
X-30.822 Y4.162
X-30.975 Y4.239
X-30.992 Y4.248
X-31.045 Y4.259
X-31.25 Y4.308
X-31.356 Y4.338
X-31.459 Y4.377
X-31.67 Y4.468
X-31.759 Y4.511
X-31.845 Y4.561
X-31.986 Y4.651
X-32.048 Y4.693
X-32.107 Y4.738
X-32.895 Y5.384
X-32.958 Y5.44
X-33.018 Y5.499
X-33.148 Y5.64
X-33.198 Y5.697
X-33.245 Y5.757
X-33.31 Y5.847
X-33.378 Y5.952
X-33.909 Y6.861
X-33.959 Y6.957
X-34.001 Y7.056
X-34.079 Y7.266
X-34.113 Y7.371
X-34.137 Y7.479
X-34.329 Y8.543
X-34.344 Y8.652
X-34.349 Y8.761
X-34.356 Y11.055
X-34.354 Y20.225
X-34.35 Y20.315
X-34.341 Y20.405
X-34.321 Y20.541
X-34.339 Y20.672
X-34.35 Y20.788
X-34.355 Y20.899
Y30.168
X-34.349 Y30.289
X-34.333 Y30.454
X-34.324 Y30.529
X-34.333 Y30.607
X-34.351 Y30.817
X-34.356 Y30.926
X-34.354 Y35.194
X-34.35 Y35.284
X-34.341 Y35.373
X-34.321 Y35.508
X-34.322 Y35.515
X-34.341 Y35.655
X-34.349 Y35.738
X-34.352 Y35.822
X-34.351 Y40.334
X-34.347 Y40.433
X-34.335 Y40.532
X-34.321 Y40.62
X-34.335 Y40.704
X-34.344 Y40.79
X-34.353 Y40.925
X-34.356 Y41.008
X-34.354 Y52.138
X-34.351 Y52.224
X-34.342 Y52.31
X-34.311 Y52.536
X-34.298 Y52.614
X-34.091 Y53.63
X-34.065 Y53.734
X-34.03 Y53.835
X-33.948 Y54.045
X-33.904 Y54.146
X-33.85 Y54.243
X-33.719 Y54.457
X-33.692 Y54.499
X-33.641 Y54.575
X-38.549 Y54.574
X-38.571 Y54.571
X-38.575 Y54.413
X-38.573 Y0.021
X-38.571 Y0.004
X-38.514 Y0
X-0.026 Y0.001
X-0.004 Y0.004
X0 Y0.162
X-0.002 Y54.554
X-0.004 Y54.57
X-0.445 Y54.575
X-6.53
X-6.381 Y54.35
X-6.332 Y54.27
X-6.289 Y54.185
X-6.192 Y53.975
X-6.156 Y53.888
X-6.126 Y53.799
X-6.085 Y53.659
X-6.059 Y53.553
X-5.852 Y52.504
X-5.838 Y52.424
X-5.83 Y52.343
X-5.817 Y52.134
X-5.814 Y52.05
X-5.816 Y48.343
X-5.82 Y48.252
X-5.829 Y48.162
X-5.849 Y48.029
X-5.831 Y47.913
X-5.824 Y47.844
X-5.817 Y47.714
X-5.816 Y43.377
X-5.819 Y43.287
X-5.829 Y43.197
X-5.849 Y43.061
X-5.837 Y42.987
X-5.829 Y42.913
X-5.818 Y42.773
X-5.814 Y42.677
X-5.816 Y38.34
X-5.819 Y38.251
X-5.829 Y38.162
X-5.849 Y38.023
X-5.837 Y37.951
X-5.829 Y37.878
X-5.818 Y37.738
X-5.814 Y37.64
X-5.816 Y33.373
X-5.82 Y33.281
X-5.83 Y33.19
X-5.86 Y32.986
X-5.847 Y32.91
X-5.829 Y32.771
X-5.82 Y32.688
X-5.818 Y32.605
X-5.815 Y28.338
X-5.818 Y28.255
X-5.826 Y28.173
X-5.854 Y27.964
X-5.867 Y27.885
X-5.885 Y27.807
X-5.857 Y27.683
X-5.842 Y27.606
X-5.833 Y27.529
X-5.821 Y27.406
X-5.815 Y27.288
X-5.816 Y8.82
X-5.818 Y8.747
X-5.825 Y8.674
X-5.841 Y8.535
X-5.857 Y8.435
X-6.067 Y7.385
X-6.087 Y7.3
X-6.113 Y7.216
X-6.187 Y7.007
X-6.222 Y6.918
X-6.264 Y6.832
X-6.339 Y6.692
X-6.404 Y6.583
X-7.032 Y5.65
X-7.089 Y5.572
X-7.152 Y5.499
X-7.275 Y5.366
X-7.335 Y5.305
X-7.398 Y5.249
X-7.521 Y5.148
X-7.624 Y5.072
X-8.564 Y4.448
X-8.652 Y4.395
X-8.744 Y4.349
X-8.93 Y4.266
X-9.011 Y4.233
X-9.094 Y4.206
X-9.208 Y4.173
X-9.243 Y4.155
X-9.268 Y4.125
X-9.28 Y4.087
X-9.276 Y4.048
X-9.257 Y4.013
X-9.226 Y3.988
X-8.397 Y3.56
X-8.373 Y3.551
X-8.348 Y3.549
X-3.592 Y3.709
X-3.478 Y3.748
X-3.462 Y3.76
X-3.455 Y3.777
X-3.458 Y3.796
X-3.471 Y3.81
X-3.489 Y3.815
X-3.764 Z-3 F333.3
G2 X-4.017 Y3.855 I0 J0.82
G1 X-5.995 Y4.498
G2 X-5.488 Y6.058 I0.253 J0.78
X-5.09 Y4.78 I-0.253 J-0.78
X-6.241 Y3.591 I-5.661 J4.331 F1000
X-6.608 Y3.34 I-1.594 J1.939
G3 X-6.988 Y3.108 I2.905 J-5.185
X-6.651 Y1.989 I0.337 J-0.509
G1 X-3.505
G3 X-1.988 Y3.506 I0 J1.517
G1 X-1.99 Y51.356
G3 X-3.826 Y51.357 I-0.918 J0
X-3.72 Y39.322 I635.639 J-0.396
G2 X-3.613 Y27.288 I-682.673 J-12.055
G1 X-3.672 Y8.28
G2 X-5.09 Y4.78 I-7.079 J0.83
G1 X-5.101 Y4.757 Z-2.993
X-5.107 Y4.733 Z-2.987
X-5.104 Y4.697 Z-2.95
X-5.099 Y4.684 Z-2.9
Z4
X-35.043 Y3.188
Z-2.48
X-34.459 Z-2.541 F333.3
X-34.434 Y3.195
X-34.416 Y3.213
X-34.409 Y3.238
X-34.416 Y3.263
X-34.434 Y3.281
X-34.459 Y3.288
X-36.212 Z-2.725
X-36.237 Y3.281
