(1001)
(T1  D=0.7 CR=0 - ZMIN=0.05 - flat end mill)
G90 G94
G17
G21
(When using Fusion 360 for Personal Use, the feedrate of rapid moves is reduced to match the feedrate of cutting moves, which can increase machining time. Unrestricted rapid moves are available with a Fusion 360 Subscription.)

(2D Pocket2 4)
T1
S500 M3
G54
M8
G0 X7.095 Y6.283
Z12.15
G1 Z6.15 F450
Z4.18 F80
Z3.95
Y6.278
G3 X7.617 Y6.076 I0.3 J0
G2 X8.129 Y6.303 I0.512 J-0.465
G1 X12.403 F450
G3 X12.627 Y6.609 I0 J0.235
G1 X12.603 Y6.703
G3 X12.373 Y6.891 I-0.23 J-0.048
G1 X7.73
G3 X7.495 Y6.656 I0 J-0.235
G1 Y6.538
G3 X7.73 Y6.303 I0.235 J0
G1 X8.129
X8.176 Y6.296
X8.219 Y6.276
X8.255 Y6.244
X8.279 Y6.203
X8.304 Y6.162
X8.339 Y6.13
X8.382 Y6.11
X8.429 Y6.103
X12.433
G3 X12.824 Y6.651 I0 J0.414
G1 X12.803 Y6.724
X12.789 Y6.799
G3 X12.457 Y7.091 I-0.332 J-0.043
G1 X7.614
G3 X7.295 Y6.771 I0 J-0.319
G1 Y6.422
G3 X7.614 Y6.103 I0.319 J0
G1 X8.429
G3 X8.629 Y6.305 I0 J0.2
X8.425 Y6.503 I-0.2 J-0.002
G1 X7.291 Y6.478
G3 X7.095 Y6.278 I0.004 J-0.2
G1 Y6.216
G3 X7.408 Y5.903 I0.313 J0
G1 X12.663
G3 X12.99 Y6.183 I0 J0.331
G1 X13.002 Y6.241
X13.021 Y6.297
G3 X13.021 Y6.696 I-0.516 J0.2
G1 X13 Y6.765
X12.989 Y6.835
X12.983 Y6.978
G3 X12.67 Y7.291 I-0.313 J0
G1 X7.408
G3 X7.095 Y6.978 I0 J-0.313
G1 Y6.715
X7.091 Y6.685
X7.079 Y6.657
X6.905 Y6.363
X6.893 Y6.335
X6.889 Y6.305
Y5.997
Y5.697
X13.189
Y6.097
G2 X13.539 Y6.447 I0.35 J0
G1 X21.236
X21.302
X21.327 Y6.454
X21.345 Y6.472
X21.352 Y6.497
X21.345 Y6.522
X21.327 Y6.54
X21.302 Y6.547
X21.301
X13.539
G2 X13.189 Y6.897 I0 J0.35
G1 Y7.497
X6.889
Y6.698
X6.893 Y6.668
X6.905 Y6.64
X7.079 Y6.342
X7.091 Y6.314
X7.095 Y6.283
Z3.75 F80
Y6.278
G3 X7.617 Y6.076 I0.3 J0
G2 X8.129 Y6.303 I0.512 J-0.465
G1 X12.403 F450
G3 X12.627 Y6.609 I0 J0.235
G1 X12.603 Y6.703
G3 X12.373 Y6.891 I-0.23 J-0.048
G1 X7.73
G3 X7.495 Y6.656 I0 J-0.235
G1 Y6.538
G3 X7.73 Y6.303 I0.235 J0
G1 X8.129
X8.176 Y6.296
X8.219 Y6.276
X8.255 Y6.244
X8.279 Y6.203
X8.304 Y6.162
X8.339 Y6.13
X8.382 Y6.11
X8.429 Y6.103
X12.433
G3 X12.824 Y6.651 I0 J0.414
G1 X12.803 Y6.724
X12.789 Y6.799
G3 X12.457 Y7.091 I-0.332 J-0.043
G1 X7.614
G3 X7.295 Y6.771 I0 J-0.319
G1 Y6.422
G3 X7.614 Y6.103 I0.319 J0
G1 X8.429
G3 X8.629 Y6.305 I0 J0.2
X8.425 Y6.503 I-0.2 J-0.002
G1 X7.291 Y6.478
G3 X7.095 Y6.278 I0.004 J-0.2
G1 Y6.216
G3 X7.408 Y5.903 I0.313 J0
G1 X12.663
G3 X12.99 Y6.183 I0 J0.331
G1 X13.002 Y6.241
X13.021 Y6.297
G3 X13.021 Y6.696 I-0.516 J0.2
G1 X13 Y6.765
X12.989 Y6.835
X12.983 Y6.978
G3 X12.67 Y7.291 I-0.313 J0
G1 X7.408
G3 X7.095 Y6.978 I0 J-0.313
G1 Y6.715
X7.091 Y6.685
X7.079 Y6.657
X6.905 Y6.363
X6.893 Y6.335
X6.889 Y6.305
Y5.997
Y5.697
X13.189
Y6.097
G2 X13.539 Y6.447 I0.35 J0
G1 X21.236
X21.302
X21.327 Y6.454
X21.345 Y6.472
X21.352 Y6.497
X21.345 Y6.522
X21.327 Y6.54
X21.302 Y6.547
X21.301
X13.539
G2 X13.189 Y6.897 I0 J0.35
G1 Y7.497
X6.889
Y6.698
X6.893 Y6.668
X6.905 Y6.64
X7.079 Y6.342
X7.091 Y6.314
X7.095 Y6.283
Z3.55 F80
Y6.278
G3 X7.617 Y6.076 I0.3 J0
G2 X8.129 Y6.303 I0.512 J-0.465
G1 X12.403 F450
G3 X12.627 Y6.609 I0 J0.235
G1 X12.603 Y6.703
G3 X12.373 Y6.891 I-0.23 J-0.048
G1 X7.73
G3 X7.495 Y6.656 I0 J-0.235
G1 Y6.538
G3 X7.73 Y6.303 I0.235 J0
G1 X8.129
X8.176 Y6.296
X8.219 Y6.276
X8.255 Y6.244
X8.279 Y6.203
X8.304 Y6.162
X8.339 Y6.13
X8.382 Y6.11
X8.429 Y6.103
X12.433
G3 X12.824 Y6.651 I0 J0.414
G1 X12.803 Y6.724
X12.789 Y6.799
G3 X12.457 Y7.091 I-0.332 J-0.043
G1 X7.614
G3 X7.295 Y6.771 I0 J-0.319
G1 Y6.422
G3 X7.614 Y6.103 I0.319 J0
G1 X8.429
G3 X8.629 Y6.305 I0 J0.2
X8.425 Y6.503 I-0.2 J-0.002
G1 X7.291 Y6.478
G3 X7.095 Y6.278 I0.004 J-0.2
G1 Y6.216
G3 X7.408 Y5.903 I0.313 J0
G1 X12.663
G3 X12.99 Y6.183 I0 J0.331
G1 X13.002 Y6.241
X13.021 Y6.297
G3 X13.021 Y6.696 I-0.516 J0.2
G1 X13 Y6.765
X12.989 Y6.835
X12.983 Y6.978
G3 X12.67 Y7.291 I-0.313 J0
G1 X7.408
G3 X7.095 Y6.978 I0 J-0.313
G1 Y6.715
X7.091 Y6.685
X7.079 Y6.657
X6.905 Y6.363
X6.893 Y6.335
X6.889 Y6.305
Y5.997
Y5.697
X13.189
Y6.097
G2 X13.539 Y6.447 I0.35 J0
G1 X21.236
X21.302
X21.327 Y6.454
X21.345 Y6.472
X21.352 Y6.497
X21.345 Y6.522
X21.327 Y6.54
X21.302 Y6.547
X21.301
X13.539
G2 X13.189 Y6.897 I0 J0.35
G1 Y7.497
X6.889
Y6.698
X6.893 Y6.668
X6.905 Y6.64
X7.079 Y6.342
X7.091 Y6.314
X7.095 Y6.283
Z3.35 F80
Y6.278
G3 X7.617 Y6.076 I0.3 J0
G2 X8.129 Y6.303 I0.512 J-0.465
G1 X12.403 F450
G3 X12.627 Y6.609 I0 J0.235
G1 X12.603 Y6.703
G3 X12.373 Y6.891 I-0.23 J-0.048
G1 X7.73
G3 X7.495 Y6.656 I0 J-0.235
G1 Y6.538
G3 X7.73 Y6.303 I0.235 J0
G1 X8.129
X8.176 Y6.296
X8.219 Y6.276
X8.255 Y6.244
X8.279 Y6.203
X8.304 Y6.162
X8.339 Y6.13
X8.382 Y6.11
X8.429 Y6.103
X12.433
G3 X12.824 Y6.651 I0 J0.414
G1 X12.803 Y6.724
X12.789 Y6.799
G3 X12.457 Y7.091 I-0.332 J-0.043
G1 X7.614
G3 X7.295 Y6.771 I0 J-0.319
G1 Y6.422
G3 X7.614 Y6.103 I0.319 J0
G1 X8.429
G3 X8.629 Y6.305 I0 J0.2
X8.425 Y6.503 I-0.2 J-0.002
G1 X7.291 Y6.478
G3 X7.095 Y6.278 I0.004 J-0.2
G1 Y6.216
G3 X7.408 Y5.903 I0.313 J0
G1 X12.663
G3 X12.99 Y6.183 I0 J0.331
G1 X13.002 Y6.241
X13.021 Y6.297
G3 X13.021 Y6.696 I-0.516 J0.2
G1 X13 Y6.765
X12.989 Y6.835
X12.983 Y6.978
G3 X12.67 Y7.291 I-0.313 J0
G1 X7.408
G3 X7.095 Y6.978 I0 J-0.313
G1 Y6.715
X7.091 Y6.685
X7.079 Y6.657
X6.905 Y6.363
X6.893 Y6.335
X6.889 Y6.305
Y5.997
Y5.697
X13.189
Y6.097
G2 X13.539 Y6.447 I0.35 J0
G1 X21.236
X21.302
X21.327 Y6.454
X21.345 Y6.472
X21.352 Y6.497
X21.345 Y6.522
X21.327 Y6.54
X21.302 Y6.547
X21.301
X13.539
G2 X13.189 Y6.897 I0 J0.35
G1 Y7.497
X6.889
Y6.698
X6.893 Y6.668
X6.905 Y6.64
X7.079 Y6.342
X7.091 Y6.314
X7.095 Y6.283
Z3.15 F80
Y6.278
G3 X7.617 Y6.076 I0.3 J0
G2 X8.129 Y6.303 I0.512 J-0.465
G1 X12.403 F450
G3 X12.627 Y6.609 I0 J0.235
G1 X12.603 Y6.703
G3 X12.373 Y6.891 I-0.23 J-0.048
G1 X7.73
G3 X7.495 Y6.656 I0 J-0.235
G1 Y6.538
G3 X7.73 Y6.303 I0.235 J0
G1 X8.129
X8.176 Y6.296
X8.219 Y6.276
X8.255 Y6.244
X8.279 Y6.203
X8.304 Y6.162
X8.339 Y6.13
X8.382 Y6.11
X8.429 Y6.103
X12.433
G3 X12.824 Y6.651 I0 J0.414
G1 X12.803 Y6.724
X12.789 Y6.799
G3 X12.457 Y7.091 I-0.332 J-0.043
G1 X7.614
G3 X7.295 Y6.771 I0 J-0.319
G1 Y6.422
G3 X7.614 Y6.103 I0.319 J0
G1 X8.429
G3 X8.629 Y6.305 I0 J0.2
X8.425 Y6.503 I-0.2 J-0.002
G1 X7.291 Y6.478
G3 X7.095 Y6.278 I0.004 J-0.2
G1 Y6.216
G3 X7.408 Y5.903 I0.313 J0
G1 X12.663
G3 X12.99 Y6.183 I0 J0.331
G1 X13.002 Y6.241
X13.021 Y6.297
G3 X13.021 Y6.696 I-0.516 J0.2
G1 X13 Y6.765
X12.989 Y6.835
X12.983 Y6.978
G3 X12.67 Y7.291 I-0.313 J0
G1 X7.408
G3 X7.095 Y6.978 I0 J-0.313
G1 Y6.715
X7.091 Y6.685
X7.079 Y6.657
X6.905 Y6.363
X6.893 Y6.335
X6.889 Y6.305
Y5.997
Y5.697
X13.189
Y6.097
G2 X13.539 Y6.447 I0.35 J0
G1 X21.236
X21.302
X21.327 Y6.454
X21.345 Y6.472
X21.352 Y6.497
X21.345 Y6.522
X21.327 Y6.54
X21.302 Y6.547
X21.301
X13.539
G2 X13.189 Y6.897 I0 J0.35
G1 Y7.497
X6.889
Y6.698
X6.893 Y6.668
X6.905 Y6.64
X7.079 Y6.342
X7.091 Y6.314
X7.095 Y6.283
Z2.95 F80
Y6.278
G3 X7.617 Y6.076 I0.3 J0
G2 X8.129 Y6.303 I0.512 J-0.465
G1 X12.403 F450
G3 X12.627 Y6.609 I0 J0.235
G1 X12.603 Y6.703
G3 X12.373 Y6.891 I-0.23 J-0.048
G1 X7.73
G3 X7.495 Y6.656 I0 J-0.235
G1 Y6.538
G3 X7.73 Y6.303 I0.235 J0
G1 X8.129
X8.176 Y6.296
X8.219 Y6.276
X8.255 Y6.244
X8.279 Y6.203
X8.304 Y6.162
X8.339 Y6.13
X8.382 Y6.11
X8.429 Y6.103
X12.433
G3 X12.824 Y6.651 I0 J0.414
G1 X12.803 Y6.724
X12.789 Y6.799
G3 X12.457 Y7.091 I-0.332 J-0.043
G1 X7.614
G3 X7.295 Y6.771 I0 J-0.319
G1 Y6.422
G3 X7.614 Y6.103 I0.319 J0
G1 X8.429
G3 X8.629 Y6.305 I0 J0.2
X8.425 Y6.503 I-0.2 J-0.002
G1 X7.291 Y6.478
G3 X7.095 Y6.278 I0.004 J-0.2
G1 Y6.216
G3 X7.408 Y5.903 I0.313 J0
G1 X12.663
G3 X12.99 Y6.183 I0 J0.331
G1 X13.002 Y6.241
X13.021 Y6.297
G3 X13.021 Y6.696 I-0.516 J0.2
G1 X13 Y6.765
X12.989 Y6.835
X12.983 Y6.978
G3 X12.67 Y7.291 I-0.313 J0
G1 X7.408
G3 X7.095 Y6.978 I0 J-0.313
G1 Y6.715
X7.091 Y6.685
X7.079 Y6.657
X6.905 Y6.363
X6.893 Y6.335
X6.889 Y6.305
Y5.997
Y5.697
X13.189
Y6.097
G2 X13.539 Y6.447 I0.35 J0
G1 X21.236
X21.302
X21.327 Y6.454
X21.345 Y6.472
X21.352 Y6.497
X21.345 Y6.522
X21.327 Y6.54
X21.302 Y6.547
X21.301
X13.539
G2 X13.189 Y6.897 I0 J0.35
G1 Y7.497
X6.889
Y6.698
X6.893 Y6.668
X6.905 Y6.64
X7.079 Y6.342
X7.091 Y6.314
X7.095 Y6.283
Z2.75 F80
Y6.278
G3 X7.617 Y6.076 I0.3 J0
G2 X8.129 Y6.303 I0.512 J-0.465
G1 X12.403 F450
G3 X12.627 Y6.609 I0 J0.235
G1 X12.603 Y6.703
G3 X12.373 Y6.891 I-0.23 J-0.048
G1 X7.73
G3 X7.495 Y6.656 I0 J-0.235
G1 Y6.538
G3 X7.73 Y6.303 I0.235 J0
G1 X8.129
X8.176 Y6.296
X8.219 Y6.276
X8.255 Y6.244
X8.279 Y6.203
X8.304 Y6.162
X8.339 Y6.13
X8.382 Y6.11
X8.429 Y6.103
X12.433
G3 X12.824 Y6.651 I0 J0.414
G1 X12.803 Y6.724
X12.789 Y6.799
G3 X12.457 Y7.091 I-0.332 J-0.043
G1 X7.614
G3 X7.295 Y6.771 I0 J-0.319
G1 Y6.422
G3 X7.614 Y6.103 I0.319 J0
G1 X8.429
G3 X8.629 Y6.305 I0 J0.2
X8.425 Y6.503 I-0.2 J-0.002
G1 X7.291 Y6.478
G3 X7.095 Y6.278 I0.004 J-0.2
G1 Y6.216
G3 X7.408 Y5.903 I0.313 J0
G1 X12.663
G3 X12.99 Y6.183 I0 J0.331
G1 X13.002 Y6.241
X13.021 Y6.297
G3 X13.021 Y6.696 I-0.516 J0.2
G1 X13 Y6.765
X12.989 Y6.835
X12.983 Y6.978
G3 X12.67 Y7.291 I-0.313 J0
G1 X7.408
G3 X7.095 Y6.978 I0 J-0.313
G1 Y6.715
X7.091 Y6.685
X7.079 Y6.657
X6.905 Y6.363
X6.893 Y6.335
X6.889 Y6.305
Y5.997
Y5.697
X13.189
Y6.097
G2 X13.539 Y6.447 I0.35 J0
G1 X21.236
X21.302
X21.327 Y6.454
X21.345 Y6.472
X21.352 Y6.497
X21.345 Y6.522
X21.327 Y6.54
X21.302 Y6.547
X21.301
X13.539
G2 X13.189 Y6.897 I0 J0.35
G1 Y7.497
X6.889
Y6.698
X6.893 Y6.668
X6.905 Y6.64
X7.079 Y6.342
X7.091 Y6.314
X7.095 Y6.283
Z2.55 F80
Y6.278
G3 X7.617 Y6.076 I0.3 J0
G2 X8.129 Y6.303 I0.512 J-0.465
G1 X12.403 F450
G3 X12.627 Y6.609 I0 J0.235
G1 X12.603 Y6.703
G3 X12.373 Y6.891 I-0.23 J-0.048
G1 X7.73
G3 X7.495 Y6.656 I0 J-0.235
G1 Y6.538
G3 X7.73 Y6.303 I0.235 J0
G1 X8.129
X8.176 Y6.296
X8.219 Y6.276
X8.255 Y6.244
X8.279 Y6.203
X8.304 Y6.162
X8.339 Y6.13
X8.382 Y6.11
X8.429 Y6.103
X12.433
G3 X12.824 Y6.651 I0 J0.414
G1 X12.803 Y6.724
X12.789 Y6.799
G3 X12.457 Y7.091 I-0.332 J-0.043
G1 X7.614
G3 X7.295 Y6.771 I0 J-0.319
G1 Y6.422
G3 X7.614 Y6.103 I0.319 J0
G1 X8.429
G3 X8.629 Y6.305 I0 J0.2
X8.425 Y6.503 I-0.2 J-0.002
G1 X7.291 Y6.478
G3 X7.095 Y6.278 I0.004 J-0.2
G1 Y6.216
G3 X7.408 Y5.903 I0.313 J0
G1 X12.663
G3 X12.99 Y6.183 I0 J0.331
G1 X13.002 Y6.241
X13.021 Y6.297
G3 X13.021 Y6.696 I-0.516 J0.2
G1 X13 Y6.765
X12.989 Y6.835
X12.983 Y6.978
G3 X12.67 Y7.291 I-0.313 J0
G1 X7.408
G3 X7.095 Y6.978 I0 J-0.313
G1 Y6.715
X7.091 Y6.685
X7.079 Y6.657
X6.905 Y6.363
X6.893 Y6.335
X6.889 Y6.305
Y5.997
Y5.697
X13.189
Y6.097
G2 X13.539 Y6.447 I0.35 J0
G1 X21.236
X21.302
X21.327 Y6.454
X21.345 Y6.472
X21.352 Y6.497
X21.345 Y6.522
X21.327 Y6.54
X21.302 Y6.547
X21.301
X13.539
G2 X13.189 Y6.897 I0 J0.35
G1 Y7.497
X6.889
Y6.698
X6.893 Y6.668
X6.905 Y6.64
X7.079 Y6.342
X7.091 Y6.314
X7.095 Y6.283
Z2.35 F80
Y6.278
G3 X7.617 Y6.076 I0.3 J0
G2 X8.129 Y6.303 I0.512 J-0.465
G1 X12.403 F450
G3 X12.627 Y6.609 I0 J0.235
G1 X12.603 Y6.703
G3 X12.373 Y6.891 I-0.23 J-0.048
G1 X7.73
G3 X7.495 Y6.656 I0 J-0.235
G1 Y6.538
G3 X7.73 Y6.303 I0.235 J0
G1 X8.129
X8.176 Y6.296
X8.219 Y6.276
X8.255 Y6.244
X8.279 Y6.203
X8.304 Y6.162
X8.339 Y6.13
X8.382 Y6.11
X8.429 Y6.103
X12.433
G3 X12.824 Y6.651 I0 J0.414
G1 X12.803 Y6.724
X12.789 Y6.799
G3 X12.457 Y7.091 I-0.332 J-0.043
G1 X7.614
G3 X7.295 Y6.771 I0 J-0.319
G1 Y6.422
G3 X7.614 Y6.103 I0.319 J0
G1 X8.429
G3 X8.629 Y6.305 I0 J0.2
X8.425 Y6.503 I-0.2 J-0.002
G1 X7.291 Y6.478
G3 X7.095 Y6.278 I0.004 J-0.2
G1 Y6.216
G3 X7.408 Y5.903 I0.313 J0
G1 X12.663
G3 X12.99 Y6.183 I0 J0.331
G1 X13.002 Y6.241
X13.021 Y6.297
G3 X13.021 Y6.696 I-0.516 J0.2
G1 X13 Y6.765
X12.989 Y6.835
X12.983 Y6.978
G3 X12.67 Y7.291 I-0.313 J0
G1 X7.408
G3 X7.095 Y6.978 I0 J-0.313
G1 Y6.715
X7.091 Y6.685
X7.079 Y6.657
X6.905 Y6.363
X6.893 Y6.335
X6.889 Y6.305
Y5.997
Y5.697
X13.189
Y6.097
G2 X13.539 Y6.447 I0.35 J0
G1 X21.236
X21.302
X21.327 Y6.454
X21.345 Y6.472
X21.352 Y6.497
X21.345 Y6.522
X21.327 Y6.54
X21.302 Y6.547
X21.301
X13.539
G2 X13.189 Y6.897 I0 J0.35
G1 Y7.497
X6.889
Y6.698
X6.893 Y6.668
X6.905 Y6.64
X7.079 Y6.342
X7.091 Y6.314
X7.095 Y6.283
Z2.15 F80
Y6.278
G3 X7.617 Y6.076 I0.3 J0
G2 X8.129 Y6.303 I0.512 J-0.465
G1 X12.403 F450
G3 X12.627 Y6.609 I0 J0.235
G1 X12.603 Y6.703
G3 X12.373 Y6.891 I-0.23 J-0.048
G1 X7.73
G3 X7.495 Y6.656 I0 J-0.235
G1 Y6.538
G3 X7.73 Y6.303 I0.235 J0
G1 X8.129
X8.176 Y6.296
X8.219 Y6.276
X8.255 Y6.244
X8.279 Y6.203
X8.304 Y6.162
X8.339 Y6.13
X8.382 Y6.11
X8.429 Y6.103
X12.433
G3 X12.824 Y6.651 I0 J0.414
G1 X12.803 Y6.724
X12.789 Y6.799
G3 X12.457 Y7.091 I-0.332 J-0.043
G1 X7.614
G3 X7.295 Y6.771 I0 J-0.319
G1 Y6.422
G3 X7.614 Y6.103 I0.319 J0
G1 X8.429
G3 X8.629 Y6.305 I0 J0.2
X8.425 Y6.503 I-0.2 J-0.002
G1 X7.291 Y6.478
G3 X7.095 Y6.278 I0.004 J-0.2
G1 Y6.216
G3 X7.408 Y5.903 I0.313 J0
G1 X12.663
G3 X12.99 Y6.183 I0 J0.331
G1 X13.002 Y6.241
X13.021 Y6.297
G3 X13.021 Y6.696 I-0.516 J0.2
G1 X13 Y6.765
X12.989 Y6.835
X12.983 Y6.978
G3 X12.67 Y7.291 I-0.313 J0
G1 X7.408
G3 X7.095 Y6.978 I0 J-0.313
G1 Y6.715
X7.091 Y6.685
X7.079 Y6.657
X6.905 Y6.363
X6.893 Y6.335
X6.889 Y6.305
Y5.997
Y5.697
X13.189
Y6.097
G2 X13.539 Y6.447 I0.35 J0
G1 X21.236
X21.302
X21.327 Y6.454
X21.345 Y6.472
X21.352 Y6.497
X21.345 Y6.522
X21.327 Y6.54
X21.302 Y6.547
X21.301
X13.539
G2 X13.189 Y6.897 I0 J0.35
G1 Y7.497
X6.889
Y6.698
X6.893 Y6.668
X6.905 Y6.64
X7.079 Y6.342
X7.091 Y6.314
X7.095 Y6.283
Z1.95 F80
Y6.278
G3 X7.617 Y6.076 I0.3 J0
G2 X8.129 Y6.303 I0.512 J-0.465
G1 X12.403 F450
G3 X12.627 Y6.609 I0 J0.235
G1 X12.603 Y6.703
G3 X12.373 Y6.891 I-0.23 J-0.048
G1 X7.73
G3 X7.495 Y6.656 I0 J-0.235
G1 Y6.538
G3 X7.73 Y6.303 I0.235 J0
G1 X8.129
X8.176 Y6.296
X8.219 Y6.276
X8.255 Y6.244
X8.279 Y6.203
X8.304 Y6.162
X8.339 Y6.13
X8.382 Y6.11
X8.429 Y6.103
X12.433
G3 X12.824 Y6.651 I0 J0.414
G1 X12.803 Y6.724
X12.789 Y6.799
G3 X12.457 Y7.091 I-0.332 J-0.043
G1 X7.614
G3 X7.295 Y6.771 I0 J-0.319
G1 Y6.422
G3 X7.614 Y6.103 I0.319 J0
G1 X8.429
G3 X8.629 Y6.305 I0 J0.2
X8.425 Y6.503 I-0.2 J-0.002
G1 X7.291 Y6.478
G3 X7.095 Y6.278 I0.004 J-0.2
G1 Y6.216
G3 X7.408 Y5.903 I0.313 J0
G1 X12.663
G3 X12.99 Y6.183 I0 J0.331
G1 X13.002 Y6.241
X13.021 Y6.297
G3 X13.021 Y6.696 I-0.516 J0.2
G1 X13 Y6.765
X12.989 Y6.835
X12.983 Y6.978
G3 X12.67 Y7.291 I-0.313 J0
G1 X7.408
G3 X7.095 Y6.978 I0 J-0.313
G1 Y6.715
X7.091 Y6.685
X7.079 Y6.657
X6.905 Y6.363
X6.893 Y6.335
X6.889 Y6.305
Y5.997
Y5.697
X13.189
Y6.097
G2 X13.539 Y6.447 I0.35 J0
G1 X21.236
X21.302
X21.327 Y6.454
X21.345 Y6.472
X21.352 Y6.497
X21.345 Y6.522
X21.327 Y6.54
X21.302 Y6.547
X21.301
X13.539
G2 X13.189 Y6.897 I0 J0.35
G1 Y7.497
X6.889
Y6.698
X6.893 Y6.668
X6.905 Y6.64
X7.079 Y6.342
X7.091 Y6.314
X7.095 Y6.283
Z1.75 F80
Y6.278
G3 X7.617 Y6.076 I0.3 J0
G2 X8.129 Y6.303 I0.512 J-0.465
G1 X12.403 F450
G3 X12.627 Y6.609 I0 J0.235
G1 X12.603 Y6.703
G3 X12.373 Y6.891 I-0.23 J-0.048
G1 X7.73
G3 X7.495 Y6.656 I0 J-0.235
G1 Y6.538
G3 X7.73 Y6.303 I0.235 J0
G1 X8.129
X8.176 Y6.296
X8.219 Y6.276
X8.255 Y6.244
X8.279 Y6.203
X8.304 Y6.162
X8.339 Y6.13
X8.382 Y6.11
X8.429 Y6.103
X12.433
G3 X12.824 Y6.651 I0 J0.414
G1 X12.803 Y6.724
X12.789 Y6.799
G3 X12.457 Y7.091 I-0.332 J-0.043
G1 X7.614
G3 X7.295 Y6.771 I0 J-0.319
G1 Y6.422
G3 X7.614 Y6.103 I0.319 J0
G1 X8.429
G3 X8.629 Y6.305 I0 J0.2
X8.425 Y6.503 I-0.2 J-0.002
G1 X7.291 Y6.478
G3 X7.095 Y6.278 I0.004 J-0.2
G1 Y6.216
G3 X7.408 Y5.903 I0.313 J0
G1 X12.663
G3 X12.99 Y6.183 I0 J0.331
G1 X13.002 Y6.241
X13.021 Y6.297
G3 X13.021 Y6.696 I-0.516 J0.2
G1 X13 Y6.765
X12.989 Y6.835
X12.983 Y6.978
G3 X12.67 Y7.291 I-0.313 J0
G1 X7.408
G3 X7.095 Y6.978 I0 J-0.313
G1 Y6.715
X7.091 Y6.685
X7.079 Y6.657
X6.905 Y6.363
X6.893 Y6.335
X6.889 Y6.305
Y5.997
Y5.697
X13.189
Y6.097
G2 X13.539 Y6.447 I0.35 J0
G1 X21.236
X21.302
X21.327 Y6.454
X21.345 Y6.472
X21.352 Y6.497
X21.345 Y6.522
X21.327 Y6.54
X21.302 Y6.547
X21.301
X13.539
G2 X13.189 Y6.897 I0 J0.35
G1 Y7.497
X6.889
Y6.698
X6.893 Y6.668
X6.905 Y6.64
X7.079 Y6.342
X7.091 Y6.314
X7.095 Y6.283
Z1.55 F80
Y6.278
G3 X7.617 Y6.076 I0.3 J0
G2 X8.129 Y6.303 I0.512 J-0.465
G1 X12.403 F450
G3 X12.627 Y6.609 I0 J0.235
G1 X12.603 Y6.703
G3 X12.373 Y6.891 I-0.23 J-0.048
G1 X7.73
G3 X7.495 Y6.656 I0 J-0.235
G1 Y6.538
G3 X7.73 Y6.303 I0.235 J0
G1 X8.129
X8.176 Y6.296
X8.219 Y6.276
X8.255 Y6.244
X8.279 Y6.203
X8.304 Y6.162
X8.339 Y6.13
X8.382 Y6.11
X8.429 Y6.103
X12.433
G3 X12.824 Y6.651 I0 J0.414
G1 X12.803 Y6.724
X12.789 Y6.799
G3 X12.457 Y7.091 I-0.332 J-0.043
G1 X7.614
G3 X7.295 Y6.771 I0 J-0.319
G1 Y6.422
G3 X7.614 Y6.103 I0.319 J0
G1 X8.429
G3 X8.629 Y6.305 I0 J0.2
X8.425 Y6.503 I-0.2 J-0.002
G1 X7.291 Y6.478
G3 X7.095 Y6.278 I0.004 J-0.2
G1 Y6.216
G3 X7.408 Y5.903 I0.313 J0
G1 X12.663
G3 X12.99 Y6.183 I0 J0.331
G1 X13.002 Y6.241
X13.021 Y6.297
G3 X13.021 Y6.696 I-0.516 J0.2
G1 X13 Y6.765
X12.989 Y6.835
X12.983 Y6.978
G3 X12.67 Y7.291 I-0.313 J0
G1 X7.408
G3 X7.095 Y6.978 I0 J-0.313
G1 Y6.715
X7.091 Y6.685
X7.079 Y6.657
X6.905 Y6.363
X6.893 Y6.335
X6.889 Y6.305
Y5.997
Y5.697
X13.189
Y6.097
G2 X13.539 Y6.447 I0.35 J0
G1 X21.236
X21.302
X21.327 Y6.454
X21.345 Y6.472
X21.352 Y6.497
X21.345 Y6.522
X21.327 Y6.54
X21.302 Y6.547
X21.301
X13.539
G2 X13.189 Y6.897 I0 J0.35
G1 Y7.497
X6.889
Y6.698
X6.893 Y6.668
X6.905 Y6.64
X7.079 Y6.342
X7.091 Y6.314
X7.095 Y6.283
Z1.35 F80
Y6.278
G3 X7.617 Y6.076 I0.3 J0
G2 X8.129 Y6.303 I0.512 J-0.465
G1 X12.403 F450
G3 X12.627 Y6.609 I0 J0.235
G1 X12.603 Y6.703
G3 X12.373 Y6.891 I-0.23 J-0.048
G1 X7.73
G3 X7.495 Y6.656 I0 J-0.235
G1 Y6.538
G3 X7.73 Y6.303 I0.235 J0
G1 X8.129
X8.176 Y6.296
X8.219 Y6.276
X8.255 Y6.244
X8.279 Y6.203
X8.304 Y6.162
X8.339 Y6.13
X8.382 Y6.11
X8.429 Y6.103
X12.433
G3 X12.824 Y6.651 I0 J0.414
G1 X12.803 Y6.724
X12.789 Y6.799
G3 X12.457 Y7.091 I-0.332 J-0.043
G1 X7.614
G3 X7.295 Y6.771 I0 J-0.319
G1 Y6.422
G3 X7.614 Y6.103 I0.319 J0
G1 X8.429
G3 X8.629 Y6.305 I0 J0.2
X8.425 Y6.503 I-0.2 J-0.002
G1 X7.291 Y6.478
G3 X7.095 Y6.278 I0.004 J-0.2
G1 Y6.216
G3 X7.408 Y5.903 I0.313 J0
G1 X12.663
G3 X12.99 Y6.183 I0 J0.331
G1 X13.002 Y6.241
X13.021 Y6.297
G3 X13.021 Y6.696 I-0.516 J0.2
G1 X13 Y6.765
X12.989 Y6.835
X12.983 Y6.978
G3 X12.67 Y7.291 I-0.313 J0
G1 X7.408
G3 X7.095 Y6.978 I0 J-0.313
G1 Y6.715
X7.091 Y6.685
X7.079 Y6.657
X6.905 Y6.363
X6.893 Y6.335
X6.889 Y6.305
Y5.997
Y5.697
X13.189
Y6.097
G2 X13.539 Y6.447 I0.35 J0
G1 X21.236
X21.302
X21.327 Y6.454
X21.345 Y6.472
X21.352 Y6.497
X21.345 Y6.522
X21.327 Y6.54
X21.302 Y6.547
X21.301
X13.539
G2 X13.189 Y6.897 I0 J0.35
G1 Y7.497
X6.889
Y6.698
X6.893 Y6.668
X6.905 Y6.64
X7.079 Y6.342
X7.091 Y6.314
X7.095 Y6.283
Z1.15 F80
Y6.278
G3 X7.617 Y6.076 I0.3 J0
G2 X8.129 Y6.303 I0.512 J-0.465
G1 X12.403 F450
G3 X12.627 Y6.609 I0 J0.235
G1 X12.603 Y6.703
G3 X12.373 Y6.891 I-0.23 J-0.048
G1 X7.73
G3 X7.495 Y6.656 I0 J-0.235
G1 Y6.538
G3 X7.73 Y6.303 I0.235 J0
G1 X8.129
X8.176 Y6.296
X8.219 Y6.276
X8.255 Y6.244
X8.279 Y6.203
X8.304 Y6.162
X8.339 Y6.13
X8.382 Y6.11
X8.429 Y6.103
X12.433
G3 X12.824 Y6.651 I0 J0.414
G1 X12.803 Y6.724
X12.789 Y6.799
G3 X12.457 Y7.091 I-0.332 J-0.043
G1 X7.614
G3 X7.295 Y6.771 I0 J-0.319
G1 Y6.422
G3 X7.614 Y6.103 I0.319 J0
G1 X8.429
G3 X8.629 Y6.305 I0 J0.2
X8.425 Y6.503 I-0.2 J-0.002
G1 X7.291 Y6.478
G3 X7.095 Y6.278 I0.004 J-0.2
G1 Y6.216
G3 X7.408 Y5.903 I0.313 J0
G1 X12.663
G3 X12.99 Y6.183 I0 J0.331
G1 X13.002 Y6.241
X13.021 Y6.297
G3 X13.021 Y6.696 I-0.516 J0.2
G1 X13 Y6.765
X12.989 Y6.835
X12.983 Y6.978
G3 X12.67 Y7.291 I-0.313 J0
G1 X7.408
G3 X7.095 Y6.978 I0 J-0.313
G1 Y6.715
X7.091 Y6.685
X7.079 Y6.657
X6.905 Y6.363
X6.893 Y6.335
X6.889 Y6.305
Y5.997
Y5.697
X13.189
Y6.097
G2 X13.539 Y6.447 I0.35 J0
G1 X21.236
X21.302
X21.327 Y6.454
X21.345 Y6.472
X21.352 Y6.497
X21.345 Y6.522
X21.327 Y6.54
X21.302 Y6.547
X21.301
X13.539
G2 X13.189 Y6.897 I0 J0.35
G1 Y7.497
X6.889
Y6.698
X6.893 Y6.668
X6.905 Y6.64
X7.079 Y6.342
X7.091 Y6.314
X7.095 Y6.283
Z0.95 F80
Y6.278
G3 X7.617 Y6.076 I0.3 J0
G2 X8.129 Y6.303 I0.512 J-0.465
G1 X12.403 F450
G3 X12.627 Y6.609 I0 J0.235
G1 X12.603 Y6.703
G3 X12.373 Y6.891 I-0.23 J-0.048
G1 X7.73
G3 X7.495 Y6.656 I0 J-0.235
G1 Y6.538
G3 X7.73 Y6.303 I0.235 J0
G1 X8.129
X8.176 Y6.296
X8.219 Y6.276
X8.255 Y6.244
X8.279 Y6.203
X8.304 Y6.162
X8.339 Y6.13
X8.382 Y6.11
X8.429 Y6.103
X12.433
G3 X12.824 Y6.651 I0 J0.414
G1 X12.803 Y6.724
X12.789 Y6.799
G3 X12.457 Y7.091 I-0.332 J-0.043
G1 X7.614
G3 X7.295 Y6.771 I0 J-0.319
G1 Y6.422
G3 X7.614 Y6.103 I0.319 J0
G1 X8.429
G3 X8.629 Y6.305 I0 J0.2
X8.425 Y6.503 I-0.2 J-0.002
G1 X7.291 Y6.478
G3 X7.095 Y6.278 I0.004 J-0.2
G1 Y6.216
G3 X7.408 Y5.903 I0.313 J0
G1 X12.663
G3 X12.99 Y6.183 I0 J0.331
G1 X13.002 Y6.241
X13.021 Y6.297
G3 X13.021 Y6.696 I-0.516 J0.2
G1 X13 Y6.765
X12.989 Y6.835
X12.983 Y6.978
G3 X12.67 Y7.291 I-0.313 J0
G1 X7.408
G3 X7.095 Y6.978 I0 J-0.313
G1 Y6.715
X7.091 Y6.685
X7.079 Y6.657
X6.905 Y6.363
X6.893 Y6.335
X6.889 Y6.305
Y5.997
Y5.697
X13.189
Y6.097
G2 X13.539 Y6.447 I0.35 J0
G1 X21.236
X21.302
X21.327 Y6.454
X21.345 Y6.472
X21.352 Y6.497
X21.345 Y6.522
X21.327 Y6.54
X21.302 Y6.547
X21.301
X13.539
G2 X13.189 Y6.897 I0 J0.35
G1 Y7.497
X6.889
Y6.698
X6.893 Y6.668
X6.905 Y6.64
X7.079 Y6.342
X7.091 Y6.314
X7.095 Y6.283
Z0.75 F80
Y6.278
G3 X7.617 Y6.076 I0.3 J0
G2 X8.129 Y6.303 I0.512 J-0.465
G1 X12.403 F450
G3 X12.627 Y6.609 I0 J0.235
G1 X12.603 Y6.703
G3 X12.373 Y6.891 I-0.23 J-0.048
G1 X7.73
G3 X7.495 Y6.656 I0 J-0.235
G1 Y6.538
G3 X7.73 Y6.303 I0.235 J0
G1 X8.129
X8.176 Y6.296
X8.219 Y6.276
X8.255 Y6.244
X8.279 Y6.203
X8.304 Y6.162
X8.339 Y6.13
X8.382 Y6.11
X8.429 Y6.103
X12.433
G3 X12.824 Y6.651 I0 J0.414
G1 X12.803 Y6.724
X12.789 Y6.799
G3 X12.457 Y7.091 I-0.332 J-0.043
G1 X7.614
G3 X7.295 Y6.771 I0 J-0.319
G1 Y6.422
G3 X7.614 Y6.103 I0.319 J0
G1 X8.429
G3 X8.629 Y6.305 I0 J0.2
X8.425 Y6.503 I-0.2 J-0.002
G1 X7.291 Y6.478
G3 X7.095 Y6.278 I0.004 J-0.2
G1 Y6.216
G3 X7.408 Y5.903 I0.313 J0
G1 X12.663
G3 X12.99 Y6.183 I0 J0.331
G1 X13.002 Y6.241
X13.021 Y6.297
G3 X13.021 Y6.696 I-0.516 J0.2
G1 X13 Y6.765
X12.989 Y6.835
X12.983 Y6.978
G3 X12.67 Y7.291 I-0.313 J0
G1 X7.408
G3 X7.095 Y6.978 I0 J-0.313
G1 Y6.715
X7.091 Y6.685
X7.079 Y6.657
X6.905 Y6.363
X6.893 Y6.335
X6.889 Y6.305
Y5.997
Y5.697
X13.189
Y6.097
G2 X13.539 Y6.447 I0.35 J0
G1 X21.236
X21.302
X21.327 Y6.454
X21.345 Y6.472
X21.352 Y6.497
X21.345 Y6.522
X21.327 Y6.54
X21.302 Y6.547
X21.301
X13.539
G2 X13.189 Y6.897 I0 J0.35
G1 Y7.497
X6.889
Y6.698
X6.893 Y6.668
X6.905 Y6.64
X7.079 Y6.342
X7.091 Y6.314
X7.095 Y6.283
Z0.55 F80
Y6.278
G3 X7.617 Y6.076 I0.3 J0
G2 X8.129 Y6.303 I0.512 J-0.465
G1 X12.403 F450
G3 X12.627 Y6.609 I0 J0.235
G1 X12.603 Y6.703
G3 X12.373 Y6.891 I-0.23 J-0.048
G1 X7.73
G3 X7.495 Y6.656 I0 J-0.235
G1 Y6.538
G3 X7.73 Y6.303 I0.235 J0
G1 X8.129
X8.176 Y6.296
X8.219 Y6.276
X8.255 Y6.244
X8.279 Y6.203
X8.304 Y6.162
X8.339 Y6.13
X8.382 Y6.11
X8.429 Y6.103
X12.433
G3 X12.824 Y6.651 I0 J0.414
G1 X12.803 Y6.724
X12.789 Y6.799
G3 X12.457 Y7.091 I-0.332 J-0.043
G1 X7.614
G3 X7.295 Y6.771 I0 J-0.319
G1 Y6.422
G3 X7.614 Y6.103 I0.319 J0
G1 X8.429
G3 X8.629 Y6.305 I0 J0.2
X8.425 Y6.503 I-0.2 J-0.002
G1 X7.291 Y6.478
G3 X7.095 Y6.278 I0.004 J-0.2
G1 Y6.216
G3 X7.408 Y5.903 I0.313 J0
G1 X12.663
G3 X12.99 Y6.183 I0 J0.331
G1 X13.002 Y6.241
X13.021 Y6.297
G3 X13.021 Y6.696 I-0.516 J0.2
G1 X13 Y6.765
X12.989 Y6.835
X12.983 Y6.978
G3 X12.67 Y7.291 I-0.313 J0
G1 X7.408
G3 X7.095 Y6.978 I0 J-0.313
G1 Y6.715
X7.091 Y6.685
X7.079 Y6.657
X6.905 Y6.363
X6.893 Y6.335
X6.889 Y6.305
Y5.997
Y5.697
X13.189
Y6.097
G2 X13.539 Y6.447 I0.35 J0
G1 X21.236
X21.302
X21.327 Y6.454
X21.345 Y6.472
X21.352 Y6.497
X21.345 Y6.522
X21.327 Y6.54
X21.302 Y6.547
X21.301
X13.539
G2 X13.189 Y6.897 I0 J0.35
G1 Y7.497
X6.889
Y6.698
X6.893 Y6.668
X6.905 Y6.64
X7.079 Y6.342
X7.091 Y6.314
X7.095 Y6.283
Z0.35 F80
Y6.278
G3 X7.617 Y6.076 I0.3 J0
G2 X8.129 Y6.303 I0.512 J-0.465
G1 X12.403 F450
G3 X12.627 Y6.609 I0 J0.235
G1 X12.603 Y6.703
G3 X12.373 Y6.891 I-0.23 J-0.048
G1 X7.73
G3 X7.495 Y6.656 I0 J-0.235
G1 Y6.538
G3 X7.73 Y6.303 I0.235 J0
G1 X8.129
X8.176 Y6.296
X8.219 Y6.276
X8.255 Y6.244
X8.279 Y6.203
X8.304 Y6.162
X8.339 Y6.13
X8.382 Y6.11
X8.429 Y6.103
X12.433
G3 X12.824 Y6.651 I0 J0.414
G1 X12.803 Y6.724
X12.789 Y6.799
G3 X12.457 Y7.091 I-0.332 J-0.043
G1 X7.614
G3 X7.295 Y6.771 I0 J-0.319
G1 Y6.422
G3 X7.614 Y6.103 I0.319 J0
G1 X8.429
G3 X8.629 Y6.305 I0 J0.2
X8.425 Y6.503 I-0.2 J-0.002
G1 X7.291 Y6.478
G3 X7.095 Y6.278 I0.004 J-0.2
G1 Y6.216
G3 X7.408 Y5.903 I0.313 J0
G1 X12.663
G3 X12.99 Y6.183 I0 J0.331
G1 X13.002 Y6.241
X13.021 Y6.297
G3 X13.021 Y6.696 I-0.516 J0.2
G1 X13 Y6.765
X12.989 Y6.835
X12.983 Y6.978
G3 X12.67 Y7.291 I-0.313 J0
G1 X7.408
G3 X7.095 Y6.978 I0 J-0.313
G1 Y6.715
X7.091 Y6.685
X7.079 Y6.657
X6.905 Y6.363
X6.893 Y6.335
X6.889 Y6.305
Y5.997
Y5.697
X13.189
Y6.097
G2 X13.539 Y6.447 I0.35 J0
G1 X21.236
X21.302
X21.327 Y6.454
X21.345 Y6.472
X21.352 Y6.497
X21.345 Y6.522
X21.327 Y6.54
X21.302 Y6.547
X21.301
X13.539
G2 X13.189 Y6.897 I0 J0.35
G1 Y7.497
X6.889
Y6.698
X6.893 Y6.668
X6.905 Y6.64
X7.079 Y6.342
X7.091 Y6.314
X7.095 Y6.283
Z0.15 F80
Y6.278
G3 X7.617 Y6.076 I0.3 J0
G2 X8.129 Y6.303 I0.512 J-0.465
G1 X12.403 F450
G3 X12.627 Y6.609 I0 J0.235
G1 X12.603 Y6.703
G3 X12.373 Y6.891 I-0.23 J-0.048
G1 X7.73
G3 X7.495 Y6.656 I0 J-0.235
G1 Y6.538
G3 X7.73 Y6.303 I0.235 J0
G1 X8.129
X8.176 Y6.296
X8.219 Y6.276
X8.255 Y6.244
X8.279 Y6.203
X8.304 Y6.162
X8.339 Y6.13
X8.382 Y6.11
X8.429 Y6.103
X12.433
G3 X12.824 Y6.651 I0 J0.414
G1 X12.803 Y6.724
X12.789 Y6.799
G3 X12.457 Y7.091 I-0.332 J-0.043
G1 X7.614
G3 X7.295 Y6.771 I0 J-0.319
G1 Y6.422
G3 X7.614 Y6.103 I0.319 J0
G1 X8.429
G3 X8.629 Y6.305 I0 J0.2
X8.425 Y6.503 I-0.2 J-0.002
G1 X7.291 Y6.478
G3 X7.095 Y6.278 I0.004 J-0.2
G1 Y6.216
G3 X7.408 Y5.903 I0.313 J0
G1 X12.663
G3 X12.99 Y6.183 I0 J0.331
G1 X13.002 Y6.241
X13.021 Y6.297
G3 X13.021 Y6.696 I-0.516 J0.2
G1 X13 Y6.765
X12.989 Y6.835
X12.983 Y6.978
G3 X12.67 Y7.291 I-0.313 J0
G1 X7.408
G3 X7.095 Y6.978 I0 J-0.313
G1 Y6.715
X7.091 Y6.685
X7.079 Y6.657
X6.905 Y6.363
X6.893 Y6.335
X6.889 Y6.305
Y5.997
Y5.697
X13.189
Y6.097
G2 X13.539 Y6.447 I0.35 J0
G1 X21.236
X21.302
X21.327 Y6.454
X21.345 Y6.472
X21.352 Y6.497
X21.345 Y6.522
X21.327 Y6.54
X21.302 Y6.547
X21.301
X13.539
G2 X13.189 Y6.897 I0 J0.35
G1 Y7.497
X6.889
Y6.698
Z12.15
X21.483 Y4.208
Z6.15
Z4.18 F80
Z3.95
Y4.219
G3 X21.072 Y4.49 I-0.295 J0
G2 X20.589 Y4.391 I-0.483 J1.125
G1 X16.206 F450
G3 X15.975 Y4.203 I0 J-0.235
G1 X15.951 Y4.109
G3 X16.175 Y3.803 I0.224 J-0.071
G1 X20.848
G3 X21.083 Y4.038 I0 J0.235
G1 Y4.156
G3 X20.848 Y4.391 I-0.235 J0
G1 X20.589
X20.542 Y4.398
X20.499 Y4.418
X20.464 Y4.45
X20.439 Y4.491
X20.415 Y4.532
X20.379 Y4.564
X20.336 Y4.584
X20.289 Y4.591
X16.121
G3 X15.789 Y4.299 I0 J-0.335
G1 X15.775 Y4.224
X15.754 Y4.151
G3 X16.145 Y3.603 I0.391 J-0.135
G1 X20.964
G3 X21.283 Y3.922 I0 J0.319
G1 Y4.271
G3 X20.964 Y4.591 I-0.319 J0
G1 X20.289
G3 X20.255 Y4.194 I0 J-0.2
G1 X21.249 Y4.022
G3 X21.483 Y4.219 I0.034 J0.197
G1 Y4.478
G3 X21.17 Y4.791 I-0.313 J0
G1 X15.908
G3 X15.595 Y4.478 I0 J-0.313
G1 X15.589 Y4.335
X15.578 Y4.265
X15.558 Y4.196
G3 X15.558 Y3.797 I0.516 J-0.2
G1 X15.576 Y3.741
X15.588 Y3.683
G3 X15.915 Y3.403 I0.327 J0.051
G1 X21.17
G3 X21.483 Y3.716 I0 J0.313
G1 Y3.781
X21.487 Y3.812
X21.499 Y3.84
X21.673 Y4.138
X21.685 Y4.167
X21.689 Y4.197
Y4.997
X15.389
Y4.397
G2 X15.039 Y4.047 I-0.35 J0
G1 X9.141
Y1.447
X21.236
X21.302
X21.327 Y1.454
X21.345 Y1.472
X21.352 Y1.497
X21.345 Y1.522
X21.327 Y1.54
X21.301 Y1.547
X21.3
X9.591
G2 X9.241 Y1.897 I0 J0.35
G1 Y3.597
G2 X9.591 Y3.947 I0.35 J0
G1 X15.039
G2 X15.389 Y3.597 I0 J-0.35
G1 Y3.197
X21.689
Y3.803
X21.685 Y3.833
X21.673 Y3.862
X21.499 Y4.149
X21.487 Y4.177
X21.483 Y4.208
Z3.75 F80
Y4.219
G3 X21.072 Y4.49 I-0.295 J0
G2 X20.589 Y4.391 I-0.483 J1.125
G1 X16.206 F450
G3 X15.975 Y4.203 I0 J-0.235
G1 X15.951 Y4.109
G3 X16.175 Y3.803 I0.224 J-0.071
G1 X20.848
G3 X21.083 Y4.038 I0 J0.235
G1 Y4.156
G3 X20.848 Y4.391 I-0.235 J0
G1 X20.589
X20.542 Y4.398
X20.499 Y4.418
X20.464 Y4.45
X20.439 Y4.491
X20.415 Y4.532
X20.379 Y4.564
X20.336 Y4.584
X20.289 Y4.591
X16.121
G3 X15.789 Y4.299 I0 J-0.335
G1 X15.775 Y4.224
X15.754 Y4.151
G3 X16.145 Y3.603 I0.391 J-0.135
G1 X20.964
G3 X21.283 Y3.922 I0 J0.319
G1 Y4.271
G3 X20.964 Y4.591 I-0.319 J0
G1 X20.289
G3 X20.255 Y4.194 I0 J-0.2
G1 X21.249 Y4.022
G3 X21.483 Y4.219 I0.034 J0.197
G1 Y4.478
G3 X21.17 Y4.791 I-0.313 J0
G1 X15.908
G3 X15.595 Y4.478 I0 J-0.313
G1 X15.589 Y4.335
X15.578 Y4.265
X15.558 Y4.196
G3 X15.558 Y3.797 I0.516 J-0.2
G1 X15.576 Y3.741
X15.588 Y3.683
G3 X15.915 Y3.403 I0.327 J0.051
G1 X21.17
G3 X21.483 Y3.716 I0 J0.313
G1 Y3.781
X21.487 Y3.812
X21.499 Y3.84
X21.673 Y4.138
X21.685 Y4.167
X21.689 Y4.197
Y4.997
X15.389
Y4.397
G2 X15.039 Y4.047 I-0.35 J0
G1 X9.141
Y1.447
X21.236
X21.302
X21.327 Y1.454
X21.345 Y1.472
X21.352 Y1.497
X21.345 Y1.522
X21.327 Y1.54
X21.301 Y1.547
X21.3
X9.591
G2 X9.241 Y1.897 I0 J0.35
G1 Y3.597
G2 X9.591 Y3.947 I0.35 J0
G1 X15.039
G2 X15.389 Y3.597 I0 J-0.35
G1 Y3.197
X21.689
Y3.803
X21.685 Y3.833
X21.673 Y3.862
X21.499 Y4.149
X21.487 Y4.177
X21.483 Y4.208
Z3.55 F80
Y4.219
G3 X21.072 Y4.49 I-0.295 J0
G2 X20.589 Y4.391 I-0.483 J1.125
G1 X16.206 F450
G3 X15.975 Y4.203 I0 J-0.235
G1 X15.951 Y4.109
G3 X16.175 Y3.803 I0.224 J-0.071
G1 X20.848
G3 X21.083 Y4.038 I0 J0.235
G1 Y4.156
G3 X20.848 Y4.391 I-0.235 J0
G1 X20.589
X20.542 Y4.398
X20.499 Y4.418
X20.464 Y4.45
X20.439 Y4.491
X20.415 Y4.532
X20.379 Y4.564
X20.336 Y4.584
X20.289 Y4.591
X16.121
G3 X15.789 Y4.299 I0 J-0.335
G1 X15.775 Y4.224
X15.754 Y4.151
G3 X16.145 Y3.603 I0.391 J-0.135
G1 X20.964
G3 X21.283 Y3.922 I0 J0.319
G1 Y4.271
G3 X20.964 Y4.591 I-0.319 J0
G1 X20.289
G3 X20.255 Y4.194 I0 J-0.2
G1 X21.249 Y4.022
G3 X21.483 Y4.219 I0.034 J0.197
G1 Y4.478
G3 X21.17 Y4.791 I-0.313 J0
G1 X15.908
G3 X15.595 Y4.478 I0 J-0.313
G1 X15.589 Y4.335
X15.578 Y4.265
X15.558 Y4.196
G3 X15.558 Y3.797 I0.516 J-0.2
G1 X15.576 Y3.741
X15.588 Y3.683
G3 X15.915 Y3.403 I0.327 J0.051
G1 X21.17
G3 X21.483 Y3.716 I0 J0.313
G1 Y3.781
X21.487 Y3.812
X21.499 Y3.84
X21.673 Y4.138
X21.685 Y4.167
X21.689 Y4.197
Y4.997
X15.389
Y4.397
G2 X15.039 Y4.047 I-0.35 J0
G1 X9.141
Y1.447
X21.236
X21.302
X21.327 Y1.454
X21.345 Y1.472
X21.352 Y1.497
X21.345 Y1.522
X21.327 Y1.54
X21.301 Y1.547
X21.3
X9.591
G2 X9.241 Y1.897 I0 J0.35
G1 Y3.597
G2 X9.591 Y3.947 I0.35 J0
G1 X15.039
G2 X15.389 Y3.597 I0 J-0.35
G1 Y3.197
X21.689
Y3.803
X21.685 Y3.833
X21.673 Y3.862
X21.499 Y4.149
X21.487 Y4.177
X21.483 Y4.208
Z3.35 F80
Y4.219
G3 X21.072 Y4.49 I-0.295 J0
G2 X20.589 Y4.391 I-0.483 J1.125
G1 X16.206 F450
G3 X15.975 Y4.203 I0 J-0.235
G1 X15.951 Y4.109
G3 X16.175 Y3.803 I0.224 J-0.071
G1 X20.848
G3 X21.083 Y4.038 I0 J0.235
G1 Y4.156
G3 X20.848 Y4.391 I-0.235 J0
G1 X20.589
X20.542 Y4.398
X20.499 Y4.418
X20.464 Y4.45
X20.439 Y4.491
X20.415 Y4.532
X20.379 Y4.564
X20.336 Y4.584
X20.289 Y4.591
X16.121
G3 X15.789 Y4.299 I0 J-0.335
G1 X15.775 Y4.224
X15.754 Y4.151
G3 X16.145 Y3.603 I0.391 J-0.135
G1 X20.964
G3 X21.283 Y3.922 I0 J0.319
G1 Y4.271
G3 X20.964 Y4.591 I-0.319 J0
G1 X20.289
G3 X20.255 Y4.194 I0 J-0.2
G1 X21.249 Y4.022
G3 X21.483 Y4.219 I0.034 J0.197
G1 Y4.478
G3 X21.17 Y4.791 I-0.313 J0
G1 X15.908
G3 X15.595 Y4.478 I0 J-0.313
G1 X15.589 Y4.335
X15.578 Y4.265
X15.558 Y4.196
G3 X15.558 Y3.797 I0.516 J-0.2
G1 X15.576 Y3.741
X15.588 Y3.683
G3 X15.915 Y3.403 I0.327 J0.051
G1 X21.17
G3 X21.483 Y3.716 I0 J0.313
G1 Y3.781
X21.487 Y3.812
X21.499 Y3.84
X21.673 Y4.138
X21.685 Y4.167
X21.689 Y4.197
Y4.997
X15.389
Y4.397
G2 X15.039 Y4.047 I-0.35 J0
G1 X9.141
Y1.447
X21.236
X21.302
X21.327 Y1.454
X21.345 Y1.472
X21.352 Y1.497
X21.345 Y1.522
X21.327 Y1.54
X21.301 Y1.547
X21.3
X9.591
G2 X9.241 Y1.897 I0 J0.35
G1 Y3.597
G2 X9.591 Y3.947 I0.35 J0
G1 X15.039
G2 X15.389 Y3.597 I0 J-0.35
G1 Y3.197
X21.689
Y3.803
X21.685 Y3.833
X21.673 Y3.862
X21.499 Y4.149
X21.487 Y4.177
X21.483 Y4.208
Z3.15 F80
Y4.219
G3 X21.072 Y4.49 I-0.295 J0
G2 X20.589 Y4.391 I-0.483 J1.125
G1 X16.206 F450
G3 X15.975 Y4.203 I0 J-0.235
G1 X15.951 Y4.109
G3 X16.175 Y3.803 I0.224 J-0.071
G1 X20.848
G3 X21.083 Y4.038 I0 J0.235
G1 Y4.156
G3 X20.848 Y4.391 I-0.235 J0
G1 X20.589
X20.542 Y4.398
X20.499 Y4.418
X20.464 Y4.45
X20.439 Y4.491
X20.415 Y4.532
X20.379 Y4.564
X20.336 Y4.584
X20.289 Y4.591
X16.121
G3 X15.789 Y4.299 I0 J-0.335
G1 X15.775 Y4.224
X15.754 Y4.151
G3 X16.145 Y3.603 I0.391 J-0.135
G1 X20.964
G3 X21.283 Y3.922 I0 J0.319
G1 Y4.271
G3 X20.964 Y4.591 I-0.319 J0
G1 X20.289
G3 X20.255 Y4.194 I0 J-0.2
G1 X21.249 Y4.022
G3 X21.483 Y4.219 I0.034 J0.197
G1 Y4.478
G3 X21.17 Y4.791 I-0.313 J0
G1 X15.908
G3 X15.595 Y4.478 I0 J-0.313
G1 X15.589 Y4.335
X15.578 Y4.265
X15.558 Y4.196
G3 X15.558 Y3.797 I0.516 J-0.2
G1 X15.576 Y3.741
X15.588 Y3.683
G3 X15.915 Y3.403 I0.327 J0.051
G1 X21.17
G3 X21.483 Y3.716 I0 J0.313
G1 Y3.781
X21.487 Y3.812
X21.499 Y3.84
X21.673 Y4.138
X21.685 Y4.167
X21.689 Y4.197
Y4.997
X15.389
Y4.397
G2 X15.039 Y4.047 I-0.35 J0
G1 X9.141
Y1.447
X21.236
X21.302
X21.327 Y1.454
X21.345 Y1.472
X21.352 Y1.497
X21.345 Y1.522
X21.327 Y1.54
X21.301 Y1.547
X21.3
X9.591
G2 X9.241 Y1.897 I0 J0.35
G1 Y3.597
G2 X9.591 Y3.947 I0.35 J0
G1 X15.039
G2 X15.389 Y3.597 I0 J-0.35
G1 Y3.197
X21.689
Y3.803
X21.685 Y3.833
X21.673 Y3.862
X21.499 Y4.149
X21.487 Y4.177
X21.483 Y4.208
Z2.95 F80
Y4.219
G3 X21.072 Y4.49 I-0.295 J0
G2 X20.589 Y4.391 I-0.483 J1.125
G1 X16.206 F450
G3 X15.975 Y4.203 I0 J-0.235
G1 X15.951 Y4.109
G3 X16.175 Y3.803 I0.224 J-0.071
G1 X20.848
G3 X21.083 Y4.038 I0 J0.235
G1 Y4.156
G3 X20.848 Y4.391 I-0.235 J0
G1 X20.589
X20.542 Y4.398
X20.499 Y4.418
X20.464 Y4.45
X20.439 Y4.491
X20.415 Y4.532
X20.379 Y4.564
X20.336 Y4.584
X20.289 Y4.591
X16.121
G3 X15.789 Y4.299 I0 J-0.335
G1 X15.775 Y4.224
X15.754 Y4.151
G3 X16.145 Y3.603 I0.391 J-0.135
G1 X20.964
G3 X21.283 Y3.922 I0 J0.319
G1 Y4.271
G3 X20.964 Y4.591 I-0.319 J0
G1 X20.289
G3 X20.255 Y4.194 I0 J-0.2
G1 X21.249 Y4.022
G3 X21.483 Y4.219 I0.034 J0.197
G1 Y4.478
G3 X21.17 Y4.791 I-0.313 J0
G1 X15.908
G3 X15.595 Y4.478 I0 J-0.313
G1 X15.589 Y4.335
X15.578 Y4.265
X15.558 Y4.196
G3 X15.558 Y3.797 I0.516 J-0.2
G1 X15.576 Y3.741
X15.588 Y3.683
G3 X15.915 Y3.403 I0.327 J0.051
G1 X21.17
G3 X21.483 Y3.716 I0 J0.313
G1 Y3.781
X21.487 Y3.812
X21.499 Y3.84
X21.673 Y4.138
X21.685 Y4.167
X21.689 Y4.197
Y4.997
X15.389
Y4.397
G2 X15.039 Y4.047 I-0.35 J0
G1 X9.141
Y1.447
X21.236
X21.302
X21.327 Y1.454
X21.345 Y1.472
X21.352 Y1.497
X21.345 Y1.522
X21.327 Y1.54
X21.301 Y1.547
X21.3
X9.591
G2 X9.241 Y1.897 I0 J0.35
G1 Y3.597
G2 X9.591 Y3.947 I0.35 J0
G1 X15.039
G2 X15.389 Y3.597 I0 J-0.35
G1 Y3.197
X21.689
Y3.803
X21.685 Y3.833
X21.673 Y3.862
X21.499 Y4.149
X21.487 Y4.177
X21.483 Y4.208
Z2.75 F80
Y4.219
G3 X21.072 Y4.49 I-0.295 J0
G2 X20.589 Y4.391 I-0.483 J1.125
G1 X16.206 F450
G3 X15.975 Y4.203 I0 J-0.235
G1 X15.951 Y4.109
G3 X16.175 Y3.803 I0.224 J-0.071
G1 X20.848
G3 X21.083 Y4.038 I0 J0.235
G1 Y4.156
G3 X20.848 Y4.391 I-0.235 J0
G1 X20.589
X20.542 Y4.398
X20.499 Y4.418
X20.464 Y4.45
X20.439 Y4.491
X20.415 Y4.532
X20.379 Y4.564
X20.336 Y4.584
X20.289 Y4.591
X16.121
G3 X15.789 Y4.299 I0 J-0.335
G1 X15.775 Y4.224
X15.754 Y4.151
G3 X16.145 Y3.603 I0.391 J-0.135
G1 X20.964
G3 X21.283 Y3.922 I0 J0.319
G1 Y4.271
G3 X20.964 Y4.591 I-0.319 J0
G1 X20.289
G3 X20.255 Y4.194 I0 J-0.2
G1 X21.249 Y4.022
G3 X21.483 Y4.219 I0.034 J0.197
G1 Y4.478
G3 X21.17 Y4.791 I-0.313 J0
G1 X15.908
G3 X15.595 Y4.478 I0 J-0.313
G1 X15.589 Y4.335
X15.578 Y4.265
X15.558 Y4.196
G3 X15.558 Y3.797 I0.516 J-0.2
G1 X15.576 Y3.741
X15.588 Y3.683
G3 X15.915 Y3.403 I0.327 J0.051
G1 X21.17
G3 X21.483 Y3.716 I0 J0.313
G1 Y3.781
X21.487 Y3.812
X21.499 Y3.84
X21.673 Y4.138
X21.685 Y4.167
X21.689 Y4.197
Y4.997
X15.389
Y4.397
G2 X15.039 Y4.047 I-0.35 J0
G1 X9.141
Y1.447
X21.236
X21.302
X21.327 Y1.454
X21.345 Y1.472
X21.352 Y1.497
X21.345 Y1.522
X21.327 Y1.54
X21.301 Y1.547
X21.3
X9.591
G2 X9.241 Y1.897 I0 J0.35
G1 Y3.597
G2 X9.591 Y3.947 I0.35 J0
G1 X15.039
G2 X15.389 Y3.597 I0 J-0.35
G1 Y3.197
X21.689
Y3.803
X21.685 Y3.833
X21.673 Y3.862
X21.499 Y4.149
X21.487 Y4.177
X21.483 Y4.208
Z2.55 F80
Y4.219
G3 X21.072 Y4.49 I-0.295 J0
G2 X20.589 Y4.391 I-0.483 J1.125
G1 X16.206 F450
G3 X15.975 Y4.203 I0 J-0.235
G1 X15.951 Y4.109
G3 X16.175 Y3.803 I0.224 J-0.071
G1 X20.848
G3 X21.083 Y4.038 I0 J0.235
G1 Y4.156
G3 X20.848 Y4.391 I-0.235 J0
G1 X20.589
X20.542 Y4.398
X20.499 Y4.418
X20.464 Y4.45
X20.439 Y4.491
X20.415 Y4.532
X20.379 Y4.564
X20.336 Y4.584
X20.289 Y4.591
X16.121
G3 X15.789 Y4.299 I0 J-0.335
G1 X15.775 Y4.224
X15.754 Y4.151
G3 X16.145 Y3.603 I0.391 J-0.135
G1 X20.964
G3 X21.283 Y3.922 I0 J0.319
G1 Y4.271
G3 X20.964 Y4.591 I-0.319 J0
G1 X20.289
G3 X20.255 Y4.194 I0 J-0.2
G1 X21.249 Y4.022
G3 X21.483 Y4.219 I0.034 J0.197
G1 Y4.478
G3 X21.17 Y4.791 I-0.313 J0
G1 X15.908
G3 X15.595 Y4.478 I0 J-0.313
G1 X15.589 Y4.335
X15.578 Y4.265
X15.558 Y4.196
G3 X15.558 Y3.797 I0.516 J-0.2
G1 X15.576 Y3.741
X15.588 Y3.683
G3 X15.915 Y3.403 I0.327 J0.051
G1 X21.17
G3 X21.483 Y3.716 I0 J0.313
G1 Y3.781
X21.487 Y3.812
X21.499 Y3.84
X21.673 Y4.138
X21.685 Y4.167
X21.689 Y4.197
Y4.997
X15.389
Y4.397
G2 X15.039 Y4.047 I-0.35 J0
G1 X9.141
Y1.447
X21.236
X21.302
X21.327 Y1.454
X21.345 Y1.472
X21.352 Y1.497
X21.345 Y1.522
X21.327 Y1.54
X21.301 Y1.547
X21.3
X9.591
G2 X9.241 Y1.897 I0 J0.35
G1 Y3.597
G2 X9.591 Y3.947 I0.35 J0
G1 X15.039
G2 X15.389 Y3.597 I0 J-0.35
G1 Y3.197
X21.689
Y3.803
X21.685 Y3.833
X21.673 Y3.862
X21.499 Y4.149
X21.487 Y4.177
X21.483 Y4.208
Z2.35 F80
Y4.219
G3 X21.072 Y4.49 I-0.295 J0
G2 X20.589 Y4.391 I-0.483 J1.125
G1 X16.206 F450
G3 X15.975 Y4.203 I0 J-0.235
G1 X15.951 Y4.109
G3 X16.175 Y3.803 I0.224 J-0.071
G1 X20.848
G3 X21.083 Y4.038 I0 J0.235
G1 Y4.156
G3 X20.848 Y4.391 I-0.235 J0
G1 X20.589
X20.542 Y4.398
X20.499 Y4.418
X20.464 Y4.45
X20.439 Y4.491
X20.415 Y4.532
X20.379 Y4.564
X20.336 Y4.584
X20.289 Y4.591
X16.121
G3 X15.789 Y4.299 I0 J-0.335
G1 X15.775 Y4.224
X15.754 Y4.151
G3 X16.145 Y3.603 I0.391 J-0.135
G1 X20.964
G3 X21.283 Y3.922 I0 J0.319
G1 Y4.271
G3 X20.964 Y4.591 I-0.319 J0
G1 X20.289
G3 X20.255 Y4.194 I0 J-0.2
G1 X21.249 Y4.022
G3 X21.483 Y4.219 I0.034 J0.197
G1 Y4.478
G3 X21.17 Y4.791 I-0.313 J0
G1 X15.908
G3 X15.595 Y4.478 I0 J-0.313
G1 X15.589 Y4.335
X15.578 Y4.265
X15.558 Y4.196
G3 X15.558 Y3.797 I0.516 J-0.2
G1 X15.576 Y3.741
X15.588 Y3.683
G3 X15.915 Y3.403 I0.327 J0.051
G1 X21.17
G3 X21.483 Y3.716 I0 J0.313
G1 Y3.781
X21.487 Y3.812
X21.499 Y3.84
X21.673 Y4.138
X21.685 Y4.167
X21.689 Y4.197
Y4.997
X15.389
Y4.397
G2 X15.039 Y4.047 I-0.35 J0
G1 X9.141
Y1.447
X21.236
X21.302
X21.327 Y1.454
X21.345 Y1.472
X21.352 Y1.497
X21.345 Y1.522
X21.327 Y1.54
X21.301 Y1.547
X21.3
X9.591
G2 X9.241 Y1.897 I0 J0.35
G1 Y3.597
G2 X9.591 Y3.947 I0.35 J0
G1 X15.039
G2 X15.389 Y3.597 I0 J-0.35
G1 Y3.197
X21.689
Y3.803
X21.685 Y3.833
X21.673 Y3.862
X21.499 Y4.149
X21.487 Y4.177
X21.483 Y4.208
Z2.15 F80
Y4.219
G3 X21.072 Y4.49 I-0.295 J0
G2 X20.589 Y4.391 I-0.483 J1.125
G1 X16.206 F450
G3 X15.975 Y4.203 I0 J-0.235
G1 X15.951 Y4.109
G3 X16.175 Y3.803 I0.224 J-0.071
G1 X20.848
G3 X21.083 Y4.038 I0 J0.235
G1 Y4.156
G3 X20.848 Y4.391 I-0.235 J0
G1 X20.589
X20.542 Y4.398
X20.499 Y4.418
X20.464 Y4.45
X20.439 Y4.491
X20.415 Y4.532
X20.379 Y4.564
X20.336 Y4.584
X20.289 Y4.591
X16.121
G3 X15.789 Y4.299 I0 J-0.335
G1 X15.775 Y4.224
X15.754 Y4.151
G3 X16.145 Y3.603 I0.391 J-0.135
G1 X20.964
G3 X21.283 Y3.922 I0 J0.319
G1 Y4.271
G3 X20.964 Y4.591 I-0.319 J0
G1 X20.289
G3 X20.255 Y4.194 I0 J-0.2
G1 X21.249 Y4.022
G3 X21.483 Y4.219 I0.034 J0.197
G1 Y4.478
G3 X21.17 Y4.791 I-0.313 J0
G1 X15.908
G3 X15.595 Y4.478 I0 J-0.313
G1 X15.589 Y4.335
X15.578 Y4.265
X15.558 Y4.196
G3 X15.558 Y3.797 I0.516 J-0.2
G1 X15.576 Y3.741
X15.588 Y3.683
G3 X15.915 Y3.403 I0.327 J0.051
G1 X21.17
G3 X21.483 Y3.716 I0 J0.313
G1 Y3.781
X21.487 Y3.812
X21.499 Y3.84
X21.673 Y4.138
X21.685 Y4.167
X21.689 Y4.197
Y4.997
X15.389
Y4.397
G2 X15.039 Y4.047 I-0.35 J0
G1 X9.141
Y1.447
X21.236
X21.302
X21.327 Y1.454
X21.345 Y1.472
X21.352 Y1.497
X21.345 Y1.522
X21.327 Y1.54
X21.301 Y1.547
X21.3
X9.591
G2 X9.241 Y1.897 I0 J0.35
G1 Y3.597
G2 X9.591 Y3.947 I0.35 J0
G1 X15.039
G2 X15.389 Y3.597 I0 J-0.35
G1 Y3.197
X21.689
Y3.803
X21.685 Y3.833
X21.673 Y3.862
X21.499 Y4.149
X21.487 Y4.177
X21.483 Y4.208
Z1.95 F80
Y4.219
G3 X21.072 Y4.49 I-0.295 J0
G2 X20.589 Y4.391 I-0.483 J1.125
G1 X16.206 F450
G3 X15.975 Y4.203 I0 J-0.235
G1 X15.951 Y4.109
G3 X16.175 Y3.803 I0.224 J-0.071
G1 X20.848
G3 X21.083 Y4.038 I0 J0.235
G1 Y4.156
G3 X20.848 Y4.391 I-0.235 J0
G1 X20.589
X20.542 Y4.398
X20.499 Y4.418
X20.464 Y4.45
X20.439 Y4.491
X20.415 Y4.532
X20.379 Y4.564
X20.336 Y4.584
X20.289 Y4.591
X16.121
G3 X15.789 Y4.299 I0 J-0.335
G1 X15.775 Y4.224
X15.754 Y4.151
G3 X16.145 Y3.603 I0.391 J-0.135
G1 X20.964
G3 X21.283 Y3.922 I0 J0.319
G1 Y4.271
G3 X20.964 Y4.591 I-0.319 J0
G1 X20.289
G3 X20.255 Y4.194 I0 J-0.2
G1 X21.249 Y4.022
G3 X21.483 Y4.219 I0.034 J0.197
G1 Y4.478
G3 X21.17 Y4.791 I-0.313 J0
G1 X15.908
G3 X15.595 Y4.478 I0 J-0.313
G1 X15.589 Y4.335
X15.578 Y4.265
X15.558 Y4.196
G3 X15.558 Y3.797 I0.516 J-0.2
G1 X15.576 Y3.741
X15.588 Y3.683
G3 X15.915 Y3.403 I0.327 J0.051
G1 X21.17
G3 X21.483 Y3.716 I0 J0.313
G1 Y3.781
X21.487 Y3.812
X21.499 Y3.84
X21.673 Y4.138
X21.685 Y4.167
X21.689 Y4.197
Y4.997
X15.389
Y4.397
G2 X15.039 Y4.047 I-0.35 J0
G1 X9.141
Y1.447
X21.236
X21.302
X21.327 Y1.454
X21.345 Y1.472
X21.352 Y1.497
X21.345 Y1.522
X21.327 Y1.54
X21.301 Y1.547
X21.3
X9.591
G2 X9.241 Y1.897 I0 J0.35
G1 Y3.597
G2 X9.591 Y3.947 I0.35 J0
G1 X15.039
G2 X15.389 Y3.597 I0 J-0.35
G1 Y3.197
X21.689
Y3.803
X21.685 Y3.833
X21.673 Y3.862
X21.499 Y4.149
X21.487 Y4.177
X21.483 Y4.208
Z1.75 F80
Y4.219
G3 X21.072 Y4.49 I-0.295 J0
G2 X20.589 Y4.391 I-0.483 J1.125
G1 X16.206 F450
G3 X15.975 Y4.203 I0 J-0.235
G1 X15.951 Y4.109
G3 X16.175 Y3.803 I0.224 J-0.071
G1 X20.848
G3 X21.083 Y4.038 I0 J0.235
G1 Y4.156
G3 X20.848 Y4.391 I-0.235 J0
G1 X20.589
X20.542 Y4.398
X20.499 Y4.418
X20.464 Y4.45
X20.439 Y4.491
X20.415 Y4.532
X20.379 Y4.564
X20.336 Y4.584
X20.289 Y4.591
X16.121
G3 X15.789 Y4.299 I0 J-0.335
G1 X15.775 Y4.224
X15.754 Y4.151
G3 X16.145 Y3.603 I0.391 J-0.135
G1 X20.964
G3 X21.283 Y3.922 I0 J0.319
G1 Y4.271
G3 X20.964 Y4.591 I-0.319 J0
G1 X20.289
G3 X20.255 Y4.194 I0 J-0.2
G1 X21.249 Y4.022
G3 X21.483 Y4.219 I0.034 J0.197
G1 Y4.478
G3 X21.17 Y4.791 I-0.313 J0
G1 X15.908
G3 X15.595 Y4.478 I0 J-0.313
G1 X15.589 Y4.335
X15.578 Y4.265
X15.558 Y4.196
G3 X15.558 Y3.797 I0.516 J-0.2
G1 X15.576 Y3.741
X15.588 Y3.683
G3 X15.915 Y3.403 I0.327 J0.051
G1 X21.17
G3 X21.483 Y3.716 I0 J0.313
G1 Y3.781
X21.487 Y3.812
X21.499 Y3.84
X21.673 Y4.138
X21.685 Y4.167
X21.689 Y4.197
Y4.997
X15.389
Y4.397
G2 X15.039 Y4.047 I-0.35 J0
G1 X9.141
Y1.447
X21.236
X21.302
X21.327 Y1.454
X21.345 Y1.472
X21.352 Y1.497
X21.345 Y1.522
X21.327 Y1.54
X21.301 Y1.547
X21.3
X9.591
G2 X9.241 Y1.897 I0 J0.35
G1 Y3.597
G2 X9.591 Y3.947 I0.35 J0
G1 X15.039
G2 X15.389 Y3.597 I0 J-0.35
G1 Y3.197
X21.689
Y3.803
X21.685 Y3.833
X21.673 Y3.862
X21.499 Y4.149
X21.487 Y4.177
X21.483 Y4.208
Z1.55 F80
Y4.219
G3 X21.072 Y4.49 I-0.295 J0
G2 X20.589 Y4.391 I-0.483 J1.125
G1 X16.206 F450
G3 X15.975 Y4.203 I0 J-0.235
G1 X15.951 Y4.109
G3 X16.175 Y3.803 I0.224 J-0.071
G1 X20.848
G3 X21.083 Y4.038 I0 J0.235
G1 Y4.156
G3 X20.848 Y4.391 I-0.235 J0
G1 X20.589
X20.542 Y4.398
X20.499 Y4.418
X20.464 Y4.45
X20.439 Y4.491
X20.415 Y4.532
X20.379 Y4.564
X20.336 Y4.584
X20.289 Y4.591
X16.121
G3 X15.789 Y4.299 I0 J-0.335
G1 X15.775 Y4.224
X15.754 Y4.151
G3 X16.145 Y3.603 I0.391 J-0.135
G1 X20.964
G3 X21.283 Y3.922 I0 J0.319
G1 Y4.271
G3 X20.964 Y4.591 I-0.319 J0
G1 X20.289
G3 X20.255 Y4.194 I0 J-0.2
G1 X21.249 Y4.022
G3 X21.483 Y4.219 I0.034 J0.197
G1 Y4.478
G3 X21.17 Y4.791 I-0.313 J0
G1 X15.908
G3 X15.595 Y4.478 I0 J-0.313
G1 X15.589 Y4.335
X15.578 Y4.265
X15.558 Y4.196
G3 X15.558 Y3.797 I0.516 J-0.2
G1 X15.576 Y3.741
X15.588 Y3.683
G3 X15.915 Y3.403 I0.327 J0.051
G1 X21.17
G3 X21.483 Y3.716 I0 J0.313
G1 Y3.781
X21.487 Y3.812
X21.499 Y3.84
X21.673 Y4.138
X21.685 Y4.167
X21.689 Y4.197
Y4.997
X15.389
Y4.397
G2 X15.039 Y4.047 I-0.35 J0
G1 X9.141
Y1.447
X21.236
X21.302
X21.327 Y1.454
X21.345 Y1.472
X21.352 Y1.497
X21.345 Y1.522
X21.327 Y1.54
X21.301 Y1.547
X21.3
X9.591
G2 X9.241 Y1.897 I0 J0.35
G1 Y3.597
G2 X9.591 Y3.947 I0.35 J0
G1 X15.039
G2 X15.389 Y3.597 I0 J-0.35
G1 Y3.197
X21.689
Y3.803
X21.685 Y3.833
X21.673 Y3.862
X21.499 Y4.149
X21.487 Y4.177
X21.483 Y4.208
Z1.35 F80
Y4.219
G3 X21.072 Y4.49 I-0.295 J0
G2 X20.589 Y4.391 I-0.483 J1.125
G1 X16.206 F450
G3 X15.975 Y4.203 I0 J-0.235
G1 X15.951 Y4.109
G3 X16.175 Y3.803 I0.224 J-0.071
G1 X20.848
G3 X21.083 Y4.038 I0 J0.235
G1 Y4.156
G3 X20.848 Y4.391 I-0.235 J0
G1 X20.589
X20.542 Y4.398
X20.499 Y4.418
X20.464 Y4.45
X20.439 Y4.491
X20.415 Y4.532
X20.379 Y4.564
X20.336 Y4.584
X20.289 Y4.591
X16.121
G3 X15.789 Y4.299 I0 J-0.335
G1 X15.775 Y4.224
X15.754 Y4.151
G3 X16.145 Y3.603 I0.391 J-0.135
G1 X20.964
G3 X21.283 Y3.922 I0 J0.319
G1 Y4.271
G3 X20.964 Y4.591 I-0.319 J0
G1 X20.289
G3 X20.255 Y4.194 I0 J-0.2
G1 X21.249 Y4.022
G3 X21.483 Y4.219 I0.034 J0.197
G1 Y4.478
G3 X21.17 Y4.791 I-0.313 J0
G1 X15.908
G3 X15.595 Y4.478 I0 J-0.313
G1 X15.589 Y4.335
X15.578 Y4.265
X15.558 Y4.196
G3 X15.558 Y3.797 I0.516 J-0.2
G1 X15.576 Y3.741
X15.588 Y3.683
G3 X15.915 Y3.403 I0.327 J0.051
G1 X21.17
G3 X21.483 Y3.716 I0 J0.313
G1 Y3.781
X21.487 Y3.812
X21.499 Y3.84
X21.673 Y4.138
X21.685 Y4.167
X21.689 Y4.197
Y4.997
X15.389
Y4.397
G2 X15.039 Y4.047 I-0.35 J0
G1 X9.141
Y1.447
X21.236
X21.302
X21.327 Y1.454
X21.345 Y1.472
X21.352 Y1.497
X21.345 Y1.522
X21.327 Y1.54
X21.301 Y1.547
X21.3
X9.591
G2 X9.241 Y1.897 I0 J0.35
G1 Y3.597
G2 X9.591 Y3.947 I0.35 J0
G1 X15.039
G2 X15.389 Y3.597 I0 J-0.35
G1 Y3.197
X21.689
Y3.803
X21.685 Y3.833
X21.673 Y3.862
X21.499 Y4.149
X21.487 Y4.177
X21.483 Y4.208
Z1.15 F80
Y4.219
G3 X21.072 Y4.49 I-0.295 J0
G2 X20.589 Y4.391 I-0.483 J1.125
G1 X16.206 F450
G3 X15.975 Y4.203 I0 J-0.235
G1 X15.951 Y4.109
G3 X16.175 Y3.803 I0.224 J-0.071
G1 X20.848
G3 X21.083 Y4.038 I0 J0.235
G1 Y4.156
G3 X20.848 Y4.391 I-0.235 J0
G1 X20.589
X20.542 Y4.398
X20.499 Y4.418
X20.464 Y4.45
X20.439 Y4.491
X20.415 Y4.532
X20.379 Y4.564
X20.336 Y4.584
X20.289 Y4.591
X16.121
G3 X15.789 Y4.299 I0 J-0.335
G1 X15.775 Y4.224
X15.754 Y4.151
G3 X16.145 Y3.603 I0.391 J-0.135
G1 X20.964
G3 X21.283 Y3.922 I0 J0.319
G1 Y4.271
G3 X20.964 Y4.591 I-0.319 J0
G1 X20.289
G3 X20.255 Y4.194 I0 J-0.2
G1 X21.249 Y4.022
G3 X21.483 Y4.219 I0.034 J0.197
G1 Y4.478
G3 X21.17 Y4.791 I-0.313 J0
G1 X15.908
G3 X15.595 Y4.478 I0 J-0.313
G1 X15.589 Y4.335
X15.578 Y4.265
X15.558 Y4.196
G3 X15.558 Y3.797 I0.516 J-0.2
G1 X15.576 Y3.741
X15.588 Y3.683
G3 X15.915 Y3.403 I0.327 J0.051
G1 X21.17
G3 X21.483 Y3.716 I0 J0.313
G1 Y3.781
X21.487 Y3.812
X21.499 Y3.84
X21.673 Y4.138
X21.685 Y4.167
X21.689 Y4.197
Y4.997
X15.389
Y4.397
G2 X15.039 Y4.047 I-0.35 J0
G1 X9.141
Y1.447
X21.236
X21.302
X21.327 Y1.454
X21.345 Y1.472
X21.352 Y1.497
X21.345 Y1.522
X21.327 Y1.54
X21.301 Y1.547
X21.3
X9.591
G2 X9.241 Y1.897 I0 J0.35
G1 Y3.597
G2 X9.591 Y3.947 I0.35 J0
G1 X15.039
G2 X15.389 Y3.597 I0 J-0.35
G1 Y3.197
X21.689
Y3.803
X21.685 Y3.833
X21.673 Y3.862
X21.499 Y4.149
X21.487 Y4.177
X21.483 Y4.208
Z0.95 F80
Y4.219
G3 X21.072 Y4.49 I-0.295 J0
G2 X20.589 Y4.391 I-0.483 J1.125
G1 X16.206 F450
G3 X15.975 Y4.203 I0 J-0.235
G1 X15.951 Y4.109
G3 X16.175 Y3.803 I0.224 J-0.071
G1 X20.848
G3 X21.083 Y4.038 I0 J0.235
G1 Y4.156
G3 X20.848 Y4.391 I-0.235 J0
G1 X20.589
X20.542 Y4.398
X20.499 Y4.418
X20.464 Y4.45
X20.439 Y4.491
X20.415 Y4.532
X20.379 Y4.564
X20.336 Y4.584
X20.289 Y4.591
X16.121
G3 X15.789 Y4.299 I0 J-0.335
G1 X15.775 Y4.224
X15.754 Y4.151
G3 X16.145 Y3.603 I0.391 J-0.135
G1 X20.964
G3 X21.283 Y3.922 I0 J0.319
G1 Y4.271
G3 X20.964 Y4.591 I-0.319 J0
G1 X20.289
G3 X20.255 Y4.194 I0 J-0.2
G1 X21.249 Y4.022
G3 X21.483 Y4.219 I0.034 J0.197
G1 Y4.478
G3 X21.17 Y4.791 I-0.313 J0
G1 X15.908
G3 X15.595 Y4.478 I0 J-0.313
G1 X15.589 Y4.335
X15.578 Y4.265
X15.558 Y4.196
G3 X15.558 Y3.797 I0.516 J-0.2
G1 X15.576 Y3.741
X15.588 Y3.683
G3 X15.915 Y3.403 I0.327 J0.051
G1 X21.17
G3 X21.483 Y3.716 I0 J0.313
G1 Y3.781
X21.487 Y3.812
X21.499 Y3.84
X21.673 Y4.138
X21.685 Y4.167
X21.689 Y4.197
Y4.997
X15.389
Y4.397
G2 X15.039 Y4.047 I-0.35 J0
G1 X9.141
Y1.447
X21.236
X21.302
X21.327 Y1.454
X21.345 Y1.472
X21.352 Y1.497
X21.345 Y1.522
X21.327 Y1.54
X21.301 Y1.547
X21.3
X9.591
G2 X9.241 Y1.897 I0 J0.35
G1 Y3.597
G2 X9.591 Y3.947 I0.35 J0
G1 X15.039
G2 X15.389 Y3.597 I0 J-0.35
G1 Y3.197
X21.689
Y3.803
X21.685 Y3.833
X21.673 Y3.862
X21.499 Y4.149
X21.487 Y4.177
X21.483 Y4.208
Z0.75 F80
Y4.219
G3 X21.072 Y4.49 I-0.295 J0
G2 X20.589 Y4.391 I-0.483 J1.125
G1 X16.206 F450
G3 X15.975 Y4.203 I0 J-0.235
G1 X15.951 Y4.109
G3 X16.175 Y3.803 I0.224 J-0.071
G1 X20.848
G3 X21.083 Y4.038 I0 J0.235
G1 Y4.156
G3 X20.848 Y4.391 I-0.235 J0
G1 X20.589
X20.542 Y4.398
X20.499 Y4.418
X20.464 Y4.45
X20.439 Y4.491
X20.415 Y4.532
X20.379 Y4.564
X20.336 Y4.584
X20.289 Y4.591
X16.121
G3 X15.789 Y4.299 I0 J-0.335
G1 X15.775 Y4.224
X15.754 Y4.151
G3 X16.145 Y3.603 I0.391 J-0.135
G1 X20.964
G3 X21.283 Y3.922 I0 J0.319
G1 Y4.271
G3 X20.964 Y4.591 I-0.319 J0
G1 X20.289
G3 X20.255 Y4.194 I0 J-0.2
G1 X21.249 Y4.022
G3 X21.483 Y4.219 I0.034 J0.197
G1 Y4.478
G3 X21.17 Y4.791 I-0.313 J0
G1 X15.908
G3 X15.595 Y4.478 I0 J-0.313
G1 X15.589 Y4.335
X15.578 Y4.265
X15.558 Y4.196
G3 X15.558 Y3.797 I0.516 J-0.2
G1 X15.576 Y3.741
X15.588 Y3.683
G3 X15.915 Y3.403 I0.327 J0.051
G1 X21.17
G3 X21.483 Y3.716 I0 J0.313
G1 Y3.781
X21.487 Y3.812
X21.499 Y3.84
X21.673 Y4.138
X21.685 Y4.167
X21.689 Y4.197
Y4.997
X15.389
Y4.397
G2 X15.039 Y4.047 I-0.35 J0
G1 X9.141
Y1.447
X21.236
X21.302
X21.327 Y1.454
X21.345 Y1.472
X21.352 Y1.497
X21.345 Y1.522
X21.327 Y1.54
X21.301 Y1.547
X21.3
X9.591
G2 X9.241 Y1.897 I0 J0.35
G1 Y3.597
G2 X9.591 Y3.947 I0.35 J0
G1 X15.039
G2 X15.389 Y3.597 I0 J-0.35
G1 Y3.197
X21.689
Y3.803
X21.685 Y3.833
X21.673 Y3.862
X21.499 Y4.149
X21.487 Y4.177
X21.483 Y4.208
Z0.55 F80
Y4.219
G3 X21.072 Y4.49 I-0.295 J0
G2 X20.589 Y4.391 I-0.483 J1.125
G1 X16.206 F450
G3 X15.975 Y4.203 I0 J-0.235
G1 X15.951 Y4.109
G3 X16.175 Y3.803 I0.224 J-0.071
G1 X20.848
G3 X21.083 Y4.038 I0 J0.235
G1 Y4.156
G3 X20.848 Y4.391 I-0.235 J0
G1 X20.589
X20.542 Y4.398
X20.499 Y4.418
X20.464 Y4.45
X20.439 Y4.491
X20.415 Y4.532
X20.379 Y4.564
X20.336 Y4.584
X20.289 Y4.591
X16.121
G3 X15.789 Y4.299 I0 J-0.335
G1 X15.775 Y4.224
X15.754 Y4.151
G3 X16.145 Y3.603 I0.391 J-0.135
G1 X20.964
G3 X21.283 Y3.922 I0 J0.319
G1 Y4.271
G3 X20.964 Y4.591 I-0.319 J0
G1 X20.289
G3 X20.255 Y4.194 I0 J-0.2
G1 X21.249 Y4.022
G3 X21.483 Y4.219 I0.034 J0.197
G1 Y4.478
G3 X21.17 Y4.791 I-0.313 J0
G1 X15.908
G3 X15.595 Y4.478 I0 J-0.313
G1 X15.589 Y4.335
X15.578 Y4.265
X15.558 Y4.196
G3 X15.558 Y3.797 I0.516 J-0.2
G1 X15.576 Y3.741
X15.588 Y3.683
G3 X15.915 Y3.403 I0.327 J0.051
G1 X21.17
G3 X21.483 Y3.716 I0 J0.313
G1 Y3.781
X21.487 Y3.812
X21.499 Y3.84
X21.673 Y4.138
X21.685 Y4.167
X21.689 Y4.197
Y4.997
X15.389
Y4.397
G2 X15.039 Y4.047 I-0.35 J0
G1 X9.141
Y1.447
X21.236
X21.302
X21.327 Y1.454
X21.345 Y1.472
X21.352 Y1.497
X21.345 Y1.522
X21.327 Y1.54
X21.301 Y1.547
X21.3
X9.591
G2 X9.241 Y1.897 I0 J0.35
G1 Y3.597
G2 X9.591 Y3.947 I0.35 J0
G1 X15.039
G2 X15.389 Y3.597 I0 J-0.35
G1 Y3.197
X21.689
Y3.803
X21.685 Y3.833
X21.673 Y3.862
X21.499 Y4.149
X21.487 Y4.177
X21.483 Y4.208
Z0.35 F80
Y4.219
G3 X21.072 Y4.49 I-0.295 J0
G2 X20.589 Y4.391 I-0.483 J1.125
G1 X16.206 F450
G3 X15.975 Y4.203 I0 J-0.235
G1 X15.951 Y4.109
G3 X16.175 Y3.803 I0.224 J-0.071
G1 X20.848
G3 X21.083 Y4.038 I0 J0.235
G1 Y4.156
G3 X20.848 Y4.391 I-0.235 J0
G1 X20.589
X20.542 Y4.398
X20.499 Y4.418
X20.464 Y4.45
X20.439 Y4.491
X20.415 Y4.532
X20.379 Y4.564
X20.336 Y4.584
X20.289 Y4.591
X16.121
G3 X15.789 Y4.299 I0 J-0.335
G1 X15.775 Y4.224
X15.754 Y4.151
G3 X16.145 Y3.603 I0.391 J-0.135
G1 X20.964
G3 X21.283 Y3.922 I0 J0.319
G1 Y4.271
G3 X20.964 Y4.591 I-0.319 J0
G1 X20.289
G3 X20.255 Y4.194 I0 J-0.2
G1 X21.249 Y4.022
G3 X21.483 Y4.219 I0.034 J0.197
G1 Y4.478
G3 X21.17 Y4.791 I-0.313 J0
G1 X15.908
G3 X15.595 Y4.478 I0 J-0.313
G1 X15.589 Y4.335
X15.578 Y4.265
X15.558 Y4.196
G3 X15.558 Y3.797 I0.516 J-0.2
G1 X15.576 Y3.741
X15.588 Y3.683
G3 X15.915 Y3.403 I0.327 J0.051
G1 X21.17
G3 X21.483 Y3.716 I0 J0.313
G1 Y3.781
X21.487 Y3.812
X21.499 Y3.84
X21.673 Y4.138
X21.685 Y4.167
X21.689 Y4.197
Y4.997
X15.389
Y4.397
G2 X15.039 Y4.047 I-0.35 J0
G1 X9.141
Y1.447
X21.236
X21.302
X21.327 Y1.454
X21.345 Y1.472
X21.352 Y1.497
X21.345 Y1.522
X21.327 Y1.54
X21.301 Y1.547
X21.3
X9.591
G2 X9.241 Y1.897 I0 J0.35
G1 Y3.597
G2 X9.591 Y3.947 I0.35 J0
G1 X15.039
G2 X15.389 Y3.597 I0 J-0.35
G1 Y3.197
X21.689
Y3.803
X21.685 Y3.833
X21.673 Y3.862
X21.499 Y4.149
X21.487 Y4.177
X21.483 Y4.208
Z0.15 F80
Y4.219
G3 X21.072 Y4.49 I-0.295 J0
G2 X20.589 Y4.391 I-0.483 J1.125
G1 X16.206 F450
G3 X15.975 Y4.203 I0 J-0.235
G1 X15.951 Y4.109
G3 X16.175 Y3.803 I0.224 J-0.071
G1 X20.848
G3 X21.083 Y4.038 I0 J0.235
G1 Y4.156
G3 X20.848 Y4.391 I-0.235 J0
G1 X20.589
X20.542 Y4.398
X20.499 Y4.418
X20.464 Y4.45
X20.439 Y4.491
X20.415 Y4.532
X20.379 Y4.564
X20.336 Y4.584
X20.289 Y4.591
X16.121
G3 X15.789 Y4.299 I0 J-0.335
G1 X15.775 Y4.224
X15.754 Y4.151
G3 X16.145 Y3.603 I0.391 J-0.135
G1 X20.964
G3 X21.283 Y3.922 I0 J0.319
G1 Y4.271
G3 X20.964 Y4.591 I-0.319 J0
G1 X20.289
G3 X20.255 Y4.194 I0 J-0.2
G1 X21.249 Y4.022
G3 X21.483 Y4.219 I0.034 J0.197
G1 Y4.478
G3 X21.17 Y4.791 I-0.313 J0
G1 X15.908
G3 X15.595 Y4.478 I0 J-0.313
G1 X15.589 Y4.335
X15.578 Y4.265
X15.558 Y4.196
G3 X15.558 Y3.797 I0.516 J-0.2
G1 X15.576 Y3.741
X15.588 Y3.683
G3 X15.915 Y3.403 I0.327 J0.051
G1 X21.17
G3 X21.483 Y3.716 I0 J0.313
G1 Y3.781
X21.487 Y3.812
X21.499 Y3.84
X21.673 Y4.138
X21.685 Y4.167
X21.689 Y4.197
Y4.997
X15.389
Y4.397
G2 X15.039 Y4.047 I-0.35 J0
G1 X9.141
Y1.447
X21.236
X21.302
X21.327 Y1.454
X21.345 Y1.472
X21.352 Y1.497
X21.345 Y1.522
X21.327 Y1.54
X21.301 Y1.547
X21.3
X9.591
G2 X9.241 Y1.897 I0 J0.35
G1 Y3.597
G2 X9.591 Y3.947 I0.35 J0
G1 X15.039
G2 X15.389 Y3.597 I0 J-0.35
G1 Y3.197
X21.689
Y3.803
Z12.15
X21.483 Y-0.788
Z6.15
Z4.18 F80
Z3.95
Y-0.783
G3 X21.021 Y-0.548 I-0.291 J0
G2 X20.528 Y-0.709 I-0.493 J0.673
G1 X16.18 F450
G3 X15.955 Y-0.877 I0 J-0.235
G1 X15.94 Y-0.924
X15.927 Y-0.976
Y-1.03
X15.94 Y-1.082
X15.955 Y-1.129
G3 X16.18 Y-1.297 I0.225 J0.067
G1 X20.848
G3 X21.083 Y-1.062 I0 J0.235
G1 Y-0.944
G3 X20.848 Y-0.709 I-0.235 J0
G1 X20.528
X20.481 Y-0.702
X20.438 Y-0.682
X20.403 Y-0.65
X20.378 Y-0.609
X20.354 Y-0.568
X20.318 Y-0.536
X20.275 Y-0.516
X20.228 Y-0.509
X16.138
G3 X15.771 Y-0.793 I0 J-0.38
G1 X15.75 Y-0.86
G3 X15.75 Y-1.147 I0.397 J-0.143
G1 X15.771 Y-1.213
G3 X16.138 Y-1.497 I0.367 J0.095
G1 X20.964
G3 X21.283 Y-1.178 I0 J0.319
G1 Y-0.829
G3 X20.964 Y-0.509 I-0.319 J0
G1 X20.228
G3 X20.214 Y-0.909 I0 J-0.2
G1 X21.269 Y-0.982
G3 X21.483 Y-0.783 I0.014 J0.2
G1 Y-0.622
G3 X21.17 Y-0.309 I-0.313 J0
G1 X15.908
G3 X15.595 Y-0.615 I0 J-0.313
G1 X15.59 Y-0.68
X15.577 Y-0.743
X15.558 Y-0.804
G3 X15.558 Y-1.203 I0.516 J-0.2
G1 X15.577 Y-1.264
X15.59 Y-1.327
X15.595 Y-1.391
G3 X15.908 Y-1.697 I0.313 J0.007
G1 X21.17
G3 X21.483 Y-1.384 I0 J0.313
G1 Y-1.22
X21.487 Y-1.19
X21.499 Y-1.162
X21.674 Y-0.857
X21.685 Y-0.829
X21.689 Y-0.799
Y-0.103
X15.389
Y-0.603
G2 X15.039 Y-0.953 I-0.35 J0
G1 X7.342
X7.277
X7.309 Y-1.003
X7.342 Y-1.053
X15.039
G2 X15.389 Y-1.403 I0 J-0.35
G1 Y-1.903
X21.689
Y-1.203
X21.685 Y-1.173
X21.673 Y-1.145
X21.499 Y-0.847
X21.487 Y-0.819
X21.483 Y-0.788
Z3.75 F80
Y-0.783
G3 X21.021 Y-0.548 I-0.291 J0
G2 X20.528 Y-0.709 I-0.493 J0.673
G1 X16.18 F450
G3 X15.955 Y-0.877 I0 J-0.235
G1 X15.94 Y-0.924
X15.927 Y-0.976
Y-1.03
X15.94 Y-1.082
X15.955 Y-1.129
G3 X16.18 Y-1.297 I0.225 J0.067
G1 X20.848
G3 X21.083 Y-1.062 I0 J0.235
G1 Y-0.944
G3 X20.848 Y-0.709 I-0.235 J0
G1 X20.528
X20.481 Y-0.702
X20.438 Y-0.682
X20.403 Y-0.65
X20.378 Y-0.609
X20.354 Y-0.568
X20.318 Y-0.536
X20.275 Y-0.516
X20.228 Y-0.509
X16.138
G3 X15.771 Y-0.793 I0 J-0.38
G1 X15.75 Y-0.86
G3 X15.75 Y-1.147 I0.397 J-0.143
G1 X15.771 Y-1.213
G3 X16.138 Y-1.497 I0.367 J0.095
G1 X20.964
G3 X21.283 Y-1.178 I0 J0.319
G1 Y-0.829
G3 X20.964 Y-0.509 I-0.319 J0
G1 X20.228
G3 X20.214 Y-0.909 I0 J-0.2
G1 X21.269 Y-0.982
G3 X21.483 Y-0.783 I0.014 J0.2
G1 Y-0.622
G3 X21.17 Y-0.309 I-0.313 J0
G1 X15.908
G3 X15.595 Y-0.615 I0 J-0.313
G1 X15.59 Y-0.68
X15.577 Y-0.743
X15.558 Y-0.804
G3 X15.558 Y-1.203 I0.516 J-0.2
G1 X15.577 Y-1.264
X15.59 Y-1.327
X15.595 Y-1.391
G3 X15.908 Y-1.697 I0.313 J0.007
G1 X21.17
G3 X21.483 Y-1.384 I0 J0.313
G1 Y-1.22
X21.487 Y-1.19
X21.499 Y-1.162
X21.674 Y-0.857
X21.685 Y-0.829
X21.689 Y-0.799
Y-0.103
X15.389
Y-0.603
G2 X15.039 Y-0.953 I-0.35 J0
G1 X7.342
X7.277
X7.309 Y-1.003
X7.342 Y-1.053
X15.039
G2 X15.389 Y-1.403 I0 J-0.35
G1 Y-1.903
X21.689
Y-1.203
X21.685 Y-1.173
X21.673 Y-1.145
X21.499 Y-0.847
X21.487 Y-0.819
X21.483 Y-0.788
Z3.55 F80
Y-0.783
G3 X21.021 Y-0.548 I-0.291 J0
G2 X20.528 Y-0.709 I-0.493 J0.673
G1 X16.18 F450
G3 X15.955 Y-0.877 I0 J-0.235
G1 X15.94 Y-0.924
X15.927 Y-0.976
Y-1.03
X15.94 Y-1.082
X15.955 Y-1.129
G3 X16.18 Y-1.297 I0.225 J0.067
G1 X20.848
G3 X21.083 Y-1.062 I0 J0.235
G1 Y-0.944
G3 X20.848 Y-0.709 I-0.235 J0
G1 X20.528
X20.481 Y-0.702
X20.438 Y-0.682
X20.403 Y-0.65
X20.378 Y-0.609
X20.354 Y-0.568
X20.318 Y-0.536
X20.275 Y-0.516
X20.228 Y-0.509
X16.138
G3 X15.771 Y-0.793 I0 J-0.38
G1 X15.75 Y-0.86
G3 X15.75 Y-1.147 I0.397 J-0.143
G1 X15.771 Y-1.213
G3 X16.138 Y-1.497 I0.367 J0.095
G1 X20.964
G3 X21.283 Y-1.178 I0 J0.319
G1 Y-0.829
G3 X20.964 Y-0.509 I-0.319 J0
G1 X20.228
G3 X20.214 Y-0.909 I0 J-0.2
G1 X21.269 Y-0.982
G3 X21.483 Y-0.783 I0.014 J0.2
G1 Y-0.622
G3 X21.17 Y-0.309 I-0.313 J0
G1 X15.908
G3 X15.595 Y-0.615 I0 J-0.313
G1 X15.59 Y-0.68
X15.577 Y-0.743
X15.558 Y-0.804
G3 X15.558 Y-1.203 I0.516 J-0.2
G1 X15.577 Y-1.264
X15.59 Y-1.327
X15.595 Y-1.391
G3 X15.908 Y-1.697 I0.313 J0.007
G1 X21.17
G3 X21.483 Y-1.384 I0 J0.313
G1 Y-1.22
X21.487 Y-1.19
X21.499 Y-1.162
X21.674 Y-0.857
X21.685 Y-0.829
X21.689 Y-0.799
Y-0.103
X15.389
Y-0.603
G2 X15.039 Y-0.953 I-0.35 J0
G1 X7.342
X7.277
X7.309 Y-1.003
X7.342 Y-1.053
X15.039
G2 X15.389 Y-1.403 I0 J-0.35
G1 Y-1.903
X21.689
Y-1.203
X21.685 Y-1.173
X21.673 Y-1.145
X21.499 Y-0.847
X21.487 Y-0.819
X21.483 Y-0.788
Z3.35 F80
Y-0.783
G3 X21.021 Y-0.548 I-0.291 J0
G2 X20.528 Y-0.709 I-0.493 J0.673
G1 X16.18 F450
G3 X15.955 Y-0.877 I0 J-0.235
G1 X15.94 Y-0.924
X15.927 Y-0.976
Y-1.03
X15.94 Y-1.082
X15.955 Y-1.129
G3 X16.18 Y-1.297 I0.225 J0.067
G1 X20.848
G3 X21.083 Y-1.062 I0 J0.235
G1 Y-0.944
G3 X20.848 Y-0.709 I-0.235 J0
G1 X20.528
X20.481 Y-0.702
X20.438 Y-0.682
X20.403 Y-0.65
X20.378 Y-0.609
X20.354 Y-0.568
X20.318 Y-0.536
X20.275 Y-0.516
X20.228 Y-0.509
X16.138
G3 X15.771 Y-0.793 I0 J-0.38
G1 X15.75 Y-0.86
G3 X15.75 Y-1.147 I0.397 J-0.143
G1 X15.771 Y-1.213
G3 X16.138 Y-1.497 I0.367 J0.095
G1 X20.964
G3 X21.283 Y-1.178 I0 J0.319
G1 Y-0.829
G3 X20.964 Y-0.509 I-0.319 J0
G1 X20.228
G3 X20.214 Y-0.909 I0 J-0.2
G1 X21.269 Y-0.982
G3 X21.483 Y-0.783 I0.014 J0.2
G1 Y-0.622
G3 X21.17 Y-0.309 I-0.313 J0
G1 X15.908
G3 X15.595 Y-0.615 I0 J-0.313
G1 X15.59 Y-0.68
X15.577 Y-0.743
X15.558 Y-0.804
G3 X15.558 Y-1.203 I0.516 J-0.2
G1 X15.577 Y-1.264
X15.59 Y-1.327
X15.595 Y-1.391
G3 X15.908 Y-1.697 I0.313 J0.007
G1 X21.17
G3 X21.483 Y-1.384 I0 J0.313
G1 Y-1.22
X21.487 Y-1.19
X21.499 Y-1.162
X21.674 Y-0.857
X21.685 Y-0.829
X21.689 Y-0.799
Y-0.103
X15.389
Y-0.603
G2 X15.039 Y-0.953 I-0.35 J0
G1 X7.342
X7.277
X7.309 Y-1.003
X7.342 Y-1.053
X15.039
G2 X15.389 Y-1.403 I0 J-0.35
G1 Y-1.903
X21.689
Y-1.203
X21.685 Y-1.173
X21.673 Y-1.145
X21.499 Y-0.847
X21.487 Y-0.819
X21.483 Y-0.788
Z3.15 F80
Y-0.783
G3 X21.021 Y-0.548 I-0.291 J0
G2 X20.528 Y-0.709 I-0.493 J0.673
G1 X16.18 F450
G3 X15.955 Y-0.877 I0 J-0.235
G1 X15.94 Y-0.924
X15.927 Y-0.976
Y-1.03
X15.94 Y-1.082
X15.955 Y-1.129
G3 X16.18 Y-1.297 I0.225 J0.067
G1 X20.848
G3 X21.083 Y-1.062 I0 J0.235
G1 Y-0.944
G3 X20.848 Y-0.709 I-0.235 J0
G1 X20.528
X20.481 Y-0.702
X20.438 Y-0.682
X20.403 Y-0.65
X20.378 Y-0.609
X20.354 Y-0.568
X20.318 Y-0.536
X20.275 Y-0.516
X20.228 Y-0.509
X16.138
G3 X15.771 Y-0.793 I0 J-0.38
G1 X15.75 Y-0.86
G3 X15.75 Y-1.147 I0.397 J-0.143
G1 X15.771 Y-1.213
G3 X16.138 Y-1.497 I0.367 J0.095
G1 X20.964
G3 X21.283 Y-1.178 I0 J0.319
G1 Y-0.829
G3 X20.964 Y-0.509 I-0.319 J0
G1 X20.228
G3 X20.214 Y-0.909 I0 J-0.2
G1 X21.269 Y-0.982
G3 X21.483 Y-0.783 I0.014 J0.2
G1 Y-0.622
G3 X21.17 Y-0.309 I-0.313 J0
G1 X15.908
G3 X15.595 Y-0.615 I0 J-0.313
G1 X15.59 Y-0.68
X15.577 Y-0.743
X15.558 Y-0.804
G3 X15.558 Y-1.203 I0.516 J-0.2
G1 X15.577 Y-1.264
X15.59 Y-1.327
X15.595 Y-1.391
G3 X15.908 Y-1.697 I0.313 J0.007
G1 X21.17
G3 X21.483 Y-1.384 I0 J0.313
G1 Y-1.22
X21.487 Y-1.19
X21.499 Y-1.162
X21.674 Y-0.857
X21.685 Y-0.829
X21.689 Y-0.799
Y-0.103
X15.389
Y-0.603
G2 X15.039 Y-0.953 I-0.35 J0
G1 X7.342
X7.277
X7.309 Y-1.003
X7.342 Y-1.053
X15.039
G2 X15.389 Y-1.403 I0 J-0.35
G1 Y-1.903
X21.689
Y-1.203
X21.685 Y-1.173
X21.673 Y-1.145
X21.499 Y-0.847
X21.487 Y-0.819
X21.483 Y-0.788
Z2.95 F80
Y-0.783
G3 X21.021 Y-0.548 I-0.291 J0
G2 X20.528 Y-0.709 I-0.493 J0.673
G1 X16.18 F450
G3 X15.955 Y-0.877 I0 J-0.235
G1 X15.94 Y-0.924
X15.927 Y-0.976
Y-1.03
X15.94 Y-1.082
X15.955 Y-1.129
G3 X16.18 Y-1.297 I0.225 J0.067
G1 X20.848
G3 X21.083 Y-1.062 I0 J0.235
G1 Y-0.944
G3 X20.848 Y-0.709 I-0.235 J0
G1 X20.528
X20.481 Y-0.702
X20.438 Y-0.682
X20.403 Y-0.65
X20.378 Y-0.609
X20.354 Y-0.568
X20.318 Y-0.536
X20.275 Y-0.516
X20.228 Y-0.509
X16.138
G3 X15.771 Y-0.793 I0 J-0.38
G1 X15.75 Y-0.86
G3 X15.75 Y-1.147 I0.397 J-0.143
G1 X15.771 Y-1.213
G3 X16.138 Y-1.497 I0.367 J0.095
G1 X20.964
G3 X21.283 Y-1.178 I0 J0.319
G1 Y-0.829
G3 X20.964 Y-0.509 I-0.319 J0
G1 X20.228
G3 X20.214 Y-0.909 I0 J-0.2
G1 X21.269 Y-0.982
G3 X21.483 Y-0.783 I0.014 J0.2
G1 Y-0.622
G3 X21.17 Y-0.309 I-0.313 J0
G1 X15.908
G3 X15.595 Y-0.615 I0 J-0.313
G1 X15.59 Y-0.68
X15.577 Y-0.743
X15.558 Y-0.804
G3 X15.558 Y-1.203 I0.516 J-0.2
G1 X15.577 Y-1.264
X15.59 Y-1.327
X15.595 Y-1.391
G3 X15.908 Y-1.697 I0.313 J0.007
G1 X21.17
G3 X21.483 Y-1.384 I0 J0.313
G1 Y-1.22
X21.487 Y-1.19
X21.499 Y-1.162
X21.674 Y-0.857
X21.685 Y-0.829
X21.689 Y-0.799
Y-0.103
X15.389
Y-0.603
G2 X15.039 Y-0.953 I-0.35 J0
G1 X7.342
X7.277
X7.309 Y-1.003
X7.342 Y-1.053
X15.039
G2 X15.389 Y-1.403 I0 J-0.35
G1 Y-1.903
X21.689
Y-1.203
X21.685 Y-1.173
X21.673 Y-1.145
X21.499 Y-0.847
X21.487 Y-0.819
X21.483 Y-0.788
Z2.75 F80
Y-0.783
G3 X21.021 Y-0.548 I-0.291 J0
G2 X20.528 Y-0.709 I-0.493 J0.673
G1 X16.18 F450
G3 X15.955 Y-0.877 I0 J-0.235
G1 X15.94 Y-0.924
X15.927 Y-0.976
Y-1.03
X15.94 Y-1.082
X15.955 Y-1.129
G3 X16.18 Y-1.297 I0.225 J0.067
G1 X20.848
G3 X21.083 Y-1.062 I0 J0.235
G1 Y-0.944
G3 X20.848 Y-0.709 I-0.235 J0
G1 X20.528
X20.481 Y-0.702
X20.438 Y-0.682
X20.403 Y-0.65
X20.378 Y-0.609
X20.354 Y-0.568
X20.318 Y-0.536
X20.275 Y-0.516
X20.228 Y-0.509
X16.138
G3 X15.771 Y-0.793 I0 J-0.38
G1 X15.75 Y-0.86
G3 X15.75 Y-1.147 I0.397 J-0.143
G1 X15.771 Y-1.213
G3 X16.138 Y-1.497 I0.367 J0.095
G1 X20.964
G3 X21.283 Y-1.178 I0 J0.319
G1 Y-0.829
G3 X20.964 Y-0.509 I-0.319 J0
G1 X20.228
G3 X20.214 Y-0.909 I0 J-0.2
G1 X21.269 Y-0.982
G3 X21.483 Y-0.783 I0.014 J0.2
G1 Y-0.622
G3 X21.17 Y-0.309 I-0.313 J0
G1 X15.908
G3 X15.595 Y-0.615 I0 J-0.313
G1 X15.59 Y-0.68
X15.577 Y-0.743
X15.558 Y-0.804
G3 X15.558 Y-1.203 I0.516 J-0.2
G1 X15.577 Y-1.264
X15.59 Y-1.327
X15.595 Y-1.391
G3 X15.908 Y-1.697 I0.313 J0.007
G1 X21.17
G3 X21.483 Y-1.384 I0 J0.313
G1 Y-1.22
X21.487 Y-1.19
X21.499 Y-1.162
X21.674 Y-0.857
X21.685 Y-0.829
X21.689 Y-0.799
Y-0.103
X15.389
Y-0.603
G2 X15.039 Y-0.953 I-0.35 J0
G1 X7.342
X7.277
X7.309 Y-1.003
X7.342 Y-1.053
X15.039
G2 X15.389 Y-1.403 I0 J-0.35
G1 Y-1.903
X21.689
Y-1.203
X21.685 Y-1.173
X21.673 Y-1.145
X21.499 Y-0.847
X21.487 Y-0.819
X21.483 Y-0.788
Z2.55 F80
Y-0.783
G3 X21.021 Y-0.548 I-0.291 J0
G2 X20.528 Y-0.709 I-0.493 J0.673
G1 X16.18 F450
G3 X15.955 Y-0.877 I0 J-0.235
G1 X15.94 Y-0.924
X15.927 Y-0.976
Y-1.03
X15.94 Y-1.082
X15.955 Y-1.129
G3 X16.18 Y-1.297 I0.225 J0.067
G1 X20.848
G3 X21.083 Y-1.062 I0 J0.235
G1 Y-0.944
G3 X20.848 Y-0.709 I-0.235 J0
G1 X20.528
X20.481 Y-0.702
X20.438 Y-0.682
X20.403 Y-0.65
X20.378 Y-0.609
X20.354 Y-0.568
X20.318 Y-0.536
X20.275 Y-0.516
X20.228 Y-0.509
X16.138
G3 X15.771 Y-0.793 I0 J-0.38
G1 X15.75 Y-0.86
G3 X15.75 Y-1.147 I0.397 J-0.143
G1 X15.771 Y-1.213
G3 X16.138 Y-1.497 I0.367 J0.095
G1 X20.964
G3 X21.283 Y-1.178 I0 J0.319
G1 Y-0.829
G3 X20.964 Y-0.509 I-0.319 J0
G1 X20.228
G3 X20.214 Y-0.909 I0 J-0.2
G1 X21.269 Y-0.982
G3 X21.483 Y-0.783 I0.014 J0.2
G1 Y-0.622
G3 X21.17 Y-0.309 I-0.313 J0
G1 X15.908
G3 X15.595 Y-0.615 I0 J-0.313
G1 X15.59 Y-0.68
X15.577 Y-0.743
X15.558 Y-0.804
G3 X15.558 Y-1.203 I0.516 J-0.2
G1 X15.577 Y-1.264
X15.59 Y-1.327
X15.595 Y-1.391
G3 X15.908 Y-1.697 I0.313 J0.007
G1 X21.17
G3 X21.483 Y-1.384 I0 J0.313
G1 Y-1.22
X21.487 Y-1.19
X21.499 Y-1.162
X21.674 Y-0.857
X21.685 Y-0.829
X21.689 Y-0.799
Y-0.103
X15.389
Y-0.603
G2 X15.039 Y-0.953 I-0.35 J0
G1 X7.342
X7.277
X7.309 Y-1.003
X7.342 Y-1.053
X15.039
G2 X15.389 Y-1.403 I0 J-0.35
G1 Y-1.903
X21.689
Y-1.203
X21.685 Y-1.173
X21.673 Y-1.145
X21.499 Y-0.847
X21.487 Y-0.819
X21.483 Y-0.788
Z2.35 F80
Y-0.783
G3 X21.021 Y-0.548 I-0.291 J0
G2 X20.528 Y-0.709 I-0.493 J0.673
G1 X16.18 F450
G3 X15.955 Y-0.877 I0 J-0.235
G1 X15.94 Y-0.924
X15.927 Y-0.976
Y-1.03
X15.94 Y-1.082
X15.955 Y-1.129
G3 X16.18 Y-1.297 I0.225 J0.067
G1 X20.848
G3 X21.083 Y-1.062 I0 J0.235
G1 Y-0.944
G3 X20.848 Y-0.709 I-0.235 J0
G1 X20.528
X20.481 Y-0.702
X20.438 Y-0.682
X20.403 Y-0.65
X20.378 Y-0.609
X20.354 Y-0.568
X20.318 Y-0.536
X20.275 Y-0.516
X20.228 Y-0.509
X16.138
G3 X15.771 Y-0.793 I0 J-0.38
G1 X15.75 Y-0.86
G3 X15.75 Y-1.147 I0.397 J-0.143
G1 X15.771 Y-1.213
G3 X16.138 Y-1.497 I0.367 J0.095
G1 X20.964
G3 X21.283 Y-1.178 I0 J0.319
G1 Y-0.829
G3 X20.964 Y-0.509 I-0.319 J0
G1 X20.228
G3 X20.214 Y-0.909 I0 J-0.2
G1 X21.269 Y-0.982
G3 X21.483 Y-0.783 I0.014 J0.2
G1 Y-0.622
G3 X21.17 Y-0.309 I-0.313 J0
G1 X15.908
G3 X15.595 Y-0.615 I0 J-0.313
G1 X15.59 Y-0.68
X15.577 Y-0.743
X15.558 Y-0.804
G3 X15.558 Y-1.203 I0.516 J-0.2
G1 X15.577 Y-1.264
X15.59 Y-1.327
X15.595 Y-1.391
G3 X15.908 Y-1.697 I0.313 J0.007
G1 X21.17
G3 X21.483 Y-1.384 I0 J0.313
G1 Y-1.22
X21.487 Y-1.19
X21.499 Y-1.162
X21.674 Y-0.857
X21.685 Y-0.829
X21.689 Y-0.799
Y-0.103
X15.389
Y-0.603
G2 X15.039 Y-0.953 I-0.35 J0
G1 X7.342
X7.277
X7.309 Y-1.003
X7.342 Y-1.053
X15.039
G2 X15.389 Y-1.403 I0 J-0.35
G1 Y-1.903
X21.689
Y-1.203
X21.685 Y-1.173
X21.673 Y-1.145
X21.499 Y-0.847
X21.487 Y-0.819
X21.483 Y-0.788
Z2.15 F80
Y-0.783
G3 X21.021 Y-0.548 I-0.291 J0
G2 X20.528 Y-0.709 I-0.493 J0.673
G1 X16.18 F450
G3 X15.955 Y-0.877 I0 J-0.235
G1 X15.94 Y-0.924
X15.927 Y-0.976
Y-1.03
X15.94 Y-1.082
X15.955 Y-1.129
G3 X16.18 Y-1.297 I0.225 J0.067
G1 X20.848
G3 X21.083 Y-1.062 I0 J0.235
G1 Y-0.944
G3 X20.848 Y-0.709 I-0.235 J0
G1 X20.528
X20.481 Y-0.702
X20.438 Y-0.682
X20.403 Y-0.65
X20.378 Y-0.609
X20.354 Y-0.568
X20.318 Y-0.536
X20.275 Y-0.516
X20.228 Y-0.509
X16.138
G3 X15.771 Y-0.793 I0 J-0.38
G1 X15.75 Y-0.86
G3 X15.75 Y-1.147 I0.397 J-0.143
G1 X15.771 Y-1.213
G3 X16.138 Y-1.497 I0.367 J0.095
G1 X20.964
G3 X21.283 Y-1.178 I0 J0.319
G1 Y-0.829
G3 X20.964 Y-0.509 I-0.319 J0
G1 X20.228
G3 X20.214 Y-0.909 I0 J-0.2
G1 X21.269 Y-0.982
G3 X21.483 Y-0.783 I0.014 J0.2
G1 Y-0.622
G3 X21.17 Y-0.309 I-0.313 J0
G1 X15.908
G3 X15.595 Y-0.615 I0 J-0.313
G1 X15.59 Y-0.68
X15.577 Y-0.743
X15.558 Y-0.804
G3 X15.558 Y-1.203 I0.516 J-0.2
G1 X15.577 Y-1.264
X15.59 Y-1.327
X15.595 Y-1.391
G3 X15.908 Y-1.697 I0.313 J0.007
G1 X21.17
G3 X21.483 Y-1.384 I0 J0.313
G1 Y-1.22
X21.487 Y-1.19
X21.499 Y-1.162
X21.674 Y-0.857
X21.685 Y-0.829
X21.689 Y-0.799
Y-0.103
X15.389
Y-0.603
G2 X15.039 Y-0.953 I-0.35 J0
G1 X7.342
X7.277
X7.309 Y-1.003
X7.342 Y-1.053
X15.039
G2 X15.389 Y-1.403 I0 J-0.35
G1 Y-1.903
X21.689
Y-1.203
X21.685 Y-1.173
X21.673 Y-1.145
X21.499 Y-0.847
X21.487 Y-0.819
X21.483 Y-0.788
Z1.95 F80
Y-0.783
G3 X21.021 Y-0.548 I-0.291 J0
G2 X20.528 Y-0.709 I-0.493 J0.673
G1 X16.18 F450
G3 X15.955 Y-0.877 I0 J-0.235
G1 X15.94 Y-0.924
X15.927 Y-0.976
Y-1.03
X15.94 Y-1.082
X15.955 Y-1.129
G3 X16.18 Y-1.297 I0.225 J0.067
G1 X20.848
G3 X21.083 Y-1.062 I0 J0.235
G1 Y-0.944
G3 X20.848 Y-0.709 I-0.235 J0
G1 X20.528
X20.481 Y-0.702
X20.438 Y-0.682
X20.403 Y-0.65
X20.378 Y-0.609
X20.354 Y-0.568
X20.318 Y-0.536
X20.275 Y-0.516
X20.228 Y-0.509
X16.138
G3 X15.771 Y-0.793 I0 J-0.38
G1 X15.75 Y-0.86
G3 X15.75 Y-1.147 I0.397 J-0.143
G1 X15.771 Y-1.213
G3 X16.138 Y-1.497 I0.367 J0.095
G1 X20.964
G3 X21.283 Y-1.178 I0 J0.319
G1 Y-0.829
G3 X20.964 Y-0.509 I-0.319 J0
G1 X20.228
G3 X20.214 Y-0.909 I0 J-0.2
G1 X21.269 Y-0.982
G3 X21.483 Y-0.783 I0.014 J0.2
G1 Y-0.622
G3 X21.17 Y-0.309 I-0.313 J0
G1 X15.908
G3 X15.595 Y-0.615 I0 J-0.313
G1 X15.59 Y-0.68
X15.577 Y-0.743
X15.558 Y-0.804
G3 X15.558 Y-1.203 I0.516 J-0.2
G1 X15.577 Y-1.264
X15.59 Y-1.327
X15.595 Y-1.391
G3 X15.908 Y-1.697 I0.313 J0.007
G1 X21.17
G3 X21.483 Y-1.384 I0 J0.313
G1 Y-1.22
X21.487 Y-1.19
X21.499 Y-1.162
X21.674 Y-0.857
X21.685 Y-0.829
X21.689 Y-0.799
Y-0.103
X15.389
Y-0.603
G2 X15.039 Y-0.953 I-0.35 J0
G1 X7.342
X7.277
X7.309 Y-1.003
X7.342 Y-1.053
X15.039
G2 X15.389 Y-1.403 I0 J-0.35
G1 Y-1.903
X21.689
Y-1.203
X21.685 Y-1.173
X21.673 Y-1.145
X21.499 Y-0.847
X21.487 Y-0.819
X21.483 Y-0.788
Z1.75 F80
Y-0.783
G3 X21.021 Y-0.548 I-0.291 J0
G2 X20.528 Y-0.709 I-0.493 J0.673
G1 X16.18 F450
G3 X15.955 Y-0.877 I0 J-0.235
G1 X15.94 Y-0.924
X15.927 Y-0.976
Y-1.03
X15.94 Y-1.082
X15.955 Y-1.129
G3 X16.18 Y-1.297 I0.225 J0.067
G1 X20.848
G3 X21.083 Y-1.062 I0 J0.235
G1 Y-0.944
G3 X20.848 Y-0.709 I-0.235 J0
G1 X20.528
X20.481 Y-0.702
X20.438 Y-0.682
X20.403 Y-0.65
X20.378 Y-0.609
X20.354 Y-0.568
X20.318 Y-0.536
X20.275 Y-0.516
X20.228 Y-0.509
X16.138
G3 X15.771 Y-0.793 I0 J-0.38
G1 X15.75 Y-0.86
G3 X15.75 Y-1.147 I0.397 J-0.143
G1 X15.771 Y-1.213
G3 X16.138 Y-1.497 I0.367 J0.095
G1 X20.964
G3 X21.283 Y-1.178 I0 J0.319
G1 Y-0.829
G3 X20.964 Y-0.509 I-0.319 J0
G1 X20.228
G3 X20.214 Y-0.909 I0 J-0.2
G1 X21.269 Y-0.982
G3 X21.483 Y-0.783 I0.014 J0.2
G1 Y-0.622
G3 X21.17 Y-0.309 I-0.313 J0
G1 X15.908
G3 X15.595 Y-0.615 I0 J-0.313
G1 X15.59 Y-0.68
X15.577 Y-0.743
X15.558 Y-0.804
G3 X15.558 Y-1.203 I0.516 J-0.2
G1 X15.577 Y-1.264
X15.59 Y-1.327
X15.595 Y-1.391
G3 X15.908 Y-1.697 I0.313 J0.007
G1 X21.17
G3 X21.483 Y-1.384 I0 J0.313
G1 Y-1.22
X21.487 Y-1.19
X21.499 Y-1.162
X21.674 Y-0.857
X21.685 Y-0.829
X21.689 Y-0.799
Y-0.103
X15.389
Y-0.603
G2 X15.039 Y-0.953 I-0.35 J0
G1 X7.342
X7.277
X7.309 Y-1.003
X7.342 Y-1.053
X15.039
G2 X15.389 Y-1.403 I0 J-0.35
G1 Y-1.903
X21.689
Y-1.203
X21.685 Y-1.173
X21.673 Y-1.145
X21.499 Y-0.847
X21.487 Y-0.819
X21.483 Y-0.788
Z1.55 F80
Y-0.783
G3 X21.021 Y-0.548 I-0.291 J0
G2 X20.528 Y-0.709 I-0.493 J0.673
G1 X16.18 F450
G3 X15.955 Y-0.877 I0 J-0.235
G1 X15.94 Y-0.924
X15.927 Y-0.976
Y-1.03
X15.94 Y-1.082
X15.955 Y-1.129
G3 X16.18 Y-1.297 I0.225 J0.067
G1 X20.848
G3 X21.083 Y-1.062 I0 J0.235
G1 Y-0.944
G3 X20.848 Y-0.709 I-0.235 J0
G1 X20.528
X20.481 Y-0.702
X20.438 Y-0.682
X20.403 Y-0.65
X20.378 Y-0.609
X20.354 Y-0.568
X20.318 Y-0.536
X20.275 Y-0.516
X20.228 Y-0.509
X16.138
G3 X15.771 Y-0.793 I0 J-0.38
G1 X15.75 Y-0.86
G3 X15.75 Y-1.147 I0.397 J-0.143
G1 X15.771 Y-1.213
G3 X16.138 Y-1.497 I0.367 J0.095
G1 X20.964
G3 X21.283 Y-1.178 I0 J0.319
G1 Y-0.829
G3 X20.964 Y-0.509 I-0.319 J0
G1 X20.228
G3 X20.214 Y-0.909 I0 J-0.2
G1 X21.269 Y-0.982
G3 X21.483 Y-0.783 I0.014 J0.2
G1 Y-0.622
G3 X21.17 Y-0.309 I-0.313 J0
G1 X15.908
G3 X15.595 Y-0.615 I0 J-0.313
G1 X15.59 Y-0.68
X15.577 Y-0.743
X15.558 Y-0.804
G3 X15.558 Y-1.203 I0.516 J-0.2
G1 X15.577 Y-1.264
X15.59 Y-1.327
X15.595 Y-1.391
G3 X15.908 Y-1.697 I0.313 J0.007
G1 X21.17
G3 X21.483 Y-1.384 I0 J0.313
G1 Y-1.22
X21.487 Y-1.19
X21.499 Y-1.162
X21.674 Y-0.857
X21.685 Y-0.829
X21.689 Y-0.799
Y-0.103
X15.389
Y-0.603
G2 X15.039 Y-0.953 I-0.35 J0
G1 X7.342
X7.277
X7.309 Y-1.003
X7.342 Y-1.053
X15.039
G2 X15.389 Y-1.403 I0 J-0.35
G1 Y-1.903
X21.689
Y-1.203
X21.685 Y-1.173
X21.673 Y-1.145
X21.499 Y-0.847
X21.487 Y-0.819
X21.483 Y-0.788
Z1.35 F80
Y-0.783
G3 X21.021 Y-0.548 I-0.291 J0
G2 X20.528 Y-0.709 I-0.493 J0.673
G1 X16.18 F450
G3 X15.955 Y-0.877 I0 J-0.235
G1 X15.94 Y-0.924
X15.927 Y-0.976
Y-1.03
X15.94 Y-1.082
X15.955 Y-1.129
G3 X16.18 Y-1.297 I0.225 J0.067
G1 X20.848
G3 X21.083 Y-1.062 I0 J0.235
G1 Y-0.944
G3 X20.848 Y-0.709 I-0.235 J0
G1 X20.528
X20.481 Y-0.702
X20.438 Y-0.682
X20.403 Y-0.65
X20.378 Y-0.609
X20.354 Y-0.568
X20.318 Y-0.536
X20.275 Y-0.516
X20.228 Y-0.509
X16.138
G3 X15.771 Y-0.793 I0 J-0.38
G1 X15.75 Y-0.86
G3 X15.75 Y-1.147 I0.397 J-0.143
G1 X15.771 Y-1.213
G3 X16.138 Y-1.497 I0.367 J0.095
G1 X20.964
G3 X21.283 Y-1.178 I0 J0.319
G1 Y-0.829
G3 X20.964 Y-0.509 I-0.319 J0
G1 X20.228
G3 X20.214 Y-0.909 I0 J-0.2
G1 X21.269 Y-0.982
G3 X21.483 Y-0.783 I0.014 J0.2
G1 Y-0.622
G3 X21.17 Y-0.309 I-0.313 J0
G1 X15.908
G3 X15.595 Y-0.615 I0 J-0.313
G1 X15.59 Y-0.68
X15.577 Y-0.743
X15.558 Y-0.804
G3 X15.558 Y-1.203 I0.516 J-0.2
G1 X15.577 Y-1.264
X15.59 Y-1.327
X15.595 Y-1.391
G3 X15.908 Y-1.697 I0.313 J0.007
G1 X21.17
G3 X21.483 Y-1.384 I0 J0.313
G1 Y-1.22
X21.487 Y-1.19
X21.499 Y-1.162
X21.674 Y-0.857
X21.685 Y-0.829
X21.689 Y-0.799
Y-0.103
X15.389
Y-0.603
G2 X15.039 Y-0.953 I-0.35 J0
G1 X7.342
X7.277
X7.309 Y-1.003
X7.342 Y-1.053
X15.039
G2 X15.389 Y-1.403 I0 J-0.35
G1 Y-1.903
X21.689
Y-1.203
X21.685 Y-1.173
X21.673 Y-1.145
X21.499 Y-0.847
X21.487 Y-0.819
X21.483 Y-0.788
Z1.15 F80
Y-0.783
G3 X21.021 Y-0.548 I-0.291 J0
G2 X20.528 Y-0.709 I-0.493 J0.673
G1 X16.18 F450
G3 X15.955 Y-0.877 I0 J-0.235
G1 X15.94 Y-0.924
X15.927 Y-0.976
Y-1.03
X15.94 Y-1.082
X15.955 Y-1.129
G3 X16.18 Y-1.297 I0.225 J0.067
G1 X20.848
G3 X21.083 Y-1.062 I0 J0.235
G1 Y-0.944
G3 X20.848 Y-0.709 I-0.235 J0
G1 X20.528
X20.481 Y-0.702
X20.438 Y-0.682
X20.403 Y-0.65
X20.378 Y-0.609
X20.354 Y-0.568
X20.318 Y-0.536
X20.275 Y-0.516
X20.228 Y-0.509
X16.138
G3 X15.771 Y-0.793 I0 J-0.38
G1 X15.75 Y-0.86
G3 X15.75 Y-1.147 I0.397 J-0.143
G1 X15.771 Y-1.213
G3 X16.138 Y-1.497 I0.367 J0.095
G1 X20.964
G3 X21.283 Y-1.178 I0 J0.319
G1 Y-0.829
G3 X20.964 Y-0.509 I-0.319 J0
G1 X20.228
G3 X20.214 Y-0.909 I0 J-0.2
G1 X21.269 Y-0.982
G3 X21.483 Y-0.783 I0.014 J0.2
G1 Y-0.622
G3 X21.17 Y-0.309 I-0.313 J0
G1 X15.908
G3 X15.595 Y-0.615 I0 J-0.313
G1 X15.59 Y-0.68
X15.577 Y-0.743
X15.558 Y-0.804
G3 X15.558 Y-1.203 I0.516 J-0.2
G1 X15.577 Y-1.264
X15.59 Y-1.327
X15.595 Y-1.391
G3 X15.908 Y-1.697 I0.313 J0.007
G1 X21.17
G3 X21.483 Y-1.384 I0 J0.313
G1 Y-1.22
X21.487 Y-1.19
X21.499 Y-1.162
X21.674 Y-0.857
X21.685 Y-0.829
X21.689 Y-0.799
Y-0.103
X15.389
Y-0.603
G2 X15.039 Y-0.953 I-0.35 J0
G1 X7.342
X7.277
X7.309 Y-1.003
X7.342 Y-1.053
X15.039
G2 X15.389 Y-1.403 I0 J-0.35
G1 Y-1.903
X21.689
Y-1.203
X21.685 Y-1.173
X21.673 Y-1.145
X21.499 Y-0.847
X21.487 Y-0.819
X21.483 Y-0.788
Z0.95 F80
Y-0.783
G3 X21.021 Y-0.548 I-0.291 J0
G2 X20.528 Y-0.709 I-0.493 J0.673
G1 X16.18 F450
G3 X15.955 Y-0.877 I0 J-0.235
G1 X15.94 Y-0.924
X15.927 Y-0.976
Y-1.03
X15.94 Y-1.082
X15.955 Y-1.129
G3 X16.18 Y-1.297 I0.225 J0.067
G1 X20.848
G3 X21.083 Y-1.062 I0 J0.235
G1 Y-0.944
G3 X20.848 Y-0.709 I-0.235 J0
G1 X20.528
X20.481 Y-0.702
X20.438 Y-0.682
X20.403 Y-0.65
X20.378 Y-0.609
X20.354 Y-0.568
X20.318 Y-0.536
X20.275 Y-0.516
X20.228 Y-0.509
X16.138
G3 X15.771 Y-0.793 I0 J-0.38
G1 X15.75 Y-0.86
G3 X15.75 Y-1.147 I0.397 J-0.143
G1 X15.771 Y-1.213
G3 X16.138 Y-1.497 I0.367 J0.095
G1 X20.964
G3 X21.283 Y-1.178 I0 J0.319
G1 Y-0.829
G3 X20.964 Y-0.509 I-0.319 J0
G1 X20.228
G3 X20.214 Y-0.909 I0 J-0.2
G1 X21.269 Y-0.982
G3 X21.483 Y-0.783 I0.014 J0.2
G1 Y-0.622
G3 X21.17 Y-0.309 I-0.313 J0
G1 X15.908
G3 X15.595 Y-0.615 I0 J-0.313
G1 X15.59 Y-0.68
X15.577 Y-0.743
X15.558 Y-0.804
G3 X15.558 Y-1.203 I0.516 J-0.2
G1 X15.577 Y-1.264
X15.59 Y-1.327
X15.595 Y-1.391
G3 X15.908 Y-1.697 I0.313 J0.007
G1 X21.17
G3 X21.483 Y-1.384 I0 J0.313
G1 Y-1.22
X21.487 Y-1.19
X21.499 Y-1.162
X21.674 Y-0.857
X21.685 Y-0.829
X21.689 Y-0.799
Y-0.103
X15.389
Y-0.603
G2 X15.039 Y-0.953 I-0.35 J0
G1 X7.342
X7.277
X7.309 Y-1.003
X7.342 Y-1.053
X15.039
G2 X15.389 Y-1.403 I0 J-0.35
G1 Y-1.903
X21.689
Y-1.203
X21.685 Y-1.173
X21.673 Y-1.145
X21.499 Y-0.847
X21.487 Y-0.819
X21.483 Y-0.788
Z0.75 F80
Y-0.783
G3 X21.021 Y-0.548 I-0.291 J0
G2 X20.528 Y-0.709 I-0.493 J0.673
G1 X16.18 F450
G3 X15.955 Y-0.877 I0 J-0.235
G1 X15.94 Y-0.924
X15.927 Y-0.976
Y-1.03
X15.94 Y-1.082
X15.955 Y-1.129
G3 X16.18 Y-1.297 I0.225 J0.067
G1 X20.848
G3 X21.083 Y-1.062 I0 J0.235
G1 Y-0.944
G3 X20.848 Y-0.709 I-0.235 J0
G1 X20.528
X20.481 Y-0.702
X20.438 Y-0.682
X20.403 Y-0.65
X20.378 Y-0.609
X20.354 Y-0.568
X20.318 Y-0.536
X20.275 Y-0.516
X20.228 Y-0.509
X16.138
G3 X15.771 Y-0.793 I0 J-0.38
G1 X15.75 Y-0.86
G3 X15.75 Y-1.147 I0.397 J-0.143
G1 X15.771 Y-1.213
G3 X16.138 Y-1.497 I0.367 J0.095
G1 X20.964
G3 X21.283 Y-1.178 I0 J0.319
G1 Y-0.829
G3 X20.964 Y-0.509 I-0.319 J0
G1 X20.228
G3 X20.214 Y-0.909 I0 J-0.2
G1 X21.269 Y-0.982
G3 X21.483 Y-0.783 I0.014 J0.2
G1 Y-0.622
G3 X21.17 Y-0.309 I-0.313 J0
G1 X15.908
G3 X15.595 Y-0.615 I0 J-0.313
G1 X15.59 Y-0.68
X15.577 Y-0.743
X15.558 Y-0.804
G3 X15.558 Y-1.203 I0.516 J-0.2
G1 X15.577 Y-1.264
X15.59 Y-1.327
X15.595 Y-1.391
G3 X15.908 Y-1.697 I0.313 J0.007
G1 X21.17
G3 X21.483 Y-1.384 I0 J0.313
G1 Y-1.22
X21.487 Y-1.19
X21.499 Y-1.162
X21.674 Y-0.857
X21.685 Y-0.829
X21.689 Y-0.799
Y-0.103
X15.389
Y-0.603
G2 X15.039 Y-0.953 I-0.35 J0
G1 X7.342
X7.277
X7.309 Y-1.003
X7.342 Y-1.053
X15.039
G2 X15.389 Y-1.403 I0 J-0.35
G1 Y-1.903
X21.689
Y-1.203
X21.685 Y-1.173
X21.673 Y-1.145
X21.499 Y-0.847
X21.487 Y-0.819
X21.483 Y-0.788
Z0.55 F80
Y-0.783
G3 X21.021 Y-0.548 I-0.291 J0
G2 X20.528 Y-0.709 I-0.493 J0.673
G1 X16.18 F450
G3 X15.955 Y-0.877 I0 J-0.235
G1 X15.94 Y-0.924
X15.927 Y-0.976
Y-1.03
X15.94 Y-1.082
X15.955 Y-1.129
G3 X16.18 Y-1.297 I0.225 J0.067
G1 X20.848
G3 X21.083 Y-1.062 I0 J0.235
G1 Y-0.944
G3 X20.848 Y-0.709 I-0.235 J0
G1 X20.528
X20.481 Y-0.702
X20.438 Y-0.682
X20.403 Y-0.65
X20.378 Y-0.609
X20.354 Y-0.568
X20.318 Y-0.536
X20.275 Y-0.516
X20.228 Y-0.509
X16.138
G3 X15.771 Y-0.793 I0 J-0.38
G1 X15.75 Y-0.86
G3 X15.75 Y-1.147 I0.397 J-0.143
G1 X15.771 Y-1.213
G3 X16.138 Y-1.497 I0.367 J0.095
G1 X20.964
G3 X21.283 Y-1.178 I0 J0.319
G1 Y-0.829
G3 X20.964 Y-0.509 I-0.319 J0
G1 X20.228
G3 X20.214 Y-0.909 I0 J-0.2
G1 X21.269 Y-0.982
G3 X21.483 Y-0.783 I0.014 J0.2
G1 Y-0.622
G3 X21.17 Y-0.309 I-0.313 J0
G1 X15.908
G3 X15.595 Y-0.615 I0 J-0.313
G1 X15.59 Y-0.68
X15.577 Y-0.743
X15.558 Y-0.804
G3 X15.558 Y-1.203 I0.516 J-0.2
G1 X15.577 Y-1.264
X15.59 Y-1.327
X15.595 Y-1.391
G3 X15.908 Y-1.697 I0.313 J0.007
G1 X21.17
G3 X21.483 Y-1.384 I0 J0.313
G1 Y-1.22
X21.487 Y-1.19
X21.499 Y-1.162
X21.674 Y-0.857
X21.685 Y-0.829
X21.689 Y-0.799
Y-0.103
X15.389
Y-0.603
G2 X15.039 Y-0.953 I-0.35 J0
G1 X7.342
X7.277
X7.309 Y-1.003
X7.342 Y-1.053
X15.039
G2 X15.389 Y-1.403 I0 J-0.35
G1 Y-1.903
X21.689
Y-1.203
X21.685 Y-1.173
X21.673 Y-1.145
X21.499 Y-0.847
X21.487 Y-0.819
X21.483 Y-0.788
Z0.35 F80
Y-0.783
G3 X21.021 Y-0.548 I-0.291 J0
G2 X20.528 Y-0.709 I-0.493 J0.673
G1 X16.18 F450
G3 X15.955 Y-0.877 I0 J-0.235
G1 X15.94 Y-0.924
X15.927 Y-0.976
Y-1.03
X15.94 Y-1.082
X15.955 Y-1.129
G3 X16.18 Y-1.297 I0.225 J0.067
G1 X20.848
G3 X21.083 Y-1.062 I0 J0.235
G1 Y-0.944
G3 X20.848 Y-0.709 I-0.235 J0
G1 X20.528
X20.481 Y-0.702
X20.438 Y-0.682
X20.403 Y-0.65
X20.378 Y-0.609
X20.354 Y-0.568
X20.318 Y-0.536
X20.275 Y-0.516
X20.228 Y-0.509
X16.138
G3 X15.771 Y-0.793 I0 J-0.38
G1 X15.75 Y-0.86
G3 X15.75 Y-1.147 I0.397 J-0.143
G1 X15.771 Y-1.213
G3 X16.138 Y-1.497 I0.367 J0.095
G1 X20.964
G3 X21.283 Y-1.178 I0 J0.319
G1 Y-0.829
G3 X20.964 Y-0.509 I-0.319 J0
G1 X20.228
G3 X20.214 Y-0.909 I0 J-0.2
G1 X21.269 Y-0.982
G3 X21.483 Y-0.783 I0.014 J0.2
G1 Y-0.622
G3 X21.17 Y-0.309 I-0.313 J0
G1 X15.908
G3 X15.595 Y-0.615 I0 J-0.313
G1 X15.59 Y-0.68
X15.577 Y-0.743
X15.558 Y-0.804
G3 X15.558 Y-1.203 I0.516 J-0.2
G1 X15.577 Y-1.264
X15.59 Y-1.327
X15.595 Y-1.391
G3 X15.908 Y-1.697 I0.313 J0.007
G1 X21.17
G3 X21.483 Y-1.384 I0 J0.313
G1 Y-1.22
X21.487 Y-1.19
X21.499 Y-1.162
X21.674 Y-0.857
X21.685 Y-0.829
X21.689 Y-0.799
Y-0.103
X15.389
Y-0.603
G2 X15.039 Y-0.953 I-0.35 J0
G1 X7.342
X7.277
X7.309 Y-1.003
X7.342 Y-1.053
X15.039
G2 X15.389 Y-1.403 I0 J-0.35
G1 Y-1.903
X21.689
Y-1.203
X21.685 Y-1.173
X21.673 Y-1.145
X21.499 Y-0.847
X21.487 Y-0.819
X21.483 Y-0.788
Z0.15 F80
Y-0.783
G3 X21.021 Y-0.548 I-0.291 J0
G2 X20.528 Y-0.709 I-0.493 J0.673
G1 X16.18 F450
G3 X15.955 Y-0.877 I0 J-0.235
G1 X15.94 Y-0.924
X15.927 Y-0.976
Y-1.03
X15.94 Y-1.082
X15.955 Y-1.129
G3 X16.18 Y-1.297 I0.225 J0.067
G1 X20.848
G3 X21.083 Y-1.062 I0 J0.235
G1 Y-0.944
G3 X20.848 Y-0.709 I-0.235 J0
G1 X20.528
X20.481 Y-0.702
X20.438 Y-0.682
X20.403 Y-0.65
X20.378 Y-0.609
X20.354 Y-0.568
X20.318 Y-0.536
X20.275 Y-0.516
X20.228 Y-0.509
X16.138
G3 X15.771 Y-0.793 I0 J-0.38
G1 X15.75 Y-0.86
G3 X15.75 Y-1.147 I0.397 J-0.143
G1 X15.771 Y-1.213
G3 X16.138 Y-1.497 I0.367 J0.095
G1 X20.964
G3 X21.283 Y-1.178 I0 J0.319
G1 Y-0.829
G3 X20.964 Y-0.509 I-0.319 J0
G1 X20.228
G3 X20.214 Y-0.909 I0 J-0.2
G1 X21.269 Y-0.982
G3 X21.483 Y-0.783 I0.014 J0.2
G1 Y-0.622
G3 X21.17 Y-0.309 I-0.313 J0
G1 X15.908
G3 X15.595 Y-0.615 I0 J-0.313
G1 X15.59 Y-0.68
X15.577 Y-0.743
X15.558 Y-0.804
G3 X15.558 Y-1.203 I0.516 J-0.2
G1 X15.577 Y-1.264
X15.59 Y-1.327
X15.595 Y-1.391
G3 X15.908 Y-1.697 I0.313 J0.007
G1 X21.17
G3 X21.483 Y-1.384 I0 J0.313
G1 Y-1.22
X21.487 Y-1.19
X21.499 Y-1.162
X21.674 Y-0.857
X21.685 Y-0.829
X21.689 Y-0.799
Y-0.103
X15.389
Y-0.603
G2 X15.039 Y-0.953 I-0.35 J0
G1 X7.342
X7.277
X7.309 Y-1.003
X7.342 Y-1.053
X15.039
G2 X15.389 Y-1.403 I0 J-0.35
G1 Y-1.903
X21.689
Y-1.203
Z12.15
X7.095 Y-3.715
Z6.15
Z4.18 F80
Z3.95
Y-3.724
G3 X7.557 Y-3.958 I0.291 J0
G2 X8.05 Y-3.797 I0.493 J-0.673
G1 X12.398 F450
G3 X12.623 Y-3.629 I0 J0.235
G1 X12.639 Y-3.582
X12.651 Y-3.53
Y-3.476
X12.639 Y-3.424
X12.623 Y-3.377
G3 X12.398 Y-3.209 I-0.225 J-0.067
G1 X7.73
G3 X7.495 Y-3.444 I0 J-0.235
G1 Y-3.562
G3 X7.73 Y-3.797 I0.235 J0
G1 X8.05
X8.097 Y-3.804
X8.14 Y-3.824
X8.175 Y-3.856
X8.2 Y-3.897
X8.225 Y-3.938
X8.26 Y-3.97
X8.303 Y-3.99
X8.35 Y-3.997
X12.44
G3 X12.807 Y-3.713 I0 J0.38
G1 X12.828 Y-3.647
G3 X12.828 Y-3.36 I-0.397 J0.143
G1 X12.807 Y-3.293
G3 X12.44 Y-3.009 I-0.367 J-0.095
G1 X7.614
G3 X7.295 Y-3.329 I0 J-0.319
G1 Y-3.678
G3 X7.614 Y-3.997 I0.319 J0
G1 X8.35
G3 X8.364 Y-3.598 I0 J0.2
G1 X7.309 Y-3.524
G3 X7.095 Y-3.724 I-0.014 J-0.2
G1 Y-3.884
G3 X7.408 Y-4.197 I0.313 J0
G1 X12.67
G3 X12.983 Y-3.891 I0 J0.313
G1 X12.988 Y-3.827
X13.001 Y-3.764
X13.021 Y-3.703
G3 X13.021 Y-3.304 I-0.516 J0.2
G1 X13.001 Y-3.243
X12.988 Y-3.18
X12.983 Y-3.115
G3 X12.67 Y-2.809 I-0.313 J-0.007
G1 X7.408
G3 X7.095 Y-3.122 I0 J-0.313
G1 Y-3.286
X7.091 Y-3.316
X7.079 Y-3.345
X6.905 Y-3.645
X6.893 Y-3.673
X6.889 Y-3.703
Y-4.403
X13.189
Y-3.903
G2 X13.539 Y-3.553 I0.35 J0
G1 X21.231
X21.297
X21.322 Y-3.546
X21.34 Y-3.528
X21.347 Y-3.503
X21.34 Y-3.478
X21.321 Y-3.46
X21.296 Y-3.453
X21.295
X13.539
G2 X13.189 Y-3.103 I0 J0.35
G1 Y-2.603
X6.889
Y-3.003
Y-3.309
X6.893 Y-3.34
X6.905 Y-3.368
X7.079 Y-3.657
X7.091 Y-3.685
X7.095 Y-3.715
Z3.75 F80
Y-3.724
G3 X7.557 Y-3.958 I0.291 J0
G2 X8.05 Y-3.797 I0.493 J-0.673
G1 X12.398 F450
G3 X12.623 Y-3.629 I0 J0.235
G1 X12.639 Y-3.582
X12.651 Y-3.53
Y-3.476
X12.639 Y-3.424
X12.623 Y-3.377
G3 X12.398 Y-3.209 I-0.225 J-0.067
G1 X7.73
G3 X7.495 Y-3.444 I0 J-0.235
G1 Y-3.562
G3 X7.73 Y-3.797 I0.235 J0
G1 X8.05
X8.097 Y-3.804
X8.14 Y-3.824
X8.175 Y-3.856
X8.2 Y-3.897
X8.225 Y-3.938
X8.26 Y-3.97
X8.303 Y-3.99
X8.35 Y-3.997
X12.44
G3 X12.807 Y-3.713 I0 J0.38
G1 X12.828 Y-3.647
G3 X12.828 Y-3.36 I-0.397 J0.143
G1 X12.807 Y-3.293
G3 X12.44 Y-3.009 I-0.367 J-0.095
G1 X7.614
G3 X7.295 Y-3.329 I0 J-0.319
G1 Y-3.678
G3 X7.614 Y-3.997 I0.319 J0
G1 X8.35
G3 X8.364 Y-3.598 I0 J0.2
G1 X7.309 Y-3.524
G3 X7.095 Y-3.724 I-0.014 J-0.2
G1 Y-3.884
G3 X7.408 Y-4.197 I0.313 J0
G1 X12.67
G3 X12.983 Y-3.891 I0 J0.313
G1 X12.988 Y-3.827
X13.001 Y-3.764
X13.021 Y-3.703
G3 X13.021 Y-3.304 I-0.516 J0.2
G1 X13.001 Y-3.243
X12.988 Y-3.18
X12.983 Y-3.115
G3 X12.67 Y-2.809 I-0.313 J-0.007
G1 X7.408
G3 X7.095 Y-3.122 I0 J-0.313
G1 Y-3.286
X7.091 Y-3.316
X7.079 Y-3.345
X6.905 Y-3.645
X6.893 Y-3.673
X6.889 Y-3.703
Y-4.403
X13.189
Y-3.903
G2 X13.539 Y-3.553 I0.35 J0
G1 X21.231
X21.297
X21.322 Y-3.546
X21.34 Y-3.528
X21.347 Y-3.503
X21.34 Y-3.478
X21.321 Y-3.46
X21.296 Y-3.453
X21.295
X13.539
G2 X13.189 Y-3.103 I0 J0.35
G1 Y-2.603
X6.889
Y-3.003
Y-3.309
X6.893 Y-3.34
X6.905 Y-3.368
X7.079 Y-3.657
X7.091 Y-3.685
X7.095 Y-3.715
Z3.55 F80
Y-3.724
G3 X7.557 Y-3.958 I0.291 J0
G2 X8.05 Y-3.797 I0.493 J-0.673
G1 X12.398 F450
G3 X12.623 Y-3.629 I0 J0.235
G1 X12.639 Y-3.582
X12.651 Y-3.53
Y-3.476
X12.639 Y-3.424
X12.623 Y-3.377
G3 X12.398 Y-3.209 I-0.225 J-0.067
G1 X7.73
G3 X7.495 Y-3.444 I0 J-0.235
G1 Y-3.562
G3 X7.73 Y-3.797 I0.235 J0
G1 X8.05
X8.097 Y-3.804
X8.14 Y-3.824
X8.175 Y-3.856
X8.2 Y-3.897
X8.225 Y-3.938
X8.26 Y-3.97
X8.303 Y-3.99
X8.35 Y-3.997
X12.44
G3 X12.807 Y-3.713 I0 J0.38
G1 X12.828 Y-3.647
G3 X12.828 Y-3.36 I-0.397 J0.143
G1 X12.807 Y-3.293
G3 X12.44 Y-3.009 I-0.367 J-0.095
G1 X7.614
G3 X7.295 Y-3.329 I0 J-0.319
G1 Y-3.678
G3 X7.614 Y-3.997 I0.319 J0
G1 X8.35
G3 X8.364 Y-3.598 I0 J0.2
G1 X7.309 Y-3.524
G3 X7.095 Y-3.724 I-0.014 J-0.2
G1 Y-3.884
G3 X7.408 Y-4.197 I0.313 J0
G1 X12.67
G3 X12.983 Y-3.891 I0 J0.313
G1 X12.988 Y-3.827
X13.001 Y-3.764
X13.021 Y-3.703
G3 X13.021 Y-3.304 I-0.516 J0.2
G1 X13.001 Y-3.243
X12.988 Y-3.18
X12.983 Y-3.115
G3 X12.67 Y-2.809 I-0.313 J-0.007
G1 X7.408
G3 X7.095 Y-3.122 I0 J-0.313
G1 Y-3.286
X7.091 Y-3.316
X7.079 Y-3.345
X6.905 Y-3.645
X6.893 Y-3.673
X6.889 Y-3.703
Y-4.403
X13.189
Y-3.903
G2 X13.539 Y-3.553 I0.35 J0
G1 X21.231
X21.297
X21.322 Y-3.546
X21.34 Y-3.528
X21.347 Y-3.503
X21.34 Y-3.478
X21.321 Y-3.46
X21.296 Y-3.453
X21.295
X13.539
G2 X13.189 Y-3.103 I0 J0.35
G1 Y-2.603
X6.889
Y-3.003
Y-3.309
X6.893 Y-3.34
X6.905 Y-3.368
X7.079 Y-3.657
X7.091 Y-3.685
X7.095 Y-3.715
Z3.35 F80
Y-3.724
G3 X7.557 Y-3.958 I0.291 J0
G2 X8.05 Y-3.797 I0.493 J-0.673
G1 X12.398 F450
G3 X12.623 Y-3.629 I0 J0.235
G1 X12.639 Y-3.582
X12.651 Y-3.53
Y-3.476
X12.639 Y-3.424
X12.623 Y-3.377
G3 X12.398 Y-3.209 I-0.225 J-0.067
G1 X7.73
G3 X7.495 Y-3.444 I0 J-0.235
G1 Y-3.562
G3 X7.73 Y-3.797 I0.235 J0
G1 X8.05
X8.097 Y-3.804
X8.14 Y-3.824
X8.175 Y-3.856
X8.2 Y-3.897
X8.225 Y-3.938
X8.26 Y-3.97
X8.303 Y-3.99
X8.35 Y-3.997
X12.44
G3 X12.807 Y-3.713 I0 J0.38
G1 X12.828 Y-3.647
G3 X12.828 Y-3.36 I-0.397 J0.143
G1 X12.807 Y-3.293
G3 X12.44 Y-3.009 I-0.367 J-0.095
G1 X7.614
G3 X7.295 Y-3.329 I0 J-0.319
G1 Y-3.678
G3 X7.614 Y-3.997 I0.319 J0
G1 X8.35
G3 X8.364 Y-3.598 I0 J0.2
G1 X7.309 Y-3.524
G3 X7.095 Y-3.724 I-0.014 J-0.2
G1 Y-3.884
G3 X7.408 Y-4.197 I0.313 J0
G1 X12.67
G3 X12.983 Y-3.891 I0 J0.313
G1 X12.988 Y-3.827
X13.001 Y-3.764
X13.021 Y-3.703
G3 X13.021 Y-3.304 I-0.516 J0.2
G1 X13.001 Y-3.243
X12.988 Y-3.18
X12.983 Y-3.115
G3 X12.67 Y-2.809 I-0.313 J-0.007
G1 X7.408
G3 X7.095 Y-3.122 I0 J-0.313
G1 Y-3.286
X7.091 Y-3.316
X7.079 Y-3.345
X6.905 Y-3.645
X6.893 Y-3.673
X6.889 Y-3.703
Y-4.403
X13.189
Y-3.903
G2 X13.539 Y-3.553 I0.35 J0
G1 X21.231
X21.297
X21.322 Y-3.546
X21.34 Y-3.528
X21.347 Y-3.503
X21.34 Y-3.478
X21.321 Y-3.46
X21.296 Y-3.453
X21.295
X13.539
G2 X13.189 Y-3.103 I0 J0.35
G1 Y-2.603
X6.889
Y-3.003
Y-3.309
X6.893 Y-3.34
X6.905 Y-3.368
X7.079 Y-3.657
X7.091 Y-3.685
X7.095 Y-3.715
Z3.15 F80
Y-3.724
G3 X7.557 Y-3.958 I0.291 J0
G2 X8.05 Y-3.797 I0.493 J-0.673
G1 X12.398 F450
G3 X12.623 Y-3.629 I0 J0.235
G1 X12.639 Y-3.582
X12.651 Y-3.53
Y-3.476
X12.639 Y-3.424
X12.623 Y-3.377
G3 X12.398 Y-3.209 I-0.225 J-0.067
G1 X7.73
G3 X7.495 Y-3.444 I0 J-0.235
G1 Y-3.562
G3 X7.73 Y-3.797 I0.235 J0
G1 X8.05
X8.097 Y-3.804
X8.14 Y-3.824
X8.175 Y-3.856
X8.2 Y-3.897
X8.225 Y-3.938
X8.26 Y-3.97
X8.303 Y-3.99
X8.35 Y-3.997
X12.44
G3 X12.807 Y-3.713 I0 J0.38
G1 X12.828 Y-3.647
G3 X12.828 Y-3.36 I-0.397 J0.143
G1 X12.807 Y-3.293
G3 X12.44 Y-3.009 I-0.367 J-0.095
G1 X7.614
G3 X7.295 Y-3.329 I0 J-0.319
G1 Y-3.678
G3 X7.614 Y-3.997 I0.319 J0
G1 X8.35
G3 X8.364 Y-3.598 I0 J0.2
G1 X7.309 Y-3.524
G3 X7.095 Y-3.724 I-0.014 J-0.2
G1 Y-3.884
G3 X7.408 Y-4.197 I0.313 J0
G1 X12.67
G3 X12.983 Y-3.891 I0 J0.313
G1 X12.988 Y-3.827
X13.001 Y-3.764
X13.021 Y-3.703
G3 X13.021 Y-3.304 I-0.516 J0.2
G1 X13.001 Y-3.243
X12.988 Y-3.18
X12.983 Y-3.115
G3 X12.67 Y-2.809 I-0.313 J-0.007
G1 X7.408
G3 X7.095 Y-3.122 I0 J-0.313
G1 Y-3.286
X7.091 Y-3.316
X7.079 Y-3.345
X6.905 Y-3.645
X6.893 Y-3.673
X6.889 Y-3.703
Y-4.403
X13.189
Y-3.903
G2 X13.539 Y-3.553 I0.35 J0
G1 X21.231
X21.297
X21.322 Y-3.546
X21.34 Y-3.528
X21.347 Y-3.503
X21.34 Y-3.478
X21.321 Y-3.46
X21.296 Y-3.453
X21.295
X13.539
G2 X13.189 Y-3.103 I0 J0.35
G1 Y-2.603
X6.889
Y-3.003
Y-3.309
X6.893 Y-3.34
X6.905 Y-3.368
X7.079 Y-3.657
X7.091 Y-3.685
X7.095 Y-3.715
Z2.95 F80
Y-3.724
G3 X7.557 Y-3.958 I0.291 J0
G2 X8.05 Y-3.797 I0.493 J-0.673
G1 X12.398 F450
G3 X12.623 Y-3.629 I0 J0.235
G1 X12.639 Y-3.582
X12.651 Y-3.53
Y-3.476
X12.639 Y-3.424
X12.623 Y-3.377
G3 X12.398 Y-3.209 I-0.225 J-0.067
G1 X7.73
G3 X7.495 Y-3.444 I0 J-0.235
G1 Y-3.562
G3 X7.73 Y-3.797 I0.235 J0
G1 X8.05
X8.097 Y-3.804
X8.14 Y-3.824
X8.175 Y-3.856
X8.2 Y-3.897
X8.225 Y-3.938
X8.26 Y-3.97
X8.303 Y-3.99
X8.35 Y-3.997
X12.44
G3 X12.807 Y-3.713 I0 J0.38
G1 X12.828 Y-3.647
G3 X12.828 Y-3.36 I-0.397 J0.143
G1 X12.807 Y-3.293
G3 X12.44 Y-3.009 I-0.367 J-0.095
G1 X7.614
G3 X7.295 Y-3.329 I0 J-0.319
G1 Y-3.678
G3 X7.614 Y-3.997 I0.319 J0
G1 X8.35
G3 X8.364 Y-3.598 I0 J0.2
G1 X7.309 Y-3.524
G3 X7.095 Y-3.724 I-0.014 J-0.2
G1 Y-3.884
G3 X7.408 Y-4.197 I0.313 J0
G1 X12.67
G3 X12.983 Y-3.891 I0 J0.313
G1 X12.988 Y-3.827
X13.001 Y-3.764
X13.021 Y-3.703
G3 X13.021 Y-3.304 I-0.516 J0.2
G1 X13.001 Y-3.243
X12.988 Y-3.18
X12.983 Y-3.115
G3 X12.67 Y-2.809 I-0.313 J-0.007
G1 X7.408
G3 X7.095 Y-3.122 I0 J-0.313
G1 Y-3.286
X7.091 Y-3.316
X7.079 Y-3.345
X6.905 Y-3.645
X6.893 Y-3.673
X6.889 Y-3.703
Y-4.403
X13.189
Y-3.903
G2 X13.539 Y-3.553 I0.35 J0
G1 X21.231
X21.297
X21.322 Y-3.546
X21.34 Y-3.528
X21.347 Y-3.503
X21.34 Y-3.478
X21.321 Y-3.46
X21.296 Y-3.453
X21.295
X13.539
G2 X13.189 Y-3.103 I0 J0.35
G1 Y-2.603
X6.889
Y-3.003
Y-3.309
X6.893 Y-3.34
X6.905 Y-3.368
X7.079 Y-3.657
X7.091 Y-3.685
X7.095 Y-3.715
Z2.75 F80
Y-3.724
G3 X7.557 Y-3.958 I0.291 J0
G2 X8.05 Y-3.797 I0.493 J-0.673
G1 X12.398 F450
G3 X12.623 Y-3.629 I0 J0.235
G1 X12.639 Y-3.582
X12.651 Y-3.53
Y-3.476
X12.639 Y-3.424
X12.623 Y-3.377
G3 X12.398 Y-3.209 I-0.225 J-0.067
G1 X7.73
G3 X7.495 Y-3.444 I0 J-0.235
G1 Y-3.562
G3 X7.73 Y-3.797 I0.235 J0
G1 X8.05
X8.097 Y-3.804
X8.14 Y-3.824
X8.175 Y-3.856
X8.2 Y-3.897
X8.225 Y-3.938
X8.26 Y-3.97
X8.303 Y-3.99
X8.35 Y-3.997
X12.44
G3 X12.807 Y-3.713 I0 J0.38
G1 X12.828 Y-3.647
G3 X12.828 Y-3.36 I-0.397 J0.143
G1 X12.807 Y-3.293
G3 X12.44 Y-3.009 I-0.367 J-0.095
G1 X7.614
G3 X7.295 Y-3.329 I0 J-0.319
G1 Y-3.678
G3 X7.614 Y-3.997 I0.319 J0
G1 X8.35
G3 X8.364 Y-3.598 I0 J0.2
G1 X7.309 Y-3.524
G3 X7.095 Y-3.724 I-0.014 J-0.2
G1 Y-3.884
G3 X7.408 Y-4.197 I0.313 J0
G1 X12.67
G3 X12.983 Y-3.891 I0 J0.313
G1 X12.988 Y-3.827
X13.001 Y-3.764
X13.021 Y-3.703
G3 X13.021 Y-3.304 I-0.516 J0.2
G1 X13.001 Y-3.243
X12.988 Y-3.18
X12.983 Y-3.115
G3 X12.67 Y-2.809 I-0.313 J-0.007
G1 X7.408
G3 X7.095 Y-3.122 I0 J-0.313
G1 Y-3.286
X7.091 Y-3.316
X7.079 Y-3.345
X6.905 Y-3.645
X6.893 Y-3.673
X6.889 Y-3.703
Y-4.403
X13.189
Y-3.903
G2 X13.539 Y-3.553 I0.35 J0
G1 X21.231
X21.297
X21.322 Y-3.546
X21.34 Y-3.528
X21.347 Y-3.503
X21.34 Y-3.478
X21.321 Y-3.46
X21.296 Y-3.453
X21.295
X13.539
G2 X13.189 Y-3.103 I0 J0.35
G1 Y-2.603
X6.889
Y-3.003
Y-3.309
X6.893 Y-3.34
X6.905 Y-3.368
X7.079 Y-3.657
X7.091 Y-3.685
X7.095 Y-3.715
Z2.55 F80
Y-3.724
G3 X7.557 Y-3.958 I0.291 J0
G2 X8.05 Y-3.797 I0.493 J-0.673
G1 X12.398 F450
G3 X12.623 Y-3.629 I0 J0.235
G1 X12.639 Y-3.582
X12.651 Y-3.53
Y-3.476
X12.639 Y-3.424
X12.623 Y-3.377
G3 X12.398 Y-3.209 I-0.225 J-0.067
G1 X7.73
G3 X7.495 Y-3.444 I0 J-0.235
G1 Y-3.562
G3 X7.73 Y-3.797 I0.235 J0
G1 X8.05
X8.097 Y-3.804
X8.14 Y-3.824
X8.175 Y-3.856
X8.2 Y-3.897
X8.225 Y-3.938
X8.26 Y-3.97
X8.303 Y-3.99
X8.35 Y-3.997
X12.44
G3 X12.807 Y-3.713 I0 J0.38
G1 X12.828 Y-3.647
G3 X12.828 Y-3.36 I-0.397 J0.143
G1 X12.807 Y-3.293
G3 X12.44 Y-3.009 I-0.367 J-0.095
G1 X7.614
G3 X7.295 Y-3.329 I0 J-0.319
G1 Y-3.678
G3 X7.614 Y-3.997 I0.319 J0
G1 X8.35
G3 X8.364 Y-3.598 I0 J0.2
G1 X7.309 Y-3.524
G3 X7.095 Y-3.724 I-0.014 J-0.2
G1 Y-3.884
G3 X7.408 Y-4.197 I0.313 J0
G1 X12.67
G3 X12.983 Y-3.891 I0 J0.313
G1 X12.988 Y-3.827
X13.001 Y-3.764
X13.021 Y-3.703
G3 X13.021 Y-3.304 I-0.516 J0.2
G1 X13.001 Y-3.243
X12.988 Y-3.18
X12.983 Y-3.115
G3 X12.67 Y-2.809 I-0.313 J-0.007
G1 X7.408
G3 X7.095 Y-3.122 I0 J-0.313
G1 Y-3.286
X7.091 Y-3.316
X7.079 Y-3.345
X6.905 Y-3.645
X6.893 Y-3.673
X6.889 Y-3.703
Y-4.403
X13.189
Y-3.903
G2 X13.539 Y-3.553 I0.35 J0
G1 X21.231
X21.297
X21.322 Y-3.546
X21.34 Y-3.528
X21.347 Y-3.503
X21.34 Y-3.478
X21.321 Y-3.46
X21.296 Y-3.453
X21.295
X13.539
G2 X13.189 Y-3.103 I0 J0.35
G1 Y-2.603
X6.889
Y-3.003
Y-3.309
X6.893 Y-3.34
X6.905 Y-3.368
X7.079 Y-3.657
X7.091 Y-3.685
X7.095 Y-3.715
Z2.35 F80
Y-3.724
G3 X7.557 Y-3.958 I0.291 J0
G2 X8.05 Y-3.797 I0.493 J-0.673
G1 X12.398 F450
G3 X12.623 Y-3.629 I0 J0.235
G1 X12.639 Y-3.582
X12.651 Y-3.53
Y-3.476
X12.639 Y-3.424
X12.623 Y-3.377
G3 X12.398 Y-3.209 I-0.225 J-0.067
G1 X7.73
G3 X7.495 Y-3.444 I0 J-0.235
G1 Y-3.562
G3 X7.73 Y-3.797 I0.235 J0
G1 X8.05
X8.097 Y-3.804
X8.14 Y-3.824
X8.175 Y-3.856
X8.2 Y-3.897
X8.225 Y-3.938
X8.26 Y-3.97
X8.303 Y-3.99
X8.35 Y-3.997
X12.44
G3 X12.807 Y-3.713 I0 J0.38
G1 X12.828 Y-3.647
G3 X12.828 Y-3.36 I-0.397 J0.143
G1 X12.807 Y-3.293
G3 X12.44 Y-3.009 I-0.367 J-0.095
G1 X7.614
G3 X7.295 Y-3.329 I0 J-0.319
G1 Y-3.678
G3 X7.614 Y-3.997 I0.319 J0
G1 X8.35
G3 X8.364 Y-3.598 I0 J0.2
G1 X7.309 Y-3.524
G3 X7.095 Y-3.724 I-0.014 J-0.2
G1 Y-3.884
G3 X7.408 Y-4.197 I0.313 J0
G1 X12.67
G3 X12.983 Y-3.891 I0 J0.313
G1 X12.988 Y-3.827
X13.001 Y-3.764
X13.021 Y-3.703
G3 X13.021 Y-3.304 I-0.516 J0.2
G1 X13.001 Y-3.243
X12.988 Y-3.18
X12.983 Y-3.115
G3 X12.67 Y-2.809 I-0.313 J-0.007
G1 X7.408
G3 X7.095 Y-3.122 I0 J-0.313
G1 Y-3.286
X7.091 Y-3.316
X7.079 Y-3.345
X6.905 Y-3.645
X6.893 Y-3.673
X6.889 Y-3.703
Y-4.403
X13.189
Y-3.903
G2 X13.539 Y-3.553 I0.35 J0
G1 X21.231
X21.297
X21.322 Y-3.546
X21.34 Y-3.528
X21.347 Y-3.503
X21.34 Y-3.478
X21.321 Y-3.46
X21.296 Y-3.453
X21.295
X13.539
G2 X13.189 Y-3.103 I0 J0.35
G1 Y-2.603
X6.889
Y-3.003
Y-3.309
X6.893 Y-3.34
X6.905 Y-3.368
X7.079 Y-3.657
X7.091 Y-3.685
X7.095 Y-3.715
Z2.15 F80
Y-3.724
G3 X7.557 Y-3.958 I0.291 J0
G2 X8.05 Y-3.797 I0.493 J-0.673
G1 X12.398 F450
G3 X12.623 Y-3.629 I0 J0.235
G1 X12.639 Y-3.582
X12.651 Y-3.53
Y-3.476
X12.639 Y-3.424
X12.623 Y-3.377
G3 X12.398 Y-3.209 I-0.225 J-0.067
G1 X7.73
G3 X7.495 Y-3.444 I0 J-0.235
G1 Y-3.562
G3 X7.73 Y-3.797 I0.235 J0
G1 X8.05
X8.097 Y-3.804
X8.14 Y-3.824
X8.175 Y-3.856
X8.2 Y-3.897
X8.225 Y-3.938
X8.26 Y-3.97
X8.303 Y-3.99
X8.35 Y-3.997
X12.44
G3 X12.807 Y-3.713 I0 J0.38
G1 X12.828 Y-3.647
G3 X12.828 Y-3.36 I-0.397 J0.143
G1 X12.807 Y-3.293
G3 X12.44 Y-3.009 I-0.367 J-0.095
G1 X7.614
G3 X7.295 Y-3.329 I0 J-0.319
G1 Y-3.678
G3 X7.614 Y-3.997 I0.319 J0
G1 X8.35
G3 X8.364 Y-3.598 I0 J0.2
G1 X7.309 Y-3.524
G3 X7.095 Y-3.724 I-0.014 J-0.2
G1 Y-3.884
G3 X7.408 Y-4.197 I0.313 J0
G1 X12.67
G3 X12.983 Y-3.891 I0 J0.313
G1 X12.988 Y-3.827
X13.001 Y-3.764
X13.021 Y-3.703
G3 X13.021 Y-3.304 I-0.516 J0.2
G1 X13.001 Y-3.243
X12.988 Y-3.18
X12.983 Y-3.115
G3 X12.67 Y-2.809 I-0.313 J-0.007
G1 X7.408
G3 X7.095 Y-3.122 I0 J-0.313
G1 Y-3.286
X7.091 Y-3.316
X7.079 Y-3.345
X6.905 Y-3.645
X6.893 Y-3.673
X6.889 Y-3.703
Y-4.403
X13.189
Y-3.903
G2 X13.539 Y-3.553 I0.35 J0
G1 X21.231
X21.297
X21.322 Y-3.546
X21.34 Y-3.528
X21.347 Y-3.503
X21.34 Y-3.478
X21.321 Y-3.46
X21.296 Y-3.453
X21.295
X13.539
G2 X13.189 Y-3.103 I0 J0.35
G1 Y-2.603
X6.889
Y-3.003
Y-3.309
X6.893 Y-3.34
X6.905 Y-3.368
X7.079 Y-3.657
X7.091 Y-3.685
X7.095 Y-3.715
Z1.95 F80
Y-3.724
G3 X7.557 Y-3.958 I0.291 J0
G2 X8.05 Y-3.797 I0.493 J-0.673
G1 X12.398 F450
G3 X12.623 Y-3.629 I0 J0.235
G1 X12.639 Y-3.582
X12.651 Y-3.53
Y-3.476
X12.639 Y-3.424
X12.623 Y-3.377
G3 X12.398 Y-3.209 I-0.225 J-0.067
G1 X7.73
G3 X7.495 Y-3.444 I0 J-0.235
G1 Y-3.562
G3 X7.73 Y-3.797 I0.235 J0
G1 X8.05
X8.097 Y-3.804
X8.14 Y-3.824
X8.175 Y-3.856
X8.2 Y-3.897
X8.225 Y-3.938
X8.26 Y-3.97
X8.303 Y-3.99
X8.35 Y-3.997
X12.44
G3 X12.807 Y-3.713 I0 J0.38
G1 X12.828 Y-3.647
G3 X12.828 Y-3.36 I-0.397 J0.143
G1 X12.807 Y-3.293
G3 X12.44 Y-3.009 I-0.367 J-0.095
G1 X7.614
G3 X7.295 Y-3.329 I0 J-0.319
G1 Y-3.678
G3 X7.614 Y-3.997 I0.319 J0
G1 X8.35
G3 X8.364 Y-3.598 I0 J0.2
G1 X7.309 Y-3.524
G3 X7.095 Y-3.724 I-0.014 J-0.2
G1 Y-3.884
G3 X7.408 Y-4.197 I0.313 J0
G1 X12.67
G3 X12.983 Y-3.891 I0 J0.313
G1 X12.988 Y-3.827
X13.001 Y-3.764
X13.021 Y-3.703
G3 X13.021 Y-3.304 I-0.516 J0.2
G1 X13.001 Y-3.243
X12.988 Y-3.18
X12.983 Y-3.115
G3 X12.67 Y-2.809 I-0.313 J-0.007
G1 X7.408
G3 X7.095 Y-3.122 I0 J-0.313
G1 Y-3.286
X7.091 Y-3.316
X7.079 Y-3.345
X6.905 Y-3.645
X6.893 Y-3.673
X6.889 Y-3.703
Y-4.403
X13.189
Y-3.903
G2 X13.539 Y-3.553 I0.35 J0
G1 X21.231
X21.297
X21.322 Y-3.546
X21.34 Y-3.528
X21.347 Y-3.503
X21.34 Y-3.478
X21.321 Y-3.46
X21.296 Y-3.453
X21.295
X13.539
G2 X13.189 Y-3.103 I0 J0.35
G1 Y-2.603
X6.889
Y-3.003
Y-3.309
X6.893 Y-3.34
X6.905 Y-3.368
X7.079 Y-3.657
X7.091 Y-3.685
X7.095 Y-3.715
Z1.75 F80
Y-3.724
G3 X7.557 Y-3.958 I0.291 J0
G2 X8.05 Y-3.797 I0.493 J-0.673
G1 X12.398 F450
G3 X12.623 Y-3.629 I0 J0.235
G1 X12.639 Y-3.582
X12.651 Y-3.53
Y-3.476
X12.639 Y-3.424
X12.623 Y-3.377
G3 X12.398 Y-3.209 I-0.225 J-0.067
G1 X7.73
G3 X7.495 Y-3.444 I0 J-0.235
G1 Y-3.562
G3 X7.73 Y-3.797 I0.235 J0
G1 X8.05
X8.097 Y-3.804
X8.14 Y-3.824
X8.175 Y-3.856
X8.2 Y-3.897
X8.225 Y-3.938
X8.26 Y-3.97
X8.303 Y-3.99
X8.35 Y-3.997
X12.44
G3 X12.807 Y-3.713 I0 J0.38
G1 X12.828 Y-3.647
G3 X12.828 Y-3.36 I-0.397 J0.143
G1 X12.807 Y-3.293
G3 X12.44 Y-3.009 I-0.367 J-0.095
G1 X7.614
G3 X7.295 Y-3.329 I0 J-0.319
G1 Y-3.678
G3 X7.614 Y-3.997 I0.319 J0
G1 X8.35
G3 X8.364 Y-3.598 I0 J0.2
G1 X7.309 Y-3.524
G3 X7.095 Y-3.724 I-0.014 J-0.2
G1 Y-3.884
G3 X7.408 Y-4.197 I0.313 J0
G1 X12.67
G3 X12.983 Y-3.891 I0 J0.313
G1 X12.988 Y-3.827
X13.001 Y-3.764
X13.021 Y-3.703
G3 X13.021 Y-3.304 I-0.516 J0.2
G1 X13.001 Y-3.243
X12.988 Y-3.18
X12.983 Y-3.115
G3 X12.67 Y-2.809 I-0.313 J-0.007
G1 X7.408
G3 X7.095 Y-3.122 I0 J-0.313
G1 Y-3.286
X7.091 Y-3.316
X7.079 Y-3.345
X6.905 Y-3.645
X6.893 Y-3.673
X6.889 Y-3.703
Y-4.403
X13.189
Y-3.903
G2 X13.539 Y-3.553 I0.35 J0
G1 X21.231
X21.297
X21.322 Y-3.546
X21.34 Y-3.528
X21.347 Y-3.503
X21.34 Y-3.478
X21.321 Y-3.46
X21.296 Y-3.453
X21.295
X13.539
G2 X13.189 Y-3.103 I0 J0.35
G1 Y-2.603
X6.889
Y-3.003
Y-3.309
X6.893 Y-3.34
X6.905 Y-3.368
X7.079 Y-3.657
X7.091 Y-3.685
X7.095 Y-3.715
Z1.55 F80
Y-3.724
G3 X7.557 Y-3.958 I0.291 J0
G2 X8.05 Y-3.797 I0.493 J-0.673
G1 X12.398 F450
G3 X12.623 Y-3.629 I0 J0.235
G1 X12.639 Y-3.582
X12.651 Y-3.53
Y-3.476
X12.639 Y-3.424
X12.623 Y-3.377
G3 X12.398 Y-3.209 I-0.225 J-0.067
G1 X7.73
G3 X7.495 Y-3.444 I0 J-0.235
G1 Y-3.562
G3 X7.73 Y-3.797 I0.235 J0
G1 X8.05
X8.097 Y-3.804
X8.14 Y-3.824
X8.175 Y-3.856
X8.2 Y-3.897
X8.225 Y-3.938
X8.26 Y-3.97
X8.303 Y-3.99
X8.35 Y-3.997
X12.44
G3 X12.807 Y-3.713 I0 J0.38
G1 X12.828 Y-3.647
G3 X12.828 Y-3.36 I-0.397 J0.143
G1 X12.807 Y-3.293
G3 X12.44 Y-3.009 I-0.367 J-0.095
G1 X7.614
G3 X7.295 Y-3.329 I0 J-0.319
G1 Y-3.678
G3 X7.614 Y-3.997 I0.319 J0
G1 X8.35
G3 X8.364 Y-3.598 I0 J0.2
G1 X7.309 Y-3.524
G3 X7.095 Y-3.724 I-0.014 J-0.2
G1 Y-3.884
G3 X7.408 Y-4.197 I0.313 J0
G1 X12.67
G3 X12.983 Y-3.891 I0 J0.313
G1 X12.988 Y-3.827
X13.001 Y-3.764
X13.021 Y-3.703
G3 X13.021 Y-3.304 I-0.516 J0.2
G1 X13.001 Y-3.243
X12.988 Y-3.18
X12.983 Y-3.115
G3 X12.67 Y-2.809 I-0.313 J-0.007
G1 X7.408
G3 X7.095 Y-3.122 I0 J-0.313
G1 Y-3.286
X7.091 Y-3.316
X7.079 Y-3.345
X6.905 Y-3.645
X6.893 Y-3.673
X6.889 Y-3.703
Y-4.403
X13.189
Y-3.903
G2 X13.539 Y-3.553 I0.35 J0
G1 X21.231
X21.297
X21.322 Y-3.546
X21.34 Y-3.528
X21.347 Y-3.503
X21.34 Y-3.478
X21.321 Y-3.46
X21.296 Y-3.453
X21.295
X13.539
G2 X13.189 Y-3.103 I0 J0.35
G1 Y-2.603
X6.889
Y-3.003
Y-3.309
X6.893 Y-3.34
X6.905 Y-3.368
X7.079 Y-3.657
X7.091 Y-3.685
X7.095 Y-3.715
Z1.35 F80
Y-3.724
G3 X7.557 Y-3.958 I0.291 J0
G2 X8.05 Y-3.797 I0.493 J-0.673
G1 X12.398 F450
G3 X12.623 Y-3.629 I0 J0.235
G1 X12.639 Y-3.582
X12.651 Y-3.53
Y-3.476
X12.639 Y-3.424
X12.623 Y-3.377
G3 X12.398 Y-3.209 I-0.225 J-0.067
G1 X7.73
G3 X7.495 Y-3.444 I0 J-0.235
G1 Y-3.562
G3 X7.73 Y-3.797 I0.235 J0
G1 X8.05
X8.097 Y-3.804
X8.14 Y-3.824
X8.175 Y-3.856
X8.2 Y-3.897
X8.225 Y-3.938
X8.26 Y-3.97
X8.303 Y-3.99
X8.35 Y-3.997
X12.44
G3 X12.807 Y-3.713 I0 J0.38
G1 X12.828 Y-3.647
G3 X12.828 Y-3.36 I-0.397 J0.143
G1 X12.807 Y-3.293
G3 X12.44 Y-3.009 I-0.367 J-0.095
G1 X7.614
