(1001)
(T1  D=0.7 CR=0 - ZMIN=-2.85 - flat end mill)
G90 G94
G17
G21

(Drill2 3)
T1
S500 M3
G54
M8
G0 X0 Y0
Z21.15
Z11.15
Z5
G1 Z-2.85 F80
G0 Z11.15
X-0.042 Y-6.052
Z5
G1 Z-2.85 F80
G0 Z11.15
X0 Y-12
Z5
G1 Z-2.85 F80
G0 Z11.15
X1.7 Y-37.776
Z5.15
G1 Z-2.85 F80
G0 Z11.15
X4.2
Z5.15
G1 Z-2.85 F80
G0 Z11.15
X6.7
Z5.15
G1 Z-2.85 F80
G0 Z11.15
X9.2
Z5.15
G1 Z-2.85 F80
G0 Z11.15
X16.289 Y-31.663
Z9.05
G1 Z-2.85 F80
G0 Z11.15
X14.289 Y-31.661
Z9.05
G1 Z-2.85 F80
G0 Z11.15
X12.3 Y-31.659
Z9.05
G1 Z-2.85 F80
G0 Z11.15
X12.291 Y-29.659
Z9.05
G1 Z-2.85 F80
G0 Z11.15
X14.289
Z9.05
G1 Z-2.85 F80
G0 Z11.15
X16.289 Y-29.657
Z9.05
G1 Z-2.85 F80
G0 Z11.15
X18.043 Y-21.537
Z5.15
G1 Z-0.85 F80
G0 Z11.15
X14.293
Z5.15
G1 Z-0.85 F80
G0 Z11.15
X16.168 Y-18.337
Z5.15
G1 Z-0.85 F80
G0 Z11.15
X28.82 Y-18.989
Z5
G1 Z-2.85 F80
G0 Z11.15
X30.783 Y-12.755
Z5
G1 Z-2.85 F80
G0 Z11.15
Y-6.581
Z5
G1 Z-2.85 F80
G0 Z11.15
X30.78 Y-0.259
Z5
G1 Z-2.85 F80
G0 Z11.15
X28.775 Y5.988
Z5
G1 Z-2.85 F80
G0 Z11.15
Z21.15

(Drill2 4)
X7.042 Y-28.503
Z21.15
Z11.15
Z2.15
G1 Z-2.85 F80
G0 Z11.15
X6.542
Z2.15
G1 Z-2.85 F80
G0 Z11.15
Y-26.003
Z2.15
G1 Z-2.85 F80
G0 Z11.15
X7.042
Z2.15
G1 Z-2.85 F80
G0 Z11.15
Y-23.503
Z2.15
G1 Z-2.85 F80
G0 Z11.15
X6.542
Z2.15
G1 Z-2.85 F80
G0 Z11.15
Y-21.003
Z2.15
G1 Z-2.85 F80
G0 Z11.15
X7.042
Z2.15
G1 Z-2.85 F80
G0 Z11.15
Y-18.503
Z2.15
G1 Z-2.85 F80
G0 Z11.15
X6.542
Z2.15
G1 Z-2.85 F80
G0 Z11.15
Y-16.003
Z2.15
G1 Z-2.85 F80
G0 Z11.15
X7.042
Z2.15
G1 Z-2.85 F80
G0 Z11.15
Y-13.503
Z2.15
G1 Z-2.85 F80
G0 Z11.15
X6.542
Z2.15
G1 Z-2.85 F80
G0 Z11.15
Y-11.003
Z2.15
G1 Z-2.85 F80
G0 Z11.15
X7.042
Z2.15
G1 Z-2.85 F80
G0 Z11.15
X6.542 Y-8.503
Z2.15
G1 Z-2.85 F80
G0 Z11.15
X7.042
Z2.15
G1 Z-2.85 F80
G0 Z11.15
Y-6.003
Z2.15
G1 Z-2.85 F80
G0 Z11.15
X6.542
Z2.15
G1 Z-2.85 F80
G0 Z11.15
Y-3.503
Z2.15
G1 Z-2.85 F80
G0 Z11.15
X7.042
Z2.15
G1 Z-2.85 F80
G0 Z11.15
Y-1.003
Z2.15
G1 Z-2.85 F80
G0 Z11.15
X6.542
Z2.15
G1 Z-2.85 F80
G0 Z11.15
Y1.497
Z2.15
G1 Z-2.85 F80
G0 Z11.15
X7.042
Z2.15
G1 Z-2.85 F80
G0 Z11.15
Y3.997
Z2.15
G1 Z-2.85 F80
G0 Z11.15
X6.542
Z2.15
G1 Z-2.85 F80
G0 Z11.15
Y6.497
Z2.15
G1 Z-2.85 F80
G0 Z11.15
X7.042
Z2.15
G1 Z-2.85 F80
G0 Z11.15
X21.536
Z2.15
G1 Z-2.85 F80
G0 Z11.15
X22.036
Z2.15
G1 Z-2.85 F80
G0 Z11.15
Y3.997
Z2.15
G1 Z-2.85 F80
G0 Z11.15
X21.536
Z2.15
G1 Z-2.85 F80
G0 Z11.15
X22.036 Y1.497
Z2.15
G1 Z-2.85 F80
G0 Z11.15
X21.536
Z2.15
G1 Z-2.85 F80
G0 Z11.15
Y-1.003
Z2.15
G1 Z-2.85 F80
G0 Z11.15
X22.036
Z2.15
G1 Z-2.85 F80
G0 Z11.15
Y-3.503
Z2.15
G1 Z-2.85 F80
G0 Z11.15
X21.536
Z2.15
G1 Z-2.85 F80
G0 Z11.15
Y-6.003
Z2.15
G1 Z-2.85 F80
G0 Z11.15
X22.036
Z2.15
G1 Z-2.85 F80
G0 Z11.15
Y-8.503
Z2.15
G1 Z-2.85 F80
G0 Z11.15
X21.536
Z2.15
G1 Z-2.85 F80
G0 Z11.15
X22.036 Y-11.003
Z2.15
G1 Z-2.85 F80
G0 Z11.15
X21.536
Z2.15
G1 Z-2.85 F80
G0 Z11.15
Y-13.503
Z2.15
G1 Z-2.85 F80
G0 Z11.15
X22.036
Z2.15
G1 Z-2.85 F80
G0 Z11.15
Y-16.003
Z2.15
G1 Z-2.85 F80
G0 Z11.15
X21.536 Y-16.008
Z2.15
G1 Z-2.85 F80
G0 Z11.15
Y-18.503
Z2.15
G1 Z-2.85 F80
G0 Z11.15
X22.036
Z2.15
G1 Z-2.85 F80
G0 Z11.15
Y-21.003
Z2.15
G1 Z-2.85 F80
G0 Z11.15
X21.536
Z2.15
G1 Z-2.85 F80
G0 Z11.15
X22.036 Y-23.503
Z2.15
G1 Z-2.85 F80
G0 Z11.15
X21.536
Z2.15
G1 Z-2.85 F80
G0 Z11.15
Y-26.003
Z2.15
G1 Z-2.85 F80
G0 Z11.15
X22.036
Z2.15
G1 Z-2.85 F80
G0 Z11.15
Y-28.503
Z2.15
G1 Z-2.85 F80
G0 Z11.15
X21.536
Z2.15
G1 Z-2.85 F80
G0 Z11.15
Z21.15

(Drill3 2)
X16.168 Y-18.337
Z12.15
Z10.15
Z1.15
G1 Z-0.85 F80
G0 Z10.15
X18.043 Y-21.537
Z1.15
G1 Z-0.85 F80
G0 Z10.15
X14.293
Z1.15
G1 Z-0.85 F80
G0 Z10.15
X11.652 Y-20.076
Z-0.85
G1 Z-2.85 F80
G0 Z10.15
X11.152
Z-0.85
G1 Z-2.85 F80
G0 Z10.15
Z12.15
M9
M5
M30
