(1001)
(T1  D=3 CR=0 - ZMIN=-8.4 - flat end mill)
(T4  D=3 CR=0 - ZMIN=-18.5 - flat end mill)
G90 G94
G17
G21

(2D Pocket4)
T1
S500 M3
G54
M8
G0 X13.609 Y100.133
Z6
Z2
G1 Z1.2 F300
Z-0.2
X13.601 Y100.125
G3 X11.926 Y98.565 I49.642 J-54.975 F1000
X4.047 Y89.994 I64.988 J-67.646
X2.285 Y87.741 I64.041 J-51.919
X1.69 Y86.947 I103.304 J-77.971
G1 X1.675 Y86.923
X1.663 Y86.897
X-1.2 Y79.154
G3 X-0.847 Y78.973 I0.188 J-0.069
X-0.015 Y80.262 I-31.335 J21.122
G2 X1.357 Y82.364 I41.258 J-25.438
X2.946 Y84.614 I105.922 J-73.133
X4.597 Y86.819 I66.469 J-48.026
X6.387 Y89.074 I96.253 J-74.59
X8.247 Y91.273 I58.327 J-47.45
X9.771 Y92.973 I89.119 J-78.357
X11.34 Y94.631 I48.573 J-44.393
X13.05 Y96.338 I77.64 J-76.066
X14.812 Y97.992 I42.963 J-44.006
X16.738 Y99.686 I68.143 J-75.518
X18.72 Y101.313 I38.78 J-45.219
X21.055 Y103.089 I57.229 J-72.856
X21.804 Y103.632 I38.618 J-52.503
G1 X21.838 Y103.651
X21.875 Y103.664
X27.607 Y105.006
G2 X27.754 Y104.639 I0.046 J-0.195
G3 X27.146 Y104.279 I89.355 J-151.533
X25.55 Y103.285 I24.094 J-40.487
X17.334 Y97.018 I37.612 J-57.822
X10.047 Y89.691 I55.898 J-62.882
X8.235 Y87.548 I54.735 J-48.125
X6.491 Y85.351 I92.802 J-75.465
X4.88 Y83.199 I62.988 J-48.812
X3.329 Y81.002 I102.564 J-74.082
G1 X-0.155 Y75.765
G3 X-1.37 Y73.867 I31.437 J-21.451
G1 X-1.389 Y73.824
X-1.398 Y73.778
X-1.722 Y69.226
G3 X-1.396 Y69.057 I0.199 J-0.014
X-1.23 Y69.259 I-0.413 J0.507
G2 X0.223 Y71.88 I60.797 J-32.014
X1.825 Y74.414 I36.735 J-21.44
G1 X5.301 Y79.641
G2 X6.814 Y81.783 I102.318 J-70.645
X8.385 Y83.883 I62.731 J-45.296
X10.083 Y86.022 I92.854 J-71.957
X11.847 Y88.108 I54.768 J-44.518
X18.902 Y95.205 I61.408 J-53.992
X26.857 Y101.276 I44.271 J-49.758
X29.952 Y103.19 I43.357 J-66.654
X30.68 Y103.583 I6.687 J-11.514
G3 X31.411 Y103.969 I-8.501 J16.987
X31.76 Y104.563 I-0.33 J0.594
G1 Y104.765
G2 X31.961 Y104.965 I0.2 J0
G1 X33.958 Y104.956
G2 X34.157 Y104.756 I-0.001 J-0.2
G1 Y103.124
G2 X33.809 Y102.544 I-0.657 J0
X33.272 Y102.277 I-5.124 J9.629
G3 X32.736 Y102.007 I3.751 J-8.092
X28.164 Y99.267 I34.738 J-63.172
X20.47 Y93.392 I35.021 J-53.838
X16.144 Y89.236 I52.809 J-59.298
G1 X15.068 Y88.099
G3 X13.647 Y86.526 I58.211 J-54.004
X11.931 Y84.496 I51.278 J-45.086
X10.28 Y82.415 I89.525 J-72.738
X8.748 Y80.368 I59.334 J-45.981
X7.274 Y78.279 I99.059 J-71.502
X5.984 Y76.287 I32.685 J-22.568
G2 X4.674 Y74.309 I-25.093 J15.197
G3 X0.236 Y66.861 I42.376 J-30.299
G2 X-0.321 Y66.513 I-0.557 J0.272
G1 X-1.39
G3 X-1.59 Y66.314 I0 J-0.2
G1 X-1.597 Y64.317
G3 X-1.397 Y64.117 I0.2 J-0.001
G1 X1.22
G3 X1.754 Y64.462 I0 J0.585
G2 X3.61 Y68.175 I47.282 J-21.307
X5.784 Y71.712 I38.164 J-21.02
G1 X9.214 Y76.871
G2 X10.647 Y78.903 I62.73 J-42.717
X12.135 Y80.896 I94.156 J-68.738
X13.737 Y82.917 I56.449 J-43.086
X15.399 Y84.889 I80.641 J-66.32
X29.427 Y97.23 I51.998 J-44.962
X31.607 Y98.599 I32.365 J-49.112
X33.837 Y99.885 I42.13 J-70.458
X35.016 Y100.497 I11.246 J-20.221
G3 X36.207 Y101.088 I-27.755 J57.444
X36.553 Y101.653 I-0.288 J0.565
G1 Y104.766
G2 X36.754 Y104.966 I0.2 J0
G1 X38.75 Y104.962
G2 X38.95 Y104.762 I0 J-0.2
G1 Y100.151
G2 X38.602 Y99.598 I-0.613 J0
G1 X36.995 Y98.829
G3 X35.794 Y98.222 I13.744 J-28.691
X31.454 Y95.686 I33.856 J-62.926
X24.396 Y90.454 I31.782 J-50.249
X18.102 Y84.325 I47.643 J-55.221
X16.434 Y82.415 I45.722 J-41.615
X14.829 Y80.452 I82.371 J-69.013
X13.339 Y78.517 I54.154 J-43.239
X11.904 Y76.541 I94.148 J-69.885
G1 X8.358 Y71.219
G3 X3.332 Y62.064 I36.153 J-25.802
G2 X2.823 Y61.72 I-0.51 J0.206
G1 X-1.388
G3 X-1.588 Y61.521 I0 J-0.2
G1 X-1.595 Y59.524
G3 X-1.395 Y59.323 I0.2 J-0.001
G1 X4.496
G3 X4.979 Y59.663 I0 J0.513
G2 X9.378 Y68.464 I38.913 J-13.952
X10.188 Y69.632 I28.087 J-18.613
G3 X10.982 Y70.81 I-16.648 J12.072
G2 X12.226 Y72.759 I97.118 J-60.659
X13.522 Y74.674 I59.679 J-38.972
X14.899 Y76.598 I94.229 J-65.991
X16.33 Y78.484 I54.74 J-40.039
X17.864 Y80.389 I84.013 J-66.072
X19.457 Y82.245 I46.762 J-38.54
X25.553 Y88.287 I53.222 J-47.598
X32.408 Y93.451 I37.663 J-42.869
X36.551 Y95.907 I36.962 J-57.628
X39.598 Y97.468 I37.067 J-68.589
X40.298 Y97.776 I5.076 J-10.597
G3 X41 Y98.077 I-6.003 J14.958
X41.347 Y98.616 I-0.247 J0.539
G1 Y104.759
G2 X41.546 Y104.959 I0.2 J0
G1 X43.547 Y104.966
G2 X43.748 Y104.766 I0.001 J-0.2
G1 Y96.668
X43.422 Y96.527
X43.013 Y96.349
X42.609 Y96.169
X42.209 Y95.989
X41.812 Y95.808
X41.42 Y95.625
X41.032 Y95.442
X40.647 Y95.258
X40.266 Y95.072
X39.889 Y94.886
X39.516 Y94.699
X39.147 Y94.511
X38.781 Y94.322
X38.419 Y94.132
X38.061 Y93.942
X37.707 Y93.75
X37.355 Y93.558
X37.008 Y93.364
X36.664 Y93.17
X36.324 Y92.975
X35.987 Y92.78
X35.653 Y92.583
X35.323 Y92.385
X34.996 Y92.187
X34.673 Y91.988
X34.352 Y91.788
X34.035 Y91.588
X33.721 Y91.386
X33.411 Y91.185
X33.103 Y90.982
X32.799 Y90.778
X32.497 Y90.574
X32.199 Y90.369
X31.904 Y90.164
X31.611 Y89.957
X31.321 Y89.75
X31.035 Y89.543
X30.75 Y89.334
X30.47 Y89.126
X30.191 Y88.916
X29.915 Y88.706
X29.649 Y88.501
X29.638 Y88.493
X29.114 Y88.081
X29.1 Y88.07
X28.586 Y87.656
X28.572 Y87.645
X28.067 Y87.229
X28.054 Y87.218
X27.558 Y86.799
X27.545 Y86.788
X27.058 Y86.368
X27.045 Y86.357
X26.567 Y85.935
X26.555 Y85.924
X26.085 Y85.5
X26.073 Y85.489
X25.611 Y85.063
X25.599 Y85.052
X25.145 Y84.624
X25.134 Y84.614
X24.688 Y84.185
X24.677 Y84.174
X24.238 Y83.743
X24.227 Y83.732
X23.795 Y83.3
X23.785 Y83.29
X23.359 Y82.855
X23.349 Y82.845
X22.931 Y82.41
X22.921 Y82.4
X22.509 Y81.963
X22.5 Y81.953
X22.093 Y81.515
X22.084 Y81.505
X21.684 Y81.065
X21.675 Y81.055
X21.281 Y80.614
X21.273 Y80.605
X20.884 Y80.162
X20.876 Y80.153
X20.492 Y79.71
X20.484 Y79.7
X20.106 Y79.256
X20.098 Y79.247
X19.725 Y78.801
X19.718 Y78.792
X19.35 Y78.345
X19.342 Y78.336
X18.979 Y77.888
X18.972 Y77.879
X18.614 Y77.43
X18.607 Y77.422
X18.253 Y76.972
X18.246 Y76.963
X17.897 Y76.512
X17.89 Y76.503
X17.545 Y76.051
X17.539 Y76.043
X17.198 Y75.59
X17.192 Y75.582
X16.855 Y75.128
X16.849 Y75.12
X16.517 Y74.665
X16.511 Y74.657
X16.182 Y74.201
X16.176 Y74.193
X15.852 Y73.736
X15.846 Y73.728
X15.52 Y73.262
X15.198 Y72.796
X14.885 Y72.337
X14.88 Y72.328
X14.566 Y71.86
X14.255 Y71.391
X13.954 Y70.929
X13.948 Y70.921
X13.646 Y70.45
X13.352 Y69.987
X13.347 Y69.978
X13.057 Y69.514
X12.999 Y69.412
X12.949 Y69.306
X12.942 Y69.291
X12.857 Y69.176
X12.668 Y68.918
X12.481 Y68.659
X12.297 Y68.401
X12.115 Y68.142
X11.941 Y67.891
X11.935 Y67.882
X11.759 Y67.624
X11.59 Y67.373
X11.584 Y67.364
X11.418 Y67.113
X11.412 Y67.104
X11.248 Y66.853
X11.242 Y66.844
X11.081 Y66.593
X11.075 Y66.584
X10.916 Y66.332
X10.91 Y66.324
X10.754 Y66.072
X10.748 Y66.063
X10.594 Y65.812
X10.588 Y65.803
X10.436 Y65.551
X10.431 Y65.542
X10.281 Y65.29
X10.276 Y65.281
X10.128 Y65.029
X10.123 Y65.02
X9.978 Y64.768
X9.973 Y64.758
X9.83 Y64.506
X9.825 Y64.497
X9.685 Y64.244
X9.68 Y64.234
X9.542 Y63.982
X9.537 Y63.973
X9.402 Y63.721
X9.397 Y63.711
X9.264 Y63.459
X9.259 Y63.449
X9.128 Y63.196
X9.123 Y63.186
X8.995 Y62.933
X8.99 Y62.924
X8.864 Y62.671
X8.859 Y62.66
X8.736 Y62.408
X8.731 Y62.398
X8.61 Y62.145
X8.605 Y62.135
X8.486 Y61.882
X8.481 Y61.872
X8.365 Y61.619
X8.36 Y61.608
X8.246 Y61.355
X8.241 Y61.345
X8.13 Y61.092
X8.125 Y61.081
X8.016 Y60.828
X8.011 Y60.817
X7.904 Y60.564
X7.9 Y60.554
X7.795 Y60.301
X7.791 Y60.29
X7.688 Y60.037
X7.684 Y60.025
X7.584 Y59.772
X7.58 Y59.761
X7.482 Y59.508
X7.478 Y59.497
X7.382 Y59.244
X7.378 Y59.233
X7.285 Y58.979
X7.281 Y58.968
X7.19 Y58.715
X7.186 Y58.703
X7.098 Y58.45
X7.094 Y58.439
X7.007 Y58.185
X7.004 Y58.174
X6.92 Y57.921
X6.916 Y57.909
X6.834 Y57.656
X6.831 Y57.644
X6.751 Y57.391
X6.747 Y57.379
X6.67 Y57.126
X6.667 Y57.114
X6.61 Y56.922
X0
X-1.389
G2 X-1.588 Y57.143 I0 J0.2
G1 X1.645 Y86.84
X1.657 Y86.892
X1.683 Y86.938
Z-0.4 F300
X1.69 Y86.947
G2 X2.285 Y87.741 I103.899 J-77.177 F1000
X4.047 Y89.994 I65.804 J-49.667
X11.926 Y98.565 I72.867 J-59.074
X13.601 Y100.125 I51.316 J-53.415
G1 X13.623 Y100.143
X13.648 Y100.157
X21.602 Y103.975
G2 X21.804 Y103.632 I0.087 J-0.18
G3 X21.055 Y103.089 I37.868 J-53.046
X18.72 Y101.313 I54.894 J-74.631
X16.738 Y99.686 I36.798 J-46.846
X14.812 Y97.992 I66.218 J-77.212
X13.05 Y96.338 I41.201 J-45.66
X11.34 Y94.631 I75.93 J-77.773
X9.771 Y92.973 I47.004 J-46.051
X8.247 Y91.273 I87.595 J-80.057
X6.387 Y89.074 I56.467 J-49.648
X4.597 Y86.819 I94.462 J-76.846
X2.946 Y84.614 I64.819 J-50.231
X1.357 Y82.364 I104.333 J-75.383
X-0.015 Y80.262 I39.886 J-27.539
G2 X-0.847 Y78.973 I-32.167 J19.832
G1 X-0.866 Y78.936
X-0.878 Y78.896
X-1.738 Y74.004
G3 X-1.37 Y73.867 I0.197 J-0.035
G2 X-0.155 Y75.765 I32.651 J-19.553
G1 X3.329 Y81.002
G2 X4.88 Y83.199 I104.115 J-71.886
X6.491 Y85.351 I64.599 J-46.66
X8.235 Y87.548 I94.546 J-73.268
X10.047 Y89.691 I56.546 J-45.983
X17.334 Y97.018 I63.185 J-55.555
X25.55 Y103.285 I45.828 J-51.554
X27.146 Y104.279 I25.689 J-39.493
X27.754 Y104.639 I89.963 J-151.173
G1 X27.796 Y104.657
X27.84 Y104.666
X31.544 Y104.964
G2 X31.76 Y104.765 I0.016 J-0.199
G1 Y104.563
G2 X31.411 Y103.969 I-0.68 J0
X30.68 Y103.583 I-9.232 J16.601
G3 X29.952 Y103.19 I5.959 J-11.907
X26.857 Y101.276 I40.262 J-68.568
X18.902 Y95.205 I36.316 J-55.83
X11.847 Y88.108 I54.352 J-61.089
X10.083 Y86.022 I53.005 J-46.604
X8.385 Y83.883 I91.156 J-74.096
X6.814 Y81.783 I61.16 J-47.396
X5.301 Y79.641 I100.806 J-72.788
G1 X1.825 Y74.414
G3 X0.223 Y71.88 I35.134 J-23.974
X-1.23 Y69.259 I59.343 J-34.634
G2 X-1.396 Y69.057 I-0.579 J0.305
G1 X-1.434 Y69.016
X-1.459 Y68.967
X-1.47 Y68.913
X-1.59 Y66.724
G3 X-1.39 Y66.513 I0.2 J-0.011
G1 X-0.321
G3 X0.236 Y66.861 I0 J0.62
G2 X4.674 Y74.309 I46.815 J-22.851
G3 X5.984 Y76.287 I-23.783 J17.175
G2 X7.274 Y78.279 I33.975 J-20.576
X8.748 Y80.368 I100.534 J-69.413
X10.28 Y82.415 I60.866 J-43.934
X11.931 Y84.496 I91.176 J-70.657
X13.647 Y86.526 I52.994 J-43.057
X15.068 Y88.099 I59.632 J-52.431
G1 X16.144 Y89.236
G2 X20.47 Y93.392 I57.135 J-55.141
X28.164 Y99.267 I42.715 J-47.963
X32.736 Y102.007 I39.31 J-60.433
X33.272 Y102.277 I4.286 J-7.822
G3 X33.809 Y102.544 I-4.587 J9.896
X34.157 Y103.124 I-0.308 J0.58
G1 Y104.756
G2 X34.356 Y104.956 I0.2 J0
G1 X36.352 Y104.966
G2 X36.553 Y104.766 I0.001 J-0.2
G1 Y101.653
G2 X36.207 Y101.088 I-0.634 J0
X35.016 Y100.497 I-28.946 J56.853
G3 X33.837 Y99.885 I10.066 J-20.834
X31.607 Y98.599 I39.9 J-71.744
X29.427 Y97.23 I30.185 J-50.481
X15.399 Y84.889 I37.97 J-57.304
X13.737 Y82.917 I78.978 J-68.291
X12.135 Y80.896 I54.847 J-45.107
X10.647 Y78.903 I92.668 J-70.731
X9.214 Y76.871 I61.297 J-44.75
G1 X5.784 Y71.712
G3 X3.61 Y68.175 I35.99 J-24.557
X1.754 Y64.462 I45.426 J-25.02
G2 X1.22 Y64.117 I-0.534 J0.241
G1 X-1.397
G3 X-1.597 Y63.916 I0 J-0.2
G1 X-1.588 Y61.919
G3 X-1.388 Y61.72 I0.2 J0.001
G1 X2.823
G3 X3.332 Y62.064 I0 J0.55
G2 X8.358 Y71.219 I41.178 J-16.647
G1 X11.904 Y76.541
G2 X13.339 Y78.517 I95.583 J-67.909
X14.829 Y80.452 I55.644 J-41.304
X16.434 Y82.415 I83.977 J-67.05
X18.102 Y84.325 I47.39 J-39.705
X24.396 Y90.454 I53.937 J-49.092
X31.454 Y95.686 I38.84 J-45.017
X35.794 Y98.222 I38.196 J-60.39
X36.995 Y98.829 I14.945 J-28.084
G1 X38.602 Y99.598
G3 X38.95 Y100.151 I-0.265 J0.552
G1 Y104.762
G2 X39.15 Y104.962 I0.2 J0
G1 X41.147 Y104.959
G2 X41.347 Y104.759 I0 J-0.2
G1 Y98.616
G2 X41 Y98.077 I-0.593 J0
X40.298 Y97.776 I-6.705 J14.656
G3 X39.598 Y97.468 I4.376 J-10.905
X36.551 Y95.907 I34.02 J-70.151
X32.408 Y93.451 I32.819 J-60.084
X25.553 Y88.287 I30.807 J-48.033
X19.457 Y82.245 I47.126 J-53.64
X17.864 Y80.389 I45.169 J-40.396
X16.33 Y78.484 I82.479 J-67.977
X14.899 Y76.598 I53.309 J-41.925
X13.522 Y74.674 I92.851 J-67.916
X12.226 Y72.759 I58.383 J-40.887
X10.982 Y70.81 I95.873 J-62.608
G2 X10.188 Y69.632 I-17.442 J10.894
G3 X9.378 Y68.464 I27.277 J-19.78
X4.979 Y59.663 I34.514 J-22.752
G2 X4.496 Y59.323 I-0.483 J0.173
G1 X-1.395
G3 X-1.595 Y59.123 I0 J-0.2
G1 X-1.589 Y57.121
G3 X-1.389 Y56.922 I0.2 J0.001
G1 X6.61
X6.667 Y57.114
X6.67 Y57.126
X6.747 Y57.379
X6.751 Y57.391
X6.831 Y57.644
X6.834 Y57.656
X6.916 Y57.909
X6.92 Y57.921
X7.004 Y58.174
X7.007 Y58.185
X7.094 Y58.439
X7.098 Y58.45
X7.186 Y58.703
X7.19 Y58.715
X7.281 Y58.968
X7.285 Y58.979
X7.378 Y59.233
X7.382 Y59.244
X7.478 Y59.497
X7.482 Y59.508
X7.58 Y59.761
X7.584 Y59.772
X7.684 Y60.025
X7.688 Y60.037
X7.791 Y60.29
X7.795 Y60.301
X7.9 Y60.554
X7.904 Y60.564
X8.011 Y60.817
X8.016 Y60.828
X8.125 Y61.081
X8.13 Y61.092
X8.241 Y61.345
X8.246 Y61.355
X8.36 Y61.608
X8.365 Y61.619
X8.481 Y61.872
X8.486 Y61.882
X8.605 Y62.135
X8.61 Y62.145
X8.731 Y62.398
X8.736 Y62.408
X8.859 Y62.66
X8.864 Y62.671
X8.99 Y62.924
X8.995 Y62.933
X9.123 Y63.186
X9.128 Y63.196
X9.259 Y63.449
X9.264 Y63.459
X9.397 Y63.711
X9.402 Y63.721
X9.537 Y63.973
X9.542 Y63.982
X9.68 Y64.234
X9.685 Y64.244
X9.825 Y64.497
X9.83 Y64.506
X9.973 Y64.758
X9.978 Y64.768
X10.123 Y65.02
X10.128 Y65.029
X10.276 Y65.281
X10.281 Y65.29
X10.431 Y65.542
X10.436 Y65.551
X10.588 Y65.803
X10.594 Y65.812
X10.748 Y66.063
X10.754 Y66.072
X10.91 Y66.324
X10.916 Y66.332
X11.075 Y66.584
X11.081 Y66.593
X11.242 Y66.844
X11.248 Y66.853
X11.412 Y67.104
X11.418 Y67.113
X11.584 Y67.364
X11.59 Y67.373
X11.759 Y67.624
X11.935 Y67.882
X11.941 Y67.891
X12.115 Y68.142
X12.297 Y68.401
X12.481 Y68.659
X12.668 Y68.918
X12.857 Y69.176
X12.942 Y69.291
X12.949 Y69.306
X12.999 Y69.412
X13.057 Y69.514
X13.347 Y69.978
X13.352 Y69.987
X13.646 Y70.45
X13.948 Y70.921
X13.954 Y70.929
X14.255 Y71.391
X14.566 Y71.86
X14.88 Y72.328
X14.885 Y72.337
X15.198 Y72.796
X15.52 Y73.262
X15.846 Y73.728
X15.852 Y73.736
X16.176 Y74.193
X16.182 Y74.201
X16.511 Y74.657
X16.517 Y74.665
X16.849 Y75.12
X16.855 Y75.128
X17.192 Y75.582
X17.198 Y75.59
X17.539 Y76.043
X17.545 Y76.051
X17.89 Y76.503
X17.897 Y76.512
X18.246 Y76.963
X18.253 Y76.972
X18.607 Y77.422
X18.614 Y77.43
X18.972 Y77.879
X18.979 Y77.888
X19.342 Y78.336
X19.35 Y78.345
X19.718 Y78.792
X19.725 Y78.801
X20.098 Y79.247
X20.106 Y79.256
X20.484 Y79.7
X20.492 Y79.71
X20.876 Y80.153
X20.884 Y80.162
X21.273 Y80.605
X21.281 Y80.614
X21.675 Y81.055
X21.684 Y81.065
X22.084 Y81.505
X22.093 Y81.515
X22.5 Y81.953
X22.509 Y81.963
X22.921 Y82.4
X22.931 Y82.41
X23.349 Y82.845
X23.359 Y82.855
X23.785 Y83.29
X23.795 Y83.3
X24.227 Y83.732
X24.238 Y83.743
X24.677 Y84.174
X24.688 Y84.185
X25.134 Y84.614
X25.145 Y84.624
X25.599 Y85.052
X25.611 Y85.063
X26.073 Y85.489
X26.085 Y85.5
X26.555 Y85.924
X26.567 Y85.935
X27.045 Y86.357
X27.058 Y86.368
X27.545 Y86.788
X27.558 Y86.799
X28.054 Y87.218
X28.067 Y87.229
X28.572 Y87.645
X28.586 Y87.656
X29.1 Y88.07
X29.114 Y88.081
X29.638 Y88.493
X29.649 Y88.501
X29.915 Y88.706
X30.191 Y88.916
X30.47 Y89.126
X30.75 Y89.334
X31.035 Y89.543
X31.321 Y89.75
X31.611 Y89.957
X31.904 Y90.164
X32.199 Y90.369
X32.497 Y90.574
X32.799 Y90.778
X33.103 Y90.982
X33.411 Y91.185
X33.721 Y91.386
X34.035 Y91.588
X34.352 Y91.788
X34.673 Y91.988
X34.996 Y92.187
X35.323 Y92.385
X35.653 Y92.583
X35.987 Y92.78
X36.324 Y92.975
X36.664 Y93.17
X37.008 Y93.364
X37.355 Y93.558
X37.707 Y93.75
X38.061 Y93.942
X38.419 Y94.132
X38.781 Y94.322
X39.147 Y94.511
X39.516 Y94.699
X39.889 Y94.886
X40.266 Y95.072
X40.647 Y95.258
X41.032 Y95.442
X41.42 Y95.625
X41.812 Y95.808
X42.209 Y95.989
X42.609 Y96.169
X43.013 Y96.349
X43.422 Y96.527
X43.748 Y96.668
Y103.369
Y104.766
G3 X43.517 Y104.963 I-0.2 J0
G1 X13.712 Y100.182
X13.675 Y100.173
X13.64 Y100.156
X13.609 Y100.133
Z-0.6 F300
X13.601 Y100.125
G3 X11.926 Y98.565 I49.642 J-54.975 F1000
X4.047 Y89.994 I64.988 J-67.646
X2.285 Y87.741 I64.041 J-51.919
X1.69 Y86.947 I103.304 J-77.971
G1 X1.675 Y86.923
X1.663 Y86.897
X-1.2 Y79.154
G3 X-0.847 Y78.973 I0.188 J-0.069
X-0.015 Y80.262 I-31.335 J21.122
G2 X1.357 Y82.364 I41.258 J-25.438
X2.946 Y84.614 I105.922 J-73.133
X4.597 Y86.819 I66.469 J-48.026
X6.387 Y89.074 I96.253 J-74.59
X8.247 Y91.273 I58.327 J-47.45
X9.771 Y92.973 I89.119 J-78.357
X11.34 Y94.631 I48.573 J-44.393
X13.05 Y96.338 I77.64 J-76.066
X14.812 Y97.992 I42.963 J-44.006
X16.738 Y99.686 I68.143 J-75.518
X18.72 Y101.313 I38.78 J-45.219
X21.055 Y103.089 I57.229 J-72.856
X21.804 Y103.632 I38.618 J-52.503
G1 X21.838 Y103.651
X21.875 Y103.664
X27.607 Y105.006
G2 X27.754 Y104.639 I0.046 J-0.195
G3 X27.146 Y104.279 I89.355 J-151.533
X25.55 Y103.285 I24.094 J-40.487
X17.334 Y97.018 I37.612 J-57.822
X10.047 Y89.691 I55.898 J-62.882
X8.235 Y87.548 I54.735 J-48.125
X6.491 Y85.351 I92.802 J-75.465
X4.88 Y83.199 I62.988 J-48.812
X3.329 Y81.002 I102.564 J-74.082
G1 X-0.155 Y75.765
G3 X-1.37 Y73.867 I31.437 J-21.451
G1 X-1.389 Y73.824
X-1.398 Y73.778
X-1.722 Y69.226
G3 X-1.396 Y69.057 I0.199 J-0.014
X-1.23 Y69.259 I-0.413 J0.507
G2 X0.223 Y71.88 I60.797 J-32.014
X1.825 Y74.414 I36.735 J-21.44
G1 X5.301 Y79.641
G2 X6.814 Y81.783 I102.318 J-70.645
X8.385 Y83.883 I62.731 J-45.296
X10.083 Y86.022 I92.854 J-71.957
X11.847 Y88.108 I54.768 J-44.518
X18.902 Y95.205 I61.408 J-53.992
X26.857 Y101.276 I44.271 J-49.758
X29.952 Y103.19 I43.357 J-66.654
X30.68 Y103.583 I6.687 J-11.514
G3 X31.411 Y103.969 I-8.501 J16.987
X31.76 Y104.563 I-0.33 J0.594
G1 Y104.765
G2 X31.961 Y104.965 I0.2 J0
G1 X33.958 Y104.956
G2 X34.157 Y104.756 I-0.001 J-0.2
G1 Y103.124
G2 X33.809 Y102.544 I-0.657 J0
X33.272 Y102.277 I-5.124 J9.629
G3 X32.736 Y102.007 I3.751 J-8.092
X28.164 Y99.267 I34.738 J-63.172
X20.47 Y93.392 I35.021 J-53.838
X16.144 Y89.236 I52.809 J-59.298
G1 X15.068 Y88.099
G3 X13.647 Y86.526 I58.211 J-54.004
X11.931 Y84.496 I51.278 J-45.086
X10.28 Y82.415 I89.525 J-72.738
X8.748 Y80.368 I59.334 J-45.981
X7.274 Y78.279 I99.059 J-71.502
X5.984 Y76.287 I32.685 J-22.568
G2 X4.674 Y74.309 I-25.093 J15.197
G3 X0.236 Y66.861 I42.376 J-30.299
G2 X-0.321 Y66.513 I-0.557 J0.272
G1 X-1.39
G3 X-1.59 Y66.314 I0 J-0.2
G1 X-1.597 Y64.317
G3 X-1.397 Y64.117 I0.2 J-0.001
G1 X1.22
G3 X1.754 Y64.462 I0 J0.585
G2 X3.61 Y68.175 I47.282 J-21.307
X5.784 Y71.712 I38.164 J-21.02
G1 X9.214 Y76.871
G2 X10.647 Y78.903 I62.73 J-42.717
X12.135 Y80.896 I94.156 J-68.738
X13.737 Y82.917 I56.449 J-43.086
X15.399 Y84.889 I80.641 J-66.32
X29.427 Y97.23 I51.998 J-44.962
X31.607 Y98.599 I32.365 J-49.112
X33.837 Y99.885 I42.13 J-70.458
X35.016 Y100.497 I11.246 J-20.221
G3 X36.207 Y101.088 I-27.755 J57.444
X36.553 Y101.653 I-0.288 J0.565
G1 Y104.766
G2 X36.754 Y104.966 I0.2 J0
G1 X38.75 Y104.962
G2 X38.95 Y104.762 I0 J-0.2
G1 Y100.151
G2 X38.602 Y99.598 I-0.613 J0
G1 X36.995 Y98.829
G3 X35.794 Y98.222 I13.744 J-28.691
X31.454 Y95.686 I33.856 J-62.926
X24.396 Y90.454 I31.782 J-50.249
X18.102 Y84.325 I47.643 J-55.221
X16.434 Y82.415 I45.722 J-41.615
X14.829 Y80.452 I82.371 J-69.013
X13.339 Y78.517 I54.154 J-43.239
X11.904 Y76.541 I94.148 J-69.885
G1 X8.358 Y71.219
G3 X3.332 Y62.064 I36.153 J-25.802
G2 X2.823 Y61.72 I-0.51 J0.206
G1 X-1.388
G3 X-1.588 Y61.521 I0 J-0.2
G1 X-1.595 Y59.524
G3 X-1.395 Y59.323 I0.2 J-0.001
G1 X4.496
G3 X4.979 Y59.663 I0 J0.513
G2 X9.378 Y68.464 I38.913 J-13.952
X10.188 Y69.632 I28.087 J-18.613
G3 X10.982 Y70.81 I-16.648 J12.072
G2 X12.226 Y72.759 I97.118 J-60.659
X13.522 Y74.674 I59.679 J-38.972
X14.899 Y76.598 I94.229 J-65.991
X16.33 Y78.484 I54.74 J-40.039
X17.864 Y80.389 I84.013 J-66.072
X19.457 Y82.245 I46.762 J-38.54
X25.553 Y88.287 I53.222 J-47.598
X32.408 Y93.451 I37.663 J-42.869
X36.551 Y95.907 I36.962 J-57.628
X39.598 Y97.468 I37.067 J-68.589
X40.298 Y97.776 I5.076 J-10.597
G3 X41 Y98.077 I-6.003 J14.958
X41.347 Y98.616 I-0.247 J0.539
G1 Y104.759
G2 X41.546 Y104.959 I0.2 J0
G1 X43.547 Y104.966
G2 X43.748 Y104.766 I0.001 J-0.2
G1 Y96.668
X43.422 Y96.527
X43.013 Y96.349
X42.609 Y96.169
X42.209 Y95.989
X41.812 Y95.808
X41.42 Y95.625
X41.032 Y95.442
X40.647 Y95.258
X40.266 Y95.072
X39.889 Y94.886
X39.516 Y94.699
X39.147 Y94.511
X38.781 Y94.322
X38.419 Y94.132
X38.061 Y93.942
X37.707 Y93.75
X37.355 Y93.558
X37.008 Y93.364
X36.664 Y93.17
X36.324 Y92.975
X35.987 Y92.78
X35.653 Y92.583
X35.323 Y92.385
X34.996 Y92.187
X34.673 Y91.988
X34.352 Y91.788
X34.035 Y91.588
X33.721 Y91.386
X33.411 Y91.185
X33.103 Y90.982
X32.799 Y90.778
X32.497 Y90.574
X32.199 Y90.369
X31.904 Y90.164
X31.611 Y89.957
X31.321 Y89.75
X31.035 Y89.543
X30.75 Y89.334
X30.47 Y89.126
X30.191 Y88.916
X29.915 Y88.706
X29.649 Y88.501
X29.638 Y88.493
X29.114 Y88.081
X29.1 Y88.07
X28.586 Y87.656
X28.572 Y87.645
X28.067 Y87.229
X28.054 Y87.218
X27.558 Y86.799
X27.545 Y86.788
X27.058 Y86.368
X27.045 Y86.357
X26.567 Y85.935
X26.555 Y85.924
X26.085 Y85.5
X26.073 Y85.489
X25.611 Y85.063
X25.599 Y85.052
X25.145 Y84.624
X25.134 Y84.614
X24.688 Y84.185
X24.677 Y84.174
X24.238 Y83.743
X24.227 Y83.732
X23.795 Y83.3
X23.785 Y83.29
X23.359 Y82.855
X23.349 Y82.845
X22.931 Y82.41
X22.921 Y82.4
X22.509 Y81.963
X22.5 Y81.953
X22.093 Y81.515
X22.084 Y81.505
X21.684 Y81.065
X21.675 Y81.055
X21.281 Y80.614
X21.273 Y80.605
X20.884 Y80.162
X20.876 Y80.153
X20.492 Y79.71
X20.484 Y79.7
X20.106 Y79.256
X20.098 Y79.247
X19.725 Y78.801
X19.718 Y78.792
X19.35 Y78.345
X19.342 Y78.336
X18.979 Y77.888
X18.972 Y77.879
X18.614 Y77.43
X18.607 Y77.422
X18.253 Y76.972
X18.246 Y76.963
X17.897 Y76.512
X17.89 Y76.503
X17.545 Y76.051
X17.539 Y76.043
X17.198 Y75.59
X17.192 Y75.582
X16.855 Y75.128
X16.849 Y75.12
X16.517 Y74.665
X16.511 Y74.657
X16.182 Y74.201
X16.176 Y74.193
X15.852 Y73.736
X15.846 Y73.728
X15.52 Y73.262
X15.198 Y72.796
X14.885 Y72.337
X14.88 Y72.328
X14.566 Y71.86
X14.255 Y71.391
X13.954 Y70.929
X13.948 Y70.921
X13.646 Y70.45
X13.352 Y69.987
X13.347 Y69.978
X13.057 Y69.514
X12.999 Y69.412
X12.949 Y69.306
X12.942 Y69.291
X12.857 Y69.176
X12.668 Y68.918
X12.481 Y68.659
X12.297 Y68.401
X12.115 Y68.142
X11.941 Y67.891
X11.935 Y67.882
X11.759 Y67.624
X11.59 Y67.373
X11.584 Y67.364
X11.418 Y67.113
X11.412 Y67.104
X11.248 Y66.853
X11.242 Y66.844
X11.081 Y66.593
X11.075 Y66.584
X10.916 Y66.332
X10.91 Y66.324
X10.754 Y66.072
X10.748 Y66.063
X10.594 Y65.812
X10.588 Y65.803
X10.436 Y65.551
X10.431 Y65.542
X10.281 Y65.29
X10.276 Y65.281
X10.128 Y65.029
X10.123 Y65.02
X9.978 Y64.768
X9.973 Y64.758
X9.83 Y64.506
X9.825 Y64.497
X9.685 Y64.244
X9.68 Y64.234
X9.542 Y63.982
X9.537 Y63.973
X9.402 Y63.721
X9.397 Y63.711
X9.264 Y63.459
X9.259 Y63.449
X9.128 Y63.196
X9.123 Y63.186
X8.995 Y62.933
X8.99 Y62.924
X8.864 Y62.671
X8.859 Y62.66
X8.736 Y62.408
X8.731 Y62.398
X8.61 Y62.145
X8.605 Y62.135
X8.486 Y61.882
X8.481 Y61.872
X8.365 Y61.619
X8.36 Y61.608
X8.246 Y61.355
X8.241 Y61.345
X8.13 Y61.092
X8.125 Y61.081
X8.016 Y60.828
X8.011 Y60.817
X7.904 Y60.564
X7.9 Y60.554
X7.795 Y60.301
X7.791 Y60.29
X7.688 Y60.037
X7.684 Y60.025
X7.584 Y59.772
X7.58 Y59.761
X7.482 Y59.508
X7.478 Y59.497
X7.382 Y59.244
X7.378 Y59.233
X7.285 Y58.979
X7.281 Y58.968
X7.19 Y58.715
X7.186 Y58.703
X7.098 Y58.45
X7.094 Y58.439
X7.007 Y58.185
X7.004 Y58.174
X6.92 Y57.921
X6.916 Y57.909
X6.834 Y57.656
X6.831 Y57.644
X6.751 Y57.391
X6.747 Y57.379
X6.67 Y57.126
X6.667 Y57.114
X6.61 Y56.922
X0
X-1.389
G2 X-1.588 Y57.143 I0 J0.2
G1 X1.645 Y86.84
X1.657 Y86.892
X1.683 Y86.938
Z-0.8 F300
X1.69 Y86.947
G2 X2.285 Y87.741 I103.899 J-77.177 F1000
X4.047 Y89.994 I65.804 J-49.667
X11.926 Y98.565 I72.867 J-59.074
X13.601 Y100.125 I51.316 J-53.415
G1 X13.623 Y100.143
X13.648 Y100.157
X21.602 Y103.975
G2 X21.804 Y103.632 I0.087 J-0.18
G3 X21.055 Y103.089 I37.868 J-53.046
X18.72 Y101.313 I54.894 J-74.631
X16.738 Y99.686 I36.798 J-46.846
X14.812 Y97.992 I66.218 J-77.212
X13.05 Y96.338 I41.201 J-45.66
X11.34 Y94.631 I75.93 J-77.773
X9.771 Y92.973 I47.004 J-46.051
X8.247 Y91.273 I87.595 J-80.057
X6.387 Y89.074 I56.467 J-49.648
X4.597 Y86.819 I94.462 J-76.846
X2.946 Y84.614 I64.819 J-50.231
X1.357 Y82.364 I104.333 J-75.383
X-0.015 Y80.262 I39.886 J-27.539
G2 X-0.847 Y78.973 I-32.167 J19.832
G1 X-0.866 Y78.936
X-0.878 Y78.896
X-1.738 Y74.004
G3 X-1.37 Y73.867 I0.197 J-0.035
G2 X-0.155 Y75.765 I32.651 J-19.553
G1 X3.329 Y81.002
G2 X4.88 Y83.199 I104.115 J-71.886
X6.491 Y85.351 I64.599 J-46.66
X8.235 Y87.548 I94.546 J-73.268
X10.047 Y89.691 I56.546 J-45.983
X17.334 Y97.018 I63.185 J-55.555
X25.55 Y103.285 I45.828 J-51.554
X27.146 Y104.279 I25.689 J-39.493
X27.754 Y104.639 I89.963 J-151.173
G1 X27.796 Y104.657
X27.84 Y104.666
X31.544 Y104.964
G2 X31.76 Y104.765 I0.016 J-0.199
G1 Y104.563
G2 X31.411 Y103.969 I-0.68 J0
X30.68 Y103.583 I-9.232 J16.601
G3 X29.952 Y103.19 I5.959 J-11.907
X26.857 Y101.276 I40.262 J-68.568
X18.902 Y95.205 I36.316 J-55.83
X11.847 Y88.108 I54.352 J-61.089
X10.083 Y86.022 I53.005 J-46.604
X8.385 Y83.883 I91.156 J-74.096
X6.814 Y81.783 I61.16 J-47.396
X5.301 Y79.641 I100.806 J-72.788
G1 X1.825 Y74.414
G3 X0.223 Y71.88 I35.134 J-23.974
X-1.23 Y69.259 I59.343 J-34.634
G2 X-1.396 Y69.057 I-0.579 J0.305
G1 X-1.434 Y69.016
X-1.459 Y68.967
X-1.47 Y68.913
X-1.59 Y66.724
G3 X-1.39 Y66.513 I0.2 J-0.011
G1 X-0.321
G3 X0.236 Y66.861 I0 J0.62
G2 X4.674 Y74.309 I46.815 J-22.851
G3 X5.984 Y76.287 I-23.783 J17.175
G2 X7.274 Y78.279 I33.975 J-20.576
X8.748 Y80.368 I100.534 J-69.413
X10.28 Y82.415 I60.866 J-43.934
X11.931 Y84.496 I91.176 J-70.657
X13.647 Y86.526 I52.994 J-43.057
X15.068 Y88.099 I59.632 J-52.431
G1 X16.144 Y89.236
G2 X20.47 Y93.392 I57.135 J-55.141
X28.164 Y99.267 I42.715 J-47.963
X32.736 Y102.007 I39.31 J-60.433
X33.272 Y102.277 I4.286 J-7.822
G3 X33.809 Y102.544 I-4.587 J9.896
X34.157 Y103.124 I-0.308 J0.58
G1 Y104.756
G2 X34.356 Y104.956 I0.2 J0
G1 X36.352 Y104.966
G2 X36.553 Y104.766 I0.001 J-0.2
G1 Y101.653
G2 X36.207 Y101.088 I-0.634 J0
X35.016 Y100.497 I-28.946 J56.853
G3 X33.837 Y99.885 I10.066 J-20.834
X31.607 Y98.599 I39.9 J-71.744
X29.427 Y97.23 I30.185 J-50.481
X15.399 Y84.889 I37.97 J-57.304
X13.737 Y82.917 I78.978 J-68.291
X12.135 Y80.896 I54.847 J-45.107
X10.647 Y78.903 I92.668 J-70.731
X9.214 Y76.871 I61.297 J-44.75
G1 X5.784 Y71.712
G3 X3.61 Y68.175 I35.99 J-24.557
X1.754 Y64.462 I45.426 J-25.02
G2 X1.22 Y64.117 I-0.534 J0.241
G1 X-1.397
G3 X-1.597 Y63.916 I0 J-0.2
G1 X-1.588 Y61.919
G3 X-1.388 Y61.72 I0.2 J0.001
G1 X2.823
G3 X3.332 Y62.064 I0 J0.55
G2 X8.358 Y71.219 I41.178 J-16.647
G1 X11.904 Y76.541
G2 X13.339 Y78.517 I95.583 J-67.909
X14.829 Y80.452 I55.644 J-41.304
X16.434 Y82.415 I83.977 J-67.05
X18.102 Y84.325 I47.39 J-39.705
X24.396 Y90.454 I53.937 J-49.092
X31.454 Y95.686 I38.84 J-45.017
X35.794 Y98.222 I38.196 J-60.39
X36.995 Y98.829 I14.945 J-28.084
G1 X38.602 Y99.598
G3 X38.95 Y100.151 I-0.265 J0.552
G1 Y104.762
G2 X39.15 Y104.962 I0.2 J0
G1 X41.147 Y104.959
G2 X41.347 Y104.759 I0 J-0.2
G1 Y98.616
G2 X41 Y98.077 I-0.593 J0
X40.298 Y97.776 I-6.705 J14.656
G3 X39.598 Y97.468 I4.376 J-10.905
X36.551 Y95.907 I34.02 J-70.151
X32.408 Y93.451 I32.819 J-60.084
X25.553 Y88.287 I30.807 J-48.033
X19.457 Y82.245 I47.126 J-53.64
X17.864 Y80.389 I45.169 J-40.396
X16.33 Y78.484 I82.479 J-67.977
X14.899 Y76.598 I53.309 J-41.925
X13.522 Y74.674 I92.851 J-67.916
X12.226 Y72.759 I58.383 J-40.887
X10.982 Y70.81 I95.873 J-62.608
G2 X10.188 Y69.632 I-17.442 J10.894
G3 X9.378 Y68.464 I27.277 J-19.78
X4.979 Y59.663 I34.514 J-22.752
G2 X4.496 Y59.323 I-0.483 J0.173
G1 X-1.395
G3 X-1.595 Y59.123 I0 J-0.2
G1 X-1.589 Y57.121
G3 X-1.389 Y56.922 I0.2 J0.001
G1 X6.61
X6.667 Y57.114
X6.67 Y57.126
X6.747 Y57.379
X6.751 Y57.391
X6.831 Y57.644
X6.834 Y57.656
X6.916 Y57.909
X6.92 Y57.921
X7.004 Y58.174
X7.007 Y58.185
X7.094 Y58.439
X7.098 Y58.45
X7.186 Y58.703
X7.19 Y58.715
X7.281 Y58.968
X7.285 Y58.979
X7.378 Y59.233
X7.382 Y59.244
X7.478 Y59.497
X7.482 Y59.508
X7.58 Y59.761
X7.584 Y59.772
X7.684 Y60.025
X7.688 Y60.037
X7.791 Y60.29
X7.795 Y60.301
X7.9 Y60.554
X7.904 Y60.564
X8.011 Y60.817
X8.016 Y60.828
X8.125 Y61.081
X8.13 Y61.092
X8.241 Y61.345
X8.246 Y61.355
X8.36 Y61.608
X8.365 Y61.619
X8.481 Y61.872
X8.486 Y61.882
X8.605 Y62.135
X8.61 Y62.145
X8.731 Y62.398
X8.736 Y62.408
X8.859 Y62.66
X8.864 Y62.671
X8.99 Y62.924
X8.995 Y62.933
X9.123 Y63.186
X9.128 Y63.196
X9.259 Y63.449
X9.264 Y63.459
X9.397 Y63.711
X9.402 Y63.721
X9.537 Y63.973
X9.542 Y63.982
X9.68 Y64.234
X9.685 Y64.244
X9.825 Y64.497
X9.83 Y64.506
X9.973 Y64.758
X9.978 Y64.768
X10.123 Y65.02
X10.128 Y65.029
X10.276 Y65.281
X10.281 Y65.29
X10.431 Y65.542
X10.436 Y65.551
X10.588 Y65.803
X10.594 Y65.812
X10.748 Y66.063
X10.754 Y66.072
X10.91 Y66.324
X10.916 Y66.332
X11.075 Y66.584
X11.081 Y66.593
X11.242 Y66.844
X11.248 Y66.853
X11.412 Y67.104
X11.418 Y67.113
X11.584 Y67.364
X11.59 Y67.373
X11.759 Y67.624
X11.935 Y67.882
X11.941 Y67.891
X12.115 Y68.142
X12.297 Y68.401
X12.481 Y68.659
X12.668 Y68.918
X12.857 Y69.176
X12.942 Y69.291
X12.949 Y69.306
X12.999 Y69.412
X13.057 Y69.514
X13.347 Y69.978
X13.352 Y69.987
X13.646 Y70.45
X13.948 Y70.921
X13.954 Y70.929
X14.255 Y71.391
X14.566 Y71.86
X14.88 Y72.328
X14.885 Y72.337
X15.198 Y72.796
X15.52 Y73.262
X15.846 Y73.728
X15.852 Y73.736
X16.176 Y74.193
X16.182 Y74.201
X16.511 Y74.657
X16.517 Y74.665
X16.849 Y75.12
X16.855 Y75.128
X17.192 Y75.582
X17.198 Y75.59
X17.539 Y76.043
X17.545 Y76.051
X17.89 Y76.503
X17.897 Y76.512
X18.246 Y76.963
X18.253 Y76.972
X18.607 Y77.422
X18.614 Y77.43
X18.972 Y77.879
X18.979 Y77.888
X19.342 Y78.336
X19.35 Y78.345
X19.718 Y78.792
X19.725 Y78.801
X20.098 Y79.247
X20.106 Y79.256
X20.484 Y79.7
X20.492 Y79.71
X20.876 Y80.153
X20.884 Y80.162
X21.273 Y80.605
X21.281 Y80.614
X21.675 Y81.055
X21.684 Y81.065
X22.084 Y81.505
X22.093 Y81.515
X22.5 Y81.953
X22.509 Y81.963
X22.921 Y82.4
X22.931 Y82.41
X23.349 Y82.845
X23.359 Y82.855
X23.785 Y83.29
X23.795 Y83.3
X24.227 Y83.732
X24.238 Y83.743
X24.677 Y84.174
X24.688 Y84.185
X25.134 Y84.614
X25.145 Y84.624
X25.599 Y85.052
X25.611 Y85.063
X26.073 Y85.489
X26.085 Y85.5
X26.555 Y85.924
X26.567 Y85.935
X27.045 Y86.357
X27.058 Y86.368
X27.545 Y86.788
X27.558 Y86.799
X28.054 Y87.218
X28.067 Y87.229
X28.572 Y87.645
X28.586 Y87.656
X29.1 Y88.07
X29.114 Y88.081
X29.638 Y88.493
X29.649 Y88.501
X29.915 Y88.706
X30.191 Y88.916
X30.47 Y89.126
X30.75 Y89.334
X31.035 Y89.543
X31.321 Y89.75
X31.611 Y89.957
X31.904 Y90.164
X32.199 Y90.369
X32.497 Y90.574
X32.799 Y90.778
X33.103 Y90.982
X33.411 Y91.185
X33.721 Y91.386
X34.035 Y91.588
X34.352 Y91.788
X34.673 Y91.988
X34.996 Y92.187
X35.323 Y92.385
X35.653 Y92.583
X35.987 Y92.78
X36.324 Y92.975
X36.664 Y93.17
X37.008 Y93.364
X37.355 Y93.558
X37.707 Y93.75
X38.061 Y93.942
X38.419 Y94.132
X38.781 Y94.322
X39.147 Y94.511
X39.516 Y94.699
X39.889 Y94.886
X40.266 Y95.072
X40.647 Y95.258
X41.032 Y95.442
X41.42 Y95.625
X41.812 Y95.808
X42.209 Y95.989
X42.609 Y96.169
X43.013 Y96.349
X43.422 Y96.527
X43.748 Y96.668
Y103.369
Y104.766
G3 X43.517 Y104.963 I-0.2 J0
G1 X13.712 Y100.182
X13.675 Y100.173
X13.64 Y100.156
X13.609 Y100.133
Z-1 F300
X13.601 Y100.125
G3 X11.926 Y98.565 I49.642 J-54.975 F1000
X4.047 Y89.994 I64.988 J-67.646
X2.285 Y87.741 I64.041 J-51.919
X1.69 Y86.947 I103.304 J-77.971
G1 X1.675 Y86.923
X1.663 Y86.897
X-1.2 Y79.154
G3 X-0.847 Y78.973 I0.188 J-0.069
X-0.015 Y80.262 I-31.335 J21.122
G2 X1.357 Y82.364 I41.258 J-25.438
X2.946 Y84.614 I105.922 J-73.133
X4.597 Y86.819 I66.469 J-48.026
X6.387 Y89.074 I96.253 J-74.59
X8.247 Y91.273 I58.327 J-47.45
X9.771 Y92.973 I89.119 J-78.357
X11.34 Y94.631 I48.573 J-44.393
X13.05 Y96.338 I77.64 J-76.066
X14.812 Y97.992 I42.963 J-44.006
X16.738 Y99.686 I68.143 J-75.518
X18.72 Y101.313 I38.78 J-45.219
X21.055 Y103.089 I57.229 J-72.856
X21.804 Y103.632 I38.618 J-52.503
G1 X21.838 Y103.651
X21.875 Y103.664
X27.607 Y105.006
G2 X27.754 Y104.639 I0.046 J-0.195
G3 X27.146 Y104.279 I89.355 J-151.533
X25.55 Y103.285 I24.094 J-40.487
X17.334 Y97.018 I37.612 J-57.822
X10.047 Y89.691 I55.898 J-62.882
X8.235 Y87.548 I54.735 J-48.125
X6.491 Y85.351 I92.802 J-75.465
X4.88 Y83.199 I62.988 J-48.812
X3.329 Y81.002 I102.564 J-74.082
G1 X-0.155 Y75.765
G3 X-1.37 Y73.867 I31.437 J-21.451
G1 X-1.389 Y73.824
X-1.398 Y73.778
X-1.722 Y69.226
G3 X-1.396 Y69.057 I0.199 J-0.014
X-1.23 Y69.259 I-0.413 J0.507
G2 X0.223 Y71.88 I60.797 J-32.014
X1.825 Y74.414 I36.735 J-21.44
G1 X5.301 Y79.641
G2 X6.814 Y81.783 I102.318 J-70.645
X8.385 Y83.883 I62.731 J-45.296
X10.083 Y86.022 I92.854 J-71.957
X11.847 Y88.108 I54.768 J-44.518
X18.902 Y95.205 I61.408 J-53.992
X26.857 Y101.276 I44.271 J-49.758
X29.952 Y103.19 I43.357 J-66.654
X30.68 Y103.583 I6.687 J-11.514
G3 X31.411 Y103.969 I-8.501 J16.987
X31.76 Y104.563 I-0.33 J0.594
G1 Y104.765
G2 X31.961 Y104.965 I0.2 J0
G1 X33.958 Y104.956
G2 X34.157 Y104.756 I-0.001 J-0.2
G1 Y103.124
G2 X33.809 Y102.544 I-0.657 J0
X33.272 Y102.277 I-5.124 J9.629
G3 X32.736 Y102.007 I3.751 J-8.092
X28.164 Y99.267 I34.738 J-63.172
X20.47 Y93.392 I35.021 J-53.838
X16.144 Y89.236 I52.809 J-59.298
G1 X15.068 Y88.099
G3 X13.647 Y86.526 I58.211 J-54.004
X11.931 Y84.496 I51.278 J-45.086
X10.28 Y82.415 I89.525 J-72.738
X8.748 Y80.368 I59.334 J-45.981
X7.274 Y78.279 I99.059 J-71.502
X5.984 Y76.287 I32.685 J-22.568
G2 X4.674 Y74.309 I-25.093 J15.197
G3 X0.236 Y66.861 I42.376 J-30.299
G2 X-0.321 Y66.513 I-0.557 J0.272
G1 X-1.39
G3 X-1.59 Y66.314 I0 J-0.2
G1 X-1.597 Y64.317
G3 X-1.397 Y64.117 I0.2 J-0.001
G1 X1.22
G3 X1.754 Y64.462 I0 J0.585
G2 X3.61 Y68.175 I47.282 J-21.307
X5.784 Y71.712 I38.164 J-21.02
G1 X9.214 Y76.871
G2 X10.647 Y78.903 I62.73 J-42.717
X12.135 Y80.896 I94.156 J-68.738
X13.737 Y82.917 I56.449 J-43.086
X15.399 Y84.889 I80.641 J-66.32
X29.427 Y97.23 I51.998 J-44.962
X31.607 Y98.599 I32.365 J-49.112
X33.837 Y99.885 I42.13 J-70.458
X35.016 Y100.497 I11.246 J-20.221
G3 X36.207 Y101.088 I-27.755 J57.444
X36.553 Y101.653 I-0.288 J0.565
G1 Y104.766
G2 X36.754 Y104.966 I0.2 J0
G1 X38.75 Y104.962
G2 X38.95 Y104.762 I0 J-0.2
G1 Y100.151
G2 X38.602 Y99.598 I-0.613 J0
G1 X36.995 Y98.829
G3 X35.794 Y98.222 I13.744 J-28.691
X31.454 Y95.686 I33.856 J-62.926
X24.396 Y90.454 I31.782 J-50.249
X18.102 Y84.325 I47.643 J-55.221
X16.434 Y82.415 I45.722 J-41.615
X14.829 Y80.452 I82.371 J-69.013
X13.339 Y78.517 I54.154 J-43.239
X11.904 Y76.541 I94.148 J-69.885
G1 X8.358 Y71.219
G3 X3.332 Y62.064 I36.153 J-25.802
G2 X2.823 Y61.72 I-0.51 J0.206
G1 X-1.388
G3 X-1.588 Y61.521 I0 J-0.2
G1 X-1.595 Y59.524
G3 X-1.395 Y59.323 I0.2 J-0.001
G1 X4.496
G3 X4.979 Y59.663 I0 J0.513
G2 X9.378 Y68.464 I38.913 J-13.952
X10.188 Y69.632 I28.087 J-18.613
G3 X10.982 Y70.81 I-16.648 J12.072
G2 X12.226 Y72.759 I97.118 J-60.659
X13.522 Y74.674 I59.679 J-38.972
X14.899 Y76.598 I94.229 J-65.991
X16.33 Y78.484 I54.74 J-40.039
X17.864 Y80.389 I84.013 J-66.072
X19.457 Y82.245 I46.762 J-38.54
X25.553 Y88.287 I53.222 J-47.598
X32.408 Y93.451 I37.663 J-42.869
X36.551 Y95.907 I36.962 J-57.628
X39.598 Y97.468 I37.067 J-68.589
X40.298 Y97.776 I5.076 J-10.597
G3 X41 Y98.077 I-6.003 J14.958
X41.347 Y98.616 I-0.247 J0.539
G1 Y104.759
G2 X41.546 Y104.959 I0.2 J0
G1 X43.547 Y104.966
G2 X43.748 Y104.766 I0.001 J-0.2
G1 Y96.668
X43.422 Y96.527
X43.013 Y96.349
X42.609 Y96.169
X42.209 Y95.989
X41.812 Y95.808
X41.42 Y95.625
X41.032 Y95.442
X40.647 Y95.258
X40.266 Y95.072
X39.889 Y94.886
X39.516 Y94.699
X39.147 Y94.511
X38.781 Y94.322
X38.419 Y94.132
X38.061 Y93.942
X37.707 Y93.75
X37.355 Y93.558
X37.008 Y93.364
X36.664 Y93.17
X36.324 Y92.975
X35.987 Y92.78
X35.653 Y92.583
X35.323 Y92.385
X34.996 Y92.187
X34.673 Y91.988
X34.352 Y91.788
X34.035 Y91.588
X33.721 Y91.386
X33.411 Y91.185
X33.103 Y90.982
X32.799 Y90.778
X32.497 Y90.574
X32.199 Y90.369
X31.904 Y90.164
X31.611 Y89.957
X31.321 Y89.75
X31.035 Y89.543
X30.75 Y89.334
X30.47 Y89.126
X30.191 Y88.916
X29.915 Y88.706
X29.649 Y88.501
X29.638 Y88.493
X29.114 Y88.081
X29.1 Y88.07
X28.586 Y87.656
X28.572 Y87.645
X28.067 Y87.229
X28.054 Y87.218
X27.558 Y86.799
X27.545 Y86.788
X27.058 Y86.368
X27.045 Y86.357
X26.567 Y85.935
X26.555 Y85.924
X26.085 Y85.5
X26.073 Y85.489
X25.611 Y85.063
X25.599 Y85.052
X25.145 Y84.624
X25.134 Y84.614
X24.688 Y84.185
X24.677 Y84.174
X24.238 Y83.743
X24.227 Y83.732
X23.795 Y83.3
X23.785 Y83.29
X23.359 Y82.855
X23.349 Y82.845
X22.931 Y82.41
X22.921 Y82.4
X22.509 Y81.963
X22.5 Y81.953
X22.093 Y81.515
X22.084 Y81.505
X21.684 Y81.065
X21.675 Y81.055
X21.281 Y80.614
X21.273 Y80.605
X20.884 Y80.162
X20.876 Y80.153
X20.492 Y79.71
X20.484 Y79.7
X20.106 Y79.256
X20.098 Y79.247
X19.725 Y78.801
X19.718 Y78.792
X19.35 Y78.345
X19.342 Y78.336
X18.979 Y77.888
X18.972 Y77.879
X18.614 Y77.43
X18.607 Y77.422
X18.253 Y76.972
X18.246 Y76.963
X17.897 Y76.512
X17.89 Y76.503
X17.545 Y76.051
X17.539 Y76.043
X17.198 Y75.59
X17.192 Y75.582
X16.855 Y75.128
X16.849 Y75.12
X16.517 Y74.665
X16.511 Y74.657
X16.182 Y74.201
X16.176 Y74.193
X15.852 Y73.736
X15.846 Y73.728
X15.52 Y73.262
X15.198 Y72.796
X14.885 Y72.337
X14.88 Y72.328
X14.566 Y71.86
X14.255 Y71.391
X13.954 Y70.929
X13.948 Y70.921
X13.646 Y70.45
X13.352 Y69.987
X13.347 Y69.978
X13.057 Y69.514
X12.999 Y69.412
X12.949 Y69.306
X12.942 Y69.291
X12.857 Y69.176
X12.668 Y68.918
X12.481 Y68.659
X12.297 Y68.401
X12.115 Y68.142
X11.941 Y67.891
X11.935 Y67.882
X11.759 Y67.624
X11.59 Y67.373
X11.584 Y67.364
X11.418 Y67.113
X11.412 Y67.104
X11.248 Y66.853
X11.242 Y66.844
X11.081 Y66.593
X11.075 Y66.584
X10.916 Y66.332
X10.91 Y66.324
X10.754 Y66.072
X10.748 Y66.063
X10.594 Y65.812
X10.588 Y65.803
X10.436 Y65.551
X10.431 Y65.542
X10.281 Y65.29
X10.276 Y65.281
X10.128 Y65.029
X10.123 Y65.02
X9.978 Y64.768
X9.973 Y64.758
X9.83 Y64.506
X9.825 Y64.497
X9.685 Y64.244
X9.68 Y64.234
X9.542 Y63.982
X9.537 Y63.973
X9.402 Y63.721
X9.397 Y63.711
X9.264 Y63.459
X9.259 Y63.449
X9.128 Y63.196
X9.123 Y63.186
X8.995 Y62.933
X8.99 Y62.924
X8.864 Y62.671
X8.859 Y62.66
X8.736 Y62.408
X8.731 Y62.398
X8.61 Y62.145
X8.605 Y62.135
X8.486 Y61.882
X8.481 Y61.872
X8.365 Y61.619
X8.36 Y61.608
X8.246 Y61.355
X8.241 Y61.345
X8.13 Y61.092
X8.125 Y61.081
X8.016 Y60.828
X8.011 Y60.817
X7.904 Y60.564
X7.9 Y60.554
X7.795 Y60.301
X7.791 Y60.29
X7.688 Y60.037
X7.684 Y60.025
X7.584 Y59.772
X7.58 Y59.761
X7.482 Y59.508
X7.478 Y59.497
X7.382 Y59.244
X7.378 Y59.233
X7.285 Y58.979
X7.281 Y58.968
X7.19 Y58.715
X7.186 Y58.703
X7.098 Y58.45
X7.094 Y58.439
X7.007 Y58.185
X7.004 Y58.174
X6.92 Y57.921
X6.916 Y57.909
X6.834 Y57.656
X6.831 Y57.644
X6.751 Y57.391
X6.747 Y57.379
X6.67 Y57.126
X6.667 Y57.114
X6.61 Y56.922
X0
X-1.389
G2 X-1.588 Y57.143 I0 J0.2
G1 X1.645 Y86.84
X1.657 Y86.892
X1.683 Y86.938
Z-1.2 F300
X1.69 Y86.947
G2 X2.285 Y87.741 I103.899 J-77.177 F1000
X4.047 Y89.994 I65.804 J-49.667
X11.926 Y98.565 I72.867 J-59.074
X13.601 Y100.125 I51.316 J-53.415
G1 X13.623 Y100.143
X13.648 Y100.157
X21.602 Y103.975
G2 X21.804 Y103.632 I0.087 J-0.18
G3 X21.055 Y103.089 I37.868 J-53.046
X18.72 Y101.313 I54.894 J-74.631
X16.738 Y99.686 I36.798 J-46.846
X14.812 Y97.992 I66.218 J-77.212
X13.05 Y96.338 I41.201 J-45.66
X11.34 Y94.631 I75.93 J-77.773
X9.771 Y92.973 I47.004 J-46.051
X8.247 Y91.273 I87.595 J-80.057
X6.387 Y89.074 I56.467 J-49.648
X4.597 Y86.819 I94.462 J-76.846
X2.946 Y84.614 I64.819 J-50.231
X1.357 Y82.364 I104.333 J-75.383
X-0.015 Y80.262 I39.886 J-27.539
G2 X-0.847 Y78.973 I-32.167 J19.832
G1 X-0.866 Y78.936
X-0.878 Y78.896
X-1.738 Y74.004
G3 X-1.37 Y73.867 I0.197 J-0.035
G2 X-0.155 Y75.765 I32.651 J-19.553
G1 X3.329 Y81.002
G2 X4.88 Y83.199 I104.115 J-71.886
X6.491 Y85.351 I64.599 J-46.66
X8.235 Y87.548 I94.546 J-73.268
X10.047 Y89.691 I56.546 J-45.983
X17.334 Y97.018 I63.185 J-55.555
X25.55 Y103.285 I45.828 J-51.554
X27.146 Y104.279 I25.689 J-39.493
X27.754 Y104.639 I89.963 J-151.173
G1 X27.796 Y104.657
X27.84 Y104.666
X31.544 Y104.964
G2 X31.76 Y104.765 I0.016 J-0.199
G1 Y104.563
G2 X31.411 Y103.969 I-0.68 J0
X30.68 Y103.583 I-9.232 J16.601
G3 X29.952 Y103.19 I5.959 J-11.907
X26.857 Y101.276 I40.262 J-68.568
X18.902 Y95.205 I36.316 J-55.83
X11.847 Y88.108 I54.352 J-61.089
X10.083 Y86.022 I53.005 J-46.604
X8.385 Y83.883 I91.156 J-74.096
X6.814 Y81.783 I61.16 J-47.396
X5.301 Y79.641 I100.806 J-72.788
G1 X1.825 Y74.414
G3 X0.223 Y71.88 I35.134 J-23.974
X-1.23 Y69.259 I59.343 J-34.634
G2 X-1.396 Y69.057 I-0.579 J0.305
G1 X-1.434 Y69.016
X-1.459 Y68.967
X-1.47 Y68.913
X-1.59 Y66.724
G3 X-1.39 Y66.513 I0.2 J-0.011
G1 X-0.321
G3 X0.236 Y66.861 I0 J0.62
G2 X4.674 Y74.309 I46.815 J-22.851
G3 X5.984 Y76.287 I-23.783 J17.175
G2 X7.274 Y78.279 I33.975 J-20.576
X8.748 Y80.368 I100.534 J-69.413
X10.28 Y82.415 I60.866 J-43.934
X11.931 Y84.496 I91.176 J-70.657
X13.647 Y86.526 I52.994 J-43.057
X15.068 Y88.099 I59.632 J-52.431
G1 X16.144 Y89.236
G2 X20.47 Y93.392 I57.135 J-55.141
X28.164 Y99.267 I42.715 J-47.963
X32.736 Y102.007 I39.31 J-60.433
X33.272 Y102.277 I4.286 J-7.822
G3 X33.809 Y102.544 I-4.587 J9.896
X34.157 Y103.124 I-0.308 J0.58
G1 Y104.756
G2 X34.356 Y104.956 I0.2 J0
G1 X36.352 Y104.966
G2 X36.553 Y104.766 I0.001 J-0.2
G1 Y101.653
G2 X36.207 Y101.088 I-0.634 J0
X35.016 Y100.497 I-28.946 J56.853
G3 X33.837 Y99.885 I10.066 J-20.834
X31.607 Y98.599 I39.9 J-71.744
X29.427 Y97.23 I30.185 J-50.481
X15.399 Y84.889 I37.97 J-57.304
X13.737 Y82.917 I78.978 J-68.291
X12.135 Y80.896 I54.847 J-45.107
X10.647 Y78.903 I92.668 J-70.731
X9.214 Y76.871 I61.297 J-44.75
G1 X5.784 Y71.712
G3 X3.61 Y68.175 I35.99 J-24.557
X1.754 Y64.462 I45.426 J-25.02
G2 X1.22 Y64.117 I-0.534 J0.241
G1 X-1.397
G3 X-1.597 Y63.916 I0 J-0.2
G1 X-1.588 Y61.919
G3 X-1.388 Y61.72 I0.2 J0.001
G1 X2.823
G3 X3.332 Y62.064 I0 J0.55
G2 X8.358 Y71.219 I41.178 J-16.647
G1 X11.904 Y76.541
G2 X13.339 Y78.517 I95.583 J-67.909
X14.829 Y80.452 I55.644 J-41.304
X16.434 Y82.415 I83.977 J-67.05
X18.102 Y84.325 I47.39 J-39.705
X24.396 Y90.454 I53.937 J-49.092
X31.454 Y95.686 I38.84 J-45.017
X35.794 Y98.222 I38.196 J-60.39
X36.995 Y98.829 I14.945 J-28.084
G1 X38.602 Y99.598
G3 X38.95 Y100.151 I-0.265 J0.552
G1 Y104.762
G2 X39.15 Y104.962 I0.2 J0
G1 X41.147 Y104.959
G2 X41.347 Y104.759 I0 J-0.2
G1 Y98.616
G2 X41 Y98.077 I-0.593 J0
X40.298 Y97.776 I-6.705 J14.656
G3 X39.598 Y97.468 I4.376 J-10.905
X36.551 Y95.907 I34.02 J-70.151
X32.408 Y93.451 I32.819 J-60.084
X25.553 Y88.287 I30.807 J-48.033
X19.457 Y82.245 I47.126 J-53.64
X17.864 Y80.389 I45.169 J-40.396
X16.33 Y78.484 I82.479 J-67.977
X14.899 Y76.598 I53.309 J-41.925
X13.522 Y74.674 I92.851 J-67.916
X12.226 Y72.759 I58.383 J-40.887
X10.982 Y70.81 I95.873 J-62.608
G2 X10.188 Y69.632 I-17.442 J10.894
G3 X9.378 Y68.464 I27.277 J-19.78
X4.979 Y59.663 I34.514 J-22.752
G2 X4.496 Y59.323 I-0.483 J0.173
G1 X-1.395
G3 X-1.595 Y59.123 I0 J-0.2
G1 X-1.589 Y57.121
G3 X-1.389 Y56.922 I0.2 J0.001
G1 X6.61
X6.667 Y57.114
X6.67 Y57.126
X6.747 Y57.379
X6.751 Y57.391
X6.831 Y57.644
X6.834 Y57.656
X6.916 Y57.909
X6.92 Y57.921
X7.004 Y58.174
X7.007 Y58.185
X7.094 Y58.439
X7.098 Y58.45
X7.186 Y58.703
X7.19 Y58.715
X7.281 Y58.968
X7.285 Y58.979
X7.378 Y59.233
X7.382 Y59.244
X7.478 Y59.497
X7.482 Y59.508
X7.58 Y59.761
X7.584 Y59.772
X7.684 Y60.025
X7.688 Y60.037
X7.791 Y60.29
X7.795 Y60.301
X7.9 Y60.554
X7.904 Y60.564
X8.011 Y60.817
X8.016 Y60.828
X8.125 Y61.081
X8.13 Y61.092
X8.241 Y61.345
X8.246 Y61.355
X8.36 Y61.608
X8.365 Y61.619
X8.481 Y61.872
X8.486 Y61.882
X8.605 Y62.135
X8.61 Y62.145
X8.731 Y62.398
X8.736 Y62.408
X8.859 Y62.66
X8.864 Y62.671
X8.99 Y62.924
X8.995 Y62.933
X9.123 Y63.186
X9.128 Y63.196
X9.259 Y63.449
X9.264 Y63.459
X9.397 Y63.711
X9.402 Y63.721
X9.537 Y63.973
X9.542 Y63.982
X9.68 Y64.234
X9.685 Y64.244
X9.825 Y64.497
X9.83 Y64.506
X9.973 Y64.758
X9.978 Y64.768
X10.123 Y65.02
X10.128 Y65.029
X10.276 Y65.281
X10.281 Y65.29
X10.431 Y65.542
X10.436 Y65.551
X10.588 Y65.803
X10.594 Y65.812
X10.748 Y66.063
X10.754 Y66.072
X10.91 Y66.324
X10.916 Y66.332
X11.075 Y66.584
X11.081 Y66.593
X11.242 Y66.844
X11.248 Y66.853
X11.412 Y67.104
X11.418 Y67.113
X11.584 Y67.364
X11.59 Y67.373
X11.759 Y67.624
X11.935 Y67.882
X11.941 Y67.891
X12.115 Y68.142
X12.297 Y68.401
X12.481 Y68.659
X12.668 Y68.918
X12.857 Y69.176
X12.942 Y69.291
X12.949 Y69.306
X12.999 Y69.412
X13.057 Y69.514
X13.347 Y69.978
X13.352 Y69.987
X13.646 Y70.45
X13.948 Y70.921
X13.954 Y70.929
X14.255 Y71.391
X14.566 Y71.86
X14.88 Y72.328
X14.885 Y72.337
X15.198 Y72.796
X15.52 Y73.262
X15.846 Y73.728
X15.852 Y73.736
X16.176 Y74.193
X16.182 Y74.201
X16.511 Y74.657
X16.517 Y74.665
X16.849 Y75.12
X16.855 Y75.128
X17.192 Y75.582
X17.198 Y75.59
X17.539 Y76.043
X17.545 Y76.051
X17.89 Y76.503
X17.897 Y76.512
X18.246 Y76.963
X18.253 Y76.972
X18.607 Y77.422
X18.614 Y77.43
X18.972 Y77.879
X18.979 Y77.888
X19.342 Y78.336
X19.35 Y78.345
X19.718 Y78.792
X19.725 Y78.801
X20.098 Y79.247
X20.106 Y79.256
X20.484 Y79.7
X20.492 Y79.71
X20.876 Y80.153
X20.884 Y80.162
X21.273 Y80.605
X21.281 Y80.614
X21.675 Y81.055
X21.684 Y81.065
X22.084 Y81.505
X22.093 Y81.515
X22.5 Y81.953
X22.509 Y81.963
X22.921 Y82.4
X22.931 Y82.41
X23.349 Y82.845
X23.359 Y82.855
X23.785 Y83.29
X23.795 Y83.3
X24.227 Y83.732
X24.238 Y83.743
X24.677 Y84.174
X24.688 Y84.185
X25.134 Y84.614
X25.145 Y84.624
X25.599 Y85.052
X25.611 Y85.063
X26.073 Y85.489
X26.085 Y85.5
X26.555 Y85.924
X26.567 Y85.935
X27.045 Y86.357
X27.058 Y86.368
X27.545 Y86.788
X27.558 Y86.799
X28.054 Y87.218
X28.067 Y87.229
X28.572 Y87.645
X28.586 Y87.656
X29.1 Y88.07
X29.114 Y88.081
X29.638 Y88.493
X29.649 Y88.501
X29.915 Y88.706
X30.191 Y88.916
X30.47 Y89.126
X30.75 Y89.334
X31.035 Y89.543
X31.321 Y89.75
X31.611 Y89.957
X31.904 Y90.164
X32.199 Y90.369
X32.497 Y90.574
X32.799 Y90.778
X33.103 Y90.982
X33.411 Y91.185
X33.721 Y91.386
X34.035 Y91.588
X34.352 Y91.788
X34.673 Y91.988
X34.996 Y92.187
X35.323 Y92.385
X35.653 Y92.583
X35.987 Y92.78
X36.324 Y92.975
X36.664 Y93.17
X37.008 Y93.364
X37.355 Y93.558
X37.707 Y93.75
X38.061 Y93.942
X38.419 Y94.132
X38.781 Y94.322
X39.147 Y94.511
X39.516 Y94.699
X39.889 Y94.886
X40.266 Y95.072
X40.647 Y95.258
X41.032 Y95.442
X41.42 Y95.625
X41.812 Y95.808
X42.209 Y95.989
X42.609 Y96.169
X43.013 Y96.349
X43.422 Y96.527
X43.748 Y96.668
Y103.369
Y104.766
G3 X43.517 Y104.963 I-0.2 J0
G1 X13.712 Y100.182
X13.675 Y100.173
X13.64 Y100.156
X13.609 Y100.133
Z-1.4 F300
X13.601 Y100.125
G3 X11.926 Y98.565 I49.642 J-54.975 F1000
X4.047 Y89.994 I64.988 J-67.646
X2.285 Y87.741 I64.041 J-51.919
X1.69 Y86.947 I103.304 J-77.971
G1 X1.675 Y86.923
X1.663 Y86.897
X-1.2 Y79.154
G3 X-0.847 Y78.973 I0.188 J-0.069
X-0.015 Y80.262 I-31.335 J21.122
G2 X1.357 Y82.364 I41.258 J-25.438
X2.946 Y84.614 I105.922 J-73.133
X4.597 Y86.819 I66.469 J-48.026
X6.387 Y89.074 I96.253 J-74.59
X8.247 Y91.273 I58.327 J-47.45
X9.771 Y92.973 I89.119 J-78.357
X11.34 Y94.631 I48.573 J-44.393
X13.05 Y96.338 I77.64 J-76.066
X14.812 Y97.992 I42.963 J-44.006
X16.738 Y99.686 I68.143 J-75.518
X18.72 Y101.313 I38.78 J-45.219
X21.055 Y103.089 I57.229 J-72.856
X21.804 Y103.632 I38.618 J-52.503
G1 X21.838 Y103.651
X21.875 Y103.664
X27.607 Y105.006
G2 X27.754 Y104.639 I0.046 J-0.195
G3 X27.146 Y104.279 I89.355 J-151.533
X25.55 Y103.285 I24.094 J-40.487
X17.334 Y97.018 I37.612 J-57.822
X10.047 Y89.691 I55.898 J-62.882
X8.235 Y87.548 I54.735 J-48.125
X6.491 Y85.351 I92.802 J-75.465
X4.88 Y83.199 I62.988 J-48.812
X3.329 Y81.002 I102.564 J-74.082
G1 X-0.155 Y75.765
G3 X-1.37 Y73.867 I31.437 J-21.451
G1 X-1.389 Y73.824
X-1.398 Y73.778
X-1.722 Y69.226
G3 X-1.396 Y69.057 I0.199 J-0.014
X-1.23 Y69.259 I-0.413 J0.507
G2 X0.223 Y71.88 I60.797 J-32.014
X1.825 Y74.414 I36.735 J-21.44
G1 X5.301 Y79.641
G2 X6.814 Y81.783 I102.318 J-70.645
X8.385 Y83.883 I62.731 J-45.296
X10.083 Y86.022 I92.854 J-71.957
X11.847 Y88.108 I54.768 J-44.518
X18.902 Y95.205 I61.408 J-53.992
X26.857 Y101.276 I44.271 J-49.758
X29.952 Y103.19 I43.357 J-66.654
X30.68 Y103.583 I6.687 J-11.514
G3 X31.411 Y103.969 I-8.501 J16.987
X31.76 Y104.563 I-0.33 J0.594
G1 Y104.765
G2 X31.961 Y104.965 I0.2 J0
G1 X33.958 Y104.956
G2 X34.157 Y104.756 I-0.001 J-0.2
G1 Y103.124
G2 X33.809 Y102.544 I-0.657 J0
X33.272 Y102.277 I-5.124 J9.629
G3 X32.736 Y102.007 I3.751 J-8.092
X28.164 Y99.267 I34.738 J-63.172
X20.47 Y93.392 I35.021 J-53.838
X16.144 Y89.236 I52.809 J-59.298
G1 X15.068 Y88.099
G3 X13.647 Y86.526 I58.211 J-54.004
X11.931 Y84.496 I51.278 J-45.086
X10.28 Y82.415 I89.525 J-72.738
X8.748 Y80.368 I59.334 J-45.981
X7.274 Y78.279 I99.059 J-71.502
X5.984 Y76.287 I32.685 J-22.568
G2 X4.674 Y74.309 I-25.093 J15.197
G3 X0.236 Y66.861 I42.376 J-30.299
G2 X-0.321 Y66.513 I-0.557 J0.272
G1 X-1.39
G3 X-1.59 Y66.314 I0 J-0.2
G1 X-1.597 Y64.317
G3 X-1.397 Y64.117 I0.2 J-0.001
G1 X1.22
G3 X1.754 Y64.462 I0 J0.585
G2 X3.61 Y68.175 I47.282 J-21.307
X5.784 Y71.712 I38.164 J-21.02
G1 X9.214 Y76.871
G2 X10.647 Y78.903 I62.73 J-42.717
X12.135 Y80.896 I94.156 J-68.738
X13.737 Y82.917 I56.449 J-43.086
X15.399 Y84.889 I80.641 J-66.32
X29.427 Y97.23 I51.998 J-44.962
X31.607 Y98.599 I32.365 J-49.112
X33.837 Y99.885 I42.13 J-70.458
X35.016 Y100.497 I11.246 J-20.221
G3 X36.207 Y101.088 I-27.755 J57.444
X36.553 Y101.653 I-0.288 J0.565
G1 Y104.766
G2 X36.754 Y104.966 I0.2 J0
G1 X38.75 Y104.962
G2 X38.95 Y104.762 I0 J-0.2
G1 Y100.151
G2 X38.602 Y99.598 I-0.613 J0
G1 X36.995 Y98.829
G3 X35.794 Y98.222 I13.744 J-28.691
X31.454 Y95.686 I33.856 J-62.926
X24.396 Y90.454 I31.782 J-50.249
X18.102 Y84.325 I47.643 J-55.221
X16.434 Y82.415 I45.722 J-41.615
X14.829 Y80.452 I82.371 J-69.013
X13.339 Y78.517 I54.154 J-43.239
X11.904 Y76.541 I94.148 J-69.885
G1 X8.358 Y71.219
G3 X3.332 Y62.064 I36.153 J-25.802
G2 X2.823 Y61.72 I-0.51 J0.206
G1 X-1.388
G3 X-1.588 Y61.521 I0 J-0.2
G1 X-1.595 Y59.524
G3 X-1.395 Y59.323 I0.2 J-0.001
G1 X4.496
G3 X4.979 Y59.663 I0 J0.513
G2 X9.378 Y68.464 I38.913 J-13.952
X10.188 Y69.632 I28.087 J-18.613
G3 X10.982 Y70.81 I-16.648 J12.072
G2 X12.226 Y72.759 I97.118 J-60.659
X13.522 Y74.674 I59.679 J-38.972
X14.899 Y76.598 I94.229 J-65.991
X16.33 Y78.484 I54.74 J-40.039
X17.864 Y80.389 I84.013 J-66.072
X19.457 Y82.245 I46.762 J-38.54
X25.553 Y88.287 I53.222 J-47.598
X32.408 Y93.451 I37.663 J-42.869
X36.551 Y95.907 I36.962 J-57.628
X39.598 Y97.468 I37.067 J-68.589
X40.298 Y97.776 I5.076 J-10.597
G3 X41 Y98.077 I-6.003 J14.958
X41.347 Y98.616 I-0.247 J0.539
G1 Y104.759
G2 X41.546 Y104.959 I0.2 J0
G1 X43.547 Y104.966
G2 X43.748 Y104.766 I0.001 J-0.2
G1 Y96.668
X43.422 Y96.527
X43.013 Y96.349
X42.609 Y96.169
X42.209 Y95.989
X41.812 Y95.808
X41.42 Y95.625
X41.032 Y95.442
X40.647 Y95.258
X40.266 Y95.072
X39.889 Y94.886
X39.516 Y94.699
X39.147 Y94.511
X38.781 Y94.322
X38.419 Y94.132
X38.061 Y93.942
X37.707 Y93.75
X37.355 Y93.558
X37.008 Y93.364
X36.664 Y93.17
X36.324 Y92.975
X35.987 Y92.78
X35.653 Y92.583
X35.323 Y92.385
X34.996 Y92.187
X34.673 Y91.988
X34.352 Y91.788
X34.035 Y91.588
X33.721 Y91.386
X33.411 Y91.185
X33.103 Y90.982
X32.799 Y90.778
X32.497 Y90.574
X32.199 Y90.369
X31.904 Y90.164
X31.611 Y89.957
X31.321 Y89.75
X31.035 Y89.543
X30.75 Y89.334
X30.47 Y89.126
X30.191 Y88.916
X29.915 Y88.706
X29.649 Y88.501
X29.638 Y88.493
X29.114 Y88.081
X29.1 Y88.07
X28.586 Y87.656
X28.572 Y87.645
X28.067 Y87.229
X28.054 Y87.218
X27.558 Y86.799
X27.545 Y86.788
X27.058 Y86.368
X27.045 Y86.357
X26.567 Y85.935
X26.555 Y85.924
X26.085 Y85.5
X26.073 Y85.489
X25.611 Y85.063
X25.599 Y85.052
X25.145 Y84.624
X25.134 Y84.614
X24.688 Y84.185
X24.677 Y84.174
X24.238 Y83.743
X24.227 Y83.732
X23.795 Y83.3
X23.785 Y83.29
X23.359 Y82.855
X23.349 Y82.845
X22.931 Y82.41
X22.921 Y82.4
X22.509 Y81.963
X22.5 Y81.953
X22.093 Y81.515
X22.084 Y81.505
X21.684 Y81.065
X21.675 Y81.055
X21.281 Y80.614
X21.273 Y80.605
X20.884 Y80.162
X20.876 Y80.153
X20.492 Y79.71
X20.484 Y79.7
X20.106 Y79.256
X20.098 Y79.247
X19.725 Y78.801
X19.718 Y78.792
X19.35 Y78.345
X19.342 Y78.336
X18.979 Y77.888
X18.972 Y77.879
X18.614 Y77.43
X18.607 Y77.422
X18.253 Y76.972
X18.246 Y76.963
X17.897 Y76.512
X17.89 Y76.503
X17.545 Y76.051
X17.539 Y76.043
X17.198 Y75.59
X17.192 Y75.582
X16.855 Y75.128
X16.849 Y75.12
X16.517 Y74.665
X16.511 Y74.657
X16.182 Y74.201
X16.176 Y74.193
X15.852 Y73.736
X15.846 Y73.728
X15.52 Y73.262
X15.198 Y72.796
X14.885 Y72.337
X14.88 Y72.328
X14.566 Y71.86
X14.255 Y71.391
X13.954 Y70.929
X13.948 Y70.921
X13.646 Y70.45
X13.352 Y69.987
X13.347 Y69.978
X13.057 Y69.514
X12.999 Y69.412
X12.949 Y69.306
X12.942 Y69.291
X12.857 Y69.176
X12.668 Y68.918
X12.481 Y68.659
X12.297 Y68.401
X12.115 Y68.142
X11.941 Y67.891
X11.935 Y67.882
X11.759 Y67.624
X11.59 Y67.373
X11.584 Y67.364
X11.418 Y67.113
X11.412 Y67.104
X11.248 Y66.853
X11.242 Y66.844
X11.081 Y66.593
X11.075 Y66.584
X10.916 Y66.332
X10.91 Y66.324
X10.754 Y66.072
X10.748 Y66.063
X10.594 Y65.812
X10.588 Y65.803
X10.436 Y65.551
X10.431 Y65.542
X10.281 Y65.29
X10.276 Y65.281
X10.128 Y65.029
X10.123 Y65.02
X9.978 Y64.768
X9.973 Y64.758
X9.83 Y64.506
X9.825 Y64.497
X9.685 Y64.244
X9.68 Y64.234
X9.542 Y63.982
X9.537 Y63.973
X9.402 Y63.721
X9.397 Y63.711
X9.264 Y63.459
X9.259 Y63.449
X9.128 Y63.196
X9.123 Y63.186
X8.995 Y62.933
X8.99 Y62.924
X8.864 Y62.671
X8.859 Y62.66
X8.736 Y62.408
X8.731 Y62.398
X8.61 Y62.145
X8.605 Y62.135
X8.486 Y61.882
X8.481 Y61.872
X8.365 Y61.619
X8.36 Y61.608
X8.246 Y61.355
X8.241 Y61.345
X8.13 Y61.092
X8.125 Y61.081
X8.016 Y60.828
X8.011 Y60.817
X7.904 Y60.564
X7.9 Y60.554
X7.795 Y60.301
X7.791 Y60.29
X7.688 Y60.037
X7.684 Y60.025
X7.584 Y59.772
X7.58 Y59.761
X7.482 Y59.508
X7.478 Y59.497
X7.382 Y59.244
X7.378 Y59.233
X7.285 Y58.979
X7.281 Y58.968
X7.19 Y58.715
X7.186 Y58.703
X7.098 Y58.45
X7.094 Y58.439
X7.007 Y58.185
X7.004 Y58.174
X6.92 Y57.921
X6.916 Y57.909
X6.834 Y57.656
X6.831 Y57.644
X6.751 Y57.391
X6.747 Y57.379
X6.67 Y57.126
X6.667 Y57.114
X6.61 Y56.922
X0
X-1.389
G2 X-1.588 Y57.143 I0 J0.2
G1 X1.645 Y86.84
X1.657 Y86.892
X1.683 Y86.938
Z-1.6 F300
X1.69 Y86.947
G2 X2.285 Y87.741 I103.899 J-77.177 F1000
X4.047 Y89.994 I65.804 J-49.667
X11.926 Y98.565 I72.867 J-59.074
X13.601 Y100.125 I51.316 J-53.415
G1 X13.623 Y100.143
X13.648 Y100.157
X21.602 Y103.975
G2 X21.804 Y103.632 I0.087 J-0.18
G3 X21.055 Y103.089 I37.868 J-53.046
X18.72 Y101.313 I54.894 J-74.631
X16.738 Y99.686 I36.798 J-46.846
X14.812 Y97.992 I66.218 J-77.212
X13.05 Y96.338 I41.201 J-45.66
X11.34 Y94.631 I75.93 J-77.773
X9.771 Y92.973 I47.004 J-46.051
X8.247 Y91.273 I87.595 J-80.057
X6.387 Y89.074 I56.467 J-49.648
X4.597 Y86.819 I94.462 J-76.846
X2.946 Y84.614 I64.819 J-50.231
X1.357 Y82.364 I104.333 J-75.383
X-0.015 Y80.262 I39.886 J-27.539
G2 X-0.847 Y78.973 I-32.167 J19.832
G1 X-0.866 Y78.936
X-0.878 Y78.896
X-1.738 Y74.004
G3 X-1.37 Y73.867 I0.197 J-0.035
G2 X-0.155 Y75.765 I32.651 J-19.553
G1 X3.329 Y81.002
G2 X4.88 Y83.199 I104.115 J-71.886
X6.491 Y85.351 I64.599 J-46.66
X8.235 Y87.548 I94.546 J-73.268
X10.047 Y89.691 I56.546 J-45.983
X17.334 Y97.018 I63.185 J-55.555
X25.55 Y103.285 I45.828 J-51.554
X27.146 Y104.279 I25.689 J-39.493
X27.754 Y104.639 I89.963 J-151.173
G1 X27.796 Y104.657
X27.84 Y104.666
X31.544 Y104.964
G2 X31.76 Y104.765 I0.016 J-0.199
G1 Y104.563
G2 X31.411 Y103.969 I-0.68 J0
X30.68 Y103.583 I-9.232 J16.601
G3 X29.952 Y103.19 I5.959 J-11.907
X26.857 Y101.276 I40.262 J-68.568
X18.902 Y95.205 I36.316 J-55.83
X11.847 Y88.108 I54.352 J-61.089
X10.083 Y86.022 I53.005 J-46.604
X8.385 Y83.883 I91.156 J-74.096
X6.814 Y81.783 I61.16 J-47.396
X5.301 Y79.641 I100.806 J-72.788
G1 X1.825 Y74.414
G3 X0.223 Y71.88 I35.134 J-23.974
X-1.23 Y69.259 I59.343 J-34.634
G2 X-1.396 Y69.057 I-0.579 J0.305
G1 X-1.434 Y69.016
X-1.459 Y68.967
X-1.47 Y68.913
X-1.59 Y66.724
G3 X-1.39 Y66.513 I0.2 J-0.011
G1 X-0.321
G3 X0.236 Y66.861 I0 J0.62
G2 X4.674 Y74.309 I46.815 J-22.851
G3 X5.984 Y76.287 I-23.783 J17.175
G2 X7.274 Y78.279 I33.975 J-20.576
X8.748 Y80.368 I100.534 J-69.413
X10.28 Y82.415 I60.866 J-43.934
X11.931 Y84.496 I91.176 J-70.657
X13.647 Y86.526 I52.994 J-43.057
X15.068 Y88.099 I59.632 J-52.431
G1 X16.144 Y89.236
G2 X20.47 Y93.392 I57.135 J-55.141
X28.164 Y99.267 I42.715 J-47.963
X32.736 Y102.007 I39.31 J-60.433
X33.272 Y102.277 I4.286 J-7.822
G3 X33.809 Y102.544 I-4.587 J9.896
X34.157 Y103.124 I-0.308 J0.58
G1 Y104.756
G2 X34.356 Y104.956 I0.2 J0
G1 X36.352 Y104.966
G2 X36.553 Y104.766 I0.001 J-0.2
G1 Y101.653
G2 X36.207 Y101.088 I-0.634 J0
X35.016 Y100.497 I-28.946 J56.853
G3 X33.837 Y99.885 I10.066 J-20.834
X31.607 Y98.599 I39.9 J-71.744
X29.427 Y97.23 I30.185 J-50.481
X15.399 Y84.889 I37.97 J-57.304
X13.737 Y82.917 I78.978 J-68.291
X12.135 Y80.896 I54.847 J-45.107
X10.647 Y78.903 I92.668 J-70.731
X9.214 Y76.871 I61.297 J-44.75
G1 X5.784 Y71.712
G3 X3.61 Y68.175 I35.99 J-24.557
X1.754 Y64.462 I45.426 J-25.02
G2 X1.22 Y64.117 I-0.534 J0.241
G1 X-1.397
G3 X-1.597 Y63.916 I0 J-0.2
G1 X-1.588 Y61.919
G3 X-1.388 Y61.72 I0.2 J0.001
G1 X2.823
G3 X3.332 Y62.064 I0 J0.55
G2 X8.358 Y71.219 I41.178 J-16.647
G1 X11.904 Y76.541
G2 X13.339 Y78.517 I95.583 J-67.909
X14.829 Y80.452 I55.644 J-41.304
X16.434 Y82.415 I83.977 J-67.05
X18.102 Y84.325 I47.39 J-39.705
X24.396 Y90.454 I53.937 J-49.092
X31.454 Y95.686 I38.84 J-45.017
X35.794 Y98.222 I38.196 J-60.39
X36.995 Y98.829 I14.945 J-28.084
G1 X38.602 Y99.598
G3 X38.95 Y100.151 I-0.265 J0.552
G1 Y104.762
G2 X39.15 Y104.962 I0.2 J0
G1 X41.147 Y104.959
G2 X41.347 Y104.759 I0 J-0.2
G1 Y98.616
G2 X41 Y98.077 I-0.593 J0
X40.298 Y97.776 I-6.705 J14.656
G3 X39.598 Y97.468 I4.376 J-10.905
X36.551 Y95.907 I34.02 J-70.151
X32.408 Y93.451 I32.819 J-60.084
X25.553 Y88.287 I30.807 J-48.033
X19.457 Y82.245 I47.126 J-53.64
X17.864 Y80.389 I45.169 J-40.396
X16.33 Y78.484 I82.479 J-67.977
X14.899 Y76.598 I53.309 J-41.925
X13.522 Y74.674 I92.851 J-67.916
X12.226 Y72.759 I58.383 J-40.887
X10.982 Y70.81 I95.873 J-62.608
G2 X10.188 Y69.632 I-17.442 J10.894
G3 X9.378 Y68.464 I27.277 J-19.78
X4.979 Y59.663 I34.514 J-22.752
G2 X4.496 Y59.323 I-0.483 J0.173
G1 X-1.395
G3 X-1.595 Y59.123 I0 J-0.2
G1 X-1.589 Y57.121
G3 X-1.389 Y56.922 I0.2 J0.001
G1 X6.61
X6.667 Y57.114
X6.67 Y57.126
X6.747 Y57.379
X6.751 Y57.391
X6.831 Y57.644
X6.834 Y57.656
X6.916 Y57.909
X6.92 Y57.921
X7.004 Y58.174
X7.007 Y58.185
X7.094 Y58.439
X7.098 Y58.45
X7.186 Y58.703
X7.19 Y58.715
X7.281 Y58.968
X7.285 Y58.979
X7.378 Y59.233
X7.382 Y59.244
X7.478 Y59.497
X7.482 Y59.508
X7.58 Y59.761
X7.584 Y59.772
X7.684 Y60.025
X7.688 Y60.037
X7.791 Y60.29
X7.795 Y60.301
X7.9 Y60.554
X7.904 Y60.564
X8.011 Y60.817
X8.016 Y60.828
X8.125 Y61.081
X8.13 Y61.092
X8.241 Y61.345
X8.246 Y61.355
X8.36 Y61.608
X8.365 Y61.619
X8.481 Y61.872
X8.486 Y61.882
X8.605 Y62.135
X8.61 Y62.145
X8.731 Y62.398
X8.736 Y62.408
X8.859 Y62.66
X8.864 Y62.671
X8.99 Y62.924
X8.995 Y62.933
X9.123 Y63.186
X9.128 Y63.196
X9.259 Y63.449
X9.264 Y63.459
X9.397 Y63.711
X9.402 Y63.721
X9.537 Y63.973
X9.542 Y63.982
X9.68 Y64.234
X9.685 Y64.244
X9.825 Y64.497
X9.83 Y64.506
X9.973 Y64.758
X9.978 Y64.768
X10.123 Y65.02
X10.128 Y65.029
X10.276 Y65.281
X10.281 Y65.29
X10.431 Y65.542
X10.436 Y65.551
X10.588 Y65.803
X10.594 Y65.812
X10.748 Y66.063
X10.754 Y66.072
X10.91 Y66.324
X10.916 Y66.332
X11.075 Y66.584
X11.081 Y66.593
X11.242 Y66.844
X11.248 Y66.853
X11.412 Y67.104
X11.418 Y67.113
X11.584 Y67.364
X11.59 Y67.373
X11.759 Y67.624
X11.935 Y67.882
X11.941 Y67.891
X12.115 Y68.142
X12.297 Y68.401
X12.481 Y68.659
X12.668 Y68.918
X12.857 Y69.176
X12.942 Y69.291
X12.949 Y69.306
X12.999 Y69.412
X13.057 Y69.514
X13.347 Y69.978
X13.352 Y69.987
X13.646 Y70.45
X13.948 Y70.921
X13.954 Y70.929
X14.255 Y71.391
X14.566 Y71.86
X14.88 Y72.328
X14.885 Y72.337
X15.198 Y72.796
X15.52 Y73.262
X15.846 Y73.728
X15.852 Y73.736
X16.176 Y74.193
X16.182 Y74.201
X16.511 Y74.657
X16.517 Y74.665
X16.849 Y75.12
X16.855 Y75.128
X17.192 Y75.582
X17.198 Y75.59
X17.539 Y76.043
X17.545 Y76.051
X17.89 Y76.503
X17.897 Y76.512
X18.246 Y76.963
X18.253 Y76.972
X18.607 Y77.422
X18.614 Y77.43
X18.972 Y77.879
X18.979 Y77.888
X19.342 Y78.336
X19.35 Y78.345
X19.718 Y78.792
X19.725 Y78.801
X20.098 Y79.247
X20.106 Y79.256
X20.484 Y79.7
X20.492 Y79.71
X20.876 Y80.153
X20.884 Y80.162
X21.273 Y80.605
X21.281 Y80.614
X21.675 Y81.055
X21.684 Y81.065
X22.084 Y81.505
X22.093 Y81.515
X22.5 Y81.953
X22.509 Y81.963
X22.921 Y82.4
X22.931 Y82.41
X23.349 Y82.845
X23.359 Y82.855
X23.785 Y83.29
X23.795 Y83.3
X24.227 Y83.732
X24.238 Y83.743
X24.677 Y84.174
X24.688 Y84.185
X25.134 Y84.614
X25.145 Y84.624
X25.599 Y85.052
X25.611 Y85.063
X26.073 Y85.489
X26.085 Y85.5
X26.555 Y85.924
X26.567 Y85.935
X27.045 Y86.357
X27.058 Y86.368
X27.545 Y86.788
X27.558 Y86.799
X28.054 Y87.218
X28.067 Y87.229
X28.572 Y87.645
X28.586 Y87.656
X29.1 Y88.07
X29.114 Y88.081
X29.638 Y88.493
X29.649 Y88.501
X29.915 Y88.706
X30.191 Y88.916
X30.47 Y89.126
X30.75 Y89.334
X31.035 Y89.543
X31.321 Y89.75
X31.611 Y89.957
X31.904 Y90.164
X32.199 Y90.369
X32.497 Y90.574
X32.799 Y90.778
X33.103 Y90.982
X33.411 Y91.185
X33.721 Y91.386
X34.035 Y91.588
X34.352 Y91.788
X34.673 Y91.988
X34.996 Y92.187
X35.323 Y92.385
X35.653 Y92.583
X35.987 Y92.78
X36.324 Y92.975
X36.664 Y93.17
X37.008 Y93.364
X37.355 Y93.558
X37.707 Y93.75
X38.061 Y93.942
X38.419 Y94.132
X38.781 Y94.322
X39.147 Y94.511
X39.516 Y94.699
X39.889 Y94.886
X40.266 Y95.072
X40.647 Y95.258
X41.032 Y95.442
X41.42 Y95.625
X41.812 Y95.808
X42.209 Y95.989
X42.609 Y96.169
X43.013 Y96.349
X43.422 Y96.527
X43.748 Y96.668
Y103.369
Y104.766
G3 X43.517 Y104.963 I-0.2 J0
G1 X13.712 Y100.182
X13.675 Y100.173
X13.64 Y100.156
X13.609 Y100.133
Z-1.8 F300
X13.601 Y100.125
G3 X11.926 Y98.565 I49.642 J-54.975 F1000
X4.047 Y89.994 I64.988 J-67.646
X2.285 Y87.741 I64.041 J-51.919
X1.69 Y86.947 I103.304 J-77.971
G1 X1.675 Y86.923
X1.663 Y86.897
X-1.2 Y79.154
G3 X-0.847 Y78.973 I0.188 J-0.069
X-0.015 Y80.262 I-31.335 J21.122
G2 X1.357 Y82.364 I41.258 J-25.438
X2.946 Y84.614 I105.922 J-73.133
X4.597 Y86.819 I66.469 J-48.026
X6.387 Y89.074 I96.253 J-74.59
X8.247 Y91.273 I58.327 J-47.45
X9.771 Y92.973 I89.119 J-78.357
X11.34 Y94.631 I48.573 J-44.393
X13.05 Y96.338 I77.64 J-76.066
X14.812 Y97.992 I42.963 J-44.006
X16.738 Y99.686 I68.143 J-75.518
X18.72 Y101.313 I38.78 J-45.219
X21.055 Y103.089 I57.229 J-72.856
X21.804 Y103.632 I38.618 J-52.503
G1 X21.838 Y103.651
X21.875 Y103.664
X27.607 Y105.006
G2 X27.754 Y104.639 I0.046 J-0.195
G3 X27.146 Y104.279 I89.355 J-151.533
X25.55 Y103.285 I24.094 J-40.487
X17.334 Y97.018 I37.612 J-57.822
X10.047 Y89.691 I55.898 J-62.882
X8.235 Y87.548 I54.735 J-48.125
X6.491 Y85.351 I92.802 J-75.465
X4.88 Y83.199 I62.988 J-48.812
X3.329 Y81.002 I102.564 J-74.082
G1 X-0.155 Y75.765
G3 X-1.37 Y73.867 I31.437 J-21.451
G1 X-1.389 Y73.824
X-1.398 Y73.778
X-1.722 Y69.226
G3 X-1.396 Y69.057 I0.199 J-0.014
X-1.23 Y69.259 I-0.413 J0.507
G2 X0.223 Y71.88 I60.797 J-32.014
X1.825 Y74.414 I36.735 J-21.44
G1 X5.301 Y79.641
G2 X6.814 Y81.783 I102.318 J-70.645
X8.385 Y83.883 I62.731 J-45.296
X10.083 Y86.022 I92.854 J-71.957
X11.847 Y88.108 I54.768 J-44.518
X18.902 Y95.205 I61.408 J-53.992
X26.857 Y101.276 I44.271 J-49.758
X29.952 Y103.19 I43.357 J-66.654
X30.68 Y103.583 I6.687 J-11.514
G3 X31.411 Y103.969 I-8.501 J16.987
X31.76 Y104.563 I-0.33 J0.594
G1 Y104.765
G2 X31.961 Y104.965 I0.2 J0
G1 X33.958 Y104.956
G2 X34.157 Y104.756 I-0.001 J-0.2
G1 Y103.124
G2 X33.809 Y102.544 I-0.657 J0
X33.272 Y102.277 I-5.124 J9.629
G3 X32.736 Y102.007 I3.751 J-8.092
X28.164 Y99.267 I34.738 J-63.172
X20.47 Y93.392 I35.021 J-53.838
X16.144 Y89.236 I52.809 J-59.298
G1 X15.068 Y88.099
G3 X13.647 Y86.526 I58.211 J-54.004
X11.931 Y84.496 I51.278 J-45.086
X10.28 Y82.415 I89.525 J-72.738
X8.748 Y80.368 I59.334 J-45.981
X7.274 Y78.279 I99.059 J-71.502
X5.984 Y76.287 I32.685 J-22.568
G2 X4.674 Y74.309 I-25.093 J15.197
G3 X0.236 Y66.861 I42.376 J-30.299
G2 X-0.321 Y66.513 I-0.557 J0.272
G1 X-1.39
G3 X-1.59 Y66.314 I0 J-0.2
G1 X-1.597 Y64.317
G3 X-1.397 Y64.117 I0.2 J-0.001
G1 X1.22
G3 X1.754 Y64.462 I0 J0.585
G2 X3.61 Y68.175 I47.282 J-21.307
X5.784 Y71.712 I38.164 J-21.02
G1 X9.214 Y76.871
G2 X10.647 Y78.903 I62.73 J-42.717
X12.135 Y80.896 I94.156 J-68.738
X13.737 Y82.917 I56.449 J-43.086
X15.399 Y84.889 I80.641 J-66.32
X29.427 Y97.23 I51.998 J-44.962
X31.607 Y98.599 I32.365 J-49.112
X33.837 Y99.885 I42.13 J-70.458
X35.016 Y100.497 I11.246 J-20.221
G3 X36.207 Y101.088 I-27.755 J57.444
X36.553 Y101.653 I-0.288 J0.565
G1 Y104.766
G2 X36.754 Y104.966 I0.2 J0
G1 X38.75 Y104.962
G2 X38.95 Y104.762 I0 J-0.2
G1 Y100.151
G2 X38.602 Y99.598 I-0.613 J0
G1 X36.995 Y98.829
G3 X35.794 Y98.222 I13.744 J-28.691
X31.454 Y95.686 I33.856 J-62.926
X24.396 Y90.454 I31.782 J-50.249
X18.102 Y84.325 I47.643 J-55.221
X16.434 Y82.415 I45.722 J-41.615
X14.829 Y80.452 I82.371 J-69.013
X13.339 Y78.517 I54.154 J-43.239
X11.904 Y76.541 I94.148 J-69.885
G1 X8.358 Y71.219
G3 X3.332 Y62.064 I36.153 J-25.802
G2 X2.823 Y61.72 I-0.51 J0.206
G1 X-1.388
G3 X-1.588 Y61.521 I0 J-0.2
G1 X-1.595 Y59.524
G3 X-1.395 Y59.323 I0.2 J-0.001
G1 X4.496
G3 X4.979 Y59.663 I0 J0.513
G2 X9.378 Y68.464 I38.913 J-13.952
X10.188 Y69.632 I28.087 J-18.613
G3 X10.982 Y70.81 I-16.648 J12.072
G2 X12.226 Y72.759 I97.118 J-60.659
X13.522 Y74.674 I59.679 J-38.972
X14.899 Y76.598 I94.229 J-65.991
X16.33 Y78.484 I54.74 J-40.039
X17.864 Y80.389 I84.013 J-66.072
X19.457 Y82.245 I46.762 J-38.54
X25.553 Y88.287 I53.222 J-47.598
X32.408 Y93.451 I37.663 J-42.869
X36.551 Y95.907 I36.962 J-57.628
X39.598 Y97.468 I37.067 J-68.589
X40.298 Y97.776 I5.076 J-10.597
G3 X41 Y98.077 I-6.003 J14.958
X41.347 Y98.616 I-0.247 J0.539
G1 Y104.759
G2 X41.546 Y104.959 I0.2 J0
G1 X43.547 Y104.966
G2 X43.748 Y104.766 I0.001 J-0.2
G1 Y96.668
X43.422 Y96.527
X43.013 Y96.349
X42.609 Y96.169
X42.209 Y95.989
X41.812 Y95.808
X41.42 Y95.625
X41.032 Y95.442
X40.647 Y95.258
X40.266 Y95.072
X39.889 Y94.886
X39.516 Y94.699
X39.147 Y94.511
X38.781 Y94.322
X38.419 Y94.132
X38.061 Y93.942
X37.707 Y93.75
X37.355 Y93.558
X37.008 Y93.364
X36.664 Y93.17
X36.324 Y92.975
X35.987 Y92.78
X35.653 Y92.583
X35.323 Y92.385
X34.996 Y92.187
X34.673 Y91.988
X34.352 Y91.788
X34.035 Y91.588
X33.721 Y91.386
X33.411 Y91.185
X33.103 Y90.982
X32.799 Y90.778
X32.497 Y90.574
X32.199 Y90.369
X31.904 Y90.164
X31.611 Y89.957
X31.321 Y89.75
X31.035 Y89.543
X30.75 Y89.334
X30.47 Y89.126
X30.191 Y88.916
X29.915 Y88.706
X29.649 Y88.501
X29.638 Y88.493
X29.114 Y88.081
X29.1 Y88.07
X28.586 Y87.656
X28.572 Y87.645
X28.067 Y87.229
X28.054 Y87.218
X27.558 Y86.799
X27.545 Y86.788
X27.058 Y86.368
X27.045 Y86.357
X26.567 Y85.935
X26.555 Y85.924
X26.085 Y85.5
X26.073 Y85.489
X25.611 Y85.063
X25.599 Y85.052
X25.145 Y84.624
X25.134 Y84.614
X24.688 Y84.185
X24.677 Y84.174
X24.238 Y83.743
X24.227 Y83.732
X23.795 Y83.3
X23.785 Y83.29
X23.359 Y82.855
X23.349 Y82.845
X22.931 Y82.41
X22.921 Y82.4
X22.509 Y81.963
X22.5 Y81.953
X22.093 Y81.515
X22.084 Y81.505
X21.684 Y81.065
X21.675 Y81.055
X21.281 Y80.614
X21.273 Y80.605
X20.884 Y80.162
X20.876 Y80.153
X20.492 Y79.71
X20.484 Y79.7
X20.106 Y79.256
X20.098 Y79.247
X19.725 Y78.801
X19.718 Y78.792
X19.35 Y78.345
X19.342 Y78.336
X18.979 Y77.888
X18.972 Y77.879
X18.614 Y77.43
X18.607 Y77.422
X18.253 Y76.972
X18.246 Y76.963
X17.897 Y76.512
X17.89 Y76.503
X17.545 Y76.051
X17.539 Y76.043
X17.198 Y75.59
X17.192 Y75.582
X16.855 Y75.128
X16.849 Y75.12
X16.517 Y74.665
X16.511 Y74.657
X16.182 Y74.201
X16.176 Y74.193
X15.852 Y73.736
X15.846 Y73.728
X15.52 Y73.262
X15.198 Y72.796
X14.885 Y72.337
X14.88 Y72.328
X14.566 Y71.86
X14.255 Y71.391
X13.954 Y70.929
X13.948 Y70.921
X13.646 Y70.45
X13.352 Y69.987
X13.347 Y69.978
X13.057 Y69.514
X12.999 Y69.412
X12.949 Y69.306
X12.942 Y69.291
X12.857 Y69.176
X12.668 Y68.918
X12.481 Y68.659
X12.297 Y68.401
X12.115 Y68.142
X11.941 Y67.891
X11.935 Y67.882
X11.759 Y67.624
X11.59 Y67.373
X11.584 Y67.364
X11.418 Y67.113
X11.412 Y67.104
X11.248 Y66.853
X11.242 Y66.844
X11.081 Y66.593
X11.075 Y66.584
X10.916 Y66.332
X10.91 Y66.324
X10.754 Y66.072
X10.748 Y66.063
X10.594 Y65.812
X10.588 Y65.803
X10.436 Y65.551
X10.431 Y65.542
X10.281 Y65.29
X10.276 Y65.281
X10.128 Y65.029
X10.123 Y65.02
X9.978 Y64.768
X9.973 Y64.758
X9.83 Y64.506
X9.825 Y64.497
X9.685 Y64.244
X9.68 Y64.234
X9.542 Y63.982
X9.537 Y63.973
X9.402 Y63.721
X9.397 Y63.711
X9.264 Y63.459
X9.259 Y63.449
X9.128 Y63.196
X9.123 Y63.186
X8.995 Y62.933
X8.99 Y62.924
X8.864 Y62.671
X8.859 Y62.66
X8.736 Y62.408
X8.731 Y62.398
X8.61 Y62.145
X8.605 Y62.135
X8.486 Y61.882
X8.481 Y61.872
X8.365 Y61.619
X8.36 Y61.608
X8.246 Y61.355
X8.241 Y61.345
X8.13 Y61.092
X8.125 Y61.081
X8.016 Y60.828
X8.011 Y60.817
X7.904 Y60.564
X7.9 Y60.554
X7.795 Y60.301
X7.791 Y60.29
X7.688 Y60.037
X7.684 Y60.025
X7.584 Y59.772
X7.58 Y59.761
X7.482 Y59.508
X7.478 Y59.497
X7.382 Y59.244
X7.378 Y59.233
X7.285 Y58.979
X7.281 Y58.968
X7.19 Y58.715
X7.186 Y58.703
X7.098 Y58.45
X7.094 Y58.439
X7.007 Y58.185
X7.004 Y58.174
X6.92 Y57.921
X6.916 Y57.909
X6.834 Y57.656
X6.831 Y57.644
X6.751 Y57.391
X6.747 Y57.379
X6.67 Y57.126
X6.667 Y57.114
X6.61 Y56.922
X0
X-1.389
G2 X-1.588 Y57.143 I0 J0.2
G1 X1.645 Y86.84
X1.657 Y86.892
X1.683 Y86.938
Z-2 F300
X1.69 Y86.947
G2 X2.285 Y87.741 I103.899 J-77.177 F1000
X4.047 Y89.994 I65.804 J-49.667
X11.926 Y98.565 I72.867 J-59.074
X13.601 Y100.125 I51.316 J-53.415
G1 X13.623 Y100.143
X13.648 Y100.157
X21.602 Y103.975
G2 X21.804 Y103.632 I0.087 J-0.18
G3 X21.055 Y103.089 I37.868 J-53.046
X18.72 Y101.313 I54.894 J-74.631
X16.738 Y99.686 I36.798 J-46.846
X14.812 Y97.992 I66.218 J-77.212
X13.05 Y96.338 I41.201 J-45.66
X11.34 Y94.631 I75.93 J-77.773
X9.771 Y92.973 I47.004 J-46.051
X8.247 Y91.273 I87.595 J-80.057
X6.387 Y89.074 I56.467 J-49.648
X4.597 Y86.819 I94.462 J-76.846
X2.946 Y84.614 I64.819 J-50.231
X1.357 Y82.364 I104.333 J-75.383
X-0.015 Y80.262 I39.886 J-27.539
G2 X-0.847 Y78.973 I-32.167 J19.832
G1 X-0.866 Y78.936
X-0.878 Y78.896
X-1.738 Y74.004
G3 X-1.37 Y73.867 I0.197 J-0.035
G2 X-0.155 Y75.765 I32.651 J-19.553
G1 X3.329 Y81.002
G2 X4.88 Y83.199 I104.115 J-71.886
X6.491 Y85.351 I64.599 J-46.66
X8.235 Y87.548 I94.546 J-73.268
X10.047 Y89.691 I56.546 J-45.983
X17.334 Y97.018 I63.185 J-55.555
X25.55 Y103.285 I45.828 J-51.554
X27.146 Y104.279 I25.689 J-39.493
X27.754 Y104.639 I89.963 J-151.173
G1 X27.796 Y104.657
X27.84 Y104.666
X31.544 Y104.964
G2 X31.76 Y104.765 I0.016 J-0.199
G1 Y104.563
G2 X31.411 Y103.969 I-0.68 J0
X30.68 Y103.583 I-9.232 J16.601
G3 X29.952 Y103.19 I5.959 J-11.907
X26.857 Y101.276 I40.262 J-68.568
X18.902 Y95.205 I36.316 J-55.83
X11.847 Y88.108 I54.352 J-61.089
X10.083 Y86.022 I53.005 J-46.604
X8.385 Y83.883 I91.156 J-74.096
X6.814 Y81.783 I61.16 J-47.396
X5.301 Y79.641 I100.806 J-72.788
G1 X1.825 Y74.414
G3 X0.223 Y71.88 I35.134 J-23.974
X-1.23 Y69.259 I59.343 J-34.634
G2 X-1.396 Y69.057 I-0.579 J0.305
G1 X-1.434 Y69.016
X-1.459 Y68.967
X-1.47 Y68.913
X-1.59 Y66.724
G3 X-1.39 Y66.513 I0.2 J-0.011
G1 X-0.321
G3 X0.236 Y66.861 I0 J0.62
G2 X4.674 Y74.309 I46.815 J-22.851
G3 X5.984 Y76.287 I-23.783 J17.175
G2 X7.274 Y78.279 I33.975 J-20.576
X8.748 Y80.368 I100.534 J-69.413
X10.28 Y82.415 I60.866 J-43.934
X11.931 Y84.496 I91.176 J-70.657
X13.647 Y86.526 I52.994 J-43.057
X15.068 Y88.099 I59.632 J-52.431
G1 X16.144 Y89.236
G2 X20.47 Y93.392 I57.135 J-55.141
X28.164 Y99.267 I42.715 J-47.963
X32.736 Y102.007 I39.31 J-60.433
X33.272 Y102.277 I4.286 J-7.822
G3 X33.809 Y102.544 I-4.587 J9.896
X34.157 Y103.124 I-0.308 J0.58
G1 Y104.756
G2 X34.356 Y104.956 I0.2 J0
G1 X36.352 Y104.966
G2 X36.553 Y104.766 I0.001 J-0.2
G1 Y101.653
G2 X36.207 Y101.088 I-0.634 J0
X35.016 Y100.497 I-28.946 J56.853
G3 X33.837 Y99.885 I10.066 J-20.834
X31.607 Y98.599 I39.9 J-71.744
X29.427 Y97.23 I30.185 J-50.481
X15.399 Y84.889 I37.97 J-57.304
X13.737 Y82.917 I78.978 J-68.291
X12.135 Y80.896 I54.847 J-45.107
X10.647 Y78.903 I92.668 J-70.731
X9.214 Y76.871 I61.297 J-44.75
G1 X5.784 Y71.712
G3 X3.61 Y68.175 I35.99 J-24.557
X1.754 Y64.462 I45.426 J-25.02
G2 X1.22 Y64.117 I-0.534 J0.241
G1 X-1.397
G3 X-1.597 Y63.916 I0 J-0.2
G1 X-1.588 Y61.919
G3 X-1.388 Y61.72 I0.2 J0.001
G1 X2.823
G3 X3.332 Y62.064 I0 J0.55
G2 X8.358 Y71.219 I41.178 J-16.647
G1 X11.904 Y76.541
G2 X13.339 Y78.517 I95.583 J-67.909
X14.829 Y80.452 I55.644 J-41.304
X16.434 Y82.415 I83.977 J-67.05
X18.102 Y84.325 I47.39 J-39.705
X24.396 Y90.454 I53.937 J-49.092
X31.454 Y95.686 I38.84 J-45.017
X35.794 Y98.222 I38.196 J-60.39
X36.995 Y98.829 I14.945 J-28.084
G1 X38.602 Y99.598
G3 X38.95 Y100.151 I-0.265 J0.552
G1 Y104.762
G2 X39.15 Y104.962 I0.2 J0
G1 X41.147 Y104.959
G2 X41.347 Y104.759 I0 J-0.2
G1 Y98.616
G2 X41 Y98.077 I-0.593 J0
X40.298 Y97.776 I-6.705 J14.656
G3 X39.598 Y97.468 I4.376 J-10.905
X36.551 Y95.907 I34.02 J-70.151
X32.408 Y93.451 I32.819 J-60.084
X25.553 Y88.287 I30.807 J-48.033
X19.457 Y82.245 I47.126 J-53.64
X17.864 Y80.389 I45.169 J-40.396
X16.33 Y78.484 I82.479 J-67.977
X14.899 Y76.598 I53.309 J-41.925
X13.522 Y74.674 I92.851 J-67.916
X12.226 Y72.759 I58.383 J-40.887
X10.982 Y70.81 I95.873 J-62.608
G2 X10.188 Y69.632 I-17.442 J10.894
G3 X9.378 Y68.464 I27.277 J-19.78
X4.979 Y59.663 I34.514 J-22.752
G2 X4.496 Y59.323 I-0.483 J0.173
G1 X-1.395
G3 X-1.595 Y59.123 I0 J-0.2
G1 X-1.589 Y57.121
G3 X-1.389 Y56.922 I0.2 J0.001
G1 X6.61
X6.667 Y57.114
X6.67 Y57.126
X6.747 Y57.379
X6.751 Y57.391
X6.831 Y57.644
X6.834 Y57.656
X6.916 Y57.909
X6.92 Y57.921
X7.004 Y58.174
X7.007 Y58.185
X7.094 Y58.439
X7.098 Y58.45
X7.186 Y58.703
X7.19 Y58.715
X7.281 Y58.968
X7.285 Y58.979
X7.378 Y59.233
X7.382 Y59.244
X7.478 Y59.497
X7.482 Y59.508
X7.58 Y59.761
X7.584 Y59.772
X7.684 Y60.025
X7.688 Y60.037
X7.791 Y60.29
X7.795 Y60.301
X7.9 Y60.554
X7.904 Y60.564
X8.011 Y60.817
X8.016 Y60.828
X8.125 Y61.081
X8.13 Y61.092
X8.241 Y61.345
X8.246 Y61.355
X8.36 Y61.608
X8.365 Y61.619
X8.481 Y61.872
X8.486 Y61.882
X8.605 Y62.135
X8.61 Y62.145
X8.731 Y62.398
X8.736 Y62.408
X8.859 Y62.66
X8.864 Y62.671
X8.99 Y62.924
X8.995 Y62.933
X9.123 Y63.186
X9.128 Y63.196
X9.259 Y63.449
X9.264 Y63.459
X9.397 Y63.711
X9.402 Y63.721
X9.537 Y63.973
X9.542 Y63.982
X9.68 Y64.234
X9.685 Y64.244
X9.825 Y64.497
X9.83 Y64.506
X9.973 Y64.758
X9.978 Y64.768
X10.123 Y65.02
X10.128 Y65.029
X10.276 Y65.281
X10.281 Y65.29
X10.431 Y65.542
X10.436 Y65.551
X10.588 Y65.803
X10.594 Y65.812
X10.748 Y66.063
X10.754 Y66.072
X10.91 Y66.324
X10.916 Y66.332
X11.075 Y66.584
X11.081 Y66.593
X11.242 Y66.844
X11.248 Y66.853
X11.412 Y67.104
X11.418 Y67.113
X11.584 Y67.364
X11.59 Y67.373
X11.759 Y67.624
X11.935 Y67.882
X11.941 Y67.891
X12.115 Y68.142
X12.297 Y68.401
X12.481 Y68.659
X12.668 Y68.918
X12.857 Y69.176
X12.942 Y69.291
X12.949 Y69.306
X12.999 Y69.412
X13.057 Y69.514
X13.347 Y69.978
X13.352 Y69.987
X13.646 Y70.45
X13.948 Y70.921
X13.954 Y70.929
X14.255 Y71.391
X14.566 Y71.86
X14.88 Y72.328
X14.885 Y72.337
X15.198 Y72.796
X15.52 Y73.262
X15.846 Y73.728
X15.852 Y73.736
X16.176 Y74.193
X16.182 Y74.201
X16.511 Y74.657
X16.517 Y74.665
X16.849 Y75.12
X16.855 Y75.128
X17.192 Y75.582
X17.198 Y75.59
X17.539 Y76.043
X17.545 Y76.051
X17.89 Y76.503
X17.897 Y76.512
X18.246 Y76.963
X18.253 Y76.972
X18.607 Y77.422
X18.614 Y77.43
X18.972 Y77.879
X18.979 Y77.888
X19.342 Y78.336
X19.35 Y78.345
X19.718 Y78.792
X19.725 Y78.801
X20.098 Y79.247
X20.106 Y79.256
X20.484 Y79.7
X20.492 Y79.71
X20.876 Y80.153
X20.884 Y80.162
X21.273 Y80.605
X21.281 Y80.614
X21.675 Y81.055
X21.684 Y81.065
X22.084 Y81.505
X22.093 Y81.515
X22.5 Y81.953
X22.509 Y81.963
X22.921 Y82.4
X22.931 Y82.41
X23.349 Y82.845
X23.359 Y82.855
X23.785 Y83.29
X23.795 Y83.3
X24.227 Y83.732
X24.238 Y83.743
X24.677 Y84.174
X24.688 Y84.185
X25.134 Y84.614
X25.145 Y84.624
X25.599 Y85.052
X25.611 Y85.063
X26.073 Y85.489
X26.085 Y85.5
X26.555 Y85.924
X26.567 Y85.935
X27.045 Y86.357
X27.058 Y86.368
X27.545 Y86.788
X27.558 Y86.799
X28.054 Y87.218
X28.067 Y87.229
X28.572 Y87.645
X28.586 Y87.656
X29.1 Y88.07
X29.114 Y88.081
X29.638 Y88.493
X29.649 Y88.501
X29.915 Y88.706
X30.191 Y88.916
X30.47 Y89.126
X30.75 Y89.334
X31.035 Y89.543
X31.321 Y89.75
X31.611 Y89.957
X31.904 Y90.164
X32.199 Y90.369
X32.497 Y90.574
X32.799 Y90.778
X33.103 Y90.982
X33.411 Y91.185
X33.721 Y91.386
X34.035 Y91.588
X34.352 Y91.788
X34.673 Y91.988
X34.996 Y92.187
X35.323 Y92.385
X35.653 Y92.583
X35.987 Y92.78
X36.324 Y92.975
X36.664 Y93.17
X37.008 Y93.364
X37.355 Y93.558
X37.707 Y93.75
X38.061 Y93.942
X38.419 Y94.132
X38.781 Y94.322
X39.147 Y94.511
X39.516 Y94.699
X39.889 Y94.886
X40.266 Y95.072
X40.647 Y95.258
X41.032 Y95.442
X41.42 Y95.625
X41.812 Y95.808
X42.209 Y95.989
X42.609 Y96.169
X43.013 Y96.349
X43.422 Y96.527
X43.748 Y96.668
Y103.369
Y104.766
G3 X43.517 Y104.963 I-0.2 J0
G1 X13.712 Y100.182
X13.675 Y100.173
X13.64 Y100.156
X13.609 Y100.133
Z-2.2 F300
X13.601 Y100.125
G3 X11.926 Y98.565 I49.642 J-54.975 F1000
X4.047 Y89.994 I64.988 J-67.646
X2.285 Y87.741 I64.041 J-51.919
X1.69 Y86.947 I103.304 J-77.971
G1 X1.675 Y86.923
X1.663 Y86.897
X-1.2 Y79.154
G3 X-0.847 Y78.973 I0.188 J-0.069
X-0.015 Y80.262 I-31.335 J21.122
G2 X1.357 Y82.364 I41.258 J-25.438
X2.946 Y84.614 I105.922 J-73.133
X4.597 Y86.819 I66.469 J-48.026
X6.387 Y89.074 I96.253 J-74.59
X8.247 Y91.273 I58.327 J-47.45
X9.771 Y92.973 I89.119 J-78.357
X11.34 Y94.631 I48.573 J-44.393
X13.05 Y96.338 I77.64 J-76.066
X14.812 Y97.992 I42.963 J-44.006
X16.738 Y99.686 I68.143 J-75.518
X18.72 Y101.313 I38.78 J-45.219
X21.055 Y103.089 I57.229 J-72.856
X21.804 Y103.632 I38.618 J-52.503
G1 X21.838 Y103.651
X21.875 Y103.664
X27.607 Y105.006
G2 X27.754 Y104.639 I0.046 J-0.195
G3 X27.146 Y104.279 I89.355 J-151.533
X25.55 Y103.285 I24.094 J-40.487
X17.334 Y97.018 I37.612 J-57.822
X10.047 Y89.691 I55.898 J-62.882
X8.235 Y87.548 I54.735 J-48.125
X6.491 Y85.351 I92.802 J-75.465
X4.88 Y83.199 I62.988 J-48.812
X3.329 Y81.002 I102.564 J-74.082
G1 X-0.155 Y75.765
G3 X-1.37 Y73.867 I31.437 J-21.451
G1 X-1.389 Y73.824
X-1.398 Y73.778
X-1.722 Y69.226
G3 X-1.396 Y69.057 I0.199 J-0.014
X-1.23 Y69.259 I-0.413 J0.507
G2 X0.223 Y71.88 I60.797 J-32.014
X1.825 Y74.414 I36.735 J-21.44
G1 X5.301 Y79.641
G2 X6.814 Y81.783 I102.318 J-70.645
X8.385 Y83.883 I62.731 J-45.296
X10.083 Y86.022 I92.854 J-71.957
X11.847 Y88.108 I54.768 J-44.518
X18.902 Y95.205 I61.408 J-53.992
X26.857 Y101.276 I44.271 J-49.758
X29.952 Y103.19 I43.357 J-66.654
X30.68 Y103.583 I6.687 J-11.514
G3 X31.411 Y103.969 I-8.501 J16.987
X31.76 Y104.563 I-0.33 J0.594
G1 Y104.765
G2 X31.961 Y104.965 I0.2 J0
G1 X33.958 Y104.956
G2 X34.157 Y104.756 I-0.001 J-0.2
G1 Y103.124
G2 X33.809 Y102.544 I-0.657 J0
X33.272 Y102.277 I-5.124 J9.629
G3 X32.736 Y102.007 I3.751 J-8.092
X28.164 Y99.267 I34.738 J-63.172
X20.47 Y93.392 I35.021 J-53.838
X16.144 Y89.236 I52.809 J-59.298
G1 X15.068 Y88.099
G3 X13.647 Y86.526 I58.211 J-54.004
X11.931 Y84.496 I51.278 J-45.086
X10.28 Y82.415 I89.525 J-72.738
X8.748 Y80.368 I59.334 J-45.981
X7.274 Y78.279 I99.059 J-71.502
X5.984 Y76.287 I32.685 J-22.568
G2 X4.674 Y74.309 I-25.093 J15.197
G3 X0.236 Y66.861 I42.376 J-30.299
G2 X-0.321 Y66.513 I-0.557 J0.272
G1 X-1.39
G3 X-1.59 Y66.314 I0 J-0.2
G1 X-1.597 Y64.317
G3 X-1.397 Y64.117 I0.2 J-0.001
G1 X1.22
G3 X1.754 Y64.462 I0 J0.585
G2 X3.61 Y68.175 I47.282 J-21.307
X5.784 Y71.712 I38.164 J-21.02
G1 X9.214 Y76.871
G2 X10.647 Y78.903 I62.73 J-42.717
X12.135 Y80.896 I94.156 J-68.738
X13.737 Y82.917 I56.449 J-43.086
X15.399 Y84.889 I80.641 J-66.32
X29.427 Y97.23 I51.998 J-44.962
X31.607 Y98.599 I32.365 J-49.112
X33.837 Y99.885 I42.13 J-70.458
X35.016 Y100.497 I11.246 J-20.221
G3 X36.207 Y101.088 I-27.755 J57.444
X36.553 Y101.653 I-0.288 J0.565
G1 Y104.766
G2 X36.754 Y104.966 I0.2 J0
G1 X38.75 Y104.962
G2 X38.95 Y104.762 I0 J-0.2
G1 Y100.151
G2 X38.602 Y99.598 I-0.613 J0
G1 X36.995 Y98.829
G3 X35.794 Y98.222 I13.744 J-28.691
X31.454 Y95.686 I33.856 J-62.926
X24.396 Y90.454 I31.782 J-50.249
X18.102 Y84.325 I47.643 J-55.221
X16.434 Y82.415 I45.722 J-41.615
X14.829 Y80.452 I82.371 J-69.013
X13.339 Y78.517 I54.154 J-43.239
X11.904 Y76.541 I94.148 J-69.885
G1 X8.358 Y71.219
G3 X3.332 Y62.064 I36.153 J-25.802
G2 X2.823 Y61.72 I-0.51 J0.206
G1 X-1.388
G3 X-1.588 Y61.521 I0 J-0.2
G1 X-1.595 Y59.524
G3 X-1.395 Y59.323 I0.2 J-0.001
G1 X4.496
G3 X4.979 Y59.663 I0 J0.513
G2 X9.378 Y68.464 I38.913 J-13.952
X10.188 Y69.632 I28.087 J-18.613
G3 X10.982 Y70.81 I-16.648 J12.072
G2 X12.226 Y72.759 I97.118 J-60.659
X13.522 Y74.674 I59.679 J-38.972
X14.899 Y76.598 I94.229 J-65.991
X16.33 Y78.484 I54.74 J-40.039
X17.864 Y80.389 I84.013 J-66.072
X19.457 Y82.245 I46.762 J-38.54
X25.553 Y88.287 I53.222 J-47.598
X32.408 Y93.451 I37.663 J-42.869
X36.551 Y95.907 I36.962 J-57.628
X39.598 Y97.468 I37.067 J-68.589
X40.298 Y97.776 I5.076 J-10.597
G3 X41 Y98.077 I-6.003 J14.958
X41.347 Y98.616 I-0.247 J0.539
G1 Y104.759
G2 X41.546 Y104.959 I0.2 J0
G1 X43.547 Y104.966
G2 X43.748 Y104.766 I0.001 J-0.2
G1 Y96.668
X43.422 Y96.527
X43.013 Y96.349
X42.609 Y96.169
X42.209 Y95.989
X41.812 Y95.808
X41.42 Y95.625
X41.032 Y95.442
X40.647 Y95.258
X40.266 Y95.072
X39.889 Y94.886
X39.516 Y94.699
X39.147 Y94.511
X38.781 Y94.322
X38.419 Y94.132
X38.061 Y93.942
X37.707 Y93.75
X37.355 Y93.558
X37.008 Y93.364
X36.664 Y93.17
X36.324 Y92.975
X35.987 Y92.78
X35.653 Y92.583
X35.323 Y92.385
X34.996 Y92.187
X34.673 Y91.988
X34.352 Y91.788
X34.035 Y91.588
X33.721 Y91.386
X33.411 Y91.185
X33.103 Y90.982
X32.799 Y90.778
X32.497 Y90.574
X32.199 Y90.369
X31.904 Y90.164
X31.611 Y89.957
X31.321 Y89.75
X31.035 Y89.543
X30.75 Y89.334
X30.47 Y89.126
X30.191 Y88.916
X29.915 Y88.706
X29.649 Y88.501
X29.638 Y88.493
X29.114 Y88.081
X29.1 Y88.07
X28.586 Y87.656
X28.572 Y87.645
X28.067 Y87.229
X28.054 Y87.218
X27.558 Y86.799
X27.545 Y86.788
X27.058 Y86.368
X27.045 Y86.357
X26.567 Y85.935
X26.555 Y85.924
X26.085 Y85.5
X26.073 Y85.489
X25.611 Y85.063
X25.599 Y85.052
X25.145 Y84.624
X25.134 Y84.614
X24.688 Y84.185
X24.677 Y84.174
X24.238 Y83.743
X24.227 Y83.732
X23.795 Y83.3
X23.785 Y83.29
X23.359 Y82.855
X23.349 Y82.845
X22.931 Y82.41
X22.921 Y82.4
X22.509 Y81.963
X22.5 Y81.953
X22.093 Y81.515
X22.084 Y81.505
X21.684 Y81.065
X21.675 Y81.055
X21.281 Y80.614
X21.273 Y80.605
X20.884 Y80.162
X20.876 Y80.153
X20.492 Y79.71
X20.484 Y79.7
X20.106 Y79.256
X20.098 Y79.247
X19.725 Y78.801
X19.718 Y78.792
X19.35 Y78.345
X19.342 Y78.336
X18.979 Y77.888
X18.972 Y77.879
X18.614 Y77.43
X18.607 Y77.422
X18.253 Y76.972
X18.246 Y76.963
X17.897 Y76.512
X17.89 Y76.503
X17.545 Y76.051
X17.539 Y76.043
X17.198 Y75.59
X17.192 Y75.582
X16.855 Y75.128
X16.849 Y75.12
X16.517 Y74.665
X16.511 Y74.657
X16.182 Y74.201
X16.176 Y74.193
X15.852 Y73.736
X15.846 Y73.728
X15.52 Y73.262
X15.198 Y72.796
X14.885 Y72.337
X14.88 Y72.328
X14.566 Y71.86
X14.255 Y71.391
X13.954 Y70.929
X13.948 Y70.921
X13.646 Y70.45
X13.352 Y69.987
X13.347 Y69.978
X13.057 Y69.514
X12.999 Y69.412
X12.949 Y69.306
X12.942 Y69.291
X12.857 Y69.176
X12.668 Y68.918
X12.481 Y68.659
X12.297 Y68.401
X12.115 Y68.142
X11.941 Y67.891
X11.935 Y67.882
X11.759 Y67.624
X11.59 Y67.373
X11.584 Y67.364
X11.418 Y67.113
X11.412 Y67.104
X11.248 Y66.853
X11.242 Y66.844
X11.081 Y66.593
X11.075 Y66.584
X10.916 Y66.332
X10.91 Y66.324
X10.754 Y66.072
X10.748 Y66.063
X10.594 Y65.812
X10.588 Y65.803
X10.436 Y65.551
X10.431 Y65.542
X10.281 Y65.29
X10.276 Y65.281
X10.128 Y65.029
X10.123 Y65.02
X9.978 Y64.768
X9.973 Y64.758
X9.83 Y64.506
X9.825 Y64.497
X9.685 Y64.244
X9.68 Y64.234
X9.542 Y63.982
X9.537 Y63.973
X9.402 Y63.721
X9.397 Y63.711
X9.264 Y63.459
X9.259 Y63.449
X9.128 Y63.196
X9.123 Y63.186
X8.995 Y62.933
X8.99 Y62.924
X8.864 Y62.671
X8.859 Y62.66
X8.736 Y62.408
X8.731 Y62.398
X8.61 Y62.145
X8.605 Y62.135
X8.486 Y61.882
X8.481 Y61.872
X8.365 Y61.619
X8.36 Y61.608
X8.246 Y61.355
X8.241 Y61.345
X8.13 Y61.092
X8.125 Y61.081
X8.016 Y60.828
X8.011 Y60.817
X7.904 Y60.564
X7.9 Y60.554
X7.795 Y60.301
X7.791 Y60.29
X7.688 Y60.037
X7.684 Y60.025
X7.584 Y59.772
X7.58 Y59.761
X7.482 Y59.508
X7.478 Y59.497
X7.382 Y59.244
X7.378 Y59.233
X7.285 Y58.979
X7.281 Y58.968
X7.19 Y58.715
X7.186 Y58.703
X7.098 Y58.45
X7.094 Y58.439
X7.007 Y58.185
X7.004 Y58.174
X6.92 Y57.921
X6.916 Y57.909
X6.834 Y57.656
X6.831 Y57.644
X6.751 Y57.391
X6.747 Y57.379
X6.67 Y57.126
X6.667 Y57.114
X6.61 Y56.922
X0
X-1.389
G2 X-1.588 Y57.143 I0 J0.2
G1 X1.645 Y86.84
X1.657 Y86.892
X1.683 Y86.938
Z-2.4 F300
X1.69 Y86.947
G2 X2.285 Y87.741 I103.899 J-77.177 F1000
X4.047 Y89.994 I65.804 J-49.667
X11.926 Y98.565 I72.867 J-59.074
X13.601 Y100.125 I51.316 J-53.415
G1 X13.623 Y100.143
X13.648 Y100.157
X21.602 Y103.975
G2 X21.804 Y103.632 I0.087 J-0.18
G3 X21.055 Y103.089 I37.868 J-53.046
X18.72 Y101.313 I54.894 J-74.631
X16.738 Y99.686 I36.798 J-46.846
X14.812 Y97.992 I66.218 J-77.212
X13.05 Y96.338 I41.201 J-45.66
X11.34 Y94.631 I75.93 J-77.773
X9.771 Y92.973 I47.004 J-46.051
X8.247 Y91.273 I87.595 J-80.057
X6.387 Y89.074 I56.467 J-49.648
X4.597 Y86.819 I94.462 J-76.846
X2.946 Y84.614 I64.819 J-50.231
X1.357 Y82.364 I104.333 J-75.383
X-0.015 Y80.262 I39.886 J-27.539
G2 X-0.847 Y78.973 I-32.167 J19.832
G1 X-0.866 Y78.936
X-0.878 Y78.896
X-1.738 Y74.004
G3 X-1.37 Y73.867 I0.197 J-0.035
G2 X-0.155 Y75.765 I32.651 J-19.553
G1 X3.329 Y81.002
G2 X4.88 Y83.199 I104.115 J-71.886
X6.491 Y85.351 I64.599 J-46.66
X8.235 Y87.548 I94.546 J-73.268
X10.047 Y89.691 I56.546 J-45.983
X17.334 Y97.018 I63.185 J-55.555
X25.55 Y103.285 I45.828 J-51.554
X27.146 Y104.279 I25.689 J-39.493
X27.754 Y104.639 I89.963 J-151.173
G1 X27.796 Y104.657
X27.84 Y104.666
X31.544 Y104.964
G2 X31.76 Y104.765 I0.016 J-0.199
G1 Y104.563
G2 X31.411 Y103.969 I-0.68 J0
X30.68 Y103.583 I-9.232 J16.601
G3 X29.952 Y103.19 I5.959 J-11.907
X26.857 Y101.276 I40.262 J-68.568
X18.902 Y95.205 I36.316 J-55.83
X11.847 Y88.108 I54.352 J-61.089
X10.083 Y86.022 I53.005 J-46.604
X8.385 Y83.883 I91.156 J-74.096
X6.814 Y81.783 I61.16 J-47.396
X5.301 Y79.641 I100.806 J-72.788
G1 X1.825 Y74.414
G3 X0.223 Y71.88 I35.134 J-23.974
X-1.23 Y69.259 I59.343 J-34.634
G2 X-1.396 Y69.057 I-0.579 J0.305
G1 X-1.434 Y69.016
X-1.459 Y68.967
X-1.47 Y68.913
X-1.59 Y66.724
G3 X-1.39 Y66.513 I0.2 J-0.011
G1 X-0.321
G3 X0.236 Y66.861 I0 J0.62
G2 X4.674 Y74.309 I46.815 J-22.851
G3 X5.984 Y76.287 I-23.783 J17.175
G2 X7.274 Y78.279 I33.975 J-20.576
X8.748 Y80.368 I100.534 J-69.413
X10.28 Y82.415 I60.866 J-43.934
X11.931 Y84.496 I91.176 J-70.657
X13.647 Y86.526 I52.994 J-43.057
X15.068 Y88.099 I59.632 J-52.431
G1 X16.144 Y89.236
G2 X20.47 Y93.392 I57.135 J-55.141
X28.164 Y99.267 I42.715 J-47.963
X32.736 Y102.007 I39.31 J-60.433
X33.272 Y102.277 I4.286 J-7.822
G3 X33.809 Y102.544 I-4.587 J9.896
X34.157 Y103.124 I-0.308 J0.58
G1 Y104.756
G2 X34.356 Y104.956 I0.2 J0
G1 X36.352 Y104.966
G2 X36.553 Y104.766 I0.001 J-0.2
G1 Y101.653
G2 X36.207 Y101.088 I-0.634 J0
X35.016 Y100.497 I-28.946 J56.853
G3 X33.837 Y99.885 I10.066 J-20.834
X31.607 Y98.599 I39.9 J-71.744
X29.427 Y97.23 I30.185 J-50.481
X15.399 Y84.889 I37.97 J-57.304
X13.737 Y82.917 I78.978 J-68.291
X12.135 Y80.896 I54.847 J-45.107
X10.647 Y78.903 I92.668 J-70.731
X9.214 Y76.871 I61.297 J-44.75
G1 X5.784 Y71.712
G3 X3.61 Y68.175 I35.99 J-24.557
X1.754 Y64.462 I45.426 J-25.02
G2 X1.22 Y64.117 I-0.534 J0.241
G1 X-1.397
G3 X-1.597 Y63.916 I0 J-0.2
G1 X-1.588 Y61.919
G3 X-1.388 Y61.72 I0.2 J0.001
G1 X2.823
G3 X3.332 Y62.064 I0 J0.55
G2 X8.358 Y71.219 I41.178 J-16.647
G1 X11.904 Y76.541
G2 X13.339 Y78.517 I95.583 J-67.909
X14.829 Y80.452 I55.644 J-41.304
X16.434 Y82.415 I83.977 J-67.05
X18.102 Y84.325 I47.39 J-39.705
X24.396 Y90.454 I53.937 J-49.092
X31.454 Y95.686 I38.84 J-45.017
X35.794 Y98.222 I38.196 J-60.39
X36.995 Y98.829 I14.945 J-28.084
G1 X38.602 Y99.598
G3 X38.95 Y100.151 I-0.265 J0.552
G1 Y104.762
G2 X39.15 Y104.962 I0.2 J0
G1 X41.147 Y104.959
G2 X41.347 Y104.759 I0 J-0.2
G1 Y98.616
G2 X41 Y98.077 I-0.593 J0
X40.298 Y97.776 I-6.705 J14.656
G3 X39.598 Y97.468 I4.376 J-10.905
X36.551 Y95.907 I34.02 J-70.151
X32.408 Y93.451 I32.819 J-60.084
X25.553 Y88.287 I30.807 J-48.033
X19.457 Y82.245 I47.126 J-53.64
X17.864 Y80.389 I45.169 J-40.396
X16.33 Y78.484 I82.479 J-67.977
X14.899 Y76.598 I53.309 J-41.925
X13.522 Y74.674 I92.851 J-67.916
X12.226 Y72.759 I58.383 J-40.887
X10.982 Y70.81 I95.873 J-62.608
G2 X10.188 Y69.632 I-17.442 J10.894
G3 X9.378 Y68.464 I27.277 J-19.78
X4.979 Y59.663 I34.514 J-22.752
G2 X4.496 Y59.323 I-0.483 J0.173
G1 X-1.395
G3 X-1.595 Y59.123 I0 J-0.2
G1 X-1.589 Y57.121
G3 X-1.389 Y56.922 I0.2 J0.001
G1 X6.61
X6.667 Y57.114
X6.67 Y57.126
X6.747 Y57.379
X6.751 Y57.391
X6.831 Y57.644
X6.834 Y57.656
X6.916 Y57.909
X6.92 Y57.921
X7.004 Y58.174
X7.007 Y58.185
X7.094 Y58.439
X7.098 Y58.45
X7.186 Y58.703
X7.19 Y58.715
X7.281 Y58.968
X7.285 Y58.979
X7.378 Y59.233
X7.382 Y59.244
X7.478 Y59.497
X7.482 Y59.508
X7.58 Y59.761
X7.584 Y59.772
X7.684 Y60.025
X7.688 Y60.037
X7.791 Y60.29
X7.795 Y60.301
X7.9 Y60.554
X7.904 Y60.564
X8.011 Y60.817
X8.016 Y60.828
X8.125 Y61.081
X8.13 Y61.092
X8.241 Y61.345
X8.246 Y61.355
X8.36 Y61.608
X8.365 Y61.619
X8.481 Y61.872
X8.486 Y61.882
X8.605 Y62.135
X8.61 Y62.145
X8.731 Y62.398
X8.736 Y62.408
X8.859 Y62.66
X8.864 Y62.671
X8.99 Y62.924
X8.995 Y62.933
X9.123 Y63.186
X9.128 Y63.196
X9.259 Y63.449
X9.264 Y63.459
X9.397 Y63.711
X9.402 Y63.721
X9.537 Y63.973
X9.542 Y63.982
X9.68 Y64.234
X9.685 Y64.244
X9.825 Y64.497
X9.83 Y64.506
X9.973 Y64.758
X9.978 Y64.768
X10.123 Y65.02
X10.128 Y65.029
X10.276 Y65.281
X10.281 Y65.29
X10.431 Y65.542
X10.436 Y65.551
X10.588 Y65.803
X10.594 Y65.812
X10.748 Y66.063
X10.754 Y66.072
X10.91 Y66.324
X10.916 Y66.332
X11.075 Y66.584
X11.081 Y66.593
X11.242 Y66.844
X11.248 Y66.853
X11.412 Y67.104
X11.418 Y67.113
X11.584 Y67.364
X11.59 Y67.373
X11.759 Y67.624
X11.935 Y67.882
X11.941 Y67.891
X12.115 Y68.142
X12.297 Y68.401
X12.481 Y68.659
X12.668 Y68.918
X12.857 Y69.176
X12.942 Y69.291
X12.949 Y69.306
X12.999 Y69.412
X13.057 Y69.514
X13.347 Y69.978
X13.352 Y69.987
X13.646 Y70.45
X13.948 Y70.921
X13.954 Y70.929
X14.255 Y71.391
X14.566 Y71.86
X14.88 Y72.328
X14.885 Y72.337
X15.198 Y72.796
X15.52 Y73.262
X15.846 Y73.728
X15.852 Y73.736
X16.176 Y74.193
X16.182 Y74.201
X16.511 Y74.657
X16.517 Y74.665
X16.849 Y75.12
X16.855 Y75.128
X17.192 Y75.582
X17.198 Y75.59
X17.539 Y76.043
X17.545 Y76.051
X17.89 Y76.503
X17.897 Y76.512
X18.246 Y76.963
X18.253 Y76.972
X18.607 Y77.422
X18.614 Y77.43
X18.972 Y77.879
X18.979 Y77.888
X19.342 Y78.336
X19.35 Y78.345
X19.718 Y78.792
X19.725 Y78.801
X20.098 Y79.247
X20.106 Y79.256
X20.484 Y79.7
X20.492 Y79.71
X20.876 Y80.153
X20.884 Y80.162
X21.273 Y80.605
X21.281 Y80.614
X21.675 Y81.055
X21.684 Y81.065
X22.084 Y81.505
X22.093 Y81.515
X22.5 Y81.953
X22.509 Y81.963
X22.921 Y82.4
X22.931 Y82.41
X23.349 Y82.845
X23.359 Y82.855
X23.785 Y83.29
X23.795 Y83.3
X24.227 Y83.732
X24.238 Y83.743
X24.677 Y84.174
X24.688 Y84.185
X25.134 Y84.614
X25.145 Y84.624
X25.599 Y85.052
X25.611 Y85.063
X26.073 Y85.489
X26.085 Y85.5
X26.555 Y85.924
X26.567 Y85.935
X27.045 Y86.357
X27.058 Y86.368
X27.545 Y86.788
X27.558 Y86.799
X28.054 Y87.218
X28.067 Y87.229
X28.572 Y87.645
X28.586 Y87.656
X29.1 Y88.07
X29.114 Y88.081
X29.638 Y88.493
X29.649 Y88.501
X29.915 Y88.706
X30.191 Y88.916
X30.47 Y89.126
X30.75 Y89.334
X31.035 Y89.543
X31.321 Y89.75
X31.611 Y89.957
X31.904 Y90.164
X32.199 Y90.369
X32.497 Y90.574
X32.799 Y90.778
X33.103 Y90.982
X33.411 Y91.185
X33.721 Y91.386
X34.035 Y91.588
X34.352 Y91.788
X34.673 Y91.988
X34.996 Y92.187
X35.323 Y92.385
X35.653 Y92.583
X35.987 Y92.78
X36.324 Y92.975
X36.664 Y93.17
X37.008 Y93.364
X37.355 Y93.558
X37.707 Y93.75
X38.061 Y93.942
X38.419 Y94.132
X38.781 Y94.322
X39.147 Y94.511
X39.516 Y94.699
X39.889 Y94.886
X40.266 Y95.072
X40.647 Y95.258
X41.032 Y95.442
X41.42 Y95.625
X41.812 Y95.808
X42.209 Y95.989
X42.609 Y96.169
X43.013 Y96.349
X43.422 Y96.527
X43.748 Y96.668
Y103.369
Y104.766
G3 X43.517 Y104.963 I-0.2 J0
G1 X13.712 Y100.182
X13.675 Y100.173
X13.64 Y100.156
X13.609 Y100.133
Z-2.6 F300
X13.601 Y100.125
G3 X11.926 Y98.565 I49.642 J-54.975 F1000
X4.047 Y89.994 I64.988 J-67.646
X2.285 Y87.741 I64.041 J-51.919
X1.69 Y86.947 I103.304 J-77.971
G1 X1.675 Y86.923
X1.663 Y86.897
X-1.2 Y79.154
G3 X-0.847 Y78.973 I0.188 J-0.069
X-0.015 Y80.262 I-31.335 J21.122
G2 X1.357 Y82.364 I41.258 J-25.438
X2.946 Y84.614 I105.922 J-73.133
X4.597 Y86.819 I66.469 J-48.026
X6.387 Y89.074 I96.253 J-74.59
X8.247 Y91.273 I58.327 J-47.45
X9.771 Y92.973 I89.119 J-78.357
X11.34 Y94.631 I48.573 J-44.393
X13.05 Y96.338 I77.64 J-76.066
X14.812 Y97.992 I42.963 J-44.006
X16.738 Y99.686 I68.143 J-75.518
X18.72 Y101.313 I38.78 J-45.219
X21.055 Y103.089 I57.229 J-72.856
X21.804 Y103.632 I38.618 J-52.503
G1 X21.838 Y103.651
X21.875 Y103.664
X27.607 Y105.006
G2 X27.754 Y104.639 I0.046 J-0.195
G3 X27.146 Y104.279 I89.355 J-151.533
X25.55 Y103.285 I24.094 J-40.487
X17.334 Y97.018 I37.612 J-57.822
X10.047 Y89.691 I55.898 J-62.882
X8.235 Y87.548 I54.735 J-48.125
X6.491 Y85.351 I92.802 J-75.465
X4.88 Y83.199 I62.988 J-48.812
X3.329 Y81.002 I102.564 J-74.082
G1 X-0.155 Y75.765
G3 X-1.37 Y73.867 I31.437 J-21.451
G1 X-1.389 Y73.824
X-1.398 Y73.778
X-1.722 Y69.226
G3 X-1.396 Y69.057 I0.199 J-0.014
X-1.23 Y69.259 I-0.413 J0.507
G2 X0.223 Y71.88 I60.797 J-32.014
X1.825 Y74.414 I36.735 J-21.44
G1 X5.301 Y79.641
G2 X6.814 Y81.783 I102.318 J-70.645
X8.385 Y83.883 I62.731 J-45.296
X10.083 Y86.022 I92.854 J-71.957
X11.847 Y88.108 I54.768 J-44.518
X18.902 Y95.205 I61.408 J-53.992
X26.857 Y101.276 I44.271 J-49.758
X29.952 Y103.19 I43.357 J-66.654
X30.68 Y103.583 I6.687 J-11.514
G3 X31.411 Y103.969 I-8.501 J16.987
X31.76 Y104.563 I-0.33 J0.594
G1 Y104.765
G2 X31.961 Y104.965 I0.2 J0
G1 X33.958 Y104.956
G2 X34.157 Y104.756 I-0.001 J-0.2
G1 Y103.124
G2 X33.809 Y102.544 I-0.657 J0
X33.272 Y102.277 I-5.124 J9.629
G3 X32.736 Y102.007 I3.751 J-8.092
X28.164 Y99.267 I34.738 J-63.172
X20.47 Y93.392 I35.021 J-53.838
X16.144 Y89.236 I52.809 J-59.298
G1 X15.068 Y88.099
G3 X13.647 Y86.526 I58.211 J-54.004
X11.931 Y84.496 I51.278 J-45.086
X10.28 Y82.415 I89.525 J-72.738
X8.748 Y80.368 I59.334 J-45.981
X7.274 Y78.279 I99.059 J-71.502
X5.984 Y76.287 I32.685 J-22.568
G2 X4.674 Y74.309 I-25.093 J15.197
G3 X0.236 Y66.861 I42.376 J-30.299
G2 X-0.321 Y66.513 I-0.557 J0.272
G1 X-1.39
G3 X-1.59 Y66.314 I0 J-0.2
G1 X-1.597 Y64.317
G3 X-1.397 Y64.117 I0.2 J-0.001
G1 X1.22
G3 X1.754 Y64.462 I0 J0.585
G2 X3.61 Y68.175 I47.282 J-21.307
X5.784 Y71.712 I38.164 J-21.02
G1 X9.214 Y76.871
G2 X10.647 Y78.903 I62.73 J-42.717
X12.135 Y80.896 I94.156 J-68.738
X13.737 Y82.917 I56.449 J-43.086
X15.399 Y84.889 I80.641 J-66.32
X29.427 Y97.23 I51.998 J-44.962
X31.607 Y98.599 I32.365 J-49.112
X33.837 Y99.885 I42.13 J-70.458
X35.016 Y100.497 I11.246 J-20.221
G3 X36.207 Y101.088 I-27.755 J57.444
X36.553 Y101.653 I-0.288 J0.565
G1 Y104.766
G2 X36.754 Y104.966 I0.2 J0
G1 X38.75 Y104.962
G2 X38.95 Y104.762 I0 J-0.2
G1 Y100.151
G2 X38.602 Y99.598 I-0.613 J0
G1 X36.995 Y98.829
G3 X35.794 Y98.222 I13.744 J-28.691
X31.454 Y95.686 I33.856 J-62.926
X24.396 Y90.454 I31.782 J-50.249
X18.102 Y84.325 I47.643 J-55.221
X16.434 Y82.415 I45.722 J-41.615
X14.829 Y80.452 I82.371 J-69.013
X13.339 Y78.517 I54.154 J-43.239
X11.904 Y76.541 I94.148 J-69.885
G1 X8.358 Y71.219
G3 X3.332 Y62.064 I36.153 J-25.802
G2 X2.823 Y61.72 I-0.51 J0.206
G1 X-1.388
G3 X-1.588 Y61.521 I0 J-0.2
G1 X-1.595 Y59.524
G3 X-1.395 Y59.323 I0.2 J-0.001
G1 X4.496
G3 X4.979 Y59.663 I0 J0.513
G2 X9.378 Y68.464 I38.913 J-13.952
X10.188 Y69.632 I28.087 J-18.613
G3 X10.982 Y70.81 I-16.648 J12.072
G2 X12.226 Y72.759 I97.118 J-60.659
X13.522 Y74.674 I59.679 J-38.972
X14.899 Y76.598 I94.229 J-65.991
X16.33 Y78.484 I54.74 J-40.039
X17.864 Y80.389 I84.013 J-66.072
X19.457 Y82.245 I46.762 J-38.54
X25.553 Y88.287 I53.222 J-47.598
X32.408 Y93.451 I37.663 J-42.869
X36.551 Y95.907 I36.962 J-57.628
X39.598 Y97.468 I37.067 J-68.589
X40.298 Y97.776 I5.076 J-10.597
G3 X41 Y98.077 I-6.003 J14.958
X41.347 Y98.616 I-0.247 J0.539
G1 Y104.759
G2 X41.546 Y104.959 I0.2 J0
G1 X43.547 Y104.966
G2 X43.748 Y104.766 I0.001 J-0.2
G1 Y96.668
X43.422 Y96.527
X43.013 Y96.349
X42.609 Y96.169
X42.209 Y95.989
X41.812 Y95.808
X41.42 Y95.625
X41.032 Y95.442
X40.647 Y95.258
X40.266 Y95.072
X39.889 Y94.886
X39.516 Y94.699
X39.147 Y94.511
X38.781 Y94.322
X38.419 Y94.132
X38.061 Y93.942
X37.707 Y93.75
X37.355 Y93.558
X37.008 Y93.364
X36.664 Y93.17
X36.324 Y92.975
X35.987 Y92.78
X35.653 Y92.583
X35.323 Y92.385
X34.996 Y92.187
X34.673 Y91.988
X34.352 Y91.788
X34.035 Y91.588
X33.721 Y91.386
X33.411 Y91.185
X33.103 Y90.982
X32.799 Y90.778
X32.497 Y90.574
X32.199 Y90.369
X31.904 Y90.164
X31.611 Y89.957
X31.321 Y89.75
X31.035 Y89.543
X30.75 Y89.334
X30.47 Y89.126
X30.191 Y88.916
X29.915 Y88.706
X29.649 Y88.501
X29.638 Y88.493
X29.114 Y88.081
X29.1 Y88.07
X28.586 Y87.656
X28.572 Y87.645
X28.067 Y87.229
X28.054 Y87.218
X27.558 Y86.799
X27.545 Y86.788
X27.058 Y86.368
X27.045 Y86.357
X26.567 Y85.935
X26.555 Y85.924
X26.085 Y85.5
X26.073 Y85.489
X25.611 Y85.063
X25.599 Y85.052
X25.145 Y84.624
X25.134 Y84.614
X24.688 Y84.185
X24.677 Y84.174
X24.238 Y83.743
X24.227 Y83.732
X23.795 Y83.3
X23.785 Y83.29
X23.359 Y82.855
X23.349 Y82.845
X22.931 Y82.41
X22.921 Y82.4
X22.509 Y81.963
X22.5 Y81.953
X22.093 Y81.515
X22.084 Y81.505
X21.684 Y81.065
X21.675 Y81.055
X21.281 Y80.614
X21.273 Y80.605
X20.884 Y80.162
X20.876 Y80.153
X20.492 Y79.71
X20.484 Y79.7
X20.106 Y79.256
X20.098 Y79.247
X19.725 Y78.801
X19.718 Y78.792
X19.35 Y78.345
X19.342 Y78.336
X18.979 Y77.888
X18.972 Y77.879
X18.614 Y77.43
X18.607 Y77.422
X18.253 Y76.972
X18.246 Y76.963
X17.897 Y76.512
X17.89 Y76.503
X17.545 Y76.051
X17.539 Y76.043
X17.198 Y75.59
X17.192 Y75.582
X16.855 Y75.128
X16.849 Y75.12
X16.517 Y74.665
X16.511 Y74.657
X16.182 Y74.201
X16.176 Y74.193
X15.852 Y73.736
X15.846 Y73.728
X15.52 Y73.262
X15.198 Y72.796
X14.885 Y72.337
X14.88 Y72.328
X14.566 Y71.86
X14.255 Y71.391
X13.954 Y70.929
X13.948 Y70.921
X13.646 Y70.45
X13.352 Y69.987
X13.347 Y69.978
X13.057 Y69.514
X12.999 Y69.412
X12.949 Y69.306
X12.942 Y69.291
X12.857 Y69.176
X12.668 Y68.918
X12.481 Y68.659
X12.297 Y68.401
X12.115 Y68.142
X11.941 Y67.891
X11.935 Y67.882
X11.759 Y67.624
X11.59 Y67.373
X11.584 Y67.364
X11.418 Y67.113
X11.412 Y67.104
X11.248 Y66.853
X11.242 Y66.844
X11.081 Y66.593
X11.075 Y66.584
X10.916 Y66.332
X10.91 Y66.324
X10.754 Y66.072
X10.748 Y66.063
X10.594 Y65.812
X10.588 Y65.803
X10.436 Y65.551
X10.431 Y65.542
X10.281 Y65.29
X10.276 Y65.281
X10.128 Y65.029
X10.123 Y65.02
X9.978 Y64.768
X9.973 Y64.758
X9.83 Y64.506
X9.825 Y64.497
X9.685 Y64.244
X9.68 Y64.234
X9.542 Y63.982
X9.537 Y63.973
X9.402 Y63.721
X9.397 Y63.711
X9.264 Y63.459
X9.259 Y63.449
X9.128 Y63.196
X9.123 Y63.186
X8.995 Y62.933
X8.99 Y62.924
X8.864 Y62.671
X8.859 Y62.66
X8.736 Y62.408
X8.731 Y62.398
X8.61 Y62.145
X8.605 Y62.135
X8.486 Y61.882
X8.481 Y61.872
X8.365 Y61.619
X8.36 Y61.608
X8.246 Y61.355
X8.241 Y61.345
X8.13 Y61.092
X8.125 Y61.081
X8.016 Y60.828
X8.011 Y60.817
X7.904 Y60.564
X7.9 Y60.554
X7.795 Y60.301
X7.791 Y60.29
X7.688 Y60.037
X7.684 Y60.025
X7.584 Y59.772
X7.58 Y59.761
X7.482 Y59.508
X7.478 Y59.497
X7.382 Y59.244
X7.378 Y59.233
X7.285 Y58.979
X7.281 Y58.968
X7.19 Y58.715
X7.186 Y58.703
X7.098 Y58.45
X7.094 Y58.439
X7.007 Y58.185
X7.004 Y58.174
X6.92 Y57.921
X6.916 Y57.909
X6.834 Y57.656
X6.831 Y57.644
X6.751 Y57.391
X6.747 Y57.379
X6.67 Y57.126
X6.667 Y57.114
X6.61 Y56.922
X0
X-1.389
G2 X-1.588 Y57.143 I0 J0.2
G1 X1.645 Y86.84
X1.657 Y86.892
X1.683 Y86.938
Z-2.8 F300
X1.69 Y86.947
G2 X2.285 Y87.741 I103.899 J-77.177 F1000
X4.047 Y89.994 I65.804 J-49.667
X11.926 Y98.565 I72.867 J-59.074
X13.601 Y100.125 I51.316 J-53.415
G1 X13.623 Y100.143
X13.648 Y100.157
X21.602 Y103.975
G2 X21.804 Y103.632 I0.087 J-0.18
G3 X21.055 Y103.089 I37.868 J-53.046
X18.72 Y101.313 I54.894 J-74.631
X16.738 Y99.686 I36.798 J-46.846
X14.812 Y97.992 I66.218 J-77.212
X13.05 Y96.338 I41.201 J-45.66
X11.34 Y94.631 I75.93 J-77.773
X9.771 Y92.973 I47.004 J-46.051
X8.247 Y91.273 I87.595 J-80.057
X6.387 Y89.074 I56.467 J-49.648
X4.597 Y86.819 I94.462 J-76.846
X2.946 Y84.614 I64.819 J-50.231
X1.357 Y82.364 I104.333 J-75.383
X-0.015 Y80.262 I39.886 J-27.539
G2 X-0.847 Y78.973 I-32.167 J19.832
G1 X-0.866 Y78.936
X-0.878 Y78.896
X-1.738 Y74.004
G3 X-1.37 Y73.867 I0.197 J-0.035
G2 X-0.155 Y75.765 I32.651 J-19.553
G1 X3.329 Y81.002
G2 X4.88 Y83.199 I104.115 J-71.886
X6.491 Y85.351 I64.599 J-46.66
X8.235 Y87.548 I94.546 J-73.268
X10.047 Y89.691 I56.546 J-45.983
X17.334 Y97.018 I63.185 J-55.555
X25.55 Y103.285 I45.828 J-51.554
X27.146 Y104.279 I25.689 J-39.493
X27.754 Y104.639 I89.963 J-151.173
G1 X27.796 Y104.657
X27.84 Y104.666
X31.544 Y104.964
G2 X31.76 Y104.765 I0.016 J-0.199
G1 Y104.563
G2 X31.411 Y103.969 I-0.68 J0
X30.68 Y103.583 I-9.232 J16.601
G3 X29.952 Y103.19 I5.959 J-11.907
X26.857 Y101.276 I40.262 J-68.568
X18.902 Y95.205 I36.316 J-55.83
X11.847 Y88.108 I54.352 J-61.089
X10.083 Y86.022 I53.005 J-46.604
X8.385 Y83.883 I91.156 J-74.096
X6.814 Y81.783 I61.16 J-47.396
X5.301 Y79.641 I100.806 J-72.788
G1 X1.825 Y74.414
G3 X0.223 Y71.88 I35.134 J-23.974
X-1.23 Y69.259 I59.343 J-34.634
G2 X-1.396 Y69.057 I-0.579 J0.305
G1 X-1.434 Y69.016
X-1.459 Y68.967
X-1.47 Y68.913
X-1.59 Y66.724
G3 X-1.39 Y66.513 I0.2 J-0.011
G1 X-0.321
G3 X0.236 Y66.861 I0 J0.62
G2 X4.674 Y74.309 I46.815 J-22.851
G3 X5.984 Y76.287 I-23.783 J17.175
G2 X7.274 Y78.279 I33.975 J-20.576
X8.748 Y80.368 I100.534 J-69.413
X10.28 Y82.415 I60.866 J-43.934
X11.931 Y84.496 I91.176 J-70.657
X13.647 Y86.526 I52.994 J-43.057
X15.068 Y88.099 I59.632 J-52.431
G1 X16.144 Y89.236
G2 X20.47 Y93.392 I57.135 J-55.141
X28.164 Y99.267 I42.715 J-47.963
X32.736 Y102.007 I39.31 J-60.433
X33.272 Y102.277 I4.286 J-7.822
G3 X33.809 Y102.544 I-4.587 J9.896
X34.157 Y103.124 I-0.308 J0.58
G1 Y104.756
G2 X34.356 Y104.956 I0.2 J0
G1 X36.352 Y104.966
G2 X36.553 Y104.766 I0.001 J-0.2
G1 Y101.653
G2 X36.207 Y101.088 I-0.634 J0
X35.016 Y100.497 I-28.946 J56.853
G3 X33.837 Y99.885 I10.066 J-20.834
X31.607 Y98.599 I39.9 J-71.744
X29.427 Y97.23 I30.185 J-50.481
X15.399 Y84.889 I37.97 J-57.304
X13.737 Y82.917 I78.978 J-68.291
X12.135 Y80.896 I54.847 J-45.107
X10.647 Y78.903 I92.668 J-70.731
X9.214 Y76.871 I61.297 J-44.75
G1 X5.784 Y71.712
G3 X3.61 Y68.175 I35.99 J-24.557
X1.754 Y64.462 I45.426 J-25.02
