(1001)
(T1  D=3 CR=0 - ZMIN=-18.5 - flat end mill)
G90 G94
G17
G21

(2D Contour1 3)
T1
S500 M3
G54
M8
G0 X30 Y104.869
Z6
Z2
G1 Z1.4 F300
Z-0.4
X180 F1000
G2 X211.5 Y73.369 I0 J-31.5
G1 Y65
G2 X145 Y-1.5 I-66.5 J0
G1 X30
G2 X-1.5 Y30 I0 J31.5
G1 Y73.369
G2 X30 Y104.869 I31.5 J0
G1 Z-0.8 F300
X180 F1000
G2 X211.5 Y73.369 I0 J-31.5
G1 Y65
G2 X145 Y-1.5 I-66.5 J0
G1 X30
G2 X-1.5 Y30 I0 J31.5
G1 Y73.369
G2 X30 Y104.869 I31.5 J0
G1 Z-1.2 F300
X180 F1000
G2 X211.5 Y73.369 I0 J-31.5
G1 Y65
G2 X145 Y-1.5 I-66.5 J0
G1 X30
G2 X-1.5 Y30 I0 J31.5
G1 Y73.369
G2 X30 Y104.869 I31.5 J0
G1 Z-1.6 F300
X180 F1000
G2 X211.5 Y73.369 I0 J-31.5
G1 Y65
G2 X145 Y-1.5 I-66.5 J0
G1 X30
G2 X-1.5 Y30 I0 J31.5
G1 Y73.369
G2 X30 Y104.869 I31.5 J0
G1 Z-2 F300
X180 F1000
G2 X211.5 Y73.369 I0 J-31.5
G1 Y65
G2 X145 Y-1.5 I-66.5 J0
G1 X30
G2 X-1.5 Y30 I0 J31.5
G1 Y73.369
G2 X30 Y104.869 I31.5 J0
G1 Z-2.4 F300
X180 F1000
G2 X211.5 Y73.369 I0 J-31.5
G1 Y65
G2 X145 Y-1.5 I-66.5 J0
G1 X30
G2 X-1.5 Y30 I0 J31.5
G1 Y73.369
G2 X30 Y104.869 I31.5 J0
G1 Z-2.8 F300
X180 F1000
G2 X211.5 Y73.369 I0 J-31.5
G1 Y65
G2 X145 Y-1.5 I-66.5 J0
G1 X30
G2 X-1.5 Y30 I0 J31.5
G1 Y73.369
G2 X30 Y104.869 I31.5 J0
G1 Z-3.2 F300
X180 F1000
G2 X211.5 Y73.369 I0 J-31.5
G1 Y65
G2 X145 Y-1.5 I-66.5 J0
G1 X30
G2 X-1.5 Y30 I0 J31.5
G1 Y73.369
G2 X30 Y104.869 I31.5 J0
G1 Z-3.6 F300
X180 F1000
G2 X211.5 Y73.369 I0 J-31.5
G1 Y65
G2 X145 Y-1.5 I-66.5 J0
G1 X30
G2 X-1.5 Y30 I0 J31.5
G1 Y73.369
G2 X30 Y104.869 I31.5 J0
G1 Z-4 F300
X180 F1000
G2 X211.5 Y73.369 I0 J-31.5
G1 Y65
G2 X145 Y-1.5 I-66.5 J0
G1 X30
G2 X-1.5 Y30 I0 J31.5
G1 Y73.369
G2 X30 Y104.869 I31.5 J0
G1 Z-4.4 F300
X180 F1000
G2 X211.5 Y73.369 I0 J-31.5
G1 Y65
G2 X145 Y-1.5 I-66.5 J0
G1 X30
G2 X-1.5 Y30 I0 J31.5
G1 Y73.369
G2 X30 Y104.869 I31.5 J0
G1 Z-4.8 F300
X180 F1000
G2 X211.5 Y73.369 I0 J-31.5
G1 Y65
G2 X145 Y-1.5 I-66.5 J0
G1 X30
G2 X-1.5 Y30 I0 J31.5
G1 Y73.369
G2 X30 Y104.869 I31.5 J0
G1 Z-5.2 F300
X180 F1000
G2 X211.5 Y73.369 I0 J-31.5
G1 Y65
G2 X145 Y-1.5 I-66.5 J0
G1 X30
G2 X-1.5 Y30 I0 J31.5
G1 Y73.369
G2 X30 Y104.869 I31.5 J0
G1 Z-5.6 F300
X180 F1000
G2 X211.5 Y73.369 I0 J-31.5
G1 Y65
G2 X145 Y-1.5 I-66.5 J0
G1 X30
G2 X-1.5 Y30 I0 J31.5
G1 Y73.369
G2 X30 Y104.869 I31.5 J0
G1 Z-6 F300
X180 F1000
G2 X211.5 Y73.369 I0 J-31.5
G1 Y65
G2 X145 Y-1.5 I-66.5 J0
G1 X30
G2 X-1.5 Y30 I0 J31.5
G1 Y73.369
G2 X30 Y104.869 I31.5 J0
G1 Z-6.4 F300
X180 F1000
G2 X211.5 Y73.369 I0 J-31.5
G1 Y65
G2 X145 Y-1.5 I-66.5 J0
G1 X30
G2 X-1.5 Y30 I0 J31.5
G1 Y73.369
G2 X30 Y104.869 I31.5 J0
G1 Z-6.8 F300
X180 F1000
G2 X211.5 Y73.369 I0 J-31.5
G1 Y65
G2 X145 Y-1.5 I-66.5 J0
G1 X30
G2 X-1.5 Y30 I0 J31.5
G1 Y73.369
G2 X30 Y104.869 I31.5 J0
G1 Z-7.2 F300
X180 F1000
G2 X211.5 Y73.369 I0 J-31.5
G1 Y65
G2 X145 Y-1.5 I-66.5 J0
G1 X30
G2 X-1.5 Y30 I0 J31.5
G1 Y73.369
G2 X30 Y104.869 I31.5 J0
G1 Z-7.6 F300
X180 F1000
G2 X211.5 Y73.369 I0 J-31.5
G1 Y65
G2 X145 Y-1.5 I-66.5 J0
G1 X30
G2 X-1.5 Y30 I0 J31.5
G1 Y73.369
G2 X30 Y104.869 I31.5 J0
G1 Z-8 F300
X180 F1000
G2 X211.5 Y73.369 I0 J-31.5
G1 Y65
G2 X145 Y-1.5 I-66.5 J0
G1 X30
G2 X-1.5 Y30 I0 J31.5
G1 Y73.369
G2 X30 Y104.869 I31.5 J0
G1 Z-8.4 F300
X180 F1000
G2 X211.5 Y73.369 I0 J-31.5
G1 Y65
G2 X145 Y-1.5 I-66.5 J0
G1 X30
G2 X-1.5 Y30 I0 J31.5
G1 Y73.369
G2 X30 Y104.869 I31.5 J0
G1 Z-8.8 F300
X180 F1000
G2 X211.5 Y73.369 I0 J-31.5
G1 Y65
G2 X145 Y-1.5 I-66.5 J0
G1 X30
G2 X-1.5 Y30 I0 J31.5
G1 Y73.369
G2 X30 Y104.869 I31.5 J0
G1 Z-9.2 F300
X180 F1000
G2 X211.5 Y73.369 I0 J-31.5
G1 Y65
G2 X145 Y-1.5 I-66.5 J0
G1 X30
G2 X-1.5 Y30 I0 J31.5
G1 Y73.369
G2 X30 Y104.869 I31.5 J0
G1 Z-9.6 F300
X180 F1000
G2 X211.5 Y73.369 I0 J-31.5
G1 Y65
G2 X145 Y-1.5 I-66.5 J0
G1 X30
G2 X-1.5 Y30 I0 J31.5
G1 Y73.369
G2 X30 Y104.869 I31.5 J0
G1 Z-10 F300
X180 F1000
G2 X211.5 Y73.369 I0 J-31.5
G1 Y65
G2 X145 Y-1.5 I-66.5 J0
G1 X30
G2 X-1.5 Y30 I0 J31.5
G1 Y73.369
G2 X30 Y104.869 I31.5 J0
G1 Z-10.4 F300
X180 F1000
G2 X211.5 Y73.369 I0 J-31.5
G1 Y65
G2 X145 Y-1.5 I-66.5 J0
G1 X30
G2 X-1.5 Y30 I0 J31.5
G1 Y73.369
G2 X30 Y104.869 I31.5 J0
G1 Z-10.8 F300
X180 F1000
G2 X211.5 Y73.369 I0 J-31.5
G1 Y65
G2 X145 Y-1.5 I-66.5 J0
G1 X30
G2 X-1.5 Y30 I0 J31.5
G1 Y73.369
G2 X30 Y104.869 I31.5 J0
G1 Z-11.2 F300
X180 F1000
G2 X211.5 Y73.369 I0 J-31.5
G1 Y65
G2 X145 Y-1.5 I-66.5 J0
G1 X30
G2 X-1.5 Y30 I0 J31.5
G1 Y73.369
G2 X30 Y104.869 I31.5 J0
G1 Z-11.6 F300
X180 F1000
G2 X211.5 Y73.369 I0 J-31.5
G1 Y65
G2 X145 Y-1.5 I-66.5 J0
G1 X30
G2 X-1.5 Y30 I0 J31.5
G1 Y73.369
G2 X30 Y104.869 I31.5 J0
G1 Z-12 F300
X180 F1000
G2 X211.5 Y73.369 I0 J-31.5
G1 Y65
G2 X145 Y-1.5 I-66.5 J0
G1 X30
G2 X-1.5 Y30 I0 J31.5
G1 Y73.369
G2 X30 Y104.869 I31.5 J0
G1 Z-12.4 F300
X180 F1000
G2 X211.5 Y73.369 I0 J-31.5
G1 Y65
G2 X145 Y-1.5 I-66.5 J0
G1 X30
G2 X-1.5 Y30 I0 J31.5
G1 Y73.369
G2 X30 Y104.869 I31.5 J0
G1 Z-12.8 F300
X180 F1000
G2 X211.5 Y73.369 I0 J-31.5
G1 Y65
G2 X145 Y-1.5 I-66.5 J0
G1 X30
G2 X-1.5 Y30 I0 J31.5
G1 Y73.369
G2 X30 Y104.869 I31.5 J0
G1 Z-13.2 F300
X180 F1000
G2 X211.5 Y73.369 I0 J-31.5
G1 Y65
G2 X145 Y-1.5 I-66.5 J0
G1 X30
G2 X-1.5 Y30 I0 J31.5
G1 Y73.369
G2 X30 Y104.869 I31.5 J0
G1 Z-13.6 F300
X180 F1000
G2 X211.5 Y73.369 I0 J-31.5
G1 Y65
G2 X145 Y-1.5 I-66.5 J0
G1 X30
G2 X-1.5 Y30 I0 J31.5
G1 Y73.369
G2 X30 Y104.869 I31.5 J0
G1 Z-14 F300
X180 F1000
G2 X211.5 Y73.369 I0 J-31.5
G1 Y65
G2 X145 Y-1.5 I-66.5 J0
G1 X30
G2 X-1.5 Y30 I0 J31.5
G1 Y73.369
G2 X30 Y104.869 I31.5 J0
G1 Z-14.4 F300
X180 F1000
G2 X211.5 Y73.369 I0 J-31.5
G1 Y65
G2 X145 Y-1.5 I-66.5 J0
G1 X30
G2 X-1.5 Y30 I0 J31.5
G1 Y73.369
G2 X30 Y104.869 I31.5 J0
G1 Z-14.8 F300
X180 F1000
G2 X211.5 Y73.369 I0 J-31.5
G1 Y65
G2 X145 Y-1.5 I-66.5 J0
G1 X30
G2 X-1.5 Y30 I0 J31.5
G1 Y73.369
G2 X30 Y104.869 I31.5 J0
G1 Z-15.2 F300
X180 F1000
G2 X211.5 Y73.369 I0 J-31.5
G1 Y65
G2 X145 Y-1.5 I-66.5 J0
G1 X30
G2 X-1.5 Y30 I0 J31.5
G1 Y73.369
G2 X30 Y104.869 I31.5 J0
G1 Z-15.6 F300
X180 F1000
G2 X211.5 Y73.369 I0 J-31.5
G1 Y65
G2 X145 Y-1.5 I-66.5 J0
G1 X30
G2 X-1.5 Y30 I0 J31.5
G1 Y73.369
G2 X30 Y104.869 I31.5 J0
G1 Z-16 F300
X180 F1000
G2 X211.5 Y73.369 I0 J-31.5
G1 Y65
G2 X145 Y-1.5 I-66.5 J0
G1 X30
G2 X-1.5 Y30 I0 J31.5
G1 Y73.369
G2 X30 Y104.869 I31.5 J0
G1 Z-16.4 F300
X180 F1000
G2 X211.5 Y73.369 I0 J-31.5
G1 Y65
G2 X145 Y-1.5 I-66.5 J0
G1 X30
G2 X-1.5 Y30 I0 J31.5
G1 Y73.369
G2 X30 Y104.869 I31.5 J0
G1 Z-16.8 F300
X180 F1000
G2 X211.5 Y73.369 I0 J-31.5
G1 Y65
G2 X145 Y-1.5 I-66.5 J0
G1 X30
G2 X-1.5 Y30 I0 J31.5
G1 Y73.369
G2 X30 Y104.869 I31.5 J0
G1 Z-17.2 F300
X39.5 F1000
Z-17
X45.5
Z-17.2 F300
X64.5 F1000
Z-17
X70.5
Z-17.2 F300
X89.5 F1000
Z-17
X95.5
Z-17.2 F300
X114.5 F1000
Z-17
X120.5
Z-17.2 F300
X139.5 F1000
Z-17
X145.5
Z-17.2 F300
X164.5 F1000
Z-17
X170.5
Z-17.2 F300
X180 F1000
G2 X200.051 Y97.663 I0 J-31.5
G1 Z-17
G2 X204.294 Y93.42 I-20.051 J-24.294
G1 Z-17.2 F300
G2 X211.5 Y73.369 I-24.294 J-20.051 F1000
G1 Y65
G2 X210.741 Y54.982 I-66.5 J0
G1 Z-17
G2 X209.571 Y49.097 I-65.741 J10.018
G1 Z-17.2 F300
G2 X201.903 Y30.587 I-64.571 J15.903 F1000
G1 Z-17
G2 X198.57 Y25.598 I-56.903 J34.413
G1 Z-17.2 F300
G2 X184.402 Y11.43 I-53.57 J39.402 F1000
G1 Z-17
G2 X179.413 Y8.097 I-39.402 J53.57
G1 Z-17.2 F300
G2 X160.903 Y0.429 I-34.413 J56.903 F1000
G1 Z-17
G2 X155.018 Y-0.741 I-15.903 J64.571
G1 Z-17.2 F300
G2 X145 Y-1.5 I-10.018 J65.741 F1000
G1 X133.625
Z-17
X127.625
Z-17.2 F300
X104.875 F1000
Z-17
X98.875
Z-17.2 F300
X76.125 F1000
Z-17
X70.125
Z-17.2 F300
X47.375 F1000
Z-17
X41.375
Z-17.2 F300
X30 F1000
G2 X9.949 Y5.706 I0 J31.5
G1 Z-17
G2 X5.706 Y9.949 I20.051 J24.294
G1 Z-17.2 F300
G2 X-1.5 Y30 I24.294 J20.051 F1000
G1 Y48.685
Z-17
Y54.685
Z-17.2 F300
Y73.369 F1000
G2 X5.706 Y93.42 I31.5 J0
G1 Z-17
G2 X9.949 Y97.663 I24.294 J-20.051
G1 Z-17.2 F300
G2 X30 Y104.869 I20.051 J-24.294 F1000
G1 Z-17.6 F300
X39.5 F1000
Z-17
X45.5
Z-17.6 F300
X64.5 F1000
Z-17
X70.5
Z-17.6 F300
X89.5 F1000
Z-17
X95.5
Z-17.6 F300
X114.5 F1000
Z-17
X120.5
Z-17.6 F300
X139.5 F1000
Z-17
X145.5
Z-17.6 F300
X164.5 F1000
Z-17
X170.5
Z-17.6 F300
X180 F1000
G2 X200.051 Y97.663 I0 J-31.5
G1 Z-17
G2 X204.294 Y93.42 I-20.051 J-24.294
G1 Z-17.6 F300
G2 X211.5 Y73.369 I-24.294 J-20.051 F1000
G1 Y65
G2 X210.741 Y54.982 I-66.5 J0
G1 Z-17
G2 X209.571 Y49.097 I-65.741 J10.018
G1 Z-17.6 F300
G2 X201.903 Y30.587 I-64.571 J15.903 F1000
G1 Z-17
G2 X198.57 Y25.598 I-56.903 J34.413
G1 Z-17.6 F300
G2 X184.402 Y11.43 I-53.57 J39.402 F1000
G1 Z-17
G2 X179.413 Y8.097 I-39.402 J53.57
G1 Z-17.6 F300
G2 X160.903 Y0.429 I-34.413 J56.903 F1000
G1 Z-17
G2 X155.018 Y-0.741 I-15.903 J64.571
G1 Z-17.6 F300
G2 X145 Y-1.5 I-10.018 J65.741 F1000
G1 X133.625
Z-17
X127.625
Z-17.6 F300
X104.875 F1000
Z-17
X98.875
Z-17.6 F300
X76.125 F1000
Z-17
X70.125
Z-17.6 F300
X47.375 F1000
Z-17
X41.375
Z-17.6 F300
X30 F1000
G2 X9.949 Y5.706 I0 J31.5
G1 Z-17
G2 X5.706 Y9.949 I20.051 J24.294
G1 Z-17.6 F300
G2 X-1.5 Y30 I24.294 J20.051 F1000
G1 Y48.685
Z-17
Y54.685
Z-17.6 F300
Y73.369 F1000
G2 X5.706 Y93.42 I31.5 J0
G1 Z-17
G2 X9.949 Y97.663 I24.294 J-20.051
G1 Z-17.6 F300
G2 X30 Y104.869 I20.051 J-24.294 F1000
G1 Z-18 F300
X39.5 F1000
Z-17
X45.5
Z-18 F300
X64.5 F1000
Z-17
X70.5
Z-18 F300
X89.5 F1000
Z-17
X95.5
Z-18 F300
X114.5 F1000
Z-17
X120.5
Z-18 F300
X139.5 F1000
Z-17
X145.5
Z-18 F300
X164.5 F1000
Z-17
X170.5
Z-18 F300
X180 F1000
G2 X200.051 Y97.663 I0 J-31.5
G1 Z-17
G2 X204.294 Y93.42 I-20.051 J-24.294
G1 Z-18 F300
G2 X211.5 Y73.369 I-24.294 J-20.051 F1000
G1 Y65
G2 X210.741 Y54.982 I-66.5 J0
G1 Z-17
G2 X209.571 Y49.097 I-65.741 J10.018
G1 Z-18 F300
G2 X201.903 Y30.587 I-64.571 J15.903 F1000
G1 Z-17
G2 X198.57 Y25.598 I-56.903 J34.413
G1 Z-18 F300
G2 X184.402 Y11.43 I-53.57 J39.402 F1000
G1 Z-17
G2 X179.413 Y8.097 I-39.402 J53.57
G1 Z-18 F300
G2 X160.903 Y0.429 I-34.413 J56.903 F1000
G1 Z-17
G2 X155.018 Y-0.741 I-15.903 J64.571
G1 Z-18 F300
G2 X145 Y-1.5 I-10.018 J65.741 F1000
G1 X133.625
Z-17
X127.625
Z-18 F300
X104.875 F1000
Z-17
X98.875
Z-18 F300
X76.125 F1000
Z-17
X70.125
Z-18 F300
X47.375 F1000
Z-17
X41.375
Z-18 F300
X30 F1000
G2 X9.949 Y5.706 I0 J31.5
G1 Z-17
G2 X5.706 Y9.949 I20.051 J24.294
G1 Z-18 F300
G2 X-1.5 Y30 I24.294 J20.051 F1000
G1 Y48.685
Z-17
Y54.685
Z-18 F300
Y73.369 F1000
G2 X5.706 Y93.42 I31.5 J0
G1 Z-17
G2 X9.949 Y97.663 I24.294 J-20.051
G1 Z-18 F300
G2 X30 Y104.869 I20.051 J-24.294 F1000
G1 Z-18.4 F300
X39.5 F1000
Z-17
X45.5
Z-18.4 F300
X64.5 F1000
Z-17
X70.5
Z-18.4 F300
X89.5 F1000
Z-17
X95.5
Z-18.4 F300
X114.5 F1000
Z-17
X120.5
Z-18.4 F300
X139.5 F1000
Z-17
X145.5
Z-18.4 F300
X164.5 F1000
Z-17
X170.5
Z-18.4 F300
X180 F1000
G2 X200.051 Y97.663 I0 J-31.5
G1 Z-17
G2 X204.294 Y93.42 I-20.051 J-24.294
G1 Z-18.4 F300
G2 X211.5 Y73.369 I-24.294 J-20.051 F1000
G1 Y65
G2 X210.741 Y54.982 I-66.5 J0
G1 Z-17
G2 X209.571 Y49.097 I-65.741 J10.018
G1 Z-18.4 F300
G2 X201.903 Y30.587 I-64.571 J15.903 F1000
G1 Z-17
G2 X198.57 Y25.598 I-56.903 J34.413
G1 Z-18.4 F300
G2 X184.402 Y11.43 I-53.57 J39.402 F1000
G1 Z-17
G2 X179.413 Y8.097 I-39.402 J53.57
G1 Z-18.4 F300
G2 X160.903 Y0.429 I-34.413 J56.903 F1000
G1 Z-17
G2 X155.018 Y-0.741 I-15.903 J64.571
G1 Z-18.4 F300
G2 X145 Y-1.5 I-10.018 J65.741 F1000
G1 X133.625
Z-17
X127.625
Z-18.4 F300
X104.875 F1000
Z-17
X98.875
Z-18.4 F300
X76.125 F1000
Z-17
X70.125
Z-18.4 F300
X47.375 F1000
Z-17
X41.375
Z-18.4 F300
X30 F1000
G2 X9.949 Y5.706 I0 J31.5
G1 Z-17
G2 X5.706 Y9.949 I20.051 J24.294
G1 Z-18.4 F300
G2 X-1.5 Y30 I24.294 J20.051 F1000
G1 Y48.685
Z-17
Y54.685
Z-18.4 F300
Y73.369 F1000
G2 X5.706 Y93.42 I31.5 J0
G1 Z-17
G2 X9.949 Y97.663 I24.294 J-20.051
G1 Z-18.4 F300
G2 X30 Y104.869 I20.051 J-24.294 F1000
G1 Z-18.5 F300
X39.5 F1000
Z-17
X45.5
Z-18.5 F300
X64.5 F1000
Z-17
X70.5
Z-18.5 F300
X89.5 F1000
Z-17
X95.5
Z-18.5 F300
X114.5 F1000
Z-17
X120.5
Z-18.5 F300
X139.5 F1000
Z-17
X145.5
Z-18.5 F300
X164.5 F1000
Z-17
X170.5
Z-18.5 F300
X180 F1000
G2 X200.051 Y97.663 I0 J-31.5
G1 Z-17
G2 X204.294 Y93.42 I-20.051 J-24.294
G1 Z-18.5 F300
G2 X211.5 Y73.369 I-24.294 J-20.051 F1000
G1 Y65
G2 X210.741 Y54.982 I-66.5 J0
G1 Z-17
G2 X209.571 Y49.097 I-65.741 J10.018
G1 Z-18.5 F300
G2 X201.903 Y30.587 I-64.571 J15.903 F1000
G1 Z-17
G2 X198.57 Y25.598 I-56.903 J34.413
G1 Z-18.5 F300
G2 X184.402 Y11.43 I-53.57 J39.402 F1000
G1 Z-17
G2 X179.413 Y8.097 I-39.402 J53.57
G1 Z-18.5 F300
G2 X160.903 Y0.429 I-34.413 J56.903 F1000
G1 Z-17
G2 X155.018 Y-0.741 I-15.903 J64.571
G1 Z-18.5 F300
G2 X145 Y-1.5 I-10.018 J65.741 F1000
G1 X133.625
Z-17
X127.625
Z-18.5 F300
X104.875 F1000
Z-17
X98.875
Z-18.5 F300
X76.125 F1000
Z-17
X70.125
Z-18.5 F300
X47.375 F1000
Z-17
X41.375
Z-18.5 F300
X30 F1000
G2 X9.949 Y5.706 I0 J31.5
G1 Z-17
G2 X5.706 Y9.949 I20.051 J24.294
G1 Z-18.5 F300
G2 X-1.5 Y30 I24.294 J20.051 F1000
G1 Y48.685
Z-17
Y54.685
Z-18.5 F300
Y73.369 F1000
G2 X5.706 Y93.42 I31.5 J0
G1 Z-17
G2 X9.949 Y97.663 I24.294 J-20.051
G1 Z-18.5 F300
G2 X30 Y104.869 I20.051 J-24.294 F1000
G0 Z6
M9
M5
M30
