(1001)
(T4  D=3 CR=0 - ZMIN=-18.5 - flat end mill)
G90 G94
G17
G21

(Drill2)
T4
S15000 M3
G54
M8
G0 X167.927 Y88.162
Z6
Z4
Z-6.4
G1 Z-10.4 F333.3
G0 Z-6.4
Z-8.4
G1 Z-12.4 F333.3
G0 Z-6.4
Z-10.4
G1 Z-14.4 F333.3
G0 Z-6.4
Z-12.4
G1 Z-16.4 F333.3
G0 Z-6.4
Z-14.4
G1 Z-18.4 F333.3
G0 Z-6.4
Z-16.4
G1 Z-18.5 F333.3
G0 Z4
X173.583 Y54.181
Z-1.9
G1 Z-5.9 F333.3
G0 Z-1.9
Z-3.9
G1 Z-7.9 F333.3
G0 Z-1.9
Z-5.9
G1 Z-9.9 F333.3
G0 Z-1.9
Z-7.9
G1 Z-11.9 F333.3
G0 Z-1.9
Z-9.9
G1 Z-13.9 F333.3
G0 Z-1.9
Z-11.9
G1 Z-15.9 F333.3
G0 Z-1.9
Z-13.9
G1 Z-17.9 F333.3
G0 Z-1.9
Z-15.9
G1 Z-18.5 F333.3
G0 Z4
Y49.081
Z-1.9
G1 Z-5.9 F333.3
G0 Z-1.9
Z-3.9
G1 Z-7.9 F333.3
G0 Z-1.9
Z-5.9
G1 Z-9.9 F333.3
G0 Z-1.9
Z-7.9
G1 Z-11.9 F333.3
G0 Z-1.9
Z-9.9
G1 Z-13.9 F333.3
G0 Z-1.9
Z-11.9
G1 Z-15.9 F333.3
G0 Z-1.9
Z-13.9
G1 Z-17.9 F333.3
G0 Z-1.9
Z-15.9
G1 Z-18.5 F333.3
G0 Z4
X155.557
Z-1.9
G1 Z-5.9 F333.3
G0 Z-1.9
Z-3.9
G1 Z-7.9 F333.3
G0 Z-1.9
Z-5.9
G1 Z-9.9 F333.3
G0 Z-1.9
Z-7.9
G1 Z-11.9 F333.3
G0 Z-1.9
Z-9.9
G1 Z-13.9 F333.3
G0 Z-1.9
Z-11.9
G1 Z-15.9 F333.3
G0 Z-1.9
Z-13.9
G1 Z-17.9 F333.3
G0 Z-1.9
Z-15.9
G1 Z-18.5 F333.3
G0 Z4
Y54.181
Z-1.9
G1 Z-5.9 F333.3
G0 Z-1.9
Z-3.9
G1 Z-7.9 F333.3
G0 Z-1.9
Z-5.9
G1 Z-9.9 F333.3
G0 Z-1.9
Z-7.9
G1 Z-11.9 F333.3
G0 Z-1.9
Z-9.9
G1 Z-13.9 F333.3
G0 Z-1.9
Z-11.9
G1 Z-15.9 F333.3
G0 Z-1.9
Z-13.9
G1 Z-17.9 F333.3
G0 Z-1.9
Z-15.9
G1 Z-18.5 F333.3
G0 Z4
X137.557
Z-1.9
G1 Z-5.9 F333.3
G0 Z-1.9
Z-3.9
G1 Z-7.9 F333.3
G0 Z-1.9
Z-5.9
G1 Z-9.9 F333.3
G0 Z-1.9
Z-7.9
G1 Z-11.9 F333.3
G0 Z-1.9
Z-9.9
G1 Z-13.9 F333.3
G0 Z-1.9
Z-11.9
G1 Z-15.9 F333.3
G0 Z-1.9
Z-13.9
G1 Z-17.9 F333.3
G0 Z-1.9
Z-15.9
G1 Z-18.5 F333.3
G0 Z4
Y49.081
Z-1.9
G1 Z-5.9 F333.3
G0 Z-1.9
Z-3.9
G1 Z-7.9 F333.3
G0 Z-1.9
Z-5.9
G1 Z-9.9 F333.3
G0 Z-1.9
Z-7.9
G1 Z-11.9 F333.3
G0 Z-1.9
Z-9.9
G1 Z-13.9 F333.3
G0 Z-1.9
Z-11.9
G1 Z-15.9 F333.3
G0 Z-1.9
Z-13.9
G1 Z-17.9 F333.3
G0 Z-1.9
Z-15.9
G1 Z-18.5 F333.3
G0 Z4
X158.165 Y12.342
Z-6.4
G1 Z-10.4 F333.3
G0 Z-6.4
Z-8.4
G1 Z-12.4 F333.3
G0 Z-6.4
Z-10.4
G1 Z-14.4 F333.3
G0 Z-6.4
Z-12.4
G1 Z-16.4 F333.3
G0 Z-6.4
Z-14.4
G1 Z-18.4 F333.3
G0 Z-6.4
Z-16.4
G1 Z-18.5 F333.3
G0 Z4
X16.089 Y12.529
Z-6.4
G1 Z-10.4 F333.3
G0 Z-6.4
Z-8.4
G1 Z-12.4 F333.3
G0 Z-6.4
Z-10.4
G1 Z-14.4 F333.3
G0 Z-6.4
Z-12.4
G1 Z-16.4 F333.3
G0 Z-6.4
Z-14.4
G1 Z-18.4 F333.3
G0 Z-6.4
Z-16.4
G1 Z-18.5 F333.3
G0 Z4
X22.543 Y29.166
Z-1.9
G1 Z-5.9 F333.3
G0 Z-1.9
Z-3.9
G1 Z-7.9 F333.3
G0 Z-1.9
Z-5.9
G1 Z-9.9 F333.3
G0 Z-1.9
Z-7.9
G1 Z-11.9 F333.3
G0 Z-1.9
Z-9.9
G1 Z-13.9 F333.3
G0 Z-1.9
Z-11.9
G1 Z-15.9 F333.3
G0 Z-1.9
Z-13.9
G1 Z-17.9 F333.3
G0 Z-1.9
Z-15.9
G1 Z-18.5 F333.3
G0 Z4
Y34.266
Z-1.9
G1 Z-5.9 F333.3
G0 Z-1.9
Z-3.9
G1 Z-7.9 F333.3
G0 Z-1.9
Z-5.9
G1 Z-9.9 F333.3
G0 Z-1.9
Z-7.9
G1 Z-11.9 F333.3
G0 Z-1.9
Z-9.9
G1 Z-13.9 F333.3
G0 Z-1.9
Z-11.9
G1 Z-15.9 F333.3
G0 Z-1.9
Z-13.9
G1 Z-17.9 F333.3
G0 Z-1.9
Z-15.9
G1 Z-18.5 F333.3
G0 Z4
X37.6 Y34.173
Z-1.9
G1 Z-5.9 F333.3
G0 Z-1.9
Z-3.9
G1 Z-7.9 F333.3
G0 Z-1.9
Z-5.9
G1 Z-9.9 F333.3
G0 Z-1.9
Z-7.9
G1 Z-11.9 F333.3
G0 Z-1.9
Z-9.9
G1 Z-13.9 F333.3
G0 Z-1.9
Z-11.9
G1 Z-15.9 F333.3
G0 Z-1.9
Z-13.9
G1 Z-17.9 F333.3
G0 Z-1.9
Z-15.9
G1 Z-18.5 F333.3
G0 Z4
Y29.073
Z-1.9
G1 Z-5.9 F333.3
G0 Z-1.9
Z-3.9
G1 Z-7.9 F333.3
G0 Z-1.9
Z-5.9
G1 Z-9.9 F333.3
G0 Z-1.9
Z-7.9
G1 Z-11.9 F333.3
G0 Z-1.9
Z-9.9
G1 Z-13.9 F333.3
G0 Z-1.9
Z-11.9
G1 Z-15.9 F333.3
G0 Z-1.9
Z-13.9
G1 Z-17.9 F333.3
G0 Z-1.9
Z-15.9
G1 Z-18.5 F333.3
G0 Z4
X58.658 Y55.075
Z-1.9
G1 Z-5.9 F333.3
G0 Z-1.9
Z-3.9
G1 Z-7.9 F333.3
G0 Z-1.9
Z-5.9
G1 Z-9.9 F333.3
G0 Z-1.9
Z-7.9
G1 Z-11.9 F333.3
G0 Z-1.9
Z-9.9
G1 Z-13.9 F333.3
G0 Z-1.9
Z-11.9
G1 Z-15.9 F333.3
G0 Z-1.9
Z-13.9
G1 Z-17.9 F333.3
G0 Z-1.9
Z-15.9
G1 Z-18.5 F333.3
G0 Z4
Y60.175
Z-1.9
G1 Z-5.9 F333.3
G0 Z-1.9
Z-3.9
G1 Z-7.9 F333.3
G0 Z-1.9
Z-5.9
G1 Z-9.9 F333.3
G0 Z-1.9
Z-7.9
G1 Z-11.9 F333.3
G0 Z-1.9
Z-9.9
G1 Z-13.9 F333.3
G0 Z-1.9
Z-11.9
G1 Z-15.9 F333.3
G0 Z-1.9
Z-13.9
G1 Z-17.9 F333.3
G0 Z-1.9
Z-15.9
G1 Z-18.5 F333.3
G0 Z4
X16.134 Y88.158
Z-6.4
G1 Z-10.4 F333.3
G0 Z-6.4
Z-8.4
G1 Z-12.4 F333.3
G0 Z-6.4
Z-10.4
G1 Z-14.4 F333.3
G0 Z-6.4
Z-12.4
G1 Z-16.4 F333.3
G0 Z-6.4
Z-14.4
G1 Z-18.4 F333.3
G0 Z-6.4
Z-16.4
G1 Z-18.5 F333.3
G0 Z4
Z6
M9
M5
M30
