(1001)
(T1  D=1.5 CR=0 - ZMIN=-6 - flat end mill)
G90 G94
G17
G21

(Pocket5)
T1
S500 M3
G54
M8
G0 X120.275 Y-41.702
Z6
Z2
G1 Z1.05 F200
X122.026 Z0.895
X122.051 Y-41.695
X122.069 Y-41.677
X122.076 Y-41.652
X122.069 Y-41.627
X122.051 Y-41.609
X122.026 Y-41.602
X116.544 Z0.409
X116.519 Y-41.609
X116.5 Y-41.627
X116.494 Y-41.652
X116.5 Y-41.677
X116.519 Y-41.695
X116.544 Y-41.702
X122.026 Z-0.077
X122.051 Y-41.695
X122.069 Y-41.677
X122.076 Y-41.652
X122.069 Y-41.627
X122.051 Y-41.609
X122.026 Y-41.602
X116.544 Z-0.564
X116.519 Y-41.609
X116.5 Y-41.627
X116.494 Y-41.652
X116.5 Y-41.677
X116.519 Y-41.695
X116.544 Y-41.702
X121.467 Z-1
X121.494 Y-41.698
X121.518 Y-41.687
X121.687 Y-41.575
X121.721 Y-41.561
X121.759 Y-41.562
X121.793 Y-41.578
X121.818 Y-41.606
X121.83 Y-41.641
X121.827 Y-41.679
X121.809 Y-41.712
X121.78 Y-41.735
X121.743 Y-41.745
X121.706 Y-41.739
X121.674 Y-41.72
X121.653 Y-41.689
X121.645 Y-41.652
G3 X121.288 Y-41.652 I-0.178 J0 F400
X121.645 Y-41.652 I0.178 J0
G1 X121.642 Y-41.627 Z-0.993 F200
X121.633 Y-41.604 Z-0.987
X121.61 Y-41.576 Z-0.95
X121.6 Y-41.568 Z-0.9
G0 Z4
X87.969 Y-90.146
Z1.05
G1 Y-90.689 Z1.002 F200
X87.975 Y-90.714
X87.994 Y-90.732
X88.019 Y-90.739
X88.044 Y-90.732
X88.062 Y-90.714
X88.069 Y-90.689
Y-85.207 Z0.516
X88.062 Y-85.182
X88.044 Y-85.163
X88.019 Y-85.157
X87.994 Y-85.163
X87.975 Y-85.182
X87.969 Y-85.207
Y-90.689 Z0.03
X87.975 Y-90.714
X87.994 Y-90.732
X88.019 Y-90.739
X88.044 Y-90.732
X88.062 Y-90.714
X88.069 Y-90.689
Y-85.207 Z-0.456
X88.062 Y-85.182
X88.044 Y-85.163
X88.019 Y-85.157
X87.994 Y-85.163
X87.975 Y-85.182
X87.969 Y-85.207
Y-90.689 Z-0.942
X87.975 Y-90.714
X87.994 Y-90.732
X88.019 Y-90.739
X88.044 Y-90.732
X88.062 Y-90.714
X88.069 Y-90.689
Y-90.039 Z-1
G3 X87.761 Y-90.039 I-0.154 J0
G1 Y-90.047 F400
G3 X88.011 Y-90.296 I0.25 J0
G1 X88.026
G3 X88.276 Y-90.047 I0 J0.25
G1 X88.274 Y-84.629
X88.27 Y-84.586
X88.265 Y-84.554
G3 X87.773 Y-84.554 I-0.246 J-0.043
G1 X87.767 Y-84.586
X87.763 Y-84.629
X87.761 Y-90.039
G2 X87.534 Y-90.414 I-0.424 J0
G3 X87.639 Y-90.84 I0.105 J-0.2
G1 X88.82
X88.818 Y-84.56
X88.762 Y-84.238
X88.634 Y-84.01
X88.288 Y-83.702
X88.257 Y-83.67
X88.229 Y-83.635
X88.179 Y-83.562
X88.152 Y-83.517
X88.132 Y-83.469
X88.094 Y-83.356
X88.079 Y-83.298
X88.074 Y-83.237
X88.069 Y-81.793
X88.07 Y-42.424
X88.072 Y-42.38
X88.08 Y-42.337
X88.107 Y-42.223
X88.124 Y-42.17
X88.148 Y-42.12
X88.201 Y-42.03
X88.233 Y-41.984
X88.271 Y-41.943
X88.36 Y-41.862
X88.408 Y-41.824
X88.462 Y-41.795
X88.576 Y-41.745
X88.624 Y-41.728
X88.673 Y-41.717
X88.75 Y-41.706
X88.803 Y-41.703
X120.173 Y-41.704
X120.216 Y-41.706
X120.259 Y-41.714
X120.365 Y-41.739
X120.416 Y-41.755
X120.464 Y-41.778
X120.554 Y-41.829
X120.596 Y-41.857
X120.634 Y-41.89
X121.06 Y-42.315
X121.403 Y-42.428
X121.763 Y-42.373
X122.054 Y-42.163
X122.091 Y-42.095
X122.222 Y-41.839
X122.224 Y-41.47
X122.056 Y-41.144
X121.763 Y-40.932
X121.403 Y-40.876
X121.059 Y-40.99
X120.621 Y-41.424
X120.575 Y-41.463
X120.522 Y-41.495
X120.414 Y-41.548
X120.368 Y-41.567
X120.32 Y-41.579
X120.243 Y-41.594
X120.173 Y-41.601
X87.969 Y-41.602
X87.968 Y-83.198
X87.965 Y-83.24
X87.959 Y-83.281
X87.933 Y-83.395
X87.917 Y-83.447
X87.893 Y-83.497
X87.843 Y-83.586
X87.811 Y-83.634
X87.772 Y-83.676
X87.612 Y-83.825
X87.607 Y-83.83
X87.402 Y-84.012
X87.275 Y-84.238
X87.219 Y-84.56
X87.217 Y-90.84
X87.639
X87.668 Y-90.835
X87.692 Y-90.819
X87.708 Y-90.795
X87.714 Y-90.766
X87.725 Y-90.005
X88.008 Y-88.64
X88.002 Y-88.589
X87.996 Y-88.578
X87.984 Y-88.575
X87.973 Y-88.58
X87.969 Y-88.591
Y-90.689 Z-1.764 F200
X87.975 Y-90.714
X87.994 Y-90.732
X88.019 Y-90.739
X88.044 Y-90.732
X88.062 Y-90.714
X88.069 Y-90.689
Y-90.039 Z-2
G3 X87.761 Y-90.039 I-0.154 J0
G1 Y-90.047 F400
G3 X88.011 Y-90.296 I0.25 J0
G1 X88.026
G3 X88.276 Y-90.047 I0 J0.25
G1 X88.274 Y-84.629
X88.27 Y-84.586
X88.265 Y-84.554
G3 X87.773 Y-84.554 I-0.246 J-0.043
G1 X87.767 Y-84.586
X87.763 Y-84.629
X87.761 Y-90.039
X87.764 Y-90.064 Z-1.993 F200
X87.774 Y-90.087 Z-1.987
X87.797 Y-90.115 Z-1.95
X87.807 Y-90.123 Z-1.9
G0 Z4
X120.275 Y-41.702
Z0.05
G1 X122.026 Z-0.105 F200
X122.051 Y-41.695
X122.069 Y-41.677
X122.076 Y-41.652
X122.069 Y-41.627
X122.051 Y-41.609
X122.026 Y-41.602
X116.544 Z-0.591
X116.519 Y-41.609
X116.5 Y-41.627
X116.494 Y-41.652
X116.5 Y-41.677
X116.519 Y-41.695
X116.544 Y-41.702
X122.026 Z-1.077
X122.051 Y-41.695
X122.069 Y-41.677
X122.076 Y-41.652
X122.069 Y-41.627
X122.051 Y-41.609
X122.026 Y-41.602
X116.544 Z-1.564
X116.519 Y-41.609
X116.5 Y-41.627
X116.494 Y-41.652
X116.5 Y-41.677
X116.519 Y-41.695
X116.544 Y-41.702
X121.467 Z-2
X121.494 Y-41.698
X121.518 Y-41.687
X121.687 Y-41.575
X121.721 Y-41.561
X121.759 Y-41.562
X121.793 Y-41.578
X121.818 Y-41.606
X121.83 Y-41.641
X121.827 Y-41.679
X121.809 Y-41.712
X121.78 Y-41.735
X121.743 Y-41.745
X121.706 Y-41.739
X121.674 Y-41.72
X121.653 Y-41.689
X121.645 Y-41.652
G3 X121.288 Y-41.652 I-0.178 J0 F400
X121.645 Y-41.652 I0.178 J0
G2 X121.805 Y-41.323 I0.418 J0
G3 X121.798 Y-40.957 I-0.141 J0.18
G1 X121.763 Y-40.932
X121.403 Y-40.876
X121.059 Y-40.99
X120.621 Y-41.424
X120.575 Y-41.463
X120.522 Y-41.495
X120.414 Y-41.548
X120.368 Y-41.567
X120.32 Y-41.579
X120.243 Y-41.594
X120.173 Y-41.601
X87.969 Y-41.602
X87.968 Y-83.198
X87.965 Y-83.24
X87.959 Y-83.281
X87.933 Y-83.395
X87.917 Y-83.447
X87.893 Y-83.497
X87.843 Y-83.586
X87.811 Y-83.634
X87.772 Y-83.676
X87.612 Y-83.825
X87.607 Y-83.83
X87.402 Y-84.012
X87.275 Y-84.238
X87.219 Y-84.56
X87.217 Y-90.84
X88.82
X88.818 Y-84.56
X88.762 Y-84.238
X88.634 Y-84.01
X88.288 Y-83.702
X88.257 Y-83.67
X88.229 Y-83.635
X88.179 Y-83.562
X88.152 Y-83.517
X88.132 Y-83.469
X88.094 Y-83.356
X88.079 Y-83.298
X88.074 Y-83.237
X88.069 Y-81.793
X88.07 Y-42.424
X88.072 Y-42.38
X88.08 Y-42.337
X88.107 Y-42.223
X88.124 Y-42.17
X88.148 Y-42.12
X88.201 Y-42.03
X88.233 Y-41.984
X88.271 Y-41.943
X88.36 Y-41.862
X88.408 Y-41.824
X88.462 Y-41.795
X88.576 Y-41.745
X88.624 Y-41.728
X88.673 Y-41.717
X88.75 Y-41.706
X88.803 Y-41.703
X120.173 Y-41.704
X120.216 Y-41.706
X120.259 Y-41.714
X120.365 Y-41.739
X120.416 Y-41.755
X120.464 Y-41.778
X120.554 Y-41.829
X120.596 Y-41.857
X120.634 Y-41.89
X121.06 Y-42.315
X121.403 Y-42.428
X121.763 Y-42.373
X122.054 Y-42.163
X122.091 Y-42.095
X122.222 Y-41.839
X122.224 Y-41.47
X122.056 Y-41.144
X121.798 Y-40.957
X121.772 Y-40.947
X121.743 Y-40.949
X121.719 Y-40.965
X121.705 Y-40.99
X121.624 Y-41.271
G2 X121.135 Y-41.606 I-0.5 J0.205
G1 X118.769 Y-41.652
X118.714 Y-41.67
X118.704 Y-41.68
X118.706 Y-41.695
X118.719 Y-41.702
X121.467 Z-3 F200
X121.494 Y-41.698
X121.518 Y-41.687
X121.687 Y-41.575
X121.721 Y-41.561
X121.759 Y-41.562
X121.793 Y-41.578
X121.818 Y-41.606
X121.83 Y-41.641
X121.827 Y-41.679
X121.809 Y-41.712
X121.78 Y-41.735
X121.743 Y-41.745
X121.706 Y-41.739
X121.674 Y-41.72
X121.653 Y-41.689
X121.645 Y-41.652
G3 X121.288 Y-41.652 I-0.178 J0 F400
X121.645 Y-41.652 I0.178 J0
G1 X121.642 Y-41.627 Z-2.993 F200
X121.633 Y-41.604 Z-2.987
X121.61 Y-41.576 Z-2.95
X121.6 Y-41.568 Z-2.9
G0 Z4
X87.969 Y-90.146
Z2
G1 Z-0.95 F200
Y-90.689 Z-0.998
X87.975 Y-90.714
X87.994 Y-90.732
X88.019 Y-90.739
X88.044 Y-90.732
X88.062 Y-90.714
X88.069 Y-90.689
Y-85.207 Z-1.484
X88.062 Y-85.182
X88.044 Y-85.163
X88.019 Y-85.157
X87.994 Y-85.163
X87.975 Y-85.182
X87.969 Y-85.207
Y-90.689 Z-1.97
X87.975 Y-90.714
X87.994 Y-90.732
X88.019 Y-90.739
X88.044 Y-90.732
X88.062 Y-90.714
X88.069 Y-90.689
Y-85.207 Z-2.456
X88.062 Y-85.182
X88.044 Y-85.163
X88.019 Y-85.157
X87.994 Y-85.163
X87.975 Y-85.182
X87.969 Y-85.207
Y-90.689 Z-2.942
X87.975 Y-90.714
X87.994 Y-90.732
X88.019 Y-90.739
X88.044 Y-90.732
X88.062 Y-90.714
X88.069 Y-90.689
Y-90.039 Z-3
G3 X87.761 Y-90.039 I-0.154 J0
G1 Y-90.047 F400
G3 X88.011 Y-90.296 I0.25 J0
G1 X88.026
G3 X88.276 Y-90.047 I0 J0.25
G1 X88.274 Y-84.629
X88.27 Y-84.586
X88.265 Y-84.554
G3 X87.773 Y-84.554 I-0.246 J-0.043
G1 X87.767 Y-84.586
X87.763 Y-84.629
X87.761 Y-90.039
G2 X87.534 Y-90.414 I-0.424 J0
G3 X87.639 Y-90.84 I0.105 J-0.2
G1 X88.82
X88.818 Y-84.56
X88.762 Y-84.238
X88.634 Y-84.01
X88.288 Y-83.702
X88.257 Y-83.67
X88.229 Y-83.635
X88.179 Y-83.562
X88.152 Y-83.517
X88.132 Y-83.469
X88.094 Y-83.356
X88.079 Y-83.298
X88.074 Y-83.237
X88.069 Y-81.793
X88.07 Y-42.424
X88.072 Y-42.38
X88.08 Y-42.337
X88.107 Y-42.223
X88.124 Y-42.17
X88.148 Y-42.12
X88.201 Y-42.03
X88.233 Y-41.984
X88.271 Y-41.943
X88.36 Y-41.862
X88.408 Y-41.824
X88.462 Y-41.795
X88.576 Y-41.745
X88.624 Y-41.728
X88.673 Y-41.717
X88.75 Y-41.706
X88.803 Y-41.703
X120.173 Y-41.704
X120.216 Y-41.706
X120.259 Y-41.714
X120.365 Y-41.739
X120.416 Y-41.755
X120.464 Y-41.778
X120.554 Y-41.829
X120.596 Y-41.857
X120.634 Y-41.89
X121.06 Y-42.315
X121.403 Y-42.428
X121.763 Y-42.373
X122.054 Y-42.163
X122.091 Y-42.095
X122.222 Y-41.839
X122.224 Y-41.47
X122.056 Y-41.144
X121.763 Y-40.932
X121.403 Y-40.876
X121.059 Y-40.99
X120.621 Y-41.424
X120.575 Y-41.463
X120.522 Y-41.495
X120.414 Y-41.548
X120.368 Y-41.567
X120.32 Y-41.579
X120.243 Y-41.594
X120.173 Y-41.601
X87.969 Y-41.602
X87.968 Y-83.198
X87.965 Y-83.24
X87.959 Y-83.281
X87.933 Y-83.395
X87.917 Y-83.447
X87.893 Y-83.497
X87.843 Y-83.586
X87.811 Y-83.634
X87.772 Y-83.676
X87.612 Y-83.825
X87.607 Y-83.83
X87.402 Y-84.012
X87.275 Y-84.238
X87.219 Y-84.56
X87.217 Y-90.84
X87.639
X87.668 Y-90.835
X87.692 Y-90.819
X87.708 Y-90.795
X87.714 Y-90.766
X87.725 Y-90.005
X88.008 Y-88.64
X88.002 Y-88.589
X87.996 Y-88.578
X87.984 Y-88.575
X87.973 Y-88.58
X87.969 Y-88.591
Y-90.689 Z-3.764 F200
X87.975 Y-90.714
X87.994 Y-90.732
X88.019 Y-90.739
X88.044 Y-90.732
X88.062 Y-90.714
X88.069 Y-90.689
Y-90.039 Z-4
G3 X87.761 Y-90.039 I-0.154 J0
G1 Y-90.047 F400
G3 X88.011 Y-90.296 I0.25 J0
G1 X88.026
G3 X88.276 Y-90.047 I0 J0.25
G1 X88.274 Y-84.629
X88.27 Y-84.586
X88.265 Y-84.554
G3 X87.773 Y-84.554 I-0.246 J-0.043
G1 X87.767 Y-84.586
X87.763 Y-84.629
X87.761 Y-90.039
X87.764 Y-90.064 Z-3.993 F200
X87.774 Y-90.087 Z-3.987
X87.797 Y-90.115 Z-3.95
X87.807 Y-90.123 Z-3.9
G0 Z4
X120.275 Y-41.702
G1 Z-1.95 F200
X122.026 Z-2.105
X122.051 Y-41.695
X122.069 Y-41.677
X122.076 Y-41.652
X122.069 Y-41.627
X122.051 Y-41.609
X122.026 Y-41.602
X116.544 Z-2.591
X116.519 Y-41.609
X116.5 Y-41.627
X116.494 Y-41.652
X116.5 Y-41.677
X116.519 Y-41.695
X116.544 Y-41.702
X122.026 Z-3.077
X122.051 Y-41.695
X122.069 Y-41.677
X122.076 Y-41.652
X122.069 Y-41.627
X122.051 Y-41.609
X122.026 Y-41.602
X116.544 Z-3.564
X116.519 Y-41.609
X116.5 Y-41.627
X116.494 Y-41.652
X116.5 Y-41.677
X116.519 Y-41.695
X116.544 Y-41.702
X121.467 Z-4
X121.494 Y-41.698
X121.518 Y-41.687
X121.687 Y-41.575
X121.721 Y-41.561
X121.759 Y-41.562
X121.793 Y-41.578
X121.818 Y-41.606
X121.83 Y-41.641
X121.827 Y-41.679
X121.809 Y-41.712
X121.78 Y-41.735
X121.743 Y-41.745
X121.706 Y-41.739
X121.674 Y-41.72
X121.653 Y-41.689
X121.645 Y-41.652
G3 X121.288 Y-41.652 I-0.178 J0 F400
X121.645 Y-41.652 I0.178 J0
G2 X121.805 Y-41.323 I0.418 J0
G3 X121.798 Y-40.957 I-0.141 J0.18
G1 X121.763 Y-40.932
X121.403 Y-40.876
X121.059 Y-40.99
X120.621 Y-41.424
X120.575 Y-41.463
X120.522 Y-41.495
X120.414 Y-41.548
X120.368 Y-41.567
X120.32 Y-41.579
X120.243 Y-41.594
X120.173 Y-41.601
X87.969 Y-41.602
X87.968 Y-83.198
X87.965 Y-83.24
X87.959 Y-83.281
X87.933 Y-83.395
X87.917 Y-83.447
X87.893 Y-83.497
X87.843 Y-83.586
X87.811 Y-83.634
X87.772 Y-83.676
X87.612 Y-83.825
X87.607 Y-83.83
X87.402 Y-84.012
X87.275 Y-84.238
X87.219 Y-84.56
X87.217 Y-90.84
X88.82
X88.818 Y-84.56
X88.762 Y-84.238
X88.634 Y-84.01
X88.288 Y-83.702
X88.257 Y-83.67
X88.229 Y-83.635
X88.179 Y-83.562
X88.152 Y-83.517
X88.132 Y-83.469
X88.094 Y-83.356
X88.079 Y-83.298
X88.074 Y-83.237
X88.069 Y-81.793
X88.07 Y-42.424
X88.072 Y-42.38
X88.08 Y-42.337
X88.107 Y-42.223
X88.124 Y-42.17
X88.148 Y-42.12
X88.201 Y-42.03
X88.233 Y-41.984
X88.271 Y-41.943
X88.36 Y-41.862
X88.408 Y-41.824
X88.462 Y-41.795
X88.576 Y-41.745
X88.624 Y-41.728
X88.673 Y-41.717
X88.75 Y-41.706
X88.803 Y-41.703
X120.173 Y-41.704
X120.216 Y-41.706
X120.259 Y-41.714
X120.365 Y-41.739
X120.416 Y-41.755
X120.464 Y-41.778
X120.554 Y-41.829
X120.596 Y-41.857
X120.634 Y-41.89
X121.06 Y-42.315
X121.403 Y-42.428
X121.763 Y-42.373
X122.054 Y-42.163
X122.091 Y-42.095
X122.222 Y-41.839
X122.224 Y-41.47
X122.056 Y-41.144
X121.798 Y-40.957
X121.772 Y-40.947
X121.743 Y-40.949
X121.719 Y-40.965
X121.705 Y-40.99
X121.624 Y-41.271
G2 X121.135 Y-41.606 I-0.5 J0.205
G1 X118.769 Y-41.652
X118.714 Y-41.67
X118.704 Y-41.68
X118.706 Y-41.695
X118.719 Y-41.702
X121.467 Z-5 F200
X121.494 Y-41.698
X121.518 Y-41.687
X121.687 Y-41.575
X121.721 Y-41.561
X121.759 Y-41.562
X121.793 Y-41.578
X121.818 Y-41.606
X121.83 Y-41.641
X121.827 Y-41.679
X121.809 Y-41.712
X121.78 Y-41.735
X121.743 Y-41.745
X121.706 Y-41.739
X121.674 Y-41.72
X121.653 Y-41.689
X121.645 Y-41.652
G3 X121.288 Y-41.652 I-0.178 J0 F400
X121.645 Y-41.652 I0.178 J0
G1 X121.642 Y-41.627 Z-4.993 F200
X121.633 Y-41.604 Z-4.987
X121.61 Y-41.576 Z-4.95
X121.6 Y-41.568 Z-4.9
G0 Z4
X87.969 Y-90.146
G1 Z-2.95 F200
Y-90.689 Z-2.998
X87.975 Y-90.714
X87.994 Y-90.732
X88.019 Y-90.739
X88.044 Y-90.732
X88.062 Y-90.714
X88.069 Y-90.689
Y-85.207 Z-3.484
X88.062 Y-85.182
X88.044 Y-85.163
X88.019 Y-85.157
X87.994 Y-85.163
X87.975 Y-85.182
X87.969 Y-85.207
Y-90.689 Z-3.97
X87.975 Y-90.714
X87.994 Y-90.732
X88.019 Y-90.739
X88.044 Y-90.732
X88.062 Y-90.714
X88.069 Y-90.689
Y-85.207 Z-4.456
X88.062 Y-85.182
X88.044 Y-85.163
X88.019 Y-85.157
X87.994 Y-85.163
X87.975 Y-85.182
X87.969 Y-85.207
Y-90.689 Z-4.942
X87.975 Y-90.714
X87.994 Y-90.732
X88.019 Y-90.739
X88.044 Y-90.732
X88.062 Y-90.714
X88.069 Y-90.689
Y-90.039 Z-5
G3 X87.761 Y-90.039 I-0.154 J0
G1 Y-90.047 F400
G3 X88.011 Y-90.296 I0.25 J0
G1 X88.026
G3 X88.276 Y-90.047 I0 J0.25
G1 X88.274 Y-84.629
X88.27 Y-84.586
X88.265 Y-84.554
G3 X87.773 Y-84.554 I-0.246 J-0.043
G1 X87.767 Y-84.586
X87.763 Y-84.629
X87.761 Y-90.039
G2 X87.534 Y-90.414 I-0.424 J0
G3 X87.639 Y-90.84 I0.105 J-0.2
G1 X88.82
X88.818 Y-84.56
X88.762 Y-84.238
X88.634 Y-84.01
X88.288 Y-83.702
X88.257 Y-83.67
X88.229 Y-83.635
X88.179 Y-83.562
X88.152 Y-83.517
X88.132 Y-83.469
X88.094 Y-83.356
X88.079 Y-83.298
X88.074 Y-83.237
X88.069 Y-81.793
X88.07 Y-42.424
X88.072 Y-42.38
X88.08 Y-42.337
X88.107 Y-42.223
X88.124 Y-42.17
X88.148 Y-42.12
X88.201 Y-42.03
X88.233 Y-41.984
X88.271 Y-41.943
X88.36 Y-41.862
X88.408 Y-41.824
X88.462 Y-41.795
X88.576 Y-41.745
X88.624 Y-41.728
X88.673 Y-41.717
X88.75 Y-41.706
X88.803 Y-41.703
X120.173 Y-41.704
X120.216 Y-41.706
X120.259 Y-41.714
X120.365 Y-41.739
X120.416 Y-41.755
X120.464 Y-41.778
X120.554 Y-41.829
X120.596 Y-41.857
X120.634 Y-41.89
X121.06 Y-42.315
X121.403 Y-42.428
X121.763 Y-42.373
X122.054 Y-42.163
X122.091 Y-42.095
X122.222 Y-41.839
X122.224 Y-41.47
X122.056 Y-41.144
X121.763 Y-40.932
X121.403 Y-40.876
X121.059 Y-40.99
X120.621 Y-41.424
X120.575 Y-41.463
X120.522 Y-41.495
X120.414 Y-41.548
X120.368 Y-41.567
X120.32 Y-41.579
X120.243 Y-41.594
X120.173 Y-41.601
X87.969 Y-41.602
X87.968 Y-83.198
X87.965 Y-83.24
X87.959 Y-83.281
X87.933 Y-83.395
X87.917 Y-83.447
X87.893 Y-83.497
X87.843 Y-83.586
X87.811 Y-83.634
X87.772 Y-83.676
X87.612 Y-83.825
X87.607 Y-83.83
X87.402 Y-84.012
X87.275 Y-84.238
X87.219 Y-84.56
X87.217 Y-90.84
X87.639
X87.668 Y-90.835
X87.692 Y-90.819
X87.708 Y-90.795
X87.714 Y-90.766
X87.725 Y-90.005
X88.008 Y-88.64
X88.002 Y-88.589
X87.996 Y-88.578
X87.984 Y-88.575
X87.973 Y-88.58
X87.969 Y-88.591
Y-90.689 Z-5.764 F200
X87.975 Y-90.714
X87.994 Y-90.732
X88.019 Y-90.739
X88.044 Y-90.732
X88.062 Y-90.714
X88.069 Y-90.689
Y-90.039 Z-6
G3 X87.761 Y-90.039 I-0.154 J0
G1 Y-90.047 F400
G3 X88.011 Y-90.296 I0.25 J0
G1 X88.026
G3 X88.276 Y-90.047 I0 J0.25
G1 X88.274 Y-84.629
X88.27 Y-84.586
X88.265 Y-84.554
G3 X87.773 Y-84.554 I-0.246 J-0.043
G1 X87.767 Y-84.586
X87.763 Y-84.629
X87.761 Y-90.039
X87.764 Y-90.064 Z-5.993 F200
X87.774 Y-90.087 Z-5.987
X87.797 Y-90.115 Z-5.95
X87.807 Y-90.123 Z-5.9
G0 Z4
X120.275 Y-41.702
G1 Z-3.95 F200
X122.026 Z-4.105
X122.051 Y-41.695
X122.069 Y-41.677
X122.076 Y-41.652
X122.069 Y-41.627
X122.051 Y-41.609
X122.026 Y-41.602
X116.544 Z-4.591
X116.519 Y-41.609
X116.5 Y-41.627
X116.494 Y-41.652
X116.5 Y-41.677
X116.519 Y-41.695
X116.544 Y-41.702
X122.026 Z-5.077
X122.051 Y-41.695
X122.069 Y-41.677
X122.076 Y-41.652
X122.069 Y-41.627
X122.051 Y-41.609
X122.026 Y-41.602
X116.544 Z-5.564
X116.519 Y-41.609
X116.5 Y-41.627
X116.494 Y-41.652
X116.5 Y-41.677
X116.519 Y-41.695
X116.544 Y-41.702
X121.467 Z-6
X121.494 Y-41.698
X121.518 Y-41.687
X121.687 Y-41.575
X121.721 Y-41.561
X121.759 Y-41.562
X121.793 Y-41.578
X121.818 Y-41.606
X121.83 Y-41.641
X121.827 Y-41.679
X121.809 Y-41.712
X121.78 Y-41.735
X121.743 Y-41.745
X121.706 Y-41.739
X121.674 Y-41.72
X121.653 Y-41.689
X121.645 Y-41.652
G3 X121.288 Y-41.652 I-0.178 J0 F400
X121.645 Y-41.652 I0.178 J0
G2 X121.805 Y-41.323 I0.418 J0
G3 X121.798 Y-40.957 I-0.141 J0.18
G1 X121.763 Y-40.932
X121.403 Y-40.876
X121.059 Y-40.99
X120.621 Y-41.424
X120.575 Y-41.463
X120.522 Y-41.495
X120.414 Y-41.548
X120.368 Y-41.567
X120.32 Y-41.579
X120.243 Y-41.594
X120.173 Y-41.601
X87.969 Y-41.602
X87.968 Y-83.198
X87.965 Y-83.24
X87.959 Y-83.281
X87.933 Y-83.395
X87.917 Y-83.447
X87.893 Y-83.497
X87.843 Y-83.586
X87.811 Y-83.634
X87.772 Y-83.676
X87.612 Y-83.825
X87.607 Y-83.83
X87.402 Y-84.012
X87.275 Y-84.238
X87.219 Y-84.56
X87.217 Y-90.84
X88.82
X88.818 Y-84.56
X88.762 Y-84.238
X88.634 Y-84.01
X88.288 Y-83.702
X88.257 Y-83.67
X88.229 Y-83.635
X88.179 Y-83.562
X88.152 Y-83.517
X88.132 Y-83.469
X88.094 Y-83.356
X88.079 Y-83.298
X88.074 Y-83.237
X88.069 Y-81.793
X88.07 Y-42.424
X88.072 Y-42.38
X88.08 Y-42.337
X88.107 Y-42.223
X88.124 Y-42.17
X88.148 Y-42.12
X88.201 Y-42.03
X88.233 Y-41.984
X88.271 Y-41.943
X88.36 Y-41.862
X88.408 Y-41.824
X88.462 Y-41.795
X88.576 Y-41.745
X88.624 Y-41.728
X88.673 Y-41.717
X88.75 Y-41.706
X88.803 Y-41.703
X120.173 Y-41.704
X120.216 Y-41.706
X120.259 Y-41.714
X120.365 Y-41.739
X120.416 Y-41.755
X120.464 Y-41.778
X120.554 Y-41.829
X120.596 Y-41.857
X120.634 Y-41.89
X121.06 Y-42.315
X121.403 Y-42.428
X121.763 Y-42.373
X122.054 Y-42.163
X122.091 Y-42.095
X122.222 Y-41.839
X122.224 Y-41.47
X122.056 Y-41.144
X121.798 Y-40.957
X121.777 Y-40.945 Z-5.993 F200
X121.752 Y-40.939 Z-5.987
X121.716 Y-40.941 Z-5.95
X121.703 Y-40.945 Z-5.9
G0 Z4
X93.966 Y-90.146
Z1.05
G1 Y-90.688 Z1.002 F200
X93.973 Y-90.713
X93.991 Y-90.731
X94.016 Y-90.738
X94.041 Y-90.731
X94.06 Y-90.713
X94.066 Y-90.688
Y-85.206 Z0.516
X94.06 Y-85.181
X94.041 Y-85.162
X94.016 Y-85.156
X93.991 Y-85.162
X93.973 Y-85.181
X93.966 Y-85.206
Y-90.688 Z0.03
X93.973 Y-90.713
X93.991 Y-90.731
X94.016 Y-90.738
X94.041 Y-90.731
X94.06 Y-90.713
X94.066 Y-90.688
Y-85.206 Z-0.456
X94.06 Y-85.181
X94.041 Y-85.162
X94.016 Y-85.156
X93.991 Y-85.162
X93.973 Y-85.181
X93.966 Y-85.206
Y-90.688 Z-0.942
X93.973 Y-90.713
X93.991 Y-90.731
X94.016 Y-90.738
X94.041 Y-90.731
X94.06 Y-90.713
X94.066 Y-90.688
Y-90.038 Z-1
X94.074 Y-89.999
X94.097 Y-89.965
X94.13 Y-89.942
X94.17 Y-89.935
X94.378
X94.417 Y-89.942
X94.451 Y-89.965
X94.474 Y-89.999
X94.482 Y-90.038
X94.474 Y-90.078
X94.451 Y-90.112
X94.418 Y-90.134
X94.378 Y-90.142
X94.338 Y-90.134
X94.304 Y-90.112
X94.282 Y-90.078
X94.274 Y-90.038
X94.273 Y-84.629 F400
X94.27 Y-84.586
X94.265 Y-84.557
G3 X93.773 Y-84.557 I-0.246 J-0.043
G1 X93.768 Y-84.586
X93.764 Y-84.629
X93.759 Y-90.046
G3 X94.009 Y-90.296 I0.25 J0
G1 X94.024
G3 X94.274 Y-90.046 I0 J0.25
G1 Y-90.038
X94.271 Y-90.014 Z-0.993 F200
X94.262 Y-89.99 Z-0.987
X94.239 Y-89.962 Z-0.95
X94.228 Y-89.954 Z-0.9
G0 Z4
X139.518 Y-41.724
Z1.05
G1 Y-41.091 Z0.994 F200
X139.511 Y-41.066
X139.493 Y-41.047
X139.468 Y-41.041
X139.443 Y-41.047
X139.424 Y-41.066
X139.418 Y-41.091
Y-46.573 Z0.508
X139.424 Y-46.598
X139.443 Y-46.616
X139.468 Y-46.623
X139.493 Y-46.616
X139.511 Y-46.598
X139.518 Y-46.573
Y-41.091 Z0.022
X139.511 Y-41.066
X139.493 Y-41.047
X139.468 Y-41.041
X139.443 Y-41.047
X139.424 Y-41.066
X139.418 Y-41.091
Y-46.573 Z-0.464
X139.424 Y-46.598
X139.443 Y-46.616
X139.468 Y-46.623
X139.493 Y-46.616
X139.511 Y-46.598
X139.518 Y-46.573
Y-41.091 Z-0.95
X139.511 Y-41.066
X139.493 Y-41.047
X139.468 Y-41.041
X139.443 Y-41.047
X139.424 Y-41.066
X139.418 Y-41.091
Y-41.65 Z-1
X139.424 Y-41.689
X139.444 Y-41.723
X139.475 Y-41.748
X139.512 Y-41.762
X139.551
X139.588 Y-41.748
X139.619 Y-41.723
X139.638 Y-41.689
X139.645 Y-41.65
G3 X139.29 Y-41.65 I-0.178 J0 F400
X139.645 Y-41.65 I0.178 J0
G2 X139.808 Y-41.324 I0.407 J0
G3 X139.777 Y-40.961 I-0.129 J0.172
G1 X139.65 Y-40.895
X139.286
X138.959 Y-41.064
X138.749 Y-41.355
X138.693 Y-41.709
X138.812 Y-42.069
X139.224 Y-42.479
X139.257 Y-42.516
X139.285 Y-42.558
X139.343 Y-42.659
X139.368 Y-42.711
X139.384 Y-42.766
X139.408 Y-42.876
X139.415 Y-42.916
X139.417 Y-42.956
X139.414 Y-47.364
X139.41 Y-47.417
X139.399 Y-47.469
X139.369 Y-47.571
X139.352 Y-47.618
X139.329 Y-47.662
X139.28 Y-47.741
X139.253 Y-47.78
X139.222 Y-47.814
X139.155 Y-47.879
X139.114 Y-47.914
X139.069 Y-47.942
X138.964 Y-47.998
X138.91 Y-48.021
X138.853 Y-48.036
X138.739 Y-48.056
X138.674 Y-48.061
X93.969
X93.968 Y-83.198
X93.965 Y-83.24
X93.959 Y-83.281
X93.933 Y-83.395
X93.918 Y-83.444
X93.896 Y-83.492
X93.853 Y-83.571
X93.826 Y-83.613
X93.795 Y-83.65
X93.719 Y-83.73
X93.693 Y-83.755
X93.411 Y-83.999
X93.275 Y-84.238
X93.219 Y-84.56
X93.214 Y-90.84
X94.819
X94.818 Y-84.56
X94.762 Y-84.238
X94.626 Y-83.998
X94.293 Y-83.707
X94.259 Y-83.673
X94.23 Y-83.636
X94.173 Y-83.551
X94.146 Y-83.505
X94.126 Y-83.456
X94.092 Y-83.352
X94.079 Y-83.295
X94.074 Y-83.237
X94.069 Y-81.793
X94.07 Y-48.884
X94.072 Y-48.841
X94.079 Y-48.798
X94.106 Y-48.684
X94.121 Y-48.636
X94.143 Y-48.589
X94.184 Y-48.513
X94.208 Y-48.476
X94.236 Y-48.441
X94.298 Y-48.374
X94.334 Y-48.339
X94.374 Y-48.31
X94.465 Y-48.252
X94.516 Y-48.225
X94.569 Y-48.206
X94.683 Y-48.176
X94.731 Y-48.166
X94.78 Y-48.163
X139.518 Y-48.161
Y-42.956
X139.526 Y-42.88
X139.547 Y-42.778
X139.562 Y-42.725
X139.585 Y-42.674
X139.642 Y-42.571
X139.671 Y-42.525
X139.706 Y-42.485
X140.123 Y-42.069
X140.242 Y-41.709
X140.187 Y-41.356
X139.97 Y-41.059
X139.777 Y-40.961
X139.751 Y-40.953
X139.723 Y-40.955
X139.698 Y-40.968
X139.679 Y-40.989
X139.669 Y-41.015
X139.494 Y-42.085
X139.469 Y-43.229
X139.485 Y-43.284
X139.496 Y-43.295
X139.511 Y-43.293
X139.518 Y-43.279
Y-41.091 Z-1.796 F200
X139.511 Y-41.066
X139.493 Y-41.047
X139.468 Y-41.041
X139.443 Y-41.047
X139.424 Y-41.066
X139.418 Y-41.091
Y-41.65 Z-2
X139.424 Y-41.689
X139.444 Y-41.723
X139.475 Y-41.748
X139.512 Y-41.762
X139.551
X139.588 Y-41.748
X139.619 Y-41.723
X139.638 Y-41.689
X139.645 Y-41.65
G3 X139.29 Y-41.65 I-0.178 J0 F400
X139.645 Y-41.65 I0.178 J0
G1 X139.638 Y-41.6 Z-1.987 F200
X139.624 Y-41.567 Z-1.95
X139.618 Y-41.555 Z-1.9
G0 Z4
X93.966 Y-90.146
Z0.05
G1 Y-90.688 Z0.002 F200
X93.973 Y-90.713
X93.991 Y-90.731
X94.016 Y-90.738
X94.041 Y-90.731
X94.06 Y-90.713
X94.066 Y-90.688
Y-85.206 Z-0.484
X94.06 Y-85.181
X94.041 Y-85.162
X94.016 Y-85.156
X93.991 Y-85.162
X93.973 Y-85.181
X93.966 Y-85.206
Y-90.688 Z-0.97
X93.973 Y-90.713
X93.991 Y-90.731
X94.016 Y-90.738
X94.041 Y-90.731
X94.06 Y-90.713
X94.066 Y-90.688
Y-85.206 Z-1.456
X94.06 Y-85.181
X94.041 Y-85.162
X94.016 Y-85.156
X93.991 Y-85.162
X93.973 Y-85.181
X93.966 Y-85.206
Y-90.688 Z-1.942
X93.973 Y-90.713
X93.991 Y-90.731
X94.016 Y-90.738
X94.041 Y-90.731
X94.06 Y-90.713
X94.066 Y-90.688
Y-90.038 Z-2
X94.074 Y-89.999
X94.097 Y-89.965
X94.13 Y-89.942
X94.17 Y-89.935
X94.378
X94.417 Y-89.942
X94.451 Y-89.965
X94.474 Y-89.999
X94.482 Y-90.038
X94.474 Y-90.078
X94.451 Y-90.112
X94.418 Y-90.134
X94.378 Y-90.142
X94.338 Y-90.134
X94.304 Y-90.112
X94.282 Y-90.078
X94.274 Y-90.038
X94.273 Y-84.629 F400
X94.27 Y-84.586
X94.265 Y-84.557
G3 X93.773 Y-84.557 I-0.246 J-0.043
G1 X93.768 Y-84.586
X93.764 Y-84.629
X93.759 Y-90.046
G3 X94.009 Y-90.296 I0.25 J0
G1 X94.024
G3 X94.274 Y-90.046 I0 J0.25
G1 Y-90.038
G2 X94.546 Y-89.63 I0.442 J0
G3 X94.818 Y-89.221 I-0.17 J0.408
G1 Y-84.56
X94.762 Y-84.238
X94.626 Y-83.998
X94.293 Y-83.707
X94.259 Y-83.673
X94.23 Y-83.636
X94.173 Y-83.551
X94.146 Y-83.505
X94.126 Y-83.456
X94.092 Y-83.352
X94.079 Y-83.295
X94.074 Y-83.237
X94.069 Y-81.793
X94.07 Y-48.884
X94.072 Y-48.841
X94.079 Y-48.798
X94.106 Y-48.684
X94.121 Y-48.636
X94.143 Y-48.589
X94.184 Y-48.513
X94.208 Y-48.476
X94.236 Y-48.441
X94.298 Y-48.374
X94.334 Y-48.339
X94.374 Y-48.31
X94.465 Y-48.252
X94.516 Y-48.225
X94.569 Y-48.206
X94.683 Y-48.176
X94.731 Y-48.166
X94.78 Y-48.163
X139.518 Y-48.161
Y-42.956
X139.526 Y-42.88
X139.547 Y-42.778
X139.562 Y-42.725
X139.585 Y-42.674
X139.642 Y-42.571
X139.671 Y-42.525
X139.706 Y-42.485
X140.123 Y-42.069
X140.242 Y-41.709
X140.187 Y-41.356
X139.97 Y-41.059
X139.65 Y-40.895
X139.286
X138.959 Y-41.064
X138.749 Y-41.355
X138.693 Y-41.709
X138.812 Y-42.069
X139.224 Y-42.479
X139.257 Y-42.516
X139.285 Y-42.558
X139.343 Y-42.659
X139.368 Y-42.711
X139.384 Y-42.766
X139.408 Y-42.876
X139.415 Y-42.916
X139.417 Y-42.956
X139.414 Y-47.364
X139.41 Y-47.417
X139.399 Y-47.469
X139.369 Y-47.571
X139.352 Y-47.618
X139.329 Y-47.662
X139.28 Y-47.741
X139.253 Y-47.78
X139.222 Y-47.814
X139.155 Y-47.879
X139.114 Y-47.914
X139.069 Y-47.942
X138.964 Y-47.998
X138.91 Y-48.021
X138.853 Y-48.036
X138.739 Y-48.056
X138.674 Y-48.061
X93.969
X93.968 Y-83.198
X93.965 Y-83.24
X93.959 Y-83.281
X93.933 Y-83.395
X93.918 Y-83.444
X93.896 Y-83.492
X93.853 Y-83.571
X93.826 Y-83.613
X93.795 Y-83.65
X93.719 Y-83.73
X93.693 Y-83.755
X93.411 Y-83.999
X93.275 Y-84.238
X93.219 Y-84.56
X93.214 Y-90.84
X94.819
X94.818 Y-89.221
X94.814 Y-89.196
X94.801 Y-89.174
X94.781 Y-89.157
X94.426 Y-88.949
X94.405 Y-88.931
X94.392 Y-88.906
X94.378 Y-88.88
X94.099 Y-88.543
X94.075 Y-88.524
X94.046 Y-88.516
X94.016 Y-88.52
X93.99 Y-88.536
X93.973 Y-88.561
X93.966 Y-88.59
Y-90.688 Z-2.764 F200
X93.973 Y-90.713
X93.991 Y-90.731
X94.016 Y-90.738
X94.041 Y-90.731
X94.06 Y-90.713
X94.066 Y-90.688
Y-90.038 Z-3
X94.074 Y-89.999
X94.097 Y-89.965
X94.13 Y-89.942
X94.17 Y-89.935
X94.378
X94.417 Y-89.942
X94.451 Y-89.965
X94.474 Y-89.999
X94.482 Y-90.038
X94.474 Y-90.078
X94.451 Y-90.112
X94.418 Y-90.134
X94.378 Y-90.142
X94.338 Y-90.134
X94.304 Y-90.112
X94.282 Y-90.078
X94.274 Y-90.038
X94.273 Y-84.629 F400
X94.27 Y-84.586
X94.265 Y-84.557
G3 X93.773 Y-84.557 I-0.246 J-0.043
G1 X93.768 Y-84.586
X93.764 Y-84.629
X93.759 Y-90.046
G3 X94.009 Y-90.296 I0.25 J0
G1 X94.024
G3 X94.274 Y-90.046 I0 J0.25
G1 Y-90.038
X94.271 Y-90.014 Z-2.993 F200
X94.262 Y-89.99 Z-2.987
X94.239 Y-89.962 Z-2.95
X94.228 Y-89.954 Z-2.9
G0 Z4
X139.518 Y-41.724
Z2
G1 Z-0.95 F200
Y-41.091 Z-1.006
X139.511 Y-41.066
X139.493 Y-41.047
X139.468 Y-41.041
X139.443 Y-41.047
X139.424 Y-41.066
X139.418 Y-41.091
Y-46.573 Z-1.492
X139.424 Y-46.598
X139.443 Y-46.616
X139.468 Y-46.623
X139.493 Y-46.616
X139.511 Y-46.598
X139.518 Y-46.573
Y-41.091 Z-1.978
X139.511 Y-41.066
X139.493 Y-41.047
X139.468 Y-41.041
X139.443 Y-41.047
X139.424 Y-41.066
X139.418 Y-41.091
Y-46.573 Z-2.464
X139.424 Y-46.598
X139.443 Y-46.616
X139.468 Y-46.623
X139.493 Y-46.616
X139.511 Y-46.598
X139.518 Y-46.573
Y-41.091 Z-2.95
X139.511 Y-41.066
X139.493 Y-41.047
X139.468 Y-41.041
X139.443 Y-41.047
X139.424 Y-41.066
X139.418 Y-41.091
Y-41.65 Z-3
X139.424 Y-41.689
X139.444 Y-41.723
X139.475 Y-41.748
X139.512 Y-41.762
X139.551
X139.588 Y-41.748
X139.619 Y-41.723
X139.638 Y-41.689
X139.645 Y-41.65
G3 X139.29 Y-41.65 I-0.178 J0 F400
X139.645 Y-41.65 I0.178 J0
G2 X139.808 Y-41.324 I0.407 J0
G3 X139.777 Y-40.961 I-0.129 J0.172
G1 X139.65 Y-40.895
X139.286
X138.959 Y-41.064
X138.749 Y-41.355
X138.693 Y-41.709
X138.812 Y-42.069
X139.224 Y-42.479
X139.257 Y-42.516
X139.285 Y-42.558
X139.343 Y-42.659
X139.368 Y-42.711
X139.384 Y-42.766
X139.408 Y-42.876
X139.415 Y-42.916
X139.417 Y-42.956
X139.414 Y-47.364
X139.41 Y-47.417
X139.399 Y-47.469
X139.369 Y-47.571
X139.352 Y-47.618
X139.329 Y-47.662
X139.28 Y-47.741
X139.253 Y-47.78
X139.222 Y-47.814
X139.155 Y-47.879
X139.114 Y-47.914
X139.069 Y-47.942
X138.964 Y-47.998
X138.91 Y-48.021
X138.853 Y-48.036
X138.739 Y-48.056
X138.674 Y-48.061
X93.969
X93.968 Y-83.198
X93.965 Y-83.24
X93.959 Y-83.281
X93.933 Y-83.395
X93.918 Y-83.444
X93.896 Y-83.492
X93.853 Y-83.571
X93.826 Y-83.613
X93.795 Y-83.65
X93.719 Y-83.73
X93.693 Y-83.755
X93.411 Y-83.999
X93.275 Y-84.238
X93.219 Y-84.56
X93.214 Y-90.84
X94.819
X94.818 Y-84.56
X94.762 Y-84.238
X94.626 Y-83.998
X94.293 Y-83.707
X94.259 Y-83.673
X94.23 Y-83.636
X94.173 Y-83.551
X94.146 Y-83.505
X94.126 Y-83.456
X94.092 Y-83.352
X94.079 Y-83.295
X94.074 Y-83.237
X94.069 Y-81.793
X94.07 Y-48.884
X94.072 Y-48.841
X94.079 Y-48.798
X94.106 Y-48.684
X94.121 Y-48.636
X94.143 Y-48.589
X94.184 Y-48.513
X94.208 Y-48.476
X94.236 Y-48.441
X94.298 Y-48.374
X94.334 Y-48.339
X94.374 Y-48.31
X94.465 Y-48.252
X94.516 Y-48.225
X94.569 Y-48.206
X94.683 Y-48.176
X94.731 Y-48.166
X94.78 Y-48.163
X139.518 Y-48.161
Y-42.956
X139.526 Y-42.88
X139.547 Y-42.778
X139.562 Y-42.725
X139.585 Y-42.674
X139.642 Y-42.571
X139.671 Y-42.525
X139.706 Y-42.485
X140.123 Y-42.069
X140.242 Y-41.709
X140.187 Y-41.356
X139.97 Y-41.059
X139.777 Y-40.961
X139.751 Y-40.953
X139.723 Y-40.955
X139.698 Y-40.968
X139.679 Y-40.989
X139.669 Y-41.015
X139.494 Y-42.085
X139.469 Y-43.229
X139.485 Y-43.284
X139.496 Y-43.295
X139.511 Y-43.293
X139.518 Y-43.279
Y-41.091 Z-3.796 F200
X139.511 Y-41.066
X139.493 Y-41.047
X139.468 Y-41.041
X139.443 Y-41.047
X139.424 Y-41.066
X139.418 Y-41.091
Y-41.65 Z-4
X139.424 Y-41.689
X139.444 Y-41.723
X139.475 Y-41.748
X139.512 Y-41.762
X139.551
X139.588 Y-41.748
X139.619 Y-41.723
X139.638 Y-41.689
X139.645 Y-41.65
G3 X139.29 Y-41.65 I-0.178 J0 F400
X139.645 Y-41.65 I0.178 J0
G1 X139.638 Y-41.6 Z-3.987 F200
X139.624 Y-41.567 Z-3.95
X139.618 Y-41.555 Z-3.9
G0 Z4
X93.966 Y-90.146
G1 Z-1.95 F200
Y-90.688 Z-1.998
X93.973 Y-90.713
X93.991 Y-90.731
X94.016 Y-90.738
X94.041 Y-90.731
X94.06 Y-90.713
X94.066 Y-90.688
Y-85.206 Z-2.484
X94.06 Y-85.181
X94.041 Y-85.162
X94.016 Y-85.156
X93.991 Y-85.162
X93.973 Y-85.181
X93.966 Y-85.206
Y-90.688 Z-2.97
X93.973 Y-90.713
X93.991 Y-90.731
X94.016 Y-90.738
X94.041 Y-90.731
X94.06 Y-90.713
X94.066 Y-90.688
Y-85.206 Z-3.456
X94.06 Y-85.181
X94.041 Y-85.162
X94.016 Y-85.156
X93.991 Y-85.162
X93.973 Y-85.181
X93.966 Y-85.206
Y-90.688 Z-3.942
X93.973 Y-90.713
X93.991 Y-90.731
X94.016 Y-90.738
X94.041 Y-90.731
X94.06 Y-90.713
X94.066 Y-90.688
Y-90.038 Z-4
X94.074 Y-89.999
X94.097 Y-89.965
X94.13 Y-89.942
X94.17 Y-89.935
X94.378
X94.417 Y-89.942
X94.451 Y-89.965
X94.474 Y-89.999
X94.482 Y-90.038
X94.474 Y-90.078
X94.451 Y-90.112
X94.418 Y-90.134
X94.378 Y-90.142
X94.338 Y-90.134
X94.304 Y-90.112
X94.282 Y-90.078
X94.274 Y-90.038
X94.273 Y-84.629 F400
X94.27 Y-84.586
X94.265 Y-84.557
G3 X93.773 Y-84.557 I-0.246 J-0.043
G1 X93.768 Y-84.586
X93.764 Y-84.629
X93.759 Y-90.046
G3 X94.009 Y-90.296 I0.25 J0
G1 X94.024
G3 X94.274 Y-90.046 I0 J0.25
G1 Y-90.038
G2 X94.546 Y-89.63 I0.442 J0
G3 X94.818 Y-89.221 I-0.17 J0.408
G1 Y-84.56
X94.762 Y-84.238
X94.626 Y-83.998
X94.293 Y-83.707
X94.259 Y-83.673
X94.23 Y-83.636
X94.173 Y-83.551
X94.146 Y-83.505
X94.126 Y-83.456
X94.092 Y-83.352
X94.079 Y-83.295
X94.074 Y-83.237
X94.069 Y-81.793
X94.07 Y-48.884
X94.072 Y-48.841
X94.079 Y-48.798
X94.106 Y-48.684
X94.121 Y-48.636
X94.143 Y-48.589
X94.184 Y-48.513
X94.208 Y-48.476
X94.236 Y-48.441
X94.298 Y-48.374
X94.334 Y-48.339
X94.374 Y-48.31
X94.465 Y-48.252
X94.516 Y-48.225
X94.569 Y-48.206
X94.683 Y-48.176
X94.731 Y-48.166
X94.78 Y-48.163
X139.518 Y-48.161
Y-42.956
X139.526 Y-42.88
X139.547 Y-42.778
X139.562 Y-42.725
X139.585 Y-42.674
X139.642 Y-42.571
X139.671 Y-42.525
X139.706 Y-42.485
X140.123 Y-42.069
X140.242 Y-41.709
X140.187 Y-41.356
X139.97 Y-41.059
X139.65 Y-40.895
X139.286
X138.959 Y-41.064
X138.749 Y-41.355
X138.693 Y-41.709
X138.812 Y-42.069
X139.224 Y-42.479
X139.257 Y-42.516
X139.285 Y-42.558
X139.343 Y-42.659
X139.368 Y-42.711
X139.384 Y-42.766
X139.408 Y-42.876
X139.415 Y-42.916
X139.417 Y-42.956
X139.414 Y-47.364
X139.41 Y-47.417
X139.399 Y-47.469
X139.369 Y-47.571
X139.352 Y-47.618
X139.329 Y-47.662
X139.28 Y-47.741
X139.253 Y-47.78
X139.222 Y-47.814
X139.155 Y-47.879
X139.114 Y-47.914
X139.069 Y-47.942
X138.964 Y-47.998
X138.91 Y-48.021
X138.853 Y-48.036
X138.739 Y-48.056
X138.674 Y-48.061
X93.969
X93.968 Y-83.198
X93.965 Y-83.24
X93.959 Y-83.281
X93.933 Y-83.395
X93.918 Y-83.444
X93.896 Y-83.492
X93.853 Y-83.571
X93.826 Y-83.613
X93.795 Y-83.65
X93.719 Y-83.73
X93.693 Y-83.755
X93.411 Y-83.999
X93.275 Y-84.238
X93.219 Y-84.56
X93.214 Y-90.84
X94.819
X94.818 Y-89.221
X94.814 Y-89.196
X94.801 Y-89.174
X94.781 Y-89.157
X94.426 Y-88.949
X94.405 Y-88.931
X94.392 Y-88.906
X94.378 Y-88.88
X94.099 Y-88.543
X94.075 Y-88.524
X94.046 Y-88.516
X94.016 Y-88.52
X93.99 Y-88.536
X93.973 Y-88.561
X93.966 Y-88.59
Y-90.688 Z-4.764 F200
X93.973 Y-90.713
X93.991 Y-90.731
X94.016 Y-90.738
X94.041 Y-90.731
X94.06 Y-90.713
X94.066 Y-90.688
Y-90.038 Z-5
X94.074 Y-89.999
X94.097 Y-89.965
X94.13 Y-89.942
X94.17 Y-89.935
X94.378
X94.417 Y-89.942
X94.451 Y-89.965
X94.474 Y-89.999
X94.482 Y-90.038
X94.474 Y-90.078
X94.451 Y-90.112
X94.418 Y-90.134
X94.378 Y-90.142
X94.338 Y-90.134
X94.304 Y-90.112
X94.282 Y-90.078
X94.274 Y-90.038
X94.273 Y-84.629 F400
X94.27 Y-84.586
X94.265 Y-84.557
G3 X93.773 Y-84.557 I-0.246 J-0.043
G1 X93.768 Y-84.586
X93.764 Y-84.629
X93.759 Y-90.046
G3 X94.009 Y-90.296 I0.25 J0
G1 X94.024
G3 X94.274 Y-90.046 I0 J0.25
G1 Y-90.038
X94.271 Y-90.014 Z-4.993 F200
X94.262 Y-89.99 Z-4.987
X94.239 Y-89.962 Z-4.95
X94.228 Y-89.954 Z-4.9
G0 Z4
X139.518 Y-41.724
G1 Z-2.95 F200
Y-41.091 Z-3.006
X139.511 Y-41.066
X139.493 Y-41.047
X139.468 Y-41.041
X139.443 Y-41.047
X139.424 Y-41.066
X139.418 Y-41.091
Y-46.573 Z-3.492
X139.424 Y-46.598
X139.443 Y-46.616
X139.468 Y-46.623
X139.493 Y-46.616
X139.511 Y-46.598
X139.518 Y-46.573
Y-41.091 Z-3.978
X139.511 Y-41.066
X139.493 Y-41.047
X139.468 Y-41.041
X139.443 Y-41.047
X139.424 Y-41.066
X139.418 Y-41.091
Y-46.573 Z-4.464
X139.424 Y-46.598
X139.443 Y-46.616
X139.468 Y-46.623
X139.493 Y-46.616
X139.511 Y-46.598
X139.518 Y-46.573
Y-41.091 Z-4.95
X139.511 Y-41.066
X139.493 Y-41.047
X139.468 Y-41.041
X139.443 Y-41.047
X139.424 Y-41.066
X139.418 Y-41.091
Y-41.65 Z-5
X139.424 Y-41.689
X139.444 Y-41.723
X139.475 Y-41.748
X139.512 Y-41.762
X139.551
X139.588 Y-41.748
X139.619 Y-41.723
X139.638 Y-41.689
X139.645 Y-41.65
G3 X139.29 Y-41.65 I-0.178 J0 F400
X139.645 Y-41.65 I0.178 J0
G2 X139.808 Y-41.324 I0.407 J0
G3 X139.777 Y-40.961 I-0.129 J0.172
G1 X139.65 Y-40.895
X139.286
X138.959 Y-41.064
X138.749 Y-41.355
X138.693 Y-41.709
X138.812 Y-42.069
X139.224 Y-42.479
X139.257 Y-42.516
X139.285 Y-42.558
X139.343 Y-42.659
X139.368 Y-42.711
X139.384 Y-42.766
X139.408 Y-42.876
X139.415 Y-42.916
X139.417 Y-42.956
X139.414 Y-47.364
X139.41 Y-47.417
X139.399 Y-47.469
X139.369 Y-47.571
X139.352 Y-47.618
X139.329 Y-47.662
X139.28 Y-47.741
X139.253 Y-47.78
X139.222 Y-47.814
X139.155 Y-47.879
X139.114 Y-47.914
X139.069 Y-47.942
X138.964 Y-47.998
X138.91 Y-48.021
X138.853 Y-48.036
X138.739 Y-48.056
X138.674 Y-48.061
X93.969
X93.968 Y-83.198
X93.965 Y-83.24
X93.959 Y-83.281
X93.933 Y-83.395
X93.918 Y-83.444
X93.896 Y-83.492
X93.853 Y-83.571
X93.826 Y-83.613
X93.795 Y-83.65
X93.719 Y-83.73
X93.693 Y-83.755
X93.411 Y-83.999
X93.275 Y-84.238
X93.219 Y-84.56
X93.214 Y-90.84
X94.819
X94.818 Y-84.56
X94.762 Y-84.238
X94.626 Y-83.998
X94.293 Y-83.707
X94.259 Y-83.673
X94.23 Y-83.636
X94.173 Y-83.551
X94.146 Y-83.505
X94.126 Y-83.456
X94.092 Y-83.352
X94.079 Y-83.295
X94.074 Y-83.237
X94.069 Y-81.793
X94.07 Y-48.884
X94.072 Y-48.841
X94.079 Y-48.798
X94.106 Y-48.684
X94.121 Y-48.636
X94.143 Y-48.589
X94.184 Y-48.513
X94.208 Y-48.476
X94.236 Y-48.441
X94.298 Y-48.374
X94.334 Y-48.339
X94.374 Y-48.31
X94.465 Y-48.252
X94.516 Y-48.225
X94.569 Y-48.206
X94.683 Y-48.176
X94.731 Y-48.166
X94.78 Y-48.163
X139.518 Y-48.161
Y-42.956
X139.526 Y-42.88
X139.547 Y-42.778
X139.562 Y-42.725
X139.585 Y-42.674
X139.642 Y-42.571
X139.671 Y-42.525
X139.706 Y-42.485
X140.123 Y-42.069
X140.242 Y-41.709
X140.187 Y-41.356
X139.97 Y-41.059
X139.777 Y-40.961
X139.751 Y-40.953
X139.723 Y-40.955
X139.698 Y-40.968
X139.679 Y-40.989
X139.669 Y-41.015
X139.494 Y-42.085
X139.469 Y-43.229
X139.485 Y-43.284
X139.496 Y-43.295
X139.511 Y-43.293
X139.518 Y-43.279
Y-41.091 Z-5.796 F200
X139.511 Y-41.066
X139.493 Y-41.047
X139.468 Y-41.041
X139.443 Y-41.047
X139.424 Y-41.066
X139.418 Y-41.091
Y-41.65 Z-6
X139.424 Y-41.689
X139.444 Y-41.723
X139.475 Y-41.748
X139.512 Y-41.762
X139.551
X139.588 Y-41.748
X139.619 Y-41.723
X139.638 Y-41.689
X139.645 Y-41.65
G3 X139.29 Y-41.65 I-0.178 J0 F400
X139.645 Y-41.65 I0.178 J0
G1 X139.638 Y-41.6 Z-5.987 F200
X139.624 Y-41.567 Z-5.95
X139.618 Y-41.555 Z-5.9
G0 Z4
X93.966 Y-90.146
G1 Z-3.95 F200
Y-90.688 Z-3.998
X93.973 Y-90.713
X93.991 Y-90.731
X94.016 Y-90.738
X94.041 Y-90.731
X94.06 Y-90.713
X94.066 Y-90.688
Y-85.206 Z-4.484
X94.06 Y-85.181
X94.041 Y-85.162
X94.016 Y-85.156
X93.991 Y-85.162
X93.973 Y-85.181
X93.966 Y-85.206
Y-90.688 Z-4.97
X93.973 Y-90.713
X93.991 Y-90.731
X94.016 Y-90.738
X94.041 Y-90.731
X94.06 Y-90.713
X94.066 Y-90.688
Y-85.206 Z-5.456
X94.06 Y-85.181
X94.041 Y-85.162
X94.016 Y-85.156
X93.991 Y-85.162
X93.973 Y-85.181
X93.966 Y-85.206
Y-90.688 Z-5.942
X93.973 Y-90.713
X93.991 Y-90.731
X94.016 Y-90.738
X94.041 Y-90.731
X94.06 Y-90.713
X94.066 Y-90.688
Y-90.038 Z-6
X94.074 Y-89.999
X94.097 Y-89.965
X94.13 Y-89.942
X94.17 Y-89.935
X94.378
X94.417 Y-89.942
X94.451 Y-89.965
X94.474 Y-89.999
X94.482 Y-90.038
X94.474 Y-90.078
X94.451 Y-90.112
X94.418 Y-90.134
X94.378 Y-90.142
X94.338 Y-90.134
X94.304 Y-90.112
X94.282 Y-90.078
X94.274 Y-90.038
X94.273 Y-84.629 F400
X94.27 Y-84.586
X94.265 Y-84.557
G3 X93.773 Y-84.557 I-0.246 J-0.043
G1 X93.768 Y-84.586
X93.764 Y-84.629
X93.759 Y-90.046
G3 X94.009 Y-90.296 I0.25 J0
G1 X94.024
G3 X94.274 Y-90.046 I0 J0.25
G1 Y-90.038
G2 X94.546 Y-89.63 I0.442 J0
G3 X94.818 Y-89.221 I-0.17 J0.408
G1 Y-84.56
X94.762 Y-84.238
X94.626 Y-83.998
X94.293 Y-83.707
X94.259 Y-83.673
X94.23 Y-83.636
X94.173 Y-83.551
X94.146 Y-83.505
X94.126 Y-83.456
X94.092 Y-83.352
X94.079 Y-83.295
X94.074 Y-83.237
X94.069 Y-81.793
X94.07 Y-48.884
X94.072 Y-48.841
X94.079 Y-48.798
X94.106 Y-48.684
X94.121 Y-48.636
X94.143 Y-48.589
X94.184 Y-48.513
X94.208 Y-48.476
X94.236 Y-48.441
X94.298 Y-48.374
X94.334 Y-48.339
X94.374 Y-48.31
X94.465 Y-48.252
X94.516 Y-48.225
X94.569 Y-48.206
X94.683 Y-48.176
X94.731 Y-48.166
X94.78 Y-48.163
X139.518 Y-48.161
Y-42.956
X139.526 Y-42.88
X139.547 Y-42.778
X139.562 Y-42.725
X139.585 Y-42.674
X139.642 Y-42.571
X139.671 Y-42.525
X139.706 Y-42.485
X140.123 Y-42.069
X140.242 Y-41.709
X140.187 Y-41.356
X139.97 Y-41.059
X139.65 Y-40.895
X139.286
X138.959 Y-41.064
X138.749 Y-41.355
X138.693 Y-41.709
X138.812 Y-42.069
X139.224 Y-42.479
X139.257 Y-42.516
X139.285 Y-42.558
X139.343 Y-42.659
X139.368 Y-42.711
X139.384 Y-42.766
X139.408 Y-42.876
X139.415 Y-42.916
X139.417 Y-42.956
X139.414 Y-47.364
X139.41 Y-47.417
X139.399 Y-47.469
X139.369 Y-47.571
X139.352 Y-47.618
X139.329 Y-47.662
X139.28 Y-47.741
X139.253 Y-47.78
X139.222 Y-47.814
X139.155 Y-47.879
X139.114 Y-47.914
X139.069 Y-47.942
X138.964 Y-47.998
X138.91 Y-48.021
X138.853 Y-48.036
X138.739 Y-48.056
X138.674 Y-48.061
X93.969
X93.968 Y-83.198
X93.965 Y-83.24
X93.959 Y-83.281
X93.933 Y-83.395
X93.918 Y-83.444
X93.896 Y-83.492
X93.853 Y-83.571
X93.826 Y-83.613
X93.795 Y-83.65
X93.719 Y-83.73
X93.693 Y-83.755
X93.411 Y-83.999
X93.275 Y-84.238
X93.219 Y-84.56
X93.214 Y-90.84
X94.819
X94.818 Y-89.221
Z-5.9 F200
G0 Z4
X99.968 Y-88.848
Z1.05
G1 Y-90.69 Z0.887 F200
X99.975 Y-90.715
X99.993 Y-90.733
X100.018 Y-90.74
X100.043 Y-90.733
X100.061 Y-90.715
X100.068 Y-90.69
Y-85.207 Z0.401
X100.061 Y-85.182
X100.043 Y-85.164
X100.018 Y-85.157
X99.993 Y-85.164
X99.975 Y-85.182
X99.968 Y-85.207
Y-90.69 Z-0.085
X99.975 Y-90.715
X99.993 Y-90.733
X100.018 Y-90.74
X100.043 Y-90.733
X100.061 Y-90.715
X100.068 Y-90.69
Y-85.207 Z-0.572
X100.061 Y-85.182
X100.043 Y-85.164
X100.018 Y-85.157
X99.993 Y-85.164
X99.975 Y-85.182
X99.968 Y-85.207
Y-90.04 Z-1
X99.972 Y-90.073
X99.985 Y-90.104
X100.132 Y-90.363
G2 X99.904 Y-90.492 I-0.114 J-0.065
X100.018 Y-90.297 I0.114 J0.065
G1 X100.025 F400
G3 X100.275 Y-90.047 I0 J0.25
G1 X100.274 Y-84.628
X100.271 Y-84.586
X100.265 Y-84.551
G3 X99.773 Y-84.551 I-0.246 J-0.043
G1 X99.767 Y-84.586
X99.763 Y-84.628
X99.761 Y-90.047
G3 X100.011 Y-90.297 I0.25 J0
G1 X100.018
X100.043 Y-90.294 Z-0.993 F200
X100.066 Y-90.285 Z-0.987
X100.094 Y-90.262 Z-0.95
X100.102 Y-90.251 Z-0.9
G0 Z4
X157.545 Y-41.461
Z1.05
G1 Y-41.092 Z0.988 F200
X157.538 Y-41.067
X157.52 Y-41.049
X157.495 Y-41.042
X157.47 Y-41.049
X157.451 Y-41.067
X157.445 Y-41.092
Y-43.932 Z0.515
X157.451 Y-43.957
X157.47 Y-43.975
X157.495 Y-43.982
X157.52 Y-43.975
X157.538 Y-43.957
X157.545 Y-43.932
Y-41.092 Z0.041
X157.538 Y-41.067
X157.52 Y-41.049
X157.495 Y-41.042
X157.47 Y-41.049
X157.451 Y-41.067
X157.445 Y-41.092
Y-43.932 Z-0.433
X157.451 Y-43.957
X157.47 Y-43.975
X157.495 Y-43.982
X157.52 Y-43.975
X157.538 Y-43.957
X157.545 Y-43.932
Y-41.092 Z-0.907
X157.538 Y-41.067
X157.52 Y-41.049
X157.495 Y-41.042
X157.47 Y-41.049
X157.451 Y-41.067
X157.445 Y-41.092
Y-41.651 Z-1
X157.452 Y-41.69
X157.471 Y-41.724
X157.502 Y-41.75
X157.539 Y-41.763
X157.578
X157.615 Y-41.75
X157.646 Y-41.724
X157.665 Y-41.69
X157.672 Y-41.651
G3 X157.317 Y-41.651 I-0.178 J0 F400
X157.672 Y-41.651 I0.178 J0
G2 X157.837 Y-41.326 I0.403 J0
G3 X157.808 Y-40.963 I-0.127 J0.173
G1 X157.677 Y-40.896
X157.306 Y-40.898
X156.994 Y-41.058
X156.778 Y-41.352
X156.72 Y-41.71
X156.838 Y-42.069
X157.235 Y-42.461
X157.278 Y-42.512
X157.332 Y-42.588
X157.359 Y-42.634
X157.38 Y-42.683
X157.419 Y-42.797
X157.434 Y-42.856
X157.439 Y-42.917
X157.444 Y-46.223
X157.44 Y-53.178
X157.436 Y-53.233
X157.424 Y-53.287
X157.392 Y-53.392
X157.372 Y-53.444
X157.344 Y-53.492
X157.281 Y-53.586
X157.249 Y-53.628
X157.21 Y-53.664
X157.134 Y-53.728
X157.092 Y-53.758
X157.046 Y-53.783
X156.948 Y-53.826
X156.904 Y-53.843
X156.859 Y-53.853
X156.783 Y-53.866
X156.719 Y-53.872
X99.969 Y-53.873
X99.968 Y-83.198
X99.965 Y-83.24
X99.959 Y-83.281
X99.933 Y-83.395
X99.917 Y-83.448
X99.893 Y-83.498
X99.841 Y-83.588
X99.811 Y-83.633
X99.775 Y-83.673
X99.669 Y-83.775
X99.655 Y-83.788
X99.418 Y-83.993
X99.273 Y-84.248
X99.219 Y-84.56
X99.217 Y-90.84
X100.822
X100.819 Y-90.777
Y-90.76
X100.818 Y-84.56
X100.762 Y-84.241
X100.632 Y-84.007
X100.293 Y-83.707
X100.262 Y-83.676
X100.235 Y-83.642
X100.181 Y-83.566
X100.156 Y-83.525
X100.136 Y-83.48
X100.101 Y-83.385
X100.086 Y-83.334
X100.078 Y-83.282
X100.07 Y-83.158
X100.069 Y-83.131
X100.073 Y-54.665
X100.077 Y-54.609
X100.09 Y-54.555
X100.121 Y-54.453
X100.139 Y-54.406
X100.163 Y-54.362
X100.212 Y-54.284
X100.241 Y-54.244
X100.275 Y-54.209
X100.349 Y-54.14
X100.393 Y-54.105
X100.442 Y-54.077
X100.551 Y-54.025
X100.607 Y-54.003
X100.666 Y-53.991
X100.786 Y-53.976
X100.833 Y-53.973
X157.544
X157.545 Y-42.956
X157.547 Y-42.915
X157.554 Y-42.874
X157.579 Y-42.761
X157.593 Y-42.713
X157.614 Y-42.667
X157.653 Y-42.592
X157.681 Y-42.548
X157.714 Y-42.508
X157.899 Y-42.316
X157.906 Y-42.309
X158.151 Y-42.067
X158.268 Y-41.721
X158.212 Y-41.354
X157.999 Y-41.06
X157.808 Y-40.963
X157.781 Y-40.955
X157.753 Y-40.957
X157.728 Y-40.97
X157.71 Y-40.991
X157.7 Y-41.017
X157.52 Y-42.101
X157.493 Y-43.228
X157.51 Y-43.286
X157.522 Y-43.297
X157.537 Y-43.295
X157.545 Y-43.28
Y-41.092 Z-1.796 F200
X157.538 Y-41.067
X157.52 Y-41.049
X157.495 Y-41.042
X157.47 Y-41.049
X157.451 Y-41.067
X157.445 Y-41.092
Y-41.651 Z-2
X157.452 Y-41.69
X157.471 Y-41.724
X157.502 Y-41.75
X157.539 Y-41.763
X157.578
X157.615 Y-41.75
X157.646 Y-41.724
X157.665 Y-41.69
X157.672 Y-41.651
G3 X157.317 Y-41.651 I-0.178 J0 F400
X157.672 Y-41.651 I0.178 J0
G1 X157.665 Y-41.602 Z-1.987 F200
X157.652 Y-41.568 Z-1.95
X157.645 Y-41.556 Z-1.9
G0 Z4
X99.968 Y-88.848
Z0.05
G1 Y-90.69 Z-0.113 F200
X99.975 Y-90.715
X99.993 Y-90.733
X100.018 Y-90.74
X100.043 Y-90.733
X100.061 Y-90.715
X100.068 Y-90.69
Y-85.207 Z-0.599
X100.061 Y-85.182
X100.043 Y-85.164
X100.018 Y-85.157
X99.993 Y-85.164
X99.975 Y-85.182
X99.968 Y-85.207
Y-90.69 Z-1.085
X99.975 Y-90.715
X99.993 Y-90.733
X100.018 Y-90.74
X100.043 Y-90.733
X100.061 Y-90.715
X100.068 Y-90.69
Y-85.207 Z-1.572
X100.061 Y-85.182
X100.043 Y-85.164
X100.018 Y-85.157
X99.993 Y-85.164
X99.975 Y-85.182
X99.968 Y-85.207
Y-90.04 Z-2
X99.972 Y-90.073
X99.985 Y-90.104
X100.132 Y-90.363
G2 X99.904 Y-90.492 I-0.114 J-0.065
X100.018 Y-90.297 I0.114 J0.065
G1 X100.025 F400
G3 X100.275 Y-90.047 I0 J0.25
G1 X100.274 Y-84.628
X100.271 Y-84.586
X100.265 Y-84.551
G3 X99.773 Y-84.551 I-0.246 J-0.043
G1 X99.767 Y-84.586
X99.763 Y-84.628
X99.761 Y-90.047
G3 X100.011 Y-90.297 I0.25 J0
G1 X100.018
G2 X100.392 Y-90.525 I0 J-0.421
G3 X100.819 Y-90.422 I0.2 J0.103
G1 X100.818 Y-84.56
X100.762 Y-84.241
X100.632 Y-84.007
X100.293 Y-83.707
X100.262 Y-83.676
X100.235 Y-83.642
X100.181 Y-83.566
X100.156 Y-83.525
X100.136 Y-83.48
X100.101 Y-83.385
X100.086 Y-83.334
X100.078 Y-83.282
X100.07 Y-83.158
X100.069 Y-83.131
X100.073 Y-54.665
X100.077 Y-54.609
X100.09 Y-54.555
X100.121 Y-54.453
X100.139 Y-54.406
X100.163 Y-54.362
X100.212 Y-54.284
X100.241 Y-54.244
X100.275 Y-54.209
X100.349 Y-54.14
X100.393 Y-54.105
X100.442 Y-54.077
X100.551 Y-54.025
X100.607 Y-54.003
X100.666 Y-53.991
X100.786 Y-53.976
X100.833 Y-53.973
X157.544
X157.545 Y-42.956
X157.547 Y-42.915
X157.554 Y-42.874
X157.579 Y-42.761
X157.593 Y-42.713
X157.614 Y-42.667
X157.653 Y-42.592
X157.681 Y-42.548
X157.714 Y-42.508
X157.899 Y-42.316
X157.906 Y-42.309
X158.151 Y-42.067
X158.268 Y-41.721
X158.212 Y-41.354
X157.999 Y-41.06
X157.677 Y-40.896
X157.306 Y-40.898
X156.994 Y-41.058
X156.778 Y-41.352
X156.72 Y-41.71
X156.838 Y-42.069
X157.235 Y-42.461
X157.278 Y-42.512
X157.332 Y-42.588
X157.359 Y-42.634
X157.38 Y-42.683
X157.419 Y-42.797
X157.434 Y-42.856
X157.439 Y-42.917
X157.444 Y-46.223
X157.44 Y-53.178
X157.436 Y-53.233
X157.424 Y-53.287
X157.392 Y-53.392
X157.372 Y-53.444
X157.344 Y-53.492
X157.281 Y-53.586
X157.249 Y-53.628
X157.21 Y-53.664
X157.134 Y-53.728
X157.092 Y-53.758
X157.046 Y-53.783
X156.948 Y-53.826
X156.904 Y-53.843
X156.859 Y-53.853
X156.783 Y-53.866
X156.719 Y-53.872
X99.969 Y-53.873
X99.968 Y-83.198
X99.965 Y-83.24
X99.959 Y-83.281
X99.933 Y-83.395
X99.917 Y-83.448
X99.893 Y-83.498
X99.841 Y-83.588
X99.811 Y-83.633
X99.775 Y-83.673
X99.669 Y-83.775
X99.655 Y-83.788
X99.418 Y-83.993
X99.273 Y-84.248
X99.219 Y-84.56
X99.217 Y-90.84
X100.822
X100.819 Y-90.777
Y-90.76
Y-90.422
X100.815 Y-90.399
X100.805 Y-90.378
X100.788 Y-90.361
X100.379 Y-90.057
X100.359 Y-90.034
X100.349 Y-90.006
X100.024 Y-87.342
X100 Y-87.286
X99.989 Y-87.276
X99.974 Y-87.279
X99.968 Y-87.292
Y-90.04 Z-3 F200
X99.972 Y-90.073
X99.985 Y-90.104
X100.132 Y-90.363
G2 X99.904 Y-90.492 I-0.114 J-0.065
X100.018 Y-90.297 I0.114 J0.065
G1 X100.025 F400
G3 X100.275 Y-90.047 I0 J0.25
G1 X100.274 Y-84.628
X100.271 Y-84.586
X100.265 Y-84.551
G3 X99.773 Y-84.551 I-0.246 J-0.043
G1 X99.767 Y-84.586
X99.763 Y-84.628
X99.761 Y-90.047
G3 X100.011 Y-90.297 I0.25 J0
G1 X100.018
X100.043 Y-90.294 Z-2.993 F200
X100.066 Y-90.285 Z-2.987
X100.094 Y-90.262 Z-2.95
X100.102 Y-90.251 Z-2.9
G0 Z4
X157.545 Y-41.461
Z2
G1 Z-0.95 F200
Y-41.092 Z-1.012
X157.538 Y-41.067
X157.52 Y-41.049
X157.495 Y-41.042
X157.47 Y-41.049
X157.451 Y-41.067
X157.445 Y-41.092
Y-43.932 Z-1.485
X157.451 Y-43.957
X157.47 Y-43.975
X157.495 Y-43.982
X157.52 Y-43.975
X157.538 Y-43.957
X157.545 Y-43.932
Y-41.092 Z-1.959
X157.538 Y-41.067
X157.52 Y-41.049
X157.495 Y-41.042
X157.47 Y-41.049
X157.451 Y-41.067
X157.445 Y-41.092
Y-43.932 Z-2.433
X157.451 Y-43.957
X157.47 Y-43.975
X157.495 Y-43.982
X157.52 Y-43.975
X157.538 Y-43.957
X157.545 Y-43.932
Y-41.092 Z-2.907
X157.538 Y-41.067
X157.52 Y-41.049
X157.495 Y-41.042
X157.47 Y-41.049
X157.451 Y-41.067
X157.445 Y-41.092
Y-41.651 Z-3
X157.452 Y-41.69
X157.471 Y-41.724
X157.502 Y-41.75
X157.539 Y-41.763
X157.578
X157.615 Y-41.75
X157.646 Y-41.724
X157.665 Y-41.69
X157.672 Y-41.651
G3 X157.317 Y-41.651 I-0.178 J0 F400
X157.672 Y-41.651 I0.178 J0
G2 X157.837 Y-41.326 I0.403 J0
G3 X157.808 Y-40.963 I-0.127 J0.173
G1 X157.677 Y-40.896
X157.306 Y-40.898
X156.994 Y-41.058
X156.778 Y-41.352
X156.72 Y-41.71
X156.838 Y-42.069
X157.235 Y-42.461
X157.278 Y-42.512
X157.332 Y-42.588
X157.359 Y-42.634
X157.38 Y-42.683
X157.419 Y-42.797
X157.434 Y-42.856
X157.439 Y-42.917
X157.444 Y-46.223
X157.44 Y-53.178
X157.436 Y-53.233
X157.424 Y-53.287
X157.392 Y-53.392
X157.372 Y-53.444
X157.344 Y-53.492
X157.281 Y-53.586
X157.249 Y-53.628
X157.21 Y-53.664
X157.134 Y-53.728
X157.092 Y-53.758
X157.046 Y-53.783
X156.948 Y-53.826
X156.904 Y-53.843
X156.859 Y-53.853
X156.783 Y-53.866
X156.719 Y-53.872
X99.969 Y-53.873
X99.968 Y-83.198
X99.965 Y-83.24
X99.959 Y-83.281
X99.933 Y-83.395
X99.917 Y-83.448
X99.893 Y-83.498
X99.841 Y-83.588
X99.811 Y-83.633
X99.775 Y-83.673
X99.669 Y-83.775
X99.655 Y-83.788
X99.418 Y-83.993
X99.273 Y-84.248
X99.219 Y-84.56
X99.217 Y-90.84
X100.822
X100.819 Y-90.777
Y-90.76
X100.818 Y-84.56
X100.762 Y-84.241
X100.632 Y-84.007
X100.293 Y-83.707
X100.262 Y-83.676
X100.235 Y-83.642
X100.181 Y-83.566
X100.156 Y-83.525
X100.136 Y-83.48
X100.101 Y-83.385
X100.086 Y-83.334
X100.078 Y-83.282
X100.07 Y-83.158
X100.069 Y-83.131
X100.073 Y-54.665
X100.077 Y-54.609
X100.09 Y-54.555
X100.121 Y-54.453
X100.139 Y-54.406
X100.163 Y-54.362
X100.212 Y-54.284
X100.241 Y-54.244
X100.275 Y-54.209
X100.349 Y-54.14
X100.393 Y-54.105
X100.442 Y-54.077
X100.551 Y-54.025
X100.607 Y-54.003
X100.666 Y-53.991
X100.786 Y-53.976
X100.833 Y-53.973
X157.544
X157.545 Y-42.956
X157.547 Y-42.915
X157.554 Y-42.874
X157.579 Y-42.761
X157.593 Y-42.713
X157.614 Y-42.667
X157.653 Y-42.592
X157.681 Y-42.548
X157.714 Y-42.508
X157.899 Y-42.316
X157.906 Y-42.309
X158.151 Y-42.067
X158.268 Y-41.721
X158.212 Y-41.354
X157.999 Y-41.06
X157.808 Y-40.963
X157.781 Y-40.955
X157.753 Y-40.957
X157.728 Y-40.97
X157.71 Y-40.991
X157.7 Y-41.017
X157.52 Y-42.101
X157.493 Y-43.228
X157.51 Y-43.286
X157.522 Y-43.297
X157.537 Y-43.295
X157.545 Y-43.28
Y-41.092 Z-3.796 F200
X157.538 Y-41.067
X157.52 Y-41.049
X157.495 Y-41.042
X157.47 Y-41.049
X157.451 Y-41.067
X157.445 Y-41.092
Y-41.651 Z-4
X157.452 Y-41.69
X157.471 Y-41.724
X157.502 Y-41.75
X157.539 Y-41.763
X157.578
X157.615 Y-41.75
X157.646 Y-41.724
X157.665 Y-41.69
X157.672 Y-41.651
G3 X157.317 Y-41.651 I-0.178 J0 F400
X157.672 Y-41.651 I0.178 J0
G1 X157.665 Y-41.602 Z-3.987 F200
X157.652 Y-41.568 Z-3.95
X157.645 Y-41.556 Z-3.9
G0 Z4
X99.968 Y-88.848
G1 Z-1.95 F200
Y-90.69 Z-2.113
X99.975 Y-90.715
X99.993 Y-90.733
X100.018 Y-90.74
X100.043 Y-90.733
X100.061 Y-90.715
X100.068 Y-90.69
Y-85.207 Z-2.599
X100.061 Y-85.182
X100.043 Y-85.164
X100.018 Y-85.157
X99.993 Y-85.164
X99.975 Y-85.182
X99.968 Y-85.207
Y-90.69 Z-3.085
X99.975 Y-90.715
X99.993 Y-90.733
X100.018 Y-90.74
X100.043 Y-90.733
X100.061 Y-90.715
X100.068 Y-90.69
Y-85.207 Z-3.572
X100.061 Y-85.182
X100.043 Y-85.164
X100.018 Y-85.157
X99.993 Y-85.164
X99.975 Y-85.182
X99.968 Y-85.207
Y-90.04 Z-4
X99.972 Y-90.073
X99.985 Y-90.104
X100.132 Y-90.363
G2 X99.904 Y-90.492 I-0.114 J-0.065
X100.018 Y-90.297 I0.114 J0.065
G1 X100.025 F400
G3 X100.275 Y-90.047 I0 J0.25
G1 X100.274 Y-84.628
X100.271 Y-84.586
X100.265 Y-84.551
G3 X99.773 Y-84.551 I-0.246 J-0.043
G1 X99.767 Y-84.586
X99.763 Y-84.628
X99.761 Y-90.047
G3 X100.011 Y-90.297 I0.25 J0
G1 X100.018
G2 X100.392 Y-90.525 I0 J-0.421
G3 X100.819 Y-90.422 I0.2 J0.103
G1 X100.818 Y-84.56
X100.762 Y-84.241
X100.632 Y-84.007
X100.293 Y-83.707
X100.262 Y-83.676
X100.235 Y-83.642
X100.181 Y-83.566
X100.156 Y-83.525
X100.136 Y-83.48
X100.101 Y-83.385
X100.086 Y-83.334
X100.078 Y-83.282
X100.07 Y-83.158
X100.069 Y-83.131
X100.073 Y-54.665
X100.077 Y-54.609
X100.09 Y-54.555
X100.121 Y-54.453
X100.139 Y-54.406
X100.163 Y-54.362
X100.212 Y-54.284
X100.241 Y-54.244
X100.275 Y-54.209
X100.349 Y-54.14
X100.393 Y-54.105
X100.442 Y-54.077
X100.551 Y-54.025
X100.607 Y-54.003
X100.666 Y-53.991
X100.786 Y-53.976
X100.833 Y-53.973
X157.544
X157.545 Y-42.956
X157.547 Y-42.915
X157.554 Y-42.874
X157.579 Y-42.761
X157.593 Y-42.713
X157.614 Y-42.667
X157.653 Y-42.592
X157.681 Y-42.548
X157.714 Y-42.508
X157.899 Y-42.316
X157.906 Y-42.309
X158.151 Y-42.067
X158.268 Y-41.721
X158.212 Y-41.354
X157.999 Y-41.06
X157.677 Y-40.896
X157.306 Y-40.898
X156.994 Y-41.058
X156.778 Y-41.352
X156.72 Y-41.71
X156.838 Y-42.069
X157.235 Y-42.461
X157.278 Y-42.512
X157.332 Y-42.588
X157.359 Y-42.634
X157.38 Y-42.683
X157.419 Y-42.797
X157.434 Y-42.856
X157.439 Y-42.917
X157.444 Y-46.223
X157.44 Y-53.178
X157.436 Y-53.233
X157.424 Y-53.287
X157.392 Y-53.392
X157.372 Y-53.444
X157.344 Y-53.492
X157.281 Y-53.586
X157.249 Y-53.628
X157.21 Y-53.664
X157.134 Y-53.728
X157.092 Y-53.758
X157.046 Y-53.783
X156.948 Y-53.826
X156.904 Y-53.843
X156.859 Y-53.853
X156.783 Y-53.866
X156.719 Y-53.872
X99.969 Y-53.873
X99.968 Y-83.198
X99.965 Y-83.24
X99.959 Y-83.281
X99.933 Y-83.395
X99.917 Y-83.448
X99.893 Y-83.498
X99.841 Y-83.588
X99.811 Y-83.633
X99.775 Y-83.673
X99.669 Y-83.775
X99.655 Y-83.788
X99.418 Y-83.993
X99.273 Y-84.248
X99.219 Y-84.56
X99.217 Y-90.84
X100.822
X100.819 Y-90.777
Y-90.76
Y-90.422
X100.815 Y-90.399
X100.805 Y-90.378
X100.788 Y-90.361
X100.379 Y-90.057
X100.359 Y-90.034
X100.349 Y-90.006
X100.024 Y-87.342
X100 Y-87.286
X99.989 Y-87.276
X99.974 Y-87.279
X99.968 Y-87.292
Y-90.04 Z-5 F200
X99.972 Y-90.073
X99.985 Y-90.104
X100.132 Y-90.363
G2 X99.904 Y-90.492 I-0.114 J-0.065
X100.018 Y-90.297 I0.114 J0.065
G1 X100.025 F400
G3 X100.275 Y-90.047 I0 J0.25
G1 X100.274 Y-84.628
X100.271 Y-84.586
X100.265 Y-84.551
G3 X99.773 Y-84.551 I-0.246 J-0.043
G1 X99.767 Y-84.586
X99.763 Y-84.628
X99.761 Y-90.047
G3 X100.011 Y-90.297 I0.25 J0
G1 X100.018
X100.043 Y-90.294 Z-4.993 F200
X100.066 Y-90.285 Z-4.987
X100.094 Y-90.262 Z-4.95
X100.102 Y-90.251 Z-4.9
G0 Z4
X157.545 Y-41.461
G1 Z-2.95 F200
Y-41.092 Z-3.012
X157.538 Y-41.067
X157.52 Y-41.049
X157.495 Y-41.042
X157.47 Y-41.049
X157.451 Y-41.067
X157.445 Y-41.092
Y-43.932 Z-3.485
X157.451 Y-43.957
X157.47 Y-43.975
X157.495 Y-43.982
X157.52 Y-43.975
X157.538 Y-43.957
X157.545 Y-43.932
Y-41.092 Z-3.959
X157.538 Y-41.067
X157.52 Y-41.049
X157.495 Y-41.042
X157.47 Y-41.049
X157.451 Y-41.067
X157.445 Y-41.092
Y-43.932 Z-4.433
X157.451 Y-43.957
X157.47 Y-43.975
X157.495 Y-43.982
X157.52 Y-43.975
X157.538 Y-43.957
X157.545 Y-43.932
Y-41.092 Z-4.907
X157.538 Y-41.067
X157.52 Y-41.049
X157.495 Y-41.042
X157.47 Y-41.049
X157.451 Y-41.067
X157.445 Y-41.092
Y-41.651 Z-5
X157.452 Y-41.69
X157.471 Y-41.724
X157.502 Y-41.75
X157.539 Y-41.763
X157.578
X157.615 Y-41.75
X157.646 Y-41.724
X157.665 Y-41.69
X157.672 Y-41.651
G3 X157.317 Y-41.651 I-0.178 J0 F400
X157.672 Y-41.651 I0.178 J0
G2 X157.837 Y-41.326 I0.403 J0
G3 X157.808 Y-40.963 I-0.127 J0.173
G1 X157.677 Y-40.896
X157.306 Y-40.898
X156.994 Y-41.058
X156.778 Y-41.352
X156.72 Y-41.71
X156.838 Y-42.069
X157.235 Y-42.461
X157.278 Y-42.512
X157.332 Y-42.588
X157.359 Y-42.634
X157.38 Y-42.683
X157.419 Y-42.797
X157.434 Y-42.856
X157.439 Y-42.917
X157.444 Y-46.223
X157.44 Y-53.178
X157.436 Y-53.233
X157.424 Y-53.287
X157.392 Y-53.392
X157.372 Y-53.444
X157.344 Y-53.492
X157.281 Y-53.586
X157.249 Y-53.628
X157.21 Y-53.664
X157.134 Y-53.728
X157.092 Y-53.758
X157.046 Y-53.783
X156.948 Y-53.826
X156.904 Y-53.843
X156.859 Y-53.853
X156.783 Y-53.866
X156.719 Y-53.872
X99.969 Y-53.873
X99.968 Y-83.198
X99.965 Y-83.24
X99.959 Y-83.281
X99.933 Y-83.395
X99.917 Y-83.448
X99.893 Y-83.498
X99.841 Y-83.588
X99.811 Y-83.633
X99.775 Y-83.673
X99.669 Y-83.775
X99.655 Y-83.788
X99.418 Y-83.993
X99.273 Y-84.248
X99.219 Y-84.56
X99.217 Y-90.84
X100.822
X100.819 Y-90.777
Y-90.76
X100.818 Y-84.56
X100.762 Y-84.241
X100.632 Y-84.007
X100.293 Y-83.707
X100.262 Y-83.676
X100.235 Y-83.642
X100.181 Y-83.566
X100.156 Y-83.525
X100.136 Y-83.48
X100.101 Y-83.385
X100.086 Y-83.334
X100.078 Y-83.282
X100.07 Y-83.158
X100.069 Y-83.131
X100.073 Y-54.665
X100.077 Y-54.609
X100.09 Y-54.555
X100.121 Y-54.453
X100.139 Y-54.406
X100.163 Y-54.362
X100.212 Y-54.284
X100.241 Y-54.244
X100.275 Y-54.209
X100.349 Y-54.14
X100.393 Y-54.105
X100.442 Y-54.077
X100.551 Y-54.025
X100.607 Y-54.003
X100.666 Y-53.991
X100.786 Y-53.976
X100.833 Y-53.973
X157.544
X157.545 Y-42.956
X157.547 Y-42.915
X157.554 Y-42.874
X157.579 Y-42.761
X157.593 Y-42.713
X157.614 Y-42.667
X157.653 Y-42.592
X157.681 Y-42.548
X157.714 Y-42.508
X157.899 Y-42.316
X157.906 Y-42.309
X158.151 Y-42.067
X158.268 Y-41.721
X158.212 Y-41.354
X157.999 Y-41.06
X157.808 Y-40.963
X157.781 Y-40.955
X157.753 Y-40.957
X157.728 Y-40.97
X157.71 Y-40.991
X157.7 Y-41.017
X157.52 Y-42.101
X157.493 Y-43.228
X157.51 Y-43.286
X157.522 Y-43.297
X157.537 Y-43.295
X157.545 Y-43.28
Y-41.092 Z-5.796 F200
X157.538 Y-41.067
X157.52 Y-41.049
X157.495 Y-41.042
X157.47 Y-41.049
X157.451 Y-41.067
X157.445 Y-41.092
Y-41.651 Z-6
X157.452 Y-41.69
X157.471 Y-41.724
X157.502 Y-41.75
X157.539 Y-41.763
X157.578
X157.615 Y-41.75
X157.646 Y-41.724
X157.665 Y-41.69
X157.672 Y-41.651
G3 X157.317 Y-41.651 I-0.178 J0 F400
X157.672 Y-41.651 I0.178 J0
G1 X157.665 Y-41.602 Z-5.987 F200
X157.652 Y-41.568 Z-5.95
X157.645 Y-41.556 Z-5.9
G0 Z4
X99.968 Y-88.848
G1 Z-3.95 F200
Y-90.69 Z-4.113
X99.975 Y-90.715
X99.993 Y-90.733
X100.018 Y-90.74
X100.043 Y-90.733
X100.061 Y-90.715
X100.068 Y-90.69
Y-85.207 Z-4.599
X100.061 Y-85.182
X100.043 Y-85.164
X100.018 Y-85.157
X99.993 Y-85.164
X99.975 Y-85.182
X99.968 Y-85.207
Y-90.69 Z-5.085
X99.975 Y-90.715
X99.993 Y-90.733
X100.018 Y-90.74
X100.043 Y-90.733
X100.061 Y-90.715
X100.068 Y-90.69
Y-85.207 Z-5.572
X100.061 Y-85.182
X100.043 Y-85.164
X100.018 Y-85.157
X99.993 Y-85.164
X99.975 Y-85.182
X99.968 Y-85.207
Y-90.04 Z-6
X99.972 Y-90.073
X99.985 Y-90.104
X100.132 Y-90.363
G2 X99.904 Y-90.492 I-0.114 J-0.065
X100.018 Y-90.297 I0.114 J0.065
G1 X100.025 F400
G3 X100.275 Y-90.047 I0 J0.25
G1 X100.274 Y-84.628
X100.271 Y-84.586
X100.265 Y-84.551
G3 X99.773 Y-84.551 I-0.246 J-0.043
G1 X99.767 Y-84.586
X99.763 Y-84.628
X99.761 Y-90.047
G3 X100.011 Y-90.297 I0.25 J0
G1 X100.018
G2 X100.392 Y-90.525 I0 J-0.421
G3 X100.819 Y-90.422 I0.2 J0.103
G1 X100.818 Y-84.56
X100.762 Y-84.241
X100.632 Y-84.007
X100.293 Y-83.707
X100.262 Y-83.676
X100.235 Y-83.642
X100.181 Y-83.566
X100.156 Y-83.525
X100.136 Y-83.48
X100.101 Y-83.385
X100.086 Y-83.334
X100.078 Y-83.282
X100.07 Y-83.158
X100.069 Y-83.131
X100.073 Y-54.665
X100.077 Y-54.609
X100.09 Y-54.555
X100.121 Y-54.453
X100.139 Y-54.406
X100.163 Y-54.362
X100.212 Y-54.284
X100.241 Y-54.244
X100.275 Y-54.209
X100.349 Y-54.14
X100.393 Y-54.105
X100.442 Y-54.077
X100.551 Y-54.025
X100.607 Y-54.003
X100.666 Y-53.991
X100.786 Y-53.976
X100.833 Y-53.973
X157.544
X157.545 Y-42.956
X157.547 Y-42.915
X157.554 Y-42.874
X157.579 Y-42.761
X157.593 Y-42.713
X157.614 Y-42.667
X157.653 Y-42.592
X157.681 Y-42.548
X157.714 Y-42.508
X157.899 Y-42.316
X157.906 Y-42.309
X158.151 Y-42.067
X158.268 Y-41.721
X158.212 Y-41.354
X157.999 Y-41.06
X157.677 Y-40.896
X157.306 Y-40.898
X156.994 Y-41.058
X156.778 Y-41.352
X156.72 Y-41.71
X156.838 Y-42.069
X157.235 Y-42.461
X157.278 Y-42.512
X157.332 Y-42.588
X157.359 Y-42.634
X157.38 Y-42.683
X157.419 Y-42.797
X157.434 Y-42.856
X157.439 Y-42.917
X157.444 Y-46.223
X157.44 Y-53.178
X157.436 Y-53.233
X157.424 Y-53.287
X157.392 Y-53.392
X157.372 Y-53.444
X157.344 Y-53.492
X157.281 Y-53.586
X157.249 Y-53.628
X157.21 Y-53.664
X157.134 Y-53.728
X157.092 Y-53.758
X157.046 Y-53.783
X156.948 Y-53.826
X156.904 Y-53.843
X156.859 Y-53.853
X156.783 Y-53.866
X156.719 Y-53.872
X99.969 Y-53.873
X99.968 Y-83.198
X99.965 Y-83.24
X99.959 Y-83.281
X99.933 Y-83.395
X99.917 Y-83.448
X99.893 Y-83.498
X99.841 Y-83.588
X99.811 Y-83.633
X99.775 Y-83.673
X99.669 Y-83.775
X99.655 Y-83.788
X99.418 Y-83.993
X99.273 Y-84.248
X99.219 Y-84.56
X99.217 Y-90.84
X100.822
X100.819 Y-90.777
Y-90.76
Y-90.422
X100.815 Y-90.397 Z-5.993 F200
X100.806 Y-90.374 Z-5.987
X100.783 Y-90.345 Z-5.95
X100.773 Y-90.337 Z-5.9
G0 Z4
X120.275 Y-36.602
Z1.05
G1 X124.208 Z0.701 F200
X124.233 Y-36.596
X124.252 Y-36.577
X124.258 Y-36.552
X124.252 Y-36.527
X124.233 Y-36.509
X124.208 Y-36.502
X118.726 Z0.215
X118.701 Y-36.509
X118.683 Y-36.527
X118.676 Y-36.552
X118.683 Y-36.577
X118.701 Y-36.596
X118.726 Y-36.602
X124.208 Z-0.271
X124.233 Y-36.596
X124.252 Y-36.577
X124.258 Y-36.552
X124.252 Y-36.527
X124.233 Y-36.509
X124.208 Y-36.502
X118.726 Z-0.757
X118.701 Y-36.509
X118.683 Y-36.527
X118.676 Y-36.552
X118.683 Y-36.577
X118.701 Y-36.596
X118.726 Y-36.602
X121.467 Z-1
X121.494 Y-36.598
X121.519 Y-36.587
X121.691 Y-36.474
X121.726 Y-36.46
X121.764 Y-36.461
X121.799 Y-36.477
X121.824 Y-36.505
X121.836 Y-36.541
X121.833 Y-36.579
X121.815 Y-36.613
X121.785 Y-36.636
X121.748 Y-36.646
X121.71 Y-36.641
X121.678 Y-36.621
X121.656 Y-36.59
X121.649 Y-36.552
G3 X121.286 Y-36.552 I-0.181 J0 F400
X121.649 Y-36.552 I0.181 J0
G1 X121.642 Y-36.503 Z-0.987 F200
X121.628 Y-36.469 Z-0.95
X121.622 Y-36.457 Z-0.9
G0 Z4
X138.276 Y-36.602
Z1.05
G1 X142.209 Z0.701 F200
X142.234 Y-36.596
X142.253 Y-36.577
X142.259 Y-36.552
X142.253 Y-36.527
X142.234 Y-36.509
X142.209 Y-36.502
X136.727 Z0.215
X136.702 Y-36.509
X136.684 Y-36.527
X136.677 Y-36.552
X136.684 Y-36.577
X136.702 Y-36.596
X136.727 Y-36.602
X142.209 Z-0.271
X142.234 Y-36.596
X142.253 Y-36.577
X142.259 Y-36.552
X142.253 Y-36.527
X142.234 Y-36.509
X142.209 Y-36.502
X136.727 Z-0.757
X136.702 Y-36.509
X136.684 Y-36.527
X136.677 Y-36.552
X136.684 Y-36.577
X136.702 Y-36.596
X136.727 Y-36.602
X139.468 Z-1
X139.495 Y-36.598
X139.52 Y-36.587
X139.692 Y-36.474
X139.728 Y-36.459
X139.766 Y-36.461
X139.8 Y-36.477
X139.826 Y-36.505
X139.838 Y-36.541
X139.834 Y-36.579
X139.816 Y-36.613
X139.786 Y-36.636
X139.75 Y-36.646
X139.712 Y-36.641
X139.679 Y-36.621
X139.658 Y-36.59
X139.65 Y-36.552
G3 X139.287 Y-36.552 I-0.182 J0 F400
X139.65 Y-36.552 I0.182 J0
G1 X139.643 Y-36.503 Z-0.987 F200
X139.63 Y-36.469 Z-0.95
X139.623 Y-36.457 Z-0.9
G0 Z4
X156.301 Y-36.602
Z1.05
G1 X158.053 Z0.895 F200
X158.078 Y-36.596
X158.096 Y-36.577
X158.103 Y-36.552
X158.096 Y-36.527
X158.078 Y-36.509
X158.053 Y-36.502
X152.57 Z0.409
X152.545 Y-36.509
X152.527 Y-36.527
X152.52 Y-36.552
X152.527 Y-36.577
X152.545 Y-36.596
X152.57 Y-36.602
X158.053 Z-0.077
X158.078 Y-36.596
X158.096 Y-36.577
X158.103 Y-36.552
X158.096 Y-36.527
X158.078 Y-36.509
X158.053 Y-36.502
X152.57 Z-0.564
X152.545 Y-36.509
X152.527 Y-36.527
X152.52 Y-36.552
X152.527 Y-36.577
X152.545 Y-36.596
X152.57 Y-36.602
X157.494 Z-1
X157.52 Y-36.598
X157.545 Y-36.587
X157.712 Y-36.475
X157.747 Y-36.461
X157.784 Y-36.462
X157.818 Y-36.478
X157.843 Y-36.506
X157.855 Y-36.541
X157.852 Y-36.578
X157.834 Y-36.611
X157.805 Y-36.635
X157.769 Y-36.644
X157.732 Y-36.639
X157.7 Y-36.619
X157.679 Y-36.589
X157.671 Y-36.552
G3 X157.316 Y-36.552 I-0.178 J0 F400
X157.671 Y-36.552 I0.178 J0
G1 X157.668 Y-36.528 Z-0.993 F200
X157.659 Y-36.504 Z-0.987
X157.636 Y-36.476 Z-0.95
X157.625 Y-36.468 Z-0.9
G0 Z4
X81.968 Y-88.848
Z1.05
G1 Y-90.69 Z0.887 F200
X81.975 Y-90.715
X81.993 Y-90.733
X82.018 Y-90.74
X82.043 Y-90.733
X82.061 Y-90.715
X82.068 Y-90.69
Y-85.207 Z0.401
X82.061 Y-85.182
X82.043 Y-85.164
X82.018 Y-85.157
X81.993 Y-85.164
X81.975 Y-85.182
X81.968 Y-85.207
Y-90.69 Z-0.085
X81.975 Y-90.715
X81.993 Y-90.733
X82.018 Y-90.74
X82.043 Y-90.733
X82.061 Y-90.715
X82.068 Y-90.69
Y-85.207 Z-0.572
X82.061 Y-85.182
X82.043 Y-85.164
X82.018 Y-85.157
X81.993 Y-85.164
X81.975 Y-85.182
X81.968 Y-85.207
Y-90.04 Z-1
X81.972 Y-90.073
X81.985 Y-90.104
X82.132 Y-90.363
G2 X81.904 Y-90.492 I-0.114 J-0.065
X82.018 Y-90.297 I0.114 J0.065
G1 X82.025 F400
G3 X82.275 Y-90.047 I0 J0.25
G1 X82.274 Y-84.632
X82.27 Y-84.588
X82.264 Y-84.554
G3 X81.773 Y-84.555 I-0.246 J-0.044
G1 X81.767 Y-84.587
X81.763 Y-84.631
X81.761 Y-90.047
G3 X82.011 Y-90.297 I0.25 J0
G1 X82.018
X82.043 Y-90.294 Z-0.993 F200
X82.066 Y-90.285 Z-0.987
X82.094 Y-90.262 Z-0.95
X82.102 Y-90.251 Z-0.9
G0 Z4
X42.52 Y-41.352
Z1.05
G1 Y-43.103 Z0.895 F200
X42.526 Y-43.128
X42.545 Y-43.147
X42.57 Y-43.153
X42.595 Y-43.147
X42.613 Y-43.128
X42.62 Y-43.103
Y-37.621 Z0.409
X42.613 Y-37.596
X42.595 Y-37.578
X42.57 Y-37.571
X42.545 Y-37.578
X42.526 Y-37.596
X42.52 Y-37.621
Y-43.103 Z-0.077
X42.526 Y-43.128
X42.545 Y-43.147
X42.57 Y-43.153
X42.595 Y-43.147
X42.613 Y-43.128
X42.62 Y-43.103
Y-37.621 Z-0.564
X42.613 Y-37.596
X42.595 Y-37.578
X42.57 Y-37.571
X42.545 Y-37.578
X42.526 Y-37.596
X42.52 Y-37.621
Y-42.544 Z-1
X42.526 Y-42.583
X42.546 Y-42.617
X42.577 Y-42.643
X42.614 Y-42.656
X42.653
X42.691 Y-42.643
X42.721 Y-42.617
X42.741 Y-42.583
X42.748 Y-42.544
G3 X42.391 Y-42.544 I-0.178 J0 F400
X42.748 Y-42.544 I0.178 J0
G1 X42.741 Y-42.495 Z-0.987 F200
X42.727 Y-42.461 Z-0.95
X42.72 Y-42.449 Z-0.9
G0 Z4
X22.703 Y-16.493
Z1.05
G1 X20.408 Z0.847 F200
X20.383 Y-16.5
X20.365 Y-16.518
X20.358 Y-16.543
X20.365 Y-16.568
X20.383 Y-16.586
X20.408 Y-16.593
X25.89 Z0.36
X25.915 Y-16.586
X25.934 Y-16.568
X25.94 Y-16.543
X25.934 Y-16.518
X25.915 Y-16.5
X25.89 Y-16.493
X20.408 Z-0.126
X20.383 Y-16.5
X20.365 Y-16.518
X20.358 Y-16.543
X20.365 Y-16.568
X20.383 Y-16.586
X20.408 Y-16.593
X25.89 Z-0.612
X25.915 Y-16.586
X25.934 Y-16.568
X25.94 Y-16.543
X25.934 Y-16.518
X25.915 Y-16.5
X25.89 Y-16.493
X21.511 Z-1
X21.493 Y-16.491
X21.477 Y-16.485
X21.325 Y-16.404
X21.299 Y-16.382
X21.287 Y-16.351
X21.29 Y-16.317
X21.308 Y-16.289
X21.336 Y-16.271
X21.37 Y-16.269
X21.401 Y-16.281
X21.423 Y-16.307
X21.431 Y-16.339
X21.423 Y-16.372
X21.402 Y-16.398
G3 X21.62 Y-16.688 I0.109 J-0.145 F400
X21.402 Y-16.398 I-0.109 J0.145
G1 X21.366 Y-16.433 Z-0.987 F200
X21.347 Y-16.464 Z-0.95
X21.342 Y-16.476 Z-0.9
G0 Z4
X7.264 Y-16.587
Z1.05
G1 X5.895 Z0.674 F200
X5.87 Y-16.594
X5.852 Y-16.612
X5.845 Y-16.637
X5.852 Y-16.662
X5.87 Y-16.681
X5.895 Y-16.687
X7.557 Z0.217
X7.582 Y-16.681
X7.6 Y-16.662
X7.607 Y-16.637
X7.6 Y-16.612
X7.582 Y-16.594
X7.557 Y-16.587
X5.895 Z-0.24
X5.87 Y-16.594
X5.852 Y-16.612
X5.845 Y-16.637
X5.852 Y-16.662
X5.87 Y-16.681
X5.895 Y-16.687
X7.557 Z-0.697
X7.582 Y-16.681
X7.6 Y-16.662
X7.607 Y-16.637
X7.6 Y-16.612
X7.582 Y-16.594
X7.557 Y-16.587
X6.454 Z-1
X6.437 Y-16.585
X6.421 Y-16.579
X6.272 Y-16.501
X6.248 Y-16.48
X6.235 Y-16.449
X6.238 Y-16.416
X6.255 Y-16.389
X6.283 Y-16.372
X6.316 Y-16.369
X6.346 Y-16.381
X6.368 Y-16.406
X6.376 Y-16.438
X6.368 Y-16.47
X6.347 Y-16.495
G3 X6.561 Y-16.78 I0.107 J-0.142 F400
X6.347 Y-16.495 I-0.107 J0.142
G2 X5.988 Y-16.567 I-0.255 J0.34
G3 X5.699 Y-16.791 I-0.057 J-0.225
G1 Y-16.825
X5.864 Y-17.144
X6.157 Y-17.355
X6.525 Y-17.412
X6.861 Y-17.299
X7.298 Y-16.863
X7.335 Y-16.83
X7.376 Y-16.803
X7.452 Y-16.759
X7.499 Y-16.736
X7.548 Y-16.721
X7.662 Y-16.692
X7.706 Y-16.684
X7.751 Y-16.681
X20.238 Y-16.606
X20.294 Y-16.61
X20.35 Y-16.622
X20.464 Y-16.657
X20.513 Y-16.676
X20.559 Y-16.702
X20.636 Y-16.752
X20.671 Y-16.778
X20.703 Y-16.808
X21.06 Y-17.185
X21.346 Y-17.309
X21.664 Y-17.31
X21.962 Y-17.184
X22.313 Y-16.81
X22.37 Y-16.76
X22.447 Y-16.707
X22.486 Y-16.682
X22.528 Y-16.663
X22.613 Y-16.63
X22.662 Y-16.615
X22.713 Y-16.607
X22.832 Y-16.596
X22.867 Y-16.594
X41.826 Y-16.598
X41.883 Y-16.603
X41.94 Y-16.616
X42.054 Y-16.653
X42.107 Y-16.674
X42.156 Y-16.704
X42.244 Y-16.766
X42.285 Y-16.8
X42.321 Y-16.839
X42.386 Y-16.92
X42.418 Y-16.967
X42.442 Y-17.019
X42.487 Y-17.133
X42.501 Y-17.18
X42.51 Y-17.229
X42.518 Y-17.305
X42.52 Y-17.344
X42.519 Y-41.246
X42.516 Y-41.289
X42.509 Y-41.331
X42.482 Y-41.445
X42.465 Y-41.498
X42.441 Y-41.548
X42.389 Y-41.638
X42.362 Y-41.678
X42.33 Y-41.715
X41.907 Y-42.138
X41.794 Y-42.48
X41.853 Y-42.846
X42.063 Y-43.137
X42.387 Y-43.303
X42.751
X43.078 Y-43.134
X43.286 Y-42.846
X43.344 Y-42.487
X43.313 Y-42.384
X43.231 Y-42.136
X43.227 Y-42.132
X42.802 Y-41.705
X42.768 Y-41.666
X42.74 Y-41.623
X42.695 Y-41.543
X42.673 Y-41.495
X42.657 Y-41.445
X42.63 Y-41.331
X42.623 Y-41.289
X42.621 Y-41.245
X42.624 Y-37.293
X42.629 Y-37.234
X42.643 Y-37.177
X42.68 Y-37.063
X42.7 Y-37.014
X42.727 Y-36.968
X42.779 Y-36.892
X42.81 Y-36.853
X42.846 Y-36.818
X42.926 Y-36.75
X42.97 Y-36.717
X43.019 Y-36.692
X43.121 Y-36.647
X43.166 Y-36.63
X43.212 Y-36.62
X43.289 Y-36.608
X43.348 Y-36.603
X81.265 Y-36.605
X81.319 Y-36.609
X81.372 Y-36.621
X81.489 Y-36.655
X81.543 Y-36.676
X81.592 Y-36.704
X81.68 Y-36.763
X81.723 Y-36.798
X81.761 Y-36.838
X81.833 Y-36.926
X81.866 Y-36.973
X81.891 Y-37.024
X81.932 Y-37.129
X81.95 Y-37.185
X81.958 Y-37.242
X81.968 Y-37.382
X81.969 Y-37.408
X81.964 Y-83.23
X81.961 Y-83.28
X81.951 Y-83.328
X81.929 Y-83.41
X81.915 Y-83.451
X81.897 Y-83.49
X81.856 Y-83.566
X81.831 Y-83.606
X81.801 Y-83.643
X81.731 Y-83.719
X81.705 Y-83.745
X81.401 Y-84.013
X81.278 Y-84.232
X81.219 Y-84.561
X81.217 Y-90.84
X82.822
X82.819 Y-90.777
Y-90.76
X82.818 Y-84.561
X82.758 Y-84.23
X82.634 Y-84.01
X82.604 Y-83.979
X82.279 Y-83.691
X82.238 Y-83.649
X82.205 Y-83.601
X82.147 Y-83.502
X82.121 Y-83.45
X82.104 Y-83.395
X82.079 Y-83.281
X82.072 Y-83.24
X82.069 Y-83.198
X82.073 Y-37.296
X82.077 Y-37.238
X82.091 Y-37.182
X82.126 Y-37.069
X82.146 Y-37.02
X82.173 Y-36.973
X82.227 Y-36.893
X82.261 Y-36.851
X82.301 Y-36.813
X82.395 Y-36.737
X82.44 Y-36.705
X82.49 Y-36.68
X82.584 Y-36.642
X82.623 Y-36.628
X82.664 Y-36.619
X82.726 Y-36.609
X82.788 Y-36.603
X120.173 Y-36.604
X120.22 Y-36.607
X120.266 Y-36.615
X120.385 Y-36.646
X120.438 Y-36.664
X120.488 Y-36.69
X120.575 Y-36.743
X120.615 Y-36.772
X120.651 Y-36.806
X121.012 Y-37.19
X121.02 Y-37.194
X121.315 Y-37.32
X121.619
X121.923 Y-37.19
X122.284 Y-36.806
X122.32 Y-36.772
X122.36 Y-36.744
X122.445 Y-36.691
X122.495 Y-36.665
X122.548 Y-36.647
X122.667 Y-36.616
X122.714 Y-36.607
X122.761 Y-36.604
X138.179
X138.229 Y-36.608
X138.277 Y-36.617
X138.392 Y-36.648
X138.448 Y-36.669
X138.501 Y-36.698
X138.603 Y-36.765
X138.638 Y-36.792
X138.669 Y-36.822
X139.017 Y-37.193
X139.308 Y-37.32
X139.625
X139.918 Y-37.192
X140.276 Y-36.812
X140.312 Y-36.779
X140.353 Y-36.75
X140.458 Y-36.685
X140.511 Y-36.658
X140.569 Y-36.64
X140.683 Y-36.613
X140.725 Y-36.606
X140.768 Y-36.603
X156.219 Y-36.606
X156.271 Y-36.61
X156.322 Y-36.62
X156.42 Y-36.648
X156.471 Y-36.667
X156.519 Y-36.693
X156.618 Y-36.756
X156.651 Y-36.78
X156.682 Y-36.808
X157.076 Y-37.207
X157.429 Y-37.327
X157.791 Y-37.271
X158.085 Y-37.059
X158.248 Y-36.741
Y-36.364
X158.085 Y-36.045
X157.791 Y-35.833
X157.435 Y-35.777
X157.091 Y-35.889
X156.679 Y-36.299
X156.626 Y-36.343
X156.55 Y-36.395
X156.504 Y-36.422
X156.455 Y-36.442
X156.341 Y-36.479
X156.283 Y-36.493
X156.224 Y-36.498
X140.768 Y-36.501
X140.725 Y-36.499
X140.683 Y-36.491
X140.569 Y-36.465
X140.515 Y-36.448
X140.465 Y-36.423
X140.373 Y-36.37
X140.33 Y-36.34
X140.291 Y-36.305
X139.916 Y-35.911
X139.625 Y-35.785
X139.313
X139.274 Y-35.8
X139.008 Y-35.919
X138.643 Y-36.306
X138.605 Y-36.341
X138.563 Y-36.37
X138.487 Y-36.416
X138.44 Y-36.439
X138.391 Y-36.456
X138.277 Y-36.487
X138.229 Y-36.497
X138.179 Y-36.5
X122.761 Y-36.501
X122.716 Y-36.498
X122.671 Y-36.49
X122.56 Y-36.462
X122.504 Y-36.443
X122.452 Y-36.416
X122.348 Y-36.351
X122.309 Y-36.323
X122.274 Y-36.29
X121.92 Y-35.913
X121.619 Y-35.785
X121.315
X121.016 Y-35.913
X120.661 Y-36.291
X120.625 Y-36.324
X120.585 Y-36.353
X120.481 Y-36.417
X120.429 Y-36.445
X120.372 Y-36.463
X120.261 Y-36.49
X120.217 Y-36.498
X120.173 Y-36.501
X43.31 Y-36.498
X43.25 Y-36.493
X43.192 Y-36.478
X43.078 Y-36.441
X43.025 Y-36.418
X42.975 Y-36.388
X42.886 Y-36.322
X42.844 Y-36.288
X42.809 Y-36.248
X42.746 Y-36.165
X42.718 Y-36.124
X42.696 Y-36.079
X42.66 Y-35.992
X42.644 Y-35.943
X42.635 Y-35.892
X42.622 Y-35.778
X42.62 Y-35.736
Y-16.494
X22.791 Y-16.491
X22.737 Y-16.487
X22.684 Y-16.475
X22.57 Y-16.441
X22.52 Y-16.423
X22.474 Y-16.398
X22.398 Y-16.349
X22.361 Y-16.322
X22.328 Y-16.291
X21.962 Y-15.903
X21.67 Y-15.776
X21.348 Y-15.778
X21.054 Y-15.907
X20.696 Y-16.293
X20.659 Y-16.329
X20.617 Y-16.358
X20.52 Y-16.418
X20.474 Y-16.442
X20.425 Y-16.459
X20.334 Y-16.485
X20.285 Y-16.495
X20.236 Y-16.498
X7.756 Y-16.578
X7.714 Y-16.576
X7.672 Y-16.57
X7.558 Y-16.544
X7.505 Y-16.528
X7.455 Y-16.505
X7.366 Y-16.455
X7.324 Y-16.427
X7.286 Y-16.394
X6.862 Y-15.975
X6.507 Y-15.862
X6.151 Y-15.921
X5.86 Y-16.134
X5.7 Y-16.451
X5.699 Y-16.791
X5.706 Y-16.828
X5.726 Y-16.86
X5.756 Y-16.882
X5.792 Y-16.892
X5.829 Y-16.887
X5.862 Y-16.869
X5.886 Y-16.84
X6 Y-16.636
X6.011 Y-16.601
X6.009 Y-16.564
X5.994 Y-16.53
X5.967 Y-16.504
X5.933 Y-16.49
X5.896 Y-16.489
X5.861 Y-16.501
X5.833 Y-16.526
X5.816 Y-16.558
X5.812 Y-16.595
X5.822 Y-16.631
X5.844 Y-16.661
X5.876 Y-16.68
X5.912 Y-16.687
X7.557 Z-1.599 F200
X7.582 Y-16.681
X7.6 Y-16.662
X7.607 Y-16.637
X7.6 Y-16.612
X7.582 Y-16.594
X7.557 Y-16.587
X6.454 Z-2
X6.437 Y-16.585
X6.421 Y-16.579
X6.272 Y-16.501
X6.248 Y-16.48
X6.235 Y-16.449
X6.238 Y-16.416
X6.255 Y-16.389
X6.283 Y-16.372
X6.316 Y-16.369
X6.346 Y-16.381
X6.368 Y-16.406
X6.376 Y-16.438
X6.368 Y-16.47
X6.347 Y-16.495
G3 X6.561 Y-16.78 I0.107 J-0.142 F400
X6.347 Y-16.495 I-0.107 J0.142
G1 X6.329 Y-16.512 Z-1.993 F200
X6.316 Y-16.533 Z-1.987
X6.307 Y-16.568 Z-1.95
Y-16.582 Z-1.9
G0 Z4
X22.703 Y-16.493
Z0.05
G1 X20.408 Z-0.153 F200
X20.383 Y-16.5
X20.365 Y-16.518
X20.358 Y-16.543
X20.365 Y-16.568
X20.383 Y-16.586
X20.408 Y-16.593
X25.89 Z-0.64
X25.915 Y-16.586
X25.934 Y-16.568
X25.94 Y-16.543
X25.934 Y-16.518
X25.915 Y-16.5
X25.89 Y-16.493
X20.408 Z-1.126
X20.383 Y-16.5
X20.365 Y-16.518
X20.358 Y-16.543
X20.365 Y-16.568
X20.383 Y-16.586
X20.408 Y-16.593
X25.89 Z-1.612
X25.915 Y-16.586
X25.934 Y-16.568
X25.94 Y-16.543
X25.934 Y-16.518
X25.915 Y-16.5
X25.89 Y-16.493
X21.511 Z-2
X21.493 Y-16.491
X21.477 Y-16.485
X21.325 Y-16.404
X21.299 Y-16.382
X21.287 Y-16.351
X21.29 Y-16.317
X21.308 Y-16.289
X21.336 Y-16.271
X21.37 Y-16.269
X21.401 Y-16.281
X21.423 Y-16.307
X21.431 Y-16.339
X21.423 Y-16.372
X21.402 Y-16.398
G3 X21.62 Y-16.688 I0.109 J-0.145 F400
X21.402 Y-16.398 I-0.109 J0.145
G1 X21.366 Y-16.433 Z-1.987 F200
X21.347 Y-16.464 Z-1.95
X21.342 Y-16.476 Z-1.9
G0 Z4
X42.52 Y-41.352
Z0.05
G1 Y-43.103 Z-0.105 F200
X42.526 Y-43.128
X42.545 Y-43.147
X42.57 Y-43.153
X42.595 Y-43.147
X42.613 Y-43.128
X42.62 Y-43.103
Y-37.621 Z-0.591
X42.613 Y-37.596
X42.595 Y-37.578
X42.57 Y-37.571
X42.545 Y-37.578
X42.526 Y-37.596
X42.52 Y-37.621
Y-43.103 Z-1.077
X42.526 Y-43.128
X42.545 Y-43.147
X42.57 Y-43.153
X42.595 Y-43.147
X42.613 Y-43.128
X42.62 Y-43.103
Y-37.621 Z-1.564
X42.613 Y-37.596
X42.595 Y-37.578
X42.57 Y-37.571
X42.545 Y-37.578
X42.526 Y-37.596
X42.52 Y-37.621
Y-42.544 Z-2
X42.526 Y-42.583
X42.546 Y-42.617
X42.577 Y-42.643
X42.614 Y-42.656
X42.653
X42.691 Y-42.643
X42.721 Y-42.617
X42.741 Y-42.583
X42.748 Y-42.544
G3 X42.391 Y-42.544 I-0.178 J0 F400
X42.748 Y-42.544 I0.178 J0
G1 X42.741 Y-42.495 Z-1.987 F200
X42.727 Y-42.461 Z-1.95
X42.72 Y-42.449 Z-1.9
G0 Z4
X81.968 Y-88.848
Z0.05
G1 Y-90.69 Z-0.113 F200
X81.975 Y-90.715
X81.993 Y-90.733
X82.018 Y-90.74
X82.043 Y-90.733
X82.061 Y-90.715
X82.068 Y-90.69
Y-85.207 Z-0.599
X82.061 Y-85.182
X82.043 Y-85.164
X82.018 Y-85.157
X81.993 Y-85.164
X81.975 Y-85.182
X81.968 Y-85.207
Y-90.69 Z-1.085
X81.975 Y-90.715
X81.993 Y-90.733
X82.018 Y-90.74
X82.043 Y-90.733
X82.061 Y-90.715
X82.068 Y-90.69
Y-85.207 Z-1.572
X82.061 Y-85.182
X82.043 Y-85.164
X82.018 Y-85.157
X81.993 Y-85.164
X81.975 Y-85.182
X81.968 Y-85.207
Y-90.04 Z-2
X81.972 Y-90.073
X81.985 Y-90.104
X82.132 Y-90.363
G2 X81.904 Y-90.492 I-0.114 J-0.065
X82.018 Y-90.297 I0.114 J0.065
G1 X82.025 F400
G3 X82.275 Y-90.047 I0 J0.25
G1 X82.274 Y-84.632
X82.27 Y-84.588
X82.264 Y-84.554
G3 X81.773 Y-84.555 I-0.246 J-0.044
G1 X81.767 Y-84.587
X81.763 Y-84.631
X81.761 Y-90.047
G3 X82.011 Y-90.297 I0.25 J0
G1 X82.018
X82.043 Y-90.294 Z-1.993 F200
X82.066 Y-90.285 Z-1.987
X82.094 Y-90.262 Z-1.95
X82.102 Y-90.251 Z-1.9
G0 Z4
X120.275 Y-36.602
Z0.05
G1 X124.208 Z-0.299 F200
X124.233 Y-36.596
X124.252 Y-36.577
X124.258 Y-36.552
X124.252 Y-36.527
X124.233 Y-36.509
X124.208 Y-36.502
X118.726 Z-0.785
X118.701 Y-36.509
X118.683 Y-36.527
X118.676 Y-36.552
X118.683 Y-36.577
X118.701 Y-36.596
X118.726 Y-36.602
X124.208 Z-1.271
X124.233 Y-36.596
X124.252 Y-36.577
X124.258 Y-36.552
X124.252 Y-36.527
X124.233 Y-36.509
X124.208 Y-36.502
X118.726 Z-1.757
X118.701 Y-36.509
X118.683 Y-36.527
X118.676 Y-36.552
X118.683 Y-36.577
X118.701 Y-36.596
X118.726 Y-36.602
X121.467 Z-2
X121.494 Y-36.598
X121.519 Y-36.587
X121.691 Y-36.474
X121.726 Y-36.46
X121.764 Y-36.461
X121.799 Y-36.477
X121.824 Y-36.505
X121.836 Y-36.541
X121.833 Y-36.579
X121.815 Y-36.613
X121.785 Y-36.636
X121.748 Y-36.646
X121.71 Y-36.641
X121.678 Y-36.621
X121.656 Y-36.59
X121.649 Y-36.552
G3 X121.286 Y-36.552 I-0.181 J0 F400
X121.649 Y-36.552 I0.181 J0
G1 X121.642 Y-36.503 Z-1.987 F200
X121.628 Y-36.469 Z-1.95
X121.622 Y-36.457 Z-1.9
G0 Z4
X138.276 Y-36.602
Z0.05
G1 X142.209 Z-0.299 F200
X142.234 Y-36.596
X142.253 Y-36.577
X142.259 Y-36.552
X142.253 Y-36.527
X142.234 Y-36.509
X142.209 Y-36.502
X136.727 Z-0.785
X136.702 Y-36.509
X136.684 Y-36.527
X136.677 Y-36.552
X136.684 Y-36.577
X136.702 Y-36.596
X136.727 Y-36.602
X142.209 Z-1.271
X142.234 Y-36.596
X142.253 Y-36.577
X142.259 Y-36.552
X142.253 Y-36.527
X142.234 Y-36.509
X142.209 Y-36.502
X136.727 Z-1.757
X136.702 Y-36.509
X136.684 Y-36.527
X136.677 Y-36.552
X136.684 Y-36.577
X136.702 Y-36.596
X136.727 Y-36.602
X139.468 Z-2
X139.495 Y-36.598
X139.52 Y-36.587
X139.692 Y-36.474
X139.728 Y-36.459
X139.766 Y-36.461
X139.8 Y-36.477
X139.826 Y-36.505
X139.838 Y-36.541
X139.834 Y-36.579
X139.816 Y-36.613
X139.786 Y-36.636
X139.75 Y-36.646
X139.712 Y-36.641
X139.679 Y-36.621
X139.658 Y-36.59
X139.65 Y-36.552
G3 X139.287 Y-36.552 I-0.182 J0 F400
X139.65 Y-36.552 I0.182 J0
G1 X139.643 Y-36.503 Z-1.987 F200
X139.63 Y-36.469 Z-1.95
X139.623 Y-36.457 Z-1.9
G0 Z4
X157.42 Y-36.602
Z0.05
G1 X158.053 Z-0.006 F200
X158.078 Y-36.596
X158.096 Y-36.577
X158.103 Y-36.552
X158.096 Y-36.527
X158.078 Y-36.509
X158.053 Y-36.502
X152.57 Z-0.492
X152.545 Y-36.509
X152.527 Y-36.527
X152.52 Y-36.552
X152.527 Y-36.577
X152.545 Y-36.596
X152.57 Y-36.602
X158.053 Z-0.978
X158.078 Y-36.596
X158.096 Y-36.577
X158.103 Y-36.552
X158.096 Y-36.527
X158.078 Y-36.509
X158.053 Y-36.502
X152.57 Z-1.464
X152.545 Y-36.509
X152.527 Y-36.527
X152.52 Y-36.552
X152.527 Y-36.577
X152.545 Y-36.596
X152.57 Y-36.602
X158.053 Z-1.95
X158.078 Y-36.596
X158.096 Y-36.577
X158.103 Y-36.552
X158.096 Y-36.527
X158.078 Y-36.509
X158.053 Y-36.502
X157.494 Z-2
X157.477 Y-36.5
X157.461 Y-36.494
X157.312 Y-36.416
X157.287 Y-36.395
X157.275 Y-36.364
X157.278 Y-36.332
X157.295 Y-36.304
X157.323 Y-36.287
X157.356 Y-36.284
X157.386 Y-36.297
X157.407 Y-36.321
X157.415 Y-36.353
X157.408 Y-36.385
X157.387 Y-36.41
G3 X157.6 Y-36.694 I0.107 J-0.142 F400
X157.387 Y-36.41 I-0.107 J0.142
G2 X156.874 Y-36.484 I-0.325 J0.433
G3 X156.356 Y-36.474 I-0.274 J-0.737
G1 X156.341 Y-36.479
X156.283 Y-36.493
X156.224 Y-36.498
X140.768 Y-36.501
X140.725 Y-36.499
X140.683 Y-36.491
X140.569 Y-36.465
X140.515 Y-36.448
X140.465 Y-36.423
X140.373 Y-36.37
X140.33 Y-36.34
X140.291 Y-36.305
X139.916 Y-35.911
X139.625 Y-35.785
X139.313
X139.274 Y-35.8
X139.008 Y-35.919
X138.643 Y-36.306
X138.605 Y-36.341
X138.563 Y-36.37
X138.487 Y-36.416
X138.44 Y-36.439
X138.391 Y-36.456
X138.277 Y-36.487
X138.229 Y-36.497
X138.179 Y-36.5
X122.761 Y-36.501
X122.716 Y-36.498
X122.671 Y-36.49
X122.56 Y-36.462
X122.504 Y-36.443
X122.452 Y-36.416
X122.348 Y-36.351
X122.309 Y-36.323
X122.274 Y-36.29
X121.92 Y-35.913
X121.619 Y-35.785
X121.315
X121.016 Y-35.913
X120.661 Y-36.291
X120.625 Y-36.324
X120.585 Y-36.353
X120.481 Y-36.417
X120.429 Y-36.445
X120.372 Y-36.463
X120.261 Y-36.49
X120.217 Y-36.498
X120.173 Y-36.501
X43.31 Y-36.498
X43.25 Y-36.493
X43.192 Y-36.478
X43.078 Y-36.441
X43.025 Y-36.418
X42.975 Y-36.388
X42.886 Y-36.322
X42.844 Y-36.288
X42.809 Y-36.248
X42.746 Y-36.165
X42.718 Y-36.124
X42.696 Y-36.079
X42.66 Y-35.992
X42.644 Y-35.943
X42.635 Y-35.892
X42.622 Y-35.778
X42.62 Y-35.736
Y-16.494
X22.791 Y-16.491
X22.737 Y-16.487
X22.684 Y-16.475
X22.57 Y-16.441
X22.52 Y-16.423
X22.474 Y-16.398
X22.398 Y-16.349
X22.361 Y-16.322
X22.328 Y-16.291
X21.962 Y-15.903
X21.67 Y-15.776
X21.348 Y-15.778
X21.054 Y-15.907
X20.696 Y-16.293
X20.659 Y-16.329
X20.617 Y-16.358
X20.52 Y-16.418
X20.474 Y-16.442
X20.425 Y-16.459
X20.334 Y-16.485
X20.285 Y-16.495
X20.236 Y-16.498
X7.756 Y-16.578
X7.714 Y-16.576
X7.672 Y-16.57
X7.558 Y-16.544
X7.505 Y-16.528
X7.455 Y-16.505
X7.366 Y-16.455
X7.324 Y-16.427
X7.286 Y-16.394
X6.862 Y-15.975
X6.507 Y-15.862
X6.151 Y-15.921
X5.86 Y-16.134
X5.7 Y-16.451
X5.699 Y-16.825
X5.864 Y-17.144
X6.157 Y-17.355
X6.525 Y-17.412
X6.861 Y-17.299
X7.298 Y-16.863
X7.335 Y-16.83
X7.376 Y-16.803
X7.452 Y-16.759
X7.499 Y-16.736
X7.548 Y-16.721
X7.662 Y-16.692
X7.706 Y-16.684
X7.751 Y-16.681
X20.238 Y-16.606
X20.294 Y-16.61
X20.35 Y-16.622
X20.464 Y-16.657
X20.513 Y-16.676
X20.559 Y-16.702
X20.636 Y-16.752
X20.671 Y-16.778
X20.703 Y-16.808
X21.06 Y-17.185
X21.346 Y-17.309
X21.664 Y-17.31
X21.962 Y-17.184
X22.313 Y-16.81
X22.37 Y-16.76
X22.447 Y-16.707
X22.486 Y-16.682
X22.528 Y-16.663
X22.613 Y-16.63
X22.662 Y-16.615
X22.713 Y-16.607
X22.832 Y-16.596
X22.867 Y-16.594
X41.826 Y-16.598
X41.883 Y-16.603
X41.94 Y-16.616
X42.054 Y-16.653
X42.107 Y-16.674
X42.156 Y-16.704
X42.244 Y-16.766
X42.285 Y-16.8
X42.321 Y-16.839
X42.386 Y-16.92
X42.418 Y-16.967
X42.442 Y-17.019
X42.487 Y-17.133
X42.501 Y-17.18
X42.51 Y-17.229
X42.518 Y-17.305
X42.52 Y-17.344
X42.519 Y-41.246
X42.516 Y-41.289
X42.509 Y-41.331
X42.482 Y-41.445
X42.465 Y-41.498
X42.441 Y-41.548
X42.389 Y-41.638
X42.362 Y-41.678
X42.33 Y-41.715
X41.907 Y-42.138
X41.794 Y-42.48
X41.853 Y-42.846
X42.063 Y-43.137
X42.387 Y-43.303
X42.751
X43.078 Y-43.134
X43.286 Y-42.846
X43.344 Y-42.487
X43.313 Y-42.384
X43.231 Y-42.136
X43.227 Y-42.132
X42.802 Y-41.705
X42.768 Y-41.666
X42.74 Y-41.623
X42.695 Y-41.543
X42.673 Y-41.495
X42.657 Y-41.445
X42.63 Y-41.331
X42.623 Y-41.289
X42.621 Y-41.245
X42.624 Y-37.293
X42.629 Y-37.234
X42.643 Y-37.177
X42.68 Y-37.063
X42.7 Y-37.014
X42.727 Y-36.968
X42.779 Y-36.892
X42.81 Y-36.853
X42.846 Y-36.818
X42.926 Y-36.75
X42.97 Y-36.717
X43.019 Y-36.692
X43.121 Y-36.647
X43.166 Y-36.63
X43.212 Y-36.62
X43.289 Y-36.608
X43.348 Y-36.603
X81.265 Y-36.605
X81.319 Y-36.609
X81.372 Y-36.621
X81.489 Y-36.655
X81.543 Y-36.676
X81.592 Y-36.704
X81.68 Y-36.763
X81.723 Y-36.798
X81.761 Y-36.838
X81.833 Y-36.926
X81.866 Y-36.973
X81.891 Y-37.024
X81.932 Y-37.129
X81.95 Y-37.185
X81.958 Y-37.242
X81.968 Y-37.382
X81.969 Y-37.408
X81.964 Y-83.23
X81.961 Y-83.28
X81.951 Y-83.328
X81.929 Y-83.41
X81.915 Y-83.451
X81.897 Y-83.49
X81.856 Y-83.566
X81.831 Y-83.606
X81.801 Y-83.643
X81.731 Y-83.719
X81.705 Y-83.745
X81.401 Y-84.013
X81.278 Y-84.232
X81.219 Y-84.561
X81.217 Y-90.84
X82.822
X82.819 Y-90.777
Y-90.76
X82.818 Y-84.561
X82.758 Y-84.23
X82.634 Y-84.01
X82.604 Y-83.979
X82.279 Y-83.691
X82.238 Y-83.649
X82.205 Y-83.601
X82.147 Y-83.502
X82.121 Y-83.45
X82.104 Y-83.395
X82.079 Y-83.281
X82.072 Y-83.24
X82.069 Y-83.198
X82.073 Y-37.296
X82.077 Y-37.238
X82.091 Y-37.182
X82.126 Y-37.069
X82.146 Y-37.02
X82.173 Y-36.973
X82.227 Y-36.893
X82.261 Y-36.851
X82.301 Y-36.813
X82.395 Y-36.737
X82.44 Y-36.705
X82.49 Y-36.68
X82.584 Y-36.642
X82.623 Y-36.628
X82.664 Y-36.619
X82.726 Y-36.609
X82.788 Y-36.603
X120.173 Y-36.604
X120.22 Y-36.607
X120.266 Y-36.615
X120.385 Y-36.646
X120.438 Y-36.664
X120.488 Y-36.69
X120.575 Y-36.743
X120.615 Y-36.772
X120.651 Y-36.806
X121.012 Y-37.19
X121.02 Y-37.194
X121.315 Y-37.32
X121.619
X121.923 Y-37.19
X122.284 Y-36.806
X122.32 Y-36.772
X122.36 Y-36.744
X122.445 Y-36.691
X122.495 Y-36.665
X122.548 Y-36.647
X122.667 Y-36.616
X122.714 Y-36.607
X122.761 Y-36.604
X138.179
X138.229 Y-36.608
X138.277 Y-36.617
X138.392 Y-36.648
X138.448 Y-36.669
X138.501 Y-36.698
X138.603 Y-36.765
X138.638 Y-36.792
X138.669 Y-36.822
X139.017 Y-37.193
X139.308 Y-37.32
X139.625
X139.918 Y-37.192
X140.276 Y-36.812
X140.312 Y-36.779
X140.353 Y-36.75
X140.458 Y-36.685
X140.511 Y-36.658
X140.569 Y-36.64
X140.683 Y-36.613
X140.725 Y-36.606
X140.768 Y-36.603
X156.219 Y-36.606
X156.271 Y-36.61
X156.322 Y-36.62
X156.42 Y-36.648
X156.471 Y-36.667
X156.519 Y-36.693
X156.618 Y-36.756
X156.651 Y-36.78
X156.682 Y-36.808
X157.076 Y-37.207
X157.429 Y-37.327
X157.791 Y-37.271
X158.085 Y-37.059
X158.248 Y-36.741
Y-36.364
X158.085 Y-36.045
X157.791 Y-35.833
X157.435 Y-35.777
X157.091 Y-35.889
X156.679 Y-36.299
X156.626 Y-36.343
X156.55 Y-36.395
X156.504 Y-36.422
X156.455 Y-36.442
X156.356 Y-36.474
X156.345 Y-36.481
X156.339 Y-36.492
X156.326 Y-36.533
X156.316 Y-36.547
X156.3 Y-36.552
X155.915
X155.859 Y-36.57
X155.848 Y-36.58
X155.851 Y-36.595
X155.864 Y-36.602
X158.053 Z-2.796 F200
X158.078 Y-36.596
X158.096 Y-36.577
X158.103 Y-36.552
X158.096 Y-36.527
X158.078 Y-36.509
X158.053 Y-36.502
X157.494 Z-3
X157.477 Y-36.5
X157.461 Y-36.494
X157.312 Y-36.416
X157.287 Y-36.395
X157.275 Y-36.364
X157.278 Y-36.332
X157.295 Y-36.304
X157.323 Y-36.287
X157.356 Y-36.284
X157.386 Y-36.297
X157.407 Y-36.321
X157.415 Y-36.353
X157.408 Y-36.385
X157.387 Y-36.41
G3 X157.6 Y-36.694 I0.107 J-0.142 F400
X157.387 Y-36.41 I-0.107 J0.142
G1 X157.352 Y-36.445 Z-2.987 F200
X157.333 Y-36.477 Z-2.95
X157.328 Y-36.489 Z-2.9
G0 Z4
X138.276 Y-36.602
Z2
G1 Z-0.95 F200
X142.209 Z-1.299
X142.234 Y-36.596
X142.253 Y-36.577
X142.259 Y-36.552
X142.253 Y-36.527
X142.234 Y-36.509
X142.209 Y-36.502
X136.727 Z-1.785
X136.702 Y-36.509
X136.684 Y-36.527
X136.677 Y-36.552
X136.684 Y-36.577
X136.702 Y-36.596
X136.727 Y-36.602
X142.209 Z-2.271
X142.234 Y-36.596
X142.253 Y-36.577
X142.259 Y-36.552
X142.253 Y-36.527
X142.234 Y-36.509
X142.209 Y-36.502
X136.727 Z-2.757
X136.702 Y-36.509
X136.684 Y-36.527
X136.677 Y-36.552
X136.684 Y-36.577
X136.702 Y-36.596
X136.727 Y-36.602
X139.468 Z-3
X139.495 Y-36.598
X139.52 Y-36.587
X139.692 Y-36.474
X139.728 Y-36.459
X139.766 Y-36.461
X139.8 Y-36.477
X139.826 Y-36.505
X139.838 Y-36.541
X139.834 Y-36.579
X139.816 Y-36.613
X139.786 Y-36.636
X139.75 Y-36.646
X139.712 Y-36.641
X139.679 Y-36.621
X139.658 Y-36.59
X139.65 Y-36.552
G3 X139.287 Y-36.552 I-0.182 J0 F400
X139.65 Y-36.552 I0.182 J0
G1 X139.643 Y-36.503 Z-2.987 F200
X139.63 Y-36.469 Z-2.95
X139.623 Y-36.457 Z-2.9
G0 Z4
X120.275 Y-36.602
Z2
G1 Z-0.95 F200
X124.208 Z-1.299
X124.233 Y-36.596
X124.252 Y-36.577
X124.258 Y-36.552
X124.252 Y-36.527
X124.233 Y-36.509
X124.208 Y-36.502
X118.726 Z-1.785
X118.701 Y-36.509
X118.683 Y-36.527
X118.676 Y-36.552
X118.683 Y-36.577
X118.701 Y-36.596
X118.726 Y-36.602
X124.208 Z-2.271
X124.233 Y-36.596
X124.252 Y-36.577
X124.258 Y-36.552
X124.252 Y-36.527
X124.233 Y-36.509
X124.208 Y-36.502
X118.726 Z-2.757
X118.701 Y-36.509
X118.683 Y-36.527
X118.676 Y-36.552
X118.683 Y-36.577
X118.701 Y-36.596
X118.726 Y-36.602
X121.467 Z-3
X121.494 Y-36.598
X121.519 Y-36.587
X121.691 Y-36.474
X121.726 Y-36.46
X121.764 Y-36.461
X121.799 Y-36.477
X121.824 Y-36.505
X121.836 Y-36.541
X121.833 Y-36.579
X121.815 Y-36.613
X121.785 Y-36.636
X121.748 Y-36.646
X121.71 Y-36.641
X121.678 Y-36.621
X121.656 Y-36.59
X121.649 Y-36.552
G3 X121.286 Y-36.552 I-0.181 J0 F400
X121.649 Y-36.552 I0.181 J0
G1 X121.642 Y-36.503 Z-2.987 F200
X121.628 Y-36.469 Z-2.95
X121.622 Y-36.457 Z-2.9
G0 Z4
X81.968 Y-88.848
Z2
G1 Z-0.95 F200
Y-90.69 Z-1.113
X81.975 Y-90.715
X81.993 Y-90.733
X82.018 Y-90.74
X82.043 Y-90.733
X82.061 Y-90.715
X82.068 Y-90.69
Y-85.207 Z-1.599
X82.061 Y-85.182
X82.043 Y-85.164
X82.018 Y-85.157
X81.993 Y-85.164
X81.975 Y-85.182
X81.968 Y-85.207
Y-90.69 Z-2.085
X81.975 Y-90.715
X81.993 Y-90.733
X82.018 Y-90.74
X82.043 Y-90.733
X82.061 Y-90.715
X82.068 Y-90.69
Y-85.207 Z-2.572
X82.061 Y-85.182
X82.043 Y-85.164
X82.018 Y-85.157
X81.993 Y-85.164
X81.975 Y-85.182
X81.968 Y-85.207
Y-90.04 Z-3
X81.972 Y-90.073
X81.985 Y-90.104
X82.132 Y-90.363
G2 X81.904 Y-90.492 I-0.114 J-0.065
X82.018 Y-90.297 I0.114 J0.065
G1 X82.025 F400
G3 X82.275 Y-90.047 I0 J0.25
G1 X82.274 Y-84.632
X82.27 Y-84.588
X82.264 Y-84.554
G3 X81.773 Y-84.555 I-0.246 J-0.044
G1 X81.767 Y-84.587
X81.763 Y-84.631
X81.761 Y-90.047
G3 X82.011 Y-90.297 I0.25 J0
G1 X82.018
X82.043 Y-90.294 Z-2.993 F200
X82.066 Y-90.285 Z-2.987
X82.094 Y-90.262 Z-2.95
X82.102 Y-90.251 Z-2.9
G0 Z4
X42.52 Y-41.352
Z2
G1 Z-0.95 F200
Y-43.103 Z-1.105
X42.526 Y-43.128
X42.545 Y-43.147
X42.57 Y-43.153
X42.595 Y-43.147
X42.613 Y-43.128
X42.62 Y-43.103
Y-37.621 Z-1.591
X42.613 Y-37.596
X42.595 Y-37.578
X42.57 Y-37.571
X42.545 Y-37.578
X42.526 Y-37.596
X42.52 Y-37.621
Y-43.103 Z-2.077
X42.526 Y-43.128
X42.545 Y-43.147
X42.57 Y-43.153
X42.595 Y-43.147
X42.613 Y-43.128
X42.62 Y-43.103
Y-37.621 Z-2.564
X42.613 Y-37.596
X42.595 Y-37.578
X42.57 Y-37.571
X42.545 Y-37.578
X42.526 Y-37.596
X42.52 Y-37.621
Y-42.544 Z-3
X42.526 Y-42.583
X42.546 Y-42.617
X42.577 Y-42.643
X42.614 Y-42.656
X42.653
X42.691 Y-42.643
X42.721 Y-42.617
X42.741 Y-42.583
X42.748 Y-42.544
G3 X42.391 Y-42.544 I-0.178 J0 F400
X42.748 Y-42.544 I0.178 J0
G1 X42.741 Y-42.495 Z-2.987 F200
X42.727 Y-42.461 Z-2.95
X42.72 Y-42.449 Z-2.9
G0 Z4
X22.703 Y-16.493
Z2
G1 Z-0.95 F200
X20.408 Z-1.153
X20.383 Y-16.5
X20.365 Y-16.518
X20.358 Y-16.543
X20.365 Y-16.568
X20.383 Y-16.586
X20.408 Y-16.593
X25.89 Z-1.64
X25.915 Y-16.586
X25.934 Y-16.568
X25.94 Y-16.543
X25.934 Y-16.518
X25.915 Y-16.5
X25.89 Y-16.493
X20.408 Z-2.126
X20.383 Y-16.5
X20.365 Y-16.518
X20.358 Y-16.543
X20.365 Y-16.568
X20.383 Y-16.586
X20.408 Y-16.593
X25.89 Z-2.612
X25.915 Y-16.586
X25.934 Y-16.568
X25.94 Y-16.543
X25.934 Y-16.518
X25.915 Y-16.5
X25.89 Y-16.493
X21.511 Z-3
X21.493 Y-16.491
X21.477 Y-16.485
X21.325 Y-16.404
X21.299 Y-16.382
X21.287 Y-16.351
X21.29 Y-16.317
X21.308 Y-16.289
X21.336 Y-16.271
X21.37 Y-16.269
X21.401 Y-16.281
X21.423 Y-16.307
X21.431 Y-16.339
X21.423 Y-16.372
X21.402 Y-16.398
G3 X21.62 Y-16.688 I0.109 J-0.145 F400
X21.402 Y-16.398 I-0.109 J0.145
G1 X21.366 Y-16.433 Z-2.987 F200
X21.347 Y-16.464 Z-2.95
X21.342 Y-16.476 Z-2.9
G0 Z4
X7.264 Y-16.587
Z2
G1 Z-0.95 F200
X5.895 Z-1.326
X5.87 Y-16.594
X5.852 Y-16.612
X5.845 Y-16.637
X5.852 Y-16.662
X5.87 Y-16.681
X5.895 Y-16.687
X7.557 Z-1.783
X7.582 Y-16.681
X7.6 Y-16.662
X7.607 Y-16.637
X7.6 Y-16.612
X7.582 Y-16.594
X7.557 Y-16.587
X5.895 Z-2.24
X5.87 Y-16.594
X5.852 Y-16.612
X5.845 Y-16.637
X5.852 Y-16.662
X5.87 Y-16.681
X5.895 Y-16.687
X7.557 Z-2.697
X7.582 Y-16.681
X7.6 Y-16.662
X7.607 Y-16.637
X7.6 Y-16.612
X7.582 Y-16.594
X7.557 Y-16.587
X6.454 Z-3
X6.437 Y-16.585
X6.421 Y-16.579
X6.272 Y-16.501
X6.248 Y-16.48
X6.235 Y-16.449
X6.238 Y-16.416
X6.255 Y-16.389
X6.283 Y-16.372
X6.316 Y-16.369
X6.346 Y-16.381
X6.368 Y-16.406
X6.376 Y-16.438
X6.368 Y-16.47
X6.347 Y-16.495
G3 X6.561 Y-16.78 I0.107 J-0.142 F400
X6.347 Y-16.495 I-0.107 J0.142
G2 X5.988 Y-16.567 I-0.255 J0.34
G3 X5.699 Y-16.791 I-0.057 J-0.225
G1 Y-16.825
X5.864 Y-17.144
X6.157 Y-17.355
X6.525 Y-17.412
X6.861 Y-17.299
X7.298 Y-16.863
X7.335 Y-16.83
X7.376 Y-16.803
X7.452 Y-16.759
X7.499 Y-16.736
X7.548 Y-16.721
X7.662 Y-16.692
X7.706 Y-16.684
X7.751 Y-16.681
X20.238 Y-16.606
X20.294 Y-16.61
X20.35 Y-16.622
X20.464 Y-16.657
X20.513 Y-16.676
X20.559 Y-16.702
X20.636 Y-16.752
X20.671 Y-16.778
X20.703 Y-16.808
X21.06 Y-17.185
X21.346 Y-17.309
X21.664 Y-17.31
X21.962 Y-17.184
X22.313 Y-16.81
X22.37 Y-16.76
X22.447 Y-16.707
X22.486 Y-16.682
X22.528 Y-16.663
X22.613 Y-16.63
X22.662 Y-16.615
X22.713 Y-16.607
X22.832 Y-16.596
X22.867 Y-16.594
X41.826 Y-16.598
X41.883 Y-16.603
X41.94 Y-16.616
X42.054 Y-16.653
X42.107 Y-16.674
X42.156 Y-16.704
X42.244 Y-16.766
X42.285 Y-16.8
X42.321 Y-16.839
X42.386 Y-16.92
X42.418 Y-16.967
X42.442 Y-17.019
X42.487 Y-17.133
X42.501 Y-17.18
X42.51 Y-17.229
X42.518 Y-17.305
X42.52 Y-17.344
X42.519 Y-41.246
X42.516 Y-41.289
X42.509 Y-41.331
X42.482 Y-41.445
X42.465 Y-41.498
X42.441 Y-41.548
X42.389 Y-41.638
X42.362 Y-41.678
X42.33 Y-41.715
X41.907 Y-42.138
X41.794 Y-42.48
X41.853 Y-42.846
X42.063 Y-43.137
X42.387 Y-43.303
X42.751
X43.078 Y-43.134
X43.286 Y-42.846
X43.344 Y-42.487
X43.313 Y-42.384
X43.231 Y-42.136
X43.227 Y-42.132
X42.802 Y-41.705
X42.768 Y-41.666
X42.74 Y-41.623
X42.695 Y-41.543
X42.673 Y-41.495
X42.657 Y-41.445
X42.63 Y-41.331
X42.623 Y-41.289
X42.621 Y-41.245
X42.624 Y-37.293
X42.629 Y-37.234
X42.643 Y-37.177
X42.68 Y-37.063
X42.7 Y-37.014
X42.727 Y-36.968
X42.779 Y-36.892
X42.81 Y-36.853
X42.846 Y-36.818
X42.926 Y-36.75
X42.97 Y-36.717
X43.019 Y-36.692
X43.121 Y-36.647
X43.166 Y-36.63
X43.212 Y-36.62
X43.289 Y-36.608
X43.348 Y-36.603
X81.265 Y-36.605
X81.319 Y-36.609
X81.372 Y-36.621
X81.489 Y-36.655
X81.543 Y-36.676
X81.592 Y-36.704
X81.68 Y-36.763
X81.723 Y-36.798
X81.761 Y-36.838
X81.833 Y-36.926
X81.866 Y-36.973
X81.891 Y-37.024
X81.932 Y-37.129
X81.95 Y-37.185
X81.958 Y-37.242
X81.968 Y-37.382
X81.969 Y-37.408
X81.964 Y-83.23
X81.961 Y-83.28
X81.951 Y-83.328
X81.929 Y-83.41
X81.915 Y-83.451
X81.897 Y-83.49
X81.856 Y-83.566
X81.831 Y-83.606
X81.801 Y-83.643
X81.731 Y-83.719
X81.705 Y-83.745
X81.401 Y-84.013
X81.278 Y-84.232
X81.219 Y-84.561
X81.217 Y-90.84
X82.822
X82.819 Y-90.777
Y-90.76
X82.818 Y-84.561
X82.758 Y-84.23
X82.634 Y-84.01
X82.604 Y-83.979
X82.279 Y-83.691
X82.238 Y-83.649
X82.205 Y-83.601
X82.147 Y-83.502
X82.121 Y-83.45
X82.104 Y-83.395
X82.079 Y-83.281
X82.072 Y-83.24
X82.069 Y-83.198
X82.073 Y-37.296
X82.077 Y-37.238
X82.091 Y-37.182
X82.126 Y-37.069
X82.146 Y-37.02
X82.173 Y-36.973
X82.227 Y-36.893
X82.261 Y-36.851
X82.301 Y-36.813
X82.395 Y-36.737
X82.44 Y-36.705
X82.49 Y-36.68
X82.584 Y-36.642
X82.623 Y-36.628
X82.664 Y-36.619
X82.726 Y-36.609
X82.788 Y-36.603
X120.173 Y-36.604
X120.22 Y-36.607
X120.266 Y-36.615
X120.385 Y-36.646
X120.438 Y-36.664
X120.488 Y-36.69
X120.575 Y-36.743
X120.615 Y-36.772
X120.651 Y-36.806
X121.012 Y-37.19
X121.02 Y-37.194
X121.315 Y-37.32
X121.619
X121.923 Y-37.19
X122.284 Y-36.806
X122.32 Y-36.772
X122.36 Y-36.744
X122.445 Y-36.691
X122.495 Y-36.665
X122.548 Y-36.647
X122.667 Y-36.616
X122.714 Y-36.607
X122.761 Y-36.604
X138.179
X138.229 Y-36.608
X138.277 Y-36.617
X138.392 Y-36.648
X138.448 Y-36.669
X138.501 Y-36.698
X138.603 Y-36.765
X138.638 Y-36.792
X138.669 Y-36.822
X139.017 Y-37.193
X139.308 Y-37.32
X139.625
X139.918 Y-37.192
X140.276 Y-36.812
X140.312 Y-36.779
X140.353 Y-36.75
X140.458 Y-36.685
X140.511 Y-36.658
X140.569 Y-36.64
X140.683 Y-36.613
X140.725 Y-36.606
X140.768 Y-36.603
X156.219 Y-36.606
X156.271 Y-36.61
X156.322 Y-36.62
X156.42 Y-36.648
X156.471 Y-36.667
X156.519 Y-36.693
X156.618 Y-36.756
X156.651 Y-36.78
X156.682 Y-36.808
X157.076 Y-37.207
X157.429 Y-37.327
X157.791 Y-37.271
X158.085 Y-37.059
X158.248 Y-36.741
Y-36.364
X158.085 Y-36.045
X157.791 Y-35.833
X157.435 Y-35.777
X157.091 Y-35.889
X156.679 Y-36.299
X156.626 Y-36.343
X156.55 Y-36.395
X156.504 Y-36.422
X156.455 Y-36.442
X156.341 Y-36.479
X156.283 Y-36.493
X156.224 Y-36.498
X140.768 Y-36.501
X140.725 Y-36.499
X140.683 Y-36.491
X140.569 Y-36.465
X140.515 Y-36.448
X140.465 Y-36.423
X140.373 Y-36.37
X140.33 Y-36.34
X140.291 Y-36.305
X139.916 Y-35.911
X139.625 Y-35.785
X139.313
X139.274 Y-35.8
X139.008 Y-35.919
X138.643 Y-36.306
X138.605 Y-36.341
X138.563 Y-36.37
X138.487 Y-36.416
X138.44 Y-36.439
X138.391 Y-36.456
X138.277 Y-36.487
X138.229 Y-36.497
X138.179 Y-36.5
X122.761 Y-36.501
X122.716 Y-36.498
X122.671 Y-36.49
X122.56 Y-36.462
X122.504 Y-36.443
X122.452 Y-36.416
X122.348 Y-36.351
X122.309 Y-36.323
X122.274 Y-36.29
X121.92 Y-35.913
X121.619 Y-35.785
X121.315
X121.016 Y-35.913
X120.661 Y-36.291
X120.625 Y-36.324
X120.585 Y-36.353
X120.481 Y-36.417
X120.429 Y-36.445
X120.372 Y-36.463
X120.261 Y-36.49
X120.217 Y-36.498
X120.173 Y-36.501
X43.31 Y-36.498
X43.25 Y-36.493
X43.192 Y-36.478
X43.078 Y-36.441
X43.025 Y-36.418
X42.975 Y-36.388
X42.886 Y-36.322
X42.844 Y-36.288
X42.809 Y-36.248
X42.746 Y-36.165
X42.718 Y-36.124
X42.696 Y-36.079
X42.66 Y-35.992
X42.644 Y-35.943
X42.635 Y-35.892
X42.622 Y-35.778
X42.62 Y-35.736
Y-16.494
X22.791 Y-16.491
X22.737 Y-16.487
X22.684 Y-16.475
X22.57 Y-16.441
X22.52 Y-16.423
X22.474 Y-16.398
X22.398 Y-16.349
X22.361 Y-16.322
X22.328 Y-16.291
X21.962 Y-15.903
X21.67 Y-15.776
X21.348 Y-15.778
X21.054 Y-15.907
X20.696 Y-16.293
X20.659 Y-16.329
X20.617 Y-16.358
X20.52 Y-16.418
X20.474 Y-16.442
X20.425 Y-16.459
X20.334 Y-16.485
X20.285 Y-16.495
X20.236 Y-16.498
X7.756 Y-16.578
X7.714 Y-16.576
X7.672 Y-16.57
X7.558 Y-16.544
X7.505 Y-16.528
X7.455 Y-16.505
X7.366 Y-16.455
X7.324 Y-16.427
X7.286 Y-16.394
X6.862 Y-15.975
X6.507 Y-15.862
X6.151 Y-15.921
X5.86 Y-16.134
X5.7 Y-16.451
X5.699 Y-16.791
X5.706 Y-16.828
X5.726 Y-16.86
X5.756 Y-16.882
X5.792 Y-16.892
X5.829 Y-16.887
X5.862 Y-16.869
X5.886 Y-16.84
X6 Y-16.636
X6.011 Y-16.601
X6.009 Y-16.564
X5.994 Y-16.53
X5.967 Y-16.504
X5.933 Y-16.49
X5.896 Y-16.489
X5.861 Y-16.501
X5.833 Y-16.526
X5.816 Y-16.558
X5.812 Y-16.595
X5.822 Y-16.631
X5.844 Y-16.661
X5.876 Y-16.68
X5.912 Y-16.687
X7.557 Z-3.599 F200
X7.582 Y-16.681
X7.6 Y-16.662
X7.607 Y-16.637
X7.6 Y-16.612
X7.582 Y-16.594
X7.557 Y-16.587
X6.454 Z-4
X6.437 Y-16.585
X6.421 Y-16.579
X6.272 Y-16.501
X6.248 Y-16.48
X6.235 Y-16.449
X6.238 Y-16.416
X6.255 Y-16.389
X6.283 Y-16.372
X6.316 Y-16.369
X6.346 Y-16.381
X6.368 Y-16.406
X6.376 Y-16.438
X6.368 Y-16.47
X6.347 Y-16.495
G3 X6.561 Y-16.78 I0.107 J-0.142 F400
X6.347 Y-16.495 I-0.107 J0.142
G1 X6.329 Y-16.512 Z-3.993 F200
X6.316 Y-16.533 Z-3.987
X6.307 Y-16.568 Z-3.95
Y-16.582 Z-3.9
G0 Z4
X22.703 Y-16.493
G1 Z-1.95 F200
X20.408 Z-2.153
X20.383 Y-16.5
X20.365 Y-16.518
X20.358 Y-16.543
X20.365 Y-16.568
X20.383 Y-16.586
X20.408 Y-16.593
X25.89 Z-2.64
X25.915 Y-16.586
X25.934 Y-16.568
X25.94 Y-16.543
X25.934 Y-16.518
X25.915 Y-16.5
X25.89 Y-16.493
X20.408 Z-3.126
X20.383 Y-16.5
X20.365 Y-16.518
X20.358 Y-16.543
X20.365 Y-16.568
X20.383 Y-16.586
X20.408 Y-16.593
X25.89 Z-3.612
X25.915 Y-16.586
X25.934 Y-16.568
X25.94 Y-16.543
X25.934 Y-16.518
X25.915 Y-16.5
X25.89 Y-16.493
X21.511 Z-4
X21.493 Y-16.491
X21.477 Y-16.485
X21.325 Y-16.404
X21.299 Y-16.382
X21.287 Y-16.351
X21.29 Y-16.317
X21.308 Y-16.289
X21.336 Y-16.271
X21.37 Y-16.269
X21.401 Y-16.281
X21.423 Y-16.307
X21.431 Y-16.339
X21.423 Y-16.372
X21.402 Y-16.398
G3 X21.62 Y-16.688 I0.109 J-0.145 F400
X21.402 Y-16.398 I-0.109 J0.145
G1 X21.366 Y-16.433 Z-3.987 F200
X21.347 Y-16.464 Z-3.95
X21.342 Y-16.476 Z-3.9
G0 Z4
X42.52 Y-41.352
G1 Z-1.95 F200
Y-43.103 Z-2.105
X42.526 Y-43.128
X42.545 Y-43.147
X42.57 Y-43.153
X42.595 Y-43.147
X42.613 Y-43.128
X42.62 Y-43.103
Y-37.621 Z-2.591
X42.613 Y-37.596
X42.595 Y-37.578
X42.57 Y-37.571
X42.545 Y-37.578
X42.526 Y-37.596
X42.52 Y-37.621
Y-43.103 Z-3.077
X42.526 Y-43.128
X42.545 Y-43.147
X42.57 Y-43.153
X42.595 Y-43.147
X42.613 Y-43.128
X42.62 Y-43.103
Y-37.621 Z-3.564
X42.613 Y-37.596
X42.595 Y-37.578
X42.57 Y-37.571
X42.545 Y-37.578
X42.526 Y-37.596
X42.52 Y-37.621
Y-42.544 Z-4
X42.526 Y-42.583
X42.546 Y-42.617
X42.577 Y-42.643
X42.614 Y-42.656
X42.653
X42.691 Y-42.643
X42.721 Y-42.617
X42.741 Y-42.583
X42.748 Y-42.544
G3 X42.391 Y-42.544 I-0.178 J0 F400
X42.748 Y-42.544 I0.178 J0
G1 X42.741 Y-42.495 Z-3.987 F200
X42.727 Y-42.461 Z-3.95
X42.72 Y-42.449 Z-3.9
G0 Z4
X81.968 Y-88.848
G1 Z-1.95 F200
Y-90.69 Z-2.113
X81.975 Y-90.715
X81.993 Y-90.733
X82.018 Y-90.74
X82.043 Y-90.733
X82.061 Y-90.715
X82.068 Y-90.69
Y-85.207 Z-2.599
X82.061 Y-85.182
X82.043 Y-85.164
X82.018 Y-85.157
X81.993 Y-85.164
X81.975 Y-85.182
X81.968 Y-85.207
Y-90.69 Z-3.085
X81.975 Y-90.715
X81.993 Y-90.733
X82.018 Y-90.74
X82.043 Y-90.733
X82.061 Y-90.715
X82.068 Y-90.69
Y-85.207 Z-3.572
X82.061 Y-85.182
X82.043 Y-85.164
X82.018 Y-85.157
X81.993 Y-85.164
X81.975 Y-85.182
X81.968 Y-85.207
Y-90.04 Z-4
X81.972 Y-90.073
X81.985 Y-90.104
X82.132 Y-90.363
G2 X81.904 Y-90.492 I-0.114 J-0.065
X82.018 Y-90.297 I0.114 J0.065
G1 X82.025 F400
G3 X82.275 Y-90.047 I0 J0.25
G1 X82.274 Y-84.632
X82.27 Y-84.588
X82.264 Y-84.554
G3 X81.773 Y-84.555 I-0.246 J-0.044
G1 X81.767 Y-84.587
X81.763 Y-84.631
X81.761 Y-90.047
G3 X82.011 Y-90.297 I0.25 J0
G1 X82.018
X82.043 Y-90.294 Z-3.993 F200
X82.066 Y-90.285 Z-3.987
X82.094 Y-90.262 Z-3.95
X82.102 Y-90.251 Z-3.9
G0 Z4
X120.275 Y-36.602
G1 Z-1.95 F200
X124.208 Z-2.299
X124.233 Y-36.596
X124.252 Y-36.577
X124.258 Y-36.552
X124.252 Y-36.527
X124.233 Y-36.509
X124.208 Y-36.502
X118.726 Z-2.785
X118.701 Y-36.509
X118.683 Y-36.527
X118.676 Y-36.552
X118.683 Y-36.577
X118.701 Y-36.596
X118.726 Y-36.602
X124.208 Z-3.271
X124.233 Y-36.596
X124.252 Y-36.577
X124.258 Y-36.552
X124.252 Y-36.527
X124.233 Y-36.509
X124.208 Y-36.502
X118.726 Z-3.757
X118.701 Y-36.509
X118.683 Y-36.527
X118.676 Y-36.552
X118.683 Y-36.577
X118.701 Y-36.596
X118.726 Y-36.602
X121.467 Z-4
X121.494 Y-36.598
X121.519 Y-36.587
X121.691 Y-36.474
X121.726 Y-36.46
X121.764 Y-36.461
X121.799 Y-36.477
