(1001)
(T1  D=3 CR=0 - ZMIN=-11.1 - flat end mill)
G90 G94
G17
G21

(2D Contour3)
T1
S500 M3
G54
M8
G0 X163.911 Y-92.34
Z6
Z2
G1 Z1.3 F300
Z-0.3
X13.911 F1000
G2 X-17.589 Y-60.84 I0 J31.5
G1 Y-17.471
G2 X13.911 Y14.029 I31.5 J0
G1 X128.911
G2 X195.411 Y-52.471 I0 J-66.5
G1 Y-60.84
G2 X163.911 Y-92.34 I-31.5 J0
G1 Z-0.6 F300
X13.911 F1000
G2 X-17.589 Y-60.84 I0 J31.5
G1 Y-17.471
G2 X13.911 Y14.029 I31.5 J0
G1 X128.911
G2 X195.411 Y-52.471 I0 J-66.5
G1 Y-60.84
G2 X163.911 Y-92.34 I-31.5 J0
G1 Z-0.9 F300
X13.911 F1000
G2 X-17.589 Y-60.84 I0 J31.5
G1 Y-17.471
G2 X13.911 Y14.029 I31.5 J0
G1 X128.911
G2 X195.411 Y-52.471 I0 J-66.5
G1 Y-60.84
G2 X163.911 Y-92.34 I-31.5 J0
G1 Z-1.2 F300
X13.911 F1000
G2 X-17.589 Y-60.84 I0 J31.5
G1 Y-17.471
G2 X13.911 Y14.029 I31.5 J0
G1 X128.911
G2 X195.411 Y-52.471 I0 J-66.5
G1 Y-60.84
G2 X163.911 Y-92.34 I-31.5 J0
G1 Z-1.5 F300
X13.911 F1000
G2 X-17.589 Y-60.84 I0 J31.5
G1 Y-17.471
G2 X13.911 Y14.029 I31.5 J0
G1 X128.911
G2 X195.411 Y-52.471 I0 J-66.5
G1 Y-60.84
G2 X163.911 Y-92.34 I-31.5 J0
G1 Z-1.8 F300
X13.911 F1000
G2 X-17.589 Y-60.84 I0 J31.5
G1 Y-17.471
G2 X13.911 Y14.029 I31.5 J0
G1 X128.911
G2 X195.411 Y-52.471 I0 J-66.5
G1 Y-60.84
G2 X163.911 Y-92.34 I-31.5 J0
G1 Z-2.1 F300
X13.911 F1000
G2 X-17.589 Y-60.84 I0 J31.5
G1 Y-17.471
G2 X13.911 Y14.029 I31.5 J0
G1 X128.911
G2 X195.411 Y-52.471 I0 J-66.5
G1 Y-60.84
G2 X163.911 Y-92.34 I-31.5 J0
G1 Z-2.4 F300
X13.911 F1000
G2 X-17.589 Y-60.84 I0 J31.5
G1 Y-17.471
G2 X13.911 Y14.029 I31.5 J0
G1 X128.911
G2 X195.411 Y-52.471 I0 J-66.5
G1 Y-60.84
G2 X163.911 Y-92.34 I-31.5 J0
G1 Z-2.7 F300
X13.911 F1000
G2 X-17.589 Y-60.84 I0 J31.5
G1 Y-17.471
G2 X13.911 Y14.029 I31.5 J0
G1 X128.911
G2 X195.411 Y-52.471 I0 J-66.5
G1 Y-60.84
G2 X163.911 Y-92.34 I-31.5 J0
G1 Z-3 F300
X13.911 F1000
G2 X-17.589 Y-60.84 I0 J31.5
G1 Y-17.471
G2 X13.911 Y14.029 I31.5 J0
G1 X128.911
G2 X195.411 Y-52.471 I0 J-66.5
G1 Y-60.84
G2 X163.911 Y-92.34 I-31.5 J0
G1 Z-3.3 F300
X13.911 F1000
G2 X-17.589 Y-60.84 I0 J31.5
G1 Y-17.471
G2 X13.911 Y14.029 I31.5 J0
G1 X128.911
G2 X195.411 Y-52.471 I0 J-66.5
G1 Y-60.84
G2 X163.911 Y-92.34 I-31.5 J0
G1 Z-3.6 F300
X13.911 F1000
G2 X-17.589 Y-60.84 I0 J31.5
G1 Y-17.471
G2 X13.911 Y14.029 I31.5 J0
G1 X128.911
G2 X195.411 Y-52.471 I0 J-66.5
G1 Y-60.84
G2 X163.911 Y-92.34 I-31.5 J0
G1 Z-3.9 F300
X13.911 F1000
G2 X-17.589 Y-60.84 I0 J31.5
G1 Y-17.471
G2 X13.911 Y14.029 I31.5 J0
G1 X128.911
G2 X195.411 Y-52.471 I0 J-66.5
G1 Y-60.84
G2 X163.911 Y-92.34 I-31.5 J0
G1 Z-4.2 F300
X13.911 F1000
G2 X-17.589 Y-60.84 I0 J31.5
G1 Y-17.471
G2 X13.911 Y14.029 I31.5 J0
G1 X128.911
G2 X195.411 Y-52.471 I0 J-66.5
G1 Y-60.84
G2 X163.911 Y-92.34 I-31.5 J0
G1 Z-4.5 F300
X13.911 F1000
G2 X-17.589 Y-60.84 I0 J31.5
G1 Y-17.471
G2 X13.911 Y14.029 I31.5 J0
G1 X128.911
G2 X195.411 Y-52.471 I0 J-66.5
G1 Y-60.84
G2 X163.911 Y-92.34 I-31.5 J0
G1 Z-4.8 F300
X13.911 F1000
G2 X-17.589 Y-60.84 I0 J31.5
G1 Y-17.471
G2 X13.911 Y14.029 I31.5 J0
G1 X128.911
G2 X195.411 Y-52.471 I0 J-66.5
G1 Y-60.84
G2 X163.911 Y-92.34 I-31.5 J0
G1 Z-5.1 F300
X13.911 F1000
G2 X-17.589 Y-60.84 I0 J31.5
G1 Y-17.471
G2 X13.911 Y14.029 I31.5 J0
G1 X128.911
G2 X195.411 Y-52.471 I0 J-66.5
G1 Y-60.84
G2 X163.911 Y-92.34 I-31.5 J0
G1 Z-5.4 F300
X13.911 F1000
G2 X-17.589 Y-60.84 I0 J31.5
G1 Y-17.471
G2 X13.911 Y14.029 I31.5 J0
G1 X128.911
G2 X195.411 Y-52.471 I0 J-66.5
G1 Y-60.84
G2 X163.911 Y-92.34 I-31.5 J0
G1 Z-5.7 F300
X13.911 F1000
G2 X-17.589 Y-60.84 I0 J31.5
G1 Y-17.471
G2 X13.911 Y14.029 I31.5 J0
G1 X128.911
G2 X195.411 Y-52.471 I0 J-66.5
G1 Y-60.84
G2 X163.911 Y-92.34 I-31.5 J0
G1 Z-6 F300
X13.911 F1000
G2 X-17.589 Y-60.84 I0 J31.5
G1 Y-17.471
G2 X13.911 Y14.029 I31.5 J0
G1 X128.911
G2 X195.411 Y-52.471 I0 J-66.5
G1 Y-60.84
G2 X163.911 Y-92.34 I-31.5 J0
G1 Z-6.3 F300
X13.911 F1000
G2 X-17.589 Y-60.84 I0 J31.5
G1 Y-17.471
G2 X13.911 Y14.029 I31.5 J0
G1 X128.911
G2 X195.411 Y-52.471 I0 J-66.5
G1 Y-60.84
G2 X163.911 Y-92.34 I-31.5 J0
G1 Z-6.6 F300
X13.911 F1000
G2 X-17.589 Y-60.84 I0 J31.5
G1 Y-17.471
G2 X13.911 Y14.029 I31.5 J0
G1 X128.911
G2 X195.411 Y-52.471 I0 J-66.5
G1 Y-60.84
G2 X163.911 Y-92.34 I-31.5 J0
G1 Z-6.9 F300
X13.911 F1000
G2 X-17.589 Y-60.84 I0 J31.5
G1 Y-17.471
G2 X13.911 Y14.029 I31.5 J0
G1 X128.911
G2 X195.411 Y-52.471 I0 J-66.5
G1 Y-60.84
G2 X163.911 Y-92.34 I-31.5 J0
G1 Z-7.2 F300
X13.911 F1000
G2 X-17.589 Y-60.84 I0 J31.5
G1 Y-17.471
G2 X13.911 Y14.029 I31.5 J0
G1 X128.911
G2 X195.411 Y-52.471 I0 J-66.5
G1 Y-60.84
G2 X163.911 Y-92.34 I-31.5 J0
G1 Z-7.5 F300
X13.911 F1000
G2 X-17.589 Y-60.84 I0 J31.5
G1 Y-17.471
G2 X13.911 Y14.029 I31.5 J0
G1 X128.911
G2 X195.411 Y-52.471 I0 J-66.5
G1 Y-60.84
G2 X163.911 Y-92.34 I-31.5 J0
G1 Z-7.8 F300
X13.911 F1000
G2 X-17.589 Y-60.84 I0 J31.5
G1 Y-17.471
G2 X13.911 Y14.029 I31.5 J0
G1 X128.911
G2 X195.411 Y-52.471 I0 J-66.5
G1 Y-60.84
G2 X163.911 Y-92.34 I-31.5 J0
G1 Z-8.1 F300
X13.911 F1000
G2 X-17.589 Y-60.84 I0 J31.5
G1 Y-17.471
G2 X13.911 Y14.029 I31.5 J0
G1 X128.911
G2 X195.411 Y-52.471 I0 J-66.5
G1 Y-60.84
G2 X163.911 Y-92.34 I-31.5 J0
G1 Z-8.4 F300
X13.911 F1000
G2 X-17.589 Y-60.84 I0 J31.5
G1 Y-17.471
G2 X13.911 Y14.029 I31.5 J0
G1 X128.911
G2 X195.411 Y-52.471 I0 J-66.5
G1 Y-60.84
G2 X163.911 Y-92.34 I-31.5 J0
G1 Z-8.7 F300
X13.911 F1000
G2 X-17.589 Y-60.84 I0 J31.5
G1 Y-17.471
G2 X13.911 Y14.029 I31.5 J0
G1 X128.911
G2 X195.411 Y-52.471 I0 J-66.5
G1 Y-60.84
G2 X163.911 Y-92.34 I-31.5 J0
G1 Z-9 F300
X13.911 F1000
G2 X-17.589 Y-60.84 I0 J31.5
G1 Y-17.471
G2 X13.911 Y14.029 I31.5 J0
G1 X128.911
G2 X195.411 Y-52.471 I0 J-66.5
G1 Y-60.84
G2 X163.911 Y-92.34 I-31.5 J0
G1 Z-9.3 F300
X13.911 F1000
G2 X-17.589 Y-60.84 I0 J31.5
G1 Y-17.471
G2 X13.911 Y14.029 I31.5 J0
G1 X128.911
G2 X195.411 Y-52.471 I0 J-66.5
G1 Y-60.84
G2 X163.911 Y-92.34 I-31.5 J0
G1 Z-9.6 F300
X13.911 F1000
G2 X-17.589 Y-60.84 I0 J31.5
G1 Y-17.471
G2 X13.911 Y14.029 I31.5 J0
G1 X128.911
G2 X195.411 Y-52.471 I0 J-66.5
G1 Y-60.84
G2 X163.911 Y-92.34 I-31.5 J0
G1 Z-9.9 F300
X13.911 F1000
G2 X-17.589 Y-60.84 I0 J31.5
G1 Y-17.471
G2 X13.911 Y14.029 I31.5 J0
G1 X128.911
G2 X195.411 Y-52.471 I0 J-66.5
G1 Y-60.84
G2 X163.911 Y-92.34 I-31.5 J0
G1 Z-10.2 F300
X13.911 F1000
G2 X-17.589 Y-60.84 I0 J31.5
G1 Y-17.471
G2 X13.911 Y14.029 I31.5 J0
G1 X128.911
G2 X195.411 Y-52.471 I0 J-66.5
G1 Y-60.84
G2 X163.911 Y-92.34 I-31.5 J0
G1 Z-10.5 F300
X13.911 F1000
G2 X-17.589 Y-60.84 I0 J31.5
G1 Y-17.471
G2 X13.911 Y14.029 I31.5 J0
G1 X128.911
G2 X195.411 Y-52.471 I0 J-66.5
G1 Y-60.84
G2 X163.911 Y-92.34 I-31.5 J0
G1 Z-10.8 F300
X141.911 F1000
Z-10.5
X135.911
Z-10.8 F300
X91.911 F1000
Z-10.5
X85.911
Z-10.8 F300
X41.911 F1000
Z-10.5
X35.911
Z-10.8 F300
X13.911 F1000
G2 X-17.589 Y-60.84 I0 J31.5
G1 Y-17.471
G2 X13.911 Y14.029 I31.5 J0
G1 X39.661
Z-10.5
X45.661
Z-10.8 F300
X97.161 F1000
Z-10.5
X103.161
Z-10.8 F300
X128.911 F1000
G2 X151.562 Y10.052 I0 J-66.5
G1 Z-10.5
G2 X157.106 Y7.756 I-22.651 J-62.523
G1 Z-10.8 F300
G2 X189.138 Y-24.277 I-28.195 J-60.227 F1000
G1 Z-10.5
G2 X191.434 Y-29.82 I-60.227 J-28.194
G1 Z-10.8 F300
G2 X195.411 Y-52.471 I-62.523 J-22.651 F1000
G1 Y-60.84
G2 X163.911 Y-92.34 I-31.5 J0
G1 Z-11.1 F300
X141.911 F1000
Z-10.5
X135.911
Z-11.1 F300
X91.911 F1000
Z-10.5
X85.911
Z-11.1 F300
X41.911 F1000
Z-10.5
X35.911
Z-11.1 F300
X13.911 F1000
G2 X-17.589 Y-60.84 I0 J31.5
G1 Y-17.471
G2 X13.911 Y14.029 I31.5 J0
G1 X39.661
Z-10.5
X45.661
Z-11.1 F300
X97.161 F1000
Z-10.5
X103.161
Z-11.1 F300
X128.911 F1000
G2 X151.562 Y10.052 I0 J-66.5
G1 Z-10.5
G2 X157.106 Y7.756 I-22.651 J-62.523
G1 Z-11.1 F300
G2 X189.138 Y-24.277 I-28.195 J-60.227 F1000
G1 Z-10.5
G2 X191.434 Y-29.82 I-60.227 J-28.194
G1 Z-11.1 F300
G2 X195.411 Y-52.471 I-62.523 J-22.651 F1000
G1 Y-60.84
G2 X163.911 Y-92.34 I-31.5 J0
G0 Z6
M9
M5
M30
