(1001)
(T1  D=1.5 CR=0 - ZMIN=-6 - flat end mill)
G90 G94
G17
G21

(Pocket5)
T1
S500 M3
G54
M8
G0 X75.969 Y-90.146
Z6
Z2
G1 Z1.05 F200
Y-90.689 Z1.002
X75.975 Y-90.714
X75.994 Y-90.732
X76.019 Y-90.739
X76.044 Y-90.732
X76.062 Y-90.714
X76.069 Y-90.689
Y-85.207 Z0.516
X76.062 Y-85.182
X76.044 Y-85.163
X76.019 Y-85.157
X75.994 Y-85.163
X75.975 Y-85.182
X75.969 Y-85.207
Y-90.689 Z0.03
X75.975 Y-90.714
X75.994 Y-90.732
X76.019 Y-90.739
X76.044 Y-90.732
X76.062 Y-90.714
X76.069 Y-90.689
Y-85.207 Z-0.456
X76.062 Y-85.182
X76.044 Y-85.163
X76.019 Y-85.157
X75.994 Y-85.163
X75.975 Y-85.182
X75.969 Y-85.207
Y-90.689 Z-0.942
X75.975 Y-90.714
X75.994 Y-90.732
X76.019 Y-90.739
X76.044 Y-90.732
X76.062 Y-90.714
X76.069 Y-90.689
Y-90.039 Z-1
G3 X75.761 Y-90.039 I-0.154 J0
G1 Y-90.047 F400
G3 X76.011 Y-90.296 I0.25 J0
G1 X76.026
G3 X76.276 Y-90.047 I0 J0.25
G1 X76.274 Y-84.629
X76.27 Y-84.586
X76.265 Y-84.554
G3 X75.773 Y-84.554 I-0.246 J-0.043
G1 X75.767 Y-84.586
X75.763 Y-84.629
X75.761 Y-90.039
X75.764 Y-90.064 Z-0.993 F200
X75.774 Y-90.087 Z-0.987
X75.797 Y-90.115 Z-0.95
X75.807 Y-90.123 Z-0.9
G0 Z4
X42.645 Y-47.596
Z1.05
G1 X42.012 Z0.994 F200
X41.987 Y-47.602
X41.968 Y-47.621
X41.962 Y-47.646
X41.968 Y-47.671
X41.987 Y-47.689
X42.012 Y-47.696
X47.494 Z0.508
X47.519 Y-47.689
X47.537 Y-47.671
X47.544 Y-47.646
X47.537 Y-47.621
X47.519 Y-47.602
X47.494 Y-47.596
X42.012 Z0.022
X41.987 Y-47.602
X41.968 Y-47.621
X41.962 Y-47.646
X41.968 Y-47.671
X41.987 Y-47.689
X42.012 Y-47.696
X47.494 Z-0.464
X47.519 Y-47.689
X47.537 Y-47.671
X47.544 Y-47.646
X47.537 Y-47.621
X47.519 Y-47.602
X47.494 Y-47.596
X42.012 Z-0.95
X41.987 Y-47.602
X41.968 Y-47.621
X41.962 Y-47.646
X41.968 Y-47.671
X41.987 Y-47.689
X42.012 Y-47.696
X42.571 Z-1
X42.598 Y-47.692
X42.622 Y-47.68
X42.791 Y-47.569
X42.825 Y-47.555
X42.863 Y-47.556
X42.897 Y-47.571
X42.922 Y-47.599
X42.934 Y-47.635
X42.93 Y-47.672
X42.913 Y-47.705
X42.883 Y-47.728
X42.847 Y-47.738
X42.81 Y-47.733
X42.778 Y-47.713
X42.757 Y-47.682
X42.749 Y-47.646
G3 X42.393 Y-47.646 I-0.178 J0 F400
X42.749 Y-47.646 I0.178 J0
X42.739 Y-47.194 I-10.057 J0
X42.39 Y-46.908 I-0.303 J-0.014
G1 X42.276 Y-46.925
X41.978 Y-47.14
X41.817 Y-47.456
X41.813 Y-47.829
X41.979 Y-48.153
X42.274 Y-48.366
X42.632 Y-48.421
X42.981 Y-48.307
X43.386 Y-47.898
X43.445 Y-47.849
X43.521 Y-47.799
X43.567 Y-47.772
X43.616 Y-47.753
X43.731 Y-47.717
X43.786 Y-47.704
X43.843 Y-47.7
X75.25 Y-47.697
X75.296 Y-47.7
X75.341 Y-47.708
X75.455 Y-47.737
X75.504 Y-47.752
X75.55 Y-47.775
X75.626 Y-47.818
X75.667 Y-47.845
X75.704 Y-47.877
X75.781 Y-47.953
X75.816 Y-47.992
X75.845 Y-48.036
X75.894 Y-48.124
X75.918 Y-48.175
X75.934 Y-48.229
X75.96 Y-48.349
X75.966 Y-48.388
X75.968 Y-48.428
Y-83.198
X75.965 Y-83.24
X75.959 Y-83.281
X75.933 Y-83.395
X75.916 Y-83.45
X75.89 Y-83.502
X75.832 Y-83.601
X75.799 Y-83.649
X75.758 Y-83.691
X75.409 Y-84
X75.275 Y-84.238
X75.219 Y-84.56
X75.217 Y-90.84
X76.82
X76.818 Y-84.56
X76.762 Y-84.238
X76.625 Y-83.996
X76.276 Y-83.687
X76.234 Y-83.644
X76.2 Y-83.595
X76.146 Y-83.5
X76.121 Y-83.449
X76.104 Y-83.395
X76.079 Y-83.281
X76.072 Y-83.24
X76.069 Y-83.198
Y-47.596
X43.843 Y-47.592
X43.787 Y-47.588
X43.732 Y-47.575
X43.621 Y-47.541
X43.574 Y-47.523
X43.529 Y-47.498
X43.456 Y-47.451
X43.423 Y-47.427
X43.393 Y-47.4
X42.981 Y-46.985
X42.633 Y-46.87
X42.39 Y-46.908
X42.361 Y-46.919
X42.338 Y-46.94
X42.327 Y-46.969
X42.328 Y-47
X42.342 Y-47.028
X42.801 Y-47.617
X42.827 Y-47.638
X42.86 Y-47.646
X44.15
X44.205 Y-47.628
X44.216 Y-47.618
X44.214 Y-47.603
X44.2 Y-47.596
X42.012 Z-1.796 F200
X41.987 Y-47.602
X41.968 Y-47.621
X41.962 Y-47.646
X41.968 Y-47.671
X41.987 Y-47.689
X42.012 Y-47.696
X42.571 Z-2
X42.598 Y-47.692
X42.622 Y-47.68
X42.791 Y-47.569
X42.825 Y-47.555
X42.863 Y-47.556
X42.897 Y-47.571
X42.922 Y-47.599
X42.934 Y-47.635
X42.93 Y-47.672
X42.913 Y-47.705
X42.883 Y-47.728
X42.847 Y-47.738
X42.81 Y-47.733
X42.778 Y-47.713
X42.757 Y-47.682
X42.749 Y-47.646
G3 X42.393 Y-47.646 I-0.178 J0 F400
X42.749 Y-47.646 I0.178 J0
G1 X42.742 Y-47.596 Z-1.987 F200
X42.728 Y-47.563 Z-1.95
X42.722 Y-47.551 Z-1.9
G0 Z4
X75.969 Y-90.146
Z0.05
G1 Y-90.689 Z0.002 F200
X75.975 Y-90.714
X75.994 Y-90.732
X76.019 Y-90.739
X76.044 Y-90.732
X76.062 Y-90.714
X76.069 Y-90.689
Y-85.207 Z-0.484
X76.062 Y-85.182
X76.044 Y-85.163
X76.019 Y-85.157
X75.994 Y-85.163
X75.975 Y-85.182
X75.969 Y-85.207
Y-90.689 Z-0.97
X75.975 Y-90.714
X75.994 Y-90.732
X76.019 Y-90.739
X76.044 Y-90.732
X76.062 Y-90.714
X76.069 Y-90.689
Y-85.207 Z-1.456
X76.062 Y-85.182
X76.044 Y-85.163
X76.019 Y-85.157
X75.994 Y-85.163
X75.975 Y-85.182
X75.969 Y-85.207
Y-90.689 Z-1.942
X75.975 Y-90.714
X75.994 Y-90.732
X76.019 Y-90.739
X76.044 Y-90.732
X76.062 Y-90.714
X76.069 Y-90.689
Y-90.039 Z-2
G3 X75.761 Y-90.039 I-0.154 J0
G1 Y-90.047 F400
G3 X76.011 Y-90.296 I0.25 J0
G1 X76.026
G3 X76.276 Y-90.047 I0 J0.25
G1 X76.274 Y-84.629
X76.27 Y-84.586
X76.265 Y-84.554
G3 X75.773 Y-84.554 I-0.246 J-0.043
G1 X75.767 Y-84.586
X75.763 Y-84.629
X75.761 Y-90.039
G2 X75.534 Y-90.414 I-0.424 J0
G3 X75.639 Y-90.84 I0.105 J-0.2
G1 X76.82
X76.818 Y-84.56
X76.762 Y-84.238
X76.625 Y-83.996
X76.276 Y-83.687
X76.234 Y-83.644
X76.2 Y-83.595
X76.146 Y-83.5
X76.121 Y-83.449
X76.104 Y-83.395
X76.079 Y-83.281
X76.072 Y-83.24
X76.069 Y-83.198
Y-47.596
X43.843 Y-47.592
X43.787 Y-47.588
X43.732 Y-47.575
X43.621 Y-47.541
X43.574 Y-47.523
X43.529 Y-47.498
X43.456 Y-47.451
X43.423 Y-47.427
X43.393 Y-47.4
X42.981 Y-46.985
X42.633 Y-46.87
X42.276 Y-46.925
X41.978 Y-47.14
X41.817 Y-47.456
X41.813 Y-47.829
X41.979 Y-48.153
X42.274 Y-48.366
X42.632 Y-48.421
X42.981 Y-48.307
X43.386 Y-47.898
X43.445 Y-47.849
X43.521 Y-47.799
X43.567 Y-47.772
X43.616 Y-47.753
X43.731 Y-47.717
X43.786 Y-47.704
X43.843 Y-47.7
X75.25 Y-47.697
X75.296 Y-47.7
X75.341 Y-47.708
X75.455 Y-47.737
X75.504 Y-47.752
X75.55 Y-47.775
X75.626 Y-47.818
X75.667 Y-47.845
X75.704 Y-47.877
X75.781 Y-47.953
X75.816 Y-47.992
X75.845 Y-48.036
X75.894 Y-48.124
X75.918 Y-48.175
X75.934 Y-48.229
X75.96 Y-48.349
X75.966 Y-48.388
X75.968 Y-48.428
Y-83.198
X75.965 Y-83.24
X75.959 Y-83.281
X75.933 Y-83.395
X75.916 Y-83.45
X75.89 Y-83.502
X75.832 Y-83.601
X75.799 Y-83.649
X75.758 Y-83.691
X75.409 Y-84
X75.275 Y-84.238
X75.219 Y-84.56
X75.217 Y-90.84
X75.639
X75.668 Y-90.835
X75.692 Y-90.819
X75.708 Y-90.795
X75.714 Y-90.766
X75.725 Y-90.005
X76.008 Y-88.64
X76.002 Y-88.589
X75.996 Y-88.578
X75.984 Y-88.575
X75.973 Y-88.58
X75.969 Y-88.591
Y-90.689 Z-2.764 F200
X75.975 Y-90.714
X75.994 Y-90.732
X76.019 Y-90.739
X76.044 Y-90.732
X76.062 Y-90.714
X76.069 Y-90.689
Y-90.039 Z-3
G3 X75.761 Y-90.039 I-0.154 J0
G1 Y-90.047 F400
G3 X76.011 Y-90.296 I0.25 J0
G1 X76.026
G3 X76.276 Y-90.047 I0 J0.25
G1 X76.274 Y-84.629
X76.27 Y-84.586
X76.265 Y-84.554
G3 X75.773 Y-84.554 I-0.246 J-0.043
G1 X75.767 Y-84.586
X75.763 Y-84.629
X75.761 Y-90.039
X75.764 Y-90.064 Z-2.993 F200
X75.774 Y-90.087 Z-2.987
X75.797 Y-90.115 Z-2.95
X75.807 Y-90.123 Z-2.9
G0 Z4
X43.763 Y-47.596
Z2
G1 Z-0.95 F200
X42.012 Z-1.105
X41.987 Y-47.602
X41.968 Y-47.621
X41.962 Y-47.646
X41.968 Y-47.671
X41.987 Y-47.689
X42.012 Y-47.696
X47.494 Z-1.591
X47.519 Y-47.689
X47.537 Y-47.671
X47.544 Y-47.646
X47.537 Y-47.621
X47.519 Y-47.602
X47.494 Y-47.596
X42.012 Z-2.077
X41.987 Y-47.602
X41.968 Y-47.621
X41.962 Y-47.646
X41.968 Y-47.671
X41.987 Y-47.689
X42.012 Y-47.696
X47.494 Z-2.564
X47.519 Y-47.689
X47.537 Y-47.671
X47.544 Y-47.646
X47.537 Y-47.621
X47.519 Y-47.602
X47.494 Y-47.596
X42.571 Z-3
X42.554 Y-47.594
X42.538 Y-47.588
X42.389 Y-47.509
X42.364 Y-47.488
X42.352 Y-47.457
X42.354 Y-47.424
X42.372 Y-47.396
X42.4 Y-47.379
X42.432 Y-47.377
X42.463 Y-47.389
X42.484 Y-47.414
X42.492 Y-47.446
X42.485 Y-47.478
X42.464 Y-47.503
G3 X42.678 Y-47.788 I0.107 J-0.143 F400
X42.464 Y-47.503 I-0.107 J0.143
G2 X42.104 Y-47.575 I-0.255 J0.34
G3 X41.814 Y-47.799 I-0.058 J-0.226
G1 X41.813 Y-47.829
X41.979 Y-48.153
X42.274 Y-48.366
X42.632 Y-48.421
X42.981 Y-48.307
X43.386 Y-47.898
X43.445 Y-47.849
X43.521 Y-47.799
X43.567 Y-47.772
X43.616 Y-47.753
X43.731 Y-47.717
X43.786 Y-47.704
X43.843 Y-47.7
X75.25 Y-47.697
X75.296 Y-47.7
X75.341 Y-47.708
X75.455 Y-47.737
X75.504 Y-47.752
X75.55 Y-47.775
X75.626 Y-47.818
X75.667 Y-47.845
X75.704 Y-47.877
X75.781 Y-47.953
X75.816 Y-47.992
X75.845 Y-48.036
X75.894 Y-48.124
X75.918 Y-48.175
X75.934 Y-48.229
X75.96 Y-48.349
X75.966 Y-48.388
X75.968 Y-48.428
Y-83.198
X75.965 Y-83.24
X75.959 Y-83.281
X75.933 Y-83.395
X75.916 Y-83.45
X75.89 Y-83.502
X75.832 Y-83.601
X75.799 Y-83.649
X75.758 Y-83.691
X75.409 Y-84
X75.275 Y-84.238
X75.219 Y-84.56
X75.217 Y-90.84
X76.82
X76.818 Y-84.56
X76.762 Y-84.238
X76.625 Y-83.996
X76.276 Y-83.687
X76.234 Y-83.644
X76.2 Y-83.595
X76.146 Y-83.5
X76.121 Y-83.449
X76.104 Y-83.395
X76.079 Y-83.281
X76.072 Y-83.24
X76.069 Y-83.198
Y-47.596
X43.843 Y-47.592
X43.787 Y-47.588
X43.732 Y-47.575
X43.621 Y-47.541
X43.574 Y-47.523
X43.529 Y-47.498
X43.456 Y-47.451
X43.423 Y-47.427
X43.393 Y-47.4
X42.981 Y-46.985
X42.633 Y-46.87
X42.276 Y-46.925
X41.978 Y-47.14
X41.817 Y-47.456
X41.814 Y-47.799
X41.821 Y-47.823
X41.84 Y-47.838
X41.866 Y-47.84
X42.065 Y-47.791
X44.15 Y-47.649
X44.206 Y-47.628
X44.216 Y-47.617
X44.213 Y-47.602
X44.2 Y-47.596
X42.012 Z-3.796 F200
X41.987 Y-47.602
X41.968 Y-47.621
X41.962 Y-47.646
X41.968 Y-47.671
X41.987 Y-47.689
X42.012 Y-47.696
X42.571 Z-4
X42.598 Y-47.692
X42.622 Y-47.68
X42.791 Y-47.569
X42.825 Y-47.555
X42.863 Y-47.556
X42.897 Y-47.571
X42.922 Y-47.599
X42.934 Y-47.635
X42.93 Y-47.672
X42.913 Y-47.705
X42.883 Y-47.728
X42.847 Y-47.738
X42.81 Y-47.733
X42.778 Y-47.713
X42.757 Y-47.682
X42.749 Y-47.646
G3 X42.393 Y-47.646 I-0.178 J0 F400
X42.749 Y-47.646 I0.178 J0
G1 X42.742 Y-47.596 Z-3.987 F200
X42.728 Y-47.563 Z-3.95
X42.722 Y-47.551 Z-3.9
G0 Z4
X75.969 Y-90.146
G1 Z-1.95 F200
Y-90.689 Z-1.998
X75.975 Y-90.714
X75.994 Y-90.732
X76.019 Y-90.739
X76.044 Y-90.732
X76.062 Y-90.714
X76.069 Y-90.689
Y-85.207 Z-2.484
X76.062 Y-85.182
X76.044 Y-85.163
X76.019 Y-85.157
X75.994 Y-85.163
X75.975 Y-85.182
X75.969 Y-85.207
Y-90.689 Z-2.97
X75.975 Y-90.714
X75.994 Y-90.732
X76.019 Y-90.739
X76.044 Y-90.732
X76.062 Y-90.714
X76.069 Y-90.689
Y-85.207 Z-3.456
X76.062 Y-85.182
X76.044 Y-85.163
X76.019 Y-85.157
X75.994 Y-85.163
X75.975 Y-85.182
X75.969 Y-85.207
Y-90.689 Z-3.942
X75.975 Y-90.714
X75.994 Y-90.732
X76.019 Y-90.739
X76.044 Y-90.732
X76.062 Y-90.714
X76.069 Y-90.689
Y-90.039 Z-4
G3 X75.761 Y-90.039 I-0.154 J0
G1 Y-90.047 F400
G3 X76.011 Y-90.296 I0.25 J0
G1 X76.026
G3 X76.276 Y-90.047 I0 J0.25
G1 X76.274 Y-84.629
X76.27 Y-84.586
X76.265 Y-84.554
G3 X75.773 Y-84.554 I-0.246 J-0.043
G1 X75.767 Y-84.586
X75.763 Y-84.629
X75.761 Y-90.039
G2 X75.534 Y-90.414 I-0.424 J0
G3 X75.639 Y-90.84 I0.105 J-0.2
G1 X76.82
X76.818 Y-84.56
X76.762 Y-84.238
X76.625 Y-83.996
X76.276 Y-83.687
X76.234 Y-83.644
X76.2 Y-83.595
X76.146 Y-83.5
X76.121 Y-83.449
X76.104 Y-83.395
X76.079 Y-83.281
X76.072 Y-83.24
X76.069 Y-83.198
Y-47.596
X43.843 Y-47.592
X43.787 Y-47.588
X43.732 Y-47.575
X43.621 Y-47.541
X43.574 Y-47.523
X43.529 Y-47.498
X43.456 Y-47.451
X43.423 Y-47.427
X43.393 Y-47.4
X42.981 Y-46.985
X42.633 Y-46.87
X42.276 Y-46.925
X41.978 Y-47.14
X41.817 Y-47.456
X41.813 Y-47.829
X41.979 Y-48.153
X42.274 Y-48.366
X42.632 Y-48.421
X42.981 Y-48.307
X43.386 Y-47.898
X43.445 Y-47.849
X43.521 Y-47.799
X43.567 Y-47.772
X43.616 Y-47.753
X43.731 Y-47.717
X43.786 Y-47.704
X43.843 Y-47.7
X75.25 Y-47.697
X75.296 Y-47.7
X75.341 Y-47.708
X75.455 Y-47.737
X75.504 Y-47.752
X75.55 Y-47.775
X75.626 Y-47.818
X75.667 Y-47.845
X75.704 Y-47.877
X75.781 Y-47.953
X75.816 Y-47.992
X75.845 Y-48.036
X75.894 Y-48.124
X75.918 Y-48.175
X75.934 Y-48.229
X75.96 Y-48.349
X75.966 Y-48.388
X75.968 Y-48.428
Y-83.198
X75.965 Y-83.24
X75.959 Y-83.281
X75.933 Y-83.395
X75.916 Y-83.45
X75.89 Y-83.502
X75.832 Y-83.601
X75.799 Y-83.649
X75.758 Y-83.691
X75.409 Y-84
X75.275 Y-84.238
X75.219 Y-84.56
X75.217 Y-90.84
X75.639
X75.668 Y-90.835
X75.692 Y-90.819
X75.708 Y-90.795
X75.714 Y-90.766
X75.725 Y-90.005
X76.008 Y-88.64
X76.002 Y-88.589
X75.996 Y-88.578
X75.984 Y-88.575
X75.973 Y-88.58
X75.969 Y-88.591
Y-90.689 Z-4.764 F200
X75.975 Y-90.714
X75.994 Y-90.732
X76.019 Y-90.739
X76.044 Y-90.732
X76.062 Y-90.714
X76.069 Y-90.689
Y-90.039 Z-5
G3 X75.761 Y-90.039 I-0.154 J0
G1 Y-90.047 F400
G3 X76.011 Y-90.296 I0.25 J0
G1 X76.026
G3 X76.276 Y-90.047 I0 J0.25
G1 X76.274 Y-84.629
X76.27 Y-84.586
X76.265 Y-84.554
G3 X75.773 Y-84.554 I-0.246 J-0.043
G1 X75.767 Y-84.586
X75.763 Y-84.629
X75.761 Y-90.039
X75.764 Y-90.064 Z-4.993 F200
X75.774 Y-90.087 Z-4.987
X75.797 Y-90.115 Z-4.95
X75.807 Y-90.123 Z-4.9
G0 Z4
X42.645 Y-47.596
G1 Z-2.95 F200
X42.012 Z-3.006
X41.987 Y-47.602
X41.968 Y-47.621
X41.962 Y-47.646
X41.968 Y-47.671
X41.987 Y-47.689
X42.012 Y-47.696
X47.494 Z-3.492
X47.519 Y-47.689
X47.537 Y-47.671
X47.544 Y-47.646
X47.537 Y-47.621
X47.519 Y-47.602
X47.494 Y-47.596
X42.012 Z-3.978
X41.987 Y-47.602
X41.968 Y-47.621
X41.962 Y-47.646
X41.968 Y-47.671
X41.987 Y-47.689
X42.012 Y-47.696
X47.494 Z-4.464
X47.519 Y-47.689
X47.537 Y-47.671
X47.544 Y-47.646
X47.537 Y-47.621
X47.519 Y-47.602
X47.494 Y-47.596
X42.012 Z-4.95
X41.987 Y-47.602
X41.968 Y-47.621
X41.962 Y-47.646
X41.968 Y-47.671
X41.987 Y-47.689
X42.012 Y-47.696
X42.571 Z-5
X42.598 Y-47.692
X42.622 Y-47.68
X42.791 Y-47.569
X42.825 Y-47.555
X42.863 Y-47.556
X42.897 Y-47.571
X42.922 Y-47.599
X42.934 Y-47.635
X42.93 Y-47.672
X42.913 Y-47.705
X42.883 Y-47.728
X42.847 Y-47.738
X42.81 Y-47.733
X42.778 Y-47.713
X42.757 Y-47.682
X42.749 Y-47.646
G3 X42.393 Y-47.646 I-0.178 J0 F400
X42.749 Y-47.646 I0.178 J0
X42.739 Y-47.194 I-10.057 J0
X42.39 Y-46.908 I-0.303 J-0.014
G1 X42.276 Y-46.925
X41.978 Y-47.14
X41.817 Y-47.456
X41.813 Y-47.829
X41.979 Y-48.153
X42.274 Y-48.366
X42.632 Y-48.421
X42.981 Y-48.307
X43.386 Y-47.898
X43.445 Y-47.849
X43.521 Y-47.799
X43.567 Y-47.772
X43.616 Y-47.753
X43.731 Y-47.717
X43.786 Y-47.704
X43.843 Y-47.7
X75.25 Y-47.697
X75.296 Y-47.7
X75.341 Y-47.708
X75.455 Y-47.737
X75.504 Y-47.752
X75.55 Y-47.775
X75.626 Y-47.818
X75.667 Y-47.845
X75.704 Y-47.877
X75.781 Y-47.953
X75.816 Y-47.992
X75.845 Y-48.036
X75.894 Y-48.124
X75.918 Y-48.175
X75.934 Y-48.229
X75.96 Y-48.349
X75.966 Y-48.388
X75.968 Y-48.428
Y-83.198
X75.965 Y-83.24
X75.959 Y-83.281
X75.933 Y-83.395
X75.916 Y-83.45
X75.89 Y-83.502
X75.832 Y-83.601
X75.799 Y-83.649
X75.758 Y-83.691
X75.409 Y-84
X75.275 Y-84.238
X75.219 Y-84.56
X75.217 Y-90.84
X76.82
X76.818 Y-84.56
X76.762 Y-84.238
X76.625 Y-83.996
X76.276 Y-83.687
X76.234 Y-83.644
X76.2 Y-83.595
X76.146 Y-83.5
X76.121 Y-83.449
X76.104 Y-83.395
X76.079 Y-83.281
X76.072 Y-83.24
X76.069 Y-83.198
Y-47.596
X43.843 Y-47.592
X43.787 Y-47.588
X43.732 Y-47.575
X43.621 Y-47.541
X43.574 Y-47.523
X43.529 Y-47.498
X43.456 Y-47.451
X43.423 Y-47.427
X43.393 Y-47.4
X42.981 Y-46.985
X42.633 Y-46.87
X42.39 Y-46.908
X42.361 Y-46.919
X42.338 Y-46.94
X42.327 Y-46.969
X42.328 Y-47
X42.342 Y-47.028
X42.801 Y-47.617
X42.827 Y-47.638
X42.86 Y-47.646
X44.15
X44.205 Y-47.628
X44.216 Y-47.618
X44.214 Y-47.603
X44.2 Y-47.596
X42.012 Z-5.796 F200
X41.987 Y-47.602
X41.968 Y-47.621
X41.962 Y-47.646
X41.968 Y-47.671
X41.987 Y-47.689
X42.012 Y-47.696
X42.571 Z-6
X42.598 Y-47.692
X42.622 Y-47.68
X42.791 Y-47.569
X42.825 Y-47.555
X42.863 Y-47.556
X42.897 Y-47.571
X42.922 Y-47.599
X42.934 Y-47.635
X42.93 Y-47.672
X42.913 Y-47.705
X42.883 Y-47.728
X42.847 Y-47.738
X42.81 Y-47.733
X42.778 Y-47.713
X42.757 Y-47.682
X42.749 Y-47.646
G3 X42.393 Y-47.646 I-0.178 J0 F400
X42.749 Y-47.646 I0.178 J0
G1 X42.742 Y-47.596 Z-5.987 F200
X42.728 Y-47.563 Z-5.95
X42.722 Y-47.551 Z-5.9
G0 Z4
X75.969 Y-90.146
G1 Z-3.95 F200
Y-90.689 Z-3.998
X75.975 Y-90.714
X75.994 Y-90.732
X76.019 Y-90.739
X76.044 Y-90.732
X76.062 Y-90.714
X76.069 Y-90.689
Y-85.207 Z-4.484
X76.062 Y-85.182
X76.044 Y-85.163
X76.019 Y-85.157
X75.994 Y-85.163
X75.975 Y-85.182
X75.969 Y-85.207
Y-90.689 Z-4.97
X75.975 Y-90.714
X75.994 Y-90.732
X76.019 Y-90.739
X76.044 Y-90.732
X76.062 Y-90.714
X76.069 Y-90.689
Y-85.207 Z-5.456
X76.062 Y-85.182
X76.044 Y-85.163
X76.019 Y-85.157
X75.994 Y-85.163
X75.975 Y-85.182
X75.969 Y-85.207
Y-90.689 Z-5.942
X75.975 Y-90.714
X75.994 Y-90.732
X76.019 Y-90.739
X76.044 Y-90.732
X76.062 Y-90.714
X76.069 Y-90.689
Y-90.039 Z-6
G3 X75.761 Y-90.039 I-0.154 J0
G1 Y-90.047 F400
G3 X76.011 Y-90.296 I0.25 J0
G1 X76.026
G3 X76.276 Y-90.047 I0 J0.25
G1 X76.274 Y-84.629
X76.27 Y-84.586
X76.265 Y-84.554
G3 X75.773 Y-84.554 I-0.246 J-0.043
G1 X75.767 Y-84.586
X75.763 Y-84.629
X75.761 Y-90.039
G2 X75.534 Y-90.414 I-0.424 J0
G3 X75.639 Y-90.84 I0.105 J-0.2
G1 X76.82
X76.818 Y-84.56
X76.762 Y-84.238
X76.625 Y-83.996
X76.276 Y-83.687
X76.234 Y-83.644
X76.2 Y-83.595
X76.146 Y-83.5
X76.121 Y-83.449
X76.104 Y-83.395
X76.079 Y-83.281
X76.072 Y-83.24
X76.069 Y-83.198
Y-47.596
X43.843 Y-47.592
X43.787 Y-47.588
X43.732 Y-47.575
X43.621 Y-47.541
X43.574 Y-47.523
X43.529 Y-47.498
X43.456 Y-47.451
X43.423 Y-47.427
X43.393 Y-47.4
X42.981 Y-46.985
X42.633 Y-46.87
X42.276 Y-46.925
X41.978 Y-47.14
X41.817 Y-47.456
X41.813 Y-47.829
X41.979 Y-48.153
X42.274 Y-48.366
X42.632 Y-48.421
X42.981 Y-48.307
X43.386 Y-47.898
X43.445 Y-47.849
X43.521 Y-47.799
X43.567 Y-47.772
X43.616 Y-47.753
X43.731 Y-47.717
X43.786 Y-47.704
X43.843 Y-47.7
X75.25 Y-47.697
X75.296 Y-47.7
X75.341 Y-47.708
X75.455 Y-47.737
X75.504 Y-47.752
X75.55 Y-47.775
X75.626 Y-47.818
X75.667 Y-47.845
X75.704 Y-47.877
X75.781 Y-47.953
X75.816 Y-47.992
X75.845 Y-48.036
X75.894 Y-48.124
X75.918 Y-48.175
X75.934 Y-48.229
X75.96 Y-48.349
X75.966 Y-48.388
X75.968 Y-48.428
Y-83.198
X75.965 Y-83.24
X75.959 Y-83.281
X75.933 Y-83.395
X75.916 Y-83.45
X75.89 Y-83.502
X75.832 Y-83.601
X75.799 Y-83.649
X75.758 Y-83.691
X75.409 Y-84
X75.275 Y-84.238
X75.219 Y-84.56
X75.217 Y-90.84
X75.639
X75.664 Y-90.837 Z-5.993 F200
X75.687 Y-90.828 Z-5.987
X75.716 Y-90.805 Z-5.95
X75.724 Y-90.794 Z-5.9
G0 Z4
X69.969 Y-88.845
Z1.05
G1 Y-90.687 Z0.887 F200
X69.975 Y-90.712
X69.994 Y-90.731
X70.019 Y-90.737
X70.044 Y-90.731
X70.062 Y-90.712
X70.069 Y-90.687
Y-85.205 Z0.401
X70.062 Y-85.18
X70.044 Y-85.162
X70.019 Y-85.155
X69.994 Y-85.162
X69.975 Y-85.18
X69.969 Y-85.205
Y-90.687 Z-0.085
X69.975 Y-90.712
X69.994 Y-90.731
X70.019 Y-90.737
X70.044 Y-90.731
X70.062 Y-90.712
X70.069 Y-90.687
Y-85.205 Z-0.572
X70.062 Y-85.18
X70.044 Y-85.162
X70.019 Y-85.155
X69.994 Y-85.162
X69.975 Y-85.18
X69.969 Y-85.205
Y-90.038 Z-1
X69.973 Y-90.071
X69.986 Y-90.102
X70.133 Y-90.361
G2 X69.905 Y-90.491 I-0.114 J-0.065
X70.019 Y-90.295 I0.114 J0.065
G1 X70.026 F400
G3 X70.276 Y-90.045 I0 J0.25
G1 X70.274 Y-84.629
X70.27 Y-84.586
X70.265 Y-84.554
G3 X69.773 Y-84.554 I-0.246 J-0.043
G1 X69.767 Y-84.586
X69.763 Y-84.629
X69.761 Y-90.045
G3 X70.011 Y-90.295 I0.25 J0
G1 X70.019
X70.044 Y-90.292 Z-0.993 F200
X70.067 Y-90.283 Z-0.987
X70.095 Y-90.26 Z-0.95
X70.103 Y-90.249 Z-0.9
G0 Z4
X21.561 Y-22.467
Z1.05
G1 Y-21.088 Z0.689 F200
X21.555 Y-21.063
X21.536 Y-21.045
X21.511 Y-21.038
X21.486 Y-21.045
X21.468 Y-21.063
X21.461 Y-21.088
Y-22.841 Z0.23
X21.468 Y-22.866
X21.486 Y-22.884
X21.511 Y-22.891
X21.536 Y-22.884
X21.555 Y-22.866
X21.561 Y-22.841
Y-21.088 Z-0.229
X21.555 Y-21.063
X21.536 Y-21.045
X21.511 Y-21.038
X21.486 Y-21.045
X21.468 Y-21.063
X21.461 Y-21.088
Y-22.841 Z-0.688
X21.468 Y-22.866
X21.486 Y-22.884
X21.511 Y-22.891
X21.536 Y-22.884
X21.555 Y-22.866
X21.561 Y-22.841
Y-21.647 Z-1
X21.554 Y-21.61
X21.535 Y-21.577
X21.505 Y-21.554
X21.468 Y-21.542
X21.328 Y-21.525
X21.291 Y-21.514
X21.261 Y-21.49
X21.241 Y-21.456
X21.235 Y-21.418
X21.243 Y-21.38
X21.264 Y-21.348
X21.295 Y-21.325
X21.333 Y-21.315
X21.371 Y-21.319
X21.406 Y-21.337
X21.432 Y-21.366
X21.445 Y-21.402
Y-21.441
X21.431 Y-21.477
X21.405 Y-21.505
G3 X21.618 Y-21.79 I0.107 J-0.142 F400
X21.405 Y-21.505 I-0.107 J0.142
G2 X21.038 Y-21.558 I-0.232 J0.309
G3 X20.771 Y-21.815 I-0.072 J-0.193
G1 X20.849 Y-22.053
X21.284 Y-22.49
X21.321 Y-22.535
X21.352 Y-22.585
X21.402 Y-22.684
X21.424 Y-22.737
X21.437 Y-22.792
X21.456 Y-22.906
X21.461 Y-22.968
X21.462 Y-52.024
X69.274 Y-52.028
X69.331 Y-52.032
X69.387 Y-52.046
X69.501 Y-52.082
X69.553 Y-52.102
X69.6 Y-52.13
X69.683 Y-52.187
X69.72 Y-52.217
X69.754 Y-52.251
X69.814 Y-52.321
X69.842 Y-52.357
X69.865 Y-52.396
X69.906 Y-52.476
X69.926 Y-52.524
X69.939 Y-52.574
X69.961 Y-52.688
X69.968 Y-52.76
Y-83.198
X69.965 Y-83.24
X69.959 Y-83.281
X69.933 Y-83.395
X69.918 Y-83.444
X69.896 Y-83.491
X69.853 Y-83.571
X69.827 Y-83.612
X69.795 Y-83.651
X69.716 Y-83.732
X69.692 Y-83.756
X69.406 Y-84.005
X69.275 Y-84.238
X69.219 Y-84.56
X69.217 Y-90.84
X70.82 Y-90.838
X70.818 Y-84.56
X70.762 Y-84.238
X70.629 Y-84.001
X70.291 Y-83.705
X70.256 Y-83.67
X70.226 Y-83.63
X70.167 Y-83.541
X70.141 Y-83.495
X70.122 Y-83.446
X70.091 Y-83.348
X70.078 Y-83.294
X70.074 Y-83.237
X70.069 Y-81.793
Y-51.924
X22.258 Y-51.92
X22.205 Y-51.916
X22.154 Y-51.905
X22.056 Y-51.877
X22.008 Y-51.86
X21.962 Y-51.836
X21.875 Y-51.781
X21.834 Y-51.752
X21.797 Y-51.718
X21.732 Y-51.647
X21.697 Y-51.604
X21.669 Y-51.555
X21.614 Y-51.441
X21.592 Y-51.385
X21.579 Y-51.326
X21.565 Y-51.212
X21.562 Y-51.164
X21.564 Y-22.93
X21.567 Y-22.879
X21.577 Y-22.83
X21.609 Y-22.716
X21.628 Y-22.662
X21.656 Y-22.612
X21.714 Y-22.521
X21.738 Y-22.488
X21.765 Y-22.458
X22.173 Y-22.055
X22.284 Y-21.718
X22.231 Y-21.351
X22.018 Y-21.053
X21.694 Y-20.887
X21.322 Y-20.891
X21.005 Y-21.053
X20.792 Y-21.347
X20.738 Y-21.716
X20.771 Y-21.815
X20.79 Y-21.849
X20.82 Y-21.873
X20.857 Y-21.884
X20.895 Y-21.88
X20.929 Y-21.861
X20.954 Y-21.831
X21.273 Y-21.239
X21.297 Y-21.21
X21.33 Y-21.192
X21.367 Y-21.187
X21.404 Y-21.196
X21.434 Y-21.218
X21.454 Y-21.25
X21.461 Y-21.287
Y-22.841 Z-1.566 F200
X21.468 Y-22.866
X21.486 Y-22.884
X21.511 Y-22.891
X21.536 Y-22.884
X21.555 Y-22.866
X21.561 Y-22.841
Y-21.647 Z-2
X21.554 Y-21.61
X21.535 Y-21.577
X21.505 Y-21.554
X21.468 Y-21.542
X21.328 Y-21.525
X21.291 Y-21.514
X21.261 Y-21.49
X21.241 Y-21.456
X21.235 Y-21.418
X21.243 Y-21.38
X21.264 Y-21.348
X21.295 Y-21.325
X21.333 Y-21.315
X21.371 Y-21.319
X21.406 Y-21.337
X21.432 Y-21.366
X21.445 Y-21.402
Y-21.441
X21.431 Y-21.477
X21.405 Y-21.505
G3 X21.618 Y-21.79 I0.107 J-0.142 F400
X21.405 Y-21.505 I-0.107 J0.142
G1 X21.369 Y-21.54 Z-1.987 F200
X21.35 Y-21.572 Z-1.95
X21.345 Y-21.584 Z-1.9
G0 Z4
X69.969 Y-88.845
Z0.05
G1 Y-90.687 Z-0.113 F200
X69.975 Y-90.712
X69.994 Y-90.731
X70.019 Y-90.737
X70.044 Y-90.731
X70.062 Y-90.712
X70.069 Y-90.687
Y-85.205 Z-0.599
X70.062 Y-85.18
X70.044 Y-85.162
X70.019 Y-85.155
X69.994 Y-85.162
X69.975 Y-85.18
X69.969 Y-85.205
Y-90.687 Z-1.085
X69.975 Y-90.712
X69.994 Y-90.731
X70.019 Y-90.737
X70.044 Y-90.731
X70.062 Y-90.712
X70.069 Y-90.687
Y-85.205 Z-1.572
X70.062 Y-85.18
X70.044 Y-85.162
X70.019 Y-85.155
X69.994 Y-85.162
X69.975 Y-85.18
X69.969 Y-85.205
Y-90.038 Z-2
X69.973 Y-90.071
X69.986 Y-90.102
X70.133 Y-90.361
G2 X69.905 Y-90.491 I-0.114 J-0.065
X70.019 Y-90.295 I0.114 J0.065
G1 X70.026 F400
G3 X70.276 Y-90.045 I0 J0.25
G1 X70.274 Y-84.629
X70.27 Y-84.586
X70.265 Y-84.554
G3 X69.773 Y-84.554 I-0.246 J-0.043
G1 X69.767 Y-84.586
X69.763 Y-84.629
X69.761 Y-90.045
G3 X70.011 Y-90.295 I0.25 J0
G1 X70.019
G2 X70.395 Y-90.521 I0 J-0.425
G3 X70.82 Y-90.415 I0.199 J0.106
G1 X70.818 Y-84.56
X70.762 Y-84.238
X70.629 Y-84.001
X70.291 Y-83.705
X70.256 Y-83.67
X70.226 Y-83.63
X70.167 Y-83.541
X70.141 Y-83.495
X70.122 Y-83.446
X70.091 Y-83.348
X70.078 Y-83.294
X70.074 Y-83.237
X70.069 Y-81.793
Y-51.924
X22.258 Y-51.92
X22.205 Y-51.916
X22.154 Y-51.905
X22.056 Y-51.877
X22.008 Y-51.86
X21.962 Y-51.836
X21.875 Y-51.781
X21.834 Y-51.752
X21.797 Y-51.718
X21.732 Y-51.647
X21.697 Y-51.604
X21.669 Y-51.555
X21.614 Y-51.441
X21.592 Y-51.385
X21.579 Y-51.326
X21.565 Y-51.212
X21.562 Y-51.164
X21.564 Y-22.93
X21.567 Y-22.879
X21.577 Y-22.83
X21.609 Y-22.716
X21.628 Y-22.662
X21.656 Y-22.612
X21.714 Y-22.521
X21.738 Y-22.488
X21.765 Y-22.458
X22.173 Y-22.055
X22.284 Y-21.718
X22.231 Y-21.351
X22.018 Y-21.053
X21.694 Y-20.887
X21.322 Y-20.891
X21.005 Y-21.053
X20.792 Y-21.347
X20.738 Y-21.716
X20.849 Y-22.053
X21.284 Y-22.49
X21.321 Y-22.535
X21.352 Y-22.585
X21.402 Y-22.684
X21.424 Y-22.737
X21.437 Y-22.792
X21.456 Y-22.906
X21.461 Y-22.968
X21.462 Y-52.024
X69.274 Y-52.028
X69.331 Y-52.032
X69.387 Y-52.046
X69.501 Y-52.082
X69.553 Y-52.102
X69.6 Y-52.13
X69.683 Y-52.187
X69.72 Y-52.217
X69.754 Y-52.251
X69.814 Y-52.321
X69.842 Y-52.357
X69.865 Y-52.396
X69.906 Y-52.476
X69.926 Y-52.524
X69.939 Y-52.574
X69.961 Y-52.688
X69.968 Y-52.76
Y-83.198
X69.965 Y-83.24
X69.959 Y-83.281
X69.933 Y-83.395
X69.918 Y-83.444
X69.896 Y-83.491
X69.853 Y-83.571
X69.827 Y-83.612
X69.795 Y-83.651
X69.716 Y-83.732
X69.692 Y-83.756
X69.406 Y-84.005
X69.275 Y-84.238
X69.219 Y-84.56
X69.217 Y-90.84
X70.82 Y-90.838
Y-90.415
X70.816 Y-90.392
X70.806 Y-90.371
X70.79 Y-90.355
X70.375 Y-90.045
X70.355 Y-90.023
X70.346 Y-89.994
X70.025 Y-87.34
X70.001 Y-87.283
X69.989 Y-87.274
X69.975 Y-87.277
X69.969 Y-87.29
Y-90.038 Z-3 F200
X69.973 Y-90.071
X69.986 Y-90.102
X70.133 Y-90.361
G2 X69.905 Y-90.491 I-0.114 J-0.065
X70.019 Y-90.295 I0.114 J0.065
G1 X70.026 F400
G3 X70.276 Y-90.045 I0 J0.25
G1 X70.274 Y-84.629
X70.27 Y-84.586
X70.265 Y-84.554
G3 X69.773 Y-84.554 I-0.246 J-0.043
G1 X69.767 Y-84.586
X69.763 Y-84.629
X69.761 Y-90.045
G3 X70.011 Y-90.295 I0.25 J0
G1 X70.019
X70.044 Y-90.292 Z-2.993 F200
X70.067 Y-90.283 Z-2.987
X70.095 Y-90.26 Z-2.95
X70.103 Y-90.249 Z-2.9
G0 Z4
X21.561 Y-22.467
Z2
G1 Z-0.95 F200
Y-21.088 Z-1.311
X21.555 Y-21.063
X21.536 Y-21.045
X21.511 Y-21.038
X21.486 Y-21.045
X21.468 Y-21.063
X21.461 Y-21.088
Y-22.841 Z-1.77
X21.468 Y-22.866
X21.486 Y-22.884
X21.511 Y-22.891
X21.536 Y-22.884
X21.555 Y-22.866
X21.561 Y-22.841
Y-21.088 Z-2.229
X21.555 Y-21.063
X21.536 Y-21.045
X21.511 Y-21.038
X21.486 Y-21.045
X21.468 Y-21.063
X21.461 Y-21.088
Y-22.841 Z-2.688
X21.468 Y-22.866
X21.486 Y-22.884
X21.511 Y-22.891
X21.536 Y-22.884
X21.555 Y-22.866
X21.561 Y-22.841
Y-21.647 Z-3
X21.554 Y-21.61
X21.535 Y-21.577
X21.505 Y-21.554
X21.468 Y-21.542
X21.328 Y-21.525
X21.291 Y-21.514
X21.261 Y-21.49
X21.241 Y-21.456
X21.235 Y-21.418
X21.243 Y-21.38
X21.264 Y-21.348
X21.295 Y-21.325
X21.333 Y-21.315
X21.371 Y-21.319
X21.406 Y-21.337
X21.432 Y-21.366
X21.445 Y-21.402
Y-21.441
X21.431 Y-21.477
X21.405 Y-21.505
G3 X21.618 Y-21.79 I0.107 J-0.142 F400
X21.405 Y-21.505 I-0.107 J0.142
G2 X21.038 Y-21.558 I-0.232 J0.309
G3 X20.771 Y-21.815 I-0.072 J-0.193
G1 X20.849 Y-22.053
X21.284 Y-22.49
X21.321 Y-22.535
X21.352 Y-22.585
X21.402 Y-22.684
X21.424 Y-22.737
X21.437 Y-22.792
X21.456 Y-22.906
X21.461 Y-22.968
X21.462 Y-52.024
X69.274 Y-52.028
X69.331 Y-52.032
X69.387 Y-52.046
X69.501 Y-52.082
X69.553 Y-52.102
X69.6 Y-52.13
X69.683 Y-52.187
X69.72 Y-52.217
X69.754 Y-52.251
X69.814 Y-52.321
X69.842 Y-52.357
X69.865 Y-52.396
X69.906 Y-52.476
X69.926 Y-52.524
X69.939 Y-52.574
X69.961 Y-52.688
X69.968 Y-52.76
Y-83.198
X69.965 Y-83.24
X69.959 Y-83.281
X69.933 Y-83.395
X69.918 Y-83.444
X69.896 Y-83.491
X69.853 Y-83.571
X69.827 Y-83.612
X69.795 Y-83.651
X69.716 Y-83.732
X69.692 Y-83.756
X69.406 Y-84.005
X69.275 Y-84.238
X69.219 Y-84.56
X69.217 Y-90.84
X70.82 Y-90.838
X70.818 Y-84.56
X70.762 Y-84.238
X70.629 Y-84.001
X70.291 Y-83.705
X70.256 Y-83.67
X70.226 Y-83.63
X70.167 Y-83.541
X70.141 Y-83.495
X70.122 Y-83.446
X70.091 Y-83.348
X70.078 Y-83.294
X70.074 Y-83.237
X70.069 Y-81.793
Y-51.924
X22.258 Y-51.92
X22.205 Y-51.916
X22.154 Y-51.905
X22.056 Y-51.877
X22.008 Y-51.86
X21.962 Y-51.836
X21.875 Y-51.781
X21.834 Y-51.752
X21.797 Y-51.718
X21.732 Y-51.647
X21.697 Y-51.604
X21.669 Y-51.555
X21.614 Y-51.441
X21.592 Y-51.385
X21.579 Y-51.326
X21.565 Y-51.212
X21.562 Y-51.164
X21.564 Y-22.93
X21.567 Y-22.879
X21.577 Y-22.83
X21.609 Y-22.716
X21.628 Y-22.662
X21.656 Y-22.612
X21.714 Y-22.521
X21.738 Y-22.488
X21.765 Y-22.458
X22.173 Y-22.055
X22.284 Y-21.718
X22.231 Y-21.351
X22.018 Y-21.053
X21.694 Y-20.887
X21.322 Y-20.891
X21.005 Y-21.053
X20.792 Y-21.347
X20.738 Y-21.716
X20.771 Y-21.815
X20.79 Y-21.849
X20.82 Y-21.873
X20.857 Y-21.884
X20.895 Y-21.88
X20.929 Y-21.861
X20.954 Y-21.831
X21.273 Y-21.239
X21.297 Y-21.21
X21.33 Y-21.192
X21.367 Y-21.187
X21.404 Y-21.196
X21.434 Y-21.218
X21.454 Y-21.25
X21.461 Y-21.287
Y-22.841 Z-3.566 F200
X21.468 Y-22.866
X21.486 Y-22.884
X21.511 Y-22.891
X21.536 Y-22.884
X21.555 Y-22.866
X21.561 Y-22.841
Y-21.647 Z-4
X21.554 Y-21.61
X21.535 Y-21.577
X21.505 Y-21.554
X21.468 Y-21.542
X21.328 Y-21.525
X21.291 Y-21.514
X21.261 Y-21.49
X21.241 Y-21.456
X21.235 Y-21.418
X21.243 Y-21.38
X21.264 Y-21.348
X21.295 Y-21.325
X21.333 Y-21.315
X21.371 Y-21.319
X21.406 Y-21.337
X21.432 Y-21.366
X21.445 Y-21.402
Y-21.441
X21.431 Y-21.477
X21.405 Y-21.505
G3 X21.618 Y-21.79 I0.107 J-0.142 F400
X21.405 Y-21.505 I-0.107 J0.142
G1 X21.369 Y-21.54 Z-3.987 F200
X21.35 Y-21.572 Z-3.95
X21.345 Y-21.584 Z-3.9
G0 Z4
X69.969 Y-88.845
G1 Z-1.95 F200
Y-90.687 Z-2.113
X69.975 Y-90.712
X69.994 Y-90.731
X70.019 Y-90.737
X70.044 Y-90.731
X70.062 Y-90.712
X70.069 Y-90.687
Y-85.205 Z-2.599
X70.062 Y-85.18
X70.044 Y-85.162
X70.019 Y-85.155
X69.994 Y-85.162
X69.975 Y-85.18
X69.969 Y-85.205
Y-90.687 Z-3.085
X69.975 Y-90.712
X69.994 Y-90.731
X70.019 Y-90.737
X70.044 Y-90.731
X70.062 Y-90.712
X70.069 Y-90.687
Y-85.205 Z-3.572
X70.062 Y-85.18
X70.044 Y-85.162
X70.019 Y-85.155
X69.994 Y-85.162
X69.975 Y-85.18
X69.969 Y-85.205
Y-90.038 Z-4
X69.973 Y-90.071
X69.986 Y-90.102
X70.133 Y-90.361
G2 X69.905 Y-90.491 I-0.114 J-0.065
X70.019 Y-90.295 I0.114 J0.065
G1 X70.026 F400
G3 X70.276 Y-90.045 I0 J0.25
G1 X70.274 Y-84.629
X70.27 Y-84.586
X70.265 Y-84.554
G3 X69.773 Y-84.554 I-0.246 J-0.043
G1 X69.767 Y-84.586
X69.763 Y-84.629
X69.761 Y-90.045
G3 X70.011 Y-90.295 I0.25 J0
G1 X70.019
G2 X70.395 Y-90.521 I0 J-0.425
G3 X70.82 Y-90.415 I0.199 J0.106
G1 X70.818 Y-84.56
X70.762 Y-84.238
X70.629 Y-84.001
X70.291 Y-83.705
X70.256 Y-83.67
X70.226 Y-83.63
X70.167 Y-83.541
X70.141 Y-83.495
X70.122 Y-83.446
X70.091 Y-83.348
X70.078 Y-83.294
X70.074 Y-83.237
X70.069 Y-81.793
Y-51.924
X22.258 Y-51.92
X22.205 Y-51.916
X22.154 Y-51.905
X22.056 Y-51.877
X22.008 Y-51.86
X21.962 Y-51.836
X21.875 Y-51.781
X21.834 Y-51.752
X21.797 Y-51.718
X21.732 Y-51.647
X21.697 Y-51.604
X21.669 Y-51.555
X21.614 Y-51.441
X21.592 Y-51.385
X21.579 Y-51.326
X21.565 Y-51.212
X21.562 Y-51.164
X21.564 Y-22.93
X21.567 Y-22.879
X21.577 Y-22.83
X21.609 Y-22.716
X21.628 Y-22.662
X21.656 Y-22.612
X21.714 Y-22.521
X21.738 Y-22.488
X21.765 Y-22.458
X22.173 Y-22.055
X22.284 Y-21.718
X22.231 Y-21.351
X22.018 Y-21.053
X21.694 Y-20.887
X21.322 Y-20.891
X21.005 Y-21.053
X20.792 Y-21.347
X20.738 Y-21.716
X20.849 Y-22.053
X21.284 Y-22.49
X21.321 Y-22.535
X21.352 Y-22.585
X21.402 Y-22.684
X21.424 Y-22.737
X21.437 Y-22.792
X21.456 Y-22.906
X21.461 Y-22.968
X21.462 Y-52.024
X69.274 Y-52.028
X69.331 Y-52.032
X69.387 Y-52.046
X69.501 Y-52.082
X69.553 Y-52.102
X69.6 Y-52.13
X69.683 Y-52.187
X69.72 Y-52.217
X69.754 Y-52.251
X69.814 Y-52.321
X69.842 Y-52.357
X69.865 Y-52.396
X69.906 Y-52.476
X69.926 Y-52.524
X69.939 Y-52.574
X69.961 Y-52.688
X69.968 Y-52.76
Y-83.198
X69.965 Y-83.24
X69.959 Y-83.281
X69.933 Y-83.395
X69.918 Y-83.444
X69.896 Y-83.491
X69.853 Y-83.571
X69.827 Y-83.612
X69.795 Y-83.651
X69.716 Y-83.732
X69.692 Y-83.756
X69.406 Y-84.005
X69.275 Y-84.238
X69.219 Y-84.56
X69.217 Y-90.84
X70.82 Y-90.838
Y-90.415
X70.816 Y-90.392
X70.806 Y-90.371
X70.79 Y-90.355
X70.375 Y-90.045
X70.355 Y-90.023
X70.346 Y-89.994
X70.025 Y-87.34
X70.001 Y-87.283
X69.989 Y-87.274
X69.975 Y-87.277
X69.969 Y-87.29
Y-90.038 Z-5 F200
X69.973 Y-90.071
X69.986 Y-90.102
X70.133 Y-90.361
G2 X69.905 Y-90.491 I-0.114 J-0.065
X70.019 Y-90.295 I0.114 J0.065
G1 X70.026 F400
G3 X70.276 Y-90.045 I0 J0.25
G1 X70.274 Y-84.629
X70.27 Y-84.586
X70.265 Y-84.554
G3 X69.773 Y-84.554 I-0.246 J-0.043
G1 X69.767 Y-84.586
X69.763 Y-84.629
X69.761 Y-90.045
G3 X70.011 Y-90.295 I0.25 J0
G1 X70.019
X70.044 Y-90.292 Z-4.993 F200
X70.067 Y-90.283 Z-4.987
X70.095 Y-90.26 Z-4.95
X70.103 Y-90.249 Z-4.9
G0 Z4
X21.561 Y-22.467
G1 Z-2.95 F200
Y-21.088 Z-3.311
X21.555 Y-21.063
X21.536 Y-21.045
X21.511 Y-21.038
X21.486 Y-21.045
X21.468 Y-21.063
X21.461 Y-21.088
Y-22.841 Z-3.77
X21.468 Y-22.866
X21.486 Y-22.884
X21.511 Y-22.891
X21.536 Y-22.884
X21.555 Y-22.866
X21.561 Y-22.841
Y-21.088 Z-4.229
X21.555 Y-21.063
X21.536 Y-21.045
X21.511 Y-21.038
X21.486 Y-21.045
X21.468 Y-21.063
X21.461 Y-21.088
Y-22.841 Z-4.688
X21.468 Y-22.866
X21.486 Y-22.884
X21.511 Y-22.891
X21.536 Y-22.884
X21.555 Y-22.866
X21.561 Y-22.841
Y-21.647 Z-5
X21.554 Y-21.61
X21.535 Y-21.577
X21.505 Y-21.554
X21.468 Y-21.542
X21.328 Y-21.525
X21.291 Y-21.514
X21.261 Y-21.49
X21.241 Y-21.456
X21.235 Y-21.418
X21.243 Y-21.38
X21.264 Y-21.348
X21.295 Y-21.325
X21.333 Y-21.315
X21.371 Y-21.319
X21.406 Y-21.337
X21.432 Y-21.366
X21.445 Y-21.402
Y-21.441
X21.431 Y-21.477
X21.405 Y-21.505
G3 X21.618 Y-21.79 I0.107 J-0.142 F400
X21.405 Y-21.505 I-0.107 J0.142
G2 X21.038 Y-21.558 I-0.232 J0.309
G3 X20.771 Y-21.815 I-0.072 J-0.193
G1 X20.849 Y-22.053
X21.284 Y-22.49
X21.321 Y-22.535
X21.352 Y-22.585
X21.402 Y-22.684
X21.424 Y-22.737
X21.437 Y-22.792
X21.456 Y-22.906
X21.461 Y-22.968
X21.462 Y-52.024
X69.274 Y-52.028
X69.331 Y-52.032
X69.387 Y-52.046
X69.501 Y-52.082
X69.553 Y-52.102
X69.6 Y-52.13
X69.683 Y-52.187
X69.72 Y-52.217
X69.754 Y-52.251
X69.814 Y-52.321
X69.842 Y-52.357
X69.865 Y-52.396
X69.906 Y-52.476
X69.926 Y-52.524
X69.939 Y-52.574
X69.961 Y-52.688
X69.968 Y-52.76
Y-83.198
X69.965 Y-83.24
X69.959 Y-83.281
X69.933 Y-83.395
X69.918 Y-83.444
X69.896 Y-83.491
X69.853 Y-83.571
X69.827 Y-83.612
X69.795 Y-83.651
X69.716 Y-83.732
X69.692 Y-83.756
X69.406 Y-84.005
X69.275 Y-84.238
X69.219 Y-84.56
X69.217 Y-90.84
X70.82 Y-90.838
X70.818 Y-84.56
X70.762 Y-84.238
X70.629 Y-84.001
X70.291 Y-83.705
X70.256 Y-83.67
X70.226 Y-83.63
X70.167 Y-83.541
X70.141 Y-83.495
X70.122 Y-83.446
X70.091 Y-83.348
X70.078 Y-83.294
X70.074 Y-83.237
X70.069 Y-81.793
Y-51.924
X22.258 Y-51.92
X22.205 Y-51.916
X22.154 Y-51.905
X22.056 Y-51.877
X22.008 Y-51.86
X21.962 Y-51.836
X21.875 Y-51.781
X21.834 Y-51.752
X21.797 Y-51.718
X21.732 Y-51.647
X21.697 Y-51.604
X21.669 Y-51.555
X21.614 Y-51.441
X21.592 Y-51.385
X21.579 Y-51.326
X21.565 Y-51.212
X21.562 Y-51.164
X21.564 Y-22.93
X21.567 Y-22.879
X21.577 Y-22.83
X21.609 Y-22.716
X21.628 Y-22.662
X21.656 Y-22.612
X21.714 Y-22.521
X21.738 Y-22.488
X21.765 Y-22.458
X22.173 Y-22.055
X22.284 Y-21.718
X22.231 Y-21.351
X22.018 Y-21.053
X21.694 Y-20.887
X21.322 Y-20.891
X21.005 Y-21.053
X20.792 Y-21.347
X20.738 Y-21.716
X20.771 Y-21.815
X20.79 Y-21.849
X20.82 Y-21.873
X20.857 Y-21.884
X20.895 Y-21.88
X20.929 Y-21.861
X20.954 Y-21.831
X21.273 Y-21.239
X21.297 Y-21.21
X21.33 Y-21.192
X21.367 Y-21.187
X21.404 Y-21.196
X21.434 Y-21.218
X21.454 Y-21.25
X21.461 Y-21.287
Y-22.841 Z-5.566 F200
X21.468 Y-22.866
X21.486 Y-22.884
X21.511 Y-22.891
X21.536 Y-22.884
X21.555 Y-22.866
X21.561 Y-22.841
Y-21.647 Z-6
X21.554 Y-21.61
X21.535 Y-21.577
X21.505 Y-21.554
X21.468 Y-21.542
X21.328 Y-21.525
X21.291 Y-21.514
X21.261 Y-21.49
X21.241 Y-21.456
X21.235 Y-21.418
X21.243 Y-21.38
X21.264 Y-21.348
X21.295 Y-21.325
X21.333 Y-21.315
X21.371 Y-21.319
X21.406 Y-21.337
X21.432 Y-21.366
X21.445 Y-21.402
Y-21.441
X21.431 Y-21.477
X21.405 Y-21.505
G3 X21.618 Y-21.79 I0.107 J-0.142 F400
X21.405 Y-21.505 I-0.107 J0.142
G1 X21.369 Y-21.54 Z-5.987 F200
X21.35 Y-21.572 Z-5.95
X21.345 Y-21.584 Z-5.9
G0 Z4
X69.969 Y-88.845
G1 Z-3.95 F200
Y-90.687 Z-4.113
X69.975 Y-90.712
X69.994 Y-90.731
X70.019 Y-90.737
X70.044 Y-90.731
X70.062 Y-90.712
X70.069 Y-90.687
Y-85.205 Z-4.599
X70.062 Y-85.18
X70.044 Y-85.162
X70.019 Y-85.155
X69.994 Y-85.162
X69.975 Y-85.18
X69.969 Y-85.205
Y-90.687 Z-5.085
X69.975 Y-90.712
X69.994 Y-90.731
X70.019 Y-90.737
X70.044 Y-90.731
X70.062 Y-90.712
X70.069 Y-90.687
Y-85.205 Z-5.572
X70.062 Y-85.18
X70.044 Y-85.162
X70.019 Y-85.155
X69.994 Y-85.162
X69.975 Y-85.18
X69.969 Y-85.205
Y-90.038 Z-6
X69.973 Y-90.071
X69.986 Y-90.102
X70.133 Y-90.361
G2 X69.905 Y-90.491 I-0.114 J-0.065
X70.019 Y-90.295 I0.114 J0.065
G1 X70.026 F400
G3 X70.276 Y-90.045 I0 J0.25
G1 X70.274 Y-84.629
X70.27 Y-84.586
X70.265 Y-84.554
G3 X69.773 Y-84.554 I-0.246 J-0.043
G1 X69.767 Y-84.586
X69.763 Y-84.629
X69.761 Y-90.045
G3 X70.011 Y-90.295 I0.25 J0
G1 X70.019
G2 X70.395 Y-90.521 I0 J-0.425
G3 X70.82 Y-90.415 I0.199 J0.106
G1 X70.818 Y-84.56
X70.762 Y-84.238
X70.629 Y-84.001
X70.291 Y-83.705
X70.256 Y-83.67
X70.226 Y-83.63
X70.167 Y-83.541
X70.141 Y-83.495
X70.122 Y-83.446
X70.091 Y-83.348
X70.078 Y-83.294
X70.074 Y-83.237
X70.069 Y-81.793
Y-51.924
X22.258 Y-51.92
X22.205 Y-51.916
X22.154 Y-51.905
X22.056 Y-51.877
X22.008 Y-51.86
X21.962 Y-51.836
X21.875 Y-51.781
X21.834 Y-51.752
X21.797 Y-51.718
X21.732 Y-51.647
X21.697 Y-51.604
X21.669 Y-51.555
X21.614 Y-51.441
X21.592 Y-51.385
X21.579 Y-51.326
X21.565 Y-51.212
X21.562 Y-51.164
X21.564 Y-22.93
X21.567 Y-22.879
X21.577 Y-22.83
X21.609 Y-22.716
X21.628 Y-22.662
X21.656 Y-22.612
X21.714 Y-22.521
X21.738 Y-22.488
X21.765 Y-22.458
X22.173 Y-22.055
X22.284 Y-21.718
X22.231 Y-21.351
X22.018 Y-21.053
X21.694 Y-20.887
X21.322 Y-20.891
X21.005 Y-21.053
X20.792 Y-21.347
X20.738 Y-21.716
X20.849 Y-22.053
X21.284 Y-22.49
X21.321 Y-22.535
X21.352 Y-22.585
X21.402 Y-22.684
X21.424 Y-22.737
X21.437 Y-22.792
X21.456 Y-22.906
X21.461 Y-22.968
X21.462 Y-52.024
X69.274 Y-52.028
X69.331 Y-52.032
X69.387 Y-52.046
X69.501 Y-52.082
X69.553 Y-52.102
X69.6 Y-52.13
X69.683 Y-52.187
X69.72 Y-52.217
X69.754 Y-52.251
X69.814 Y-52.321
X69.842 Y-52.357
X69.865 Y-52.396
X69.906 Y-52.476
X69.926 Y-52.524
X69.939 Y-52.574
X69.961 Y-52.688
X69.968 Y-52.76
Y-83.198
X69.965 Y-83.24
X69.959 Y-83.281
X69.933 Y-83.395
X69.918 Y-83.444
X69.896 Y-83.491
X69.853 Y-83.571
X69.827 Y-83.612
X69.795 Y-83.651
X69.716 Y-83.732
X69.692 Y-83.756
X69.406 Y-84.005
X69.275 Y-84.238
X69.219 Y-84.56
X69.217 Y-90.84
X70.82 Y-90.838
Y-90.415
X70.817 Y-90.39 Z-5.993 F200
X70.808 Y-90.367 Z-5.987
X70.785 Y-90.339 Z-5.95
X70.774 Y-90.331 Z-5.9
G0 Z4
X63.969 Y-90.146
Z1.05
G1 Y-90.689 Z1.002 F200
X63.975 Y-90.714
X63.994 Y-90.732
X64.019 Y-90.739
X64.044 Y-90.732
X64.062 Y-90.714
X64.069 Y-90.689
Y-85.207 Z0.516
X64.062 Y-85.182
X64.044 Y-85.163
X64.019 Y-85.157
X63.994 Y-85.163
X63.975 Y-85.182
X63.969 Y-85.207
Y-90.689 Z0.03
X63.975 Y-90.714
X63.994 Y-90.732
X64.019 Y-90.739
X64.044 Y-90.732
X64.062 Y-90.714
X64.069 Y-90.689
Y-85.207 Z-0.456
X64.062 Y-85.182
X64.044 Y-85.163
X64.019 Y-85.157
X63.994 Y-85.163
X63.975 Y-85.182
X63.969 Y-85.207
Y-90.689 Z-0.942
X63.975 Y-90.714
X63.994 Y-90.732
X64.019 Y-90.739
X64.044 Y-90.732
X64.062 Y-90.714
X64.069 Y-90.689
Y-90.039 Z-1
G3 X63.761 Y-90.039 I-0.154 J0
G1 Y-90.047 F400
G3 X64.011 Y-90.296 I0.25 J0
G1 X64.026
G3 X64.276 Y-90.047 I0 J0.25
G1 X64.274 Y-84.63
X64.27 Y-84.587
X64.265 Y-84.557
G3 X63.773 Y-84.556 I-0.246 J-0.043
G1 X63.767 Y-84.589
X63.763 Y-84.633
X63.761 Y-90.039
X63.764 Y-90.064 Z-0.993 F200
X63.774 Y-90.087 Z-0.987
X63.797 Y-90.115 Z-0.95
X63.807 Y-90.123 Z-0.9
G0 Z4
X7.648 Y-21.688
Z1.05
G1 X5.896 Z0.895 F200
X5.871 Y-21.694
X5.853 Y-21.713
X5.846 Y-21.738
X5.853 Y-21.763
X5.871 Y-21.781
X5.896 Y-21.788
X11.379 Z0.409
X11.404 Y-21.781
X11.422 Y-21.763
X11.429 Y-21.738
X11.422 Y-21.713
X11.404 Y-21.694
X11.379 Y-21.688
X5.896 Z-0.077
X5.871 Y-21.694
X5.853 Y-21.713
X5.846 Y-21.738
X5.853 Y-21.763
X5.871 Y-21.781
X5.896 Y-21.788
X11.379 Z-0.564
X11.404 Y-21.781
X11.422 Y-21.763
X11.429 Y-21.738
X11.422 Y-21.713
X11.404 Y-21.694
X11.379 Y-21.688
X6.456 Z-1
X6.439 Y-21.686
X6.423 Y-21.679
X6.273 Y-21.601
X6.248 Y-21.579
X6.236 Y-21.549
X6.239 Y-21.516
X6.256 Y-21.488
X6.284 Y-21.471
X6.317 Y-21.468
X6.347 Y-21.481
X6.369 Y-21.506
X6.377 Y-21.538
X6.37 Y-21.57
X6.349 Y-21.595
G3 X6.562 Y-21.88 I0.107 J-0.143 F400
X6.349 Y-21.595 I-0.107 J0.143
G2 X5.989 Y-21.666 I-0.253 J0.337
G3 X5.7 Y-21.891 I-0.058 J-0.223
G1 Y-21.926
X5.862 Y-22.243
X6.165 Y-22.459
X6.515 Y-22.513
X6.542 Y-22.505
X6.866 Y-22.398
X7.298 Y-21.967
X7.344 Y-21.928
X7.395 Y-21.897
X7.501 Y-21.844
X7.552 Y-21.823
X7.605 Y-21.81
X7.705 Y-21.793
X7.768 Y-21.788
X13.274 Y-21.792
X13.335 Y-21.797
X13.394 Y-21.812
X13.513 Y-21.853
X13.563 Y-21.874
X13.609 Y-21.902
X13.682 Y-21.954
X13.724 Y-21.988
X13.761 Y-22.028
X13.839 Y-22.129
X13.873 Y-22.181
X13.898 Y-22.237
X13.938 Y-22.351
X13.953 Y-22.411
X13.958 Y-22.473
X13.964 Y-26.463
Y-56.948
X63.259 Y-56.951
X63.303 Y-56.953
X63.346 Y-56.961
X63.439 Y-56.983
X63.485 Y-56.997
X63.528 Y-57.017
X63.611 Y-57.061
X63.655 Y-57.089
X63.695 Y-57.122
X63.778 Y-57.202
X63.812 Y-57.24
X63.841 Y-57.282
X63.885 Y-57.358
X63.908 Y-57.404
X63.925 Y-57.453
X63.955 Y-57.567
X63.964 Y-57.614
X63.967 Y-57.662
X63.968 Y-83.198
X63.965 Y-83.24
X63.959 Y-83.281
X63.933 Y-83.395
X63.919 Y-83.442
X63.898 Y-83.488
X63.86 Y-83.56
X63.836 Y-83.599
X63.809 Y-83.634
X63.744 Y-83.706
X63.711 Y-83.739
X63.404 Y-84.008
X63.28 Y-84.229
X63.219 Y-84.562
X63.217 Y-90.84
X64.82
X64.818 Y-84.561
X64.76 Y-84.233
X64.63 Y-84.004
X64.294 Y-83.708
X64.263 Y-83.677
X64.236 Y-83.644
X64.184 Y-83.57
X64.156 Y-83.525
X64.135 Y-83.475
X64.094 Y-83.359
X64.079 Y-83.299
X64.074 Y-83.237
X64.069 Y-81.793
Y-56.848
X14.758 Y-56.844
X14.7 Y-56.84
X14.644 Y-56.826
X14.53 Y-56.79
X14.48 Y-56.77
X14.434 Y-56.744
X14.358 Y-56.692
X14.316 Y-56.659
X14.279 Y-56.621
X14.201 Y-56.526
X14.167 Y-56.478
X14.141 Y-56.424
X14.098 Y-56.317
X14.084 Y-56.271
X14.075 Y-56.224
X14.066 Y-56.148
X14.064 Y-56.104
Y-21.687
X7.72 Y-21.682
X7.662 Y-21.678
X7.606 Y-21.665
X7.503 Y-21.632
X7.453 Y-21.612
X7.407 Y-21.585
X7.322 Y-21.528
X7.264 Y-21.48
X6.865 Y-21.076
X6.519 Y-20.962
X6.154 Y-21.02
X5.863 Y-21.231
X5.697 Y-21.555
X5.7 Y-21.891
X5.706 Y-21.914
X5.721 Y-21.931
X5.743 Y-21.94
X5.767 Y-21.937
X5.995 Y-21.854
X6.023 Y-21.85
X9.154 Y-21.736
X9.208 Y-21.719
X9.218 Y-21.709
X9.216 Y-21.694
X9.203 Y-21.688
X6.456 Z-2 F200
X6.439 Y-21.686
X6.423 Y-21.679
X6.273 Y-21.601
X6.248 Y-21.579
X6.236 Y-21.549
X6.239 Y-21.516
X6.256 Y-21.488
X6.284 Y-21.471
X6.317 Y-21.468
X6.347 Y-21.481
X6.369 Y-21.506
X6.377 Y-21.538
X6.37 Y-21.57
X6.349 Y-21.595
G3 X6.562 Y-21.88 I0.107 J-0.143 F400
X6.349 Y-21.595 I-0.107 J0.143
G1 X6.33 Y-21.612 Z-1.993 F200
X6.317 Y-21.633 Z-1.987
X6.307 Y-21.668 Z-1.95
Y-21.681 Z-1.9
G0 Z4
X63.969 Y-90.146
Z0.05
G1 Y-90.689 Z0.002 F200
X63.975 Y-90.714
X63.994 Y-90.732
X64.019 Y-90.739
X64.044 Y-90.732
X64.062 Y-90.714
X64.069 Y-90.689
Y-85.207 Z-0.484
X64.062 Y-85.182
X64.044 Y-85.163
X64.019 Y-85.157
X63.994 Y-85.163
X63.975 Y-85.182
X63.969 Y-85.207
Y-90.689 Z-0.97
X63.975 Y-90.714
X63.994 Y-90.732
X64.019 Y-90.739
X64.044 Y-90.732
X64.062 Y-90.714
X64.069 Y-90.689
Y-85.207 Z-1.456
X64.062 Y-85.182
X64.044 Y-85.163
X64.019 Y-85.157
X63.994 Y-85.163
X63.975 Y-85.182
X63.969 Y-85.207
Y-90.689 Z-1.942
X63.975 Y-90.714
X63.994 Y-90.732
X64.019 Y-90.739
X64.044 Y-90.732
X64.062 Y-90.714
X64.069 Y-90.689
Y-90.039 Z-2
G3 X63.761 Y-90.039 I-0.154 J0
G1 Y-90.047 F400
G3 X64.011 Y-90.296 I0.25 J0
G1 X64.026
G3 X64.276 Y-90.047 I0 J0.25
G1 X64.274 Y-84.63
X64.27 Y-84.587
X64.265 Y-84.557
G3 X63.773 Y-84.556 I-0.246 J-0.043
G1 X63.767 Y-84.589
X63.763 Y-84.633
X63.761 Y-90.039
G2 X63.534 Y-90.414 I-0.424 J0
G3 X63.639 Y-90.84 I0.105 J-0.2
G1 X64.82
X64.818 Y-84.561
X64.76 Y-84.233
X64.63 Y-84.004
X64.294 Y-83.708
X64.263 Y-83.677
X64.236 Y-83.644
X64.184 Y-83.57
X64.156 Y-83.525
X64.135 Y-83.475
X64.094 Y-83.359
X64.079 Y-83.299
X64.074 Y-83.237
X64.069 Y-81.793
Y-56.848
X14.758 Y-56.844
X14.7 Y-56.84
X14.644 Y-56.826
X14.53 Y-56.79
X14.48 Y-56.77
X14.434 Y-56.744
X14.358 Y-56.692
X14.316 Y-56.659
X14.279 Y-56.621
X14.201 Y-56.526
X14.167 Y-56.478
X14.141 Y-56.424
X14.098 Y-56.317
X14.084 Y-56.271
X14.075 Y-56.224
X14.066 Y-56.148
X14.064 Y-56.104
Y-21.687
X7.72 Y-21.682
X7.662 Y-21.678
X7.606 Y-21.665
X7.503 Y-21.632
X7.453 Y-21.612
X7.407 Y-21.585
X7.322 Y-21.528
X7.264 Y-21.48
X6.865 Y-21.076
X6.519 Y-20.962
X6.154 Y-21.02
X5.863 Y-21.231
X5.697 Y-21.555
X5.7 Y-21.926
X5.862 Y-22.243
X6.165 Y-22.459
X6.515 Y-22.513
X6.542 Y-22.505
X6.866 Y-22.398
X7.298 Y-21.967
X7.344 Y-21.928
X7.395 Y-21.897
X7.501 Y-21.844
X7.552 Y-21.823
X7.605 Y-21.81
X7.705 Y-21.793
X7.768 Y-21.788
X13.274 Y-21.792
X13.335 Y-21.797
X13.394 Y-21.812
X13.513 Y-21.853
X13.563 Y-21.874
X13.609 Y-21.902
X13.682 Y-21.954
X13.724 Y-21.988
X13.761 Y-22.028
X13.839 Y-22.129
X13.873 Y-22.181
X13.898 Y-22.237
X13.938 Y-22.351
X13.953 Y-22.411
X13.958 Y-22.473
X13.964 Y-26.463
Y-56.948
X63.259 Y-56.951
X63.303 Y-56.953
X63.346 Y-56.961
X63.439 Y-56.983
X63.485 Y-56.997
X63.528 Y-57.017
X63.611 Y-57.061
X63.655 Y-57.089
X63.695 Y-57.122
X63.778 Y-57.202
X63.812 Y-57.24
X63.841 Y-57.282
X63.885 Y-57.358
X63.908 Y-57.404
X63.925 Y-57.453
X63.955 Y-57.567
X63.964 Y-57.614
X63.967 Y-57.662
X63.968 Y-83.198
X63.965 Y-83.24
X63.959 Y-83.281
X63.933 Y-83.395
X63.919 Y-83.442
X63.898 Y-83.488
X63.86 Y-83.56
X63.836 Y-83.599
X63.809 Y-83.634
X63.744 Y-83.706
X63.711 Y-83.739
X63.404 Y-84.008
X63.28 Y-84.229
X63.219 Y-84.562
X63.217 Y-90.84
X63.639
X63.668 Y-90.835
X63.692 Y-90.819
X63.708 Y-90.795
X63.714 Y-90.766
X63.725 Y-90.005
X64.008 Y-88.64
X64.002 Y-88.589
X63.996 Y-88.578
X63.984 Y-88.575
X63.973 Y-88.58
X63.969 Y-88.591
Y-90.689 Z-2.764 F200
X63.975 Y-90.714
X63.994 Y-90.732
X64.019 Y-90.739
X64.044 Y-90.732
X64.062 Y-90.714
X64.069 Y-90.689
Y-90.039 Z-3
G3 X63.761 Y-90.039 I-0.154 J0
G1 Y-90.047 F400
G3 X64.011 Y-90.296 I0.25 J0
G1 X64.026
G3 X64.276 Y-90.047 I0 J0.25
G1 X64.274 Y-84.63
X64.27 Y-84.587
X64.265 Y-84.557
G3 X63.773 Y-84.556 I-0.246 J-0.043
G1 X63.767 Y-84.589
X63.763 Y-84.633
X63.761 Y-90.039
X63.764 Y-90.064 Z-2.993 F200
X63.774 Y-90.087 Z-2.987
X63.797 Y-90.115 Z-2.95
X63.807 Y-90.123 Z-2.9
G0 Z4
X7.648 Y-21.688
Z2
G1 Z-0.95 F200
X5.896 Z-1.105
X5.871 Y-21.694
X5.853 Y-21.713
X5.846 Y-21.738
X5.853 Y-21.763
X5.871 Y-21.781
X5.896 Y-21.788
X11.379 Z-1.591
X11.404 Y-21.781
X11.422 Y-21.763
X11.429 Y-21.738
X11.422 Y-21.713
X11.404 Y-21.694
X11.379 Y-21.688
X5.896 Z-2.077
X5.871 Y-21.694
X5.853 Y-21.713
X5.846 Y-21.738
X5.853 Y-21.763
X5.871 Y-21.781
X5.896 Y-21.788
X11.379 Z-2.564
X11.404 Y-21.781
X11.422 Y-21.763
X11.429 Y-21.738
X11.422 Y-21.713
X11.404 Y-21.694
X11.379 Y-21.688
X6.456 Z-3
X6.439 Y-21.686
X6.423 Y-21.679
X6.273 Y-21.601
X6.248 Y-21.579
X6.236 Y-21.549
X6.239 Y-21.516
X6.256 Y-21.488
X6.284 Y-21.471
X6.317 Y-21.468
X6.347 Y-21.481
X6.369 Y-21.506
X6.377 Y-21.538
X6.37 Y-21.57
X6.349 Y-21.595
G3 X6.562 Y-21.88 I0.107 J-0.143 F400
X6.349 Y-21.595 I-0.107 J0.143
G2 X5.989 Y-21.666 I-0.253 J0.337
G3 X5.7 Y-21.891 I-0.058 J-0.223
G1 Y-21.926
X5.862 Y-22.243
X6.165 Y-22.459
X6.515 Y-22.513
X6.542 Y-22.505
X6.866 Y-22.398
X7.298 Y-21.967
X7.344 Y-21.928
X7.395 Y-21.897
X7.501 Y-21.844
X7.552 Y-21.823
X7.605 Y-21.81
X7.705 Y-21.793
X7.768 Y-21.788
X13.274 Y-21.792
X13.335 Y-21.797
X13.394 Y-21.812
X13.513 Y-21.853
X13.563 Y-21.874
X13.609 Y-21.902
X13.682 Y-21.954
X13.724 Y-21.988
X13.761 Y-22.028
X13.839 Y-22.129
X13.873 Y-22.181
X13.898 Y-22.237
X13.938 Y-22.351
X13.953 Y-22.411
X13.958 Y-22.473
X13.964 Y-26.463
Y-56.948
X63.259 Y-56.951
X63.303 Y-56.953
X63.346 Y-56.961
X63.439 Y-56.983
X63.485 Y-56.997
X63.528 Y-57.017
X63.611 Y-57.061
X63.655 Y-57.089
X63.695 Y-57.122
X63.778 Y-57.202
X63.812 Y-57.24
X63.841 Y-57.282
X63.885 Y-57.358
X63.908 Y-57.404
X63.925 Y-57.453
X63.955 Y-57.567
X63.964 Y-57.614
X63.967 Y-57.662
X63.968 Y-83.198
X63.965 Y-83.24
X63.959 Y-83.281
X63.933 Y-83.395
X63.919 Y-83.442
X63.898 Y-83.488
X63.86 Y-83.56
X63.836 Y-83.599
X63.809 Y-83.634
X63.744 Y-83.706
X63.711 Y-83.739
X63.404 Y-84.008
X63.28 Y-84.229
X63.219 Y-84.562
X63.217 Y-90.84
X64.82
X64.818 Y-84.561
X64.76 Y-84.233
X64.63 Y-84.004
X64.294 Y-83.708
X64.263 Y-83.677
X64.236 Y-83.644
X64.184 Y-83.57
X64.156 Y-83.525
X64.135 Y-83.475
X64.094 Y-83.359
X64.079 Y-83.299
X64.074 Y-83.237
X64.069 Y-81.793
Y-56.848
X14.758 Y-56.844
X14.7 Y-56.84
X14.644 Y-56.826
X14.53 Y-56.79
X14.48 Y-56.77
X14.434 Y-56.744
X14.358 Y-56.692
X14.316 Y-56.659
X14.279 Y-56.621
X14.201 Y-56.526
X14.167 Y-56.478
X14.141 Y-56.424
X14.098 Y-56.317
X14.084 Y-56.271
X14.075 Y-56.224
X14.066 Y-56.148
X14.064 Y-56.104
Y-21.687
X7.72 Y-21.682
X7.662 Y-21.678
X7.606 Y-21.665
X7.503 Y-21.632
X7.453 Y-21.612
X7.407 Y-21.585
X7.322 Y-21.528
X7.264 Y-21.48
X6.865 Y-21.076
X6.519 Y-20.962
X6.154 Y-21.02
X5.863 Y-21.231
X5.697 Y-21.555
X5.7 Y-21.891
X5.706 Y-21.914
X5.721 Y-21.931
X5.743 Y-21.94
X5.767 Y-21.937
X5.995 Y-21.854
X6.023 Y-21.85
X9.154 Y-21.736
X9.208 Y-21.719
X9.218 Y-21.709
X9.216 Y-21.694
X9.203 Y-21.688
X6.456 Z-4 F200
X6.439 Y-21.686
X6.423 Y-21.679
X6.273 Y-21.601
X6.248 Y-21.579
X6.236 Y-21.549
X6.239 Y-21.516
X6.256 Y-21.488
X6.284 Y-21.471
X6.317 Y-21.468
X6.347 Y-21.481
X6.369 Y-21.506
X6.377 Y-21.538
X6.37 Y-21.57
X6.349 Y-21.595
G3 X6.562 Y-21.88 I0.107 J-0.143 F400
X6.349 Y-21.595 I-0.107 J0.143
G1 X6.33 Y-21.612 Z-3.993 F200
X6.317 Y-21.633 Z-3.987
X6.307 Y-21.668 Z-3.95
Y-21.681 Z-3.9
G0 Z4
X63.969 Y-90.146
G1 Z-1.95 F200
Y-90.689 Z-1.998
X63.975 Y-90.714
X63.994 Y-90.732
X64.019 Y-90.739
X64.044 Y-90.732
X64.062 Y-90.714
X64.069 Y-90.689
Y-85.207 Z-2.484
X64.062 Y-85.182
X64.044 Y-85.163
X64.019 Y-85.157
X63.994 Y-85.163
X63.975 Y-85.182
X63.969 Y-85.207
Y-90.689 Z-2.97
X63.975 Y-90.714
X63.994 Y-90.732
X64.019 Y-90.739
X64.044 Y-90.732
X64.062 Y-90.714
X64.069 Y-90.689
Y-85.207 Z-3.456
X64.062 Y-85.182
X64.044 Y-85.163
X64.019 Y-85.157
X63.994 Y-85.163
X63.975 Y-85.182
X63.969 Y-85.207
Y-90.689 Z-3.942
X63.975 Y-90.714
X63.994 Y-90.732
X64.019 Y-90.739
X64.044 Y-90.732
X64.062 Y-90.714
X64.069 Y-90.689
Y-90.039 Z-4
G3 X63.761 Y-90.039 I-0.154 J0
G1 Y-90.047 F400
G3 X64.011 Y-90.296 I0.25 J0
G1 X64.026
G3 X64.276 Y-90.047 I0 J0.25
G1 X64.274 Y-84.63
X64.27 Y-84.587
X64.265 Y-84.557
G3 X63.773 Y-84.556 I-0.246 J-0.043
G1 X63.767 Y-84.589
X63.763 Y-84.633
X63.761 Y-90.039
G2 X63.534 Y-90.414 I-0.424 J0
G3 X63.639 Y-90.84 I0.105 J-0.2
G1 X64.82
X64.818 Y-84.561
X64.76 Y-84.233
X64.63 Y-84.004
X64.294 Y-83.708
X64.263 Y-83.677
X64.236 Y-83.644
X64.184 Y-83.57
X64.156 Y-83.525
X64.135 Y-83.475
X64.094 Y-83.359
X64.079 Y-83.299
X64.074 Y-83.237
X64.069 Y-81.793
Y-56.848
X14.758 Y-56.844
X14.7 Y-56.84
X14.644 Y-56.826
X14.53 Y-56.79
X14.48 Y-56.77
X14.434 Y-56.744
X14.358 Y-56.692
X14.316 Y-56.659
X14.279 Y-56.621
X14.201 Y-56.526
X14.167 Y-56.478
X14.141 Y-56.424
X14.098 Y-56.317
X14.084 Y-56.271
X14.075 Y-56.224
X14.066 Y-56.148
X14.064 Y-56.104
Y-21.687
X7.72 Y-21.682
X7.662 Y-21.678
X7.606 Y-21.665
X7.503 Y-21.632
X7.453 Y-21.612
X7.407 Y-21.585
X7.322 Y-21.528
X7.264 Y-21.48
X6.865 Y-21.076
X6.519 Y-20.962
X6.154 Y-21.02
X5.863 Y-21.231
X5.697 Y-21.555
X5.7 Y-21.926
X5.862 Y-22.243
X6.165 Y-22.459
X6.515 Y-22.513
X6.542 Y-22.505
X6.866 Y-22.398
X7.298 Y-21.967
X7.344 Y-21.928
X7.395 Y-21.897
X7.501 Y-21.844
X7.552 Y-21.823
X7.605 Y-21.81
X7.705 Y-21.793
X7.768 Y-21.788
X13.274 Y-21.792
X13.335 Y-21.797
X13.394 Y-21.812
X13.513 Y-21.853
X13.563 Y-21.874
X13.609 Y-21.902
X13.682 Y-21.954
X13.724 Y-21.988
X13.761 Y-22.028
X13.839 Y-22.129
X13.873 Y-22.181
X13.898 Y-22.237
X13.938 Y-22.351
X13.953 Y-22.411
X13.958 Y-22.473
X13.964 Y-26.463
Y-56.948
X63.259 Y-56.951
X63.303 Y-56.953
X63.346 Y-56.961
X63.439 Y-56.983
X63.485 Y-56.997
X63.528 Y-57.017
X63.611 Y-57.061
X63.655 Y-57.089
X63.695 Y-57.122
X63.778 Y-57.202
X63.812 Y-57.24
X63.841 Y-57.282
X63.885 Y-57.358
X63.908 Y-57.404
X63.925 Y-57.453
X63.955 Y-57.567
X63.964 Y-57.614
X63.967 Y-57.662
X63.968 Y-83.198
X63.965 Y-83.24
X63.959 Y-83.281
X63.933 Y-83.395
X63.919 Y-83.442
X63.898 Y-83.488
X63.86 Y-83.56
X63.836 Y-83.599
X63.809 Y-83.634
X63.744 Y-83.706
X63.711 Y-83.739
X63.404 Y-84.008
X63.28 Y-84.229
X63.219 Y-84.562
X63.217 Y-90.84
X63.639
X63.668 Y-90.835
X63.692 Y-90.819
X63.708 Y-90.795
X63.714 Y-90.766
X63.725 Y-90.005
X64.008 Y-88.64
X64.002 Y-88.589
X63.996 Y-88.578
X63.984 Y-88.575
X63.973 Y-88.58
X63.969 Y-88.591
Y-90.689 Z-4.764 F200
X63.975 Y-90.714
X63.994 Y-90.732
X64.019 Y-90.739
X64.044 Y-90.732
X64.062 Y-90.714
X64.069 Y-90.689
Y-90.039 Z-5
G3 X63.761 Y-90.039 I-0.154 J0
G1 Y-90.047 F400
G3 X64.011 Y-90.296 I0.25 J0
G1 X64.026
G3 X64.276 Y-90.047 I0 J0.25
G1 X64.274 Y-84.63
X64.27 Y-84.587
X64.265 Y-84.557
G3 X63.773 Y-84.556 I-0.246 J-0.043
G1 X63.767 Y-84.589
X63.763 Y-84.633
X63.761 Y-90.039
X63.764 Y-90.064 Z-4.993 F200
X63.774 Y-90.087 Z-4.987
X63.797 Y-90.115 Z-4.95
X63.807 Y-90.123 Z-4.9
G0 Z4
X7.648 Y-21.688
G1 Z-2.95 F200
X5.896 Z-3.105
X5.871 Y-21.694
X5.853 Y-21.713
X5.846 Y-21.738
X5.853 Y-21.763
X5.871 Y-21.781
X5.896 Y-21.788
X11.379 Z-3.591
X11.404 Y-21.781
X11.422 Y-21.763
X11.429 Y-21.738
X11.422 Y-21.713
X11.404 Y-21.694
X11.379 Y-21.688
X5.896 Z-4.077
X5.871 Y-21.694
X5.853 Y-21.713
X5.846 Y-21.738
X5.853 Y-21.763
X5.871 Y-21.781
X5.896 Y-21.788
X11.379 Z-4.564
X11.404 Y-21.781
X11.422 Y-21.763
X11.429 Y-21.738
X11.422 Y-21.713
X11.404 Y-21.694
X11.379 Y-21.688
X6.456 Z-5
X6.439 Y-21.686
X6.423 Y-21.679
X6.273 Y-21.601
X6.248 Y-21.579
X6.236 Y-21.549
X6.239 Y-21.516
X6.256 Y-21.488
X6.284 Y-21.471
X6.317 Y-21.468
X6.347 Y-21.481
X6.369 Y-21.506
X6.377 Y-21.538
X6.37 Y-21.57
X6.349 Y-21.595
G3 X6.562 Y-21.88 I0.107 J-0.143 F400
X6.349 Y-21.595 I-0.107 J0.143
G2 X5.989 Y-21.666 I-0.253 J0.337
G3 X5.7 Y-21.891 I-0.058 J-0.223
G1 Y-21.926
X5.862 Y-22.243
X6.165 Y-22.459
X6.515 Y-22.513
X6.542 Y-22.505
X6.866 Y-22.398
X7.298 Y-21.967
X7.344 Y-21.928
X7.395 Y-21.897
X7.501 Y-21.844
X7.552 Y-21.823
X7.605 Y-21.81
X7.705 Y-21.793
X7.768 Y-21.788
X13.274 Y-21.792
X13.335 Y-21.797
X13.394 Y-21.812
X13.513 Y-21.853
X13.563 Y-21.874
X13.609 Y-21.902
X13.682 Y-21.954
X13.724 Y-21.988
X13.761 Y-22.028
X13.839 Y-22.129
X13.873 Y-22.181
X13.898 Y-22.237
X13.938 Y-22.351
X13.953 Y-22.411
X13.958 Y-22.473
X13.964 Y-26.463
Y-56.948
X63.259 Y-56.951
X63.303 Y-56.953
X63.346 Y-56.961
X63.439 Y-56.983
X63.485 Y-56.997
X63.528 Y-57.017
X63.611 Y-57.061
X63.655 Y-57.089
X63.695 Y-57.122
X63.778 Y-57.202
X63.812 Y-57.24
X63.841 Y-57.282
X63.885 Y-57.358
X63.908 Y-57.404
X63.925 Y-57.453
X63.955 Y-57.567
X63.964 Y-57.614
X63.967 Y-57.662
X63.968 Y-83.198
X63.965 Y-83.24
X63.959 Y-83.281
X63.933 Y-83.395
X63.919 Y-83.442
X63.898 Y-83.488
X63.86 Y-83.56
X63.836 Y-83.599
X63.809 Y-83.634
X63.744 Y-83.706
X63.711 Y-83.739
X63.404 Y-84.008
X63.28 Y-84.229
X63.219 Y-84.562
X63.217 Y-90.84
X64.82
X64.818 Y-84.561
X64.76 Y-84.233
X64.63 Y-84.004
X64.294 Y-83.708
X64.263 Y-83.677
X64.236 Y-83.644
X64.184 Y-83.57
X64.156 Y-83.525
X64.135 Y-83.475
X64.094 Y-83.359
X64.079 Y-83.299
X64.074 Y-83.237
X64.069 Y-81.793
Y-56.848
X14.758 Y-56.844
X14.7 Y-56.84
X14.644 Y-56.826
X14.53 Y-56.79
X14.48 Y-56.77
X14.434 Y-56.744
X14.358 Y-56.692
X14.316 Y-56.659
X14.279 Y-56.621
X14.201 Y-56.526
X14.167 Y-56.478
X14.141 Y-56.424
X14.098 Y-56.317
X14.084 Y-56.271
X14.075 Y-56.224
X14.066 Y-56.148
X14.064 Y-56.104
Y-21.687
X7.72 Y-21.682
X7.662 Y-21.678
X7.606 Y-21.665
X7.503 Y-21.632
X7.453 Y-21.612
X7.407 Y-21.585
X7.322 Y-21.528
X7.264 Y-21.48
X6.865 Y-21.076
X6.519 Y-20.962
X6.154 Y-21.02
X5.863 Y-21.231
X5.697 Y-21.555
X5.7 Y-21.891
X5.706 Y-21.914
X5.721 Y-21.931
X5.743 Y-21.94
X5.767 Y-21.937
X5.995 Y-21.854
X6.023 Y-21.85
X9.154 Y-21.736
X9.208 Y-21.719
X9.218 Y-21.709
X9.216 Y-21.694
X9.203 Y-21.688
X6.456 Z-6 F200
X6.439 Y-21.686
X6.423 Y-21.679
X6.273 Y-21.601
X6.248 Y-21.579
X6.236 Y-21.549
X6.239 Y-21.516
X6.256 Y-21.488
X6.284 Y-21.471
X6.317 Y-21.468
X6.347 Y-21.481
X6.369 Y-21.506
X6.377 Y-21.538
X6.37 Y-21.57
X6.349 Y-21.595
G3 X6.562 Y-21.88 I0.107 J-0.143 F400
X6.349 Y-21.595 I-0.107 J0.143
G1 X6.33 Y-21.612 Z-5.993 F200
X6.317 Y-21.633 Z-5.987
X6.307 Y-21.668 Z-5.95
Y-21.681 Z-5.9
G0 Z4
X63.969 Y-90.146
G1 Z-3.95 F200
Y-90.689 Z-3.998
X63.975 Y-90.714
X63.994 Y-90.732
X64.019 Y-90.739
X64.044 Y-90.732
X64.062 Y-90.714
X64.069 Y-90.689
Y-85.207 Z-4.484
X64.062 Y-85.182
X64.044 Y-85.163
X64.019 Y-85.157
X63.994 Y-85.163
X63.975 Y-85.182
X63.969 Y-85.207
Y-90.689 Z-4.97
X63.975 Y-90.714
X63.994 Y-90.732
X64.019 Y-90.739
X64.044 Y-90.732
X64.062 Y-90.714
X64.069 Y-90.689
Y-85.207 Z-5.456
X64.062 Y-85.182
X64.044 Y-85.163
X64.019 Y-85.157
X63.994 Y-85.163
X63.975 Y-85.182
X63.969 Y-85.207
Y-90.689 Z-5.942
X63.975 Y-90.714
X63.994 Y-90.732
X64.019 Y-90.739
X64.044 Y-90.732
X64.062 Y-90.714
X64.069 Y-90.689
Y-90.039 Z-6
G3 X63.761 Y-90.039 I-0.154 J0
G1 Y-90.047 F400
G3 X64.011 Y-90.296 I0.25 J0
G1 X64.026
G3 X64.276 Y-90.047 I0 J0.25
G1 X64.274 Y-84.63
X64.27 Y-84.587
X64.265 Y-84.557
G3 X63.773 Y-84.556 I-0.246 J-0.043
G1 X63.767 Y-84.589
X63.763 Y-84.633
X63.761 Y-90.039
G2 X63.534 Y-90.414 I-0.424 J0
G3 X63.639 Y-90.84 I0.105 J-0.2
G1 X64.82
X64.818 Y-84.561
X64.76 Y-84.233
X64.63 Y-84.004
X64.294 Y-83.708
X64.263 Y-83.677
X64.236 Y-83.644
X64.184 Y-83.57
X64.156 Y-83.525
X64.135 Y-83.475
X64.094 Y-83.359
X64.079 Y-83.299
X64.074 Y-83.237
X64.069 Y-81.793
Y-56.848
X14.758 Y-56.844
X14.7 Y-56.84
X14.644 Y-56.826
X14.53 Y-56.79
X14.48 Y-56.77
X14.434 Y-56.744
X14.358 Y-56.692
X14.316 Y-56.659
X14.279 Y-56.621
X14.201 Y-56.526
X14.167 Y-56.478
X14.141 Y-56.424
X14.098 Y-56.317
X14.084 Y-56.271
X14.075 Y-56.224
X14.066 Y-56.148
X14.064 Y-56.104
Y-21.687
X7.72 Y-21.682
X7.662 Y-21.678
X7.606 Y-21.665
X7.503 Y-21.632
X7.453 Y-21.612
X7.407 Y-21.585
X7.322 Y-21.528
X7.264 Y-21.48
X6.865 Y-21.076
X6.519 Y-20.962
X6.154 Y-21.02
X5.863 Y-21.231
X5.697 Y-21.555
X5.7 Y-21.926
X5.862 Y-22.243
X6.165 Y-22.459
X6.515 Y-22.513
X6.542 Y-22.505
X6.866 Y-22.398
X7.298 Y-21.967
X7.344 Y-21.928
X7.395 Y-21.897
X7.501 Y-21.844
X7.552 Y-21.823
X7.605 Y-21.81
X7.705 Y-21.793
X7.768 Y-21.788
X13.274 Y-21.792
X13.335 Y-21.797
X13.394 Y-21.812
X13.513 Y-21.853
X13.563 Y-21.874
X13.609 Y-21.902
X13.682 Y-21.954
X13.724 Y-21.988
X13.761 Y-22.028
X13.839 Y-22.129
X13.873 Y-22.181
X13.898 Y-22.237
X13.938 Y-22.351
X13.953 Y-22.411
X13.958 Y-22.473
X13.964 Y-26.463
Y-56.948
X63.259 Y-56.951
X63.303 Y-56.953
X63.346 Y-56.961
X63.439 Y-56.983
X63.485 Y-56.997
X63.528 Y-57.017
X63.611 Y-57.061
X63.655 Y-57.089
X63.695 Y-57.122
X63.778 Y-57.202
X63.812 Y-57.24
X63.841 Y-57.282
X63.885 Y-57.358
X63.908 Y-57.404
X63.925 Y-57.453
X63.955 Y-57.567
X63.964 Y-57.614
X63.967 Y-57.662
X63.968 Y-83.198
X63.965 Y-83.24
X63.959 Y-83.281
X63.933 Y-83.395
X63.919 Y-83.442
X63.898 Y-83.488
X63.86 Y-83.56
X63.836 Y-83.599
X63.809 Y-83.634
X63.744 Y-83.706
X63.711 Y-83.739
X63.404 Y-84.008
X63.28 Y-84.229
X63.219 Y-84.562
X63.217 Y-90.84
X63.639
X63.664 Y-90.837 Z-5.993 F200
X63.687 Y-90.828 Z-5.987
X63.716 Y-90.805 Z-5.95
X63.724 Y-90.794 Z-5.9
G0 Z4
X57.74 Y-88.82
Z1.05
G1 Y-90.662 Z0.887 F200
X57.747 Y-90.687
X57.765 Y-90.705
X57.79 Y-90.712
X57.815 Y-90.705
X57.833 Y-90.687
X57.84 Y-90.662
Y-85.18 Z0.401
X57.833 Y-85.155
X57.815 Y-85.137
X57.79 Y-85.13
X57.765 Y-85.137
X57.747 Y-85.155
X57.74 Y-85.18
Y-90.662 Z-0.085
X57.747 Y-90.687
X57.765 Y-90.705
X57.79 Y-90.712
X57.815 Y-90.705
X57.833 Y-90.687
X57.84 Y-90.662
Y-85.18 Z-0.572
X57.833 Y-85.155
X57.815 Y-85.137
X57.79 Y-85.13
X57.765 Y-85.137
X57.747 Y-85.155
X57.74 Y-85.18
Y-90.012 Z-1
X57.744 Y-90.047
X57.757 Y-90.079
X57.908 Y-90.347
G2 X57.672 Y-90.48 I-0.118 J-0.066
X57.79 Y-90.278 I0.118 J0.066
G1 X57.806 F400
G3 X58.056 Y-90.029 I0 J0.25
G1 X58.054 Y-84.631
X58.05 Y-84.588
X58.036 Y-84.507
G3 X57.544 Y-84.507 I-0.246 J-0.043
G1 X57.53 Y-84.588
X57.526 Y-84.631
X57.524 Y-90.029
G3 X57.774 Y-90.278 I0.25 J0
G1 X57.79
X57.815 Y-90.275 Z-0.993 F200
X57.838 Y-90.266 Z-0.987
X57.866 Y-90.243 Z-0.95
X57.874 Y-90.232 Z-0.9
G0 Z4
X47.968 Y-88.848
Z1.05
G1 Y-90.69 Z0.887 F200
X47.975 Y-90.715
X47.993 Y-90.733
X48.018 Y-90.74
X48.043 Y-90.733
X48.061 Y-90.715
X48.068 Y-90.69
Y-85.207 Z0.401
X48.061 Y-85.182
X48.043 Y-85.164
X48.018 Y-85.157
X47.993 Y-85.164
X47.975 Y-85.182
X47.968 Y-85.207
Y-90.69 Z-0.085
X47.975 Y-90.715
X47.993 Y-90.733
X48.018 Y-90.74
X48.043 Y-90.733
X48.061 Y-90.715
X48.068 Y-90.69
Y-85.207 Z-0.572
X48.061 Y-85.182
X48.043 Y-85.164
X48.018 Y-85.157
X47.993 Y-85.164
X47.975 Y-85.182
X47.968 Y-85.207
Y-90.04 Z-1
X47.972 Y-90.073
X47.985 Y-90.104
X48.132 Y-90.363
G2 X47.904 Y-90.492 I-0.114 J-0.065
X48.018 Y-90.297 I0.114 J0.065
G1 X48.025 F400
G3 X48.275 Y-90.047 I0 J0.25
G1 X48.274 Y-84.628
X48.271 Y-84.586
X48.265 Y-84.551
G3 X47.773 Y-84.551 I-0.246 J-0.043
G1 X47.767 Y-84.586
X47.763 Y-84.628
X47.761 Y-90.047
G3 X48.011 Y-90.297 I0.25 J0
G1 X48.018
X48.043 Y-90.294 Z-0.993 F200
X48.066 Y-90.285 Z-0.987
X48.094 Y-90.262 Z-0.95
X48.102 Y-90.251 Z-0.9
G0 Z4
X0.05 Y-0.075
Z1.05
G1 Y0.559 Z0.994 F200
X0.043 Y0.584
X0.025 Y0.602
X0 Y0.609
X-0.025 Y0.602
X-0.043 Y0.584
X-0.05 Y0.559
Y-4.924 Z0.508
X-0.043 Y-4.949
X-0.025 Y-4.967
X0 Y-4.974
X0.025 Y-4.967
X0.043 Y-4.949
X0.05 Y-4.924
Y0.559 Z0.022
X0.043 Y0.584
X0.025 Y0.602
X0 Y0.609
X-0.025 Y0.602
X-0.043 Y0.584
X-0.05 Y0.559
Y-4.924 Z-0.464
X-0.043 Y-4.949
X-0.025 Y-4.967
X0 Y-4.974
X0.025 Y-4.967
X0.043 Y-4.949
X0.05 Y-4.924
Y0.559 Z-0.95
X0.043 Y0.584
X0.025 Y0.602
X0 Y0.609
X-0.025 Y0.602
X-0.043 Y0.584
X-0.05 Y0.559
Y-0.001 Z-1
X-0.043 Y-0.04
X-0.023 Y-0.074
X0.007 Y-0.099
X0.044 Y-0.113
X0.084
X0.121 Y-0.099
X0.152 Y-0.074
X0.171 Y-0.04
X0.178 Y-0.001
G3 X-0.178 Y-0.001 I-0.178 J0 F400
X0.178 Y-0.001 I0.178 J0
G2 X0.343 Y0.326 I0.406 J0
G3 X0.313 Y0.69 I-0.128 J0.173
G1 X0.183 Y0.756
X-0.188 Y0.754
X-0.507 Y0.591
X-0.72 Y0.294
X-0.775 Y-0.06
X-0.661 Y-0.412
X-0.25 Y-0.819
X-0.201 Y-0.878
X-0.153 Y-0.951
X-0.127 Y-0.996
X-0.108 Y-1.043
X-0.073 Y-1.155
X-0.059 Y-1.211
X-0.054 Y-1.27
X-0.05 Y-48.795
X8.806 Y-62.134
X9.058 Y-62.514
X57.043 Y-62.518
X57.098 Y-62.522
X57.151 Y-62.533
X57.258 Y-62.566
X57.311 Y-62.586
X57.36 Y-62.614
X57.454 Y-62.677
X57.496 Y-62.71
X57.533 Y-62.749
X57.598 Y-62.827
X57.629 Y-62.872
X57.654 Y-62.921
X57.7 Y-63.03
X57.716 Y-63.076
X57.726 Y-63.123
X57.736 Y-63.195
X57.74 Y-63.248
X57.738 Y-79.322
X57.735 Y-79.366
X57.728 Y-79.409
X57.705 Y-79.505
X57.69 Y-79.552
X57.67 Y-79.596
X57.623 Y-79.683
X57.593 Y-79.729
X57.556 Y-79.771
X57.469 Y-79.857
X57.42 Y-79.898
X57.366 Y-79.929
X57.252 Y-79.983
X57.196 Y-80.005
X57.137 Y-80.017
X57.023 Y-80.031
X56.977 Y-80.033
X47.969
X47.968 Y-83.198
X47.965 Y-83.24
X47.959 Y-83.281
X47.933 Y-83.395
X47.918 Y-83.443
X47.898 Y-83.489
X47.858 Y-83.563
X47.834 Y-83.602
X47.805 Y-83.639
X47.737 Y-83.713
X47.708 Y-83.742
X47.402 Y-84.012
X47.275 Y-84.238
X47.219 Y-84.56
X47.217 Y-90.84
X48.819
X48.818 Y-84.56
X48.762 Y-84.238
X48.634 Y-84.01
X48.296 Y-83.71
X48.265 Y-83.679
X48.237 Y-83.644
X48.176 Y-83.556
X48.148 Y-83.509
X48.127 Y-83.458
X48.092 Y-83.353
X48.079 Y-83.296
X48.074 Y-83.237
X48.069 Y-81.793
X48.072 Y-81.743
X48.087 Y-81.629
X48.1 Y-81.57
X48.122 Y-81.513
X48.178 Y-81.399
X48.207 Y-81.349
X48.244 Y-81.304
X48.317 Y-81.228
X48.356 Y-81.193
X48.4 Y-81.163
X48.49 Y-81.111
X48.54 Y-81.087
X48.593 Y-81.07
X48.708 Y-81.044
X48.75 Y-81.037
X48.792 Y-81.034
X57.015
X57.057 Y-81.037
X57.099 Y-81.044
X57.213 Y-81.07
X57.266 Y-81.086
X57.317 Y-81.11
X57.408 Y-81.163
X57.452 Y-81.193
X57.491 Y-81.228
X57.564 Y-81.304
X57.601 Y-81.349
X57.631 Y-81.399
X57.687 Y-81.513
X57.709 Y-81.57
X57.722 Y-81.629
X57.737 Y-81.743
X57.74 Y-81.793
X57.736 Y-83.199
X57.731 Y-83.256
X57.718 Y-83.312
X57.682 Y-83.426
X57.663 Y-83.473
X57.638 Y-83.517
X57.593 Y-83.587
X57.562 Y-83.628
X57.525 Y-83.665
X57.166 Y-83.977
X57.021 Y-84.237
X56.965 Y-84.561
X56.962 Y-90.84
X58.618
X58.615 Y-84.561
X58.559 Y-84.237
X58.416 Y-83.98
X58.076 Y-83.688
X58.043 Y-83.656
X58.014 Y-83.62
X57.949 Y-83.529
X57.92 Y-83.479
X57.898 Y-83.426
X57.862 Y-83.312
X57.848 Y-83.255
X57.844 Y-83.198
X57.84 Y-62.414
X9.47 Y-62.412
X9.424 Y-62.409
X9.378 Y-62.4
X9.274 Y-62.374
X9.221 Y-62.356
X9.171 Y-62.33
X9.07 Y-62.269
X9.026 Y-62.237
X8.987 Y-62.199
X8.919 Y-62.123
X8.886 Y-62.081
X0.151 Y-48.912
X0.128 Y-48.872
X0.11 Y-48.829
X0.08 Y-48.742
X0.066 Y-48.694
X0.06 Y-48.646
X0.051 Y-48.532
X0.05 Y-48.504
X0.054 Y-1.27
X0.059 Y-1.212
X0.072 Y-1.155
X0.108 Y-1.045
X0.13 Y-0.991
X0.16 Y-0.941
X0.229 Y-0.845
X0.27 Y-0.797
X0.657 Y-0.415
X0.682 Y-0.348
X0.775 Y-0.061
X0.721 Y0.294
X0.504 Y0.592
X0.313 Y0.69
X0.286 Y0.698
X0.258 Y0.695
X0.233 Y0.683
X0.214 Y0.662
X0.205 Y0.636
X0.028 Y-0.437
X0.001 Y-1.58
X0.017 Y-1.635
X0.028 Y-1.646
X0.043 Y-1.643
X0.05 Y-1.63
Y0.559 Z-1.796 F200
X0.043 Y0.584
X0.025 Y0.602
X0 Y0.609
X-0.025 Y0.602
X-0.043 Y0.584
X-0.05 Y0.559
Y-0.001 Z-2
X-0.043 Y-0.04
X-0.023 Y-0.074
X0.007 Y-0.099
X0.044 Y-0.113
X0.084
X0.121 Y-0.099
X0.152 Y-0.074
X0.171 Y-0.04
X0.178 Y-0.001
G3 X-0.178 Y-0.001 I-0.178 J0 F400
X0.178 Y-0.001 I0.178 J0
G1 X0.171 Y0.049 Z-1.987 F200
X0.158 Y0.083 Z-1.95
X0.151 Y0.094 Z-1.9
G0 Z4
X47.968 Y-88.848
Z0.05
G1 Y-90.69 Z-0.113 F200
X47.975 Y-90.715
X47.993 Y-90.733
X48.018 Y-90.74
X48.043 Y-90.733
X48.061 Y-90.715
X48.068 Y-90.69
Y-85.207 Z-0.599
X48.061 Y-85.182
X48.043 Y-85.164
X48.018 Y-85.157
X47.993 Y-85.164
X47.975 Y-85.182
X47.968 Y-85.207
Y-90.69 Z-1.085
X47.975 Y-90.715
X47.993 Y-90.733
X48.018 Y-90.74
X48.043 Y-90.733
X48.061 Y-90.715
X48.068 Y-90.69
Y-85.207 Z-1.572
X48.061 Y-85.182
X48.043 Y-85.164
X48.018 Y-85.157
X47.993 Y-85.164
X47.975 Y-85.182
X47.968 Y-85.207
Y-90.04 Z-2
X47.972 Y-90.073
X47.985 Y-90.104
X48.132 Y-90.363
G2 X47.904 Y-90.492 I-0.114 J-0.065
X48.018 Y-90.297 I0.114 J0.065
G1 X48.025 F400
G3 X48.275 Y-90.047 I0 J0.25
G1 X48.274 Y-84.628
X48.271 Y-84.586
X48.265 Y-84.551
G3 X47.773 Y-84.551 I-0.246 J-0.043
G1 X47.767 Y-84.586
X47.763 Y-84.628
X47.761 Y-90.047
G3 X48.011 Y-90.297 I0.25 J0
G1 X48.018
X48.043 Y-90.294 Z-1.993 F200
X48.066 Y-90.285 Z-1.987
X48.094 Y-90.262 Z-1.95
X48.102 Y-90.251 Z-1.9
G0 Z4
X57.74 Y-88.82
Z0.05
G1 Y-90.662 Z-0.113 F200
X57.747 Y-90.687
X57.765 Y-90.705
X57.79 Y-90.712
X57.815 Y-90.705
X57.833 Y-90.687
X57.84 Y-90.662
Y-85.18 Z-0.599
X57.833 Y-85.155
X57.815 Y-85.137
X57.79 Y-85.13
X57.765 Y-85.137
X57.747 Y-85.155
X57.74 Y-85.18
Y-90.662 Z-1.085
X57.747 Y-90.687
X57.765 Y-90.705
X57.79 Y-90.712
X57.815 Y-90.705
X57.833 Y-90.687
X57.84 Y-90.662
Y-85.18 Z-1.572
X57.833 Y-85.155
X57.815 Y-85.137
X57.79 Y-85.13
X57.765 Y-85.137
X57.747 Y-85.155
X57.74 Y-85.18
Y-90.012 Z-2
X57.744 Y-90.047
X57.757 Y-90.079
X57.908 Y-90.347
G2 X57.672 Y-90.48 I-0.118 J-0.066
X57.79 Y-90.278 I0.118 J0.066
G1 X57.806 F400
G3 X58.056 Y-90.029 I0 J0.25
G1 X58.054 Y-84.631
X58.05 Y-84.588
X58.036 Y-84.507
G3 X57.544 Y-84.507 I-0.246 J-0.043
G1 X57.53 Y-84.588
X57.526 Y-84.631
X57.524 Y-90.029
G3 X57.774 Y-90.278 I0.25 J0
G1 X57.79
G2 X58.178 Y-90.512 I0 J-0.438
G3 X58.618 Y-90.404 I0.206 J0.109
G1 X58.615 Y-84.561
X58.559 Y-84.237
X58.416 Y-83.98
X58.076 Y-83.688
X58.043 Y-83.656
X58.014 Y-83.62
X57.949 Y-83.529
X57.92 Y-83.479
X57.898 Y-83.426
X57.862 Y-83.312
X57.848 Y-83.255
X57.844 Y-83.198
X57.84 Y-62.414
X9.47 Y-62.412
X9.424 Y-62.409
X9.378 Y-62.4
X9.274 Y-62.374
X9.221 Y-62.356
X9.171 Y-62.33
X9.07 Y-62.269
X9.026 Y-62.237
X8.987 Y-62.199
X8.919 Y-62.123
X8.886 Y-62.081
X0.151 Y-48.912
X0.128 Y-48.872
X0.11 Y-48.829
X0.08 Y-48.742
X0.066 Y-48.694
X0.06 Y-48.646
X0.051 Y-48.532
X0.05 Y-48.504
X0.054 Y-1.27
X0.059 Y-1.212
X0.072 Y-1.155
X0.108 Y-1.045
X0.13 Y-0.991
X0.16 Y-0.941
X0.229 Y-0.845
X0.27 Y-0.797
X0.657 Y-0.415
X0.682 Y-0.348
X0.775 Y-0.061
X0.721 Y0.294
X0.504 Y0.592
X0.183 Y0.756
X-0.188 Y0.754
X-0.507 Y0.591
X-0.72 Y0.294
X-0.775 Y-0.06
X-0.661 Y-0.412
X-0.25 Y-0.819
X-0.201 Y-0.878
X-0.153 Y-0.951
X-0.127 Y-0.996
X-0.108 Y-1.043
X-0.073 Y-1.155
X-0.059 Y-1.211
X-0.054 Y-1.27
X-0.05 Y-48.795
X8.806 Y-62.134
X9.058 Y-62.514
X57.043 Y-62.518
X57.098 Y-62.522
X57.151 Y-62.533
X57.258 Y-62.566
X57.311 Y-62.586
X57.36 Y-62.614
X57.454 Y-62.677
X57.496 Y-62.71
X57.533 Y-62.749
X57.598 Y-62.827
X57.629 Y-62.872
X57.654 Y-62.921
X57.7 Y-63.03
X57.716 Y-63.076
X57.726 Y-63.123
X57.736 Y-63.195
X57.74 Y-63.248
X57.738 Y-79.322
X57.735 Y-79.366
X57.728 Y-79.409
X57.705 Y-79.505
X57.69 Y-79.552
X57.67 Y-79.596
X57.623 Y-79.683
X57.593 Y-79.729
X57.556 Y-79.771
X57.469 Y-79.857
X57.42 Y-79.898
X57.366 Y-79.929
X57.252 Y-79.983
X57.196 Y-80.005
X57.137 Y-80.017
X57.023 Y-80.031
X56.977 Y-80.033
X47.969
X47.968 Y-83.198
X47.965 Y-83.24
X47.959 Y-83.281
X47.933 Y-83.395
X47.918 Y-83.443
X47.898 Y-83.489
X47.858 Y-83.563
X47.834 Y-83.602
X47.805 Y-83.639
X47.737 Y-83.713
X47.708 Y-83.742
X47.402 Y-84.012
X47.275 Y-84.238
X47.219 Y-84.56
X47.217 Y-90.84
X48.819
X48.818 Y-84.56
X48.762 Y-84.238
X48.634 Y-84.01
X48.296 Y-83.71
X48.265 Y-83.679
X48.237 Y-83.644
X48.176 Y-83.556
X48.148 Y-83.509
X48.127 Y-83.458
X48.092 Y-83.353
X48.079 Y-83.296
X48.074 Y-83.237
X48.069 Y-81.793
X48.072 Y-81.743
X48.087 Y-81.629
X48.1 Y-81.57
X48.122 Y-81.513
X48.178 Y-81.399
X48.207 Y-81.349
X48.244 Y-81.304
X48.317 Y-81.228
X48.356 Y-81.193
X48.4 Y-81.163
X48.49 Y-81.111
X48.54 Y-81.087
X48.593 Y-81.07
X48.708 Y-81.044
X48.75 Y-81.037
X48.792 Y-81.034
X57.015
X57.057 Y-81.037
X57.099 Y-81.044
X57.213 Y-81.07
X57.266 Y-81.086
X57.317 Y-81.11
X57.408 Y-81.163
X57.452 Y-81.193
X57.491 Y-81.228
X57.564 Y-81.304
X57.601 Y-81.349
X57.631 Y-81.399
X57.687 Y-81.513
X57.709 Y-81.57
X57.722 Y-81.629
X57.737 Y-81.743
X57.74 Y-81.793
X57.736 Y-83.199
X57.731 Y-83.256
X57.718 Y-83.312
X57.682 Y-83.426
X57.663 Y-83.473
X57.638 Y-83.517
X57.593 Y-83.587
X57.562 Y-83.628
X57.525 Y-83.665
X57.166 Y-83.977
X57.021 Y-84.237
X56.965 Y-84.561
X56.962 Y-90.84
X58.618
Y-90.404
X58.614 Y-90.381
X58.604 Y-90.36
X58.587 Y-90.344
X58.157 Y-90.022
X58.137 Y-90
X58.128 Y-89.971
X57.796 Y-87.315
X57.772 Y-87.258
X57.761 Y-87.249
X57.746 Y-87.252
X57.74 Y-87.265
Y-90.012 Z-3 F200
X57.744 Y-90.047
X57.757 Y-90.079
X57.908 Y-90.347
G2 X57.672 Y-90.48 I-0.118 J-0.066
X57.79 Y-90.278 I0.118 J0.066
G1 X57.806 F400
G3 X58.056 Y-90.029 I0 J0.25
G1 X58.054 Y-84.631
X58.05 Y-84.588
X58.036 Y-84.507
G3 X57.544 Y-84.507 I-0.246 J-0.043
G1 X57.53 Y-84.588
X57.526 Y-84.631
X57.524 Y-90.029
G3 X57.774 Y-90.278 I0.25 J0
G1 X57.79
X57.815 Y-90.275 Z-2.993 F200
X57.838 Y-90.266 Z-2.987
X57.866 Y-90.243 Z-2.95
X57.874 Y-90.232 Z-2.9
G0 Z4
X47.968 Y-88.848
Z2
G1 Z-0.95 F200
Y-90.69 Z-1.113
X47.975 Y-90.715
X47.993 Y-90.733
X48.018 Y-90.74
X48.043 Y-90.733
X48.061 Y-90.715
X48.068 Y-90.69
Y-85.207 Z-1.599
X48.061 Y-85.182
X48.043 Y-85.164
X48.018 Y-85.157
X47.993 Y-85.164
X47.975 Y-85.182
X47.968 Y-85.207
Y-90.69 Z-2.085
X47.975 Y-90.715
X47.993 Y-90.733
X48.018 Y-90.74
X48.043 Y-90.733
X48.061 Y-90.715
X48.068 Y-90.69
Y-85.207 Z-2.572
X48.061 Y-85.182
X48.043 Y-85.164
X48.018 Y-85.157
X47.993 Y-85.164
X47.975 Y-85.182
X47.968 Y-85.207
Y-90.04 Z-3
X47.972 Y-90.073
X47.985 Y-90.104
X48.132 Y-90.363
G2 X47.904 Y-90.492 I-0.114 J-0.065
X48.018 Y-90.297 I0.114 J0.065
G1 X48.025 F400
G3 X48.275 Y-90.047 I0 J0.25
G1 X48.274 Y-84.628
X48.271 Y-84.586
X48.265 Y-84.551
G3 X47.773 Y-84.551 I-0.246 J-0.043
G1 X47.767 Y-84.586
X47.763 Y-84.628
X47.761 Y-90.047
G3 X48.011 Y-90.297 I0.25 J0
G1 X48.018
X48.043 Y-90.294 Z-2.993 F200
X48.066 Y-90.285 Z-2.987
X48.094 Y-90.262 Z-2.95
X48.102 Y-90.251 Z-2.9
G0 Z4
X0.05 Y-0.075
Z2
G1 Z-0.95 F200
Y0.559 Z-1.006
X0.043 Y0.584
X0.025 Y0.602
X0 Y0.609
X-0.025 Y0.602
X-0.043 Y0.584
X-0.05 Y0.559
Y-4.924 Z-1.492
X-0.043 Y-4.949
X-0.025 Y-4.967
X0 Y-4.974
X0.025 Y-4.967
X0.043 Y-4.949
X0.05 Y-4.924
Y0.559 Z-1.978
X0.043 Y0.584
X0.025 Y0.602
X0 Y0.609
X-0.025 Y0.602
X-0.043 Y0.584
X-0.05 Y0.559
Y-4.924 Z-2.464
X-0.043 Y-4.949
X-0.025 Y-4.967
X0 Y-4.974
X0.025 Y-4.967
X0.043 Y-4.949
X0.05 Y-4.924
Y0.559 Z-2.95
X0.043 Y0.584
X0.025 Y0.602
X0 Y0.609
X-0.025 Y0.602
X-0.043 Y0.584
X-0.05 Y0.559
Y-0.001 Z-3
X-0.043 Y-0.04
X-0.023 Y-0.074
X0.007 Y-0.099
X0.044 Y-0.113
X0.084
X0.121 Y-0.099
X0.152 Y-0.074
X0.171 Y-0.04
X0.178 Y-0.001
G3 X-0.178 Y-0.001 I-0.178 J0 F400
X0.178 Y-0.001 I0.178 J0
G2 X0.343 Y0.326 I0.406 J0
G3 X0.313 Y0.69 I-0.128 J0.173
G1 X0.183 Y0.756
X-0.188 Y0.754
X-0.507 Y0.591
X-0.72 Y0.294
X-0.775 Y-0.06
X-0.661 Y-0.412
X-0.25 Y-0.819
X-0.201 Y-0.878
X-0.153 Y-0.951
X-0.127 Y-0.996
X-0.108 Y-1.043
X-0.073 Y-1.155
X-0.059 Y-1.211
X-0.054 Y-1.27
X-0.05 Y-48.795
X8.806 Y-62.134
X9.058 Y-62.514
X57.043 Y-62.518
X57.098 Y-62.522
X57.151 Y-62.533
X57.258 Y-62.566
X57.311 Y-62.586
X57.36 Y-62.614
X57.454 Y-62.677
X57.496 Y-62.71
X57.533 Y-62.749
X57.598 Y-62.827
X57.629 Y-62.872
X57.654 Y-62.921
X57.7 Y-63.03
X57.716 Y-63.076
X57.726 Y-63.123
X57.736 Y-63.195
X57.74 Y-63.248
X57.738 Y-79.322
X57.735 Y-79.366
X57.728 Y-79.409
X57.705 Y-79.505
X57.69 Y-79.552
X57.67 Y-79.596
X57.623 Y-79.683
X57.593 Y-79.729
X57.556 Y-79.771
X57.469 Y-79.857
X57.42 Y-79.898
X57.366 Y-79.929
X57.252 Y-79.983
X57.196 Y-80.005
X57.137 Y-80.017
X57.023 Y-80.031
X56.977 Y-80.033
X47.969
X47.968 Y-83.198
X47.965 Y-83.24
X47.959 Y-83.281
X47.933 Y-83.395
X47.918 Y-83.443
X47.898 Y-83.489
X47.858 Y-83.563
X47.834 Y-83.602
X47.805 Y-83.639
X47.737 Y-83.713
X47.708 Y-83.742
X47.402 Y-84.012
X47.275 Y-84.238
X47.219 Y-84.56
X47.217 Y-90.84
X48.819
X48.818 Y-84.56
X48.762 Y-84.238
X48.634 Y-84.01
X48.296 Y-83.71
X48.265 Y-83.679
X48.237 Y-83.644
X48.176 Y-83.556
X48.148 Y-83.509
X48.127 Y-83.458
X48.092 Y-83.353
X48.079 Y-83.296
X48.074 Y-83.237
X48.069 Y-81.793
X48.072 Y-81.743
X48.087 Y-81.629
X48.1 Y-81.57
X48.122 Y-81.513
X48.178 Y-81.399
X48.207 Y-81.349
X48.244 Y-81.304
X48.317 Y-81.228
X48.356 Y-81.193
X48.4 Y-81.163
X48.49 Y-81.111
X48.54 Y-81.087
X48.593 Y-81.07
X48.708 Y-81.044
X48.75 Y-81.037
X48.792 Y-81.034
X57.015
X57.057 Y-81.037
X57.099 Y-81.044
X57.213 Y-81.07
X57.266 Y-81.086
X57.317 Y-81.11
X57.408 Y-81.163
X57.452 Y-81.193
X57.491 Y-81.228
X57.564 Y-81.304
X57.601 Y-81.349
X57.631 Y-81.399
X57.687 Y-81.513
X57.709 Y-81.57
X57.722 Y-81.629
X57.737 Y-81.743
X57.74 Y-81.793
X57.736 Y-83.199
X57.731 Y-83.256
X57.718 Y-83.312
X57.682 Y-83.426
X57.663 Y-83.473
X57.638 Y-83.517
X57.593 Y-83.587
X57.562 Y-83.628
X57.525 Y-83.665
X57.166 Y-83.977
X57.021 Y-84.237
X56.965 Y-84.561
X56.962 Y-90.84
X58.618
X58.615 Y-84.561
X58.559 Y-84.237
X58.416 Y-83.98
X58.076 Y-83.688
X58.043 Y-83.656
X58.014 Y-83.62
X57.949 Y-83.529
X57.92 Y-83.479
X57.898 Y-83.426
X57.862 Y-83.312
X57.848 Y-83.255
X57.844 Y-83.198
X57.84 Y-62.414
X9.47 Y-62.412
X9.424 Y-62.409
X9.378 Y-62.4
X9.274 Y-62.374
X9.221 Y-62.356
X9.171 Y-62.33
X9.07 Y-62.269
X9.026 Y-62.237
X8.987 Y-62.199
X8.919 Y-62.123
X8.886 Y-62.081
X0.151 Y-48.912
X0.128 Y-48.872
X0.11 Y-48.829
X0.08 Y-48.742
X0.066 Y-48.694
X0.06 Y-48.646
X0.051 Y-48.532
X0.05 Y-48.504
X0.054 Y-1.27
X0.059 Y-1.212
X0.072 Y-1.155
X0.108 Y-1.045
X0.13 Y-0.991
X0.16 Y-0.941
X0.229 Y-0.845
X0.27 Y-0.797
X0.657 Y-0.415
X0.682 Y-0.348
X0.775 Y-0.061
X0.721 Y0.294
X0.504 Y0.592
X0.313 Y0.69
X0.286 Y0.698
X0.258 Y0.695
X0.233 Y0.683
X0.214 Y0.662
X0.205 Y0.636
X0.028 Y-0.437
X0.001 Y-1.58
X0.017 Y-1.635
X0.028 Y-1.646
X0.043 Y-1.643
X0.05 Y-1.63
Y0.559 Z-3.796 F200
X0.043 Y0.584
X0.025 Y0.602
X0 Y0.609
X-0.025 Y0.602
X-0.043 Y0.584
X-0.05 Y0.559
Y-0.001 Z-4
X-0.043 Y-0.04
X-0.023 Y-0.074
X0.007 Y-0.099
X0.044 Y-0.113
X0.084
X0.121 Y-0.099
X0.152 Y-0.074
X0.171 Y-0.04
X0.178 Y-0.001
G3 X-0.178 Y-0.001 I-0.178 J0 F400
X0.178 Y-0.001 I0.178 J0
G1 X0.171 Y0.049 Z-3.987 F200
X0.158 Y0.083 Z-3.95
X0.151 Y0.094 Z-3.9
G0 Z4
X47.968 Y-88.848
G1 Z-1.95 F200
Y-90.69 Z-2.113
X47.975 Y-90.715
X47.993 Y-90.733
X48.018 Y-90.74
X48.043 Y-90.733
X48.061 Y-90.715
X48.068 Y-90.69
Y-85.207 Z-2.599
X48.061 Y-85.182
X48.043 Y-85.164
X48.018 Y-85.157
X47.993 Y-85.164
X47.975 Y-85.182
X47.968 Y-85.207
Y-90.69 Z-3.085
X47.975 Y-90.715
X47.993 Y-90.733
X48.018 Y-90.74
X48.043 Y-90.733
X48.061 Y-90.715
X48.068 Y-90.69
Y-85.207 Z-3.572
X48.061 Y-85.182
X48.043 Y-85.164
X48.018 Y-85.157
X47.993 Y-85.164
X47.975 Y-85.182
X47.968 Y-85.207
Y-90.04 Z-4
X47.972 Y-90.073
X47.985 Y-90.104
X48.132 Y-90.363
G2 X47.904 Y-90.492 I-0.114 J-0.065
X48.018 Y-90.297 I0.114 J0.065
G1 X48.025 F400
G3 X48.275 Y-90.047 I0 J0.25
G1 X48.274 Y-84.628
X48.271 Y-84.586
X48.265 Y-84.551
G3 X47.773 Y-84.551 I-0.246 J-0.043
G1 X47.767 Y-84.586
X47.763 Y-84.628
X47.761 Y-90.047
G3 X48.011 Y-90.297 I0.25 J0
G1 X48.018
X48.043 Y-90.294 Z-3.993 F200
X48.066 Y-90.285 Z-3.987
X48.094 Y-90.262 Z-3.95
X48.102 Y-90.251 Z-3.9
G0 Z4
X57.74 Y-88.82
G1 Z-1.95 F200
Y-90.662 Z-2.113
X57.747 Y-90.687
X57.765 Y-90.705
X57.79 Y-90.712
X57.815 Y-90.705
X57.833 Y-90.687
X57.84 Y-90.662
Y-85.18 Z-2.599
X57.833 Y-85.155
X57.815 Y-85.137
X57.79 Y-85.13
X57.765 Y-85.137
X57.747 Y-85.155
X57.74 Y-85.18
Y-90.662 Z-3.085
X57.747 Y-90.687
X57.765 Y-90.705
X57.79 Y-90.712
X57.815 Y-90.705
X57.833 Y-90.687
X57.84 Y-90.662
Y-85.18 Z-3.572
X57.833 Y-85.155
X57.815 Y-85.137
X57.79 Y-85.13
X57.765 Y-85.137
X57.747 Y-85.155
X57.74 Y-85.18
Y-90.012 Z-4
X57.744 Y-90.047
X57.757 Y-90.079
X57.908 Y-90.347
G2 X57.672 Y-90.48 I-0.118 J-0.066
X57.79 Y-90.278 I0.118 J0.066
G1 X57.806 F400
G3 X58.056 Y-90.029 I0 J0.25
G1 X58.054 Y-84.631
X58.05 Y-84.588
X58.036 Y-84.507
G3 X57.544 Y-84.507 I-0.246 J-0.043
G1 X57.53 Y-84.588
X57.526 Y-84.631
X57.524 Y-90.029
G3 X57.774 Y-90.278 I0.25 J0
G1 X57.79
G2 X58.178 Y-90.512 I0 J-0.438
G3 X58.618 Y-90.404 I0.206 J0.109
G1 X58.615 Y-84.561
X58.559 Y-84.237
X58.416 Y-83.98
X58.076 Y-83.688
X58.043 Y-83.656
X58.014 Y-83.62
X57.949 Y-83.529
X57.92 Y-83.479
X57.898 Y-83.426
X57.862 Y-83.312
X57.848 Y-83.255
X57.844 Y-83.198
X57.84 Y-62.414
X9.47 Y-62.412
X9.424 Y-62.409
X9.378 Y-62.4
X9.274 Y-62.374
X9.221 Y-62.356
X9.171 Y-62.33
X9.07 Y-62.269
X9.026 Y-62.237
X8.987 Y-62.199
X8.919 Y-62.123
X8.886 Y-62.081
X0.151 Y-48.912
X0.128 Y-48.872
X0.11 Y-48.829
X0.08 Y-48.742
X0.066 Y-48.694
X0.06 Y-48.646
X0.051 Y-48.532
X0.05 Y-48.504
X0.054 Y-1.27
X0.059 Y-1.212
X0.072 Y-1.155
X0.108 Y-1.045
X0.13 Y-0.991
X0.16 Y-0.941
X0.229 Y-0.845
X0.27 Y-0.797
X0.657 Y-0.415
X0.682 Y-0.348
X0.775 Y-0.061
X0.721 Y0.294
X0.504 Y0.592
X0.183 Y0.756
X-0.188 Y0.754
X-0.507 Y0.591
X-0.72 Y0.294
X-0.775 Y-0.06
X-0.661 Y-0.412
X-0.25 Y-0.819
X-0.201 Y-0.878
X-0.153 Y-0.951
X-0.127 Y-0.996
X-0.108 Y-1.043
X-0.073 Y-1.155
X-0.059 Y-1.211
X-0.054 Y-1.27
X-0.05 Y-48.795
X8.806 Y-62.134
X9.058 Y-62.514
X57.043 Y-62.518
X57.098 Y-62.522
X57.151 Y-62.533
X57.258 Y-62.566
X57.311 Y-62.586
X57.36 Y-62.614
X57.454 Y-62.677
X57.496 Y-62.71
X57.533 Y-62.749
X57.598 Y-62.827
X57.629 Y-62.872
X57.654 Y-62.921
X57.7 Y-63.03
X57.716 Y-63.076
X57.726 Y-63.123
X57.736 Y-63.195
X57.74 Y-63.248
X57.738 Y-79.322
X57.735 Y-79.366
X57.728 Y-79.409
X57.705 Y-79.505
X57.69 Y-79.552
X57.67 Y-79.596
X57.623 Y-79.683
X57.593 Y-79.729
X57.556 Y-79.771
X57.469 Y-79.857
X57.42 Y-79.898
X57.366 Y-79.929
X57.252 Y-79.983
X57.196 Y-80.005
X57.137 Y-80.017
X57.023 Y-80.031
X56.977 Y-80.033
X47.969
X47.968 Y-83.198
X47.965 Y-83.24
X47.959 Y-83.281
X47.933 Y-83.395
X47.918 Y-83.443
X47.898 Y-83.489
X47.858 Y-83.563
X47.834 Y-83.602
X47.805 Y-83.639
X47.737 Y-83.713
X47.708 Y-83.742
X47.402 Y-84.012
X47.275 Y-84.238
X47.219 Y-84.56
X47.217 Y-90.84
X48.819
X48.818 Y-84.56
X48.762 Y-84.238
X48.634 Y-84.01
X48.296 Y-83.71
X48.265 Y-83.679
X48.237 Y-83.644
X48.176 Y-83.556
X48.148 Y-83.509
X48.127 Y-83.458
X48.092 Y-83.353
X48.079 Y-83.296
X48.074 Y-83.237
X48.069 Y-81.793
X48.072 Y-81.743
X48.087 Y-81.629
X48.1 Y-81.57
X48.122 Y-81.513
X48.178 Y-81.399
X48.207 Y-81.349
X48.244 Y-81.304
X48.317 Y-81.228
X48.356 Y-81.193
X48.4 Y-81.163
X48.49 Y-81.111
X48.54 Y-81.087
X48.593 Y-81.07
X48.708 Y-81.044
X48.75 Y-81.037
X48.792 Y-81.034
X57.015
X57.057 Y-81.037
X57.099 Y-81.044
X57.213 Y-81.07
X57.266 Y-81.086
X57.317 Y-81.11
X57.408 Y-81.163
X57.452 Y-81.193
X57.491 Y-81.228
X57.564 Y-81.304
X57.601 Y-81.349
X57.631 Y-81.399
X57.687 Y-81.513
X57.709 Y-81.57
X57.722 Y-81.629
X57.737 Y-81.743
X57.74 Y-81.793
X57.736 Y-83.199
X57.731 Y-83.256
X57.718 Y-83.312
X57.682 Y-83.426
X57.663 Y-83.473
X57.638 Y-83.517
X57.593 Y-83.587
X57.562 Y-83.628
X57.525 Y-83.665
X57.166 Y-83.977
X57.021 Y-84.237
X56.965 Y-84.561
X56.962 Y-90.84
X58.618
Y-90.404
X58.614 Y-90.381
X58.604 Y-90.36
X58.587 Y-90.344
X58.157 Y-90.022
X58.137 Y-90
X58.128 Y-89.971
X57.796 Y-87.315
X57.772 Y-87.258
X57.761 Y-87.249
X57.746 Y-87.252
X57.74 Y-87.265
Y-90.012 Z-5 F200
X57.744 Y-90.047
X57.757 Y-90.079
X57.908 Y-90.347
G2 X57.672 Y-90.48 I-0.118 J-0.066
X57.79 Y-90.278 I0.118 J0.066
G1 X57.806 F400
G3 X58.056 Y-90.029 I0 J0.25
G1 X58.054 Y-84.631
X58.05 Y-84.588
X58.036 Y-84.507
G3 X57.544 Y-84.507 I-0.246 J-0.043
G1 X57.53 Y-84.588
X57.526 Y-84.631
X57.524 Y-90.029
G3 X57.774 Y-90.278 I0.25 J0
G1 X57.79
X57.815 Y-90.275 Z-4.993 F200
X57.838 Y-90.266 Z-4.987
X57.866 Y-90.243 Z-4.95
X57.874 Y-90.232 Z-4.9
G0 Z4
X47.968 Y-88.848
G1 Z-2.95 F200
Y-90.69 Z-3.113
X47.975 Y-90.715
X47.993 Y-90.733
X48.018 Y-90.74
X48.043 Y-90.733
X48.061 Y-90.715
X48.068 Y-90.69
Y-85.207 Z-3.599
X48.061 Y-85.182
X48.043 Y-85.164
X48.018 Y-85.157
X47.993 Y-85.164
X47.975 Y-85.182
X47.968 Y-85.207
Y-90.69 Z-4.085
X47.975 Y-90.715
X47.993 Y-90.733
X48.018 Y-90.74
X48.043 Y-90.733
X48.061 Y-90.715
X48.068 Y-90.69
Y-85.207 Z-4.572
X48.061 Y-85.182
X48.043 Y-85.164
X48.018 Y-85.157
X47.993 Y-85.164
X47.975 Y-85.182
X47.968 Y-85.207
Y-90.04 Z-5
X47.972 Y-90.073
X47.985 Y-90.104
X48.132 Y-90.363
G2 X47.904 Y-90.492 I-0.114 J-0.065
X48.018 Y-90.297 I0.114 J0.065
G1 X48.025 F400
G3 X48.275 Y-90.047 I0 J0.25
G1 X48.274 Y-84.628
X48.271 Y-84.586
X48.265 Y-84.551
G3 X47.773 Y-84.551 I-0.246 J-0.043
G1 X47.767 Y-84.586
X47.763 Y-84.628
X47.761 Y-90.047
G3 X48.011 Y-90.297 I0.25 J0
G1 X48.018
X48.043 Y-90.294 Z-4.993 F200
X48.066 Y-90.285 Z-4.987
X48.094 Y-90.262 Z-4.95
X48.102 Y-90.251 Z-4.9
G0 Z4
X0.05 Y-0.075
G1 Z-2.95 F200
Y0.559 Z-3.006
X0.043 Y0.584
X0.025 Y0.602
X0 Y0.609
X-0.025 Y0.602
X-0.043 Y0.584
X-0.05 Y0.559
Y-4.924 Z-3.492
X-0.043 Y-4.949
X-0.025 Y-4.967
X0 Y-4.974
X0.025 Y-4.967
X0.043 Y-4.949
X0.05 Y-4.924
Y0.559 Z-3.978
X0.043 Y0.584
X0.025 Y0.602
X0 Y0.609
X-0.025 Y0.602
X-0.043 Y0.584
X-0.05 Y0.559
Y-4.924 Z-4.464
X-0.043 Y-4.949
X-0.025 Y-4.967
X0 Y-4.974
X0.025 Y-4.967
X0.043 Y-4.949
X0.05 Y-4.924
Y0.559 Z-4.95
X0.043 Y0.584
X0.025 Y0.602
X0 Y0.609
X-0.025 Y0.602
X-0.043 Y0.584
X-0.05 Y0.559
Y-0.001 Z-5
X-0.043 Y-0.04
X-0.023 Y-0.074
X0.007 Y-0.099
X0.044 Y-0.113
X0.084
X0.121 Y-0.099
X0.152 Y-0.074
X0.171 Y-0.04
X0.178 Y-0.001
G3 X-0.178 Y-0.001 I-0.178 J0 F400
X0.178 Y-0.001 I0.178 J0
G2 X0.343 Y0.326 I0.406 J0
G3 X0.313 Y0.69 I-0.128 J0.173
G1 X0.183 Y0.756
X-0.188 Y0.754
X-0.507 Y0.591
X-0.72 Y0.294
X-0.775 Y-0.06
X-0.661 Y-0.412
X-0.25 Y-0.819
X-0.201 Y-0.878
X-0.153 Y-0.951
X-0.127 Y-0.996
X-0.108 Y-1.043
X-0.073 Y-1.155
X-0.059 Y-1.211
X-0.054 Y-1.27
X-0.05 Y-48.795
X8.806 Y-62.134
X9.058 Y-62.514
X57.043 Y-62.518
X57.098 Y-62.522
X57.151 Y-62.533
X57.258 Y-62.566
X57.311 Y-62.586
X57.36 Y-62.614
X57.454 Y-62.677
X57.496 Y-62.71
X57.533 Y-62.749
X57.598 Y-62.827
X57.629 Y-62.872
X57.654 Y-62.921
X57.7 Y-63.03
X57.716 Y-63.076
X57.726 Y-63.123
X57.736 Y-63.195
X57.74 Y-63.248
X57.738 Y-79.322
X57.735 Y-79.366
X57.728 Y-79.409
X57.705 Y-79.505
X57.69 Y-79.552
X57.67 Y-79.596
X57.623 Y-79.683
X57.593 Y-79.729
X57.556 Y-79.771
X57.469 Y-79.857
X57.42 Y-79.898
X57.366 Y-79.929
X57.252 Y-79.983
X57.196 Y-80.005
X57.137 Y-80.017
X57.023 Y-80.031
X56.977 Y-80.033
X47.969
X47.968 Y-83.198
X47.965 Y-83.24
X47.959 Y-83.281
X47.933 Y-83.395
X47.918 Y-83.443
X47.898 Y-83.489
X47.858 Y-83.563
X47.834 Y-83.602
X47.805 Y-83.639
X47.737 Y-83.713
X47.708 Y-83.742
X47.402 Y-84.012
X47.275 Y-84.238
X47.219 Y-84.56
X47.217 Y-90.84
X48.819
X48.818 Y-84.56
X48.762 Y-84.238
X48.634 Y-84.01
X48.296 Y-83.71
X48.265 Y-83.679
X48.237 Y-83.644
X48.176 Y-83.556
X48.148 Y-83.509
X48.127 Y-83.458
X48.092 Y-83.353
X48.079 Y-83.296
X48.074 Y-83.237
X48.069 Y-81.793
X48.072 Y-81.743
X48.087 Y-81.629
X48.1 Y-81.57
X48.122 Y-81.513
X48.178 Y-81.399
X48.207 Y-81.349
X48.244 Y-81.304
X48.317 Y-81.228
X48.356 Y-81.193
X48.4 Y-81.163
X48.49 Y-81.111
X48.54 Y-81.087
X48.593 Y-81.07
X48.708 Y-81.044
X48.75 Y-81.037
X48.792 Y-81.034
X57.015
X57.057 Y-81.037
X57.099 Y-81.044
X57.213 Y-81.07
X57.266 Y-81.086
X57.317 Y-81.11
X57.408 Y-81.163
X57.452 Y-81.193
X57.491 Y-81.228
X57.564 Y-81.304
X57.601 Y-81.349
X57.631 Y-81.399
X57.687 Y-81.513
X57.709 Y-81.57
X57.722 Y-81.629
X57.737 Y-81.743
X57.74 Y-81.793
X57.736 Y-83.199
X57.731 Y-83.256
X57.718 Y-83.312
X57.682 Y-83.426
X57.663 Y-83.473
X57.638 Y-83.517
X57.593 Y-83.587
X57.562 Y-83.628
X57.525 Y-83.665
X57.166 Y-83.977
X57.021 Y-84.237
X56.965 Y-84.561
X56.962 Y-90.84
X58.618
X58.615 Y-84.561
X58.559 Y-84.237
X58.416 Y-83.98
X58.076 Y-83.688
X58.043 Y-83.656
X58.014 Y-83.62
X57.949 Y-83.529
X57.92 Y-83.479
X57.898 Y-83.426
X57.862 Y-83.312
X57.848 Y-83.255
X57.844 Y-83.198
X57.84 Y-62.414
X9.47 Y-62.412
X9.424 Y-62.409
X9.378 Y-62.4
X9.274 Y-62.374
X9.221 Y-62.356
X9.171 Y-62.33
X9.07 Y-62.269
X9.026 Y-62.237
X8.987 Y-62.199
X8.919 Y-62.123
X8.886 Y-62.081
X0.151 Y-48.912
X0.128 Y-48.872
X0.11 Y-48.829
X0.08 Y-48.742
X0.066 Y-48.694
X0.06 Y-48.646
X0.051 Y-48.532
X0.05 Y-48.504
X0.054 Y-1.27
X0.059 Y-1.212
X0.072 Y-1.155
X0.108 Y-1.045
X0.13 Y-0.991
X0.16 Y-0.941
X0.229 Y-0.845
X0.27 Y-0.797
X0.657 Y-0.415
X0.682 Y-0.348
X0.775 Y-0.061
X0.721 Y0.294
X0.504 Y0.592
X0.313 Y0.69
X0.286 Y0.698
X0.258 Y0.695
X0.233 Y0.683
X0.214 Y0.662
X0.205 Y0.636
X0.028 Y-0.437
X0.001 Y-1.58
X0.017 Y-1.635
X0.028 Y-1.646
X0.043 Y-1.643
X0.05 Y-1.63
Y0.559 Z-5.796 F200
X0.043 Y0.584
X0.025 Y0.602
X0 Y0.609
X-0.025 Y0.602
X-0.043 Y0.584
X-0.05 Y0.559
Y-0.001 Z-6
X-0.043 Y-0.04
X-0.023 Y-0.074
X0.007 Y-0.099
X0.044 Y-0.113
X0.084
X0.121 Y-0.099
X0.152 Y-0.074
X0.171 Y-0.04
X0.178 Y-0.001
G3 X-0.178 Y-0.001 I-0.178 J0 F400
X0.178 Y-0.001 I0.178 J0
G1 X0.171 Y0.049 Z-5.987 F200
X0.158 Y0.083 Z-5.95
X0.151 Y0.094 Z-5.9
G0 Z4
X47.968 Y-88.848
G1 Z-3.95 F200
Y-90.69 Z-4.113
X47.975 Y-90.715
X47.993 Y-90.733
X48.018 Y-90.74
X48.043 Y-90.733
X48.061 Y-90.715
X48.068 Y-90.69
Y-85.207 Z-4.599
X48.061 Y-85.182
X48.043 Y-85.164
X48.018 Y-85.157
X47.993 Y-85.164
X47.975 Y-85.182
X47.968 Y-85.207
Y-90.69 Z-5.085
X47.975 Y-90.715
X47.993 Y-90.733
X48.018 Y-90.74
X48.043 Y-90.733
X48.061 Y-90.715
X48.068 Y-90.69
Y-85.207 Z-5.572
X48.061 Y-85.182
X48.043 Y-85.164
X48.018 Y-85.157
X47.993 Y-85.164
X47.975 Y-85.182
X47.968 Y-85.207
Y-90.04 Z-6
X47.972 Y-90.073
X47.985 Y-90.104
X48.132 Y-90.363
G2 X47.904 Y-90.492 I-0.114 J-0.065
X48.018 Y-90.297 I0.114 J0.065
G1 X48.025 F400
G3 X48.275 Y-90.047 I0 J0.25
G1 X48.274 Y-84.628
X48.271 Y-84.586
X48.265 Y-84.551
G3 X47.773 Y-84.551 I-0.246 J-0.043
G1 X47.767 Y-84.586
X47.763 Y-84.628
X47.761 Y-90.047
G3 X48.011 Y-90.297 I0.25 J0
G1 X48.018
X48.043 Y-90.294 Z-5.993 F200
X48.066 Y-90.285 Z-5.987
X48.094 Y-90.262 Z-5.95
X48.102 Y-90.251 Z-5.9
G0 Z4
X57.74 Y-88.82
G1 Z-3.95 F200
Y-90.662 Z-4.113
X57.747 Y-90.687
X57.765 Y-90.705
X57.79 Y-90.712
X57.815 Y-90.705
X57.833 Y-90.687
X57.84 Y-90.662
Y-85.18 Z-4.599
X57.833 Y-85.155
X57.815 Y-85.137
X57.79 Y-85.13
X57.765 Y-85.137
X57.747 Y-85.155
X57.74 Y-85.18
Y-90.662 Z-5.085
X57.747 Y-90.687
X57.765 Y-90.705
X57.79 Y-90.712
X57.815 Y-90.705
X57.833 Y-90.687
X57.84 Y-90.662
Y-85.18 Z-5.572
X57.833 Y-85.155
X57.815 Y-85.137
X57.79 Y-85.13
X57.765 Y-85.137
X57.747 Y-85.155
X57.74 Y-85.18
Y-90.012 Z-6
X57.744 Y-90.047
X57.757 Y-90.079
X57.908 Y-90.347
G2 X57.672 Y-90.48 I-0.118 J-0.066
X57.79 Y-90.278 I0.118 J0.066
G1 X57.806 F400
G3 X58.056 Y-90.029 I0 J0.25
G1 X58.054 Y-84.631
X58.05 Y-84.588
X58.036 Y-84.507
G3 X57.544 Y-84.507 I-0.246 J-0.043
G1 X57.53 Y-84.588
X57.526 Y-84.631
X57.524 Y-90.029
G3 X57.774 Y-90.278 I0.25 J0
G1 X57.79
G2 X58.178 Y-90.512 I0 J-0.438
G3 X58.618 Y-90.404 I0.206 J0.109
G1 X58.615 Y-84.561
X58.559 Y-84.237
X58.416 Y-83.98
X58.076 Y-83.688
X58.043 Y-83.656
X58.014 Y-83.62
X57.949 Y-83.529
X57.92 Y-83.479
X57.898 Y-83.426
X57.862 Y-83.312
X57.848 Y-83.255
X57.844 Y-83.198
X57.84 Y-62.414
X9.47 Y-62.412
X9.424 Y-62.409
X9.378 Y-62.4
X9.274 Y-62.374
X9.221 Y-62.356
X9.171 Y-62.33
X9.07 Y-62.269
X9.026 Y-62.237
X8.987 Y-62.199
X8.919 Y-62.123
X8.886 Y-62.081
X0.151 Y-48.912
X0.128 Y-48.872
X0.11 Y-48.829
X0.08 Y-48.742
X0.066 Y-48.694
X0.06 Y-48.646
X0.051 Y-48.532
X0.05 Y-48.504
X0.054 Y-1.27
X0.059 Y-1.212
X0.072 Y-1.155
X0.108 Y-1.045
X0.13 Y-0.991
X0.16 Y-0.941
X0.229 Y-0.845
X0.27 Y-0.797
X0.657 Y-0.415
X0.682 Y-0.348
X0.775 Y-0.061
X0.721 Y0.294
X0.504 Y0.592
X0.183 Y0.756
X-0.188 Y0.754
X-0.507 Y0.591
X-0.72 Y0.294
X-0.775 Y-0.06
X-0.661 Y-0.412
X-0.25 Y-0.819
X-0.201 Y-0.878
X-0.153 Y-0.951
X-0.127 Y-0.996
X-0.108 Y-1.043
X-0.073 Y-1.155
X-0.059 Y-1.211
X-0.054 Y-1.27
X-0.05 Y-48.795
X8.806 Y-62.134
X9.058 Y-62.514
X57.043 Y-62.518
X57.098 Y-62.522
X57.151 Y-62.533
X57.258 Y-62.566
X57.311 Y-62.586
X57.36 Y-62.614
X57.454 Y-62.677
X57.496 Y-62.71
X57.533 Y-62.749
X57.598 Y-62.827
X57.629 Y-62.872
X57.654 Y-62.921
X57.7 Y-63.03
X57.716 Y-63.076
X57.726 Y-63.123
X57.736 Y-63.195
X57.74 Y-63.248
X57.738 Y-79.322
X57.735 Y-79.366
X57.728 Y-79.409
X57.705 Y-79.505
X57.69 Y-79.552
X57.67 Y-79.596
X57.623 Y-79.683
X57.593 Y-79.729
X57.556 Y-79.771
X57.469 Y-79.857
X57.42 Y-79.898
X57.366 Y-79.929
X57.252 Y-79.983
X57.196 Y-80.005
X57.137 Y-80.017
X57.023 Y-80.031
X56.977 Y-80.033
X47.969
X47.968 Y-83.198
X47.965 Y-83.24
X47.959 Y-83.281
X47.933 Y-83.395
X47.918 Y-83.443
X47.898 Y-83.489
X47.858 Y-83.563
X47.834 Y-83.602
X47.805 Y-83.639
X47.737 Y-83.713
X47.708 Y-83.742
X47.402 Y-84.012
X47.275 Y-84.238
X47.219 Y-84.56
X47.217 Y-90.84
X48.819
X48.818 Y-84.56
X48.762 Y-84.238
X48.634 Y-84.01
X48.296 Y-83.71
X48.265 Y-83.679
X48.237 Y-83.644
X48.176 Y-83.556
X48.148 Y-83.509
X48.127 Y-83.458
X48.092 Y-83.353
X48.079 Y-83.296
X48.074 Y-83.237
X48.069 Y-81.793
X48.072 Y-81.743
X48.087 Y-81.629
X48.1 Y-81.57
X48.122 Y-81.513
X48.178 Y-81.399
X48.207 Y-81.349
X48.244 Y-81.304
X48.317 Y-81.228
X48.356 Y-81.193
X48.4 Y-81.163
X48.49 Y-81.111
X48.54 Y-81.087
X48.593 Y-81.07
X48.708 Y-81.044
X48.75 Y-81.037
X48.792 Y-81.034
X57.015
X57.057 Y-81.037
X57.099 Y-81.044
X57.213 Y-81.07
X57.266 Y-81.086
X57.317 Y-81.11
X57.408 Y-81.163
X57.452 Y-81.193
X57.491 Y-81.228
X57.564 Y-81.304
X57.601 Y-81.349
X57.631 Y-81.399
X57.687 Y-81.513
X57.709 Y-81.57
X57.722 Y-81.629
X57.737 Y-81.743
X57.74 Y-81.793
X57.736 Y-83.199
X57.731 Y-83.256
X57.718 Y-83.312
X57.682 Y-83.426
X57.663 Y-83.473
X57.638 Y-83.517
X57.593 Y-83.587
X57.562 Y-83.628
X57.525 Y-83.665
X57.166 Y-83.977
X57.021 Y-84.237
X56.965 Y-84.561
X56.962 Y-90.84
X58.618
Y-90.404
X58.614 Y-90.379 Z-5.993 F200
X58.605 Y-90.356 Z-5.987
X58.582 Y-90.327 Z-5.95
X58.572 Y-90.319 Z-5.9
G0 Z4
X41.647 Y-88.821
Z1.05
G1 Y-90.663 Z0.887 F200
X41.654 Y-90.688
X41.672 Y-90.706
X41.697 Y-90.713
X41.722 Y-90.706
X41.74 Y-90.688
X41.747 Y-90.663
Y-85.18 Z0.401
X41.74 Y-85.155
X41.722 Y-85.137
X41.697 Y-85.13
X41.672 Y-85.137
X41.654 Y-85.155
X41.647 Y-85.18
Y-90.663 Z-0.085
X41.654 Y-90.688
X41.672 Y-90.706
X41.697 Y-90.713
X41.722 Y-90.706
X41.74 Y-90.688
X41.747 Y-90.663
Y-85.18 Z-0.572
X41.74 Y-85.155
X41.722 Y-85.137
X41.697 Y-85.13
X41.672 Y-85.137
X41.654 Y-85.155
X41.647 Y-85.18
Y-90.013 Z-1
X41.651 Y-90.047
X41.664 Y-90.079
X41.815 Y-90.348
G2 X41.579 Y-90.48 I-0.118 J-0.066
X41.697 Y-90.279 I0.118 J0.066
G1 X41.713 F400
G3 X41.963 Y-90.029 I0 J0.25
G1 X41.961 Y-84.631
X41.957 Y-84.588
X41.943 Y-84.507
G3 X41.451 Y-84.507 I-0.246 J-0.043
G1 X41.437 Y-84.588
X41.433 Y-84.631
X41.431 Y-90.029
G3 X41.681 Y-90.279 I0.25 J0
G1 X41.697
X41.722 Y-90.276 Z-0.993 F200
X41.745 Y-90.267 Z-0.987
X41.773 Y-90.244 Z-0.95
X41.781 Y-90.233 Z-0.9
G0 Z4
X32.468 Y-88.848
Z1.05
G1 Y-90.69 Z0.887 F200
X32.475 Y-90.715
X32.493 Y-90.733
X32.518 Y-90.74
X32.543 Y-90.733
X32.561 Y-90.715
X32.568 Y-90.69
Y-85.207 Z0.401
X32.561 Y-85.182
X32.543 Y-85.164
X32.518 Y-85.157
X32.493 Y-85.164
X32.475 Y-85.182
X32.468 Y-85.207
Y-90.69 Z-0.085
X32.475 Y-90.715
X32.493 Y-90.733
X32.518 Y-90.74
X32.543 Y-90.733
X32.561 Y-90.715
X32.568 Y-90.69
Y-85.207 Z-0.572
X32.561 Y-85.182
X32.543 Y-85.164
X32.518 Y-85.157
X32.493 Y-85.164
X32.475 Y-85.182
X32.468 Y-85.207
Y-90.04 Z-1
X32.472 Y-90.073
X32.485 Y-90.104
X32.632 Y-90.363
G2 X32.404 Y-90.492 I-0.114 J-0.065
X32.518 Y-90.297 I0.114 J0.065
G1 X32.525 F400
G3 X32.775 Y-90.047 I0 J0.25
G1 X32.774 Y-84.628
X32.771 Y-84.586
X32.765 Y-84.551
G3 X32.273 Y-84.551 I-0.246 J-0.043
G1 X32.267 Y-84.586
X32.263 Y-84.628
X32.261 Y-90.047
G3 X32.511 Y-90.297 I0.25 J0
G1 X32.518
X32.543 Y-90.294 Z-0.993 F200
X32.566 Y-90.285 Z-0.987
X32.594 Y-90.262 Z-0.95
X32.602 Y-90.251 Z-0.9
G0 Z4
X-0.955 Y-75.68
Z1.05
G1 X2.054 Z0.646 F200
X2.079 Y-75.673
X2.098 Y-75.655
X2.104 Y-75.63
X2.098 Y-75.605
X2.079 Y-75.586
X2.054 Y-75.58
X-1.51 Z0.167
X-1.535 Y-75.586
X-1.553 Y-75.605
X-1.56 Y-75.63
X-1.553 Y-75.655
X-1.535 Y-75.673
X-1.51 Y-75.68
X2.054 Z-0.312
X2.079 Y-75.673
X2.098 Y-75.655
X2.104 Y-75.63
X2.098 Y-75.605
X2.079 Y-75.586
X2.054 Y-75.58
X-1.51 Z-0.791
X-1.535 Y-75.586
X-1.553 Y-75.605
X-1.56 Y-75.63
X-1.553 Y-75.655
X-1.535 Y-75.673
X-1.51 Y-75.68
X0.046 Z-1
X0.092 Y-75.674
X0.137 Y-75.658
X0.569 Y-75.445
G2 X0.752 Y-75.814 I0.091 J-0.185
X0.454 Y-75.63 I-0.091 J0.185
G3 X-0.363 Y-75.63 I-0.409 J0 F400
X0.454 Y-75.63 I0.409 J0
X0.269 Y-74.546 I-3.26 J0
X-0.742 Y-74.115 I-0.703 J-0.248
G1 X-0.958 Y-74.214
X-1.408 Y-74.681
X-1.657 Y-75.293
X-1.665 Y-75.932
X-1.528 Y-76.294
X-1.435 Y-76.538
X-1.002 Y-77.014
X-0.407 Y-77.304
X0.217 Y-77.356
X0.453 Y-77.289
X0.843 Y-77.171
X1.361 Y-76.762
X1.79 Y-76.033
X1.822 Y-75.986
X1.861 Y-75.945
X1.943 Y-75.87
X1.99 Y-75.834
X2.042 Y-75.806
X2.156 Y-75.755
X2.204 Y-75.737
X2.253 Y-75.727
X2.33 Y-75.715
X2.385 Y-75.711
X40.95 Y-75.714
X41.006 Y-75.718
X41.061 Y-75.731
X41.175 Y-75.767
X41.229 Y-75.788
X41.279 Y-75.818
X41.372 Y-75.882
X41.414 Y-75.917
X41.45 Y-75.957
X41.515 Y-76.039
X41.543 Y-76.08
X41.566 Y-76.124
X41.603 Y-76.211
X41.62 Y-76.26
X41.63 Y-76.311
X41.644 Y-76.425
X41.647 Y-76.472
X41.645 Y-79.322
X41.642 Y-79.368
X41.634 Y-79.413
X41.608 Y-79.516
X41.595 Y-79.559
X41.576 Y-79.599
X41.542 Y-79.664
X41.518 Y-79.703
X41.49 Y-79.739
X41.417 Y-79.821
X41.382 Y-79.856
X41.342 Y-79.885
X41.269 Y-79.933
X41.224 Y-79.958
X41.175 Y-79.977
X41.061 Y-80.013
X41.006 Y-80.025
X40.95 Y-80.03
X32.469 Y-80.033
X32.468 Y-83.198
X32.465 Y-83.24
X32.459 Y-83.281
X32.433 Y-83.395
X32.417 Y-83.447
X32.394 Y-83.496
X32.344 Y-83.585
X32.315 Y-83.628
X32.28 Y-83.668
X32.19 Y-83.756
X32.173 Y-83.772
X31.916 Y-83.994
X31.775 Y-84.24
X31.719 Y-84.56
X31.717 Y-90.84
X33.322
X33.319 Y-90.777
Y-90.76
X33.318 Y-84.56
X33.262 Y-84.239
X33.121 Y-83.994
X32.785 Y-83.697
X32.744 Y-83.656
X32.711 Y-83.609
X32.649 Y-83.505
X32.622 Y-83.452
X32.604 Y-83.395
X32.579 Y-83.281
X32.572 Y-83.24
X32.569 Y-83.198
X32.57 Y-81.754
X32.572 Y-81.71
X32.58 Y-81.667
X32.607 Y-81.553
X32.623 Y-81.504
X32.645 Y-81.457
X32.687 Y-81.381
X32.713 Y-81.341
X32.744 Y-81.304
X32.817 Y-81.228
X32.858 Y-81.192
X32.903 Y-81.162
X32.999 Y-81.107
X33.05 Y-81.083
X33.105 Y-81.067
X33.219 Y-81.042
X33.258 Y-81.036
X33.298 Y-81.034
X40.95 Y-81.037
X41.006 Y-81.041
X41.061 Y-81.054
X41.175 Y-81.089
X41.221 Y-81.107
X41.264 Y-81.13
X41.328 Y-81.171
X41.365 Y-81.197
X41.398 Y-81.228
X41.472 Y-81.304
X41.509 Y-81.349
X41.538 Y-81.399
X41.594 Y-81.513
X41.616 Y-81.57
X41.629 Y-81.629
X41.644 Y-81.743
X41.647 Y-81.793
X41.643 Y-83.199
X41.639 Y-83.256
X41.625 Y-83.312
X41.589 Y-83.426
X41.567 Y-83.479
X41.538 Y-83.529
X41.474 Y-83.619
X41.445 Y-83.655
X41.412 Y-83.687
X41.08 Y-83.972
X40.998 Y-84.107
X40.929 Y-84.235
X40.872 Y-84.561
X40.869 Y-90.84
X42.525
X42.522 Y-84.561
X42.466 Y-84.237
X42.322 Y-83.978
X41.962 Y-83.665
X41.919 Y-83.621
X41.884 Y-83.57
X41.821 Y-83.462
X41.795 Y-83.407
X41.778 Y-83.349
X41.755 Y-83.235
X41.747 Y-83.16
Y-75.61
X2.385 Y-75.609
X2.343 Y-75.606
X2.3 Y-75.599
X2.208 Y-75.577
X2.16 Y-75.562
X2.114 Y-75.541
X2.021 Y-75.491
X1.975 Y-75.462
X1.934 Y-75.426
X1.855 Y-75.346
X1.821 Y-75.307
X1.793 Y-75.263
X1.391 Y-74.534
X0.89 Y-74.114
X0.88 Y-74.109
X0.263 Y-73.909
X-0.364 Y-73.944
X-0.742 Y-74.115
X-0.764 Y-74.131
X-0.779 Y-74.153
X-0.785 Y-74.179
X-0.782 Y-74.205
X-0.371 Y-75.581
X-0.39 Y-75.634
X-0.392 Y-75.668
X-0.379 Y-75.699
X-0.353 Y-75.721
X-0.32 Y-75.73
X-0.287 Y-75.723
X-0.261 Y-75.703
X-0.245 Y-75.673
Y-75.639
X-0.259 Y-75.608
X-0.285 Y-75.587
X-0.318 Y-75.58
X-1.51 Z-1.434 F200
X-1.535 Y-75.586
X-1.553 Y-75.605
X-1.56 Y-75.63
X-1.553 Y-75.655
X-1.535 Y-75.673
X-1.51 Y-75.68
X0.046 Z-2
X0.092 Y-75.674
X0.137 Y-75.658
X0.569 Y-75.445
G2 X0.752 Y-75.814 I0.091 J-0.185
X0.454 Y-75.63 I-0.091 J0.185
G3 X-0.363 Y-75.63 I-0.409 J0 F400
X0.454 Y-75.63 I0.409 J0
G1 X0.451 Y-75.58 Z-1.987 F200
X0.445 Y-75.544 Z-1.95
X0.442 Y-75.531 Z-1.9
G0 Z4
X32.468 Y-88.848
Z0.05
G1 Y-90.69 Z-0.113 F200
X32.475 Y-90.715
X32.493 Y-90.733
X32.518 Y-90.74
X32.543 Y-90.733
X32.561 Y-90.715
X32.568 Y-90.69
Y-85.207 Z-0.599
X32.561 Y-85.182
X32.543 Y-85.164
X32.518 Y-85.157
X32.493 Y-85.164
X32.475 Y-85.182
X32.468 Y-85.207
Y-90.69 Z-1.085
X32.475 Y-90.715
X32.493 Y-90.733
X32.518 Y-90.74
X32.543 Y-90.733
X32.561 Y-90.715
X32.568 Y-90.69
Y-85.207 Z-1.572
X32.561 Y-85.182
X32.543 Y-85.164
X32.518 Y-85.157
X32.493 Y-85.164
X32.475 Y-85.182
X32.468 Y-85.207
Y-90.04 Z-2
X32.472 Y-90.073
X32.485 Y-90.104
X32.632 Y-90.363
G2 X32.404 Y-90.492 I-0.114 J-0.065
X32.518 Y-90.297 I0.114 J0.065
G1 X32.525 F400
G3 X32.775 Y-90.047 I0 J0.25
G1 X32.774 Y-84.628
X32.771 Y-84.586
X32.765 Y-84.551
G3 X32.273 Y-84.551 I-0.246 J-0.043
G1 X32.267 Y-84.586
X32.263 Y-84.628
X32.261 Y-90.047
G3 X32.511 Y-90.297 I0.25 J0
G1 X32.518
X32.543 Y-90.294 Z-1.993 F200
X32.566 Y-90.285 Z-1.987
X32.594 Y-90.262 Z-1.95
X32.602 Y-90.251 Z-1.9
G0 Z4
X41.647 Y-88.821
Z0.05
G1 Y-90.663 Z-0.113 F200
X41.654 Y-90.688
X41.672 Y-90.706
X41.697 Y-90.713
X41.722 Y-90.706
X41.74 Y-90.688
X41.747 Y-90.663
Y-85.18 Z-0.599
X41.74 Y-85.155
X41.722 Y-85.137
X41.697 Y-85.13
X41.672 Y-85.137
X41.654 Y-85.155
X41.647 Y-85.18
Y-90.663 Z-1.085
X41.654 Y-90.688
X41.672 Y-90.706
X41.697 Y-90.713
X41.722 Y-90.706
X41.74 Y-90.688
X41.747 Y-90.663
Y-85.18 Z-1.572
X41.74 Y-85.155
X41.722 Y-85.137
X41.697 Y-85.13
X41.672 Y-85.137
X41.654 Y-85.155
X41.647 Y-85.18
Y-90.013 Z-2
X41.651 Y-90.047
X41.664 Y-90.079
X41.815 Y-90.348
G2 X41.579 Y-90.48 I-0.118 J-0.066
X41.697 Y-90.279 I0.118 J0.066
G1 X41.713 F400
G3 X41.963 Y-90.029 I0 J0.25
G1 X41.961 Y-84.631
X41.957 Y-84.588
X41.943 Y-84.507
G3 X41.451 Y-84.507 I-0.246 J-0.043
G1 X41.437 Y-84.588
X41.433 Y-84.631
X41.431 Y-90.029
G3 X41.681 Y-90.279 I0.25 J0
G1 X41.697
G2 X42.085 Y-90.513 I0 J-0.438
G3 X42.525 Y-90.405 I0.207 J0.108
G1 X42.522 Y-84.561
X42.466 Y-84.237
X42.322 Y-83.978
X41.962 Y-83.665
X41.919 Y-83.621
X41.884 Y-83.57
X41.821 Y-83.462
X41.795 Y-83.407
X41.778 Y-83.349
X41.755 Y-83.235
X41.747 Y-83.16
Y-75.61
X2.385 Y-75.609
X2.343 Y-75.606
X2.3 Y-75.599
X2.208 Y-75.577
X2.16 Y-75.562
X2.114 Y-75.541
X2.021 Y-75.491
X1.975 Y-75.462
X1.934 Y-75.426
X1.855 Y-75.346
X1.821 Y-75.307
X1.793 Y-75.263
X1.391 Y-74.534
X0.89 Y-74.114
X0.88 Y-74.109
X0.263 Y-73.909
X-0.364 Y-73.944
X-0.958 Y-74.214
X-1.408 Y-74.681
X-1.657 Y-75.293
X-1.665 Y-75.932
X-1.528 Y-76.294
X-1.435 Y-76.538
X-1.002 Y-77.014
X-0.407 Y-77.304
X0.217 Y-77.356
X0.453 Y-77.289
X0.843 Y-77.171
X1.361 Y-76.762
X1.79 Y-76.033
X1.822 Y-75.986
X1.861 Y-75.945
X1.943 Y-75.87
X1.99 Y-75.834
X2.042 Y-75.806
X2.156 Y-75.755
X2.204 Y-75.737
X2.253 Y-75.727
X2.33 Y-75.715
X2.385 Y-75.711
X40.95 Y-75.714
X41.006 Y-75.718
X41.061 Y-75.731
X41.175 Y-75.767
X41.229 Y-75.788
X41.279 Y-75.818
X41.372 Y-75.882
X41.414 Y-75.917
X41.45 Y-75.957
X41.515 Y-76.039
X41.543 Y-76.08
X41.566 Y-76.124
X41.603 Y-76.211
X41.62 Y-76.26
X41.63 Y-76.311
X41.644 Y-76.425
X41.647 Y-76.472
X41.645 Y-79.322
X41.642 Y-79.368
X41.634 Y-79.413
X41.608 Y-79.516
X41.595 Y-79.559
X41.576 Y-79.599
X41.542 Y-79.664
X41.518 Y-79.703
X41.49 Y-79.739
X41.417 Y-79.821
X41.382 Y-79.856
X41.342 Y-79.885
X41.269 Y-79.933
X41.224 Y-79.958
X41.175 Y-79.977
X41.061 Y-80.013
X41.006 Y-80.025
X40.95 Y-80.03
X32.469 Y-80.033
X32.468 Y-83.198
X32.465 Y-83.24
X32.459 Y-83.281
X32.433 Y-83.395
X32.417 Y-83.447
X32.394 Y-83.496
X32.344 Y-83.585
X32.315 Y-83.628
X32.28 Y-83.668
X32.19 Y-83.756
X32.173 Y-83.772
X31.916 Y-83.994
X31.775 Y-84.24
X31.719 Y-84.56
X31.717 Y-90.84
X33.322
X33.319 Y-90.777
Y-90.76
X33.318 Y-84.56
X33.262 Y-84.239
X33.121 Y-83.994
X32.785 Y-83.697
X32.744 Y-83.656
X32.711 Y-83.609
X32.649 Y-83.505
X32.622 Y-83.452
X32.604 Y-83.395
X32.579 Y-83.281
X32.572 Y-83.24
X32.569 Y-83.198
X32.57 Y-81.754
X32.572 Y-81.71
X32.58 Y-81.667
X32.607 Y-81.553
X32.623 Y-81.504
X32.645 Y-81.457
X32.687 Y-81.381
X32.713 Y-81.341
X32.744 Y-81.304
X32.817 Y-81.228
X32.858 Y-81.192
X32.903 Y-81.162
X32.999 Y-81.107
X33.05 Y-81.083
