(1001)
(T4  D=3 CR=0 - ZMIN=-11.1 - flat end mill)
G90 G94
G17
G21

(Drill2 2)
T4
S15000 M3
G54
M8
G0 X0 Y0
Z13.4
Z11.4
Z1
G1 Z-3 F333.3
G0 Z1
Z-1
G1 Z-5 F333.3
G0 Z1
Z-3
G1 Z-7 F333.3
G0 Z1
Z-5
G1 Z-9 F333.3
G0 Z1
Z-7
G1 Z-11 F333.3
G0 Z1
Z-9
G1 Z-11.1 F333.3
G0 Z11.4
X0.045 Y75.63
Z1
G1 Z-3 F333.3
G0 Z1
Z-1
G1 Z-5 F333.3
G0 Z1
Z-3
G1 Z-7 F333.3
G0 Z1
Z-5
G1 Z-9 F333.3
G0 Z1
Z-7
G1 Z-11 F333.3
G0 Z1
Z-9
G1 Z-11.1 F333.3
G0 Z11.4
X6.454 Y16.637
Z5.5
G1 Z1.5 F333.3
G0 Z5.5
Z3.5
G1 Z-0.5 F333.3
G0 Z5.5
Z1.5
G1 Z-2.5 F333.3
G0 Z5.5
Z-0.5
G1 Z-4.5 F333.3
G0 Z5.5
Z-2.5
G1 Z-6.5 F333.3
G0 Z5.5
Z-4.5
G1 Z-8.5 F333.3
G0 Z5.5
Z-6.5
G1 Z-10.5 F333.3
G0 Z5.5
Z-8.5
G1 Z-11.1 F333.3
G0 Z11.4
Y21.737
Z5.5
G1 Z1.5 F333.3
G0 Z5.5
Z3.5
G1 Z-0.5 F333.3
G0 Z5.5
Z1.5
G1 Z-2.5 F333.3
G0 Z5.5
Z-0.5
G1 Z-4.5 F333.3
G0 Z5.5
Z-2.5
G1 Z-6.5 F333.3
G0 Z5.5
Z-4.5
G1 Z-8.5 F333.3
G0 Z5.5
Z-6.5
G1 Z-10.5 F333.3
G0 Z5.5
Z-8.5
G1 Z-11.1 F333.3
G0 Z11.4
X21.512 Y21.644
Z5.5
G1 Z1.5 F333.3
G0 Z5.5
Z3.5
G1 Z-0.5 F333.3
G0 Z5.5
Z1.5
G1 Z-2.5 F333.3
G0 Z5.5
Z-0.5
G1 Z-4.5 F333.3
G0 Z5.5
Z-2.5
G1 Z-6.5 F333.3
G0 Z5.5
Z-4.5
G1 Z-8.5 F333.3
G0 Z5.5
Z-6.5
G1 Z-10.5 F333.3
G0 Z5.5
Z-8.5
G1 Z-11.1 F333.3
G0 Z11.4
Y16.544
Z5.5
G1 Z1.5 F333.3
G0 Z5.5
Z3.5
G1 Z-0.5 F333.3
G0 Z5.5
Z1.5
G1 Z-2.5 F333.3
G0 Z5.5
Z-0.5
G1 Z-4.5 F333.3
G0 Z5.5
Z-2.5
G1 Z-6.5 F333.3
G0 Z5.5
Z-4.5
G1 Z-8.5 F333.3
G0 Z5.5
Z-6.5
G1 Z-10.5 F333.3
G0 Z5.5
Z-8.5
G1 Z-11.1 F333.3
G0 Z11.4
X42.57 Y42.546
Z5.5
G1 Z1.5 F333.3
G0 Z5.5
Z3.5
G1 Z-0.5 F333.3
G0 Z5.5
Z1.5
G1 Z-2.5 F333.3
G0 Z5.5
Z-0.5
G1 Z-4.5 F333.3
G0 Z5.5
Z-2.5
G1 Z-6.5 F333.3
G0 Z5.5
Z-4.5
G1 Z-8.5 F333.3
G0 Z5.5
Z-6.5
G1 Z-10.5 F333.3
G0 Z5.5
Z-8.5
G1 Z-11.1 F333.3
G0 Z11.4
Y47.646
Z5.5
G1 Z1.5 F333.3
G0 Z5.5
Z3.5
G1 Z-0.5 F333.3
G0 Z5.5
Z1.5
G1 Z-2.5 F333.3
G0 Z5.5
Z-0.5
G1 Z-4.5 F333.3
G0 Z5.5
Z-2.5
G1 Z-6.5 F333.3
G0 Z5.5
Z-4.5
G1 Z-8.5 F333.3
G0 Z5.5
Z-6.5
G1 Z-10.5 F333.3
G0 Z5.5
Z-8.5
G1 Z-11.1 F333.3
G0 Z11.4
X121.468 Y41.652
Z5.5
G1 Z1.5 F333.3
G0 Z5.5
Z3.5
G1 Z-0.5 F333.3
G0 Z5.5
Z1.5
G1 Z-2.5 F333.3
G0 Z5.5
Z-0.5
G1 Z-4.5 F333.3
G0 Z5.5
Z-2.5
G1 Z-6.5 F333.3
G0 Z5.5
Z-4.5
G1 Z-8.5 F333.3
G0 Z5.5
Z-6.5
G1 Z-10.5 F333.3
G0 Z5.5
Z-8.5
G1 Z-11.1 F333.3
G0 Z11.4
Y36.552
Z5.5
G1 Z1.5 F333.3
G0 Z5.5
Z3.5
G1 Z-0.5 F333.3
G0 Z5.5
Z1.5
G1 Z-2.5 F333.3
G0 Z5.5
Z-0.5
G1 Z-4.5 F333.3
G0 Z5.5
Z-2.5
G1 Z-6.5 F333.3
G0 Z5.5
Z-4.5
G1 Z-8.5 F333.3
G0 Z5.5
Z-6.5
G1 Z-10.5 F333.3
G0 Z5.5
Z-8.5
G1 Z-11.1 F333.3
G0 Z11.4
X139.468
Z5.5
G1 Z1.5 F333.3
G0 Z5.5
Z3.5
G1 Z-0.5 F333.3
G0 Z5.5
Z1.5
G1 Z-2.5 F333.3
G0 Z5.5
Z-0.5
G1 Z-4.5 F333.3
G0 Z5.5
Z-2.5
G1 Z-6.5 F333.3
G0 Z5.5
Z-4.5
G1 Z-8.5 F333.3
G0 Z5.5
Z-6.5
G1 Z-10.5 F333.3
G0 Z5.5
Z-8.5
G1 Z-11.1 F333.3
G0 Z11.4
Y41.652
Z5.5
G1 Z1.5 F333.3
G0 Z5.5
Z3.5
G1 Z-0.5 F333.3
G0 Z5.5
Z1.5
G1 Z-2.5 F333.3
G0 Z5.5
Z-0.5
G1 Z-4.5 F333.3
G0 Z5.5
Z-2.5
G1 Z-6.5 F333.3
G0 Z5.5
Z-4.5
G1 Z-8.5 F333.3
G0 Z5.5
Z-6.5
G1 Z-10.5 F333.3
G0 Z5.5
Z-8.5
G1 Z-11.1 F333.3
G0 Z11.4
X142.076 Y-0.187
Z1
G1 Z-3 F333.3
G0 Z1
Z-1
G1 Z-5 F333.3
G0 Z1
Z-3
G1 Z-7 F333.3
G0 Z1
Z-5
G1 Z-9 F333.3
G0 Z1
Z-7
G1 Z-11 F333.3
G0 Z1
Z-9
G1 Z-11.1 F333.3
G0 Z11.4
X151.838 Y75.633
Z1
G1 Z-3 F333.3
G0 Z1
Z-1
G1 Z-5 F333.3
G0 Z1
Z-3
G1 Z-7 F333.3
G0 Z1
Z-5
G1 Z-9 F333.3
G0 Z1
Z-7
G1 Z-11 F333.3
G0 Z1
Z-9
G1 Z-11.1 F333.3
G0 Z11.4
X157.494 Y41.652
Z5.5
G1 Z1.5 F333.3
G0 Z5.5
Z3.5
G1 Z-0.5 F333.3
G0 Z5.5
Z1.5
G1 Z-2.5 F333.3
G0 Z5.5
Z-0.5
G1 Z-4.5 F333.3
G0 Z5.5
Z-2.5
G1 Z-6.5 F333.3
G0 Z5.5
Z-4.5
G1 Z-8.5 F333.3
G0 Z5.5
Z-6.5
G1 Z-10.5 F333.3
G0 Z5.5
Z-8.5
G1 Z-11.1 F333.3
G0 Z11.4
Y36.552
Z5.5
G1 Z1.5 F333.3
G0 Z5.5
Z3.5
G1 Z-0.5 F333.3
G0 Z5.5
Z1.5
G1 Z-2.5 F333.3
G0 Z5.5
Z-0.5
G1 Z-4.5 F333.3
G0 Z5.5
Z-2.5
G1 Z-6.5 F333.3
G0 Z5.5
Z-4.5
G1 Z-8.5 F333.3
G0 Z5.5
Z-6.5
G1 Z-10.5 F333.3
G0 Z5.5
Z-8.5
G1 Z-11.1 F333.3
G0 Z11.4
Z13.4
M9
M5
M30
