(1001)
(T4  D=3 CR=0 - ZMIN=-18 - flat end mill)
G90 G94
G17
G21

(2D Pocket1)
T4
S15000 M3
G54
M8
G0 X4.713 Y30.132
Z6
Z2
G1 Z-1 F700
X4.695 Y30.117
G2 X2.645 Y29.297 I-2.382 J2.981
G1 X-0.222 Y29.05
G2 X-0.284 Y29.445 I-0.017 J0.199
G1 X11.335 Y32.084
G3 X11.29 Y32.479 I-0.044 J0.195
G1 X7.186
G3 X6.413 Y32.118 I0 J-1.009
G1 X6.356 Y32.051
G3 X6.529 Y31.724 I0.154 J-0.128
G1 X24.021 Y33.374
G3 X24.196 Y33.621 I-0.019 J0.199
G1 X23.921 Y34.75
X5.656
X3.461 Y32.134
G2 X2.443 Y31.604 I-1.149 J0.964
G1 X0.503 Y31.434
X-0.738 Y31.326
G3 X-0.737 Y30.927 I0.017 J-0.199
G1 X4.604 Y30.487
G2 X4.713 Y30.132 I-0.016 J-0.199
G1 Z-2
X4.695 Y30.117
G2 X2.645 Y29.297 I-2.382 J2.981
G1 X-0.222 Y29.05
G2 X-0.284 Y29.445 I-0.017 J0.199
G1 X11.335 Y32.084
G3 X11.29 Y32.479 I-0.044 J0.195
G1 X7.186
G3 X6.413 Y32.118 I0 J-1.009
G1 X6.356 Y32.051
G3 X6.529 Y31.724 I0.154 J-0.128
G1 X24.021 Y33.374
G3 X24.196 Y33.621 I-0.019 J0.199
G1 X23.921 Y34.75
X5.656
X3.461 Y32.134
G2 X2.443 Y31.604 I-1.149 J0.964
G1 X0.503 Y31.434
X-0.738 Y31.326
G3 X-0.737 Y30.927 I0.017 J-0.199
G1 X4.604 Y30.487
G2 X4.713 Y30.132 I-0.016 J-0.199
G1 Z-2.571
X4.695 Y30.117
G2 X2.645 Y29.297 I-2.382 J2.981
G1 X-0.222 Y29.05
G2 X-0.284 Y29.445 I-0.017 J0.199
G1 X11.335 Y32.084
G3 X11.29 Y32.479 I-0.044 J0.195
G1 X7.186
G3 X6.413 Y32.118 I0 J-1.009
G1 X6.356 Y32.051
G3 X6.529 Y31.724 I0.154 J-0.128
G1 X24.021 Y33.374
G3 X24.196 Y33.621 I-0.019 J0.199
G1 X23.921 Y34.75
X5.656
X3.461 Y32.134
G2 X2.443 Y31.604 I-1.149 J0.964
G1 X0.503 Y31.434
X-0.738 Y31.326
G0 Z6
X5.647 Y27.413
Z2
G1 Z-1 F700
X5.631 Y27.396
G2 X3.552 Y26.278 I-2.733 J2.589
G1 X0.667 Y25.774
G2 X0.574 Y26.162 I-0.034 J0.197
G1 X12.544 Y29.862
G3 X12.468 Y30.252 I-0.059 J0.191
G1 X7.779 Y29.842
G3 X7.04 Y29.416 I0.088 J-1.005
G1 X6.947 Y29.281
G3 X7.148 Y28.971 I0.165 J-0.113
G1 X24.501 Y32.15
G3 X24.654 Y32.41 I-0.036 J0.197
G1 X24.281 Y33.514
X6.085 Y31.923
X4.127 Y29.125
G2 X3.158 Y28.508 I-1.229 J0.86
G1 X1.24 Y28.17
X0.014 Y27.954
G3 X0.056 Y27.557 I0.035 J-0.197
G1 X5.495 Y27.751
G2 X5.647 Y27.413 I0.007 J-0.2
G1 Z-2
X5.631 Y27.396
G2 X3.552 Y26.278 I-2.733 J2.589
G1 X0.667 Y25.774
G2 X0.574 Y26.162 I-0.034 J0.197
G1 X12.544 Y29.862
G3 X12.468 Y30.252 I-0.059 J0.191
G1 X7.779 Y29.842
G3 X7.04 Y29.416 I0.088 J-1.005
G1 X6.947 Y29.281
G3 X7.148 Y28.971 I0.165 J-0.113
G1 X24.501 Y32.15
G3 X24.654 Y32.41 I-0.036 J0.197
G1 X24.281 Y33.514
X6.085 Y31.923
X4.127 Y29.125
G2 X3.158 Y28.508 I-1.229 J0.86
G1 X1.24 Y28.17
X0.014 Y27.954
G3 X0.056 Y27.557 I0.035 J-0.197
G1 X5.495 Y27.751
G2 X5.647 Y27.413 I0.007 J-0.2
G1 Z-3
X5.631 Y27.396
G2 X3.552 Y26.278 I-2.733 J2.589
G1 X0.667 Y25.774
G2 X0.574 Y26.162 I-0.034 J0.197
G1 X12.544 Y29.862
G3 X12.468 Y30.252 I-0.059 J0.191
G1 X7.779 Y29.842
G3 X7.04 Y29.416 I0.088 J-1.005
G1 X6.947 Y29.281
G3 X7.148 Y28.971 I0.165 J-0.113
G1 X24.501 Y32.15
G3 X24.654 Y32.41 I-0.036 J0.197
G1 X24.281 Y33.514
X6.085 Y31.923
X4.127 Y29.125
G2 X3.158 Y28.508 I-1.229 J0.86
G1 X1.24 Y28.17
X0.014 Y27.954
G3 X0.056 Y27.557 I0.035 J-0.197
G1 X5.495 Y27.751
G2 X5.647 Y27.413 I0.007 J-0.2
G1 Z-4
X5.631 Y27.396
G2 X3.552 Y26.278 I-2.733 J2.589
G1 X0.667 Y25.774
G2 X0.574 Y26.162 I-0.034 J0.197
G1 X12.544 Y29.862
G3 X12.468 Y30.252 I-0.059 J0.191
G1 X7.779 Y29.842
G3 X7.04 Y29.416 I0.088 J-1.005
G1 X6.947 Y29.281
G3 X7.148 Y28.971 I0.165 J-0.113
G1 X24.501 Y32.15
G3 X24.654 Y32.41 I-0.036 J0.197
G1 X24.281 Y33.514
X6.085 Y31.923
X4.127 Y29.125
G2 X3.158 Y28.508 I-1.229 J0.86
G1 X1.24 Y28.17
X0.014 Y27.954
G3 X0.056 Y27.557 I0.035 J-0.197
G1 X5.495 Y27.751
G2 X5.647 Y27.413 I0.007 J-0.2
G1 Z-4.571
X5.631 Y27.396
G2 X3.552 Y26.278 I-2.733 J2.589
G1 X0.667 Y25.774
G2 X0.574 Y26.162 I-0.034 J0.197
G1 X12.544 Y29.862
G3 X12.468 Y30.252 I-0.059 J0.191
G1 X7.779 Y29.842
G3 X7.04 Y29.416 I0.088 J-1.005
G1 X6.947 Y29.281
G3 X7.148 Y28.971 I0.165 J-0.113
G1 X24.501 Y32.15
G3 X24.654 Y32.41 I-0.036 J0.197
G1 X24.281 Y33.514
X6.085 Y31.923
X4.127 Y29.125
G2 X3.158 Y28.508 I-1.229 J0.86
G1 X1.24 Y28.17
X0.014 Y27.954
G3 X0.056 Y27.557 I0.035 J-0.197
G1 X5.495 Y27.751
G2 X5.647 Y27.413 I0.007 J-0.2
G1 Z-5.143
X5.631 Y27.396
G2 X3.552 Y26.278 I-2.733 J2.589
G1 X0.667 Y25.774
G2 X0.574 Y26.162 I-0.034 J0.197
G1 X12.544 Y29.862
G3 X12.468 Y30.252 I-0.059 J0.191
G1 X7.779 Y29.842
G3 X7.04 Y29.416 I0.088 J-1.005
G1 X6.947 Y29.281
G3 X7.148 Y28.971 I0.165 J-0.113
G1 X24.501 Y32.15
G3 X24.654 Y32.41 I-0.036 J0.197
G1 X24.281 Y33.514
X6.085 Y31.923
X4.127 Y29.125
G2 X3.158 Y28.508 I-1.229 J0.86
G1 X1.24 Y28.17
X0.014 Y27.954
G0 Z6
X6.829 Y24.857
Z2
G1 Z-1 F700
X6.815 Y24.838
G2 X4.714 Y23.35 I-3.063 J2.098
G1 X1.9 Y22.601
G2 X1.775 Y22.98 I-0.051 J0.193
G1 X13.95 Y27.808
G3 X13.841 Y28.191 I-0.074 J0.186
G1 X8.594 Y27.266
G3 X7.896 Y26.777 I0.175 J-0.994
G1 X7.776 Y26.567
G3 X8.003 Y26.276 I0.174 J-0.098
G1 X25.085 Y30.973
G3 X25.215 Y31.246 I-0.053 J0.193
G1 X24.747 Y32.315
X6.759 Y29.143
X5.052 Y26.186
G2 X4.141 Y25.487 I-1.299 J0.75
G1 X2.26 Y24.983
X1.057 Y24.661
G3 X1.141 Y24.27 I0.052 J-0.193
G1 X6.631 Y25.168
G2 X6.829 Y24.857 I0.032 J-0.197
G1 Z-2
X6.815 Y24.838
G2 X4.714 Y23.35 I-3.063 J2.098
G1 X1.9 Y22.601
G2 X1.775 Y22.98 I-0.051 J0.193
G1 X13.95 Y27.808
G3 X13.841 Y28.191 I-0.074 J0.186
G1 X8.594 Y27.266
G3 X7.896 Y26.777 I0.175 J-0.994
G1 X7.776 Y26.567
G3 X8.003 Y26.276 I0.174 J-0.098
G1 X25.085 Y30.973
G3 X25.215 Y31.246 I-0.053 J0.193
G1 X24.747 Y32.315
X6.759 Y29.143
X5.052 Y26.186
G2 X4.141 Y25.487 I-1.299 J0.75
G1 X2.26 Y24.983
X1.057 Y24.661
G3 X1.141 Y24.27 I0.052 J-0.193
G1 X6.631 Y25.168
G2 X6.829 Y24.857 I0.032 J-0.197
G1 Z-3
X6.815 Y24.838
G2 X4.714 Y23.35 I-3.063 J2.098
G1 X1.9 Y22.601
G2 X1.775 Y22.98 I-0.051 J0.193
G1 X13.95 Y27.808
G3 X13.841 Y28.191 I-0.074 J0.186
G1 X8.594 Y27.266
G3 X7.896 Y26.777 I0.175 J-0.994
G1 X7.776 Y26.567
G3 X8.003 Y26.276 I0.174 J-0.098
G1 X25.085 Y30.973
G3 X25.215 Y31.246 I-0.053 J0.193
G1 X24.747 Y32.315
X6.759 Y29.143
X5.052 Y26.186
G2 X4.141 Y25.487 I-1.299 J0.75
G1 X2.26 Y24.983
X1.057 Y24.661
G3 X1.141 Y24.27 I0.052 J-0.193
G1 X6.631 Y25.168
G2 X6.829 Y24.857 I0.032 J-0.197
G1 Z-4
X6.815 Y24.838
G2 X4.714 Y23.35 I-3.063 J2.098
G1 X1.9 Y22.601
G2 X1.775 Y22.98 I-0.051 J0.193
G1 X13.95 Y27.808
G3 X13.841 Y28.191 I-0.074 J0.186
G1 X8.594 Y27.266
G3 X7.896 Y26.777 I0.175 J-0.994
G1 X7.776 Y26.567
G3 X8.003 Y26.276 I0.174 J-0.098
G1 X25.085 Y30.973
G3 X25.215 Y31.246 I-0.053 J0.193
G1 X24.747 Y32.315
X6.759 Y29.143
X5.052 Y26.186
G2 X4.141 Y25.487 I-1.299 J0.75
G1 X2.26 Y24.983
X1.057 Y24.661
G3 X1.141 Y24.27 I0.052 J-0.193
G1 X6.631 Y25.168
G2 X6.829 Y24.857 I0.032 J-0.197
G1 Z-5
X6.815 Y24.838
G2 X4.714 Y23.35 I-3.063 J2.098
G1 X1.9 Y22.601
G2 X1.775 Y22.98 I-0.051 J0.193
G1 X13.95 Y27.808
G3 X13.841 Y28.191 I-0.074 J0.186
G1 X8.594 Y27.266
G3 X7.896 Y26.777 I0.175 J-0.994
G1 X7.776 Y26.567
G3 X8.003 Y26.276 I0.174 J-0.098
G1 X25.085 Y30.973
G3 X25.215 Y31.246 I-0.053 J0.193
G1 X24.747 Y32.315
X6.759 Y29.143
X5.052 Y26.186
G2 X4.141 Y25.487 I-1.299 J0.75
G1 X2.26 Y24.983
X1.057 Y24.661
G3 X1.141 Y24.27 I0.052 J-0.193
G1 X6.631 Y25.168
G2 X6.829 Y24.857 I0.032 J-0.197
G1 Z-6
X6.815 Y24.838
G2 X4.714 Y23.35 I-3.063 J2.098
G1 X1.9 Y22.601
G2 X1.775 Y22.98 I-0.051 J0.193
G1 X13.95 Y27.808
G3 X13.841 Y28.191 I-0.074 J0.186
G1 X8.594 Y27.266
G3 X7.896 Y26.777 I0.175 J-0.994
G1 X7.776 Y26.567
G3 X8.003 Y26.276 I0.174 J-0.098
G1 X25.085 Y30.973
G3 X25.215 Y31.246 I-0.053 J0.193
G1 X24.747 Y32.315
X6.759 Y29.143
X5.052 Y26.186
G2 X4.141 Y25.487 I-1.299 J0.75
G1 X2.26 Y24.983
X1.057 Y24.661
G3 X1.141 Y24.27 I0.052 J-0.193
G1 X6.631 Y25.168
G2 X6.829 Y24.857 I0.032 J-0.197
G1 Z-7
X6.815 Y24.838
G2 X4.714 Y23.35 I-3.063 J2.098
G1 X1.9 Y22.601
G2 X1.775 Y22.98 I-0.051 J0.193
G1 X13.95 Y27.808
G3 X13.841 Y28.191 I-0.074 J0.186
G1 X8.594 Y27.266
G3 X7.896 Y26.777 I0.175 J-0.994
G1 X7.776 Y26.567
G3 X8.003 Y26.276 I0.174 J-0.098
G1 X25.085 Y30.973
G3 X25.215 Y31.246 I-0.053 J0.193
G1 X24.747 Y32.315
X6.759 Y29.143
X5.052 Y26.186
G2 X4.141 Y25.487 I-1.299 J0.75
G1 X2.26 Y24.983
X1.057 Y24.661
G3 X1.141 Y24.27 I0.052 J-0.193
G1 X6.631 Y25.168
G2 X6.829 Y24.857 I0.032 J-0.197
G1 Z-7.714
X6.815 Y24.838
G2 X4.714 Y23.35 I-3.063 J2.098
G1 X1.9 Y22.601
G2 X1.775 Y22.98 I-0.051 J0.193
G1 X13.95 Y27.808
G3 X13.841 Y28.191 I-0.074 J0.186
G1 X8.594 Y27.266
G3 X7.896 Y26.777 I0.175 J-0.994
G1 X7.776 Y26.567
G3 X8.003 Y26.276 I0.174 J-0.098
G1 X25.085 Y30.973
G3 X25.215 Y31.246 I-0.053 J0.193
G1 X24.747 Y32.315
X6.759 Y29.143
X5.052 Y26.186
G2 X4.141 Y25.487 I-1.299 J0.75
G1 X2.26 Y24.983
X1.057 Y24.661
G0 Z6
X8.294 Y22.659
Z2
G1 Z-1 F700
X8.288 Y22.649
X8.186 Y22.426
G2 X6.121 Y20.535 I-3.316 J1.546
G1 X3.353 Y19.531
G2 X3.197 Y19.899 I-0.068 J0.188
G1 X15.547 Y25.945
G3 X15.407 Y26.318 I-0.088 J0.18
G1 X9.626 Y24.769
G3 X8.973 Y24.221 I0.261 J-0.975
X8.839 Y23.928 I19.333 J-9.015
X9.091 Y23.659 I0.183 J-0.082
G1 X25.768 Y29.856
G3 X25.874 Y30.139 I-0.07 J0.187
G1 X25.315 Y31.161
X7.673 Y26.433
X6.23 Y23.338
G2 X5.383 Y22.563 I-1.359 J0.634
G1 X3.553 Y21.897
X2.367 Y21.465
G3 X2.499 Y21.087 I0.068 J-0.188
G1 X8.063 Y22.959
G2 X8.294 Y22.659 I0.064 J-0.19
G1 Z-2
X8.288 Y22.649
X8.186 Y22.426
G2 X6.121 Y20.535 I-3.316 J1.546
G1 X3.353 Y19.531
G2 X3.197 Y19.899 I-0.068 J0.188
G1 X15.547 Y25.945
G3 X15.407 Y26.318 I-0.088 J0.18
G1 X9.626 Y24.769
G3 X8.973 Y24.221 I0.261 J-0.975
X8.839 Y23.928 I19.333 J-9.015
X9.091 Y23.659 I0.183 J-0.082
G1 X25.768 Y29.856
G3 X25.874 Y30.139 I-0.07 J0.187
G1 X25.315 Y31.161
X7.673 Y26.433
X6.23 Y23.338
G2 X5.383 Y22.563 I-1.359 J0.634
G1 X3.553 Y21.897
X2.367 Y21.465
G3 X2.499 Y21.087 I0.068 J-0.188
G1 X8.063 Y22.959
G2 X8.294 Y22.659 I0.064 J-0.19
G1 Z-3
X8.288 Y22.649
X8.186 Y22.426
G2 X6.121 Y20.535 I-3.316 J1.546
G1 X3.353 Y19.531
G2 X3.197 Y19.899 I-0.068 J0.188
G1 X15.547 Y25.945
G3 X15.407 Y26.318 I-0.088 J0.18
G1 X9.626 Y24.769
G3 X8.973 Y24.221 I0.261 J-0.975
X8.839 Y23.928 I19.333 J-9.015
X9.091 Y23.659 I0.183 J-0.082
G1 X25.768 Y29.856
G3 X25.874 Y30.139 I-0.07 J0.187
G1 X25.315 Y31.161
X7.673 Y26.433
X6.23 Y23.338
G2 X5.383 Y22.563 I-1.359 J0.634
G1 X3.553 Y21.897
X2.367 Y21.465
G3 X2.499 Y21.087 I0.068 J-0.188
G1 X8.063 Y22.959
G2 X8.294 Y22.659 I0.064 J-0.19
G1 Z-4
X8.288 Y22.649
X8.186 Y22.426
G2 X6.121 Y20.535 I-3.316 J1.546
G1 X3.353 Y19.531
G2 X3.197 Y19.899 I-0.068 J0.188
G1 X15.547 Y25.945
G3 X15.407 Y26.318 I-0.088 J0.18
G1 X9.626 Y24.769
G3 X8.973 Y24.221 I0.261 J-0.975
X8.839 Y23.928 I19.333 J-9.015
X9.091 Y23.659 I0.183 J-0.082
G1 X25.768 Y29.856
G3 X25.874 Y30.139 I-0.07 J0.187
G1 X25.315 Y31.161
X7.673 Y26.433
X6.23 Y23.338
G2 X5.383 Y22.563 I-1.359 J0.634
G1 X3.553 Y21.897
X2.367 Y21.465
G3 X2.499 Y21.087 I0.068 J-0.188
G1 X8.063 Y22.959
G2 X8.294 Y22.659 I0.064 J-0.19
G1 Z-5
X8.288 Y22.649
X8.186 Y22.426
G2 X6.121 Y20.535 I-3.316 J1.546
G1 X3.353 Y19.531
G2 X3.197 Y19.899 I-0.068 J0.188
G1 X15.547 Y25.945
G3 X15.407 Y26.318 I-0.088 J0.18
G1 X9.626 Y24.769
G3 X8.973 Y24.221 I0.261 J-0.975
X8.839 Y23.928 I19.333 J-9.015
X9.091 Y23.659 I0.183 J-0.082
G1 X25.768 Y29.856
G3 X25.874 Y30.139 I-0.07 J0.187
G1 X25.315 Y31.161
X7.673 Y26.433
X6.23 Y23.338
G2 X5.383 Y22.563 I-1.359 J0.634
G1 X3.553 Y21.897
X2.367 Y21.465
G3 X2.499 Y21.087 I0.068 J-0.188
G1 X8.063 Y22.959
G2 X8.294 Y22.659 I0.064 J-0.19
G1 Z-6
X8.288 Y22.649
X8.186 Y22.426
G2 X6.121 Y20.535 I-3.316 J1.546
G1 X3.353 Y19.531
G2 X3.197 Y19.899 I-0.068 J0.188
G1 X15.547 Y25.945
G3 X15.407 Y26.318 I-0.088 J0.18
G1 X9.626 Y24.769
G3 X8.973 Y24.221 I0.261 J-0.975
X8.839 Y23.928 I19.333 J-9.015
X9.091 Y23.659 I0.183 J-0.082
G1 X25.768 Y29.856
G3 X25.874 Y30.139 I-0.07 J0.187
G1 X25.315 Y31.161
X7.673 Y26.433
X6.23 Y23.338
G2 X5.383 Y22.563 I-1.359 J0.634
G1 X3.553 Y21.897
X2.367 Y21.465
G3 X2.499 Y21.087 I0.068 J-0.188
G1 X8.063 Y22.959
G2 X8.294 Y22.659 I0.064 J-0.19
G1 Z-7
X8.288 Y22.649
X8.186 Y22.426
G2 X6.121 Y20.535 I-3.316 J1.546
G1 X3.353 Y19.531
G2 X3.197 Y19.899 I-0.068 J0.188
G1 X15.547 Y25.945
G3 X15.407 Y26.318 I-0.088 J0.18
G1 X9.626 Y24.769
G3 X8.973 Y24.221 I0.261 J-0.975
X8.839 Y23.928 I19.333 J-9.015
X9.091 Y23.659 I0.183 J-0.082
G1 X25.768 Y29.856
G3 X25.874 Y30.139 I-0.07 J0.187
G1 X25.315 Y31.161
X7.673 Y26.433
X6.23 Y23.338
G2 X5.383 Y22.563 I-1.359 J0.634
G1 X3.553 Y21.897
X2.367 Y21.465
G3 X2.499 Y21.087 I0.068 J-0.188
G1 X8.063 Y22.959
G2 X8.294 Y22.659 I0.064 J-0.19
G1 Z-8
X8.288 Y22.649
X8.186 Y22.426
G2 X6.121 Y20.535 I-3.316 J1.546
G1 X3.353 Y19.531
G2 X3.197 Y19.899 I-0.068 J0.188
G1 X15.547 Y25.945
G3 X15.407 Y26.318 I-0.088 J0.18
G1 X9.626 Y24.769
G3 X8.973 Y24.221 I0.261 J-0.975
X8.839 Y23.928 I19.333 J-9.015
X9.091 Y23.659 I0.183 J-0.082
G1 X25.768 Y29.856
G3 X25.874 Y30.139 I-0.07 J0.187
G1 X25.315 Y31.161
X7.673 Y26.433
X6.23 Y23.338
G2 X5.383 Y22.563 I-1.359 J0.634
G1 X3.553 Y21.897
X2.367 Y21.465
G3 X2.499 Y21.087 I0.068 J-0.188
G1 X8.063 Y22.959
G2 X8.294 Y22.659 I0.064 J-0.19
G1 Z-9
X8.288 Y22.649
X8.186 Y22.426
G2 X6.121 Y20.535 I-3.316 J1.546
G1 X3.353 Y19.531
G2 X3.197 Y19.899 I-0.068 J0.188
G1 X15.547 Y25.945
G3 X15.407 Y26.318 I-0.088 J0.18
G1 X9.626 Y24.769
G3 X8.973 Y24.221 I0.261 J-0.975
X8.839 Y23.928 I19.333 J-9.015
X9.091 Y23.659 I0.183 J-0.082
G1 X25.768 Y29.856
G3 X25.874 Y30.139 I-0.07 J0.187
G1 X25.315 Y31.161
X7.673 Y26.433
X6.23 Y23.338
G2 X5.383 Y22.563 I-1.359 J0.634
G1 X3.553 Y21.897
X2.367 Y21.465
G3 X2.499 Y21.087 I0.068 J-0.188
G1 X8.063 Y22.959
G2 X8.294 Y22.659 I0.064 J-0.19
G1 Z-10
X8.288 Y22.649
X8.186 Y22.426
G2 X6.121 Y20.535 I-3.316 J1.546
G1 X3.353 Y19.531
G2 X3.197 Y19.899 I-0.068 J0.188
G1 X15.547 Y25.945
G3 X15.407 Y26.318 I-0.088 J0.18
G1 X9.626 Y24.769
G3 X8.973 Y24.221 I0.261 J-0.975
X8.839 Y23.928 I19.333 J-9.015
X9.091 Y23.659 I0.183 J-0.082
G1 X25.768 Y29.856
G3 X25.874 Y30.139 I-0.07 J0.187
G1 X25.315 Y31.161
X7.673 Y26.433
X6.23 Y23.338
G2 X5.383 Y22.563 I-1.359 J0.634
G1 X3.553 Y21.897
X2.367 Y21.465
G3 X2.499 Y21.087 I0.068 J-0.188
G1 X8.063 Y22.959
G2 X8.294 Y22.659 I0.064 J-0.19
G1 Z-10.286
X8.288 Y22.649
X8.186 Y22.426
G2 X6.121 Y20.535 I-3.316 J1.546
G1 X3.353 Y19.531
G2 X3.197 Y19.899 I-0.068 J0.188
G1 X15.547 Y25.945
G3 X15.407 Y26.318 I-0.088 J0.18
G1 X9.626 Y24.769
G3 X8.973 Y24.221 I0.261 J-0.975
X8.839 Y23.928 I19.333 J-9.015
X9.091 Y23.659 I0.183 J-0.082
G1 X25.768 Y29.856
G3 X25.874 Y30.139 I-0.07 J0.187
G1 X25.315 Y31.161
X7.673 Y26.433
X6.23 Y23.338
G2 X5.383 Y22.563 I-1.359 J0.634
G1 X3.553 Y21.897
X2.367 Y21.465
G0 Z6
X17.12 Y24.645
Z2
G1 Z-1 F700
X17.109 Y24.641
X10.867 Y22.369
G3 X10.264 Y21.766 I0.345 J-0.948
X9.945 Y20.826 I20.578 J-7.49
G2 X9.627 Y19.885 I-20.896 J6.549
X7.764 Y17.852 I-3.385 J1.232
G1 X5.078 Y16.604
X5.068 Y16.599
Z2
X26.645 Y29.064
Z-1
X26.633 Y29.084
X25.982 Y30.06
X8.819 Y23.813
X7.651 Y20.604
G2 X6.876 Y19.758 I-1.41 J0.513
G1 X5.11 Y18.935
X3.966 Y18.401
X3.93 Y18.376
X3.905 Y18.339
X3.894 Y18.297
X3.899 Y18.253
X3.918 Y18.213
X3.951 Y18.182
X3.991 Y18.165
X4.036 Y18.163
X4.465 Y18.224
X16.976 Y24.289
X17.209 Y24.501
X17.228 Y24.528
X17.236 Y24.561
X17.231 Y24.594
X17.213 Y24.623
X17.186 Y24.642
X17.154 Y24.65
X17.12 Y24.645
Z-2
X17.109 Y24.641
X10.867 Y22.369
G3 X10.264 Y21.766 I0.345 J-0.948
X9.945 Y20.826 I20.578 J-7.49
G2 X9.627 Y19.885 I-20.896 J6.549
X7.764 Y17.852 I-3.385 J1.232
G1 X5.078 Y16.604
X5.068 Y16.599
Z1
X26.645 Y29.064
Z-2
X26.633 Y29.084
X25.982 Y30.06
X8.819 Y23.813
X7.651 Y20.604
G2 X6.876 Y19.758 I-1.41 J0.513
G1 X5.11 Y18.935
X3.966 Y18.401
X3.93 Y18.376
X3.905 Y18.339
X3.894 Y18.297
X3.899 Y18.253
X3.918 Y18.213
X3.951 Y18.182
X3.991 Y18.165
X4.036 Y18.163
X4.465 Y18.224
X16.976 Y24.289
X17.209 Y24.501
X17.228 Y24.528
X17.236 Y24.561
X17.231 Y24.594
X17.213 Y24.623
X17.186 Y24.642
X17.154 Y24.65
X17.12 Y24.645
Z-3
X17.109 Y24.641
X10.867 Y22.369
G3 X10.264 Y21.766 I0.345 J-0.948
X9.945 Y20.826 I20.578 J-7.49
G2 X9.627 Y19.885 I-20.896 J6.549
X7.764 Y17.852 I-3.385 J1.232
G1 X5.078 Y16.604
X5.068 Y16.599
Z0
X26.645 Y29.064
Z-3
X26.633 Y29.084
X25.982 Y30.06
X8.819 Y23.813
X7.651 Y20.604
G2 X6.876 Y19.758 I-1.41 J0.513
G1 X5.11 Y18.935
X3.966 Y18.401
X3.93 Y18.376
X3.905 Y18.339
X3.894 Y18.297
X3.899 Y18.253
X3.918 Y18.213
X3.951 Y18.182
X3.991 Y18.165
X4.036 Y18.163
X4.465 Y18.224
X16.976 Y24.289
X17.209 Y24.501
X17.228 Y24.528
X17.236 Y24.561
X17.231 Y24.594
X17.213 Y24.623
X17.186 Y24.642
X17.154 Y24.65
X17.12 Y24.645
Z-4
X17.109 Y24.641
X10.867 Y22.369
G3 X10.264 Y21.766 I0.345 J-0.948
X9.945 Y20.826 I20.578 J-7.49
G2 X9.627 Y19.885 I-20.896 J6.549
X7.764 Y17.852 I-3.385 J1.232
G1 X5.078 Y16.604
X5.068 Y16.599
Z-1
X26.645 Y29.064
Z-4
X26.633 Y29.084
X25.982 Y30.06
X8.819 Y23.813
X7.651 Y20.604
G2 X6.876 Y19.758 I-1.41 J0.513
G1 X5.11 Y18.935
X3.966 Y18.401
X3.93 Y18.376
X3.905 Y18.339
X3.894 Y18.297
X3.899 Y18.253
X3.918 Y18.213
X3.951 Y18.182
X3.991 Y18.165
X4.036 Y18.163
X4.465 Y18.224
X16.976 Y24.289
X17.209 Y24.501
X17.228 Y24.528
X17.236 Y24.561
X17.231 Y24.594
X17.213 Y24.623
X17.186 Y24.642
X17.154 Y24.65
X17.12 Y24.645
Z-5
X17.109 Y24.641
X10.867 Y22.369
G3 X10.264 Y21.766 I0.345 J-0.948
X9.945 Y20.826 I20.578 J-7.49
G2 X9.627 Y19.885 I-20.896 J6.549
X7.764 Y17.852 I-3.385 J1.232
G1 X5.078 Y16.604
X5.068 Y16.599
Z-2
X26.645 Y29.064
Z-5
X26.633 Y29.084
X25.982 Y30.06
X8.819 Y23.813
X7.651 Y20.604
G2 X6.876 Y19.758 I-1.41 J0.513
G1 X5.11 Y18.935
X3.966 Y18.401
X3.93 Y18.376
X3.905 Y18.339
X3.894 Y18.297
X3.899 Y18.253
X3.918 Y18.213
X3.951 Y18.182
X3.991 Y18.165
X4.036 Y18.163
X4.465 Y18.224
X16.976 Y24.289
X17.209 Y24.501
X17.228 Y24.528
X17.236 Y24.561
X17.231 Y24.594
X17.213 Y24.623
X17.186 Y24.642
X17.154 Y24.65
X17.12 Y24.645
Z-6
X17.109 Y24.641
X10.867 Y22.369
G3 X10.264 Y21.766 I0.345 J-0.948
X9.945 Y20.826 I20.578 J-7.49
G2 X9.627 Y19.885 I-20.896 J6.549
X7.764 Y17.852 I-3.385 J1.232
G1 X5.078 Y16.604
X5.068 Y16.599
Z-3
X26.645 Y29.064
Z-6
X26.633 Y29.084
X25.982 Y30.06
X8.819 Y23.813
X7.651 Y20.604
G2 X6.876 Y19.758 I-1.41 J0.513
G1 X5.11 Y18.935
X3.966 Y18.401
X3.93 Y18.376
X3.905 Y18.339
X3.894 Y18.297
X3.899 Y18.253
X3.918 Y18.213
X3.951 Y18.182
X3.991 Y18.165
X4.036 Y18.163
X4.465 Y18.224
X16.976 Y24.289
X17.209 Y24.501
X17.228 Y24.528
X17.236 Y24.561
X17.231 Y24.594
X17.213 Y24.623
X17.186 Y24.642
X17.154 Y24.65
X17.12 Y24.645
Z-7
X17.109 Y24.641
X10.867 Y22.369
G3 X10.264 Y21.766 I0.345 J-0.948
X9.945 Y20.826 I20.578 J-7.49
G2 X9.627 Y19.885 I-20.896 J6.549
X7.764 Y17.852 I-3.385 J1.232
G1 X5.078 Y16.604
X5.068 Y16.599
Z-4
X26.645 Y29.064
Z-7
X26.633 Y29.084
X25.982 Y30.06
X8.819 Y23.813
X7.651 Y20.604
G2 X6.876 Y19.758 I-1.41 J0.513
G1 X5.11 Y18.935
X3.966 Y18.401
X3.93 Y18.376
X3.905 Y18.339
X3.894 Y18.297
X3.899 Y18.253
X3.918 Y18.213
X3.951 Y18.182
X3.991 Y18.165
X4.036 Y18.163
X4.465 Y18.224
X16.976 Y24.289
X17.209 Y24.501
X17.228 Y24.528
X17.236 Y24.561
X17.231 Y24.594
X17.213 Y24.623
X17.186 Y24.642
X17.154 Y24.65
X17.12 Y24.645
Z-8
X17.109 Y24.641
X10.867 Y22.369
G3 X10.264 Y21.766 I0.345 J-0.948
X9.945 Y20.826 I20.578 J-7.49
G2 X9.627 Y19.885 I-20.896 J6.549
X7.764 Y17.852 I-3.385 J1.232
G1 X5.078 Y16.604
X5.068 Y16.599
Z-5
X26.645 Y29.064
Z-8
X26.633 Y29.084
X25.982 Y30.06
X8.819 Y23.813
X7.651 Y20.604
G2 X6.876 Y19.758 I-1.41 J0.513
G1 X5.11 Y18.935
X3.966 Y18.401
X3.93 Y18.376
X3.905 Y18.339
X3.894 Y18.297
X3.899 Y18.253
X3.918 Y18.213
X3.951 Y18.182
X3.991 Y18.165
X4.036 Y18.163
X4.465 Y18.224
X16.976 Y24.289
X17.209 Y24.501
X17.228 Y24.528
X17.236 Y24.561
X17.231 Y24.594
X17.213 Y24.623
X17.186 Y24.642
X17.154 Y24.65
X17.12 Y24.645
Z-9
X17.109 Y24.641
X10.867 Y22.369
G3 X10.264 Y21.766 I0.345 J-0.948
X9.945 Y20.826 I20.578 J-7.49
G2 X9.627 Y19.885 I-20.896 J6.549
X7.764 Y17.852 I-3.385 J1.232
G1 X5.078 Y16.604
X5.068 Y16.599
Z-6
X26.645 Y29.064
Z-9
X26.633 Y29.084
X25.982 Y30.06
X8.819 Y23.813
X7.651 Y20.604
G2 X6.876 Y19.758 I-1.41 J0.513
G1 X5.11 Y18.935
X3.966 Y18.401
X3.93 Y18.376
X3.905 Y18.339
X3.894 Y18.297
X3.899 Y18.253
X3.918 Y18.213
X3.951 Y18.182
X3.991 Y18.165
X4.036 Y18.163
X4.465 Y18.224
X16.976 Y24.289
X17.209 Y24.501
X17.228 Y24.528
X17.236 Y24.561
X17.231 Y24.594
X17.213 Y24.623
X17.186 Y24.642
X17.154 Y24.65
X17.12 Y24.645
Z-10
X17.109 Y24.641
X10.867 Y22.369
G3 X10.264 Y21.766 I0.345 J-0.948
X9.945 Y20.826 I20.578 J-7.49
G2 X9.627 Y19.885 I-20.896 J6.549
X7.764 Y17.852 I-3.385 J1.232
G1 X5.078 Y16.604
X5.068 Y16.599
Z-7
X26.645 Y29.064
Z-10
X26.633 Y29.084
X25.982 Y30.06
X8.819 Y23.813
X7.651 Y20.604
G2 X6.876 Y19.758 I-1.41 J0.513
G1 X5.11 Y18.935
X3.966 Y18.401
X3.93 Y18.376
X3.905 Y18.339
X3.894 Y18.297
X3.899 Y18.253
X3.918 Y18.213
X3.951 Y18.182
X3.991 Y18.165
X4.036 Y18.163
X4.465 Y18.224
X16.976 Y24.289
X17.209 Y24.501
X17.228 Y24.528
X17.236 Y24.561
X17.231 Y24.594
X17.213 Y24.623
X17.186 Y24.642
X17.154 Y24.65
X17.12 Y24.645
Z-11
X17.109 Y24.641
X10.867 Y22.369
G3 X10.264 Y21.766 I0.345 J-0.948
X9.945 Y20.826 I20.578 J-7.49
G2 X9.627 Y19.885 I-20.896 J6.549
X7.764 Y17.852 I-3.385 J1.232
G1 X5.078 Y16.604
X5.068 Y16.599
Z-8
X26.645 Y29.064
Z-11
X26.633 Y29.084
X25.982 Y30.06
X8.819 Y23.813
X7.651 Y20.604
G2 X6.876 Y19.758 I-1.41 J0.513
G1 X5.11 Y18.935
X3.966 Y18.401
X3.93 Y18.376
X3.905 Y18.339
X3.894 Y18.297
X3.899 Y18.253
X3.918 Y18.213
X3.951 Y18.182
X3.991 Y18.165
X4.036 Y18.163
X4.465 Y18.224
X16.976 Y24.289
X17.209 Y24.501
X17.228 Y24.528
X17.236 Y24.561
X17.231 Y24.594
X17.213 Y24.623
X17.186 Y24.642
X17.154 Y24.65
X17.12 Y24.645
Z-12
X17.109 Y24.641
X10.867 Y22.369
G3 X10.264 Y21.766 I0.345 J-0.948
X9.945 Y20.826 I20.578 J-7.49
G2 X9.627 Y19.885 I-20.896 J6.549
X7.764 Y17.852 I-3.385 J1.232
G1 X5.078 Y16.604
X5.068 Y16.599
Z-9
X26.645 Y29.064
Z-12
X26.633 Y29.084
X25.982 Y30.06
X8.819 Y23.813
X7.651 Y20.604
G2 X6.876 Y19.758 I-1.41 J0.513
G1 X5.11 Y18.935
X3.966 Y18.401
X3.93 Y18.376
X3.905 Y18.339
X3.894 Y18.297
X3.899 Y18.253
X3.918 Y18.213
X3.951 Y18.182
X3.991 Y18.165
X4.036 Y18.163
X4.465 Y18.224
X16.976 Y24.289
X17.209 Y24.501
X17.228 Y24.528
X17.236 Y24.561
X17.231 Y24.594
X17.213 Y24.623
X17.186 Y24.642
X17.154 Y24.65
X17.12 Y24.645
Z-12.857
X17.109 Y24.641
X10.867 Y22.369
G3 X10.264 Y21.766 I0.345 J-0.948
X9.945 Y20.826 I20.578 J-7.49
G2 X9.627 Y19.885 I-20.896 J6.549
X7.764 Y17.852 I-3.385 J1.232
G1 X5.078 Y16.604
X5.068 Y16.599
Z-10
X26.645 Y29.064
Z-12.857
X26.633 Y29.084
X25.982 Y30.06
X8.819 Y23.813
X7.651 Y20.604
G2 X6.876 Y19.758 I-1.41 J0.513
G1 X5.11 Y18.935
X3.966 Y18.401
G0 Z6
X16.863 Y21.976
Z2
G1 Z-1 F700
X16.852 Y21.971
X12.485 Y19.934
G3 X11.936 Y19.281 I0.426 J-0.914
G1 X11.893 Y19.118
G3 X12.187 Y18.894 I0.193 J-0.052
G1 X27.413 Y27.82
G3 X27.468 Y28.117 I-0.101 J0.173
G1 X26.743 Y29.022
X10.189 Y21.303
X9.305 Y18.005
X9.184 Y17.55
G3 X9.475 Y17.324 I0.193 J-0.052
G1 X17.046 Y21.62
G3 X16.863 Y21.976 I-0.099 J0.174
G1 Z-2
X16.852 Y21.971
X12.485 Y19.934
G3 X11.936 Y19.281 I0.426 J-0.914
G1 X11.893 Y19.118
G3 X12.187 Y18.894 I0.193 J-0.052
G1 X27.413 Y27.82
G3 X27.468 Y28.117 I-0.101 J0.173
G1 X26.743 Y29.022
X10.189 Y21.303
X9.305 Y18.005
X9.184 Y17.55
G3 X9.475 Y17.324 I0.193 J-0.052
G1 X17.046 Y21.62
G3 X16.863 Y21.976 I-0.099 J0.174
G1 Z-3
X16.852 Y21.971
X12.485 Y19.934
G3 X11.936 Y19.281 I0.426 J-0.914
G1 X11.893 Y19.118
G3 X12.187 Y18.894 I0.193 J-0.052
G1 X27.413 Y27.82
G3 X27.468 Y28.117 I-0.101 J0.173
G1 X26.743 Y29.022
X10.189 Y21.303
X9.305 Y18.005
X9.184 Y17.55
G3 X9.475 Y17.324 I0.193 J-0.052
G1 X17.046 Y21.62
G3 X16.863 Y21.976 I-0.099 J0.174
G1 Z-4
X16.852 Y21.971
X12.485 Y19.934
G3 X11.936 Y19.281 I0.426 J-0.914
G1 X11.893 Y19.118
G3 X12.187 Y18.894 I0.193 J-0.052
G1 X27.413 Y27.82
G3 X27.468 Y28.117 I-0.101 J0.173
G1 X26.743 Y29.022
X10.189 Y21.303
X9.305 Y18.005
X9.184 Y17.55
G3 X9.475 Y17.324 I0.193 J-0.052
G1 X17.046 Y21.62
G3 X16.863 Y21.976 I-0.099 J0.174
G1 Z-5
X16.852 Y21.971
X12.485 Y19.934
G3 X11.936 Y19.281 I0.426 J-0.914
G1 X11.893 Y19.118
G3 X12.187 Y18.894 I0.193 J-0.052
G1 X27.413 Y27.82
G3 X27.468 Y28.117 I-0.101 J0.173
G1 X26.743 Y29.022
X10.189 Y21.303
X9.305 Y18.005
X9.184 Y17.55
G3 X9.475 Y17.324 I0.193 J-0.052
G1 X17.046 Y21.62
G3 X16.863 Y21.976 I-0.099 J0.174
G1 Z-6
X16.852 Y21.971
X12.485 Y19.934
G3 X11.936 Y19.281 I0.426 J-0.914
G1 X11.893 Y19.118
G3 X12.187 Y18.894 I0.193 J-0.052
G1 X27.413 Y27.82
G3 X27.468 Y28.117 I-0.101 J0.173
G1 X26.743 Y29.022
X10.189 Y21.303
X9.305 Y18.005
X9.184 Y17.55
G3 X9.475 Y17.324 I0.193 J-0.052
G1 X17.046 Y21.62
G3 X16.863 Y21.976 I-0.099 J0.174
G1 Z-7
X16.852 Y21.971
X12.485 Y19.934
G3 X11.936 Y19.281 I0.426 J-0.914
G1 X11.893 Y19.118
G3 X12.187 Y18.894 I0.193 J-0.052
G1 X27.413 Y27.82
G3 X27.468 Y28.117 I-0.101 J0.173
G1 X26.743 Y29.022
X10.189 Y21.303
X9.305 Y18.005
X9.184 Y17.55
G3 X9.475 Y17.324 I0.193 J-0.052
G1 X17.046 Y21.62
G3 X16.863 Y21.976 I-0.099 J0.174
G1 Z-8
X16.852 Y21.971
X12.485 Y19.934
G3 X11.936 Y19.281 I0.426 J-0.914
G1 X11.893 Y19.118
G3 X12.187 Y18.894 I0.193 J-0.052
G1 X27.413 Y27.82
G3 X27.468 Y28.117 I-0.101 J0.173
G1 X26.743 Y29.022
X10.189 Y21.303
X9.305 Y18.005
X9.184 Y17.55
G3 X9.475 Y17.324 I0.193 J-0.052
G1 X17.046 Y21.62
G3 X16.863 Y21.976 I-0.099 J0.174
G1 Z-9
X16.852 Y21.971
X12.485 Y19.934
G3 X11.936 Y19.281 I0.426 J-0.914
G1 X11.893 Y19.118
G3 X12.187 Y18.894 I0.193 J-0.052
G1 X27.413 Y27.82
G3 X27.468 Y28.117 I-0.101 J0.173
G1 X26.743 Y29.022
X10.189 Y21.303
X9.305 Y18.005
X9.184 Y17.55
G3 X9.475 Y17.324 I0.193 J-0.052
G1 X17.046 Y21.62
G3 X16.863 Y21.976 I-0.099 J0.174
G1 Z-10
X16.852 Y21.971
X12.485 Y19.934
G3 X11.936 Y19.281 I0.426 J-0.914
G1 X11.893 Y19.118
G3 X12.187 Y18.894 I0.193 J-0.052
G1 X27.413 Y27.82
G3 X27.468 Y28.117 I-0.101 J0.173
G1 X26.743 Y29.022
X10.189 Y21.303
X9.305 Y18.005
X9.184 Y17.55
G3 X9.475 Y17.324 I0.193 J-0.052
G1 X17.046 Y21.62
G3 X16.863 Y21.976 I-0.099 J0.174
G1 Z-11
X16.852 Y21.971
X12.485 Y19.934
G3 X11.936 Y19.281 I0.426 J-0.914
G1 X11.893 Y19.118
G3 X12.187 Y18.894 I0.193 J-0.052
G1 X27.413 Y27.82
G3 X27.468 Y28.117 I-0.101 J0.173
G1 X26.743 Y29.022
X10.189 Y21.303
X9.305 Y18.005
X9.184 Y17.55
G3 X9.475 Y17.324 I0.193 J-0.052
G1 X17.046 Y21.62
G3 X16.863 Y21.976 I-0.099 J0.174
G1 Z-12
X16.852 Y21.971
X12.485 Y19.934
G3 X11.936 Y19.281 I0.426 J-0.914
G1 X11.893 Y19.118
G3 X12.187 Y18.894 I0.193 J-0.052
G1 X27.413 Y27.82
G3 X27.468 Y28.117 I-0.101 J0.173
G1 X26.743 Y29.022
X10.189 Y21.303
X9.305 Y18.005
X9.184 Y17.55
G3 X9.475 Y17.324 I0.193 J-0.052
G1 X17.046 Y21.62
G3 X16.863 Y21.976 I-0.099 J0.174
G1 Z-13
X16.852 Y21.971
X12.485 Y19.934
G3 X11.936 Y19.281 I0.426 J-0.914
G1 X11.893 Y19.118
G3 X12.187 Y18.894 I0.193 J-0.052
G1 X27.413 Y27.82
G3 X27.468 Y28.117 I-0.101 J0.173
G1 X26.743 Y29.022
X10.189 Y21.303
X9.305 Y18.005
X9.184 Y17.55
G3 X9.475 Y17.324 I0.193 J-0.052
G1 X17.046 Y21.62
G3 X16.863 Y21.976 I-0.099 J0.174
G1 Z-14
X16.852 Y21.971
X12.485 Y19.934
G3 X11.936 Y19.281 I0.426 J-0.914
G1 X11.893 Y19.118
G3 X12.187 Y18.894 I0.193 J-0.052
G1 X27.413 Y27.82
G3 X27.468 Y28.117 I-0.101 J0.173
G1 X26.743 Y29.022
X10.189 Y21.303
X9.305 Y18.005
X9.184 Y17.55
G3 X9.475 Y17.324 I0.193 J-0.052
G1 X17.046 Y21.62
G3 X16.863 Y21.976 I-0.099 J0.174
G1 Z-15
X16.852 Y21.971
X12.485 Y19.934
G3 X11.936 Y19.281 I0.426 J-0.914
G1 X11.893 Y19.118
G3 X12.187 Y18.894 I0.193 J-0.052
G1 X27.413 Y27.82
G3 X27.468 Y28.117 I-0.101 J0.173
G1 X26.743 Y29.022
X10.189 Y21.303
X9.305 Y18.005
X9.184 Y17.55
G3 X9.475 Y17.324 I0.193 J-0.052
G1 X17.046 Y21.62
G3 X16.863 Y21.976 I-0.099 J0.174
G1 Z-15.429
X16.852 Y21.971
X12.485 Y19.934
G3 X11.936 Y19.281 I0.426 J-0.914
G1 X11.893 Y19.118
G3 X12.187 Y18.894 I0.193 J-0.052
G1 X27.413 Y27.82
G3 X27.468 Y28.117 I-0.101 J0.173
G1 X26.743 Y29.022
X10.189 Y21.303
X9.305 Y18.005
X9.184 Y17.55
G0 Z6
X35.582 Y3.877
Z2
G1 Z-1 F700
X35.591 Y3.855
G2 X35.867 Y2.479 I-3.295 J-1.376
X35.677 Y1.085 I-5.215 J0
G3 X35.331 Y-0.279 I31.024 J-8.607
G1 X35.121 Y-1.18
G2 X34.727 Y-1.117 I-0.195 J0.045
G1 X35.781 Y10.676
G3 X35.392 Y10.755 I-0.199 J0.018
G1 X34.147 Y6.924
G3 X34.251 Y6.077 I0.96 J-0.312
G1 X34.286 Y6.02
G3 X34.651 Y6.083 I0.17 J0.106
G1 X38.498 Y23.21
G3 X38.317 Y23.453 I-0.195 J0.044
G1 X37.151 Y23.541
X31.507 Y6.17
X33.316 Y3.274
G2 X33.506 Y2.142 I-1.272 J-0.795
G1 X33.068 Y0.244
X32.788 Y-0.969
G3 X33.167 Y-1.091 I0.195 J-0.045
G1 X35.213 Y3.876
G2 X35.582 Y3.877 I0.185 J-0.076
G1 Z-2
X35.591 Y3.855
G2 X35.867 Y2.479 I-3.295 J-1.376
X35.677 Y1.085 I-5.215 J0
G3 X35.331 Y-0.279 I31.024 J-8.607
G1 X35.121 Y-1.18
G2 X34.727 Y-1.117 I-0.195 J0.045
G1 X35.781 Y10.676
G3 X35.392 Y10.755 I-0.199 J0.018
G1 X34.147 Y6.924
G3 X34.251 Y6.077 I0.96 J-0.312
G1 X34.286 Y6.02
G3 X34.651 Y6.083 I0.17 J0.106
G1 X38.498 Y23.21
G3 X38.317 Y23.453 I-0.195 J0.044
G1 X37.151 Y23.541
X31.507 Y6.17
X33.316 Y3.274
G2 X33.506 Y2.142 I-1.272 J-0.795
G1 X33.068 Y0.244
X32.788 Y-0.969
G3 X33.167 Y-1.091 I0.195 J-0.045
G1 X35.213 Y3.876
G2 X35.582 Y3.877 I0.185 J-0.076
G1 Z-2.571
X35.591 Y3.855
G2 X35.867 Y2.479 I-3.295 J-1.376
X35.677 Y1.085 I-5.215 J0
G3 X35.331 Y-0.279 I31.024 J-8.607
G1 X35.121 Y-1.18
G2 X34.727 Y-1.117 I-0.195 J0.045
G1 X35.781 Y10.676
G3 X35.392 Y10.755 I-0.199 J0.018
G1 X34.147 Y6.924
G3 X34.251 Y6.077 I0.96 J-0.312
G1 X34.286 Y6.02
G3 X34.651 Y6.083 I0.17 J0.106
G1 X38.498 Y23.21
G3 X38.317 Y23.453 I-0.195 J0.044
G1 X37.151 Y23.541
X31.507 Y6.17
X33.316 Y3.274
G2 X33.506 Y2.142 I-1.272 J-0.795
G1 X33.068 Y0.244
X32.788 Y-0.969
G0 Z6
X38.744 Y3.602
Z2
G1 Z-1 F700
X38.748 Y3.591
G2 X39.02 Y1.535 I-3.563 J-1.516
G1 X38.617 Y-1.297
G2 X38.219 Y-1.271 I-0.198 J0.028
G1 X38.115 Y10.011
G3 X37.721 Y10.054 I-0.2 J-0.002
G1 X36.946 Y6.697
G3 X37.123 Y5.863 I0.983 J-0.227
X37.481 Y5.956 I0.16 J0.12
G1 X39.805 Y23.288
G3 X39.604 Y23.515 I-0.198 J0.027
G1 X38.437 Y23.501
X34.328 Y5.704
X36.383 Y2.977
G2 X36.671 Y1.866 I-1.198 J-0.903
G1 X36.4 Y-0.063
X36.226 Y-1.296
G3 X36.613 Y-1.391 I0.198 J-0.028
G1 X38.371 Y3.59
G2 X38.744 Y3.602 I0.189 J-0.067
G1 Z-2
X38.748 Y3.591
G2 X39.02 Y1.535 I-3.563 J-1.516
G1 X38.617 Y-1.297
G2 X38.219 Y-1.271 I-0.198 J0.028
G1 X38.115 Y10.011
G3 X37.721 Y10.054 I-0.2 J-0.002
G1 X36.946 Y6.697
G3 X37.123 Y5.863 I0.983 J-0.227
X37.481 Y5.956 I0.16 J0.12
G1 X39.805 Y23.288
G3 X39.604 Y23.515 I-0.198 J0.027
G1 X38.437 Y23.501
X34.328 Y5.704
X36.383 Y2.977
G2 X36.671 Y1.866 I-1.198 J-0.903
G1 X36.4 Y-0.063
X36.226 Y-1.296
G3 X36.613 Y-1.391 I0.198 J-0.028
G1 X38.371 Y3.59
G2 X38.744 Y3.602 I0.189 J-0.067
G1 Z-3
X38.748 Y3.591
G2 X39.02 Y1.535 I-3.563 J-1.516
G1 X38.617 Y-1.297
G2 X38.219 Y-1.271 I-0.198 J0.028
G1 X38.115 Y10.011
G3 X37.721 Y10.054 I-0.2 J-0.002
G1 X36.946 Y6.697
G3 X37.123 Y5.863 I0.983 J-0.227
X37.481 Y5.956 I0.16 J0.12
G1 X39.805 Y23.288
G3 X39.604 Y23.515 I-0.198 J0.027
G1 X38.437 Y23.501
X34.328 Y5.704
X36.383 Y2.977
G2 X36.671 Y1.866 I-1.198 J-0.903
G1 X36.4 Y-0.063
X36.226 Y-1.296
G3 X36.613 Y-1.391 I0.198 J-0.028
G1 X38.371 Y3.59
G2 X38.744 Y3.602 I0.189 J-0.067
G1 Z-4
X38.748 Y3.591
G2 X39.02 Y1.535 I-3.563 J-1.516
G1 X38.617 Y-1.297
G2 X38.219 Y-1.271 I-0.198 J0.028
G1 X38.115 Y10.011
G3 X37.721 Y10.054 I-0.2 J-0.002
G1 X36.946 Y6.697
G3 X37.123 Y5.863 I0.983 J-0.227
X37.481 Y5.956 I0.16 J0.12
G1 X39.805 Y23.288
G3 X39.604 Y23.515 I-0.198 J0.027
G1 X38.437 Y23.501
X34.328 Y5.704
X36.383 Y2.977
G2 X36.671 Y1.866 I-1.198 J-0.903
G1 X36.4 Y-0.063
X36.226 Y-1.296
G3 X36.613 Y-1.391 I0.198 J-0.028
G1 X38.371 Y3.59
G2 X38.744 Y3.602 I0.189 J-0.067
G1 Z-4.571
X38.748 Y3.591
G2 X39.02 Y1.535 I-3.563 J-1.516
G1 X38.617 Y-1.297
G2 X38.219 Y-1.271 I-0.198 J0.028
G1 X38.115 Y10.011
G3 X37.721 Y10.054 I-0.2 J-0.002
G1 X36.946 Y6.697
G3 X37.123 Y5.863 I0.983 J-0.227
X37.481 Y5.956 I0.16 J0.12
G1 X39.805 Y23.288
G3 X39.604 Y23.515 I-0.198 J0.027
G1 X38.437 Y23.501
X34.328 Y5.704
X36.383 Y2.977
G2 X36.671 Y1.866 I-1.198 J-0.903
G1 X36.4 Y-0.063
X36.226 Y-1.296
G3 X36.613 Y-1.391 I0.198 J-0.028
G1 X38.371 Y3.59
G2 X38.744 Y3.602 I0.189 J-0.067
G1 Z-5.143
X38.748 Y3.591
G2 X39.02 Y1.535 I-3.563 J-1.516
G1 X38.617 Y-1.297
G2 X38.219 Y-1.271 I-0.198 J0.028
G1 X38.115 Y10.011
G3 X37.721 Y10.054 I-0.2 J-0.002
G1 X36.946 Y6.697
G3 X37.123 Y5.863 I0.983 J-0.227
X37.481 Y5.956 I0.16 J0.12
G1 X39.805 Y23.288
G3 X39.604 Y23.515 I-0.198 J0.027
G1 X38.437 Y23.501
X34.328 Y5.704
X36.383 Y2.977
G2 X36.671 Y1.866 I-1.198 J-0.903
G1 X36.4 Y-0.063
X36.226 Y-1.296
G0 Z6
X41.81 Y3.732
Z2
G1 Z-1 F700
X41.815 Y3.722
G2 X42.239 Y1.741 I-3.465 J-1.777
G1 X42.085 Y-1.099
G2 X41.687 Y-1.108 I-0.2 J0.011
G1 X40.564 Y9.854
G3 X40.167 Y9.861 I-0.199 J-0.02
G1 X39.724 Y6.71
G3 X39.955 Y5.915 I0.999 J-0.14
X40.307 Y6.036 I0.152 J0.13
G1 X41.106 Y23.481
G3 X40.886 Y23.689 I-0.2 J0.009
G1 X39.722 Y23.574
X37.18 Y5.486
X39.465 Y2.949
G2 X39.848 Y1.866 I-1.115 J-1.004
G1 X39.746 Y-0.079
X39.681 Y-1.322
G3 X40.074 Y-1.385 I0.2 J-0.01
G1 X41.439 Y3.693
G2 X41.81 Y3.732 I0.193 J-0.052
G1 Z-2
X41.815 Y3.722
G2 X42.239 Y1.741 I-3.465 J-1.777
G1 X42.085 Y-1.099
G2 X41.687 Y-1.108 I-0.2 J0.011
G1 X40.564 Y9.854
G3 X40.167 Y9.861 I-0.199 J-0.02
G1 X39.724 Y6.71
G3 X39.955 Y5.915 I0.999 J-0.14
X40.307 Y6.036 I0.152 J0.13
G1 X41.106 Y23.481
G3 X40.886 Y23.689 I-0.2 J0.009
G1 X39.722 Y23.574
X37.18 Y5.486
X39.465 Y2.949
G2 X39.848 Y1.866 I-1.115 J-1.004
G1 X39.746 Y-0.079
X39.681 Y-1.322
G3 X40.074 Y-1.385 I0.2 J-0.01
G1 X41.439 Y3.693
G2 X41.81 Y3.732 I0.193 J-0.052
G1 Z-3
X41.815 Y3.722
G2 X42.239 Y1.741 I-3.465 J-1.777
G1 X42.085 Y-1.099
G2 X41.687 Y-1.108 I-0.2 J0.011
G1 X40.564 Y9.854
G3 X40.167 Y9.861 I-0.199 J-0.02
G1 X39.724 Y6.71
G3 X39.955 Y5.915 I0.999 J-0.14
X40.307 Y6.036 I0.152 J0.13
G1 X41.106 Y23.481
G3 X40.886 Y23.689 I-0.2 J0.009
G1 X39.722 Y23.574
X37.18 Y5.486
X39.465 Y2.949
G2 X39.848 Y1.866 I-1.115 J-1.004
G1 X39.746 Y-0.079
X39.681 Y-1.322
G3 X40.074 Y-1.385 I0.2 J-0.01
G1 X41.439 Y3.693
G2 X41.81 Y3.732 I0.193 J-0.052
G1 Z-4
X41.815 Y3.722
G2 X42.239 Y1.741 I-3.465 J-1.777
G1 X42.085 Y-1.099
G2 X41.687 Y-1.108 I-0.2 J0.011
G1 X40.564 Y9.854
G3 X40.167 Y9.861 I-0.199 J-0.02
G1 X39.724 Y6.71
G3 X39.955 Y5.915 I0.999 J-0.14
X40.307 Y6.036 I0.152 J0.13
G1 X41.106 Y23.481
G3 X40.886 Y23.689 I-0.2 J0.009
G1 X39.722 Y23.574
X37.18 Y5.486
X39.465 Y2.949
G2 X39.848 Y1.866 I-1.115 J-1.004
G1 X39.746 Y-0.079
X39.681 Y-1.322
G3 X40.074 Y-1.385 I0.2 J-0.01
G1 X41.439 Y3.693
G2 X41.81 Y3.732 I0.193 J-0.052
G1 Z-5
X41.815 Y3.722
G2 X42.239 Y1.741 I-3.465 J-1.777
G1 X42.085 Y-1.099
G2 X41.687 Y-1.108 I-0.2 J0.011
G1 X40.564 Y9.854
G3 X40.167 Y9.861 I-0.199 J-0.02
G1 X39.724 Y6.71
G3 X39.955 Y5.915 I0.999 J-0.14
X40.307 Y6.036 I0.152 J0.13
G1 X41.106 Y23.481
G3 X40.886 Y23.689 I-0.2 J0.009
G1 X39.722 Y23.574
X37.18 Y5.486
X39.465 Y2.949
G2 X39.848 Y1.866 I-1.115 J-1.004
G1 X39.746 Y-0.079
X39.681 Y-1.322
G3 X40.074 Y-1.385 I0.2 J-0.01
G1 X41.439 Y3.693
G2 X41.81 Y3.732 I0.193 J-0.052
G1 Z-6
X41.815 Y3.722
G2 X42.239 Y1.741 I-3.465 J-1.777
G1 X42.085 Y-1.099
G2 X41.687 Y-1.108 I-0.2 J0.011
G1 X40.564 Y9.854
G3 X40.167 Y9.861 I-0.199 J-0.02
G1 X39.724 Y6.71
G3 X39.955 Y5.915 I0.999 J-0.14
X40.307 Y6.036 I0.152 J0.13
G1 X41.106 Y23.481
G3 X40.886 Y23.689 I-0.2 J0.009
G1 X39.722 Y23.574
X37.18 Y5.486
X39.465 Y2.949
G2 X39.848 Y1.866 I-1.115 J-1.004
G1 X39.746 Y-0.079
X39.681 Y-1.322
G3 X40.074 Y-1.385 I0.2 J-0.01
G1 X41.439 Y3.693
G2 X41.81 Y3.732 I0.193 J-0.052
G1 Z-7
X41.815 Y3.722
G2 X42.239 Y1.741 I-3.465 J-1.777
G1 X42.085 Y-1.099
G2 X41.687 Y-1.108 I-0.2 J0.011
G1 X40.564 Y9.854
G3 X40.167 Y9.861 I-0.199 J-0.02
G1 X39.724 Y6.71
G3 X39.955 Y5.915 I0.999 J-0.14
X40.307 Y6.036 I0.152 J0.13
G1 X41.106 Y23.481
G3 X40.886 Y23.689 I-0.2 J0.009
G1 X39.722 Y23.574
X37.18 Y5.486
X39.465 Y2.949
G2 X39.848 Y1.866 I-1.115 J-1.004
G1 X39.746 Y-0.079
X39.681 Y-1.322
G3 X40.074 Y-1.385 I0.2 J-0.01
G1 X41.439 Y3.693
G2 X41.81 Y3.732 I0.193 J-0.052
G1 Z-7.714
X41.815 Y3.722
G2 X42.239 Y1.741 I-3.465 J-1.777
G1 X42.085 Y-1.099
G2 X41.687 Y-1.108 I-0.2 J0.011
G1 X40.564 Y9.854
G3 X40.167 Y9.861 I-0.199 J-0.02
G1 X39.724 Y6.71
G3 X39.955 Y5.915 I0.999 J-0.14
X40.307 Y6.036 I0.152 J0.13
G1 X41.106 Y23.481
G3 X40.886 Y23.689 I-0.2 J0.009
G1 X39.722 Y23.574
X37.18 Y5.486
X39.465 Y2.949
G2 X39.848 Y1.866 I-1.115 J-1.004
G1 X39.746 Y-0.079
X39.681 Y-1.322
G0 Z6
X44.688 Y4.264
Z2
G1 Z-1 F700
X44.694 Y4.254
G2 X45.357 Y2.226 I-3.18 J-2.162
G1 X45.453 Y-0.65
G2 X45.056 Y-0.692 I-0.2 J-0.007
G1 X43.011 Y10.706
G3 X42.614 Y10.681 I-0.197 J-0.035
G1 X42.418 Y6.939
G3 X42.737 Y6.148 I1.008 J-0.053
G1 X42.769 Y6.118
G3 X43.105 Y6.273 I0.136 J0.147
G1 X42.374 Y23.785
G3 X42.137 Y23.973 I-0.2 J-0.008
G1 X40.995 Y23.758
X40.039 Y5.518
X42.537 Y3.189
G2 X43.013 Y2.144 I-1.023 J-1.097
G1 X43.081 Y0.198
X43.124 Y-1.047
G3 X43.522 Y-1.07 I0.2 J0.007
G1 X44.325 Y4.182
G2 X44.688 Y4.264 I0.198 J-0.03
G1 Z-2
X44.694 Y4.254
G2 X45.357 Y2.226 I-3.18 J-2.162
G1 X45.453 Y-0.65
G2 X45.056 Y-0.692 I-0.2 J-0.007
G1 X43.011 Y10.706
G3 X42.614 Y10.681 I-0.197 J-0.035
G1 X42.418 Y6.939
G3 X42.737 Y6.148 I1.008 J-0.053
G1 X42.769 Y6.118
G3 X43.105 Y6.273 I0.136 J0.147
G1 X42.374 Y23.785
G3 X42.137 Y23.973 I-0.2 J-0.008
G1 X40.995 Y23.758
X40.039 Y5.518
X42.537 Y3.189
G2 X43.013 Y2.144 I-1.023 J-1.097
G1 X43.081 Y0.198
X43.124 Y-1.047
G3 X43.522 Y-1.07 I0.2 J0.007
G1 X44.325 Y4.182
G2 X44.688 Y4.264 I0.198 J-0.03
G1 Z-3
X44.694 Y4.254
G2 X45.357 Y2.226 I-3.18 J-2.162
G1 X45.453 Y-0.65
G2 X45.056 Y-0.692 I-0.2 J-0.007
G1 X43.011 Y10.706
G3 X42.614 Y10.681 I-0.197 J-0.035
G1 X42.418 Y6.939
G3 X42.737 Y6.148 I1.008 J-0.053
G1 X42.769 Y6.118
G3 X43.105 Y6.273 I0.136 J0.147
G1 X42.374 Y23.785
G3 X42.137 Y23.973 I-0.2 J-0.008
G1 X40.995 Y23.758
X40.039 Y5.518
X42.537 Y3.189
G2 X43.013 Y2.144 I-1.023 J-1.097
G1 X43.081 Y0.198
X43.124 Y-1.047
G3 X43.522 Y-1.07 I0.2 J0.007
G1 X44.325 Y4.182
G2 X44.688 Y4.264 I0.198 J-0.03
G1 Z-4
X44.694 Y4.254
G2 X45.357 Y2.226 I-3.18 J-2.162
G1 X45.453 Y-0.65
G2 X45.056 Y-0.692 I-0.2 J-0.007
G1 X43.011 Y10.706
G3 X42.614 Y10.681 I-0.197 J-0.035
G1 X42.418 Y6.939
G3 X42.737 Y6.148 I1.008 J-0.053
G1 X42.769 Y6.118
G3 X43.105 Y6.273 I0.136 J0.147
G1 X42.374 Y23.785
G3 X42.137 Y23.973 I-0.2 J-0.008
G1 X40.995 Y23.758
X40.039 Y5.518
X42.537 Y3.189
G2 X43.013 Y2.144 I-1.023 J-1.097
G1 X43.081 Y0.198
X43.124 Y-1.047
G3 X43.522 Y-1.07 I0.2 J0.007
G1 X44.325 Y4.182
G2 X44.688 Y4.264 I0.198 J-0.03
G1 Z-5
X44.694 Y4.254
G2 X45.357 Y2.226 I-3.18 J-2.162
G1 X45.453 Y-0.65
G2 X45.056 Y-0.692 I-0.2 J-0.007
G1 X43.011 Y10.706
G3 X42.614 Y10.681 I-0.197 J-0.035
G1 X42.418 Y6.939
G3 X42.737 Y6.148 I1.008 J-0.053
G1 X42.769 Y6.118
G3 X43.105 Y6.273 I0.136 J0.147
G1 X42.374 Y23.785
G3 X42.137 Y23.973 I-0.2 J-0.008
G1 X40.995 Y23.758
X40.039 Y5.518
X42.537 Y3.189
G2 X43.013 Y2.144 I-1.023 J-1.097
G1 X43.081 Y0.198
X43.124 Y-1.047
G3 X43.522 Y-1.07 I0.2 J0.007
G1 X44.325 Y4.182
G2 X44.688 Y4.264 I0.198 J-0.03
G1 Z-6
X44.694 Y4.254
G2 X45.357 Y2.226 I-3.18 J-2.162
G1 X45.453 Y-0.65
G2 X45.056 Y-0.692 I-0.2 J-0.007
G1 X43.011 Y10.706
G3 X42.614 Y10.681 I-0.197 J-0.035
G1 X42.418 Y6.939
G3 X42.737 Y6.148 I1.008 J-0.053
G1 X42.769 Y6.118
G3 X43.105 Y6.273 I0.136 J0.147
G1 X42.374 Y23.785
G3 X42.137 Y23.973 I-0.2 J-0.008
G1 X40.995 Y23.758
X40.039 Y5.518
X42.537 Y3.189
G2 X43.013 Y2.144 I-1.023 J-1.097
G1 X43.081 Y0.198
X43.124 Y-1.047
G3 X43.522 Y-1.07 I0.2 J0.007
G1 X44.325 Y4.182
G2 X44.688 Y4.264 I0.198 J-0.03
G1 Z-7
X44.694 Y4.254
G2 X45.357 Y2.226 I-3.18 J-2.162
G1 X45.453 Y-0.65
G2 X45.056 Y-0.692 I-0.2 J-0.007
G1 X43.011 Y10.706
G3 X42.614 Y10.681 I-0.197 J-0.035
G1 X42.418 Y6.939
G3 X42.737 Y6.148 I1.008 J-0.053
G1 X42.769 Y6.118
G3 X43.105 Y6.273 I0.136 J0.147
G1 X42.374 Y23.785
G3 X42.137 Y23.973 I-0.2 J-0.008
G1 X40.995 Y23.758
X40.039 Y5.518
X42.537 Y3.189
G2 X43.013 Y2.144 I-1.023 J-1.097
G1 X43.081 Y0.198
X43.124 Y-1.047
G3 X43.522 Y-1.07 I0.2 J0.007
G1 X44.325 Y4.182
G2 X44.688 Y4.264 I0.198 J-0.03
G1 Z-8
X44.694 Y4.254
G2 X45.357 Y2.226 I-3.18 J-2.162
G1 X45.453 Y-0.65
G2 X45.056 Y-0.692 I-0.2 J-0.007
G1 X43.011 Y10.706
G3 X42.614 Y10.681 I-0.197 J-0.035
G1 X42.418 Y6.939
G3 X42.737 Y6.148 I1.008 J-0.053
G1 X42.769 Y6.118
G3 X43.105 Y6.273 I0.136 J0.147
G1 X42.374 Y23.785
G3 X42.137 Y23.973 I-0.2 J-0.008
G1 X40.995 Y23.758
X40.039 Y5.518
X42.537 Y3.189
G2 X43.013 Y2.144 I-1.023 J-1.097
G1 X43.081 Y0.198
X43.124 Y-1.047
G3 X43.522 Y-1.07 I0.2 J0.007
G1 X44.325 Y4.182
G2 X44.688 Y4.264 I0.198 J-0.03
G1 Z-9
X44.694 Y4.254
G2 X45.357 Y2.226 I-3.18 J-2.162
G1 X45.453 Y-0.65
G2 X45.056 Y-0.692 I-0.2 J-0.007
G1 X43.011 Y10.706
G3 X42.614 Y10.681 I-0.197 J-0.035
G1 X42.418 Y6.939
G3 X42.737 Y6.148 I1.008 J-0.053
G1 X42.769 Y6.118
G3 X43.105 Y6.273 I0.136 J0.147
G1 X42.374 Y23.785
G3 X42.137 Y23.973 I-0.2 J-0.008
G1 X40.995 Y23.758
X40.039 Y5.518
X42.537 Y3.189
G2 X43.013 Y2.144 I-1.023 J-1.097
G1 X43.081 Y0.198
X43.124 Y-1.047
G3 X43.522 Y-1.07 I0.2 J0.007
G1 X44.325 Y4.182
G2 X44.688 Y4.264 I0.198 J-0.03
G1 Z-10
X44.694 Y4.254
G2 X45.357 Y2.226 I-3.18 J-2.162
G1 X45.453 Y-0.65
G2 X45.056 Y-0.692 I-0.2 J-0.007
G1 X43.011 Y10.706
G3 X42.614 Y10.681 I-0.197 J-0.035
G1 X42.418 Y6.939
G3 X42.737 Y6.148 I1.008 J-0.053
G1 X42.769 Y6.118
G3 X43.105 Y6.273 I0.136 J0.147
G1 X42.374 Y23.785
G3 X42.137 Y23.973 I-0.2 J-0.008
G1 X40.995 Y23.758
X40.039 Y5.518
X42.537 Y3.189
G2 X43.013 Y2.144 I-1.023 J-1.097
G1 X43.081 Y0.198
X43.124 Y-1.047
G3 X43.522 Y-1.07 I0.2 J0.007
G1 X44.325 Y4.182
G2 X44.688 Y4.264 I0.198 J-0.03
G1 Z-10.286
X44.694 Y4.254
G2 X45.357 Y2.226 I-3.18 J-2.162
G1 X45.453 Y-0.65
G2 X45.056 Y-0.692 I-0.2 J-0.007
G1 X43.011 Y10.706
G3 X42.614 Y10.681 I-0.197 J-0.035
G1 X42.418 Y6.939
G3 X42.737 Y6.148 I1.008 J-0.053
G1 X42.769 Y6.118
G3 X43.105 Y6.273 I0.136 J0.147
G1 X42.374 Y23.785
G3 X42.137 Y23.973 I-0.2 J-0.008
G1 X40.995 Y23.758
X40.039 Y5.518
X42.537 Y3.189
G2 X43.013 Y2.144 I-1.023 J-1.097
G1 X43.081 Y0.198
X43.124 Y-1.047
G0 Z6
X47.473 Y5.055
Z2
G1 Z-1 F700
X47.481 Y5.046
G2 X48.421 Y2.976 I-2.828 J-2.532
G1 X48.773 Y0.069
G2 X48.381 Y-0.005 I-0.199 J-0.024
G1 X45.324 Y11.799
G3 X44.93 Y11.742 I-0.194 J-0.05
G1 X45.082 Y7.396
G3 X45.469 Y6.636 I1.008 J0.035
G1 X45.563 Y6.564
G3 X45.883 Y6.748 I0.122 J0.158
G1 X43.617 Y24.199
G3 X43.364 Y24.366 I-0.198 J-0.026
G1 X42.248 Y24.052
X42.885 Y5.798
X45.576 Y3.696
G2 X46.142 Y2.697 I-0.923 J-1.182
G1 X46.379 Y0.764
X46.531 Y-0.472
G3 X46.929 Y-0.455 I0.199 J0.024
G1 X47.124 Y4.929
G2 X47.473 Y5.055 I0.2 J-0.007
G1 Z-2
X47.481 Y5.046
G2 X48.421 Y2.976 I-2.828 J-2.532
G1 X48.773 Y0.069
G2 X48.381 Y-0.005 I-0.199 J-0.024
G1 X45.324 Y11.799
G3 X44.93 Y11.742 I-0.194 J-0.05
G1 X45.082 Y7.396
G3 X45.469 Y6.636 I1.008 J0.035
G1 X45.563 Y6.564
G3 X45.883 Y6.748 I0.122 J0.158
G1 X43.617 Y24.199
G3 X43.364 Y24.366 I-0.198 J-0.026
G1 X42.248 Y24.052
X42.885 Y5.798
X45.576 Y3.696
G2 X46.142 Y2.697 I-0.923 J-1.182
G1 X46.379 Y0.764
X46.531 Y-0.472
G3 X46.929 Y-0.455 I0.199 J0.024
G1 X47.124 Y4.929
G2 X47.473 Y5.055 I0.2 J-0.007
G1 Z-3
X47.481 Y5.046
G2 X48.421 Y2.976 I-2.828 J-2.532
G1 X48.773 Y0.069
G2 X48.381 Y-0.005 I-0.199 J-0.024
G1 X45.324 Y11.799
G3 X44.93 Y11.742 I-0.194 J-0.05
G1 X45.082 Y7.396
G3 X45.469 Y6.636 I1.008 J0.035
G1 X45.563 Y6.564
G3 X45.883 Y6.748 I0.122 J0.158
G1 X43.617 Y24.199
G3 X43.364 Y24.366 I-0.198 J-0.026
G1 X42.248 Y24.052
X42.885 Y5.798
X45.576 Y3.696
G2 X46.142 Y2.697 I-0.923 J-1.182
G1 X46.379 Y0.764
X46.531 Y-0.472
G3 X46.929 Y-0.455 I0.199 J0.024
G1 X47.124 Y4.929
G2 X47.473 Y5.055 I0.2 J-0.007
G1 Z-4
X47.481 Y5.046
G2 X48.421 Y2.976 I-2.828 J-2.532
G1 X48.773 Y0.069
G2 X48.381 Y-0.005 I-0.199 J-0.024
G1 X45.324 Y11.799
G3 X44.93 Y11.742 I-0.194 J-0.05
G1 X45.082 Y7.396
G3 X45.469 Y6.636 I1.008 J0.035
G1 X45.563 Y6.564
G3 X45.883 Y6.748 I0.122 J0.158
G1 X43.617 Y24.199
G3 X43.364 Y24.366 I-0.198 J-0.026
G1 X42.248 Y24.052
X42.885 Y5.798
X45.576 Y3.696
G2 X46.142 Y2.697 I-0.923 J-1.182
G1 X46.379 Y0.764
X46.531 Y-0.472
G3 X46.929 Y-0.455 I0.199 J0.024
G1 X47.124 Y4.929
G2 X47.473 Y5.055 I0.2 J-0.007
G1 Z-5
X47.481 Y5.046
G2 X48.421 Y2.976 I-2.828 J-2.532
G1 X48.773 Y0.069
G2 X48.381 Y-0.005 I-0.199 J-0.024
G1 X45.324 Y11.799
G3 X44.93 Y11.742 I-0.194 J-0.05
G1 X45.082 Y7.396
G3 X45.469 Y6.636 I1.008 J0.035
G1 X45.563 Y6.564
G3 X45.883 Y6.748 I0.122 J0.158
G1 X43.617 Y24.199
G3 X43.364 Y24.366 I-0.198 J-0.026
G1 X42.248 Y24.052
X42.885 Y5.798
X45.576 Y3.696
G2 X46.142 Y2.697 I-0.923 J-1.182
G1 X46.379 Y0.764
X46.531 Y-0.472
G3 X46.929 Y-0.455 I0.199 J0.024
G1 X47.124 Y4.929
G2 X47.473 Y5.055 I0.2 J-0.007
G1 Z-6
X47.481 Y5.046
G2 X48.421 Y2.976 I-2.828 J-2.532
G1 X48.773 Y0.069
G2 X48.381 Y-0.005 I-0.199 J-0.024
G1 X45.324 Y11.799
G3 X44.93 Y11.742 I-0.194 J-0.05
G1 X45.082 Y7.396
G3 X45.469 Y6.636 I1.008 J0.035
G1 X45.563 Y6.564
G3 X45.883 Y6.748 I0.122 J0.158
G1 X43.617 Y24.199
G3 X43.364 Y24.366 I-0.198 J-0.026
G1 X42.248 Y24.052
X42.885 Y5.798
X45.576 Y3.696
G2 X46.142 Y2.697 I-0.923 J-1.182
G1 X46.379 Y0.764
X46.531 Y-0.472
G3 X46.929 Y-0.455 I0.199 J0.024
G1 X47.124 Y4.929
G2 X47.473 Y5.055 I0.2 J-0.007
G1 Z-7
X47.481 Y5.046
G2 X48.421 Y2.976 I-2.828 J-2.532
G1 X48.773 Y0.069
G2 X48.381 Y-0.005 I-0.199 J-0.024
G1 X45.324 Y11.799
G3 X44.93 Y11.742 I-0.194 J-0.05
G1 X45.082 Y7.396
G3 X45.469 Y6.636 I1.008 J0.035
G1 X45.563 Y6.564
G3 X45.883 Y6.748 I0.122 J0.158
G1 X43.617 Y24.199
G3 X43.364 Y24.366 I-0.198 J-0.026
G1 X42.248 Y24.052
X42.885 Y5.798
X45.576 Y3.696
G2 X46.142 Y2.697 I-0.923 J-1.182
G1 X46.379 Y0.764
X46.531 Y-0.472
G3 X46.929 Y-0.455 I0.199 J0.024
G1 X47.124 Y4.929
G2 X47.473 Y5.055 I0.2 J-0.007
G1 Z-8
X47.481 Y5.046
G2 X48.421 Y2.976 I-2.828 J-2.532
G1 X48.773 Y0.069
G2 X48.381 Y-0.005 I-0.199 J-0.024
G1 X45.324 Y11.799
G3 X44.93 Y11.742 I-0.194 J-0.05
G1 X45.082 Y7.396
G3 X45.469 Y6.636 I1.008 J0.035
G1 X45.563 Y6.564
G3 X45.883 Y6.748 I0.122 J0.158
G1 X43.617 Y24.199
G3 X43.364 Y24.366 I-0.198 J-0.026
G1 X42.248 Y24.052
X42.885 Y5.798
X45.576 Y3.696
G2 X46.142 Y2.697 I-0.923 J-1.182
G1 X46.379 Y0.764
X46.531 Y-0.472
G3 X46.929 Y-0.455 I0.199 J0.024
G1 X47.124 Y4.929
G2 X47.473 Y5.055 I0.2 J-0.007
G1 Z-9
X47.481 Y5.046
G2 X48.421 Y2.976 I-2.828 J-2.532
G1 X48.773 Y0.069
G2 X48.381 Y-0.005 I-0.199 J-0.024
G1 X45.324 Y11.799
G3 X44.93 Y11.742 I-0.194 J-0.05
G1 X45.082 Y7.396
G3 X45.469 Y6.636 I1.008 J0.035
G1 X45.563 Y6.564
G3 X45.883 Y6.748 I0.122 J0.158
G1 X43.617 Y24.199
G3 X43.364 Y24.366 I-0.198 J-0.026
G1 X42.248 Y24.052
X42.885 Y5.798
X45.576 Y3.696
G2 X46.142 Y2.697 I-0.923 J-1.182
G1 X46.379 Y0.764
X46.531 Y-0.472
G3 X46.929 Y-0.455 I0.199 J0.024
G1 X47.124 Y4.929
G2 X47.473 Y5.055 I0.2 J-0.007
G1 Z-10
X47.481 Y5.046
G2 X48.421 Y2.976 I-2.828 J-2.532
G1 X48.773 Y0.069
G2 X48.381 Y-0.005 I-0.199 J-0.024
G1 X45.324 Y11.799
G3 X44.93 Y11.742 I-0.194 J-0.05
G1 X45.082 Y7.396
G3 X45.469 Y6.636 I1.008 J0.035
G1 X45.563 Y6.564
G3 X45.883 Y6.748 I0.122 J0.158
G1 X43.617 Y24.199
G3 X43.364 Y24.366 I-0.198 J-0.026
G1 X42.248 Y24.052
X42.885 Y5.798
X45.576 Y3.696
G2 X46.142 Y2.697 I-0.923 J-1.182
G1 X46.379 Y0.764
X46.531 Y-0.472
G3 X46.929 Y-0.455 I0.199 J0.024
G1 X47.124 Y4.929
G2 X47.473 Y5.055 I0.2 J-0.007
G1 Z-11
X47.481 Y5.046
G2 X48.421 Y2.976 I-2.828 J-2.532
G1 X48.773 Y0.069
G2 X48.381 Y-0.005 I-0.199 J-0.024
G1 X45.324 Y11.799
G3 X44.93 Y11.742 I-0.194 J-0.05
G1 X45.082 Y7.396
G3 X45.469 Y6.636 I1.008 J0.035
G1 X45.563 Y6.564
G3 X45.883 Y6.748 I0.122 J0.158
G1 X43.617 Y24.199
G3 X43.364 Y24.366 I-0.198 J-0.026
G1 X42.248 Y24.052
X42.885 Y5.798
X45.576 Y3.696
G2 X46.142 Y2.697 I-0.923 J-1.182
G1 X46.379 Y0.764
X46.531 Y-0.472
G3 X46.929 Y-0.455 I0.199 J0.024
G1 X47.124 Y4.929
G2 X47.473 Y5.055 I0.2 J-0.007
G1 Z-12
X47.481 Y5.046
G2 X48.421 Y2.976 I-2.828 J-2.532
G1 X48.773 Y0.069
G2 X48.381 Y-0.005 I-0.199 J-0.024
G1 X45.324 Y11.799
G3 X44.93 Y11.742 I-0.194 J-0.05
G1 X45.082 Y7.396
G3 X45.469 Y6.636 I1.008 J0.035
G1 X45.563 Y6.564
G3 X45.883 Y6.748 I0.122 J0.158
G1 X43.617 Y24.199
G3 X43.364 Y24.366 I-0.198 J-0.026
G1 X42.248 Y24.052
X42.885 Y5.798
X45.576 Y3.696
G2 X46.142 Y2.697 I-0.923 J-1.182
G1 X46.379 Y0.764
X46.531 Y-0.472
G3 X46.929 Y-0.455 I0.199 J0.024
G1 X47.124 Y4.929
G2 X47.473 Y5.055 I0.2 J-0.007
G1 Z-12.857
X47.481 Y5.046
G2 X48.421 Y2.976 I-2.828 J-2.532
G1 X48.773 Y0.069
G2 X48.381 Y-0.005 I-0.199 J-0.024
G1 X45.324 Y11.799
G3 X44.93 Y11.742 I-0.194 J-0.05
G1 X45.082 Y7.396
G3 X45.469 Y6.636 I1.008 J0.035
G1 X45.563 Y6.564
G3 X45.883 Y6.748 I0.122 J0.158
G1 X43.617 Y24.199
G3 X43.364 Y24.366 I-0.198 J-0.026
G1 X42.248 Y24.052
X42.885 Y5.798
X45.576 Y3.696
G2 X46.142 Y2.697 I-0.923 J-1.182
G1 X46.379 Y0.764
X46.531 Y-0.472
G0 Z6
X46.772 Y14.513
Z2
G1 Z-1 F700
X46.773 Y14.501
X47.571 Y8
G3 X48.023 Y7.277 I1.001 J0.123
G1 X48.348 Y7.066
G3 X48.652 Y7.277 I0.109 J0.168
G1 X44.832 Y24.724
G3 X44.566 Y24.868 I-0.195 J-0.043
G1 X43.47 Y24.455
X45.696 Y6.326
X48.56 Y4.466
X48.955 Y4.209
G3 X49.26 Y4.417 I0.109 J0.168
G1 X47.166 Y14.578
G3 X46.772 Y14.513 I-0.196 J-0.04
G1 Z-2
X46.773 Y14.501
X47.571 Y8
G3 X48.023 Y7.277 I1.001 J0.123
G1 X48.348 Y7.066
G3 X48.652 Y7.277 I0.109 J0.168
G1 X44.832 Y24.724
G3 X44.566 Y24.868 I-0.195 J-0.043
G1 X43.47 Y24.455
X45.696 Y6.326
X48.56 Y4.466
X48.955 Y4.209
G3 X49.26 Y4.417 I0.109 J0.168
G1 X47.166 Y14.578
G3 X46.772 Y14.513 I-0.196 J-0.04
G1 Z-3
X46.773 Y14.501
X47.571 Y8
G3 X48.023 Y7.277 I1.001 J0.123
G1 X48.348 Y7.066
G3 X48.652 Y7.277 I0.109 J0.168
G1 X44.832 Y24.724
G3 X44.566 Y24.868 I-0.195 J-0.043
G1 X43.47 Y24.455
X45.696 Y6.326
X48.56 Y4.466
X48.955 Y4.209
G3 X49.26 Y4.417 I0.109 J0.168
G1 X47.166 Y14.578
G3 X46.772 Y14.513 I-0.196 J-0.04
G1 Z-4
X46.773 Y14.501
X47.571 Y8
G3 X48.023 Y7.277 I1.001 J0.123
G1 X48.348 Y7.066
G3 X48.652 Y7.277 I0.109 J0.168
G1 X44.832 Y24.724
G3 X44.566 Y24.868 I-0.195 J-0.043
G1 X43.47 Y24.455
X45.696 Y6.326
X48.56 Y4.466
X48.955 Y4.209
G3 X49.26 Y4.417 I0.109 J0.168
G1 X47.166 Y14.578
G3 X46.772 Y14.513 I-0.196 J-0.04
G1 Z-5
X46.773 Y14.501
X47.571 Y8
G3 X48.023 Y7.277 I1.001 J0.123
G1 X48.348 Y7.066
G3 X48.652 Y7.277 I0.109 J0.168
G1 X44.832 Y24.724
G3 X44.566 Y24.868 I-0.195 J-0.043
G1 X43.47 Y24.455
X45.696 Y6.326
X48.56 Y4.466
X48.955 Y4.209
G3 X49.26 Y4.417 I0.109 J0.168
G1 X47.166 Y14.578
G3 X46.772 Y14.513 I-0.196 J-0.04
G1 Z-6
X46.773 Y14.501
X47.571 Y8
G3 X48.023 Y7.277 I1.001 J0.123
G1 X48.348 Y7.066
G3 X48.652 Y7.277 I0.109 J0.168
G1 X44.832 Y24.724
G3 X44.566 Y24.868 I-0.195 J-0.043
G1 X43.47 Y24.455
X45.696 Y6.326
X48.56 Y4.466
X48.955 Y4.209
G3 X49.26 Y4.417 I0.109 J0.168
G1 X47.166 Y14.578
G3 X46.772 Y14.513 I-0.196 J-0.04
G1 Z-7
X46.773 Y14.501
X47.571 Y8
G3 X48.023 Y7.277 I1.001 J0.123
G1 X48.348 Y7.066
G3 X48.652 Y7.277 I0.109 J0.168
G1 X44.832 Y24.724
G3 X44.566 Y24.868 I-0.195 J-0.043
G1 X43.47 Y24.455
X45.696 Y6.326
X48.56 Y4.466
X48.955 Y4.209
G3 X49.26 Y4.417 I0.109 J0.168
G1 X47.166 Y14.578
G3 X46.772 Y14.513 I-0.196 J-0.04
G1 Z-8
X46.773 Y14.501
X47.571 Y8
G3 X48.023 Y7.277 I1.001 J0.123
G1 X48.348 Y7.066
G3 X48.652 Y7.277 I0.109 J0.168
G1 X44.832 Y24.724
G3 X44.566 Y24.868 I-0.195 J-0.043
G1 X43.47 Y24.455
X45.696 Y6.326
X48.56 Y4.466
X48.955 Y4.209
G3 X49.26 Y4.417 I0.109 J0.168
G1 X47.166 Y14.578
G3 X46.772 Y14.513 I-0.196 J-0.04
G1 Z-9
X46.773 Y14.501
X47.571 Y8
G3 X48.023 Y7.277 I1.001 J0.123
G1 X48.348 Y7.066
G3 X48.652 Y7.277 I0.109 J0.168
G1 X44.832 Y24.724
G3 X44.566 Y24.868 I-0.195 J-0.043
G1 X43.47 Y24.455
X45.696 Y6.326
X48.56 Y4.466
X48.955 Y4.209
G3 X49.26 Y4.417 I0.109 J0.168
G1 X47.166 Y14.578
G3 X46.772 Y14.513 I-0.196 J-0.04
G1 Z-10
X46.773 Y14.501
X47.571 Y8
G3 X48.023 Y7.277 I1.001 J0.123
G1 X48.348 Y7.066
G3 X48.652 Y7.277 I0.109 J0.168
G1 X44.832 Y24.724
G3 X44.566 Y24.868 I-0.195 J-0.043
G1 X43.47 Y24.455
X45.696 Y6.326
X48.56 Y4.466
X48.955 Y4.209
G3 X49.26 Y4.417 I0.109 J0.168
G1 X47.166 Y14.578
G3 X46.772 Y14.513 I-0.196 J-0.04
G1 Z-11
X46.773 Y14.501
X47.571 Y8
G3 X48.023 Y7.277 I1.001 J0.123
G1 X48.348 Y7.066
G3 X48.652 Y7.277 I0.109 J0.168
G1 X44.832 Y24.724
G3 X44.566 Y24.868 I-0.195 J-0.043
G1 X43.47 Y24.455
X45.696 Y6.326
X48.56 Y4.466
X48.955 Y4.209
G3 X49.26 Y4.417 I0.109 J0.168
G1 X47.166 Y14.578
G3 X46.772 Y14.513 I-0.196 J-0.04
G1 Z-12
X46.773 Y14.501
X47.571 Y8
G3 X48.023 Y7.277 I1.001 J0.123
G1 X48.348 Y7.066
G3 X48.652 Y7.277 I0.109 J0.168
G1 X44.832 Y24.724
G3 X44.566 Y24.868 I-0.195 J-0.043
G1 X43.47 Y24.455
X45.696 Y6.326
X48.56 Y4.466
X48.955 Y4.209
G3 X49.26 Y4.417 I0.109 J0.168
G1 X47.166 Y14.578
G3 X46.772 Y14.513 I-0.196 J-0.04
G1 Z-13
X46.773 Y14.501
X47.571 Y8
G3 X48.023 Y7.277 I1.001 J0.123
G1 X48.348 Y7.066
G3 X48.652 Y7.277 I0.109 J0.168
G1 X44.832 Y24.724
G3 X44.566 Y24.868 I-0.195 J-0.043
G1 X43.47 Y24.455
X45.696 Y6.326
X48.56 Y4.466
X48.955 Y4.209
G3 X49.26 Y4.417 I0.109 J0.168
G1 X47.166 Y14.578
G3 X46.772 Y14.513 I-0.196 J-0.04
G1 Z-14
X46.773 Y14.501
X47.571 Y8
G3 X48.023 Y7.277 I1.001 J0.123
G1 X48.348 Y7.066
G3 X48.652 Y7.277 I0.109 J0.168
G1 X44.832 Y24.724
G3 X44.566 Y24.868 I-0.195 J-0.043
G1 X43.47 Y24.455
X45.696 Y6.326
X48.56 Y4.466
X48.955 Y4.209
G3 X49.26 Y4.417 I0.109 J0.168
G1 X47.166 Y14.578
G3 X46.772 Y14.513 I-0.196 J-0.04
G1 Z-15
X46.773 Y14.501
X47.571 Y8
G3 X48.023 Y7.277 I1.001 J0.123
G1 X48.348 Y7.066
G3 X48.652 Y7.277 I0.109 J0.168
G1 X44.832 Y24.724
G3 X44.566 Y24.868 I-0.195 J-0.043
G1 X43.47 Y24.455
X45.696 Y6.326
X48.56 Y4.466
X48.955 Y4.209
G3 X49.26 Y4.417 I0.109 J0.168
G1 X47.166 Y14.578
G3 X46.772 Y14.513 I-0.196 J-0.04
G1 Z-15.429
X46.773 Y14.501
X47.571 Y8
G3 X48.023 Y7.277 I1.001 J0.123
G1 X48.348 Y7.066
G3 X48.652 Y7.277 I0.109 J0.168
G1 X44.832 Y24.724
G3 X44.566 Y24.868 I-0.195 J-0.043
G1 X43.47 Y24.455
X45.696 Y6.326
X48.56 Y4.466
X48.955 Y4.209
G0 Z6
X68.851 Y24.658
Z2
G1 Z-1 F700
X68.863 Y24.657
G2 X69.474 Y24.819 I5.834 J-20.79
X72.223 Y24.408 I0.879 J-3.525
G1 X74.746 Y22.888
G2 X74.557 Y22.535 I-0.103 J-0.171
G1 X61.852 Y28.499
G3 X61.649 Y28.156 I-0.085 J-0.181
G1 X66.735 Y24.461
G3 X67.572 Y24.298 I0.593 J0.816
X67.915 Y24.387 I-5.224 J20.951
X67.965 Y24.752 I-0.052 J0.193
G1 X52.631 Y33.839
G3 X52.344 Y33.743 I-0.102 J-0.172
G1 X51.899 Y32.659
X66.676 Y21.923
X69.99 Y22.75
G2 X71.125 Y22.58 I0.363 J-1.455
G1 X72.794 Y21.577
X73.862 Y20.935
G3 X74.138 Y21.007 I0.103 J0.171
X74.063 Y21.281 I-0.173 J0.1
G1 X68.67 Y24.302
G2 X68.851 Y24.658 I0.098 J0.174
G1 Z-2
X68.863 Y24.657
G2 X69.474 Y24.819 I5.834 J-20.79
X72.223 Y24.408 I0.879 J-3.525
G1 X74.746 Y22.888
G2 X74.557 Y22.535 I-0.103 J-0.171
G1 X61.852 Y28.499
G3 X61.649 Y28.156 I-0.085 J-0.181
G1 X66.735 Y24.461
G3 X67.572 Y24.298 I0.593 J0.816
X67.915 Y24.387 I-5.224 J20.951
X67.965 Y24.752 I-0.052 J0.193
G1 X52.631 Y33.839
G3 X52.344 Y33.743 I-0.102 J-0.172
G1 X51.899 Y32.659
X66.676 Y21.923
X69.99 Y22.75
G2 X71.125 Y22.58 I0.363 J-1.455
G1 X72.794 Y21.577
X73.862 Y20.935
G3 X74.138 Y21.007 I0.103 J0.171
X74.063 Y21.281 I-0.173 J0.1
G1 X68.67 Y24.302
G2 X68.851 Y24.658 I0.098 J0.174
G1 Z-2.571
X68.863 Y24.657
G2 X69.474 Y24.819 I5.834 J-20.79
X72.223 Y24.408 I0.879 J-3.525
G1 X74.746 Y22.888
G2 X74.557 Y22.535 I-0.103 J-0.171
G1 X61.852 Y28.499
G3 X61.649 Y28.156 I-0.085 J-0.181
G1 X66.735 Y24.461
G3 X67.572 Y24.298 I0.593 J0.816
X67.915 Y24.387 I-5.224 J20.951
X67.965 Y24.752 I-0.052 J0.193
G1 X52.631 Y33.839
G3 X52.344 Y33.743 I-0.102 J-0.172
G1 X51.899 Y32.659
X66.676 Y21.923
X69.99 Y22.75
G2 X71.125 Y22.58 I0.363 J-1.455
G1 X72.794 Y21.577
X73.862 Y20.935
G0 Z6
X70.581 Y27.668
Z2
G1 Z-1 F700
X70.603 Y27.675
G2 X73.324 Y27.471 I1.105 J-3.518
G1 X75.954 Y26.183
G2 X75.799 Y25.815 I-0.088 J-0.18
G1 X63.18 Y30.315
G3 X63.01 Y29.955 I-0.067 J-0.188
G1 X67.835 Y27.056
G3 X68.683 Y26.967 I0.52 J0.865
X68.941 Y27.058 I-6.848 J19.889
X68.96 Y27.427 I-0.068 J0.188
G1 X52.958 Y35.1
G3 X52.681 Y34.979 I-0.086 J-0.18
G1 X52.335 Y33.87
X67.991 Y24.463
X71.22 Y25.575
G2 X72.366 Y25.505 I0.488 J-1.418
G1 X74.116 Y24.651
X75.235 Y24.105
G3 X75.424 Y24.458 I0.088 J0.18
G1 X70.54 Y27.304
G2 X70.581 Y27.668 I0.101 J0.173
G1 Z-2
X70.603 Y27.675
G2 X73.324 Y27.471 I1.105 J-3.518
G1 X75.954 Y26.183
G2 X75.799 Y25.815 I-0.088 J-0.18
G1 X63.18 Y30.315
G3 X63.01 Y29.955 I-0.067 J-0.188
G1 X67.835 Y27.056
G3 X68.683 Y26.967 I0.52 J0.865
X68.941 Y27.058 I-6.848 J19.889
X68.96 Y27.427 I-0.068 J0.188
G1 X52.958 Y35.1
G3 X52.681 Y34.979 I-0.086 J-0.18
G1 X52.335 Y33.87
X67.991 Y24.463
X71.22 Y25.575
G2 X72.366 Y25.505 I0.488 J-1.418
G1 X74.116 Y24.651
X75.235 Y24.105
G3 X75.424 Y24.458 I0.088 J0.18
G1 X70.54 Y27.304
G2 X70.581 Y27.668 I0.101 J0.173
G1 Z-3
X70.603 Y27.675
G2 X73.324 Y27.471 I1.105 J-3.518
G1 X75.954 Y26.183
G2 X75.799 Y25.815 I-0.088 J-0.18
G1 X63.18 Y30.315
G3 X63.01 Y29.955 I-0.067 J-0.188
G1 X67.835 Y27.056
G3 X68.683 Y26.967 I0.52 J0.865
X68.941 Y27.058 I-6.848 J19.889
X68.96 Y27.427 I-0.068 J0.188
G1 X52.958 Y35.1
G3 X52.681 Y34.979 I-0.086 J-0.18
G1 X52.335 Y33.87
X67.991 Y24.463
X71.22 Y25.575
G2 X72.366 Y25.505 I0.488 J-1.418
G1 X74.116 Y24.651
X75.235 Y24.105
G3 X75.424 Y24.458 I0.088 J0.18
G1 X70.54 Y27.304
G2 X70.581 Y27.668 I0.101 J0.173
G1 Z-4
X70.603 Y27.675
G2 X73.324 Y27.471 I1.105 J-3.518
G1 X75.954 Y26.183
G2 X75.799 Y25.815 I-0.088 J-0.18
G1 X63.18 Y30.315
G3 X63.01 Y29.955 I-0.067 J-0.188
G1 X67.835 Y27.056
G3 X68.683 Y26.967 I0.52 J0.865
X68.941 Y27.058 I-6.848 J19.889
X68.96 Y27.427 I-0.068 J0.188
G1 X52.958 Y35.1
G3 X52.681 Y34.979 I-0.086 J-0.18
G1 X52.335 Y33.87
X67.991 Y24.463
X71.22 Y25.575
G2 X72.366 Y25.505 I0.488 J-1.418
G1 X74.116 Y24.651
X75.235 Y24.105
G3 X75.424 Y24.458 I0.088 J0.18
G1 X70.54 Y27.304
G2 X70.581 Y27.668 I0.101 J0.173
G1 Z-4.571
X70.603 Y27.675
G2 X73.324 Y27.471 I1.105 J-3.518
G1 X75.954 Y26.183
G2 X75.799 Y25.815 I-0.088 J-0.18
G1 X63.18 Y30.315
G3 X63.01 Y29.955 I-0.067 J-0.188
G1 X67.835 Y27.056
G3 X68.683 Y26.967 I0.52 J0.865
X68.941 Y27.058 I-6.848 J19.889
X68.96 Y27.427 I-0.068 J0.188
G1 X52.958 Y35.1
G3 X52.681 Y34.979 I-0.086 J-0.18
G1 X52.335 Y33.87
X67.991 Y24.463
X71.22 Y25.575
G2 X72.366 Y25.505 I0.488 J-1.418
G1 X74.116 Y24.651
X75.235 Y24.105
G3 X75.424 Y24.458 I0.088 J0.18
G1 X70.54 Y27.304
G2 X70.581 Y27.668 I0.101 J0.173
G1 Z-5.143
X70.603 Y27.675
G2 X73.324 Y27.471 I1.105 J-3.518
G1 X75.954 Y26.183
G2 X75.799 Y25.815 I-0.088 J-0.18
G1 X63.18 Y30.315
G3 X63.01 Y29.955 I-0.067 J-0.188
G1 X67.835 Y27.056
G3 X68.683 Y26.967 I0.52 J0.865
X68.941 Y27.058 I-6.848 J19.889
X68.96 Y27.427 I-0.068 J0.188
G1 X52.958 Y35.1
G3 X52.681 Y34.979 I-0.086 J-0.18
G1 X52.335 Y33.87
X67.991 Y24.463
X71.22 Y25.575
G2 X72.366 Y25.505 I0.488 J-1.418
G1 X74.116 Y24.651
X75.235 Y24.105
G0 Z6
X71.685 Y30.694
Z2
G1 Z-1 F700
X71.697 Y30.698
G2 X74.15 Y30.619 I1.112 J-3.572
G1 X76.866 Y29.571
G2 X76.745 Y29.191 I-0.072 J-0.187
G1 X64.35 Y32.297
G3 X64.214 Y31.924 I-0.049 J-0.194
G1 X68.699 Y29.736
G3 X69.551 Y29.722 I0.442 J0.907
G1 X69.729 Y29.802
G3 X69.717 Y30.171 I-0.083 J0.182
G1 X53.179 Y36.406
G3 X52.913 Y36.262 I-0.071 J-0.187
G1 X52.663 Y35.114
X69.079 Y27.108
X72.199 Y28.497
G2 X73.347 Y28.527 I0.61 J-1.37
G1 X75.165 Y27.829
X76.327 Y27.382
G3 X76.493 Y27.746 I0.072 J0.187
G1 X71.651 Y30.327
G2 X71.685 Y30.694 I0.094 J0.176
G1 Z-2
X71.697 Y30.698
G2 X74.15 Y30.619 I1.112 J-3.572
G1 X76.866 Y29.571
G2 X76.745 Y29.191 I-0.072 J-0.187
G1 X64.35 Y32.297
G3 X64.214 Y31.924 I-0.049 J-0.194
G1 X68.699 Y29.736
G3 X69.551 Y29.722 I0.442 J0.907
G1 X69.729 Y29.802
G3 X69.717 Y30.171 I-0.083 J0.182
G1 X53.179 Y36.406
G3 X52.913 Y36.262 I-0.071 J-0.187
G1 X52.663 Y35.114
X69.079 Y27.108
X72.199 Y28.497
G2 X73.347 Y28.527 I0.61 J-1.37
G1 X75.165 Y27.829
X76.327 Y27.382
G3 X76.493 Y27.746 I0.072 J0.187
G1 X71.651 Y30.327
G2 X71.685 Y30.694 I0.094 J0.176
G1 Z-3
X71.697 Y30.698
G2 X74.15 Y30.619 I1.112 J-3.572
G1 X76.866 Y29.571
G2 X76.745 Y29.191 I-0.072 J-0.187
G1 X64.35 Y32.297
G3 X64.214 Y31.924 I-0.049 J-0.194
G1 X68.699 Y29.736
G3 X69.551 Y29.722 I0.442 J0.907
G1 X69.729 Y29.802
G3 X69.717 Y30.171 I-0.083 J0.182
G1 X53.179 Y36.406
G3 X52.913 Y36.262 I-0.071 J-0.187
G1 X52.663 Y35.114
X69.079 Y27.108
X72.199 Y28.497
G2 X73.347 Y28.527 I0.61 J-1.37
G1 X75.165 Y27.829
X76.327 Y27.382
G3 X76.493 Y27.746 I0.072 J0.187
G1 X71.651 Y30.327
G2 X71.685 Y30.694 I0.094 J0.176
G1 Z-4
X71.697 Y30.698
G2 X74.15 Y30.619 I1.112 J-3.572
G1 X76.866 Y29.571
G2 X76.745 Y29.191 I-0.072 J-0.187
G1 X64.35 Y32.297
G3 X64.214 Y31.924 I-0.049 J-0.194
G1 X68.699 Y29.736
G3 X69.551 Y29.722 I0.442 J0.907
G1 X69.729 Y29.802
G3 X69.717 Y30.171 I-0.083 J0.182
G1 X53.179 Y36.406
G3 X52.913 Y36.262 I-0.071 J-0.187
G1 X52.663 Y35.114
X69.079 Y27.108
X72.199 Y28.497
G2 X73.347 Y28.527 I0.61 J-1.37
G1 X75.165 Y27.829
X76.327 Y27.382
G3 X76.493 Y27.746 I0.072 J0.187
G1 X71.651 Y30.327
G2 X71.685 Y30.694 I0.094 J0.176
G1 Z-5
X71.697 Y30.698
G2 X74.15 Y30.619 I1.112 J-3.572
G1 X76.866 Y29.571
G2 X76.745 Y29.191 I-0.072 J-0.187
G1 X64.35 Y32.297
G3 X64.214 Y31.924 I-0.049 J-0.194
G1 X68.699 Y29.736
G3 X69.551 Y29.722 I0.442 J0.907
G1 X69.729 Y29.802
G3 X69.717 Y30.171 I-0.083 J0.182
G1 X53.179 Y36.406
G3 X52.913 Y36.262 I-0.071 J-0.187
G1 X52.663 Y35.114
X69.079 Y27.108
X72.199 Y28.497
G2 X73.347 Y28.527 I0.61 J-1.37
G1 X75.165 Y27.829
X76.327 Y27.382
G3 X76.493 Y27.746 I0.072 J0.187
G1 X71.651 Y30.327
G2 X71.685 Y30.694 I0.094 J0.176
G1 Z-6
X71.697 Y30.698
G2 X74.15 Y30.619 I1.112 J-3.572
G1 X76.866 Y29.571
G2 X76.745 Y29.191 I-0.072 J-0.187
G1 X64.35 Y32.297
G3 X64.214 Y31.924 I-0.049 J-0.194
G1 X68.699 Y29.736
G3 X69.551 Y29.722 I0.442 J0.907
G1 X69.729 Y29.802
G3 X69.717 Y30.171 I-0.083 J0.182
G1 X53.179 Y36.406
G3 X52.913 Y36.262 I-0.071 J-0.187
G1 X52.663 Y35.114
X69.079 Y27.108
X72.199 Y28.497
G2 X73.347 Y28.527 I0.61 J-1.37
G1 X75.165 Y27.829
X76.327 Y27.382
G3 X76.493 Y27.746 I0.072 J0.187
G1 X71.651 Y30.327
G2 X71.685 Y30.694 I0.094 J0.176
G1 Z-7
X71.697 Y30.698
G2 X74.15 Y30.619 I1.112 J-3.572
G1 X76.866 Y29.571
G2 X76.745 Y29.191 I-0.072 J-0.187
G1 X64.35 Y32.297
G3 X64.214 Y31.924 I-0.049 J-0.194
G1 X68.699 Y29.736
G3 X69.551 Y29.722 I0.442 J0.907
G1 X69.729 Y29.802
G3 X69.717 Y30.171 I-0.083 J0.182
G1 X53.179 Y36.406
G3 X52.913 Y36.262 I-0.071 J-0.187
G1 X52.663 Y35.114
X69.079 Y27.108
X72.199 Y28.497
G2 X73.347 Y28.527 I0.61 J-1.37
G1 X75.165 Y27.829
X76.327 Y27.382
G3 X76.493 Y27.746 I0.072 J0.187
G1 X71.651 Y30.327
G2 X71.685 Y30.694 I0.094 J0.176
G1 Z-7.714
X71.697 Y30.698
G2 X74.15 Y30.619 I1.112 J-3.572
G1 X76.866 Y29.571
G2 X76.745 Y29.191 I-0.072 J-0.187
G1 X64.35 Y32.297
G3 X64.214 Y31.924 I-0.049 J-0.194
G1 X68.699 Y29.736
G3 X69.551 Y29.722 I0.442 J0.907
G1 X69.729 Y29.802
G3 X69.717 Y30.171 I-0.083 J0.182
G1 X53.179 Y36.406
G3 X52.913 Y36.262 I-0.071 J-0.187
G1 X52.663 Y35.114
X69.079 Y27.108
X72.199 Y28.497
G2 X73.347 Y28.527 I0.61 J-1.37
G1 X75.165 Y27.829
X76.327 Y27.382
G0 Z6
X72.369 Y33.74
Z2
G1 Z-1 F700
X72.38 Y33.744
G2 X73.647 Y33.973 I1.267 J-3.391
X75.13 Y33.733 I0 J-4.702
G3 X76.565 Y33.29 I11.401 J34.309
G1 X77.47 Y33.028
G2 X77.385 Y32.638 I-0.055 J-0.192
G1 X65.327 Y34.436
G3 X65.226 Y34.051 I-0.029 J-0.198
G1 X69.321 Y32.48
G3 X70.172 Y32.539 I0.362 J0.942
G1 X70.275 Y32.596
G3 X70.231 Y32.964 I-0.097 J0.175
G1 X53.282 Y37.703
G3 X53.029 Y37.536 I-0.054 J-0.193
G1 X52.881 Y36.383
X69.933 Y29.837
X72.92 Y31.493
G2 X74.06 Y31.623 I0.727 J-1.312
G1 X75.933 Y31.086
X77.13 Y30.742
G3 X77.268 Y31.116 I0.055 J0.192
G1 X72.355 Y33.371
G2 X72.369 Y33.74 I0.083 J0.182
G1 Z-2
X72.38 Y33.744
G2 X73.647 Y33.973 I1.267 J-3.391
X75.13 Y33.733 I0 J-4.702
G3 X76.565 Y33.29 I11.401 J34.309
G1 X77.47 Y33.028
G2 X77.385 Y32.638 I-0.055 J-0.192
G1 X65.327 Y34.436
G3 X65.226 Y34.051 I-0.029 J-0.198
G1 X69.321 Y32.48
G3 X70.172 Y32.539 I0.362 J0.942
G1 X70.275 Y32.596
G3 X70.231 Y32.964 I-0.097 J0.175
G1 X53.282 Y37.703
G3 X53.029 Y37.536 I-0.054 J-0.193
G1 X52.881 Y36.383
X69.933 Y29.837
X72.92 Y31.493
G2 X74.06 Y31.623 I0.727 J-1.312
G1 X75.933 Y31.086
X77.13 Y30.742
G3 X77.268 Y31.116 I0.055 J0.192
G1 X72.355 Y33.371
G2 X72.369 Y33.74 I0.083 J0.182
G1 Z-3
X72.38 Y33.744
G2 X73.647 Y33.973 I1.267 J-3.391
X75.13 Y33.733 I0 J-4.702
G3 X76.565 Y33.29 I11.401 J34.309
G1 X77.47 Y33.028
G2 X77.385 Y32.638 I-0.055 J-0.192
G1 X65.327 Y34.436
G3 X65.226 Y34.051 I-0.029 J-0.198
G1 X69.321 Y32.48
G3 X70.172 Y32.539 I0.362 J0.942
G1 X70.275 Y32.596
G3 X70.231 Y32.964 I-0.097 J0.175
G1 X53.282 Y37.703
G3 X53.029 Y37.536 I-0.054 J-0.193
G1 X52.881 Y36.383
X69.933 Y29.837
X72.92 Y31.493
G2 X74.06 Y31.623 I0.727 J-1.312
G1 X75.933 Y31.086
X77.13 Y30.742
G3 X77.268 Y31.116 I0.055 J0.192
G1 X72.355 Y33.371
G2 X72.369 Y33.74 I0.083 J0.182
G1 Z-4
X72.38 Y33.744
G2 X73.647 Y33.973 I1.267 J-3.391
X75.13 Y33.733 I0 J-4.702
G3 X76.565 Y33.29 I11.401 J34.309
G1 X77.47 Y33.028
G2 X77.385 Y32.638 I-0.055 J-0.192
G1 X65.327 Y34.436
G3 X65.226 Y34.051 I-0.029 J-0.198
G1 X69.321 Y32.48
G3 X70.172 Y32.539 I0.362 J0.942
G1 X70.275 Y32.596
G3 X70.231 Y32.964 I-0.097 J0.175
G1 X53.282 Y37.703
G3 X53.029 Y37.536 I-0.054 J-0.193
G1 X52.881 Y36.383
X69.933 Y29.837
X72.92 Y31.493
G2 X74.06 Y31.623 I0.727 J-1.312
G1 X75.933 Y31.086
X77.13 Y30.742
G3 X77.268 Y31.116 I0.055 J0.192
G1 X72.355 Y33.371
G2 X72.369 Y33.74 I0.083 J0.182
G1 Z-5
X72.38 Y33.744
G2 X73.647 Y33.973 I1.267 J-3.391
X75.13 Y33.733 I0 J-4.702
G3 X76.565 Y33.29 I11.401 J34.309
G1 X77.47 Y33.028
G2 X77.385 Y32.638 I-0.055 J-0.192
G1 X65.327 Y34.436
G3 X65.226 Y34.051 I-0.029 J-0.198
G1 X69.321 Y32.48
G3 X70.172 Y32.539 I0.362 J0.942
G1 X70.275 Y32.596
G3 X70.231 Y32.964 I-0.097 J0.175
G1 X53.282 Y37.703
G3 X53.029 Y37.536 I-0.054 J-0.193
G1 X52.881 Y36.383
X69.933 Y29.837
X72.92 Y31.493
G2 X74.06 Y31.623 I0.727 J-1.312
G1 X75.933 Y31.086
X77.13 Y30.742
G3 X77.268 Y31.116 I0.055 J0.192
G1 X72.355 Y33.371
G2 X72.369 Y33.74 I0.083 J0.182
G1 Z-6
X72.38 Y33.744
G2 X73.647 Y33.973 I1.267 J-3.391
X75.13 Y33.733 I0 J-4.702
G3 X76.565 Y33.29 I11.401 J34.309
G1 X77.47 Y33.028
G2 X77.385 Y32.638 I-0.055 J-0.192
G1 X65.327 Y34.436
G3 X65.226 Y34.051 I-0.029 J-0.198
G1 X69.321 Y32.48
G3 X70.172 Y32.539 I0.362 J0.942
G1 X70.275 Y32.596
G3 X70.231 Y32.964 I-0.097 J0.175
G1 X53.282 Y37.703
G3 X53.029 Y37.536 I-0.054 J-0.193
G1 X52.881 Y36.383
X69.933 Y29.837
X72.92 Y31.493
G2 X74.06 Y31.623 I0.727 J-1.312
G1 X75.933 Y31.086
X77.13 Y30.742
G3 X77.268 Y31.116 I0.055 J0.192
G1 X72.355 Y33.371
G2 X72.369 Y33.74 I0.083 J0.182
G1 Z-7
X72.38 Y33.744
G2 X73.647 Y33.973 I1.267 J-3.391
X75.13 Y33.733 I0 J-4.702
G3 X76.565 Y33.29 I11.401 J34.309
G1 X77.47 Y33.028
G2 X77.385 Y32.638 I-0.055 J-0.192
G1 X65.327 Y34.436
G3 X65.226 Y34.051 I-0.029 J-0.198
G1 X69.321 Y32.48
G3 X70.172 Y32.539 I0.362 J0.942
G1 X70.275 Y32.596
G3 X70.231 Y32.964 I-0.097 J0.175
G1 X53.282 Y37.703
G3 X53.029 Y37.536 I-0.054 J-0.193
G1 X52.881 Y36.383
X69.933 Y29.837
X72.92 Y31.493
G2 X74.06 Y31.623 I0.727 J-1.312
G1 X75.933 Y31.086
X77.13 Y30.742
G3 X77.268 Y31.116 I0.055 J0.192
G1 X72.355 Y33.371
G2 X72.369 Y33.74 I0.083 J0.182
G1 Z-8
X72.38 Y33.744
G2 X73.647 Y33.973 I1.267 J-3.391
X75.13 Y33.733 I0 J-4.702
G3 X76.565 Y33.29 I11.401 J34.309
G1 X77.47 Y33.028
G2 X77.385 Y32.638 I-0.055 J-0.192
G1 X65.327 Y34.436
G3 X65.226 Y34.051 I-0.029 J-0.198
G1 X69.321 Y32.48
G3 X70.172 Y32.539 I0.362 J0.942
G1 X70.275 Y32.596
G3 X70.231 Y32.964 I-0.097 J0.175
G1 X53.282 Y37.703
G3 X53.029 Y37.536 I-0.054 J-0.193
G1 X52.881 Y36.383
X69.933 Y29.837
X72.92 Y31.493
G2 X74.06 Y31.623 I0.727 J-1.312
G1 X75.933 Y31.086
X77.13 Y30.742
G3 X77.268 Y31.116 I0.055 J0.192
G1 X72.355 Y33.371
G2 X72.369 Y33.74 I0.083 J0.182
G1 Z-9
X72.38 Y33.744
G2 X73.647 Y33.973 I1.267 J-3.391
X75.13 Y33.733 I0 J-4.702
G3 X76.565 Y33.29 I11.401 J34.309
G1 X77.47 Y33.028
G2 X77.385 Y32.638 I-0.055 J-0.192
G1 X65.327 Y34.436
G3 X65.226 Y34.051 I-0.029 J-0.198
G1 X69.321 Y32.48
G3 X70.172 Y32.539 I0.362 J0.942
G1 X70.275 Y32.596
G3 X70.231 Y32.964 I-0.097 J0.175
G1 X53.282 Y37.703
G3 X53.029 Y37.536 I-0.054 J-0.193
G1 X52.881 Y36.383
X69.933 Y29.837
X72.92 Y31.493
G2 X74.06 Y31.623 I0.727 J-1.312
G1 X75.933 Y31.086
X77.13 Y30.742
G3 X77.268 Y31.116 I0.055 J0.192
G1 X72.355 Y33.371
G2 X72.369 Y33.74 I0.083 J0.182
G1 Z-10
X72.38 Y33.744
G2 X73.647 Y33.973 I1.267 J-3.391
X75.13 Y33.733 I0 J-4.702
G3 X76.565 Y33.29 I11.401 J34.309
G1 X77.47 Y33.028
G2 X77.385 Y32.638 I-0.055 J-0.192
G1 X65.327 Y34.436
G3 X65.226 Y34.051 I-0.029 J-0.198
G1 X69.321 Y32.48
G3 X70.172 Y32.539 I0.362 J0.942
G1 X70.275 Y32.596
G3 X70.231 Y32.964 I-0.097 J0.175
G1 X53.282 Y37.703
G3 X53.029 Y37.536 I-0.054 J-0.193
G1 X52.881 Y36.383
X69.933 Y29.837
X72.92 Y31.493
G2 X74.06 Y31.623 I0.727 J-1.312
G1 X75.933 Y31.086
X77.13 Y30.742
G3 X77.268 Y31.116 I0.055 J0.192
G1 X72.355 Y33.371
G2 X72.369 Y33.74 I0.083 J0.182
G1 Z-10.286
X72.38 Y33.744
G2 X73.647 Y33.973 I1.267 J-3.391
X75.13 Y33.733 I0 J-4.702
G3 X76.565 Y33.29 I11.401 J34.309
G1 X77.47 Y33.028
G2 X77.385 Y32.638 I-0.055 J-0.192
G1 X65.327 Y34.436
G3 X65.226 Y34.051 I-0.029 J-0.198
G1 X69.321 Y32.48
G3 X70.172 Y32.539 I0.362 J0.942
G1 X70.275 Y32.596
G3 X70.231 Y32.964 I-0.097 J0.175
G1 X53.282 Y37.703
G3 X53.029 Y37.536 I-0.054 J-0.193
G1 X52.881 Y36.383
X69.933 Y29.837
X72.92 Y31.493
G2 X74.06 Y31.623 I0.727 J-1.312
G1 X75.933 Y31.086
X77.13 Y30.742
G0 Z6
X72.736 Y36.816
Z2
G1 Z-1 F700
X72.747 Y36.821
G2 X74.216 Y37.139 I1.469 J-3.23
X75.549 Y36.982 I0 J-5.718
G3 X76.861 Y36.697 I7.223 J30.127
G1 X77.769 Y36.519
G2 X77.72 Y36.123 I-0.039 J-0.196
G1 X66.124 Y36.699
G3 X66.059 Y36.307 I-0.01 J-0.2
G1 X69.697 Y35.264
G3 X70.539 Y35.398 I0.278 J0.97
G1 X70.581 Y35.426
G3 X70.506 Y35.788 I-0.112 J0.166
G1 X53.272 Y39.011
G3 X53.035 Y38.823 I-0.037 J-0.197
G1 X52.988 Y37.665
X70.546 Y32.63
X73.377 Y34.54
G2 X74.502 Y34.769 I0.839 J-1.244
G1 X76.414 Y34.397
X77.636 Y34.16
G3 X77.745 Y34.543 I0.038 J0.196
G1 X72.748 Y36.447
G2 X72.736 Y36.816 I0.071 J0.187
G1 Z-2
X72.747 Y36.821
G2 X74.216 Y37.139 I1.469 J-3.23
X75.549 Y36.982 I0 J-5.718
G3 X76.861 Y36.697 I7.223 J30.127
G1 X77.769 Y36.519
G2 X77.72 Y36.123 I-0.039 J-0.196
G1 X66.124 Y36.699
G3 X66.059 Y36.307 I-0.01 J-0.2
G1 X69.697 Y35.264
G3 X70.539 Y35.398 I0.278 J0.97
G1 X70.581 Y35.426
G3 X70.506 Y35.788 I-0.112 J0.166
G1 X53.272 Y39.011
G3 X53.035 Y38.823 I-0.037 J-0.197
G1 X52.988 Y37.665
X70.546 Y32.63
X73.377 Y34.54
G2 X74.502 Y34.769 I0.839 J-1.244
G1 X76.414 Y34.397
X77.636 Y34.16
G3 X77.745 Y34.543 I0.038 J0.196
G1 X72.748 Y36.447
G2 X72.736 Y36.816 I0.071 J0.187
G1 Z-3
X72.747 Y36.821
G2 X74.216 Y37.139 I1.469 J-3.23
X75.549 Y36.982 I0 J-5.718
G3 X76.861 Y36.697 I7.223 J30.127
G1 X77.769 Y36.519
G2 X77.72 Y36.123 I-0.039 J-0.196
G1 X66.124 Y36.699
G3 X66.059 Y36.307 I-0.01 J-0.2
G1 X69.697 Y35.264
G3 X70.539 Y35.398 I0.278 J0.97
G1 X70.581 Y35.426
G3 X70.506 Y35.788 I-0.112 J0.166
G1 X53.272 Y39.011
G3 X53.035 Y38.823 I-0.037 J-0.197
G1 X52.988 Y37.665
X70.546 Y32.63
X73.377 Y34.54
G2 X74.502 Y34.769 I0.839 J-1.244
G1 X76.414 Y34.397
X77.636 Y34.16
G3 X77.745 Y34.543 I0.038 J0.196
G1 X72.748 Y36.447
G2 X72.736 Y36.816 I0.071 J0.187
G1 Z-4
X72.747 Y36.821
G2 X74.216 Y37.139 I1.469 J-3.23
X75.549 Y36.982 I0 J-5.718
G3 X76.861 Y36.697 I7.223 J30.127
G1 X77.769 Y36.519
G2 X77.72 Y36.123 I-0.039 J-0.196
G1 X66.124 Y36.699
G3 X66.059 Y36.307 I-0.01 J-0.2
G1 X69.697 Y35.264
G3 X70.539 Y35.398 I0.278 J0.97
G1 X70.581 Y35.426
G3 X70.506 Y35.788 I-0.112 J0.166
G1 X53.272 Y39.011
G3 X53.035 Y38.823 I-0.037 J-0.197
G1 X52.988 Y37.665
X70.546 Y32.63
X73.377 Y34.54
G2 X74.502 Y34.769 I0.839 J-1.244
G1 X76.414 Y34.397
X77.636 Y34.16
G3 X77.745 Y34.543 I0.038 J0.196
G1 X72.748 Y36.447
G2 X72.736 Y36.816 I0.071 J0.187
G1 Z-5
X72.747 Y36.821
G2 X74.216 Y37.139 I1.469 J-3.23
X75.549 Y36.982 I0 J-5.718
G3 X76.861 Y36.697 I7.223 J30.127
G1 X77.769 Y36.519
G2 X77.72 Y36.123 I-0.039 J-0.196
G1 X66.124 Y36.699
G3 X66.059 Y36.307 I-0.01 J-0.2
G1 X69.697 Y35.264
G3 X70.539 Y35.398 I0.278 J0.97
G1 X70.581 Y35.426
G3 X70.506 Y35.788 I-0.112 J0.166
G1 X53.272 Y39.011
G3 X53.035 Y38.823 I-0.037 J-0.197
G1 X52.988 Y37.665
X70.546 Y32.63
X73.377 Y34.54
G2 X74.502 Y34.769 I0.839 J-1.244
G1 X76.414 Y34.397
X77.636 Y34.16
G3 X77.745 Y34.543 I0.038 J0.196
G1 X72.748 Y36.447
G2 X72.736 Y36.816 I0.071 J0.187
G1 Z-6
X72.747 Y36.821
G2 X74.216 Y37.139 I1.469 J-3.23
X75.549 Y36.982 I0 J-5.718
G3 X76.861 Y36.697 I7.223 J30.127
G1 X77.769 Y36.519
G2 X77.72 Y36.123 I-0.039 J-0.196
G1 X66.124 Y36.699
G3 X66.059 Y36.307 I-0.01 J-0.2
G1 X69.697 Y35.264
G3 X70.539 Y35.398 I0.278 J0.97
G1 X70.581 Y35.426
G3 X70.506 Y35.788 I-0.112 J0.166
G1 X53.272 Y39.011
G3 X53.035 Y38.823 I-0.037 J-0.197
G1 X52.988 Y37.665
X70.546 Y32.63
X73.377 Y34.54
G2 X74.502 Y34.769 I0.839 J-1.244
G1 X76.414 Y34.397
X77.636 Y34.16
G3 X77.745 Y34.543 I0.038 J0.196
G1 X72.748 Y36.447
G2 X72.736 Y36.816 I0.071 J0.187
G1 Z-7
X72.747 Y36.821
G2 X74.216 Y37.139 I1.469 J-3.23
X75.549 Y36.982 I0 J-5.718
G3 X76.861 Y36.697 I7.223 J30.127
G1 X77.769 Y36.519
G2 X77.72 Y36.123 I-0.039 J-0.196
G1 X66.124 Y36.699
G3 X66.059 Y36.307 I-0.01 J-0.2
G1 X69.697 Y35.264
G3 X70.539 Y35.398 I0.278 J0.97
G1 X70.581 Y35.426
G3 X70.506 Y35.788 I-0.112 J0.166
G1 X53.272 Y39.011
G3 X53.035 Y38.823 I-0.037 J-0.197
G1 X52.988 Y37.665
X70.546 Y32.63
X73.377 Y34.54
G2 X74.502 Y34.769 I0.839 J-1.244
G1 X76.414 Y34.397
X77.636 Y34.16
G3 X77.745 Y34.543 I0.038 J0.196
G1 X72.748 Y36.447
G2 X72.736 Y36.816 I0.071 J0.187
G1 Z-8
X72.747 Y36.821
G2 X74.216 Y37.139 I1.469 J-3.23
X75.549 Y36.982 I0 J-5.718
G3 X76.861 Y36.697 I7.223 J30.127
G1 X77.769 Y36.519
G2 X77.72 Y36.123 I-0.039 J-0.196
G1 X66.124 Y36.699
G3 X66.059 Y36.307 I-0.01 J-0.2
G1 X69.697 Y35.264
G3 X70.539 Y35.398 I0.278 J0.97
G1 X70.581 Y35.426
G3 X70.506 Y35.788 I-0.112 J0.166
G1 X53.272 Y39.011
G3 X53.035 Y38.823 I-0.037 J-0.197
G1 X52.988 Y37.665
X70.546 Y32.63
X73.377 Y34.54
G2 X74.502 Y34.769 I0.839 J-1.244
G1 X76.414 Y34.397
X77.636 Y34.16
G3 X77.745 Y34.543 I0.038 J0.196
G1 X72.748 Y36.447
G2 X72.736 Y36.816 I0.071 J0.187
G1 Z-9
X72.747 Y36.821
G2 X74.216 Y37.139 I1.469 J-3.23
X75.549 Y36.982 I0 J-5.718
G3 X76.861 Y36.697 I7.223 J30.127
G1 X77.769 Y36.519
G2 X77.72 Y36.123 I-0.039 J-0.196
G1 X66.124 Y36.699
G3 X66.059 Y36.307 I-0.01 J-0.2
G1 X69.697 Y35.264
G3 X70.539 Y35.398 I0.278 J0.97
G1 X70.581 Y35.426
G3 X70.506 Y35.788 I-0.112 J0.166
G1 X53.272 Y39.011
G3 X53.035 Y38.823 I-0.037 J-0.197
G1 X52.988 Y37.665
X70.546 Y32.63
X73.377 Y34.54
G2 X74.502 Y34.769 I0.839 J-1.244
G1 X76.414 Y34.397
X77.636 Y34.16
G3 X77.745 Y34.543 I0.038 J0.196
G1 X72.748 Y36.447
G2 X72.736 Y36.816 I0.071 J0.187
G1 Z-10
X72.747 Y36.821
G2 X74.216 Y37.139 I1.469 J-3.23
X75.549 Y36.982 I0 J-5.718
G3 X76.861 Y36.697 I7.223 J30.127
G1 X77.769 Y36.519
G2 X77.72 Y36.123 I-0.039 J-0.196
G1 X66.124 Y36.699
G3 X66.059 Y36.307 I-0.01 J-0.2
G1 X69.697 Y35.264
G3 X70.539 Y35.398 I0.278 J0.97
G1 X70.581 Y35.426
G3 X70.506 Y35.788 I-0.112 J0.166
G1 X53.272 Y39.011
G3 X53.035 Y38.823 I-0.037 J-0.197
G1 X52.988 Y37.665
X70.546 Y32.63
X73.377 Y34.54
G2 X74.502 Y34.769 I0.839 J-1.244
G1 X76.414 Y34.397
X77.636 Y34.16
G3 X77.745 Y34.543 I0.038 J0.196
G1 X72.748 Y36.447
G2 X72.736 Y36.816 I0.071 J0.187
G1 Z-11
X72.747 Y36.821
G2 X74.216 Y37.139 I1.469 J-3.23
X75.549 Y36.982 I0 J-5.718
G3 X76.861 Y36.697 I7.223 J30.127
G1 X77.769 Y36.519
G2 X77.72 Y36.123 I-0.039 J-0.196
G1 X66.124 Y36.699
G3 X66.059 Y36.307 I-0.01 J-0.2
G1 X69.697 Y35.264
G3 X70.539 Y35.398 I0.278 J0.97
G1 X70.581 Y35.426
G3 X70.506 Y35.788 I-0.112 J0.166
G1 X53.272 Y39.011
G3 X53.035 Y38.823 I-0.037 J-0.197
G1 X52.988 Y37.665
X70.546 Y32.63
X73.377 Y34.54
G2 X74.502 Y34.769 I0.839 J-1.244
G1 X76.414 Y34.397
X77.636 Y34.16
G3 X77.745 Y34.543 I0.038 J0.196
G1 X72.748 Y36.447
G2 X72.736 Y36.816 I0.071 J0.187
G1 Z-12
X72.747 Y36.821
G2 X74.216 Y37.139 I1.469 J-3.23
X75.549 Y36.982 I0 J-5.718
G3 X76.861 Y36.697 I7.223 J30.127
G1 X77.769 Y36.519
G2 X77.72 Y36.123 I-0.039 J-0.196
G1 X66.124 Y36.699
G3 X66.059 Y36.307 I-0.01 J-0.2
G1 X69.697 Y35.264
G3 X70.539 Y35.398 I0.278 J0.97
G1 X70.581 Y35.426
G3 X70.506 Y35.788 I-0.112 J0.166
G1 X53.272 Y39.011
G3 X53.035 Y38.823 I-0.037 J-0.197
G1 X52.988 Y37.665
X70.546 Y32.63
X73.377 Y34.54
G2 X74.502 Y34.769 I0.839 J-1.244
G1 X76.414 Y34.397
X77.636 Y34.16
G3 X77.745 Y34.543 I0.038 J0.196
G1 X72.748 Y36.447
G2 X72.736 Y36.816 I0.071 J0.187
G1 Z-12.857
X72.747 Y36.821
G2 X74.216 Y37.139 I1.469 J-3.23
X75.549 Y36.982 I0 J-5.718
G3 X76.861 Y36.697 I7.223 J30.127
G1 X77.769 Y36.519
G2 X77.72 Y36.123 I-0.039 J-0.196
G1 X66.124 Y36.699
G3 X66.059 Y36.307 I-0.01 J-0.2
G1 X69.697 Y35.264
G3 X70.539 Y35.398 I0.278 J0.97
G1 X70.581 Y35.426
G3 X70.506 Y35.788 I-0.112 J0.166
G1 X53.272 Y39.011
G3 X53.035 Y38.823 I-0.037 J-0.197
G1 X52.988 Y37.665
X70.546 Y32.63
X73.377 Y34.54
G2 X74.502 Y34.769 I0.839 J-1.244
G1 X76.414 Y34.397
X77.636 Y34.16
G0 Z6
X67.013 Y38.646
Z2
G1 Z-1 F700
X67.024 Y38.644
X69.816 Y38.101
G3 X70.589 Y38.266 I0.193 J0.99
X70.493 Y38.629 I-0.115 J0.164
G1 X53.148 Y40.319
G3 X52.929 Y40.11 I-0.019 J-0.199
G1 X52.983 Y38.952
X70.913 Y35.467
X73.567 Y37.616
X73.933 Y37.912
G3 X73.83 Y38.266 I-0.126 J0.155
G1 X67.074 Y39.041
G3 X67.013 Y38.646 I-0.023 J-0.199
G1 Z-2
X67.024 Y38.644
X69.816 Y38.101
G3 X70.589 Y38.266 I0.193 J0.99
X70.493 Y38.629 I-0.115 J0.164
G1 X53.148 Y40.319
G3 X52.929 Y40.11 I-0.019 J-0.199
G1 X52.983 Y38.952
X70.913 Y35.467
X73.567 Y37.616
X73.933 Y37.912
G3 X73.83 Y38.266 I-0.126 J0.155
G1 X67.074 Y39.041
G3 X67.013 Y38.646 I-0.023 J-0.199
G1 Z-3
X67.024 Y38.644
X69.816 Y38.101
G3 X70.589 Y38.266 I0.193 J0.99
X70.493 Y38.629 I-0.115 J0.164
G1 X53.148 Y40.319
G3 X52.929 Y40.11 I-0.019 J-0.199
G1 X52.983 Y38.952
X70.913 Y35.467
X73.567 Y37.616
X73.933 Y37.912
G3 X73.83 Y38.266 I-0.126 J0.155
G1 X67.074 Y39.041
G3 X67.013 Y38.646 I-0.023 J-0.199
G1 Z-4
X67.024 Y38.644
X69.816 Y38.101
G3 X70.589 Y38.266 I0.193 J0.99
X70.493 Y38.629 I-0.115 J0.164
G1 X53.148 Y40.319
G3 X52.929 Y40.11 I-0.019 J-0.199
G1 X52.983 Y38.952
X70.913 Y35.467
X73.567 Y37.616
X73.933 Y37.912
G3 X73.83 Y38.266 I-0.126 J0.155
G1 X67.074 Y39.041
G3 X67.013 Y38.646 I-0.023 J-0.199
G1 Z-5
X67.024 Y38.644
X69.816 Y38.101
G3 X70.589 Y38.266 I0.193 J0.99
X70.493 Y38.629 I-0.115 J0.164
G1 X53.148 Y40.319
G3 X52.929 Y40.11 I-0.019 J-0.199
G1 X52.983 Y38.952
X70.913 Y35.467
X73.567 Y37.616
X73.933 Y37.912
G3 X73.83 Y38.266 I-0.126 J0.155
G1 X67.074 Y39.041
G3 X67.013 Y38.646 I-0.023 J-0.199
G1 Z-6
X67.024 Y38.644
X69.816 Y38.101
G3 X70.589 Y38.266 I0.193 J0.99
X70.493 Y38.629 I-0.115 J0.164
G1 X53.148 Y40.319
G3 X52.929 Y40.11 I-0.019 J-0.199
G1 X52.983 Y38.952
X70.913 Y35.467
X73.567 Y37.616
X73.933 Y37.912
G3 X73.83 Y38.266 I-0.126 J0.155
G1 X67.074 Y39.041
G3 X67.013 Y38.646 I-0.023 J-0.199
G1 Z-7
X67.024 Y38.644
X69.816 Y38.101
G3 X70.589 Y38.266 I0.193 J0.99
X70.493 Y38.629 I-0.115 J0.164
G1 X53.148 Y40.319
G3 X52.929 Y40.11 I-0.019 J-0.199
G1 X52.983 Y38.952
X70.913 Y35.467
X73.567 Y37.616
X73.933 Y37.912
G3 X73.83 Y38.266 I-0.126 J0.155
G1 X67.074 Y39.041
G3 X67.013 Y38.646 I-0.023 J-0.199
G1 Z-8
X67.024 Y38.644
X69.816 Y38.101
G3 X70.589 Y38.266 I0.193 J0.99
X70.493 Y38.629 I-0.115 J0.164
G1 X53.148 Y40.319
G3 X52.929 Y40.11 I-0.019 J-0.199
G1 X52.983 Y38.952
X70.913 Y35.467
X73.567 Y37.616
X73.933 Y37.912
G3 X73.83 Y38.266 I-0.126 J0.155
G1 X67.074 Y39.041
G3 X67.013 Y38.646 I-0.023 J-0.199
G1 Z-9
X67.024 Y38.644
X69.816 Y38.101
G3 X70.589 Y38.266 I0.193 J0.99
X70.493 Y38.629 I-0.115 J0.164
G1 X53.148 Y40.319
G3 X52.929 Y40.11 I-0.019 J-0.199
G1 X52.983 Y38.952
X70.913 Y35.467
X73.567 Y37.616
X73.933 Y37.912
G3 X73.83 Y38.266 I-0.126 J0.155
G1 X67.074 Y39.041
G3 X67.013 Y38.646 I-0.023 J-0.199
G1 Z-10
X67.024 Y38.644
X69.816 Y38.101
G3 X70.589 Y38.266 I0.193 J0.99
X70.493 Y38.629 I-0.115 J0.164
G1 X53.148 Y40.319
G3 X52.929 Y40.11 I-0.019 J-0.199
G1 X52.983 Y38.952
X70.913 Y35.467
X73.567 Y37.616
X73.933 Y37.912
G3 X73.83 Y38.266 I-0.126 J0.155
G1 X67.074 Y39.041
G3 X67.013 Y38.646 I-0.023 J-0.199
G1 Z-11
X67.024 Y38.644
X69.816 Y38.101
G3 X70.589 Y38.266 I0.193 J0.99
X70.493 Y38.629 I-0.115 J0.164
G1 X53.148 Y40.319
G3 X52.929 Y40.11 I-0.019 J-0.199
G1 X52.983 Y38.952
X70.913 Y35.467
X73.567 Y37.616
X73.933 Y37.912
G3 X73.83 Y38.266 I-0.126 J0.155
G1 X67.074 Y39.041
G3 X67.013 Y38.646 I-0.023 J-0.199
G1 Z-12
X67.024 Y38.644
X69.816 Y38.101
G3 X70.589 Y38.266 I0.193 J0.99
X70.493 Y38.629 I-0.115 J0.164
G1 X53.148 Y40.319
G3 X52.929 Y40.11 I-0.019 J-0.199
G1 X52.983 Y38.952
X70.913 Y35.467
X73.567 Y37.616
X73.933 Y37.912
G3 X73.83 Y38.266 I-0.126 J0.155
G1 X67.074 Y39.041
G3 X67.013 Y38.646 I-0.023 J-0.199
G1 Z-13
X67.024 Y38.644
X69.816 Y38.101
G3 X70.589 Y38.266 I0.193 J0.99
X70.493 Y38.629 I-0.115 J0.164
G1 X53.148 Y40.319
G3 X52.929 Y40.11 I-0.019 J-0.199
G1 X52.983 Y38.952
X70.913 Y35.467
X73.567 Y37.616
X73.933 Y37.912
G3 X73.83 Y38.266 I-0.126 J0.155
G1 X67.074 Y39.041
G3 X67.013 Y38.646 I-0.023 J-0.199
G1 Z-14
X67.024 Y38.644
X69.816 Y38.101
G3 X70.589 Y38.266 I0.193 J0.99
X70.493 Y38.629 I-0.115 J0.164
G1 X53.148 Y40.319
G3 X52.929 Y40.11 I-0.019 J-0.199
G1 X52.983 Y38.952
X70.913 Y35.467
X73.567 Y37.616
X73.933 Y37.912
G3 X73.83 Y38.266 I-0.126 J0.155
G1 X67.074 Y39.041
G3 X67.013 Y38.646 I-0.023 J-0.199
G1 Z-15
X67.024 Y38.644
X69.816 Y38.101
G3 X70.589 Y38.266 I0.193 J0.99
X70.493 Y38.629 I-0.115 J0.164
G1 X53.148 Y40.319
G3 X52.929 Y40.11 I-0.019 J-0.199
G1 X52.983 Y38.952
X70.913 Y35.467
X73.567 Y37.616
X73.933 Y37.912
G3 X73.83 Y38.266 I-0.126 J0.155
G1 X67.074 Y39.041
G3 X67.013 Y38.646 I-0.023 J-0.199
G1 Z-15.429
X67.024 Y38.644
X69.816 Y38.101
G3 X70.589 Y38.266 I0.193 J0.99
X70.493 Y38.629 I-0.115 J0.164
G1 X53.148 Y40.319
G3 X52.929 Y40.11 I-0.019 J-0.199
G1 X52.983 Y38.952
X70.913 Y35.467
X73.567 Y37.616
X73.933 Y37.912
G0 Z6
X60.604 Y64.936
Z2
G1 Z-1 F700
X60.608 Y64.947
G2 X61.707 Y66.52 I3.688 J-1.405
G1 X63.843 Y68.373
G2 X64.128 Y68.095 I0.131 J-0.151
G1 X57.533 Y60.041
G3 X57.805 Y59.752 I0.155 J-0.127
G1 X59.863 Y61.248
G3 X60.263 Y61.884 I-0.593 J0.816
X59.934 Y62.07 I-0.197 J0.036
G1 X46.895 Y50.559
G3 X46.898 Y50.256 I0.132 J-0.15
G1 X47.785 Y49.504
X62.562 Y60.24
X62.8 Y63.646
G2 X63.312 Y64.674 I1.496 J-0.105
G1 X64.782 Y65.951
X65.722 Y66.768
G3 X65.498 Y67.097 I-0.131 J0.151
G1 X60.883 Y64.687
G2 X60.604 Y64.936 I-0.093 J0.177
G1 Z-2
X60.608 Y64.947
G2 X61.707 Y66.52 I3.688 J-1.405
G1 X63.843 Y68.373
G2 X64.128 Y68.095 I0.131 J-0.151
G1 X57.533 Y60.041
G3 X57.805 Y59.752 I0.155 J-0.127
G1 X59.863 Y61.248
G3 X60.263 Y61.884 I-0.593 J0.816
X59.934 Y62.07 I-0.197 J0.036
G1 X46.895 Y50.559
G3 X46.898 Y50.256 I0.132 J-0.15
G1 X47.785 Y49.504
X62.562 Y60.24
X62.8 Y63.646
G2 X63.312 Y64.674 I1.496 J-0.105
G1 X64.782 Y65.951
X65.722 Y66.768
G3 X65.498 Y67.097 I-0.131 J0.151
G1 X60.883 Y64.687
G2 X60.604 Y64.936 I-0.093 J0.177
G1 Z-2.571
X60.608 Y64.947
G2 X61.707 Y66.52 I3.688 J-1.405
G1 X63.843 Y68.373
G2 X64.128 Y68.095 I0.131 J-0.151
G1 X57.533 Y60.041
G3 X57.805 Y59.752 I0.155 J-0.127
G1 X59.863 Y61.248
G3 X60.263 Y61.884 I-0.593 J0.816
X59.934 Y62.07 I-0.197 J0.036
G1 X46.895 Y50.559
G3 X46.898 Y50.256 I0.132 J-0.15
G1 X47.785 Y49.504
X62.562 Y60.24
X62.8 Y63.646
G2 X63.312 Y64.674 I1.496 J-0.105
G1 X64.782 Y65.951
X65.722 Y66.768
G0 Z6
X52.156 Y57.545
Z2
G1 Z-1 F700
X52.164 Y57.552
X58.243 Y62.836
G3 X58.59 Y63.615 I-0.662 J0.761
X58.55 Y64.635 I-23.135 J-0.404
G2 X58.509 Y65.655 I23.095 J1.423
X59.487 Y68.136 I3.483 J0.061
G1 X61.57 Y70.288
X61.904 Y70.633
Z2
X45.801 Y50.978
Z-1
X45.82 Y50.964
X46.768 Y50.292
X60.553 Y62.275
X60.493 Y65.689
G2 X60.914 Y66.757 I1.5 J0.026
G1 X62.267 Y68.158
X63.132 Y69.054
G3 X62.966 Y69.273 I-0.1 J0.096
G1 X62.549 Y69.039
X52.161 Y57.873
X52.041 Y57.632
X52.034 Y57.6
X52.041 Y57.567
X52.063 Y57.542
X52.093 Y57.528
X52.126 Y57.529
X52.156 Y57.545
Z-2
X52.164 Y57.552
X58.243 Y62.836
G3 X58.59 Y63.615 I-0.662 J0.761
X58.55 Y64.635 I-23.135 J-0.404
G2 X58.509 Y65.655 I23.095 J1.423
X59.487 Y68.136 I3.483 J0.061
G1 X61.57 Y70.288
X61.904 Y70.633
Z1
X45.801 Y50.978
Z-2
X45.82 Y50.964
X46.768 Y50.292
X60.553 Y62.275
X60.493 Y65.689
G2 X60.914 Y66.757 I1.5 J0.026
G1 X62.267 Y68.158
X63.132 Y69.054
G3 X62.966 Y69.273 I-0.1 J0.096
G1 X62.549 Y69.039
X52.161 Y57.873
X52.041 Y57.632
X52.034 Y57.6
X52.041 Y57.567
X52.063 Y57.542
X52.093 Y57.528
X52.126 Y57.529
X52.156 Y57.545
Z-3
X52.164 Y57.552
X58.243 Y62.836
G3 X58.59 Y63.615 I-0.662 J0.761
X58.55 Y64.635 I-23.135 J-0.404
G2 X58.509 Y65.655 I23.095 J1.423
X59.487 Y68.136 I3.483 J0.061
G1 X61.57 Y70.288
X61.904 Y70.633
Z0
X45.801 Y50.978
Z-3
X45.82 Y50.964
X46.768 Y50.292
X60.553 Y62.275
X60.493 Y65.689
G2 X60.914 Y66.757 I1.5 J0.026
G1 X62.267 Y68.158
X63.132 Y69.054
G3 X62.966 Y69.273 I-0.1 J0.096
G1 X62.549 Y69.039
X52.161 Y57.873
X52.041 Y57.632
X52.034 Y57.6
X52.041 Y57.567
X52.063 Y57.542
X52.093 Y57.528
X52.126 Y57.529
X52.156 Y57.545
Z-4
X52.164 Y57.552
X58.243 Y62.836
G3 X58.59 Y63.615 I-0.662 J0.761
X58.55 Y64.635 I-23.135 J-0.404
G2 X58.509 Y65.655 I23.095 J1.423
X59.487 Y68.136 I3.483 J0.061
G1 X61.57 Y70.288
X61.904 Y70.633
Z-1
X45.801 Y50.978
Z-4
X45.82 Y50.964
X46.768 Y50.292
X60.553 Y62.275
X60.493 Y65.689
G2 X60.914 Y66.757 I1.5 J0.026
G1 X62.267 Y68.158
X63.132 Y69.054
G3 X62.966 Y69.273 I-0.1 J0.096
G1 X62.549 Y69.039
X52.161 Y57.873
X52.041 Y57.632
X52.034 Y57.6
X52.041 Y57.567
X52.063 Y57.542
X52.093 Y57.528
X52.126 Y57.529
X52.156 Y57.545
Z-4.571
X52.164 Y57.552
X58.243 Y62.836
G3 X58.59 Y63.615 I-0.662 J0.761
X58.55 Y64.635 I-23.135 J-0.404
G2 X58.509 Y65.655 I23.095 J1.423
X59.487 Y68.136 I3.483 J0.061
G1 X61.57 Y70.288
X61.904 Y70.633
Z-2
X45.801 Y50.978
Z-4.571
X45.82 Y50.964
X46.768 Y50.292
X60.553 Y62.275
X60.493 Y65.689
G2 X60.914 Y66.757 I1.5 J0.026
G1 X62.267 Y68.158
X63.132 Y69.054
G3 X62.966 Y69.273 I-0.1 J0.096
G1 X62.549 Y69.039
X52.161 Y57.873
X52.041 Y57.632
X52.034 Y57.6
X52.041 Y57.567
X52.063 Y57.542
X52.093 Y57.528
X52.126 Y57.529
X52.156 Y57.545
Z-5.143
X52.164 Y57.552
X58.243 Y62.836
G3 X58.59 Y63.615 I-0.662 J0.761
X58.55 Y64.635 I-23.135 J-0.404
G2 X58.509 Y65.655 I23.095 J1.423
X59.487 Y68.136 I3.483 J0.061
G1 X61.57 Y70.288
X61.904 Y70.633
Z-2.571
X45.801 Y50.978
Z-5.143
X45.82 Y50.964
X46.768 Y50.292
X60.553 Y62.275
X60.493 Y65.689
G2 X60.914 Y66.757 I1.5 J0.026
G1 X62.267 Y68.158
X63.132 Y69.054
G0 Z6
X50.843 Y59.204
Z2
G1 Z-1 F700
X50.852 Y59.213
X55.963 Y64.506
G3 X56.241 Y65.313 I-0.726 J0.701
X56.113 Y66.311 I-22.403 J-2.354
G2 X55.986 Y67.31 I22.276 J3.353
X56.756 Y69.909 I3.523 J0.37
G1 X58.633 Y72.222
X58.648 Y72.24
Z2
X44.665 Y51.587
Z-1
X44.685 Y51.574
X45.686 Y50.989
X58.374 Y64.127
X58.017 Y67.523
G2 X58.343 Y68.624 I1.492 J0.157
G1 X59.569 Y70.138
X60.352 Y71.106
G3 X60.163 Y71.314 I-0.111 J0.09
G1 X59.757 Y71.037
X50.818 Y59.56
X50.711 Y59.288
X50.706 Y59.258
X50.713 Y59.227
X50.731 Y59.202
X50.757 Y59.185
X50.788 Y59.18
X50.818 Y59.187
X50.843 Y59.204
Z-2
X50.852 Y59.213
X55.963 Y64.506
G3 X56.241 Y65.313 I-0.726 J0.701
X56.113 Y66.311 I-22.403 J-2.354
G2 X55.986 Y67.31 I22.276 J3.353
X56.756 Y69.909 I3.523 J0.37
G1 X58.633 Y72.222
X58.648 Y72.24
Z1
X44.665 Y51.587
Z-2
X44.685 Y51.574
X45.686 Y50.989
X58.374 Y64.127
X58.017 Y67.523
G2 X58.343 Y68.624 I1.492 J0.157
G1 X59.569 Y70.138
X60.352 Y71.106
G3 X60.163 Y71.314 I-0.111 J0.09
G1 X59.757 Y71.037
X50.818 Y59.56
X50.711 Y59.288
X50.706 Y59.258
X50.713 Y59.227
X50.731 Y59.202
X50.757 Y59.185
X50.788 Y59.18
X50.818 Y59.187
X50.843 Y59.204
Z-3
X50.852 Y59.213
X55.963 Y64.506
G3 X56.241 Y65.313 I-0.726 J0.701
X56.113 Y66.311 I-22.403 J-2.354
G2 X55.986 Y67.31 I22.276 J3.353
X56.756 Y69.909 I3.523 J0.37
G1 X58.633 Y72.222
X58.648 Y72.24
Z0
X44.665 Y51.587
Z-3
X44.685 Y51.574
X45.686 Y50.989
X58.374 Y64.127
X58.017 Y67.523
G2 X58.343 Y68.624 I1.492 J0.157
G1 X59.569 Y70.138
X60.352 Y71.106
G3 X60.163 Y71.314 I-0.111 J0.09
G1 X59.757 Y71.037
X50.818 Y59.56
X50.711 Y59.288
X50.706 Y59.258
X50.713 Y59.227
X50.731 Y59.202
X50.757 Y59.185
X50.788 Y59.18
X50.818 Y59.187
X50.843 Y59.204
Z-4
X50.852 Y59.213
X55.963 Y64.506
G3 X56.241 Y65.313 I-0.726 J0.701
X56.113 Y66.311 I-22.403 J-2.354
G2 X55.986 Y67.31 I22.276 J3.353
X56.756 Y69.909 I3.523 J0.37
G1 X58.633 Y72.222
X58.648 Y72.24
Z-1
X44.665 Y51.587
Z-4
X44.685 Y51.574
X45.686 Y50.989
X58.374 Y64.127
X58.017 Y67.523
G2 X58.343 Y68.624 I1.492 J0.157
G1 X59.569 Y70.138
X60.352 Y71.106
G3 X60.163 Y71.314 I-0.111 J0.09
G1 X59.757 Y71.037
X50.818 Y59.56
X50.711 Y59.288
X50.706 Y59.258
X50.713 Y59.227
X50.731 Y59.202
X50.757 Y59.185
X50.788 Y59.18
X50.818 Y59.187
X50.843 Y59.204
Z-5
X50.852 Y59.213
X55.963 Y64.506
G3 X56.241 Y65.313 I-0.726 J0.701
X56.113 Y66.311 I-22.403 J-2.354
G2 X55.986 Y67.31 I22.276 J3.353
X56.756 Y69.909 I3.523 J0.37
G1 X58.633 Y72.222
X58.648 Y72.24
Z-2
X44.665 Y51.587
Z-5
X44.685 Y51.574
X45.686 Y50.989
X58.374 Y64.127
X58.017 Y67.523
G2 X58.343 Y68.624 I1.492 J0.157
G1 X59.569 Y70.138
X60.352 Y71.106
G3 X60.163 Y71.314 I-0.111 J0.09
G1 X59.757 Y71.037
X50.818 Y59.56
X50.711 Y59.288
X50.706 Y59.258
X50.713 Y59.227
X50.731 Y59.202
X50.757 Y59.185
X50.788 Y59.18
X50.818 Y59.187
X50.843 Y59.204
Z-6
X50.852 Y59.213
X55.963 Y64.506
G3 X56.241 Y65.313 I-0.726 J0.701
X56.113 Y66.311 I-22.403 J-2.354
G2 X55.986 Y67.31 I22.276 J3.353
X56.756 Y69.909 I3.523 J0.37
G1 X58.633 Y72.222
X58.648 Y72.24
Z-3
X44.665 Y51.587
Z-6
X44.685 Y51.574
X45.686 Y50.989
X58.374 Y64.127
X58.017 Y67.523
G2 X58.343 Y68.624 I1.492 J0.157
G1 X59.569 Y70.138
X60.352 Y71.106
G3 X60.163 Y71.314 I-0.111 J0.09
G1 X59.757 Y71.037
X50.818 Y59.56
X50.711 Y59.288
X50.706 Y59.258
X50.713 Y59.227
X50.731 Y59.202
X50.757 Y59.185
X50.788 Y59.18
X50.818 Y59.187
X50.843 Y59.204
Z-7
X50.852 Y59.213
X55.963 Y64.506
G3 X56.241 Y65.313 I-0.726 J0.701
X56.113 Y66.311 I-22.403 J-2.354
G2 X55.986 Y67.31 I22.276 J3.353
X56.756 Y69.909 I3.523 J0.37
G1 X58.633 Y72.222
X58.648 Y72.24
Z-4
X44.665 Y51.587
Z-7
X44.685 Y51.574
X45.686 Y50.989
X58.374 Y64.127
X58.017 Y67.523
G2 X58.343 Y68.624 I1.492 J0.157
G1 X59.569 Y70.138
X60.352 Y71.106
G3 X60.163 Y71.314 I-0.111 J0.09
G1 X59.757 Y71.037
X50.818 Y59.56
X50.711 Y59.288
X50.706 Y59.258
X50.713 Y59.227
X50.731 Y59.202
X50.757 Y59.185
X50.788 Y59.18
X50.818 Y59.187
X50.843 Y59.204
Z-7.714
X50.852 Y59.213
X55.963 Y64.506
G3 X56.241 Y65.313 I-0.726 J0.701
X56.113 Y66.311 I-22.403 J-2.354
G2 X55.986 Y67.31 I22.276 J3.353
X56.756 Y69.909 I3.523 J0.37
G1 X58.633 Y72.222
X58.648 Y72.24
Z-5
X44.665 Y51.587
Z-7.714
X44.685 Y51.574
X45.686 Y50.989
X58.374 Y64.127
X58.017 Y67.523
G2 X58.343 Y68.624 I1.492 J0.157
G1 X59.569 Y70.138
X60.352 Y71.106
G0 Z6
X49.334 Y60.764
Z2
G1 Z-1 F700
X49.342 Y60.773
X53.547 Y65.965
G3 X53.753 Y66.793 I-0.784 J0.635
X53.541 Y67.764 I-21.534 J-4.185
G2 X53.33 Y68.734 I21.323 J5.156
X53.879 Y71.434 I3.533 J0.687
G1 X55.529 Y73.873
X55.542 Y73.892
Z2
X43.474 Y52.097
Z-1
X43.495 Y52.086
X44.547 Y51.588
X56.042 Y65.783
X55.39 Y69.135
G2 X55.619 Y70.26 I1.472 J0.286
G1 X56.708 Y71.874
X57.405 Y72.907
G3 X57.191 Y73.104 I-0.122 J0.082
G1 X56.8 Y72.783
X49.274 Y61.142
X49.185 Y60.841
X49.182 Y60.808
X49.192 Y60.776
X49.214 Y60.751
X49.244 Y60.735
X49.277 Y60.732
X49.309 Y60.742
X49.334 Y60.764
Z-2
X49.342 Y60.773
X53.547 Y65.965
G3 X53.753 Y66.793 I-0.784 J0.635
X53.541 Y67.764 I-21.534 J-4.185
G2 X53.33 Y68.734 I21.323 J5.156
X53.879 Y71.434 I3.533 J0.687
G1 X55.529 Y73.873
X55.542 Y73.892
Z1
X43.474 Y52.097
Z-2
X43.495 Y52.086
X44.547 Y51.588
X56.042 Y65.783
X55.39 Y69.135
G2 X55.619 Y70.26 I1.472 J0.286
G1 X56.708 Y71.874
X57.405 Y72.907
G3 X57.191 Y73.104 I-0.122 J0.082
G1 X56.8 Y72.783
X49.274 Y61.142
X49.185 Y60.841
X49.182 Y60.808
X49.192 Y60.776
X49.214 Y60.751
X49.244 Y60.735
X49.277 Y60.732
X49.309 Y60.742
X49.334 Y60.764
Z-3
X49.342 Y60.773
X53.547 Y65.965
G3 X53.753 Y66.793 I-0.784 J0.635
X53.541 Y67.764 I-21.534 J-4.185
G2 X53.33 Y68.734 I21.323 J5.156
X53.879 Y71.434 I3.533 J0.687
G1 X55.529 Y73.873
X55.542 Y73.892
Z0
X43.474 Y52.097
Z-3
X43.495 Y52.086
X44.547 Y51.588
X56.042 Y65.783
X55.39 Y69.135
G2 X55.619 Y70.26 I1.472 J0.286
G1 X56.708 Y71.874
X57.405 Y72.907
G3 X57.191 Y73.104 I-0.122 J0.082
G1 X56.8 Y72.783
X49.274 Y61.142
X49.185 Y60.841
X49.182 Y60.808
X49.192 Y60.776
X49.214 Y60.751
X49.244 Y60.735
X49.277 Y60.732
X49.309 Y60.742
X49.334 Y60.764
Z-4
X49.342 Y60.773
X53.547 Y65.965
G3 X53.753 Y66.793 I-0.784 J0.635
X53.541 Y67.764 I-21.534 J-4.185
G2 X53.33 Y68.734 I21.323 J5.156
X53.879 Y71.434 I3.533 J0.687
G1 X55.529 Y73.873
X55.542 Y73.892
Z-1
X43.474 Y52.097
Z-4
X43.495 Y52.086
X44.547 Y51.588
X56.042 Y65.783
X55.39 Y69.135
G2 X55.619 Y70.26 I1.472 J0.286
G1 X56.708 Y71.874
X57.405 Y72.907
G3 X57.191 Y73.104 I-0.122 J0.082
G1 X56.8 Y72.783
X49.274 Y61.142
X49.185 Y60.841
X49.182 Y60.808
X49.192 Y60.776
X49.214 Y60.751
X49.244 Y60.735
X49.277 Y60.732
X49.309 Y60.742
X49.334 Y60.764
Z-5
X49.342 Y60.773
X53.547 Y65.965
G3 X53.753 Y66.793 I-0.784 J0.635
X53.541 Y67.764 I-21.534 J-4.185
G2 X53.33 Y68.734 I21.323 J5.156
X53.879 Y71.434 I3.533 J0.687
G1 X55.529 Y73.873
X55.542 Y73.892
Z-2
X43.474 Y52.097
Z-5
X43.495 Y52.086
X44.547 Y51.588
X56.042 Y65.783
X55.39 Y69.135
G2 X55.619 Y70.26 I1.472 J0.286
G1 X56.708 Y71.874
X57.405 Y72.907
G3 X57.191 Y73.104 I-0.122 J0.082
G1 X56.8 Y72.783
X49.274 Y61.142
X49.185 Y60.841
X49.182 Y60.808
X49.192 Y60.776
X49.214 Y60.751
X49.244 Y60.735
X49.277 Y60.732
X49.309 Y60.742
X49.334 Y60.764
Z-6
X49.342 Y60.773
X53.547 Y65.965
G3 X53.753 Y66.793 I-0.784 J0.635
X53.541 Y67.764 I-21.534 J-4.185
G2 X53.33 Y68.734 I21.323 J5.156
X53.879 Y71.434 I3.533 J0.687
G1 X55.529 Y73.873
X55.542 Y73.892
Z-3
X43.474 Y52.097
Z-6
X43.495 Y52.086
X44.547 Y51.588
X56.042 Y65.783
X55.39 Y69.135
G2 X55.619 Y70.26 I1.472 J0.286
G1 X56.708 Y71.874
X57.405 Y72.907
G3 X57.191 Y73.104 I-0.122 J0.082
G1 X56.8 Y72.783
X49.274 Y61.142
X49.185 Y60.841
X49.182 Y60.808
X49.192 Y60.776
X49.214 Y60.751
X49.244 Y60.735
X49.277 Y60.732
X49.309 Y60.742
X49.334 Y60.764
Z-7
X49.342 Y60.773
X53.547 Y65.965
G3 X53.753 Y66.793 I-0.784 J0.635
X53.541 Y67.764 I-21.534 J-4.185
G2 X53.33 Y68.734 I21.323 J5.156
X53.879 Y71.434 I3.533 J0.687
G1 X55.529 Y73.873
X55.542 Y73.892
Z-4
X43.474 Y52.097
Z-7
X43.495 Y52.086
X44.547 Y51.588
X56.042 Y65.783
X55.39 Y69.135
G2 X55.619 Y70.26 I1.472 J0.286
G1 X56.708 Y71.874
X57.405 Y72.907
G3 X57.191 Y73.104 I-0.122 J0.082
G1 X56.8 Y72.783
X49.274 Y61.142
X49.185 Y60.841
X49.182 Y60.808
X49.192 Y60.776
X49.214 Y60.751
X49.244 Y60.735
X49.277 Y60.732
X49.309 Y60.742
X49.334 Y60.764
Z-8
X49.342 Y60.773
X53.547 Y65.965
G3 X53.753 Y66.793 I-0.784 J0.635
X53.541 Y67.764 I-21.534 J-4.185
G2 X53.33 Y68.734 I21.323 J5.156
X53.879 Y71.434 I3.533 J0.687
G1 X55.529 Y73.873
X55.542 Y73.892
Z-5
X43.474 Y52.097
Z-8
X43.495 Y52.086
X44.547 Y51.588
X56.042 Y65.783
X55.39 Y69.135
G2 X55.619 Y70.26 I1.472 J0.286
G1 X56.708 Y71.874
X57.405 Y72.907
G3 X57.191 Y73.104 I-0.122 J0.082
G1 X56.8 Y72.783
X49.274 Y61.142
X49.185 Y60.841
X49.182 Y60.808
X49.192 Y60.776
X49.214 Y60.751
X49.244 Y60.735
X49.277 Y60.732
X49.309 Y60.742
X49.334 Y60.764
Z-9
X49.342 Y60.773
X53.547 Y65.965
G3 X53.753 Y66.793 I-0.784 J0.635
X53.541 Y67.764 I-21.534 J-4.185
G2 X53.33 Y68.734 I21.323 J5.156
X53.879 Y71.434 I3.533 J0.687
G1 X55.529 Y73.873
X55.542 Y73.892
Z-6
X43.474 Y52.097
Z-9
X43.495 Y52.086
X44.547 Y51.588
X56.042 Y65.783
X55.39 Y69.135
G2 X55.619 Y70.26 I1.472 J0.286
G1 X56.708 Y71.874
X57.405 Y72.907
G3 X57.191 Y73.104 I-0.122 J0.082
G1 X56.8 Y72.783
X49.274 Y61.142
X49.185 Y60.841
X49.182 Y60.808
X49.192 Y60.776
X49.214 Y60.751
X49.244 Y60.735
X49.277 Y60.732
X49.309 Y60.742
X49.334 Y60.764
Z-10
X49.342 Y60.773
X53.547 Y65.965
G3 X53.753 Y66.793 I-0.784 J0.635
X53.541 Y67.764 I-21.534 J-4.185
G2 X53.33 Y68.734 I21.323 J5.156
X53.879 Y71.434 I3.533 J0.687
G1 X55.529 Y73.873
X55.542 Y73.892
Z-7
X43.474 Y52.097
Z-10
X43.495 Y52.086
X44.547 Y51.588
X56.042 Y65.783
X55.39 Y69.135
G2 X55.619 Y70.26 I1.472 J0.286
G1 X56.708 Y71.874
X57.405 Y72.907
G3 X57.191 Y73.104 I-0.122 J0.082
G1 X56.8 Y72.783
X49.274 Y61.142
X49.185 Y60.841
X49.182 Y60.808
X49.192 Y60.776
X49.214 Y60.751
X49.244 Y60.735
X49.277 Y60.732
X49.309 Y60.742
X49.334 Y60.764
Z-10.286
X49.342 Y60.773
X53.547 Y65.965
G3 X53.753 Y66.793 I-0.784 J0.635
X53.541 Y67.764 I-21.534 J-4.185
G2 X53.33 Y68.734 I21.323 J5.156
X53.879 Y71.434 I3.533 J0.687
G1 X55.529 Y73.873
X55.542 Y73.892
Z-8
X43.474 Y52.097
Z-10.286
X43.495 Y52.086
X44.547 Y51.588
X56.042 Y65.783
X55.39 Y69.135
G2 X55.619 Y70.26 I1.472 J0.286
G1 X56.708 Y71.874
X57.405 Y72.907
G0 Z6
X50.646 Y69.626
Z2
G1 Z-1 F700
X50.644 Y69.638
G2 X50.562 Y69.917 I20.457 J6.169
X50.879 Y72.697 I3.513 J1.007
G1 X52.302 Y75.256
G2 X52.661 Y75.08 I0.175 J-0.097
G1 X47.294 Y62.399
G3 X47.644 Y62.209 I0.184 J-0.078
G1 X51.012 Y67.203
G3 X51.146 Y68.045 I-0.836 J0.564
X51.055 Y68.354 I-20.539 J-5.89
X50.688 Y68.391 I-0.191 J-0.058
G1 X42.165 Y52.773
G3 X42.271 Y52.49 I0.176 J-0.096
G1 X43.361 Y52.086
X53.575 Y67.229
X52.633 Y70.511
G2 X52.763 Y71.652 I1.442 J0.413
G1 X53.707 Y73.355
X54.311 Y74.445
G3 X53.963 Y74.641 I-0.175 J0.097
G1 X51.019 Y69.538
G2 X50.646 Y69.626 I-0.173 J0.1
G1 Z-2
X50.644 Y69.638
G2 X50.562 Y69.917 I20.457 J6.169
X50.879 Y72.697 I3.513 J1.007
G1 X52.302 Y75.256
G2 X52.661 Y75.08 I0.175 J-0.097
G1 X47.294 Y62.399
G3 X47.644 Y62.209 I0.184 J-0.078
G1 X51.012 Y67.203
G3 X51.146 Y68.045 I-0.836 J0.564
X51.055 Y68.354 I-20.539 J-5.89
X50.688 Y68.391 I-0.191 J-0.058
G1 X42.165 Y52.773
G3 X42.271 Y52.49 I0.176 J-0.096
G1 X43.361 Y52.086
X53.575 Y67.229
X52.633 Y70.511
G2 X52.763 Y71.652 I1.442 J0.413
G1 X53.707 Y73.355
X54.311 Y74.445
G3 X53.963 Y74.641 I-0.175 J0.097
G1 X51.019 Y69.538
G2 X50.646 Y69.626 I-0.173 J0.1
G1 Z-3
X50.644 Y69.638
G2 X50.562 Y69.917 I20.457 J6.169
X50.879 Y72.697 I3.513 J1.007
G1 X52.302 Y75.256
G2 X52.661 Y75.08 I0.175 J-0.097
G1 X47.294 Y62.399
G3 X47.644 Y62.209 I0.184 J-0.078
G1 X51.012 Y67.203
G3 X51.146 Y68.045 I-0.836 J0.564
X51.055 Y68.354 I-20.539 J-5.89
X50.688 Y68.391 I-0.191 J-0.058
G1 X42.165 Y52.773
G3 X42.271 Y52.49 I0.176 J-0.096
G1 X43.361 Y52.086
X53.575 Y67.229
X52.633 Y70.511
G2 X52.763 Y71.652 I1.442 J0.413
G1 X53.707 Y73.355
X54.311 Y74.445
G3 X53.963 Y74.641 I-0.175 J0.097
G1 X51.019 Y69.538
G2 X50.646 Y69.626 I-0.173 J0.1
G1 Z-4
X50.644 Y69.638
G2 X50.562 Y69.917 I20.457 J6.169
X50.879 Y72.697 I3.513 J1.007
G1 X52.302 Y75.256
G2 X52.661 Y75.08 I0.175 J-0.097
G1 X47.294 Y62.399
G3 X47.644 Y62.209 I0.184 J-0.078
G1 X51.012 Y67.203
G3 X51.146 Y68.045 I-0.836 J0.564
X51.055 Y68.354 I-20.539 J-5.89
X50.688 Y68.391 I-0.191 J-0.058
G1 X42.165 Y52.773
G3 X42.271 Y52.49 I0.176 J-0.096
G1 X43.361 Y52.086
X53.575 Y67.229
X52.633 Y70.511
G2 X52.763 Y71.652 I1.442 J0.413
G1 X53.707 Y73.355
X54.311 Y74.445
G3 X53.963 Y74.641 I-0.175 J0.097
G1 X51.019 Y69.538
G2 X50.646 Y69.626 I-0.173 J0.1
G1 Z-5
X50.644 Y69.638
G2 X50.562 Y69.917 I20.457 J6.169
X50.879 Y72.697 I3.513 J1.007
G1 X52.302 Y75.256
G2 X52.661 Y75.08 I0.175 J-0.097
G1 X47.294 Y62.399
G3 X47.644 Y62.209 I0.184 J-0.078
G1 X51.012 Y67.203
G3 X51.146 Y68.045 I-0.836 J0.564
X51.055 Y68.354 I-20.539 J-5.89
X50.688 Y68.391 I-0.191 J-0.058
G1 X42.165 Y52.773
G3 X42.271 Y52.49 I0.176 J-0.096
G1 X43.361 Y52.086
X53.575 Y67.229
X52.633 Y70.511
G2 X52.763 Y71.652 I1.442 J0.413
G1 X53.707 Y73.355
X54.311 Y74.445
G3 X53.963 Y74.641 I-0.175 J0.097
G1 X51.019 Y69.538
G2 X50.646 Y69.626 I-0.173 J0.1
G1 Z-6
X50.644 Y69.638
G2 X50.562 Y69.917 I20.457 J6.169
X50.879 Y72.697 I3.513 J1.007
G1 X52.302 Y75.256
G2 X52.661 Y75.08 I0.175 J-0.097
G1 X47.294 Y62.399
G3 X47.644 Y62.209 I0.184 J-0.078
G1 X51.012 Y67.203
G3 X51.146 Y68.045 I-0.836 J0.564
X51.055 Y68.354 I-20.539 J-5.89
X50.688 Y68.391 I-0.191 J-0.058
G1 X42.165 Y52.773
G3 X42.271 Y52.49 I0.176 J-0.096
G1 X43.361 Y52.086
X53.575 Y67.229
X52.633 Y70.511
G2 X52.763 Y71.652 I1.442 J0.413
G1 X53.707 Y73.355
X54.311 Y74.445
G3 X53.963 Y74.641 I-0.175 J0.097
G1 X51.019 Y69.538
G2 X50.646 Y69.626 I-0.173 J0.1
G1 Z-7
X50.644 Y69.638
G2 X50.562 Y69.917 I20.457 J6.169
X50.879 Y72.697 I3.513 J1.007
G1 X52.302 Y75.256
G2 X52.661 Y75.08 I0.175 J-0.097
G1 X47.294 Y62.399
G3 X47.644 Y62.209 I0.184 J-0.078
G1 X51.012 Y67.203
G3 X51.146 Y68.045 I-0.836 J0.564
X51.055 Y68.354 I-20.539 J-5.89
X50.688 Y68.391 I-0.191 J-0.058
G1 X42.165 Y52.773
G3 X42.271 Y52.49 I0.176 J-0.096
G1 X43.361 Y52.086
X53.575 Y67.229
X52.633 Y70.511
G2 X52.763 Y71.652 I1.442 J0.413
G1 X53.707 Y73.355
X54.311 Y74.445
G3 X53.963 Y74.641 I-0.175 J0.097
G1 X51.019 Y69.538
G2 X50.646 Y69.626 I-0.173 J0.1
G1 Z-8
X50.644 Y69.638
G2 X50.562 Y69.917 I20.457 J6.169
X50.879 Y72.697 I3.513 J1.007
G1 X52.302 Y75.256
G2 X52.661 Y75.08 I0.175 J-0.097
G1 X47.294 Y62.399
G3 X47.644 Y62.209 I0.184 J-0.078
G1 X51.012 Y67.203
G3 X51.146 Y68.045 I-0.836 J0.564
X51.055 Y68.354 I-20.539 J-5.89
X50.688 Y68.391 I-0.191 J-0.058
G1 X42.165 Y52.773
G3 X42.271 Y52.49 I0.176 J-0.096
G1 X43.361 Y52.086
X53.575 Y67.229
X52.633 Y70.511
G2 X52.763 Y71.652 I1.442 J0.413
G1 X53.707 Y73.355
X54.311 Y74.445
G3 X53.963 Y74.641 I-0.175 J0.097
G1 X51.019 Y69.538
G2 X50.646 Y69.626 I-0.173 J0.1
G1 Z-9
X50.644 Y69.638
G2 X50.562 Y69.917 I20.457 J6.169
X50.879 Y72.697 I3.513 J1.007
G1 X52.302 Y75.256
