(1001)
(T4  D=3 CR=0 - ZMIN=-15.429 - flat end mill)
G90 G94
G17
G21

(2D Pocket1 2)
T4
S15000 M3
G54
M8
G0 X29.615 Y-11.319
Z6
Z2
G1 Z-1 F700
X29.624 Y-11.327
X41.474 Y-21.628
G3 X42.12 Y-20.885 I0.323 J0.372
G1 X36.195 Y-15.735
X29.947 Y-10.956
X22.628 Y-5.547
G3 X21.899 Y-5.717 I-0.293 J-0.396
G1 X21.36 Y-6.759
X39.374 Y-22.418
X40.314 Y-23.235
G3 X40.587 Y-22.944 I0.131 J0.151
G1 X29.342 Y-11.611
G2 X29.615 Y-11.319 I0.142 J0.141
G1 Z-2
X29.624 Y-11.327
X41.474 Y-21.628
G3 X42.12 Y-20.885 I0.323 J0.372
G1 X36.195 Y-15.735
X29.947 Y-10.956
X22.628 Y-5.547
G3 X21.899 Y-5.717 I-0.293 J-0.396
G1 X21.36 Y-6.759
X39.374 Y-22.418
X40.314 Y-23.235
G3 X40.587 Y-22.944 I0.131 J0.151
G1 X29.342 Y-11.611
G2 X29.615 Y-11.319 I0.142 J0.141
G1 Z-3
X29.624 Y-11.327
X41.474 Y-21.628
G3 X42.12 Y-20.885 I0.323 J0.372
G1 X36.195 Y-15.735
X29.947 Y-10.956
X22.628 Y-5.547
G3 X21.899 Y-5.717 I-0.293 J-0.396
G1 X21.36 Y-6.759
X39.374 Y-22.418
X40.314 Y-23.235
G3 X40.587 Y-22.944 I0.131 J0.151
G1 X29.342 Y-11.611
G2 X29.615 Y-11.319 I0.142 J0.141
G1 Z-4
X29.624 Y-11.327
X41.474 Y-21.628
G3 X42.12 Y-20.885 I0.323 J0.372
G1 X36.195 Y-15.735
X29.947 Y-10.956
X22.628 Y-5.547
G3 X21.899 Y-5.717 I-0.293 J-0.396
G1 X21.36 Y-6.759
X39.374 Y-22.418
X40.314 Y-23.235
G3 X40.587 Y-22.944 I0.131 J0.151
G1 X29.342 Y-11.611
G2 X29.615 Y-11.319 I0.142 J0.141
G1 Z-5
X29.624 Y-11.327
X41.474 Y-21.628
G3 X42.12 Y-20.885 I0.323 J0.372
G1 X36.195 Y-15.735
X29.947 Y-10.956
X22.628 Y-5.547
G3 X21.899 Y-5.717 I-0.293 J-0.396
G1 X21.36 Y-6.759
X39.374 Y-22.418
X40.314 Y-23.235
G3 X40.587 Y-22.944 I0.131 J0.151
G1 X29.342 Y-11.611
G2 X29.615 Y-11.319 I0.142 J0.141
G1 Z-6
X29.624 Y-11.327
X41.474 Y-21.628
G3 X42.12 Y-20.885 I0.323 J0.372
G1 X36.195 Y-15.735
X29.947 Y-10.956
X22.628 Y-5.547
G3 X21.899 Y-5.717 I-0.293 J-0.396
G1 X21.36 Y-6.759
X39.374 Y-22.418
X40.314 Y-23.235
G3 X40.587 Y-22.944 I0.131 J0.151
G1 X29.342 Y-11.611
G2 X29.615 Y-11.319 I0.142 J0.141
G1 Z-7
X29.624 Y-11.327
X41.474 Y-21.628
G3 X42.12 Y-20.885 I0.323 J0.372
G1 X36.195 Y-15.735
X29.947 Y-10.956
X22.628 Y-5.547
G3 X21.899 Y-5.717 I-0.293 J-0.396
G1 X21.36 Y-6.759
X39.374 Y-22.418
X40.314 Y-23.235
G3 X40.587 Y-22.944 I0.131 J0.151
G1 X29.342 Y-11.611
G2 X29.615 Y-11.319 I0.142 J0.141
G1 Z-8
X29.624 Y-11.327
X41.474 Y-21.628
G3 X42.12 Y-20.885 I0.323 J0.372
G1 X36.195 Y-15.735
X29.947 Y-10.956
X22.628 Y-5.547
G3 X21.899 Y-5.717 I-0.293 J-0.396
G1 X21.36 Y-6.759
X39.374 Y-22.418
X40.314 Y-23.235
G3 X40.587 Y-22.944 I0.131 J0.151
G1 X29.342 Y-11.611
G2 X29.615 Y-11.319 I0.142 J0.141
G1 Z-9
X29.624 Y-11.327
X41.474 Y-21.628
G3 X42.12 Y-20.885 I0.323 J0.372
G1 X36.195 Y-15.735
X29.947 Y-10.956
X22.628 Y-5.547
G3 X21.899 Y-5.717 I-0.293 J-0.396
G1 X21.36 Y-6.759
X39.374 Y-22.418
X40.314 Y-23.235
G3 X40.587 Y-22.944 I0.131 J0.151
G1 X29.342 Y-11.611
G2 X29.615 Y-11.319 I0.142 J0.141
G1 Z-10
X29.624 Y-11.327
X41.474 Y-21.628
G3 X42.12 Y-20.885 I0.323 J0.372
G1 X36.195 Y-15.735
X29.947 Y-10.956
X22.628 Y-5.547
G3 X21.899 Y-5.717 I-0.293 J-0.396
G1 X21.36 Y-6.759
X39.374 Y-22.418
X40.314 Y-23.235
G3 X40.587 Y-22.944 I0.131 J0.151
G1 X29.342 Y-11.611
G2 X29.615 Y-11.319 I0.142 J0.141
G1 Z-11
X29.624 Y-11.327
X41.474 Y-21.628
G3 X42.12 Y-20.885 I0.323 J0.372
G1 X36.195 Y-15.735
X29.947 Y-10.956
X22.628 Y-5.547
G3 X21.899 Y-5.717 I-0.293 J-0.396
G1 X21.36 Y-6.759
X39.374 Y-22.418
X40.314 Y-23.235
G3 X40.587 Y-22.944 I0.131 J0.151
G1 X29.342 Y-11.611
G2 X29.615 Y-11.319 I0.142 J0.141
G1 Z-12
X29.624 Y-11.327
X41.474 Y-21.628
G3 X42.12 Y-20.885 I0.323 J0.372
G1 X36.195 Y-15.735
X29.947 Y-10.956
X22.628 Y-5.547
G3 X21.899 Y-5.717 I-0.293 J-0.396
G1 X21.36 Y-6.759
X39.374 Y-22.418
X40.314 Y-23.235
G3 X40.587 Y-22.944 I0.131 J0.151
G1 X29.342 Y-11.611
G2 X29.615 Y-11.319 I0.142 J0.141
G1 Z-13
X29.624 Y-11.327
X41.474 Y-21.628
G3 X42.12 Y-20.885 I0.323 J0.372
G1 X36.195 Y-15.735
X29.947 Y-10.956
X22.628 Y-5.547
G3 X21.899 Y-5.717 I-0.293 J-0.396
G1 X21.36 Y-6.759
X39.374 Y-22.418
X40.314 Y-23.235
G3 X40.587 Y-22.944 I0.131 J0.151
G1 X29.342 Y-11.611
G2 X29.615 Y-11.319 I0.142 J0.141
G1 Z-14
X29.624 Y-11.327
X41.474 Y-21.628
G3 X42.12 Y-20.885 I0.323 J0.372
G1 X36.195 Y-15.735
X29.947 Y-10.956
X22.628 Y-5.547
G3 X21.899 Y-5.717 I-0.293 J-0.396
G1 X21.36 Y-6.759
X39.374 Y-22.418
X40.314 Y-23.235
G3 X40.587 Y-22.944 I0.131 J0.151
G1 X29.342 Y-11.611
G2 X29.615 Y-11.319 I0.142 J0.141
G1 Z-15
X29.624 Y-11.327
X41.474 Y-21.628
G3 X42.12 Y-20.885 I0.323 J0.372
G1 X36.195 Y-15.735
X29.947 Y-10.956
X22.628 Y-5.547
G3 X21.899 Y-5.717 I-0.293 J-0.396
G1 X21.36 Y-6.759
X39.374 Y-22.418
X40.314 Y-23.235
G3 X40.587 Y-22.944 I0.131 J0.151
G1 X29.342 Y-11.611
G2 X29.615 Y-11.319 I0.142 J0.141
G1 Z-15.429
X29.624 Y-11.327
X41.474 Y-21.628
G3 X42.12 Y-20.885 I0.323 J0.372
G1 X36.195 Y-15.735
X29.947 Y-10.956
X22.628 Y-5.547
G3 X21.899 Y-5.717 I-0.293 J-0.396
G1 X21.36 Y-6.759
X39.374 Y-22.418
X40.314 Y-23.235
G0 Z6
X28.041 Y-12.698
Z2
G1 Z-1 F700
X28.049 Y-12.707
X39.423 Y-24.485
G3 X40.11 Y-23.822 I0.344 J0.332
G1 X34.423 Y-17.932
X28.392 Y-12.375
X22.07 Y-6.78
G3 X21.35 Y-6.883 I-0.316 J-0.358
G1 X20.721 Y-7.876
X37.302 Y-25.046
X38.167 Y-25.942
G3 X38.464 Y-25.674 I0.144 J0.139
G1 X27.744 Y-12.966
G2 X28.041 Y-12.698 I0.153 J0.129
G1 Z-2
X28.049 Y-12.707
X39.423 Y-24.485
G3 X40.11 Y-23.822 I0.344 J0.332
G1 X34.423 Y-17.932
X28.392 Y-12.375
X22.07 Y-6.78
G3 X21.35 Y-6.883 I-0.316 J-0.358
G1 X20.721 Y-7.876
X37.302 Y-25.046
X38.167 Y-25.942
G3 X38.464 Y-25.674 I0.144 J0.139
G1 X27.744 Y-12.966
G2 X28.041 Y-12.698 I0.153 J0.129
G1 Z-3
X28.049 Y-12.707
X39.423 Y-24.485
G3 X40.11 Y-23.822 I0.344 J0.332
G1 X34.423 Y-17.932
X28.392 Y-12.375
X22.07 Y-6.78
G3 X21.35 Y-6.883 I-0.316 J-0.358
G1 X20.721 Y-7.876
X37.302 Y-25.046
X38.167 Y-25.942
G3 X38.464 Y-25.674 I0.144 J0.139
G1 X27.744 Y-12.966
G2 X28.041 Y-12.698 I0.153 J0.129
G1 Z-4
X28.049 Y-12.707
X39.423 Y-24.485
G3 X40.11 Y-23.822 I0.344 J0.332
G1 X34.423 Y-17.932
X28.392 Y-12.375
X22.07 Y-6.78
G3 X21.35 Y-6.883 I-0.316 J-0.358
G1 X20.721 Y-7.876
X37.302 Y-25.046
X38.167 Y-25.942
G3 X38.464 Y-25.674 I0.144 J0.139
G1 X27.744 Y-12.966
G2 X28.041 Y-12.698 I0.153 J0.129
G1 Z-5
X28.049 Y-12.707
X39.423 Y-24.485
G3 X40.11 Y-23.822 I0.344 J0.332
G1 X34.423 Y-17.932
X28.392 Y-12.375
X22.07 Y-6.78
G3 X21.35 Y-6.883 I-0.316 J-0.358
G1 X20.721 Y-7.876
X37.302 Y-25.046
X38.167 Y-25.942
G3 X38.464 Y-25.674 I0.144 J0.139
G1 X27.744 Y-12.966
G2 X28.041 Y-12.698 I0.153 J0.129
G1 Z-6
X28.049 Y-12.707
X39.423 Y-24.485
G3 X40.11 Y-23.822 I0.344 J0.332
G1 X34.423 Y-17.932
X28.392 Y-12.375
X22.07 Y-6.78
G3 X21.35 Y-6.883 I-0.316 J-0.358
G1 X20.721 Y-7.876
X37.302 Y-25.046
X38.167 Y-25.942
G3 X38.464 Y-25.674 I0.144 J0.139
G1 X27.744 Y-12.966
G2 X28.041 Y-12.698 I0.153 J0.129
G1 Z-7
X28.049 Y-12.707
X39.423 Y-24.485
G3 X40.11 Y-23.822 I0.344 J0.332
G1 X34.423 Y-17.932
X28.392 Y-12.375
X22.07 Y-6.78
G3 X21.35 Y-6.883 I-0.316 J-0.358
G1 X20.721 Y-7.876
X37.302 Y-25.046
X38.167 Y-25.942
G3 X38.464 Y-25.674 I0.144 J0.139
G1 X27.744 Y-12.966
G2 X28.041 Y-12.698 I0.153 J0.129
G1 Z-8
X28.049 Y-12.707
X39.423 Y-24.485
G3 X40.11 Y-23.822 I0.344 J0.332
G1 X34.423 Y-17.932
X28.392 Y-12.375
X22.07 Y-6.78
G3 X21.35 Y-6.883 I-0.316 J-0.358
G1 X20.721 Y-7.876
X37.302 Y-25.046
X38.167 Y-25.942
G3 X38.464 Y-25.674 I0.144 J0.139
G1 X27.744 Y-12.966
G2 X28.041 Y-12.698 I0.153 J0.129
G1 Z-9
X28.049 Y-12.707
X39.423 Y-24.485
G3 X40.11 Y-23.822 I0.344 J0.332
G1 X34.423 Y-17.932
X28.392 Y-12.375
X22.07 Y-6.78
G3 X21.35 Y-6.883 I-0.316 J-0.358
G1 X20.721 Y-7.876
X37.302 Y-25.046
X38.167 Y-25.942
G3 X38.464 Y-25.674 I0.144 J0.139
G1 X27.744 Y-12.966
G2 X28.041 Y-12.698 I0.153 J0.129
G1 Z-10
X28.049 Y-12.707
X39.423 Y-24.485
G3 X40.11 Y-23.822 I0.344 J0.332
G1 X34.423 Y-17.932
X28.392 Y-12.375
X22.07 Y-6.78
G3 X21.35 Y-6.883 I-0.316 J-0.358
G1 X20.721 Y-7.876
X37.302 Y-25.046
X38.167 Y-25.942
G3 X38.464 Y-25.674 I0.144 J0.139
G1 X27.744 Y-12.966
G2 X28.041 Y-12.698 I0.153 J0.129
G1 Z-11
X28.049 Y-12.707
X39.423 Y-24.485
G3 X40.11 Y-23.822 I0.344 J0.332
G1 X34.423 Y-17.932
X28.392 Y-12.375
X22.07 Y-6.78
G3 X21.35 Y-6.883 I-0.316 J-0.358
G1 X20.721 Y-7.876
X37.302 Y-25.046
X38.167 Y-25.942
G3 X38.464 Y-25.674 I0.144 J0.139
G1 X27.744 Y-12.966
G2 X28.041 Y-12.698 I0.153 J0.129
G1 Z-12
X28.049 Y-12.707
X39.423 Y-24.485
G3 X40.11 Y-23.822 I0.344 J0.332
G1 X34.423 Y-17.932
X28.392 Y-12.375
X22.07 Y-6.78
G3 X21.35 Y-6.883 I-0.316 J-0.358
G1 X20.721 Y-7.876
X37.302 Y-25.046
X38.167 Y-25.942
G3 X38.464 Y-25.674 I0.144 J0.139
G1 X27.744 Y-12.966
G2 X28.041 Y-12.698 I0.153 J0.129
G1 Z-12.857
X28.049 Y-12.707
X39.423 Y-24.485
G3 X40.11 Y-23.822 I0.344 J0.332
G1 X34.423 Y-17.932
X28.392 Y-12.375
X22.07 Y-6.78
G3 X21.35 Y-6.883 I-0.316 J-0.358
G1 X20.721 Y-7.876
X37.302 Y-25.046
X38.167 Y-25.942
G0 Z6
X30.732 Y-18.385
Z2
G1 Z-1 F700
X30.746 Y-18.403
X37.44 Y-26.668
G3 X38.371 Y-25.915 I0.466 J0.377
G1 X35.07 Y-21.832
X35.024 Y-21.781
X31.212 Y-18.026
X21.602 Y-7.958
G3 X20.692 Y-8.009 I-0.433 J-0.414
G1 X19.987 Y-8.933
X35.009 Y-27.483
X35.792 Y-28.45
G3 X36.12 Y-28.222 I0.155 J0.126
G1 X30.404 Y-18.613
G2 X30.732 Y-18.385 I0.172 J0.102
G1 Z-2
X30.746 Y-18.403
X37.44 Y-26.668
G3 X38.371 Y-25.915 I0.466 J0.377
G1 X35.07 Y-21.832
X35.024 Y-21.781
X31.212 Y-18.026
X21.602 Y-7.958
G3 X20.692 Y-8.009 I-0.433 J-0.414
G1 X19.987 Y-8.933
X35.009 Y-27.483
X35.792 Y-28.45
G3 X36.12 Y-28.222 I0.155 J0.126
G1 X30.404 Y-18.613
G2 X30.732 Y-18.385 I0.172 J0.102
G1 Z-3
X30.746 Y-18.403
X37.44 Y-26.668
G3 X38.371 Y-25.915 I0.466 J0.377
G1 X35.07 Y-21.832
X35.024 Y-21.781
X31.212 Y-18.026
X21.602 Y-7.958
G3 X20.692 Y-8.009 I-0.433 J-0.414
G1 X19.987 Y-8.933
X35.009 Y-27.483
X35.792 Y-28.45
G3 X36.12 Y-28.222 I0.155 J0.126
G1 X30.404 Y-18.613
G2 X30.732 Y-18.385 I0.172 J0.102
G1 Z-4
X30.746 Y-18.403
X37.44 Y-26.668
G3 X38.371 Y-25.915 I0.466 J0.377
G1 X35.07 Y-21.832
X35.024 Y-21.781
X31.212 Y-18.026
X21.602 Y-7.958
G3 X20.692 Y-8.009 I-0.433 J-0.414
G1 X19.987 Y-8.933
X35.009 Y-27.483
X35.792 Y-28.45
G3 X36.12 Y-28.222 I0.155 J0.126
G1 X30.404 Y-18.613
G2 X30.732 Y-18.385 I0.172 J0.102
G1 Z-5
X30.746 Y-18.403
X37.44 Y-26.668
G3 X38.371 Y-25.915 I0.466 J0.377
G1 X35.07 Y-21.832
X35.024 Y-21.781
X31.212 Y-18.026
X21.602 Y-7.958
G3 X20.692 Y-8.009 I-0.433 J-0.414
G1 X19.987 Y-8.933
X35.009 Y-27.483
X35.792 Y-28.45
G3 X36.12 Y-28.222 I0.155 J0.126
G1 X30.404 Y-18.613
G2 X30.732 Y-18.385 I0.172 J0.102
G1 Z-6
X30.746 Y-18.403
X37.44 Y-26.668
G3 X38.371 Y-25.915 I0.466 J0.377
G1 X35.07 Y-21.832
X35.024 Y-21.781
X31.212 Y-18.026
X21.602 Y-7.958
G3 X20.692 Y-8.009 I-0.433 J-0.414
G1 X19.987 Y-8.933
X35.009 Y-27.483
X35.792 Y-28.45
G3 X36.12 Y-28.222 I0.155 J0.126
G1 X30.404 Y-18.613
G2 X30.732 Y-18.385 I0.172 J0.102
G1 Z-7
X30.746 Y-18.403
X37.44 Y-26.668
G3 X38.371 Y-25.915 I0.466 J0.377
G1 X35.07 Y-21.832
X35.024 Y-21.781
X31.212 Y-18.026
X21.602 Y-7.958
G3 X20.692 Y-8.009 I-0.433 J-0.414
G1 X19.987 Y-8.933
X35.009 Y-27.483
X35.792 Y-28.45
G3 X36.12 Y-28.222 I0.155 J0.126
G1 X30.404 Y-18.613
G2 X30.732 Y-18.385 I0.172 J0.102
G1 Z-8
X30.746 Y-18.403
X37.44 Y-26.668
G3 X38.371 Y-25.915 I0.466 J0.377
G1 X35.07 Y-21.832
X35.024 Y-21.781
X31.212 Y-18.026
X21.602 Y-7.958
G3 X20.692 Y-8.009 I-0.433 J-0.414
G1 X19.987 Y-8.933
X35.009 Y-27.483
X35.792 Y-28.45
G3 X36.12 Y-28.222 I0.155 J0.126
G1 X30.404 Y-18.613
G2 X30.732 Y-18.385 I0.172 J0.102
G1 Z-9
X30.746 Y-18.403
X37.44 Y-26.668
G3 X38.371 Y-25.915 I0.466 J0.377
G1 X35.07 Y-21.832
X35.024 Y-21.781
X31.212 Y-18.026
X21.602 Y-7.958
G3 X20.692 Y-8.009 I-0.433 J-0.414
G1 X19.987 Y-8.933
X35.009 Y-27.483
X35.792 Y-28.45
G3 X36.12 Y-28.222 I0.155 J0.126
G1 X30.404 Y-18.613
G2 X30.732 Y-18.385 I0.172 J0.102
G1 Z-10
X30.746 Y-18.403
X37.44 Y-26.668
G3 X38.371 Y-25.915 I0.466 J0.377
G1 X35.07 Y-21.832
X35.024 Y-21.781
X31.212 Y-18.026
X21.602 Y-7.958
G3 X20.692 Y-8.009 I-0.433 J-0.414
G1 X19.987 Y-8.933
X35.009 Y-27.483
X35.792 Y-28.45
G3 X36.12 Y-28.222 I0.155 J0.126
G1 X30.404 Y-18.613
G2 X30.732 Y-18.385 I0.172 J0.102
G1 Z-10.286
X30.746 Y-18.403
X37.44 Y-26.668
G3 X38.371 Y-25.915 I0.466 J0.377
G1 X35.07 Y-21.832
X35.024 Y-21.781
X31.212 Y-18.026
X21.602 Y-7.958
G3 X20.692 Y-8.009 I-0.433 J-0.414
G1 X19.987 Y-8.933
X35.009 Y-27.483
X35.792 Y-28.45
G0 Z6
X29.044 Y-20.274
Z2
G1 Z-1 F700
X29.057 Y-20.293
X35.004 Y-29.111
G3 X35.998 Y-28.441 I0.497 J0.335
G1 X33.065 Y-24.086
X33.024 Y-24.032
X29.554 Y-19.958
X20.866 Y-9.083
G3 X19.955 Y-9.054 I-0.468 J-0.374
G1 X19.164 Y-9.922
X32.511 Y-29.71
X33.208 Y-30.743
G3 X33.554 Y-30.544 I0.166 J0.112
G1 X28.698 Y-20.473
G2 X29.044 Y-20.274 I0.18 J0.087
G1 Z-2
X29.057 Y-20.293
X35.004 Y-29.111
G3 X35.998 Y-28.441 I0.497 J0.335
G1 X33.065 Y-24.086
X33.024 Y-24.032
X29.554 Y-19.958
X20.866 Y-9.083
G3 X19.955 Y-9.054 I-0.468 J-0.374
G1 X19.164 Y-9.922
X32.511 Y-29.71
X33.208 Y-30.743
G3 X33.554 Y-30.544 I0.166 J0.112
G1 X28.698 Y-20.473
G2 X29.044 Y-20.274 I0.18 J0.087
G1 Z-3
X29.057 Y-20.293
X35.004 Y-29.111
G3 X35.998 Y-28.441 I0.497 J0.335
G1 X33.065 Y-24.086
X33.024 Y-24.032
X29.554 Y-19.958
X20.866 Y-9.083
G3 X19.955 Y-9.054 I-0.468 J-0.374
G1 X19.164 Y-9.922
X32.511 Y-29.71
X33.208 Y-30.743
G3 X33.554 Y-30.544 I0.166 J0.112
G1 X28.698 Y-20.473
G2 X29.044 Y-20.274 I0.18 J0.087
G1 Z-4
X29.057 Y-20.293
X35.004 Y-29.111
G3 X35.998 Y-28.441 I0.497 J0.335
G1 X33.065 Y-24.086
X33.024 Y-24.032
X29.554 Y-19.958
X20.866 Y-9.083
G3 X19.955 Y-9.054 I-0.468 J-0.374
G1 X19.164 Y-9.922
X32.511 Y-29.71
X33.208 Y-30.743
G3 X33.554 Y-30.544 I0.166 J0.112
G1 X28.698 Y-20.473
G2 X29.044 Y-20.274 I0.18 J0.087
G1 Z-5
X29.057 Y-20.293
X35.004 Y-29.111
G3 X35.998 Y-28.441 I0.497 J0.335
G1 X33.065 Y-24.086
X33.024 Y-24.032
X29.554 Y-19.958
X20.866 Y-9.083
G3 X19.955 Y-9.054 I-0.468 J-0.374
G1 X19.164 Y-9.922
X32.511 Y-29.71
X33.208 Y-30.743
G3 X33.554 Y-30.544 I0.166 J0.112
G1 X28.698 Y-20.473
G2 X29.044 Y-20.274 I0.18 J0.087
G1 Z-6
X29.057 Y-20.293
X35.004 Y-29.111
G3 X35.998 Y-28.441 I0.497 J0.335
G1 X33.065 Y-24.086
X33.024 Y-24.032
X29.554 Y-19.958
X20.866 Y-9.083
G3 X19.955 Y-9.054 I-0.468 J-0.374
G1 X19.164 Y-9.922
X32.511 Y-29.71
X33.208 Y-30.743
G3 X33.554 Y-30.544 I0.166 J0.112
G1 X28.698 Y-20.473
G2 X29.044 Y-20.274 I0.18 J0.087
G1 Z-7
X29.057 Y-20.293
X35.004 Y-29.111
G3 X35.998 Y-28.441 I0.497 J0.335
G1 X33.065 Y-24.086
X33.024 Y-24.032
X29.554 Y-19.958
X20.866 Y-9.083
G3 X19.955 Y-9.054 I-0.468 J-0.374
G1 X19.164 Y-9.922
X32.511 Y-29.71
X33.208 Y-30.743
G3 X33.554 Y-30.544 I0.166 J0.112
G1 X28.698 Y-20.473
G2 X29.044 Y-20.274 I0.18 J0.087
G1 Z-7.714
X29.057 Y-20.293
X35.004 Y-29.111
G3 X35.998 Y-28.441 I0.497 J0.335
G1 X33.065 Y-24.086
X33.024 Y-24.032
X29.554 Y-19.958
X20.866 Y-9.083
G3 X19.955 Y-9.054 I-0.468 J-0.374
G1 X19.164 Y-9.922
X32.511 Y-29.71
X33.208 Y-30.743
G0 Z6
X27.198 Y-22.009
Z2
G1 Z-1 F700
X27.209 Y-22.03
X32.365 Y-31.332
G3 X33.414 Y-30.751 I0.524 J0.29
G1 X30.871 Y-26.157
X30.835 Y-26.1
X27.733 Y-21.739
X20.018 Y-10.155
G3 X19.113 Y-10.047 I-0.499 J-0.332
G1 X18.258 Y-10.835
X29.83 Y-31.712
X30.433 Y-32.801
G3 X30.795 Y-32.633 I0.175 J0.097
G1 X26.836 Y-22.177
G2 X27.198 Y-22.009 I0.187 J0.071
G1 Z-2
X27.209 Y-22.03
X32.365 Y-31.332
G3 X33.414 Y-30.751 I0.524 J0.29
G1 X30.871 Y-26.157
X30.835 Y-26.1
X27.733 Y-21.739
X20.018 Y-10.155
G3 X19.113 Y-10.047 I-0.499 J-0.332
G1 X18.258 Y-10.835
X29.83 Y-31.712
X30.433 Y-32.801
G3 X30.795 Y-32.633 I0.175 J0.097
G1 X26.836 Y-22.177
G2 X27.198 Y-22.009 I0.187 J0.071
G1 Z-3
X27.209 Y-22.03
X32.365 Y-31.332
G3 X33.414 Y-30.751 I0.524 J0.29
G1 X30.871 Y-26.157
X30.835 Y-26.1
X27.733 Y-21.739
X20.018 Y-10.155
G3 X19.113 Y-10.047 I-0.499 J-0.332
G1 X18.258 Y-10.835
X29.83 Y-31.712
X30.433 Y-32.801
G3 X30.795 Y-32.633 I0.175 J0.097
G1 X26.836 Y-22.177
G2 X27.198 Y-22.009 I0.187 J0.071
G1 Z-4
X27.209 Y-22.03
X32.365 Y-31.332
G3 X33.414 Y-30.751 I0.524 J0.29
G1 X30.871 Y-26.157
X30.835 Y-26.1
X27.733 Y-21.739
X20.018 Y-10.155
G3 X19.113 Y-10.047 I-0.499 J-0.332
G1 X18.258 Y-10.835
X29.83 Y-31.712
X30.433 Y-32.801
G3 X30.795 Y-32.633 I0.175 J0.097
G1 X26.836 Y-22.177
G2 X27.198 Y-22.009 I0.187 J0.071
G1 Z-4.571
X27.209 Y-22.03
X32.365 Y-31.332
G3 X33.414 Y-30.751 I0.524 J0.29
G1 X30.871 Y-26.157
X30.835 Y-26.1
X27.733 Y-21.739
X20.018 Y-10.155
G3 X19.113 Y-10.047 I-0.499 J-0.332
G1 X18.258 Y-10.835
X29.83 Y-31.712
X30.433 Y-32.801
G3 X30.795 Y-32.633 I0.175 J0.097
G1 X26.836 Y-22.177
G2 X27.198 Y-22.009 I0.187 J0.071
G1 Z-5.143
X27.209 Y-22.03
X32.365 Y-31.332
G3 X33.414 Y-30.751 I0.524 J0.29
G1 X30.871 Y-26.157
X30.835 Y-26.1
X27.733 Y-21.739
X20.018 Y-10.155
G3 X19.113 Y-10.047 I-0.499 J-0.332
G1 X18.258 Y-10.835
X29.83 Y-31.712
X30.433 Y-32.801
G0 Z6
X23.041 Y-19.669
Z2
G1 Z-1 F700
X23.046 Y-19.68
X29.247 Y-33.608
G3 X30.164 Y-33.2 I0.458 J0.204
G1 X27.064 Y-26.236
X23.504 Y-19.476
X18.944 Y-11.112
G3 X18.197 Y-10.955 I-0.441 J-0.24
G1 X17.275 Y-11.666
X26.984 Y-33.472
X27.49 Y-34.609
G3 X27.862 Y-34.461 I0.183 J0.081
G1 X22.67 Y-19.817
G2 X23.041 Y-19.669 I0.189 J0.067
G1 Z-2
X23.046 Y-19.68
X29.247 Y-33.608
G3 X30.164 Y-33.2 I0.458 J0.204
G1 X27.064 Y-26.236
X23.504 Y-19.476
X18.944 Y-11.112
G3 X18.197 Y-10.955 I-0.441 J-0.24
G1 X17.275 Y-11.666
X26.984 Y-33.472
X27.49 Y-34.609
G3 X27.862 Y-34.461 I0.183 J0.081
G1 X22.67 Y-19.817
G2 X23.041 Y-19.669 I0.189 J0.067
G1 Z-2.571
X23.046 Y-19.68
X29.247 Y-33.608
G3 X30.164 Y-33.2 I0.458 J0.204
G1 X27.064 Y-26.236
X23.504 Y-19.476
X18.944 Y-11.112
G3 X18.197 Y-10.955 I-0.441 J-0.24
G1 X17.275 Y-11.666
X26.984 Y-33.472
X27.49 Y-34.609
G0 Z6
X3.375 Y-26.008
Z2
G1 Z-1 F700
X3.37 Y-26.019
X-1.837 Y-38.288
G3 X-0.839 Y-38.712 I0.499 J-0.212
G1 X1.765 Y-32.577
X3.87 Y-26.231
X7.455 Y-15.453
G3 X7.028 Y-14.747 I-0.515 J0.171
G1 X5.873 Y-14.557
X-3.453 Y-36.529
X-3.94 Y-37.675
G3 X-3.58 Y-37.849 I0.184 J-0.078
G1 X3.015 Y-25.834
G2 X3.375 Y-26.008 I0.175 J-0.096
G1 Z-2
X3.37 Y-26.019
X-1.837 Y-38.288
G3 X-0.839 Y-38.712 I0.499 J-0.212
G1 X1.765 Y-32.577
X3.87 Y-26.231
X7.455 Y-15.453
G3 X7.028 Y-14.747 I-0.515 J0.171
G1 X5.873 Y-14.557
X-3.453 Y-36.529
X-3.94 Y-37.675
G3 X-3.58 Y-37.849 I0.184 J-0.078
G1 X3.015 Y-25.834
G2 X3.375 Y-26.008 I0.175 J-0.096
G1 Z-3
X3.37 Y-26.019
X-1.837 Y-38.288
G3 X-0.839 Y-38.712 I0.499 J-0.212
G1 X1.765 Y-32.577
X3.87 Y-26.231
X7.455 Y-15.453
G3 X7.028 Y-14.747 I-0.515 J0.171
G1 X5.873 Y-14.557
X-3.453 Y-36.529
X-3.94 Y-37.675
G3 X-3.58 Y-37.849 I0.184 J-0.078
G1 X3.015 Y-25.834
G2 X3.375 Y-26.008 I0.175 J-0.096
G1 Z-4
X3.37 Y-26.019
X-1.837 Y-38.288
G3 X-0.839 Y-38.712 I0.499 J-0.212
G1 X1.765 Y-32.577
X3.87 Y-26.231
X7.455 Y-15.453
G3 X7.028 Y-14.747 I-0.515 J0.171
G1 X5.873 Y-14.557
X-3.453 Y-36.529
X-3.94 Y-37.675
G3 X-3.58 Y-37.849 I0.184 J-0.078
G1 X3.015 Y-25.834
G2 X3.375 Y-26.008 I0.175 J-0.096
G1 Z-5
X3.37 Y-26.019
X-1.837 Y-38.288
G3 X-0.839 Y-38.712 I0.499 J-0.212
G1 X1.765 Y-32.577
X3.87 Y-26.231
X7.455 Y-15.453
G3 X7.028 Y-14.747 I-0.515 J0.171
G1 X5.873 Y-14.557
X-3.453 Y-36.529
X-3.94 Y-37.675
G3 X-3.58 Y-37.849 I0.184 J-0.078
G1 X3.015 Y-25.834
G2 X3.375 Y-26.008 I0.175 J-0.096
G1 Z-6
X3.37 Y-26.019
X-1.837 Y-38.288
G3 X-0.839 Y-38.712 I0.499 J-0.212
G1 X1.765 Y-32.577
X3.87 Y-26.231
X7.455 Y-15.453
G3 X7.028 Y-14.747 I-0.515 J0.171
G1 X5.873 Y-14.557
X-3.453 Y-36.529
X-3.94 Y-37.675
G3 X-3.58 Y-37.849 I0.184 J-0.078
G1 X3.015 Y-25.834
G2 X3.375 Y-26.008 I0.175 J-0.096
G1 Z-7
X3.37 Y-26.019
X-1.837 Y-38.288
G3 X-0.839 Y-38.712 I0.499 J-0.212
G1 X1.765 Y-32.577
X3.87 Y-26.231
X7.455 Y-15.453
G3 X7.028 Y-14.747 I-0.515 J0.171
G1 X5.873 Y-14.557
X-3.453 Y-36.529
X-3.94 Y-37.675
G3 X-3.58 Y-37.849 I0.184 J-0.078
G1 X3.015 Y-25.834
G2 X3.375 Y-26.008 I0.175 J-0.096
G1 Z-8
X3.37 Y-26.019
X-1.837 Y-38.288
G3 X-0.839 Y-38.712 I0.499 J-0.212
G1 X1.765 Y-32.577
X3.87 Y-26.231
X7.455 Y-15.453
G3 X7.028 Y-14.747 I-0.515 J0.171
G1 X5.873 Y-14.557
X-3.453 Y-36.529
X-3.94 Y-37.675
G3 X-3.58 Y-37.849 I0.184 J-0.078
G1 X3.015 Y-25.834
G2 X3.375 Y-26.008 I0.175 J-0.096
G1 Z-9
X3.37 Y-26.019
X-1.837 Y-38.288
G3 X-0.839 Y-38.712 I0.499 J-0.212
G1 X1.765 Y-32.577
X3.87 Y-26.231
X7.455 Y-15.453
G3 X7.028 Y-14.747 I-0.515 J0.171
G1 X5.873 Y-14.557
X-3.453 Y-36.529
X-3.94 Y-37.675
G3 X-3.58 Y-37.849 I0.184 J-0.078
G1 X3.015 Y-25.834
G2 X3.375 Y-26.008 I0.175 J-0.096
G1 Z-10
X3.37 Y-26.019
X-1.837 Y-38.288
G3 X-0.839 Y-38.712 I0.499 J-0.212
G1 X1.765 Y-32.577
X3.87 Y-26.231
X7.455 Y-15.453
G3 X7.028 Y-14.747 I-0.515 J0.171
G1 X5.873 Y-14.557
X-3.453 Y-36.529
X-3.94 Y-37.675
G3 X-3.58 Y-37.849 I0.184 J-0.078
G1 X3.015 Y-25.834
G2 X3.375 Y-26.008 I0.175 J-0.096
G1 Z-11
X3.37 Y-26.019
X-1.837 Y-38.288
G3 X-0.839 Y-38.712 I0.499 J-0.212
G1 X1.765 Y-32.577
X3.87 Y-26.231
X7.455 Y-15.453
G3 X7.028 Y-14.747 I-0.515 J0.171
G1 X5.873 Y-14.557
X-3.453 Y-36.529
X-3.94 Y-37.675
G3 X-3.58 Y-37.849 I0.184 J-0.078
G1 X3.015 Y-25.834
G2 X3.375 Y-26.008 I0.175 J-0.096
G1 Z-12
X3.37 Y-26.019
X-1.837 Y-38.288
G3 X-0.839 Y-38.712 I0.499 J-0.212
G1 X1.765 Y-32.577
X3.87 Y-26.231
X7.455 Y-15.453
G3 X7.028 Y-14.747 I-0.515 J0.171
G1 X5.873 Y-14.557
X-3.453 Y-36.529
X-3.94 Y-37.675
G3 X-3.58 Y-37.849 I0.184 J-0.078
G1 X3.015 Y-25.834
G2 X3.375 Y-26.008 I0.175 J-0.096
G1 Z-13
X3.37 Y-26.019
X-1.837 Y-38.288
G3 X-0.839 Y-38.712 I0.499 J-0.212
G1 X1.765 Y-32.577
X3.87 Y-26.231
X7.455 Y-15.453
G3 X7.028 Y-14.747 I-0.515 J0.171
G1 X5.873 Y-14.557
X-3.453 Y-36.529
X-3.94 Y-37.675
G3 X-3.58 Y-37.849 I0.184 J-0.078
G1 X3.015 Y-25.834
G2 X3.375 Y-26.008 I0.175 J-0.096
G1 Z-14
X3.37 Y-26.019
X-1.837 Y-38.288
G3 X-0.839 Y-38.712 I0.499 J-0.212
G1 X1.765 Y-32.577
X3.87 Y-26.231
X7.455 Y-15.453
G3 X7.028 Y-14.747 I-0.515 J0.171
G1 X5.873 Y-14.557
X-3.453 Y-36.529
X-3.94 Y-37.675
G3 X-3.58 Y-37.849 I0.184 J-0.078
G1 X3.015 Y-25.834
G2 X3.375 Y-26.008 I0.175 J-0.096
G1 Z-15
X3.37 Y-26.019
X-1.837 Y-38.288
G3 X-0.839 Y-38.712 I0.499 J-0.212
G1 X1.765 Y-32.577
X3.87 Y-26.231
X7.455 Y-15.453
G3 X7.028 Y-14.747 I-0.515 J0.171
G1 X5.873 Y-14.557
X-3.453 Y-36.529
X-3.94 Y-37.675
G3 X-3.58 Y-37.849 I0.184 J-0.078
G1 X3.015 Y-25.834
G2 X3.375 Y-26.008 I0.175 J-0.096
G1 Z-15.429
X3.37 Y-26.019
X-1.837 Y-38.288
G3 X-0.839 Y-38.712 I0.499 J-0.212
G1 X1.765 Y-32.577
X3.87 Y-26.231
X7.455 Y-15.453
G3 X7.028 Y-14.747 I-0.515 J0.171
G1 X5.873 Y-14.557
X-3.453 Y-36.529
X-3.94 Y-37.675
G0 Z6
X1.368 Y-24.917
Z2
G1 Z-1 F700
X1.362 Y-24.927
X-5.188 Y-37.245
G3 X-4.254 Y-37.742 I0.467 J-0.248
G1 X-0.979 Y-31.583
X1.829 Y-25.175
X6.097 Y-15.305
G3 X5.743 Y-14.583 I-0.485 J0.21
G1 X4.613 Y-14.295
X-6.592 Y-35.37
X-7.177 Y-36.469
G3 X-6.833 Y-36.673 I0.177 J-0.094
G1 X1.024 Y-24.713
G2 X1.368 Y-24.917 I0.167 J-0.11
G1 Z-2
X1.362 Y-24.927
X-5.188 Y-37.245
G3 X-4.254 Y-37.742 I0.467 J-0.248
G1 X-0.979 Y-31.583
X1.829 Y-25.175
X6.097 Y-15.305
G3 X5.743 Y-14.583 I-0.485 J0.21
G1 X4.613 Y-14.295
X-6.592 Y-35.37
X-7.177 Y-36.469
G3 X-6.833 Y-36.673 I0.177 J-0.094
G1 X1.024 Y-24.713
G2 X1.368 Y-24.917 I0.167 J-0.11
G1 Z-3
X1.362 Y-24.927
X-5.188 Y-37.245
G3 X-4.254 Y-37.742 I0.467 J-0.248
G1 X-0.979 Y-31.583
X1.829 Y-25.175
X6.097 Y-15.305
G3 X5.743 Y-14.583 I-0.485 J0.21
G1 X4.613 Y-14.295
X-6.592 Y-35.37
X-7.177 Y-36.469
G3 X-6.833 Y-36.673 I0.177 J-0.094
G1 X1.024 Y-24.713
G2 X1.368 Y-24.917 I0.167 J-0.11
G1 Z-4
X1.362 Y-24.927
X-5.188 Y-37.245
G3 X-4.254 Y-37.742 I0.467 J-0.248
G1 X-0.979 Y-31.583
X1.829 Y-25.175
X6.097 Y-15.305
G3 X5.743 Y-14.583 I-0.485 J0.21
G1 X4.613 Y-14.295
X-6.592 Y-35.37
X-7.177 Y-36.469
G3 X-6.833 Y-36.673 I0.177 J-0.094
G1 X1.024 Y-24.713
G2 X1.368 Y-24.917 I0.167 J-0.11
G1 Z-5
X1.362 Y-24.927
X-5.188 Y-37.245
G3 X-4.254 Y-37.742 I0.467 J-0.248
G1 X-0.979 Y-31.583
X1.829 Y-25.175
X6.097 Y-15.305
G3 X5.743 Y-14.583 I-0.485 J0.21
G1 X4.613 Y-14.295
X-6.592 Y-35.37
X-7.177 Y-36.469
G3 X-6.833 Y-36.673 I0.177 J-0.094
G1 X1.024 Y-24.713
G2 X1.368 Y-24.917 I0.167 J-0.11
G1 Z-6
X1.362 Y-24.927
X-5.188 Y-37.245
G3 X-4.254 Y-37.742 I0.467 J-0.248
G1 X-0.979 Y-31.583
X1.829 Y-25.175
X6.097 Y-15.305
G3 X5.743 Y-14.583 I-0.485 J0.21
G1 X4.613 Y-14.295
X-6.592 Y-35.37
X-7.177 Y-36.469
G3 X-6.833 Y-36.673 I0.177 J-0.094
G1 X1.024 Y-24.713
G2 X1.368 Y-24.917 I0.167 J-0.11
G1 Z-7
X1.362 Y-24.927
X-5.188 Y-37.245
G3 X-4.254 Y-37.742 I0.467 J-0.248
G1 X-0.979 Y-31.583
X1.829 Y-25.175
X6.097 Y-15.305
G3 X5.743 Y-14.583 I-0.485 J0.21
G1 X4.613 Y-14.295
X-6.592 Y-35.37
X-7.177 Y-36.469
G3 X-6.833 Y-36.673 I0.177 J-0.094
G1 X1.024 Y-24.713
G2 X1.368 Y-24.917 I0.167 J-0.11
G1 Z-8
X1.362 Y-24.927
X-5.188 Y-37.245
G3 X-4.254 Y-37.742 I0.467 J-0.248
G1 X-0.979 Y-31.583
X1.829 Y-25.175
X6.097 Y-15.305
G3 X5.743 Y-14.583 I-0.485 J0.21
G1 X4.613 Y-14.295
X-6.592 Y-35.37
X-7.177 Y-36.469
G3 X-6.833 Y-36.673 I0.177 J-0.094
G1 X1.024 Y-24.713
G2 X1.368 Y-24.917 I0.167 J-0.11
G1 Z-9
X1.362 Y-24.927
X-5.188 Y-37.245
G3 X-4.254 Y-37.742 I0.467 J-0.248
G1 X-0.979 Y-31.583
X1.829 Y-25.175
X6.097 Y-15.305
G3 X5.743 Y-14.583 I-0.485 J0.21
G1 X4.613 Y-14.295
X-6.592 Y-35.37
X-7.177 Y-36.469
G3 X-6.833 Y-36.673 I0.177 J-0.094
G1 X1.024 Y-24.713
G2 X1.368 Y-24.917 I0.167 J-0.11
G1 Z-10
X1.362 Y-24.927
X-5.188 Y-37.245
G3 X-4.254 Y-37.742 I0.467 J-0.248
G1 X-0.979 Y-31.583
X1.829 Y-25.175
X6.097 Y-15.305
G3 X5.743 Y-14.583 I-0.485 J0.21
G1 X4.613 Y-14.295
X-6.592 Y-35.37
X-7.177 Y-36.469
G3 X-6.833 Y-36.673 I0.177 J-0.094
G1 X1.024 Y-24.713
G2 X1.368 Y-24.917 I0.167 J-0.11
G1 Z-11
X1.362 Y-24.927
X-5.188 Y-37.245
G3 X-4.254 Y-37.742 I0.467 J-0.248
G1 X-0.979 Y-31.583
X1.829 Y-25.175
X6.097 Y-15.305
G3 X5.743 Y-14.583 I-0.485 J0.21
G1 X4.613 Y-14.295
X-6.592 Y-35.37
X-7.177 Y-36.469
G3 X-6.833 Y-36.673 I0.177 J-0.094
G1 X1.024 Y-24.713
G2 X1.368 Y-24.917 I0.167 J-0.11
G1 Z-12
X1.362 Y-24.927
X-5.188 Y-37.245
G3 X-4.254 Y-37.742 I0.467 J-0.248
G1 X-0.979 Y-31.583
X1.829 Y-25.175
X6.097 Y-15.305
G3 X5.743 Y-14.583 I-0.485 J0.21
G1 X4.613 Y-14.295
X-6.592 Y-35.37
X-7.177 Y-36.469
G3 X-6.833 Y-36.673 I0.177 J-0.094
G1 X1.024 Y-24.713
G2 X1.368 Y-24.917 I0.167 J-0.11
G1 Z-12.857
X1.362 Y-24.927
X-5.188 Y-37.245
G3 X-4.254 Y-37.742 I0.467 J-0.248
G1 X-0.979 Y-31.583
X1.829 Y-25.175
X6.097 Y-15.305
G3 X5.743 Y-14.583 I-0.485 J0.21
G1 X4.613 Y-14.295
X-6.592 Y-35.37
X-7.177 Y-36.469
G0 Z6
X-0.48 Y-23.661
Z2
G1 Z-1 F700
X-0.486 Y-23.671
X-8.442 Y-35.922
G3 X-7.578 Y-36.483 I0.432 J-0.281
G1 X-3.6 Y-30.358
X-0.054 Y-23.952
X4.769 Y-15.042
G3 X4.487 Y-14.311 I-0.453 J0.245
G1 X3.381 Y-13.923
X-9.619 Y-33.941
X-10.297 Y-34.986
G3 X-9.971 Y-35.218 I0.168 J-0.109
G1 X-0.806 Y-23.43
G2 X-0.48 Y-23.661 I0.158 J-0.123
G1 Z-2
X-0.486 Y-23.671
X-8.442 Y-35.922
G3 X-7.578 Y-36.483 I0.432 J-0.281
G1 X-3.6 Y-30.358
X-0.054 Y-23.952
X4.769 Y-15.042
G3 X4.487 Y-14.311 I-0.453 J0.245
G1 X3.381 Y-13.923
X-9.619 Y-33.941
X-10.297 Y-34.986
G3 X-9.971 Y-35.218 I0.168 J-0.109
G1 X-0.806 Y-23.43
G2 X-0.48 Y-23.661 I0.158 J-0.123
G1 Z-3
X-0.486 Y-23.671
X-8.442 Y-35.922
G3 X-7.578 Y-36.483 I0.432 J-0.281
G1 X-3.6 Y-30.358
X-0.054 Y-23.952
X4.769 Y-15.042
G3 X4.487 Y-14.311 I-0.453 J0.245
G1 X3.381 Y-13.923
X-9.619 Y-33.941
X-10.297 Y-34.986
G3 X-9.971 Y-35.218 I0.168 J-0.109
G1 X-0.806 Y-23.43
G2 X-0.48 Y-23.661 I0.158 J-0.123
G1 Z-4
X-0.486 Y-23.671
X-8.442 Y-35.922
G3 X-7.578 Y-36.483 I0.432 J-0.281
G1 X-3.6 Y-30.358
X-0.054 Y-23.952
X4.769 Y-15.042
G3 X4.487 Y-14.311 I-0.453 J0.245
G1 X3.381 Y-13.923
X-9.619 Y-33.941
X-10.297 Y-34.986
G3 X-9.971 Y-35.218 I0.168 J-0.109
G1 X-0.806 Y-23.43
G2 X-0.48 Y-23.661 I0.158 J-0.123
G1 Z-5
X-0.486 Y-23.671
X-8.442 Y-35.922
G3 X-7.578 Y-36.483 I0.432 J-0.281
G1 X-3.6 Y-30.358
X-0.054 Y-23.952
X4.769 Y-15.042
G3 X4.487 Y-14.311 I-0.453 J0.245
G1 X3.381 Y-13.923
X-9.619 Y-33.941
X-10.297 Y-34.986
G3 X-9.971 Y-35.218 I0.168 J-0.109
G1 X-0.806 Y-23.43
G2 X-0.48 Y-23.661 I0.158 J-0.123
G1 Z-6
X-0.486 Y-23.671
X-8.442 Y-35.922
G3 X-7.578 Y-36.483 I0.432 J-0.281
G1 X-3.6 Y-30.358
X-0.054 Y-23.952
X4.769 Y-15.042
G3 X4.487 Y-14.311 I-0.453 J0.245
G1 X3.381 Y-13.923
X-9.619 Y-33.941
X-10.297 Y-34.986
G3 X-9.971 Y-35.218 I0.168 J-0.109
G1 X-0.806 Y-23.43
G2 X-0.48 Y-23.661 I0.158 J-0.123
G1 Z-7
X-0.486 Y-23.671
X-8.442 Y-35.922
G3 X-7.578 Y-36.483 I0.432 J-0.281
G1 X-3.6 Y-30.358
X-0.054 Y-23.952
X4.769 Y-15.042
G3 X4.487 Y-14.311 I-0.453 J0.245
G1 X3.381 Y-13.923
X-9.619 Y-33.941
X-10.297 Y-34.986
G3 X-9.971 Y-35.218 I0.168 J-0.109
G1 X-0.806 Y-23.43
G2 X-0.48 Y-23.661 I0.158 J-0.123
G1 Z-8
X-0.486 Y-23.671
X-8.442 Y-35.922
G3 X-7.578 Y-36.483 I0.432 J-0.281
G1 X-3.6 Y-30.358
X-0.054 Y-23.952
X4.769 Y-15.042
G3 X4.487 Y-14.311 I-0.453 J0.245
G1 X3.381 Y-13.923
X-9.619 Y-33.941
X-10.297 Y-34.986
G3 X-9.971 Y-35.218 I0.168 J-0.109
G1 X-0.806 Y-23.43
G2 X-0.48 Y-23.661 I0.158 J-0.123
G1 Z-9
X-0.486 Y-23.671
X-8.442 Y-35.922
G3 X-7.578 Y-36.483 I0.432 J-0.281
G1 X-3.6 Y-30.358
X-0.054 Y-23.952
X4.769 Y-15.042
G3 X4.487 Y-14.311 I-0.453 J0.245
G1 X3.381 Y-13.923
X-9.619 Y-33.941
X-10.297 Y-34.986
G3 X-9.971 Y-35.218 I0.168 J-0.109
G1 X-0.806 Y-23.43
G2 X-0.48 Y-23.661 I0.158 J-0.123
G1 Z-10
X-0.486 Y-23.671
X-8.442 Y-35.922
G3 X-7.578 Y-36.483 I0.432 J-0.281
G1 X-3.6 Y-30.358
X-0.054 Y-23.952
X4.769 Y-15.042
G3 X4.487 Y-14.311 I-0.453 J0.245
G1 X3.381 Y-13.923
X-9.619 Y-33.941
X-10.297 Y-34.986
G3 X-9.971 Y-35.218 I0.168 J-0.109
G1 X-0.806 Y-23.43
G2 X-0.48 Y-23.661 I0.158 J-0.123
G1 Z-10.286
X-0.486 Y-23.671
X-8.442 Y-35.922
G3 X-7.578 Y-36.483 I0.432 J-0.281
G1 X-3.6 Y-30.358
X-0.054 Y-23.952
X4.769 Y-15.042
G3 X4.487 Y-14.311 I-0.453 J0.245
G1 X3.381 Y-13.923
X-9.619 Y-33.941
X-10.297 Y-34.986
G0 Z6
X-2.153 Y-22.263
Z2
G1 Z-1 F700
X-2.16 Y-22.272
X-11.568 Y-34.313
G3 X-10.778 Y-34.93 I0.395 J-0.308
G1 X-6.075 Y-28.909
X-1.766 Y-22.58
X3.466 Y-14.661
G3 X3.255 Y-13.929 I-0.418 J0.276
G1 X2.186 Y-13.446
X-12.509 Y-32.255
X-13.275 Y-33.236
G3 X-12.97 Y-33.494 I0.158 J-0.123
G1 X-2.458 Y-22.005
G2 X-2.153 Y-22.263 I0.148 J-0.135
G1 Z-2
X-2.16 Y-22.272
X-11.568 Y-34.313
G3 X-10.778 Y-34.93 I0.395 J-0.308
G1 X-6.075 Y-28.909
X-1.766 Y-22.58
X3.466 Y-14.661
G3 X3.255 Y-13.929 I-0.418 J0.276
G1 X2.186 Y-13.446
X-12.509 Y-32.255
X-13.275 Y-33.236
G3 X-12.97 Y-33.494 I0.158 J-0.123
G1 X-2.458 Y-22.005
G2 X-2.153 Y-22.263 I0.148 J-0.135
G1 Z-3
X-2.16 Y-22.272
X-11.568 Y-34.313
G3 X-10.778 Y-34.93 I0.395 J-0.308
G1 X-6.075 Y-28.909
X-1.766 Y-22.58
X3.466 Y-14.661
G3 X3.255 Y-13.929 I-0.418 J0.276
G1 X2.186 Y-13.446
X-12.509 Y-32.255
X-13.275 Y-33.236
G3 X-12.97 Y-33.494 I0.158 J-0.123
G1 X-2.458 Y-22.005
G2 X-2.153 Y-22.263 I0.148 J-0.135
G1 Z-4
X-2.16 Y-22.272
X-11.568 Y-34.313
G3 X-10.778 Y-34.93 I0.395 J-0.308
G1 X-6.075 Y-28.909
X-1.766 Y-22.58
X3.466 Y-14.661
G3 X3.255 Y-13.929 I-0.418 J0.276
G1 X2.186 Y-13.446
X-12.509 Y-32.255
X-13.275 Y-33.236
G3 X-12.97 Y-33.494 I0.158 J-0.123
G1 X-2.458 Y-22.005
G2 X-2.153 Y-22.263 I0.148 J-0.135
G1 Z-5
X-2.16 Y-22.272
X-11.568 Y-34.313
G3 X-10.778 Y-34.93 I0.395 J-0.308
G1 X-6.075 Y-28.909
X-1.766 Y-22.58
X3.466 Y-14.661
G3 X3.255 Y-13.929 I-0.418 J0.276
G1 X2.186 Y-13.446
X-12.509 Y-32.255
X-13.275 Y-33.236
G3 X-12.97 Y-33.494 I0.158 J-0.123
G1 X-2.458 Y-22.005
G2 X-2.153 Y-22.263 I0.148 J-0.135
G1 Z-6
X-2.16 Y-22.272
X-11.568 Y-34.313
G3 X-10.778 Y-34.93 I0.395 J-0.308
G1 X-6.075 Y-28.909
X-1.766 Y-22.58
X3.466 Y-14.661
G3 X3.255 Y-13.929 I-0.418 J0.276
G1 X2.186 Y-13.446
X-12.509 Y-32.255
X-13.275 Y-33.236
G3 X-12.97 Y-33.494 I0.158 J-0.123
G1 X-2.458 Y-22.005
G2 X-2.153 Y-22.263 I0.148 J-0.135
G1 Z-7
X-2.16 Y-22.272
X-11.568 Y-34.313
G3 X-10.778 Y-34.93 I0.395 J-0.308
G1 X-6.075 Y-28.909
X-1.766 Y-22.58
X3.466 Y-14.661
G3 X3.255 Y-13.929 I-0.418 J0.276
G1 X2.186 Y-13.446
X-12.509 Y-32.255
X-13.275 Y-33.236
G3 X-12.97 Y-33.494 I0.158 J-0.123
G1 X-2.458 Y-22.005
G2 X-2.153 Y-22.263 I0.148 J-0.135
G1 Z-7.714
X-2.16 Y-22.272
X-11.568 Y-34.313
G3 X-10.778 Y-34.93 I0.395 J-0.308
G1 X-6.075 Y-28.909
X-1.766 Y-22.58
X3.466 Y-14.661
G3 X3.255 Y-13.929 I-0.418 J0.276
G1 X2.186 Y-13.446
X-12.509 Y-32.255
X-13.275 Y-33.236
G0 Z6
X-3.641 Y-20.743
Z2
G1 Z-1 F700
X-3.649 Y-20.752
X-14.54 Y-32.432
G3 X-13.829 Y-33.095 I0.356 J-0.332
G1 X-8.383 Y-27.255
X-3.293 Y-21.084
X2.198 Y-14.164
G3 X2.055 Y-13.438 I-0.381 J0.302
G1 X1.038 Y-12.866
X-15.241 Y-30.323
X-16.09 Y-31.234
G3 X-15.808 Y-31.517 I0.146 J-0.136
G1 X-3.923 Y-20.46
G2 X-3.641 Y-20.743 I0.136 J-0.146
G1 Z-2
X-3.649 Y-20.752
X-14.54 Y-32.432
G3 X-13.829 Y-33.095 I0.356 J-0.332
G1 X-8.383 Y-27.255
X-3.293 Y-21.084
X2.198 Y-14.164
G3 X2.055 Y-13.438 I-0.381 J0.302
G1 X1.038 Y-12.866
X-15.241 Y-30.323
X-16.09 Y-31.234
G3 X-15.808 Y-31.517 I0.146 J-0.136
G1 X-3.923 Y-20.46
G2 X-3.641 Y-20.743 I0.136 J-0.146
G1 Z-3
X-3.649 Y-20.752
X-14.54 Y-32.432
G3 X-13.829 Y-33.095 I0.356 J-0.332
G1 X-8.383 Y-27.255
X-3.293 Y-21.084
X2.198 Y-14.164
G3 X2.055 Y-13.438 I-0.381 J0.302
G1 X1.038 Y-12.866
X-15.241 Y-30.323
X-16.09 Y-31.234
G3 X-15.808 Y-31.517 I0.146 J-0.136
G1 X-3.923 Y-20.46
G2 X-3.641 Y-20.743 I0.136 J-0.146
G1 Z-4
X-3.649 Y-20.752
X-14.54 Y-32.432
G3 X-13.829 Y-33.095 I0.356 J-0.332
G1 X-8.383 Y-27.255
X-3.293 Y-21.084
X2.198 Y-14.164
G3 X2.055 Y-13.438 I-0.381 J0.302
G1 X1.038 Y-12.866
X-15.241 Y-30.323
X-16.09 Y-31.234
G3 X-15.808 Y-31.517 I0.146 J-0.136
G1 X-3.923 Y-20.46
G2 X-3.641 Y-20.743 I0.136 J-0.146
G1 Z-4.571
X-3.649 Y-20.752
X-14.54 Y-32.432
G3 X-13.829 Y-33.095 I0.356 J-0.332
G1 X-8.383 Y-27.255
X-3.293 Y-21.084
X2.198 Y-14.164
G3 X2.055 Y-13.438 I-0.381 J0.302
G1 X1.038 Y-12.866
X-15.241 Y-30.323
X-16.09 Y-31.234
G3 X-15.808 Y-31.517 I0.146 J-0.136
G1 X-3.923 Y-20.46
G2 X-3.641 Y-20.743 I0.136 J-0.146
G1 Z-5.143
X-3.649 Y-20.752
X-14.54 Y-32.432
G3 X-13.829 Y-33.095 I0.356 J-0.332
G1 X-8.383 Y-27.255
X-3.293 Y-21.084
X2.198 Y-14.164
G3 X2.055 Y-13.438 I-0.381 J0.302
G1 X1.038 Y-12.866
X-15.241 Y-30.323
X-16.09 Y-31.234
G0 Z6
X-7.832 Y-22.232
Z2
G1 Z-1 F700
X-7.849 Y-22.248
X-16.991 Y-30.479
G3 X-16.237 Y-31.317 I0.377 J-0.419
G1 X-11.702 Y-27.238
X-11.666 Y-27.201
X-7.472 Y-22.667
X1.005 Y-13.704
G3 X0.913 Y-12.851 I-0.41 J0.387
G1 X-0.056 Y-12.189
X-17.794 Y-28.16
X-18.72 Y-28.993
G3 X-18.47 Y-29.305 I0.134 J-0.149
G1 X-8.082 Y-21.92
G2 X-7.832 Y-22.232 I0.116 J-0.163
G1 Z-2
X-7.849 Y-22.248
X-16.991 Y-30.479
G3 X-16.237 Y-31.317 I0.377 J-0.419
G1 X-11.702 Y-27.238
X-11.666 Y-27.201
X-7.472 Y-22.667
X1.005 Y-13.704
G3 X0.913 Y-12.851 I-0.41 J0.387
G1 X-0.056 Y-12.189
X-17.794 Y-28.16
X-18.72 Y-28.993
G3 X-18.47 Y-29.305 I0.134 J-0.149
G1 X-8.082 Y-21.92
G2 X-7.832 Y-22.232 I0.116 J-0.163
G1 Z-2.571
X-7.849 Y-22.248
X-16.991 Y-30.479
G3 X-16.237 Y-31.317 I0.377 J-0.419
G1 X-11.702 Y-27.238
X-11.666 Y-27.201
X-7.472 Y-22.667
X1.005 Y-13.704
G3 X0.913 Y-12.851 I-0.41 J0.387
G1 X-0.056 Y-12.189
X-17.794 Y-28.16
X-18.72 Y-28.993
G0 Z6
X-19.661 Y-3.401
Z2
G1 Z-1 F700
X-19.673 Y-3.4
X-31.24 Y-2.388
G3 X-31.342 Y-3.541 I-0.05 J-0.577
G1 X-25.615 Y-4.045
X-25.557 Y-4.047
X-19.723 Y-3.976
X-6.729 Y-4.058
G3 X-6.153 Y-3.391 I0.004 J0.579
G1 X-6.329 Y-2.238
X-30.107 Y-0.158
X-31.348 Y-0.049
G3 X-31.408 Y-0.444 I-0.017 J-0.199
G1 X-19.601 Y-3.006
G2 X-19.661 Y-3.401 I-0.042 J-0.195
G1 Z-2
X-19.673 Y-3.4
X-31.24 Y-2.388
G3 X-31.342 Y-3.541 I-0.05 J-0.577
G1 X-25.615 Y-4.045
X-25.557 Y-4.047
X-19.723 Y-3.976
X-6.729 Y-4.058
G3 X-6.153 Y-3.391 I0.004 J0.579
G1 X-6.329 Y-2.238
X-30.107 Y-0.158
X-31.348 Y-0.049
G3 X-31.408 Y-0.444 I-0.017 J-0.199
G1 X-19.601 Y-3.006
G2 X-19.661 Y-3.401 I-0.042 J-0.195
G1 Z-3
X-19.673 Y-3.4
X-31.24 Y-2.388
G3 X-31.342 Y-3.541 I-0.05 J-0.577
G1 X-25.615 Y-4.045
X-25.557 Y-4.047
X-19.723 Y-3.976
X-6.729 Y-4.058
G3 X-6.153 Y-3.391 I0.004 J0.579
G1 X-6.329 Y-2.238
X-30.107 Y-0.158
X-31.348 Y-0.049
G3 X-31.408 Y-0.444 I-0.017 J-0.199
G1 X-19.601 Y-3.006
G2 X-19.661 Y-3.401 I-0.042 J-0.195
G1 Z-4
X-19.673 Y-3.4
X-31.24 Y-2.388
G3 X-31.342 Y-3.541 I-0.05 J-0.577
G1 X-25.615 Y-4.045
X-25.557 Y-4.047
X-19.723 Y-3.976
X-6.729 Y-4.058
G3 X-6.153 Y-3.391 I0.004 J0.579
G1 X-6.329 Y-2.238
X-30.107 Y-0.158
X-31.348 Y-0.049
G3 X-31.408 Y-0.444 I-0.017 J-0.199
G1 X-19.601 Y-3.006
G2 X-19.661 Y-3.401 I-0.042 J-0.195
G1 Z-5
X-19.673 Y-3.4
X-31.24 Y-2.388
G3 X-31.342 Y-3.541 I-0.05 J-0.577
G1 X-25.615 Y-4.045
X-25.557 Y-4.047
X-19.723 Y-3.976
X-6.729 Y-4.058
G3 X-6.153 Y-3.391 I0.004 J0.579
G1 X-6.329 Y-2.238
X-30.107 Y-0.158
X-31.348 Y-0.049
G3 X-31.408 Y-0.444 I-0.017 J-0.199
G1 X-19.601 Y-3.006
G2 X-19.661 Y-3.401 I-0.042 J-0.195
G1 Z-6
X-19.673 Y-3.4
X-31.24 Y-2.388
G3 X-31.342 Y-3.541 I-0.05 J-0.577
G1 X-25.615 Y-4.045
X-25.557 Y-4.047
X-19.723 Y-3.976
X-6.729 Y-4.058
G3 X-6.153 Y-3.391 I0.004 J0.579
G1 X-6.329 Y-2.238
X-30.107 Y-0.158
X-31.348 Y-0.049
G3 X-31.408 Y-0.444 I-0.017 J-0.199
G1 X-19.601 Y-3.006
G2 X-19.661 Y-3.401 I-0.042 J-0.195
G1 Z-7
X-19.673 Y-3.4
X-31.24 Y-2.388
G3 X-31.342 Y-3.541 I-0.05 J-0.577
G1 X-25.615 Y-4.045
X-25.557 Y-4.047
X-19.723 Y-3.976
X-6.729 Y-4.058
G3 X-6.153 Y-3.391 I0.004 J0.579
G1 X-6.329 Y-2.238
X-30.107 Y-0.158
X-31.348 Y-0.049
G3 X-31.408 Y-0.444 I-0.017 J-0.199
G1 X-19.601 Y-3.006
G2 X-19.661 Y-3.401 I-0.042 J-0.195
G1 Z-8
X-19.673 Y-3.4
X-31.24 Y-2.388
G3 X-31.342 Y-3.541 I-0.05 J-0.577
G1 X-25.615 Y-4.045
X-25.557 Y-4.047
X-19.723 Y-3.976
X-6.729 Y-4.058
G3 X-6.153 Y-3.391 I0.004 J0.579
G1 X-6.329 Y-2.238
X-30.107 Y-0.158
X-31.348 Y-0.049
G3 X-31.408 Y-0.444 I-0.017 J-0.199
G1 X-19.601 Y-3.006
G2 X-19.661 Y-3.401 I-0.042 J-0.195
G1 Z-9
X-19.673 Y-3.4
X-31.24 Y-2.388
G3 X-31.342 Y-3.541 I-0.05 J-0.577
G1 X-25.615 Y-4.045
X-25.557 Y-4.047
X-19.723 Y-3.976
X-6.729 Y-4.058
G3 X-6.153 Y-3.391 I0.004 J0.579
G1 X-6.329 Y-2.238
X-30.107 Y-0.158
X-31.348 Y-0.049
G3 X-31.408 Y-0.444 I-0.017 J-0.199
G1 X-19.601 Y-3.006
G2 X-19.661 Y-3.401 I-0.042 J-0.195
G1 Z-10
X-19.673 Y-3.4
X-31.24 Y-2.388
G3 X-31.342 Y-3.541 I-0.05 J-0.577
G1 X-25.615 Y-4.045
X-25.557 Y-4.047
X-19.723 Y-3.976
X-6.729 Y-4.058
G3 X-6.153 Y-3.391 I0.004 J0.579
G1 X-6.329 Y-2.238
X-30.107 Y-0.158
X-31.348 Y-0.049
G3 X-31.408 Y-0.444 I-0.017 J-0.199
G1 X-19.601 Y-3.006
G2 X-19.661 Y-3.401 I-0.042 J-0.195
G1 Z-11
X-19.673 Y-3.4
X-31.24 Y-2.388
G3 X-31.342 Y-3.541 I-0.05 J-0.577
G1 X-25.615 Y-4.045
X-25.557 Y-4.047
X-19.723 Y-3.976
X-6.729 Y-4.058
G3 X-6.153 Y-3.391 I0.004 J0.579
G1 X-6.329 Y-2.238
X-30.107 Y-0.158
X-31.348 Y-0.049
G3 X-31.408 Y-0.444 I-0.017 J-0.199
G1 X-19.601 Y-3.006
G2 X-19.661 Y-3.401 I-0.042 J-0.195
G1 Z-12
X-19.673 Y-3.4
X-31.24 Y-2.388
G3 X-31.342 Y-3.541 I-0.05 J-0.577
G1 X-25.615 Y-4.045
X-25.557 Y-4.047
X-19.723 Y-3.976
X-6.729 Y-4.058
G3 X-6.153 Y-3.391 I0.004 J0.579
G1 X-6.329 Y-2.238
X-30.107 Y-0.158
X-31.348 Y-0.049
G3 X-31.408 Y-0.444 I-0.017 J-0.199
G1 X-19.601 Y-3.006
G2 X-19.661 Y-3.401 I-0.042 J-0.195
G1 Z-13
X-19.673 Y-3.4
X-31.24 Y-2.388
G3 X-31.342 Y-3.541 I-0.05 J-0.577
G1 X-25.615 Y-4.045
X-25.557 Y-4.047
X-19.723 Y-3.976
X-6.729 Y-4.058
G3 X-6.153 Y-3.391 I0.004 J0.579
G1 X-6.329 Y-2.238
X-30.107 Y-0.158
X-31.348 Y-0.049
G3 X-31.408 Y-0.444 I-0.017 J-0.199
G1 X-19.601 Y-3.006
G2 X-19.661 Y-3.401 I-0.042 J-0.195
G1 Z-14
X-19.673 Y-3.4
X-31.24 Y-2.388
G3 X-31.342 Y-3.541 I-0.05 J-0.577
G1 X-25.615 Y-4.045
X-25.557 Y-4.047
X-19.723 Y-3.976
X-6.729 Y-4.058
G3 X-6.153 Y-3.391 I0.004 J0.579
G1 X-6.329 Y-2.238
X-30.107 Y-0.158
X-31.348 Y-0.049
G3 X-31.408 Y-0.444 I-0.017 J-0.199
G1 X-19.601 Y-3.006
G2 X-19.661 Y-3.401 I-0.042 J-0.195
G1 Z-15
X-19.673 Y-3.4
X-31.24 Y-2.388
G3 X-31.342 Y-3.541 I-0.05 J-0.577
G1 X-25.615 Y-4.045
X-25.557 Y-4.047
X-19.723 Y-3.976
X-6.729 Y-4.058
G3 X-6.153 Y-3.391 I0.004 J0.579
G1 X-6.329 Y-2.238
X-30.107 Y-0.158
X-31.348 Y-0.049
G3 X-31.408 Y-0.444 I-0.017 J-0.199
G1 X-19.601 Y-3.006
G2 X-19.661 Y-3.401 I-0.042 J-0.195
G1 Z-15.429
X-19.673 Y-3.4
X-31.24 Y-2.388
G3 X-31.342 Y-3.541 I-0.05 J-0.577
G1 X-25.615 Y-4.045
X-25.557 Y-4.047
X-19.723 Y-3.976
X-6.729 Y-4.058
G3 X-6.153 Y-3.391 I0.004 J0.579
G1 X-6.329 Y-2.238
X-30.107 Y-0.158
X-31.348 Y-0.049
G0 Z6
X-19.707 Y-0.968
Z2
G1 Z-1 F700
X-19.718 Y-0.966
X-31.303 Y1.077
G3 X-31.503 Y-0.057 I-0.1 J-0.567
G1 X-25.766 Y-1.071
X-25.71 Y-1.078
X-19.818 Y-1.533
X-7.022 Y-2.729
G3 X-6.394 Y-2.119 I0.054 J0.573
G1 X-6.469 Y-0.959
X-29.975 Y3.186
X-31.202 Y3.402
G3 X-31.295 Y3.014 I-0.035 J-0.197
G1 X-19.613 Y-0.58
G2 X-19.707 Y-0.968 I-0.059 J-0.191
G1 Z-2
X-19.718 Y-0.966
X-31.303 Y1.077
G3 X-31.503 Y-0.057 I-0.1 J-0.567
G1 X-25.766 Y-1.071
X-25.71 Y-1.078
X-19.818 Y-1.533
X-7.022 Y-2.729
G3 X-6.394 Y-2.119 I0.054 J0.573
G1 X-6.469 Y-0.959
X-29.975 Y3.186
X-31.202 Y3.402
G3 X-31.295 Y3.014 I-0.035 J-0.197
G1 X-19.613 Y-0.58
G2 X-19.707 Y-0.968 I-0.059 J-0.191
G1 Z-3
X-19.718 Y-0.966
X-31.303 Y1.077
G3 X-31.503 Y-0.057 I-0.1 J-0.567
G1 X-25.766 Y-1.071
X-25.71 Y-1.078
X-19.818 Y-1.533
X-7.022 Y-2.729
G3 X-6.394 Y-2.119 I0.054 J0.573
G1 X-6.469 Y-0.959
X-29.975 Y3.186
X-31.202 Y3.402
G3 X-31.295 Y3.014 I-0.035 J-0.197
G1 X-19.613 Y-0.58
G2 X-19.707 Y-0.968 I-0.059 J-0.191
G1 Z-4
X-19.718 Y-0.966
X-31.303 Y1.077
G3 X-31.503 Y-0.057 I-0.1 J-0.567
G1 X-25.766 Y-1.071
X-25.71 Y-1.078
X-19.818 Y-1.533
X-7.022 Y-2.729
G3 X-6.394 Y-2.119 I0.054 J0.573
G1 X-6.469 Y-0.959
X-29.975 Y3.186
X-31.202 Y3.402
G3 X-31.295 Y3.014 I-0.035 J-0.197
G1 X-19.613 Y-0.58
G2 X-19.707 Y-0.968 I-0.059 J-0.191
G1 Z-5
X-19.718 Y-0.966
X-31.303 Y1.077
G3 X-31.503 Y-0.057 I-0.1 J-0.567
G1 X-25.766 Y-1.071
X-25.71 Y-1.078
X-19.818 Y-1.533
X-7.022 Y-2.729
G3 X-6.394 Y-2.119 I0.054 J0.573
G1 X-6.469 Y-0.959
X-29.975 Y3.186
X-31.202 Y3.402
G3 X-31.295 Y3.014 I-0.035 J-0.197
G1 X-19.613 Y-0.58
G2 X-19.707 Y-0.968 I-0.059 J-0.191
G1 Z-6
X-19.718 Y-0.966
X-31.303 Y1.077
G3 X-31.503 Y-0.057 I-0.1 J-0.567
G1 X-25.766 Y-1.071
X-25.71 Y-1.078
X-19.818 Y-1.533
X-7.022 Y-2.729
G3 X-6.394 Y-2.119 I0.054 J0.573
G1 X-6.469 Y-0.959
X-29.975 Y3.186
X-31.202 Y3.402
G3 X-31.295 Y3.014 I-0.035 J-0.197
G1 X-19.613 Y-0.58
G2 X-19.707 Y-0.968 I-0.059 J-0.191
G1 Z-7
X-19.718 Y-0.966
X-31.303 Y1.077
G3 X-31.503 Y-0.057 I-0.1 J-0.567
G1 X-25.766 Y-1.071
X-25.71 Y-1.078
X-19.818 Y-1.533
X-7.022 Y-2.729
G3 X-6.394 Y-2.119 I0.054 J0.573
G1 X-6.469 Y-0.959
X-29.975 Y3.186
X-31.202 Y3.402
G3 X-31.295 Y3.014 I-0.035 J-0.197
G1 X-19.613 Y-0.58
G2 X-19.707 Y-0.968 I-0.059 J-0.191
G1 Z-8
X-19.718 Y-0.966
X-31.303 Y1.077
G3 X-31.503 Y-0.057 I-0.1 J-0.567
G1 X-25.766 Y-1.071
X-25.71 Y-1.078
X-19.818 Y-1.533
X-7.022 Y-2.729
G3 X-6.394 Y-2.119 I0.054 J0.573
G1 X-6.469 Y-0.959
X-29.975 Y3.186
X-31.202 Y3.402
G3 X-31.295 Y3.014 I-0.035 J-0.197
G1 X-19.613 Y-0.58
G2 X-19.707 Y-0.968 I-0.059 J-0.191
G1 Z-9
X-19.718 Y-0.966
X-31.303 Y1.077
G3 X-31.503 Y-0.057 I-0.1 J-0.567
G1 X-25.766 Y-1.071
X-25.71 Y-1.078
X-19.818 Y-1.533
X-7.022 Y-2.729
G3 X-6.394 Y-2.119 I0.054 J0.573
G1 X-6.469 Y-0.959
X-29.975 Y3.186
X-31.202 Y3.402
G3 X-31.295 Y3.014 I-0.035 J-0.197
G1 X-19.613 Y-0.58
G2 X-19.707 Y-0.968 I-0.059 J-0.191
G1 Z-10
X-19.718 Y-0.966
X-31.303 Y1.077
G3 X-31.503 Y-0.057 I-0.1 J-0.567
G1 X-25.766 Y-1.071
X-25.71 Y-1.078
X-19.818 Y-1.533
X-7.022 Y-2.729
G3 X-6.394 Y-2.119 I0.054 J0.573
G1 X-6.469 Y-0.959
X-29.975 Y3.186
X-31.202 Y3.402
G3 X-31.295 Y3.014 I-0.035 J-0.197
G1 X-19.613 Y-0.58
G2 X-19.707 Y-0.968 I-0.059 J-0.191
G1 Z-11
X-19.718 Y-0.966
X-31.303 Y1.077
G3 X-31.503 Y-0.057 I-0.1 J-0.567
G1 X-25.766 Y-1.071
X-25.71 Y-1.078
X-19.818 Y-1.533
X-7.022 Y-2.729
G3 X-6.394 Y-2.119 I0.054 J0.573
G1 X-6.469 Y-0.959
X-29.975 Y3.186
X-31.202 Y3.402
G3 X-31.295 Y3.014 I-0.035 J-0.197
G1 X-19.613 Y-0.58
G2 X-19.707 Y-0.968 I-0.059 J-0.191
G1 Z-12
X-19.718 Y-0.966
X-31.303 Y1.077
G3 X-31.503 Y-0.057 I-0.1 J-0.567
G1 X-25.766 Y-1.071
X-25.71 Y-1.078
X-19.818 Y-1.533
X-7.022 Y-2.729
G3 X-6.394 Y-2.119 I0.054 J0.573
G1 X-6.469 Y-0.959
X-29.975 Y3.186
X-31.202 Y3.402
G3 X-31.295 Y3.014 I-0.035 J-0.197
G1 X-19.613 Y-0.58
G2 X-19.707 Y-0.968 I-0.059 J-0.191
G1 Z-12.857
X-19.718 Y-0.966
X-31.303 Y1.077
G3 X-31.503 Y-0.057 I-0.1 J-0.567
G1 X-25.766 Y-1.071
X-25.71 Y-1.078
X-19.818 Y-1.533
X-7.022 Y-2.729
G3 X-6.394 Y-2.119 I0.054 J0.573
G1 X-6.469 Y-0.959
X-29.975 Y3.186
X-31.202 Y3.402
G0 Z6
X-19.119 Y1.372
Z2
G1 Z-1 F700
X-19.141 Y1.379
X-31.056 Y4.571
G3 X-31.348 Y3.483 I-0.146 J-0.544
G1 X-25.441 Y1.898
X-25.39 Y1.887
X-19.287 Y0.835
X-7.188 Y-1.384
G3 X-6.523 Y-0.843 I0.102 J0.554
G1 X-6.496 Y0.328
X-29.552 Y6.506
X-30.755 Y6.828
G3 X-30.88 Y6.449 I-0.052 J-0.193
G1 X-18.993 Y1.752
G2 X-19.119 Y1.372 I-0.073 J-0.186
G1 Z-2
X-19.141 Y1.379
X-31.056 Y4.571
G3 X-31.348 Y3.483 I-0.146 J-0.544
G1 X-25.441 Y1.898
X-25.39 Y1.887
X-19.287 Y0.835
X-7.188 Y-1.384
G3 X-6.523 Y-0.843 I0.102 J0.554
G1 X-6.496 Y0.328
X-29.552 Y6.506
X-30.755 Y6.828
G3 X-30.88 Y6.449 I-0.052 J-0.193
G1 X-18.993 Y1.752
G2 X-19.119 Y1.372 I-0.073 J-0.186
G1 Z-3
X-19.141 Y1.379
X-31.056 Y4.571
G3 X-31.348 Y3.483 I-0.146 J-0.544
G1 X-25.441 Y1.898
X-25.39 Y1.887
X-19.287 Y0.835
X-7.188 Y-1.384
G3 X-6.523 Y-0.843 I0.102 J0.554
G1 X-6.496 Y0.328
X-29.552 Y6.506
X-30.755 Y6.828
G3 X-30.88 Y6.449 I-0.052 J-0.193
G1 X-18.993 Y1.752
G2 X-19.119 Y1.372 I-0.073 J-0.186
G1 Z-4
X-19.141 Y1.379
X-31.056 Y4.571
G3 X-31.348 Y3.483 I-0.146 J-0.544
G1 X-25.441 Y1.898
X-25.39 Y1.887
X-19.287 Y0.835
X-7.188 Y-1.384
G3 X-6.523 Y-0.843 I0.102 J0.554
G1 X-6.496 Y0.328
X-29.552 Y6.506
X-30.755 Y6.828
G3 X-30.88 Y6.449 I-0.052 J-0.193
G1 X-18.993 Y1.752
G2 X-19.119 Y1.372 I-0.073 J-0.186
G1 Z-5
X-19.141 Y1.379
X-31.056 Y4.571
G3 X-31.348 Y3.483 I-0.146 J-0.544
G1 X-25.441 Y1.898
X-25.39 Y1.887
X-19.287 Y0.835
X-7.188 Y-1.384
G3 X-6.523 Y-0.843 I0.102 J0.554
G1 X-6.496 Y0.328
X-29.552 Y6.506
X-30.755 Y6.828
G3 X-30.88 Y6.449 I-0.052 J-0.193
G1 X-18.993 Y1.752
G2 X-19.119 Y1.372 I-0.073 J-0.186
G1 Z-6
X-19.141 Y1.379
X-31.056 Y4.571
G3 X-31.348 Y3.483 I-0.146 J-0.544
G1 X-25.441 Y1.898
X-25.39 Y1.887
X-19.287 Y0.835
X-7.188 Y-1.384
G3 X-6.523 Y-0.843 I0.102 J0.554
G1 X-6.496 Y0.328
X-29.552 Y6.506
X-30.755 Y6.828
G3 X-30.88 Y6.449 I-0.052 J-0.193
G1 X-18.993 Y1.752
G2 X-19.119 Y1.372 I-0.073 J-0.186
G1 Z-7
X-19.141 Y1.379
X-31.056 Y4.571
G3 X-31.348 Y3.483 I-0.146 J-0.544
G1 X-25.441 Y1.898
X-25.39 Y1.887
X-19.287 Y0.835
X-7.188 Y-1.384
G3 X-6.523 Y-0.843 I0.102 J0.554
G1 X-6.496 Y0.328
X-29.552 Y6.506
X-30.755 Y6.828
G3 X-30.88 Y6.449 I-0.052 J-0.193
G1 X-18.993 Y1.752
G2 X-19.119 Y1.372 I-0.073 J-0.186
G1 Z-8
X-19.141 Y1.379
X-31.056 Y4.571
G3 X-31.348 Y3.483 I-0.146 J-0.544
G1 X-25.441 Y1.898
X-25.39 Y1.887
X-19.287 Y0.835
X-7.188 Y-1.384
G3 X-6.523 Y-0.843 I0.102 J0.554
G1 X-6.496 Y0.328
X-29.552 Y6.506
X-30.755 Y6.828
G3 X-30.88 Y6.449 I-0.052 J-0.193
G1 X-18.993 Y1.752
G2 X-19.119 Y1.372 I-0.073 J-0.186
G1 Z-9
X-19.141 Y1.379
X-31.056 Y4.571
G3 X-31.348 Y3.483 I-0.146 J-0.544
G1 X-25.441 Y1.898
X-25.39 Y1.887
X-19.287 Y0.835
X-7.188 Y-1.384
G3 X-6.523 Y-0.843 I0.102 J0.554
G1 X-6.496 Y0.328
X-29.552 Y6.506
X-30.755 Y6.828
G3 X-30.88 Y6.449 I-0.052 J-0.193
G1 X-18.993 Y1.752
G2 X-19.119 Y1.372 I-0.073 J-0.186
G1 Z-10
X-19.141 Y1.379
X-31.056 Y4.571
G3 X-31.348 Y3.483 I-0.146 J-0.544
G1 X-25.441 Y1.898
X-25.39 Y1.887
X-19.287 Y0.835
X-7.188 Y-1.384
G3 X-6.523 Y-0.843 I0.102 J0.554
G1 X-6.496 Y0.328
X-29.552 Y6.506
X-30.755 Y6.828
G3 X-30.88 Y6.449 I-0.052 J-0.193
G1 X-18.993 Y1.752
G2 X-19.119 Y1.372 I-0.073 J-0.186
G1 Z-10.286
X-19.141 Y1.379
X-31.056 Y4.571
G3 X-31.348 Y3.483 I-0.146 J-0.544
G1 X-25.441 Y1.898
X-25.39 Y1.887
X-19.287 Y0.835
X-7.188 Y-1.384
G3 X-6.523 Y-0.843 I0.102 J0.554
G1 X-6.496 Y0.328
X-29.552 Y6.506
X-30.755 Y6.828
G0 Z6
X-18.328 Y3.601
Z2
G1 Z-1 F700
X-18.339 Y3.605
X-30.516 Y8.037
G3 X-30.893 Y7.003 I-0.188 J-0.517
G1 X-24.804 Y4.787
X-18.528 Y3.088
X-7.234 Y-0.023
G3 X-6.541 Y0.447 I0.146 J0.531
G1 X-6.412 Y1.612
X-28.841 Y9.775
X-30.011 Y10.201
G3 X-30.168 Y9.834 I-0.068 J-0.188
G1 X-18.172 Y3.969
G2 X-18.328 Y3.601 I-0.088 J-0.18
G1 Z-2
X-18.339 Y3.605
X-30.516 Y8.037
G3 X-30.893 Y7.003 I-0.188 J-0.517
G1 X-24.804 Y4.787
X-18.528 Y3.088
X-7.234 Y-0.023
G3 X-6.541 Y0.447 I0.146 J0.531
G1 X-6.412 Y1.612
X-28.841 Y9.775
X-30.011 Y10.201
G3 X-30.168 Y9.834 I-0.068 J-0.188
G1 X-18.172 Y3.969
G2 X-18.328 Y3.601 I-0.088 J-0.18
G1 Z-3
X-18.339 Y3.605
X-30.516 Y8.037
G3 X-30.893 Y7.003 I-0.188 J-0.517
G1 X-24.804 Y4.787
X-18.528 Y3.088
X-7.234 Y-0.023
G3 X-6.541 Y0.447 I0.146 J0.531
G1 X-6.412 Y1.612
X-28.841 Y9.775
X-30.011 Y10.201
G3 X-30.168 Y9.834 I-0.068 J-0.188
G1 X-18.172 Y3.969
G2 X-18.328 Y3.601 I-0.088 J-0.18
G1 Z-4
X-18.339 Y3.605
X-30.516 Y8.037
G3 X-30.893 Y7.003 I-0.188 J-0.517
G1 X-24.804 Y4.787
X-18.528 Y3.088
X-7.234 Y-0.023
G3 X-6.541 Y0.447 I0.146 J0.531
G1 X-6.412 Y1.612
X-28.841 Y9.775
X-30.011 Y10.201
G3 X-30.168 Y9.834 I-0.068 J-0.188
G1 X-18.172 Y3.969
G2 X-18.328 Y3.601 I-0.088 J-0.18
G1 Z-5
X-18.339 Y3.605
X-30.516 Y8.037
G3 X-30.893 Y7.003 I-0.188 J-0.517
G1 X-24.804 Y4.787
X-18.528 Y3.088
X-7.234 Y-0.023
G3 X-6.541 Y0.447 I0.146 J0.531
G1 X-6.412 Y1.612
X-28.841 Y9.775
X-30.011 Y10.201
G3 X-30.168 Y9.834 I-0.068 J-0.188
G1 X-18.172 Y3.969
G2 X-18.328 Y3.601 I-0.088 J-0.18
G1 Z-6
X-18.339 Y3.605
X-30.516 Y8.037
G3 X-30.893 Y7.003 I-0.188 J-0.517
G1 X-24.804 Y4.787
X-18.528 Y3.088
X-7.234 Y-0.023
G3 X-6.541 Y0.447 I0.146 J0.531
G1 X-6.412 Y1.612
X-28.841 Y9.775
X-30.011 Y10.201
G3 X-30.168 Y9.834 I-0.068 J-0.188
G1 X-18.172 Y3.969
G2 X-18.328 Y3.601 I-0.088 J-0.18
G1 Z-7
X-18.339 Y3.605
X-30.516 Y8.037
G3 X-30.893 Y7.003 I-0.188 J-0.517
G1 X-24.804 Y4.787
X-18.528 Y3.088
X-7.234 Y-0.023
G3 X-6.541 Y0.447 I0.146 J0.531
G1 X-6.412 Y1.612
X-28.841 Y9.775
X-30.011 Y10.201
G3 X-30.168 Y9.834 I-0.068 J-0.188
G1 X-18.172 Y3.969
G2 X-18.328 Y3.601 I-0.088 J-0.18
G1 Z-7.714
X-18.339 Y3.605
X-30.516 Y8.037
G3 X-30.893 Y7.003 I-0.188 J-0.517
G1 X-24.804 Y4.787
X-18.528 Y3.088
X-7.234 Y-0.023
G3 X-6.541 Y0.447 I0.146 J0.531
G1 X-6.412 Y1.612
X-28.841 Y9.775
X-30.011 Y10.201
G0 Z6
X-17.339 Y5.695
Z2
G1 Z-1 F700
X-17.36 Y5.705
X-29.654 Y11.437
G3 X-30.108 Y10.464 I-0.227 J-0.487
G1 X-23.961 Y7.597
X-17.587 Y5.218
X-7.158 Y1.34
G3 X-6.445 Y1.738 I0.187 J0.503
G1 X-6.215 Y2.884
X-27.848 Y12.971
X-28.977 Y13.497
G3 X-29.163 Y13.144 I-0.085 J-0.181
G1 X-17.153 Y6.048
G2 X-17.339 Y5.695 I-0.102 J-0.172
G1 Z-2
X-17.36 Y5.705
X-29.654 Y11.437
G3 X-30.108 Y10.464 I-0.227 J-0.487
G1 X-23.961 Y7.597
X-17.587 Y5.218
X-7.158 Y1.34
G3 X-6.445 Y1.738 I0.187 J0.503
G1 X-6.215 Y2.884
X-27.848 Y12.971
X-28.977 Y13.497
G3 X-29.163 Y13.144 I-0.085 J-0.181
G1 X-17.153 Y6.048
G2 X-17.339 Y5.695 I-0.102 J-0.172
G1 Z-3
X-17.36 Y5.705
X-29.654 Y11.437
G3 X-30.108 Y10.464 I-0.227 J-0.487
G1 X-23.961 Y7.597
X-17.587 Y5.218
X-7.158 Y1.34
G3 X-6.445 Y1.738 I0.187 J0.503
G1 X-6.215 Y2.884
X-27.848 Y12.971
X-28.977 Y13.497
G3 X-29.163 Y13.144 I-0.085 J-0.181
G1 X-17.153 Y6.048
G2 X-17.339 Y5.695 I-0.102 J-0.172
G1 Z-4
X-17.36 Y5.705
X-29.654 Y11.437
G3 X-30.108 Y10.464 I-0.227 J-0.487
G1 X-23.961 Y7.597
X-17.587 Y5.218
X-7.158 Y1.34
G3 X-6.445 Y1.738 I0.187 J0.503
G1 X-6.215 Y2.884
X-27.848 Y12.971
X-28.977 Y13.497
G3 X-29.163 Y13.144 I-0.085 J-0.181
G1 X-17.153 Y6.048
G2 X-17.339 Y5.695 I-0.102 J-0.172
G1 Z-4.571
X-17.36 Y5.705
X-29.654 Y11.437
G3 X-30.108 Y10.464 I-0.227 J-0.487
G1 X-23.961 Y7.597
X-17.587 Y5.218
X-7.158 Y1.34
G3 X-6.445 Y1.738 I0.187 J0.503
G1 X-6.215 Y2.884
X-27.848 Y12.971
X-28.977 Y13.497
G3 X-29.163 Y13.144 I-0.085 J-0.181
G1 X-17.153 Y6.048
G2 X-17.339 Y5.695 I-0.102 J-0.172
G1 Z-5.143
X-17.36 Y5.705
X-29.654 Y11.437
G3 X-30.108 Y10.464 I-0.227 J-0.487
G1 X-23.961 Y7.597
X-17.587 Y5.218
X-7.158 Y1.34
G3 X-6.445 Y1.738 I0.187 J0.503
G1 X-6.215 Y2.884
X-27.848 Y12.971
X-28.977 Y13.497
G0 Z6
X-16.181 Y7.64
Z2
G1 Z-1 F700
X-16.191 Y7.646
X-28.506 Y14.756
G3 X-29.03 Y13.85 I-0.262 J-0.453
G1 X-22.872 Y10.295
X-16.453 Y7.193
X-6.962 Y2.693
G3 X-6.235 Y3.019 I0.224 J0.473
G1 X-5.909 Y4.133
X-26.58 Y16.068
X-27.659 Y16.69
G3 X-27.874 Y16.354 I-0.1 J-0.173
G1 X-15.966 Y7.977
G2 X-16.181 Y7.64 I-0.115 J-0.164
G1 Z-2
X-16.191 Y7.646
X-28.506 Y14.756
G3 X-29.03 Y13.85 I-0.262 J-0.453
G1 X-22.872 Y10.295
X-16.453 Y7.193
X-6.962 Y2.693
G3 X-6.235 Y3.019 I0.224 J0.473
G1 X-5.909 Y4.133
X-26.58 Y16.068
X-27.659 Y16.69
G3 X-27.874 Y16.354 I-0.1 J-0.173
G1 X-15.966 Y7.977
G2 X-16.181 Y7.64 I-0.115 J-0.164
G1 Z-2.571
X-16.191 Y7.646
X-28.506 Y14.756
G3 X-29.03 Y13.85 I-0.262 J-0.453
G1 X-22.872 Y10.295
X-16.453 Y7.193
X-6.962 Y2.693
G3 X-6.235 Y3.019 I0.224 J0.473
G1 X-5.909 Y4.133
X-26.58 Y16.068
X-27.659 Y16.69
G0 Z6
X-2.953 Y23.475
Z2
G1 Z-1 F700
X-2.956 Y23.487
X-6.056 Y36.916
G3 X-7.094 Y36.677 I-0.519 J-0.12
G1 X-5.544 Y29.962
X-3.475 Y23.367
X-0.176 Y12.964
G3 X0.571 Y12.649 I0.508 J0.161
G1 X1.616 Y13.174
X-3.753 Y36.431
X-4.033 Y37.645
G3 X-4.426 Y37.573 I-0.195 J-0.045
G1 X-2.56 Y23.547
G2 X-2.953 Y23.475 I-0.198 J-0.026
G1 Z-2
X-2.956 Y23.487
X-6.056 Y36.916
G3 X-7.094 Y36.677 I-0.519 J-0.12
G1 X-5.544 Y29.962
X-3.475 Y23.367
X-0.176 Y12.964
G3 X0.571 Y12.649 I0.508 J0.161
G1 X1.616 Y13.174
X-3.753 Y36.431
X-4.033 Y37.645
G3 X-4.426 Y37.573 I-0.195 J-0.045
G1 X-2.56 Y23.547
G2 X-2.953 Y23.475 I-0.198 J-0.026
G1 Z-3
X-2.956 Y23.487
X-6.056 Y36.916
G3 X-7.094 Y36.677 I-0.519 J-0.12
G1 X-5.544 Y29.962
X-3.475 Y23.367
X-0.176 Y12.964
G3 X0.571 Y12.649 I0.508 J0.161
G1 X1.616 Y13.174
X-3.753 Y36.431
X-4.033 Y37.645
G3 X-4.426 Y37.573 I-0.195 J-0.045
G1 X-2.56 Y23.547
G2 X-2.953 Y23.475 I-0.198 J-0.026
G1 Z-4
X-2.956 Y23.487
X-6.056 Y36.916
G3 X-7.094 Y36.677 I-0.519 J-0.12
G1 X-5.544 Y29.962
X-3.475 Y23.367
X-0.176 Y12.964
G3 X0.571 Y12.649 I0.508 J0.161
G1 X1.616 Y13.174
X-3.753 Y36.431
X-4.033 Y37.645
G3 X-4.426 Y37.573 I-0.195 J-0.045
G1 X-2.56 Y23.547
G2 X-2.953 Y23.475 I-0.198 J-0.026
G1 Z-5
X-2.956 Y23.487
X-6.056 Y36.916
G3 X-7.094 Y36.677 I-0.519 J-0.12
G1 X-5.544 Y29.962
X-3.475 Y23.367
X-0.176 Y12.964
G3 X0.571 Y12.649 I0.508 J0.161
G1 X1.616 Y13.174
X-3.753 Y36.431
X-4.033 Y37.645
G3 X-4.426 Y37.573 I-0.195 J-0.045
G1 X-2.56 Y23.547
G2 X-2.953 Y23.475 I-0.198 J-0.026
G1 Z-6
X-2.956 Y23.487
X-6.056 Y36.916
G3 X-7.094 Y36.677 I-0.519 J-0.12
G1 X-5.544 Y29.962
X-3.475 Y23.367
X-0.176 Y12.964
G3 X0.571 Y12.649 I0.508 J0.161
G1 X1.616 Y13.174
X-3.753 Y36.431
X-4.033 Y37.645
G3 X-4.426 Y37.573 I-0.195 J-0.045
G1 X-2.56 Y23.547
G2 X-2.953 Y23.475 I-0.198 J-0.026
G1 Z-7
X-2.956 Y23.487
X-6.056 Y36.916
G3 X-7.094 Y36.677 I-0.519 J-0.12
G1 X-5.544 Y29.962
X-3.475 Y23.367
X-0.176 Y12.964
G3 X0.571 Y12.649 I0.508 J0.161
G1 X1.616 Y13.174
X-3.753 Y36.431
X-4.033 Y37.645
G3 X-4.426 Y37.573 I-0.195 J-0.045
G1 X-2.56 Y23.547
G2 X-2.953 Y23.475 I-0.198 J-0.026
G1 Z-8
X-2.956 Y23.487
X-6.056 Y36.916
G3 X-7.094 Y36.677 I-0.519 J-0.12
G1 X-5.544 Y29.962
X-3.475 Y23.367
X-0.176 Y12.964
G3 X0.571 Y12.649 I0.508 J0.161
G1 X1.616 Y13.174
X-3.753 Y36.431
X-4.033 Y37.645
G3 X-4.426 Y37.573 I-0.195 J-0.045
G1 X-2.56 Y23.547
G2 X-2.953 Y23.475 I-0.198 J-0.026
G1 Z-9
X-2.956 Y23.487
X-6.056 Y36.916
G3 X-7.094 Y36.677 I-0.519 J-0.12
G1 X-5.544 Y29.962
X-3.475 Y23.367
X-0.176 Y12.964
G3 X0.571 Y12.649 I0.508 J0.161
G1 X1.616 Y13.174
X-3.753 Y36.431
X-4.033 Y37.645
G3 X-4.426 Y37.573 I-0.195 J-0.045
G1 X-2.56 Y23.547
G2 X-2.953 Y23.475 I-0.198 J-0.026
G1 Z-10
X-2.956 Y23.487
X-6.056 Y36.916
G3 X-7.094 Y36.677 I-0.519 J-0.12
G1 X-5.544 Y29.962
X-3.475 Y23.367
X-0.176 Y12.964
G3 X0.571 Y12.649 I0.508 J0.161
G1 X1.616 Y13.174
X-3.753 Y36.431
X-4.033 Y37.645
G3 X-4.426 Y37.573 I-0.195 J-0.045
G1 X-2.56 Y23.547
G2 X-2.953 Y23.475 I-0.198 J-0.026
G1 Z-11
X-2.956 Y23.487
X-6.056 Y36.916
G3 X-7.094 Y36.677 I-0.519 J-0.12
G1 X-5.544 Y29.962
X-3.475 Y23.367
X-0.176 Y12.964
G3 X0.571 Y12.649 I0.508 J0.161
G1 X1.616 Y13.174
X-3.753 Y36.431
X-4.033 Y37.645
G3 X-4.426 Y37.573 I-0.195 J-0.045
G1 X-2.56 Y23.547
G2 X-2.953 Y23.475 I-0.198 J-0.026
G1 Z-12
X-2.956 Y23.487
X-6.056 Y36.916
G3 X-7.094 Y36.677 I-0.519 J-0.12
G1 X-5.544 Y29.962
X-3.475 Y23.367
X-0.176 Y12.964
G3 X0.571 Y12.649 I0.508 J0.161
G1 X1.616 Y13.174
X-3.753 Y36.431
X-4.033 Y37.645
G3 X-4.426 Y37.573 I-0.195 J-0.045
G1 X-2.56 Y23.547
G2 X-2.953 Y23.475 I-0.198 J-0.026
G1 Z-13
X-2.956 Y23.487
X-6.056 Y36.916
G3 X-7.094 Y36.677 I-0.519 J-0.12
G1 X-5.544 Y29.962
X-3.475 Y23.367
X-0.176 Y12.964
G3 X0.571 Y12.649 I0.508 J0.161
G1 X1.616 Y13.174
X-3.753 Y36.431
X-4.033 Y37.645
G3 X-4.426 Y37.573 I-0.195 J-0.045
G1 X-2.56 Y23.547
G2 X-2.953 Y23.475 I-0.198 J-0.026
G1 Z-14
X-2.956 Y23.487
X-6.056 Y36.916
G3 X-7.094 Y36.677 I-0.519 J-0.12
G1 X-5.544 Y29.962
X-3.475 Y23.367
X-0.176 Y12.964
G3 X0.571 Y12.649 I0.508 J0.161
G1 X1.616 Y13.174
X-3.753 Y36.431
X-4.033 Y37.645
G3 X-4.426 Y37.573 I-0.195 J-0.045
G1 X-2.56 Y23.547
G2 X-2.953 Y23.475 I-0.198 J-0.026
G1 Z-15
X-2.956 Y23.487
X-6.056 Y36.916
G3 X-7.094 Y36.677 I-0.519 J-0.12
G1 X-5.544 Y29.962
X-3.475 Y23.367
X-0.176 Y12.964
G3 X0.571 Y12.649 I0.508 J0.161
G1 X1.616 Y13.174
X-3.753 Y36.431
X-4.033 Y37.645
G3 X-4.426 Y37.573 I-0.195 J-0.045
G1 X-2.56 Y23.547
G2 X-2.953 Y23.475 I-0.198 J-0.026
G1 Z-15.429
X-2.956 Y23.487
X-6.056 Y36.916
G3 X-7.094 Y36.677 I-0.519 J-0.12
G1 X-5.544 Y29.962
X-3.475 Y23.367
X-0.176 Y12.964
G3 X0.571 Y12.649 I0.508 J0.161
G1 X1.616 Y13.174
X-3.753 Y36.431
X-4.033 Y37.645
G0 Z6
X-1.003 Y24.963
Z2
G1 Z-1 F700
X-1.005 Y24.975
X-2.836 Y38.007
G3 X-3.917 Y37.855 I-0.541 J-0.076
G1 X-3.002 Y31.339
X-1.545 Y24.899
X0.969 Y13.659
G3 X1.704 Y13.27 I0.533 J0.119
G1 X2.79 Y13.702
X-0.532 Y37.339
X-0.705 Y38.572
G3 X-1.103 Y38.537 I-0.198 J-0.028
G1 X-0.605 Y24.999
G2 X-1.003 Y24.963 I-0.2 J-0.007
G1 Z-2
X-1.005 Y24.975
X-2.836 Y38.007
G3 X-3.917 Y37.855 I-0.541 J-0.076
G1 X-3.002 Y31.339
X-1.545 Y24.899
X0.969 Y13.659
G3 X1.704 Y13.27 I0.533 J0.119
G1 X2.79 Y13.702
X-0.532 Y37.339
X-0.705 Y38.572
G3 X-1.103 Y38.537 I-0.198 J-0.028
G1 X-0.605 Y24.999
G2 X-1.003 Y24.963 I-0.2 J-0.007
G1 Z-3
X-1.005 Y24.975
X-2.836 Y38.007
G3 X-3.917 Y37.855 I-0.541 J-0.076
G1 X-3.002 Y31.339
X-1.545 Y24.899
X0.969 Y13.659
G3 X1.704 Y13.27 I0.533 J0.119
G1 X2.79 Y13.702
X-0.532 Y37.339
X-0.705 Y38.572
G3 X-1.103 Y38.537 I-0.198 J-0.028
G1 X-0.605 Y24.999
G2 X-1.003 Y24.963 I-0.2 J-0.007
G1 Z-4
X-1.005 Y24.975
X-2.836 Y38.007
G3 X-3.917 Y37.855 I-0.541 J-0.076
G1 X-3.002 Y31.339
X-1.545 Y24.899
X0.969 Y13.659
G3 X1.704 Y13.27 I0.533 J0.119
G1 X2.79 Y13.702
X-0.532 Y37.339
X-0.705 Y38.572
G3 X-1.103 Y38.537 I-0.198 J-0.028
G1 X-0.605 Y24.999
G2 X-1.003 Y24.963 I-0.2 J-0.007
G1 Z-5
X-1.005 Y24.975
X-2.836 Y38.007
G3 X-3.917 Y37.855 I-0.541 J-0.076
G1 X-3.002 Y31.339
X-1.545 Y24.899
X0.969 Y13.659
G3 X1.704 Y13.27 I0.533 J0.119
G1 X2.79 Y13.702
X-0.532 Y37.339
X-0.705 Y38.572
G3 X-1.103 Y38.537 I-0.198 J-0.028
G1 X-0.605 Y24.999
G2 X-1.003 Y24.963 I-0.2 J-0.007
G1 Z-6
X-1.005 Y24.975
X-2.836 Y38.007
G3 X-3.917 Y37.855 I-0.541 J-0.076
G1 X-3.002 Y31.339
X-1.545 Y24.899
X0.969 Y13.659
G3 X1.704 Y13.27 I0.533 J0.119
G1 X2.79 Y13.702
X-0.532 Y37.339
X-0.705 Y38.572
G3 X-1.103 Y38.537 I-0.198 J-0.028
G1 X-0.605 Y24.999
G2 X-1.003 Y24.963 I-0.2 J-0.007
G1 Z-7
X-1.005 Y24.975
X-2.836 Y38.007
G3 X-3.917 Y37.855 I-0.541 J-0.076
G1 X-3.002 Y31.339
X-1.545 Y24.899
X0.969 Y13.659
G3 X1.704 Y13.27 I0.533 J0.119
G1 X2.79 Y13.702
X-0.532 Y37.339
X-0.705 Y38.572
G3 X-1.103 Y38.537 I-0.198 J-0.028
G1 X-0.605 Y24.999
G2 X-1.003 Y24.963 I-0.2 J-0.007
G1 Z-8
X-1.005 Y24.975
X-2.836 Y38.007
G3 X-3.917 Y37.855 I-0.541 J-0.076
G1 X-3.002 Y31.339
X-1.545 Y24.899
X0.969 Y13.659
G3 X1.704 Y13.27 I0.533 J0.119
G1 X2.79 Y13.702
X-0.532 Y37.339
X-0.705 Y38.572
G3 X-1.103 Y38.537 I-0.198 J-0.028
G1 X-0.605 Y24.999
G2 X-1.003 Y24.963 I-0.2 J-0.007
G1 Z-9
X-1.005 Y24.975
X-2.836 Y38.007
G3 X-3.917 Y37.855 I-0.541 J-0.076
G1 X-3.002 Y31.339
X-1.545 Y24.899
X0.969 Y13.659
G3 X1.704 Y13.27 I0.533 J0.119
G1 X2.79 Y13.702
X-0.532 Y37.339
X-0.705 Y38.572
G3 X-1.103 Y38.537 I-0.198 J-0.028
G1 X-0.605 Y24.999
G2 X-1.003 Y24.963 I-0.2 J-0.007
G1 Z-10
X-1.005 Y24.975
X-2.836 Y38.007
G3 X-3.917 Y37.855 I-0.541 J-0.076
G1 X-3.002 Y31.339
X-1.545 Y24.899
X0.969 Y13.659
G3 X1.704 Y13.27 I0.533 J0.119
G1 X2.79 Y13.702
X-0.532 Y37.339
X-0.705 Y38.572
G3 X-1.103 Y38.537 I-0.198 J-0.028
G1 X-0.605 Y24.999
G2 X-1.003 Y24.963 I-0.2 J-0.007
G1 Z-11
X-1.005 Y24.975
X-2.836 Y38.007
G3 X-3.917 Y37.855 I-0.541 J-0.076
G1 X-3.002 Y31.339
X-1.545 Y24.899
X0.969 Y13.659
G3 X1.704 Y13.27 I0.533 J0.119
G1 X2.79 Y13.702
X-0.532 Y37.339
X-0.705 Y38.572
G3 X-1.103 Y38.537 I-0.198 J-0.028
G1 X-0.605 Y24.999
G2 X-1.003 Y24.963 I-0.2 J-0.007
G1 Z-12
X-1.005 Y24.975
X-2.836 Y38.007
G3 X-3.917 Y37.855 I-0.541 J-0.076
G1 X-3.002 Y31.339
X-1.545 Y24.899
X0.969 Y13.659
G3 X1.704 Y13.27 I0.533 J0.119
G1 X2.79 Y13.702
X-0.532 Y37.339
X-0.705 Y38.572
G3 X-1.103 Y38.537 I-0.198 J-0.028
G1 X-0.605 Y24.999
G2 X-1.003 Y24.963 I-0.2 J-0.007
G1 Z-12.857
X-1.005 Y24.975
X-2.836 Y38.007
G3 X-3.917 Y37.855 I-0.541 J-0.076
G1 X-3.002 Y31.339
X-1.545 Y24.899
X0.969 Y13.659
G3 X1.704 Y13.27 I0.533 J0.119
G1 X2.79 Y13.702
X-0.532 Y37.339
X-0.705 Y38.572
G0 Z6
X1.125 Y26.268
Z2
G1 Z-1 F700
X1.124 Y26.279
X0.468 Y38.799
G3 X-0.648 Y38.741 I-0.558 J-0.029
G1 X-0.32 Y32.481
X0.566 Y26.25
X2.177 Y14.253
G3 X2.891 Y13.792 I0.554 J0.074
G1 X4.005 Y14.126
X2.756 Y37.962
X2.691 Y39.206
G3 X2.291 Y39.207 I-0.2 J-0.01
G1 X1.524 Y26.266
G2 X1.125 Y26.268 I-0.2 J0.012
G1 Z-2
X1.124 Y26.279
X0.468 Y38.799
G3 X-0.648 Y38.741 I-0.558 J-0.029
G1 X-0.32 Y32.481
X0.566 Y26.25
X2.177 Y14.253
G3 X2.891 Y13.792 I0.554 J0.074
G1 X4.005 Y14.126
X2.756 Y37.962
X2.691 Y39.206
G3 X2.291 Y39.207 I-0.2 J-0.01
G1 X1.524 Y26.266
G2 X1.125 Y26.268 I-0.2 J0.012
G1 Z-3
X1.124 Y26.279
X0.468 Y38.799
G3 X-0.648 Y38.741 I-0.558 J-0.029
G1 X-0.32 Y32.481
X0.566 Y26.25
X2.177 Y14.253
G3 X2.891 Y13.792 I0.554 J0.074
G1 X4.005 Y14.126
X2.756 Y37.962
X2.691 Y39.206
G3 X2.291 Y39.207 I-0.2 J-0.01
G1 X1.524 Y26.266
G2 X1.125 Y26.268 I-0.2 J0.012
G1 Z-4
X1.124 Y26.279
X0.468 Y38.799
G3 X-0.648 Y38.741 I-0.558 J-0.029
G1 X-0.32 Y32.481
X0.566 Y26.25
X2.177 Y14.253
G3 X2.891 Y13.792 I0.554 J0.074
G1 X4.005 Y14.126
X2.756 Y37.962
X2.691 Y39.206
G3 X2.291 Y39.207 I-0.2 J-0.01
G1 X1.524 Y26.266
G2 X1.125 Y26.268 I-0.2 J0.012
G1 Z-5
X1.124 Y26.279
X0.468 Y38.799
G3 X-0.648 Y38.741 I-0.558 J-0.029
G1 X-0.32 Y32.481
X0.566 Y26.25
X2.177 Y14.253
G3 X2.891 Y13.792 I0.554 J0.074
G1 X4.005 Y14.126
X2.756 Y37.962
X2.691 Y39.206
G3 X2.291 Y39.207 I-0.2 J-0.01
G1 X1.524 Y26.266
G2 X1.125 Y26.268 I-0.2 J0.012
G1 Z-6
X1.124 Y26.279
X0.468 Y38.799
G3 X-0.648 Y38.741 I-0.558 J-0.029
G1 X-0.32 Y32.481
X0.566 Y26.25
X2.177 Y14.253
G3 X2.891 Y13.792 I0.554 J0.074
G1 X4.005 Y14.126
X2.756 Y37.962
X2.691 Y39.206
G3 X2.291 Y39.207 I-0.2 J-0.01
G1 X1.524 Y26.266
G2 X1.125 Y26.268 I-0.2 J0.012
G1 Z-7
X1.124 Y26.279
X0.468 Y38.799
G3 X-0.648 Y38.741 I-0.558 J-0.029
G1 X-0.32 Y32.481
X0.566 Y26.25
X2.177 Y14.253
G3 X2.891 Y13.792 I0.554 J0.074
G1 X4.005 Y14.126
X2.756 Y37.962
X2.691 Y39.206
G3 X2.291 Y39.207 I-0.2 J-0.01
G1 X1.524 Y26.266
G2 X1.125 Y26.268 I-0.2 J0.012
G1 Z-8
X1.124 Y26.279
X0.468 Y38.799
G3 X-0.648 Y38.741 I-0.558 J-0.029
G1 X-0.32 Y32.481
X0.566 Y26.25
X2.177 Y14.253
G3 X2.891 Y13.792 I0.554 J0.074
G1 X4.005 Y14.126
X2.756 Y37.962
X2.691 Y39.206
G3 X2.291 Y39.207 I-0.2 J-0.01
G1 X1.524 Y26.266
G2 X1.125 Y26.268 I-0.2 J0.012
G1 Z-9
X1.124 Y26.279
X0.468 Y38.799
G3 X-0.648 Y38.741 I-0.558 J-0.029
G1 X-0.32 Y32.481
X0.566 Y26.25
X2.177 Y14.253
G3 X2.891 Y13.792 I0.554 J0.074
G1 X4.005 Y14.126
X2.756 Y37.962
X2.691 Y39.206
G3 X2.291 Y39.207 I-0.2 J-0.01
G1 X1.524 Y26.266
G2 X1.125 Y26.268 I-0.2 J0.012
G1 Z-10
X1.124 Y26.279
X0.468 Y38.799
G3 X-0.648 Y38.741 I-0.558 J-0.029
G1 X-0.32 Y32.481
X0.566 Y26.25
X2.177 Y14.253
G3 X2.891 Y13.792 I0.554 J0.074
G1 X4.005 Y14.126
X2.756 Y37.962
X2.691 Y39.206
G3 X2.291 Y39.207 I-0.2 J-0.01
G1 X1.524 Y26.266
G2 X1.125 Y26.268 I-0.2 J0.012
G1 Z-10.286
X1.124 Y26.279
X0.468 Y38.799
G3 X-0.648 Y38.741 I-0.558 J-0.029
G1 X-0.32 Y32.481
X0.566 Y26.25
X2.177 Y14.253
G3 X2.891 Y13.792 I0.554 J0.074
G1 X4.005 Y14.126
X2.756 Y37.962
X2.691 Y39.206
G0 Z6
X3.411 Y27.356
Z2
G1 Z-1 F700
X3.412 Y27.38
X3.829 Y39.321
G3 X2.686 Y39.361 I-0.571 J0.02
G1 X2.477 Y33.445
X2.478 Y33.39
X2.84 Y27.4
X3.419 Y14.739
G3 X4.106 Y14.205 I0.571 J0.026
G1 X5.252 Y14.442
X6.085 Y38.297
X6.129 Y39.541
G3 X5.731 Y39.579 I-0.2 J0.007
G1 X3.808 Y27.318
G2 X3.411 Y27.356 I-0.198 J0.031
G1 Z-2
X3.412 Y27.38
X3.829 Y39.321
G3 X2.686 Y39.361 I-0.571 J0.02
G1 X2.477 Y33.445
X2.478 Y33.39
X2.84 Y27.4
X3.419 Y14.739
G3 X4.106 Y14.205 I0.571 J0.026
G1 X5.252 Y14.442
X6.085 Y38.297
X6.129 Y39.541
G3 X5.731 Y39.579 I-0.2 J0.007
G1 X3.808 Y27.318
G2 X3.411 Y27.356 I-0.198 J0.031
G1 Z-3
X3.412 Y27.38
X3.829 Y39.321
G3 X2.686 Y39.361 I-0.571 J0.02
G1 X2.477 Y33.445
X2.478 Y33.39
X2.84 Y27.4
X3.419 Y14.739
G3 X4.106 Y14.205 I0.571 J0.026
G1 X5.252 Y14.442
X6.085 Y38.297
X6.129 Y39.541
G3 X5.731 Y39.579 I-0.2 J0.007
G1 X3.808 Y27.318
G2 X3.411 Y27.356 I-0.198 J0.031
G1 Z-4
X3.412 Y27.38
X3.829 Y39.321
G3 X2.686 Y39.361 I-0.571 J0.02
G1 X2.477 Y33.445
X2.478 Y33.39
X2.84 Y27.4
X3.419 Y14.739
G3 X4.106 Y14.205 I0.571 J0.026
G1 X5.252 Y14.442
X6.085 Y38.297
X6.129 Y39.541
G3 X5.731 Y39.579 I-0.2 J0.007
G1 X3.808 Y27.318
G2 X3.411 Y27.356 I-0.198 J0.031
G1 Z-5
X3.412 Y27.38
X3.829 Y39.321
G3 X2.686 Y39.361 I-0.571 J0.02
G1 X2.477 Y33.445
X2.478 Y33.39
X2.84 Y27.4
X3.419 Y14.739
G3 X4.106 Y14.205 I0.571 J0.026
G1 X5.252 Y14.442
X6.085 Y38.297
X6.129 Y39.541
G3 X5.731 Y39.579 I-0.2 J0.007
G1 X3.808 Y27.318
G2 X3.411 Y27.356 I-0.198 J0.031
G1 Z-6
X3.412 Y27.38
X3.829 Y39.321
G3 X2.686 Y39.361 I-0.571 J0.02
G1 X2.477 Y33.445
X2.478 Y33.39
X2.84 Y27.4
X3.419 Y14.739
G3 X4.106 Y14.205 I0.571 J0.026
G1 X5.252 Y14.442
X6.085 Y38.297
X6.129 Y39.541
G3 X5.731 Y39.579 I-0.2 J0.007
G1 X3.808 Y27.318
G2 X3.411 Y27.356 I-0.198 J0.031
G1 Z-7
X3.412 Y27.38
X3.829 Y39.321
G3 X2.686 Y39.361 I-0.571 J0.02
G1 X2.477 Y33.445
X2.478 Y33.39
X2.84 Y27.4
X3.419 Y14.739
G3 X4.106 Y14.205 I0.571 J0.026
G1 X5.252 Y14.442
X6.085 Y38.297
X6.129 Y39.541
G3 X5.731 Y39.579 I-0.2 J0.007
G1 X3.808 Y27.318
G2 X3.411 Y27.356 I-0.198 J0.031
G1 Z-7.714
X3.412 Y27.38
X3.829 Y39.321
G3 X2.686 Y39.361 I-0.571 J0.02
G1 X2.477 Y33.445
X2.478 Y33.39
X2.84 Y27.4
X3.419 Y14.739
G3 X4.106 Y14.205 I0.571 J0.026
G1 X5.252 Y14.442
X6.085 Y38.297
X6.129 Y39.541
G0 Z6
X5.832 Y28.199
Z2
G1 Z-1 F700
X5.835 Y28.223
X7.225 Y39.547
G3 X6.068 Y39.69 I-0.579 J0.071
G1 X5.377 Y34.087
X5.373 Y34.027
X5.256 Y28.294
X4.717 Y15.116
G3 X5.368 Y14.513 I0.582 J-0.024
G1 X6.522 Y14.648
X9.431 Y38.34
X9.583 Y39.576
G3 X9.191 Y39.65 I-0.199 J0.024
G1 X6.224 Y28.125
G2 X5.832 Y28.199 I-0.194 J0.05
G1 Z-2
X5.835 Y28.223
X7.225 Y39.547
G3 X6.068 Y39.69 I-0.579 J0.071
G1 X5.377 Y34.087
X5.373 Y34.027
X5.256 Y28.294
X4.717 Y15.116
G3 X5.368 Y14.513 I0.582 J-0.024
G1 X6.522 Y14.648
X9.431 Y38.34
X9.583 Y39.576
G3 X9.191 Y39.65 I-0.199 J0.024
G1 X6.224 Y28.125
G2 X5.832 Y28.199 I-0.194 J0.05
G1 Z-3
X5.835 Y28.223
X7.225 Y39.547
G3 X6.068 Y39.69 I-0.579 J0.071
G1 X5.377 Y34.087
X5.373 Y34.027
X5.256 Y28.294
X4.717 Y15.116
G3 X5.368 Y14.513 I0.582 J-0.024
G1 X6.522 Y14.648
X9.431 Y38.34
X9.583 Y39.576
G3 X9.191 Y39.65 I-0.199 J0.024
G1 X6.224 Y28.125
G2 X5.832 Y28.199 I-0.194 J0.05
G1 Z-4
X5.835 Y28.223
X7.225 Y39.547
G3 X6.068 Y39.69 I-0.579 J0.071
G1 X5.377 Y34.087
X5.373 Y34.027
X5.256 Y28.294
X4.717 Y15.116
G3 X5.368 Y14.513 I0.582 J-0.024
G1 X6.522 Y14.648
X9.431 Y38.34
X9.583 Y39.576
G3 X9.191 Y39.65 I-0.199 J0.024
G1 X6.224 Y28.125
G2 X5.832 Y28.199 I-0.194 J0.05
G1 Z-4.571
X5.835 Y28.223
X7.225 Y39.547
G3 X6.068 Y39.69 I-0.579 J0.071
G1 X5.377 Y34.087
X5.373 Y34.027
X5.256 Y28.294
X4.717 Y15.116
G3 X5.368 Y14.513 I0.582 J-0.024
G1 X6.522 Y14.648
X9.431 Y38.34
X9.583 Y39.576
G3 X9.191 Y39.65 I-0.199 J0.024
G1 X6.224 Y28.125
G2 X5.832 Y28.199 I-0.194 J0.05
G1 Z-5.143
X5.835 Y28.223
X7.225 Y39.547
G3 X6.068 Y39.69 I-0.579 J0.071
G1 X5.377 Y34.087
X5.373 Y34.027
X5.256 Y28.294
X4.717 Y15.116
G3 X5.368 Y14.513 I0.582 J-0.024
G1 X6.522 Y14.648
X9.431 Y38.34
X9.583 Y39.576
G0 Z6
X8.23 Y27.745
Z2
G1 Z-1 F700
X8.235 Y27.768
X10.726 Y39.488
G3 X9.61 Y39.726 I-0.558 J0.119
G1 X8.373 Y33.919
X8.364 Y33.865
X7.677 Y27.887
X6.051 Y15.353
G3 X6.634 Y14.709 I0.566 J-0.073
G1 X7.806 Y14.743
X12.768 Y38.091
X13.027 Y39.309
G3 X12.642 Y39.415 I-0.196 J0.042
G1 X8.615 Y27.639
G2 X8.23 Y27.745 I-0.189 J0.065
G1 Z-2
X8.235 Y27.768
X10.726 Y39.488
G3 X9.61 Y39.726 I-0.558 J0.119
G1 X8.373 Y33.919
X8.364 Y33.865
X7.677 Y27.887
X6.051 Y15.353
G3 X6.634 Y14.709 I0.566 J-0.073
G1 X7.806 Y14.743
X12.768 Y38.091
X13.027 Y39.309
G3 X12.642 Y39.415 I-0.196 J0.042
G1 X8.615 Y27.639
G2 X8.23 Y27.745 I-0.189 J0.065
G1 Z-2.571
X8.235 Y27.768
X10.726 Y39.488
G3 X9.61 Y39.726 I-0.558 J0.119
G1 X8.373 Y33.919
X8.364 Y33.865
X7.677 Y27.887
X6.051 Y15.353
G3 X6.634 Y14.709 I0.566 J-0.073
G1 X7.806 Y14.743
X12.768 Y38.091
X13.027 Y39.309
G0 Z6
X29.585 Y19.704
Z2
G1 Z-1 F700
X29.605 Y19.716
X38.721 Y25.194
G3 X38.104 Y26.221 I-0.309 J0.514
G1 X33.602 Y23.52
X33.546 Y23.482
X29.296 Y20.23
X17.987 Y12.116
G3 X17.91 Y11.208 I0.349 J-0.487
G1 X18.73 Y10.38
X39.189 Y22.673
X40.257 Y23.315
G3 X40.076 Y23.671 I-0.103 J0.171
G1 X29.765 Y19.348
G2 X29.585 Y19.704 I-0.077 J0.184
G1 Z-2
X29.605 Y19.716
X38.721 Y25.194
G3 X38.104 Y26.221 I-0.309 J0.514
G1 X33.602 Y23.52
X33.546 Y23.482
X29.296 Y20.23
X17.987 Y12.116
G3 X17.91 Y11.208 I0.349 J-0.487
G1 X18.73 Y10.38
X39.189 Y22.673
X40.257 Y23.315
G3 X40.076 Y23.671 I-0.103 J0.171
G1 X29.765 Y19.348
G2 X29.585 Y19.704 I-0.077 J0.184
G1 Z-3
X29.605 Y19.716
X38.721 Y25.194
G3 X38.104 Y26.221 I-0.309 J0.514
G1 X33.602 Y23.52
X33.546 Y23.482
X29.296 Y20.23
X17.987 Y12.116
G3 X17.91 Y11.208 I0.349 J-0.487
G1 X18.73 Y10.38
X39.189 Y22.673
X40.257 Y23.315
G3 X40.076 Y23.671 I-0.103 J0.171
G1 X29.765 Y19.348
G2 X29.585 Y19.704 I-0.077 J0.184
G1 Z-4
X29.605 Y19.716
X38.721 Y25.194
G3 X38.104 Y26.221 I-0.309 J0.514
G1 X33.602 Y23.52
X33.546 Y23.482
X29.296 Y20.23
X17.987 Y12.116
G3 X17.91 Y11.208 I0.349 J-0.487
G1 X18.73 Y10.38
X39.189 Y22.673
X40.257 Y23.315
G3 X40.076 Y23.671 I-0.103 J0.171
G1 X29.765 Y19.348
G2 X29.585 Y19.704 I-0.077 J0.184
G1 Z-5
X29.605 Y19.716
X38.721 Y25.194
G3 X38.104 Y26.221 I-0.309 J0.514
G1 X33.602 Y23.52
X33.546 Y23.482
X29.296 Y20.23
X17.987 Y12.116
G3 X17.91 Y11.208 I0.349 J-0.487
G1 X18.73 Y10.38
X39.189 Y22.673
X40.257 Y23.315
G3 X40.076 Y23.671 I-0.103 J0.171
G1 X29.765 Y19.348
G2 X29.585 Y19.704 I-0.077 J0.184
G1 Z-6
X29.605 Y19.716
X38.721 Y25.194
G3 X38.104 Y26.221 I-0.309 J0.514
G1 X33.602 Y23.52
X33.546 Y23.482
X29.296 Y20.23
X17.987 Y12.116
G3 X17.91 Y11.208 I0.349 J-0.487
G1 X18.73 Y10.38
X39.189 Y22.673
X40.257 Y23.315
G3 X40.076 Y23.671 I-0.103 J0.171
G1 X29.765 Y19.348
G2 X29.585 Y19.704 I-0.077 J0.184
G1 Z-7
X29.605 Y19.716
X38.721 Y25.194
G3 X38.104 Y26.221 I-0.309 J0.514
G1 X33.602 Y23.52
X33.546 Y23.482
X29.296 Y20.23
X17.987 Y12.116
G3 X17.91 Y11.208 I0.349 J-0.487
G1 X18.73 Y10.38
X39.189 Y22.673
X40.257 Y23.315
G3 X40.076 Y23.671 I-0.103 J0.171
G1 X29.765 Y19.348
G2 X29.585 Y19.704 I-0.077 J0.184
G1 Z-8
X29.605 Y19.716
X38.721 Y25.194
G3 X38.104 Y26.221 I-0.309 J0.514
G1 X33.602 Y23.52
X33.546 Y23.482
X29.296 Y20.23
X17.987 Y12.116
G3 X17.91 Y11.208 I0.349 J-0.487
G1 X18.73 Y10.38
X39.189 Y22.673
X40.257 Y23.315
G3 X40.076 Y23.671 I-0.103 J0.171
G1 X29.765 Y19.348
G2 X29.585 Y19.704 I-0.077 J0.184
G1 Z-9
X29.605 Y19.716
X38.721 Y25.194
G3 X38.104 Y26.221 I-0.309 J0.514
G1 X33.602 Y23.52
X33.546 Y23.482
X29.296 Y20.23
X17.987 Y12.116
G3 X17.91 Y11.208 I0.349 J-0.487
G1 X18.73 Y10.38
X39.189 Y22.673
X40.257 Y23.315
G3 X40.076 Y23.671 I-0.103 J0.171
G1 X29.765 Y19.348
G2 X29.585 Y19.704 I-0.077 J0.184
G1 Z-10
X29.605 Y19.716
X38.721 Y25.194
G3 X38.104 Y26.221 I-0.309 J0.514
G1 X33.602 Y23.52
X33.546 Y23.482
X29.296 Y20.23
X17.987 Y12.116
G3 X17.91 Y11.208 I0.349 J-0.487
G1 X18.73 Y10.38
X39.189 Y22.673
X40.257 Y23.315
G3 X40.076 Y23.671 I-0.103 J0.171
G1 X29.765 Y19.348
G2 X29.585 Y19.704 I-0.077 J0.184
G1 Z-11
X29.605 Y19.716
X38.721 Y25.194
G3 X38.104 Y26.221 I-0.309 J0.514
G1 X33.602 Y23.52
X33.546 Y23.482
X29.296 Y20.23
X17.987 Y12.116
G3 X17.91 Y11.208 I0.349 J-0.487
G1 X18.73 Y10.38
X39.189 Y22.673
X40.257 Y23.315
G3 X40.076 Y23.671 I-0.103 J0.171
G1 X29.765 Y19.348
G2 X29.585 Y19.704 I-0.077 J0.184
G1 Z-12
X29.605 Y19.716
X38.721 Y25.194
G3 X38.104 Y26.221 I-0.309 J0.514
G1 X33.602 Y23.52
X33.546 Y23.482
X29.296 Y20.23
X17.987 Y12.116
G3 X17.91 Y11.208 I0.349 J-0.487
G1 X18.73 Y10.38
X39.189 Y22.673
X40.257 Y23.315
G3 X40.076 Y23.671 I-0.103 J0.171
G1 X29.765 Y19.348
G2 X29.585 Y19.704 I-0.077 J0.184
G1 Z-13
X29.605 Y19.716
X38.721 Y25.194
G3 X38.104 Y26.221 I-0.309 J0.514
G1 X33.602 Y23.52
X33.546 Y23.482
X29.296 Y20.23
X17.987 Y12.116
G3 X17.91 Y11.208 I0.349 J-0.487
G1 X18.73 Y10.38
X39.189 Y22.673
X40.257 Y23.315
G3 X40.076 Y23.671 I-0.103 J0.171
G1 X29.765 Y19.348
G2 X29.585 Y19.704 I-0.077 J0.184
G1 Z-14
X29.605 Y19.716
X38.721 Y25.194
G3 X38.104 Y26.221 I-0.309 J0.514
G1 X33.602 Y23.52
X33.546 Y23.482
X29.296 Y20.23
X17.987 Y12.116
G3 X17.91 Y11.208 I0.349 J-0.487
G1 X18.73 Y10.38
X39.189 Y22.673
X40.257 Y23.315
G3 X40.076 Y23.671 I-0.103 J0.171
G1 X29.765 Y19.348
G2 X29.585 Y19.704 I-0.077 J0.184
G1 Z-15
X29.605 Y19.716
X38.721 Y25.194
G3 X38.104 Y26.221 I-0.309 J0.514
G1 X33.602 Y23.52
X33.546 Y23.482
X29.296 Y20.23
X17.987 Y12.116
G3 X17.91 Y11.208 I0.349 J-0.487
G1 X18.73 Y10.38
X39.189 Y22.673
X40.257 Y23.315
G3 X40.076 Y23.671 I-0.103 J0.171
G1 X29.765 Y19.348
G2 X29.585 Y19.704 I-0.077 J0.184
G1 Z-15.429
X29.605 Y19.716
X38.721 Y25.194
G3 X38.104 Y26.221 I-0.309 J0.514
G1 X33.602 Y23.52
X33.546 Y23.482
X29.296 Y20.23
X17.987 Y12.116
G3 X17.91 Y11.208 I0.349 J-0.487
G1 X18.73 Y10.38
X39.189 Y22.673
X40.257 Y23.315
G0 Z6
X31.221 Y17.77
Z2
G1 Z-1 F700
X31.242 Y17.78
X40.801 Y22.442
G3 X40.276 Y23.52 I-0.263 J0.539
G1 X35.555 Y21.221
X35.496 Y21.188
X30.979 Y18.319
X19.004 Y11.224
G3 X18.848 Y10.326 I0.305 J-0.515
G1 X19.594 Y9.427
X41.048 Y19.89
X42.167 Y20.436
G3 X42.018 Y20.807 I-0.088 J0.18
G1 X31.369 Y17.4
G2 X31.221 Y17.77 I-0.061 J0.19
G1 Z-2
X31.242 Y17.78
X40.801 Y22.442
G3 X40.276 Y23.52 I-0.263 J0.539
G1 X35.555 Y21.221
X35.496 Y21.188
X30.979 Y18.319
X19.004 Y11.224
G3 X18.848 Y10.326 I0.305 J-0.515
G1 X19.594 Y9.427
X41.048 Y19.89
X42.167 Y20.436
G3 X42.018 Y20.807 I-0.088 J0.18
G1 X31.369 Y17.4
G2 X31.221 Y17.77 I-0.061 J0.19
G1 Z-3
X31.242 Y17.78
X40.801 Y22.442
G3 X40.276 Y23.52 I-0.263 J0.539
G1 X35.555 Y21.221
X35.496 Y21.188
X30.979 Y18.319
X19.004 Y11.224
G3 X18.848 Y10.326 I0.305 J-0.515
G1 X19.594 Y9.427
X41.048 Y19.89
X42.167 Y20.436
G3 X42.018 Y20.807 I-0.088 J0.18
G1 X31.369 Y17.4
G2 X31.221 Y17.77 I-0.061 J0.19
G1 Z-4
X31.242 Y17.78
X40.801 Y22.442
G3 X40.276 Y23.52 I-0.263 J0.539
G1 X35.555 Y21.221
X35.496 Y21.188
X30.979 Y18.319
X19.004 Y11.224
G3 X18.848 Y10.326 I0.305 J-0.515
G1 X19.594 Y9.427
X41.048 Y19.89
X42.167 Y20.436
G3 X42.018 Y20.807 I-0.088 J0.18
G1 X31.369 Y17.4
G2 X31.221 Y17.77 I-0.061 J0.19
G1 Z-5
X31.242 Y17.78
X40.801 Y22.442
G3 X40.276 Y23.52 I-0.263 J0.539
G1 X35.555 Y21.221
X35.496 Y21.188
X30.979 Y18.319
X19.004 Y11.224
G3 X18.848 Y10.326 I0.305 J-0.515
G1 X19.594 Y9.427
X41.048 Y19.89
X42.167 Y20.436
G3 X42.018 Y20.807 I-0.088 J0.18
G1 X31.369 Y17.4
G2 X31.221 Y17.77 I-0.061 J0.19
G1 Z-6
X31.242 Y17.78
X40.801 Y22.442
G3 X40.276 Y23.52 I-0.263 J0.539
G1 X35.555 Y21.221
X35.496 Y21.188
X30.979 Y18.319
X19.004 Y11.224
G3 X18.848 Y10.326 I0.305 J-0.515
G1 X19.594 Y9.427
X41.048 Y19.89
X42.167 Y20.436
G3 X42.018 Y20.807 I-0.088 J0.18
G1 X31.369 Y17.4
G2 X31.221 Y17.77 I-0.061 J0.19
G1 Z-7
X31.242 Y17.78
X40.801 Y22.442
G3 X40.276 Y23.52 I-0.263 J0.539
G1 X35.555 Y21.221
X35.496 Y21.188
X30.979 Y18.319
X19.004 Y11.224
G3 X18.848 Y10.326 I0.305 J-0.515
G1 X19.594 Y9.427
X41.048 Y19.89
X42.167 Y20.436
G3 X42.018 Y20.807 I-0.088 J0.18
G1 X31.369 Y17.4
G2 X31.221 Y17.77 I-0.061 J0.19
G1 Z-8
X31.242 Y17.78
X40.801 Y22.442
G3 X40.276 Y23.52 I-0.263 J0.539
G1 X35.555 Y21.221
X35.496 Y21.188
X30.979 Y18.319
X19.004 Y11.224
G3 X18.848 Y10.326 I0.305 J-0.515
G1 X19.594 Y9.427
X41.048 Y19.89
X42.167 Y20.436
G3 X42.018 Y20.807 I-0.088 J0.18
G1 X31.369 Y17.4
G2 X31.221 Y17.77 I-0.061 J0.19
G1 Z-9
X31.242 Y17.78
X40.801 Y22.442
G3 X40.276 Y23.52 I-0.263 J0.539
G1 X35.555 Y21.221
X35.496 Y21.188
X30.979 Y18.319
X19.004 Y11.224
G3 X18.848 Y10.326 I0.305 J-0.515
G1 X19.594 Y9.427
X41.048 Y19.89
X42.167 Y20.436
G3 X42.018 Y20.807 I-0.088 J0.18
G1 X31.369 Y17.4
G2 X31.221 Y17.77 I-0.061 J0.19
G1 Z-10
X31.242 Y17.78
X40.801 Y22.442
G3 X40.276 Y23.52 I-0.263 J0.539
G1 X35.555 Y21.221
X35.496 Y21.188
X30.979 Y18.319
X19.004 Y11.224
G3 X18.848 Y10.326 I0.305 J-0.515
G1 X19.594 Y9.427
X41.048 Y19.89
X42.167 Y20.436
G3 X42.018 Y20.807 I-0.088 J0.18
G1 X31.369 Y17.4
G2 X31.221 Y17.77 I-0.061 J0.19
G1 Z-11
X31.242 Y17.78
X40.801 Y22.442
G3 X40.276 Y23.52 I-0.263 J0.539
G1 X35.555 Y21.221
X35.496 Y21.188
X30.979 Y18.319
X19.004 Y11.224
G3 X18.848 Y10.326 I0.305 J-0.515
G1 X19.594 Y9.427
X41.048 Y19.89
X42.167 Y20.436
G3 X42.018 Y20.807 I-0.088 J0.18
G1 X31.369 Y17.4
G2 X31.221 Y17.77 I-0.061 J0.19
G1 Z-12
X31.242 Y17.78
X40.801 Y22.442
G3 X40.276 Y23.52 I-0.263 J0.539
G1 X35.555 Y21.221
X35.496 Y21.188
X30.979 Y18.319
X19.004 Y11.224
G3 X18.848 Y10.326 I0.305 J-0.515
G1 X19.594 Y9.427
X41.048 Y19.89
X42.167 Y20.436
G3 X42.018 Y20.807 I-0.088 J0.18
G1 X31.369 Y17.4
G2 X31.221 Y17.77 I-0.061 J0.19
G1 Z-12.857
X31.242 Y17.78
X40.801 Y22.442
G3 X40.276 Y23.52 I-0.263 J0.539
G1 X35.555 Y21.221
X35.496 Y21.188
X30.979 Y18.319
X19.004 Y11.224
G3 X18.848 Y10.326 I0.305 J-0.515
G1 X19.594 Y9.427
X41.048 Y19.89
X42.167 Y20.436
G0 Z6
X29.025 Y13.916
Z2
G1 Z-1 F700
X29.036 Y13.92
X42.893 Y19.239
G3 X42.527 Y20.192 I-0.183 J0.476
G1 X35.598 Y17.532
X28.853 Y14.396
X19.904 Y10.118
G3 X19.705 Y9.368 I0.22 J-0.46
G1 X20.373 Y8.402
X42.656 Y16.956
X43.819 Y17.403
G3 X43.691 Y17.781 I-0.072 J0.187
G1 X29.152 Y13.537
G2 X29.025 Y13.916 I-0.056 J0.192
G1 Z-2
X29.036 Y13.92
X42.893 Y19.239
G3 X42.527 Y20.192 I-0.183 J0.476
G1 X35.598 Y17.532
X28.853 Y14.396
X19.904 Y10.118
G3 X19.705 Y9.368 I0.22 J-0.46
G1 X20.373 Y8.402
X42.656 Y16.956
X43.819 Y17.403
G3 X43.691 Y17.781 I-0.072 J0.187
G1 X29.152 Y13.537
G2 X29.025 Y13.916 I-0.056 J0.192
G1 Z-3
X29.036 Y13.92
X42.893 Y19.239
G3 X42.527 Y20.192 I-0.183 J0.476
G1 X35.598 Y17.532
X28.853 Y14.396
X19.904 Y10.118
G3 X19.705 Y9.368 I0.22 J-0.46
G1 X20.373 Y8.402
X42.656 Y16.956
X43.819 Y17.403
G3 X43.691 Y17.781 I-0.072 J0.187
G1 X29.152 Y13.537
G2 X29.025 Y13.916 I-0.056 J0.192
G1 Z-4
X29.036 Y13.92
X42.893 Y19.239
G3 X42.527 Y20.192 I-0.183 J0.476
G1 X35.598 Y17.532
X28.853 Y14.396
X19.904 Y10.118
G3 X19.705 Y9.368 I0.22 J-0.46
G1 X20.373 Y8.402
X42.656 Y16.956
X43.819 Y17.403
G3 X43.691 Y17.781 I-0.072 J0.187
G1 X29.152 Y13.537
G2 X29.025 Y13.916 I-0.056 J0.192
G1 Z-5
X29.036 Y13.92
X42.893 Y19.239
G3 X42.527 Y20.192 I-0.183 J0.476
G1 X35.598 Y17.532
X28.853 Y14.396
X19.904 Y10.118
G3 X19.705 Y9.368 I0.22 J-0.46
G1 X20.373 Y8.402
X42.656 Y16.956
X43.819 Y17.403
G3 X43.691 Y17.781 I-0.072 J0.187
G1 X29.152 Y13.537
G2 X29.025 Y13.916 I-0.056 J0.192
G1 Z-6
X29.036 Y13.92
X42.893 Y19.239
G3 X42.527 Y20.192 I-0.183 J0.476
G1 X35.598 Y17.532
X28.853 Y14.396
X19.904 Y10.118
G3 X19.705 Y9.368 I0.22 J-0.46
G1 X20.373 Y8.402
X42.656 Y16.956
X43.819 Y17.403
G3 X43.691 Y17.781 I-0.072 J0.187
G1 X29.152 Y13.537
G2 X29.025 Y13.916 I-0.056 J0.192
G1 Z-7
X29.036 Y13.92
X42.893 Y19.239
G3 X42.527 Y20.192 I-0.183 J0.476
G1 X35.598 Y17.532
X28.853 Y14.396
X19.904 Y10.118
G3 X19.705 Y9.368 I0.22 J-0.46
G1 X20.373 Y8.402
X42.656 Y16.956
X43.819 Y17.403
G3 X43.691 Y17.781 I-0.072 J0.187
G1 X29.152 Y13.537
G2 X29.025 Y13.916 I-0.056 J0.192
G1 Z-8
X29.036 Y13.92
X42.893 Y19.239
G3 X42.527 Y20.192 I-0.183 J0.476
G1 X35.598 Y17.532
X28.853 Y14.396
X19.904 Y10.118
G3 X19.705 Y9.368 I0.22 J-0.46
G1 X20.373 Y8.402
X42.656 Y16.956
X43.819 Y17.403
G3 X43.691 Y17.781 I-0.072 J0.187
G1 X29.152 Y13.537
G2 X29.025 Y13.916 I-0.056 J0.192
G1 Z-9
X29.036 Y13.92
X42.893 Y19.239
G3 X42.527 Y20.192 I-0.183 J0.476
G1 X35.598 Y17.532
X28.853 Y14.396
X19.904 Y10.118
G3 X19.705 Y9.368 I0.22 J-0.46
G1 X20.373 Y8.402
X42.656 Y16.956
X43.819 Y17.403
G3 X43.691 Y17.781 I-0.072 J0.187
G1 X29.152 Y13.537
G2 X29.025 Y13.916 I-0.056 J0.192
G1 Z-10
X29.036 Y13.92
X42.893 Y19.239
G3 X42.527 Y20.192 I-0.183 J0.476
G1 X35.598 Y17.532
X28.853 Y14.396
X19.904 Y10.118
G3 X19.705 Y9.368 I0.22 J-0.46
G1 X20.373 Y8.402
X42.656 Y16.956
X43.819 Y17.403
G3 X43.691 Y17.781 I-0.072 J0.187
G1 X29.152 Y13.537
G2 X29.025 Y13.916 I-0.056 J0.192
G1 Z-10.286
X29.036 Y13.92
X42.893 Y19.239
G3 X42.527 Y20.192 I-0.183 J0.476
G1 X35.598 Y17.532
X28.853 Y14.396
X19.904 Y10.118
G3 X19.705 Y9.368 I0.22 J-0.46
G1 X20.373 Y8.402
X42.656 Y16.956
X43.819 Y17.403
G0 Z6
X30.751 Y12.28
Z2
G1 Z-1 F700
X30.763 Y12.283
X44.4 Y16.194
G3 X44.111 Y17.202 I-0.145 J0.504
G1 X37.292 Y15.247
X30.618 Y12.787
X20.753 Y9.076
G3 X20.482 Y8.326 I0.185 J-0.491
G1 X21.059 Y7.314
X44.003 Y13.893
X45.2 Y14.236
G3 X45.108 Y14.625 I-0.055 J0.192
G1 X30.844 Y11.892
G2 X30.751 Y12.28 I-0.038 J0.196
G1 Z-2
X30.763 Y12.283
X44.4 Y16.194
G3 X44.111 Y17.202 I-0.145 J0.504
G1 X37.292 Y15.247
X30.618 Y12.787
X20.753 Y9.076
G3 X20.482 Y8.326 I0.185 J-0.491
G1 X21.059 Y7.314
X44.003 Y13.893
X45.2 Y14.236
G3 X45.108 Y14.625 I-0.055 J0.192
G1 X30.844 Y11.892
G2 X30.751 Y12.28 I-0.038 J0.196
G1 Z-3
X30.763 Y12.283
X44.4 Y16.194
G3 X44.111 Y17.202 I-0.145 J0.504
G1 X37.292 Y15.247
X30.618 Y12.787
X20.753 Y9.076
G3 X20.482 Y8.326 I0.185 J-0.491
G1 X21.059 Y7.314
X44.003 Y13.893
X45.2 Y14.236
G3 X45.108 Y14.625 I-0.055 J0.192
G1 X30.844 Y11.892
G2 X30.751 Y12.28 I-0.038 J0.196
G1 Z-4
X30.763 Y12.283
X44.4 Y16.194
G3 X44.111 Y17.202 I-0.145 J0.504
G1 X37.292 Y15.247
X30.618 Y12.787
X20.753 Y9.076
G3 X20.482 Y8.326 I0.185 J-0.491
G1 X21.059 Y7.314
X44.003 Y13.893
X45.2 Y14.236
G3 X45.108 Y14.625 I-0.055 J0.192
G1 X30.844 Y11.892
G2 X30.751 Y12.28 I-0.038 J0.196
G1 Z-5
X30.763 Y12.283
X44.4 Y16.194
G3 X44.111 Y17.202 I-0.145 J0.504
G1 X37.292 Y15.247
X30.618 Y12.787
X20.753 Y9.076
G3 X20.482 Y8.326 I0.185 J-0.491
G1 X21.059 Y7.314
X44.003 Y13.893
X45.2 Y14.236
G3 X45.108 Y14.625 I-0.055 J0.192
G1 X30.844 Y11.892
G2 X30.751 Y12.28 I-0.038 J0.196
G1 Z-6
X30.763 Y12.283
X44.4 Y16.194
G3 X44.111 Y17.202 I-0.145 J0.504
G1 X37.292 Y15.247
X30.618 Y12.787
X20.753 Y9.076
G3 X20.482 Y8.326 I0.185 J-0.491
G1 X21.059 Y7.314
X44.003 Y13.893
X45.2 Y14.236
G3 X45.108 Y14.625 I-0.055 J0.192
G1 X30.844 Y11.892
G2 X30.751 Y12.28 I-0.038 J0.196
G1 Z-7
X30.763 Y12.283
X44.4 Y16.194
G3 X44.111 Y17.202 I-0.145 J0.504
G1 X37.292 Y15.247
X30.618 Y12.787
X20.753 Y9.076
G3 X20.482 Y8.326 I0.185 J-0.491
G1 X21.059 Y7.314
X44.003 Y13.893
X45.2 Y14.236
G3 X45.108 Y14.625 I-0.055 J0.192
G1 X30.844 Y11.892
G2 X30.751 Y12.28 I-0.038 J0.196
G1 Z-7.714
X30.763 Y12.283
X44.4 Y16.194
G3 X44.111 Y17.202 I-0.145 J0.504
G1 X37.292 Y15.247
X30.618 Y12.787
X20.753 Y9.076
G3 X20.482 Y8.326 I0.185 J-0.491
G1 X21.059 Y7.314
X44.003 Y13.893
X45.2 Y14.236
G0 Z6
X32.334 Y10.444
Z2
G1 Z-1 F700
X32.357 Y10.449
X45.639 Y13.03
G3 X45.434 Y14.086 I-0.103 J0.528
G1 X38.793 Y12.796
X32.255 Y10.977
X21.507 Y7.966
G3 X21.164 Y7.223 I0.145 J-0.518
G1 X21.648 Y6.17
X45.078 Y10.724
X46.301 Y10.962
G3 X46.244 Y11.357 I-0.038 J0.196
G1 X32.391 Y10.049
G2 X32.334 Y10.444 I-0.019 J0.199
G1 Z-2
X32.357 Y10.449
X45.639 Y13.03
G3 X45.434 Y14.086 I-0.103 J0.528
G1 X38.793 Y12.796
X32.255 Y10.977
X21.507 Y7.966
G3 X21.164 Y7.223 I0.145 J-0.518
G1 X21.648 Y6.17
X45.078 Y10.724
X46.301 Y10.962
G3 X46.244 Y11.357 I-0.038 J0.196
G1 X32.391 Y10.049
G2 X32.334 Y10.444 I-0.019 J0.199
G1 Z-3
X32.357 Y10.449
X45.639 Y13.03
G3 X45.434 Y14.086 I-0.103 J0.528
G1 X38.793 Y12.796
X32.255 Y10.977
X21.507 Y7.966
G3 X21.164 Y7.223 I0.145 J-0.518
G1 X21.648 Y6.17
X45.078 Y10.724
X46.301 Y10.962
G3 X46.244 Y11.357 I-0.038 J0.196
G1 X32.391 Y10.049
G2 X32.334 Y10.444 I-0.019 J0.199
G1 Z-4
X32.357 Y10.449
X45.639 Y13.03
G3 X45.434 Y14.086 I-0.103 J0.528
G1 X38.793 Y12.796
X32.255 Y10.977
X21.507 Y7.966
G3 X21.164 Y7.223 I0.145 J-0.518
G1 X21.648 Y6.17
X45.078 Y10.724
X46.301 Y10.962
G3 X46.244 Y11.357 I-0.038 J0.196
G1 X32.391 Y10.049
G2 X32.334 Y10.444 I-0.019 J0.199
G1 Z-4.571
X32.357 Y10.449
X45.639 Y13.03
G3 X45.434 Y14.086 I-0.103 J0.528
G1 X38.793 Y12.796
X32.255 Y10.977
X21.507 Y7.966
G3 X21.164 Y7.223 I0.145 J-0.518
G1 X21.648 Y6.17
X45.078 Y10.724
X46.301 Y10.962
G3 X46.244 Y11.357 I-0.038 J0.196
G1 X32.391 Y10.049
G2 X32.334 Y10.444 I-0.019 J0.199
G1 Z-5.143
X32.357 Y10.449
X45.639 Y13.03
G3 X45.434 Y14.086 I-0.103 J0.528
G1 X38.793 Y12.796
X32.255 Y10.977
X21.507 Y7.966
G3 X21.164 Y7.223 I0.145 J-0.518
G1 X21.648 Y6.17
X45.078 Y10.724
X46.301 Y10.962
G0 Z6
X33.753 Y8.422
Z2
G1 Z-1 F700
X33.764 Y8.423
X46.601 Y9.772
G3 X46.486 Y10.868 I-0.058 J0.548
G1 X40.068 Y10.194
X33.707 Y8.971
X22.159 Y6.803
G3 X21.742 Y6.076 I0.102 J-0.542
G1 X22.134 Y4.979
X45.873 Y7.474
X47.111 Y7.604
G3 X47.09 Y8.003 I-0.021 J0.199
G1 X33.773 Y8.023
G2 X33.753 Y8.422 I0 J0.2
G1 Z-2
X33.764 Y8.423
X46.601 Y9.772
G3 X46.486 Y10.868 I-0.058 J0.548
G1 X40.068 Y10.194
X33.707 Y8.971
X22.159 Y6.803
G3 X21.742 Y6.076 I0.102 J-0.542
G1 X22.134 Y4.979
X45.873 Y7.474
X47.111 Y7.604
G3 X47.09 Y8.003 I-0.021 J0.199
G1 X33.773 Y8.023
G2 X33.753 Y8.422 I0 J0.2
G1 Z-2.571
X33.764 Y8.423
X46.601 Y9.772
G3 X46.486 Y10.868 I-0.058 J0.548
G1 X40.068 Y10.194
X33.707 Y8.971
X22.159 Y6.803
G3 X21.742 Y6.076 I0.102 J-0.542
G1 X22.134 Y4.979
X45.873 Y7.474
X47.111 Y7.604
G0 Z6
M9
M5
M30
