(1001)
(T4  D=3 CR=0 - ZMIN=-18 - flat end mill)
G90 G94
G17
G21

(2D Contour2)
T4
S15000 M3
G54
M8
G0 X47.947 Y1.987
Z7
Z3
G1 Z2.5 F333.3
Z0.5
G2 X46.604 Y0.512 I-1.5 J0.017 F1000
G1 X22.866 Y-1.983
G2 X21.899 Y-5.591 I-14.616 J1.983
G1 X41.21 Y-19.62
G2 X41.586 Y-21.651 I-0.882 J-1.214
X22.497 Y-37.109 I-33.336 J21.651
X20.589 Y-36.319 I-0.538 J1.4
G1 X10.881 Y-14.514
G2 X7.151 Y-14.709 I-2.63 J14.514
G1 X-0.225 Y-37.41
G2 X-2.04 Y-38.395 I-1.427 J0.464
X-22.64 Y-25.017 I10.29 J38.395
X-22.478 Y-22.958 I1.166 J0.944
G1 X-4.74 Y-6.987
G2 X-6.079 Y-3.5 I12.99 J6.987
G1 X-29.948
G2 X-31.446 Y-2.078 I0 J1.5
X-25.088 Y21.648 I39.696 J2.078
X-23.08 Y22.13 I1.258 J-0.817
G1 X-2.409 Y10.195
G2 X0.493 Y12.546 I10.659 J-10.195
G1 X-6.882 Y35.247
G2 X-5.993 Y37.11 I1.427 J0.464
X18.536 Y38.396 I14.243 J-37.11
X19.615 Y36.635 I-0.388 J-1.449
G1 X14.653 Y13.288
G2 X17.785 Y11.254 I-6.403 J-13.288
G1 X37.095 Y25.284
G2 X39.143 Y25.014 I0.882 J-1.214
X47.945 Y2.082 I-30.893 J-25.014
G1 X47.947 Y1.987
Z0 F333.3
G2 X46.604 Y0.512 I-1.5 J0.017 F1000
G1 X22.866 Y-1.983
G2 X21.899 Y-5.591 I-14.616 J1.983
G1 X41.21 Y-19.62
G2 X41.586 Y-21.651 I-0.882 J-1.214
X22.497 Y-37.109 I-33.336 J21.651
X20.589 Y-36.319 I-0.538 J1.4
G1 X10.881 Y-14.514
G2 X7.151 Y-14.709 I-2.63 J14.514
G1 X-0.225 Y-37.41
G2 X-2.04 Y-38.395 I-1.427 J0.464
X-22.64 Y-25.017 I10.29 J38.395
X-22.478 Y-22.958 I1.166 J0.944
G1 X-4.74 Y-6.987
G2 X-6.079 Y-3.5 I12.99 J6.987
G1 X-29.948
G2 X-31.446 Y-2.078 I0 J1.5
X-25.088 Y21.648 I39.696 J2.078
X-23.08 Y22.13 I1.258 J-0.817
G1 X-2.409 Y10.195
G2 X0.493 Y12.546 I10.659 J-10.195
G1 X-6.882 Y35.247
G2 X-5.993 Y37.11 I1.427 J0.464
X18.536 Y38.396 I14.243 J-37.11
X19.615 Y36.635 I-0.388 J-1.449
G1 X14.653 Y13.288
G2 X17.785 Y11.254 I-6.403 J-13.288
G1 X37.095 Y25.284
G2 X39.143 Y25.014 I0.882 J-1.214
X47.945 Y2.082 I-30.893 J-25.014
G1 X47.947 Y1.987
Z-0.5 F333.3
G2 X46.604 Y0.512 I-1.5 J0.017 F1000
G1 X22.866 Y-1.983
G2 X21.899 Y-5.591 I-14.616 J1.983
G1 X41.21 Y-19.62
G2 X41.586 Y-21.651 I-0.882 J-1.214
X22.497 Y-37.109 I-33.336 J21.651
X20.589 Y-36.319 I-0.538 J1.4
G1 X10.881 Y-14.514
G2 X7.151 Y-14.709 I-2.63 J14.514
G1 X-0.225 Y-37.41
G2 X-2.04 Y-38.395 I-1.427 J0.464
X-22.64 Y-25.017 I10.29 J38.395
X-22.478 Y-22.958 I1.166 J0.944
G1 X-4.74 Y-6.987
G2 X-6.079 Y-3.5 I12.99 J6.987
G1 X-29.948
G2 X-31.446 Y-2.078 I0 J1.5
X-25.088 Y21.648 I39.696 J2.078
X-23.08 Y22.13 I1.258 J-0.817
G1 X-2.409 Y10.195
G2 X0.493 Y12.546 I10.659 J-10.195
G1 X-6.882 Y35.247
G2 X-5.993 Y37.11 I1.427 J0.464
X18.536 Y38.396 I14.243 J-37.11
X19.615 Y36.635 I-0.388 J-1.449
G1 X14.653 Y13.288
G2 X17.785 Y11.254 I-6.403 J-13.288
G1 X37.095 Y25.284
G2 X39.143 Y25.014 I0.882 J-1.214
X47.945 Y2.082 I-30.893 J-25.014
G1 X47.947 Y1.987
Z-1 F333.3
G2 X46.604 Y0.512 I-1.5 J0.017 F1000
G1 X22.866 Y-1.983
G2 X21.899 Y-5.591 I-14.616 J1.983
G1 X41.21 Y-19.62
G2 X41.586 Y-21.651 I-0.882 J-1.214
X22.497 Y-37.109 I-33.336 J21.651
X20.589 Y-36.319 I-0.538 J1.4
G1 X10.881 Y-14.514
G2 X7.151 Y-14.709 I-2.63 J14.514
G1 X-0.225 Y-37.41
G2 X-2.04 Y-38.395 I-1.427 J0.464
X-22.64 Y-25.017 I10.29 J38.395
X-22.478 Y-22.958 I1.166 J0.944
G1 X-4.74 Y-6.987
G2 X-6.079 Y-3.5 I12.99 J6.987
G1 X-29.948
G2 X-31.446 Y-2.078 I0 J1.5
X-25.088 Y21.648 I39.696 J2.078
X-23.08 Y22.13 I1.258 J-0.817
G1 X-2.409 Y10.195
G2 X0.493 Y12.546 I10.659 J-10.195
G1 X-6.882 Y35.247
G2 X-5.993 Y37.11 I1.427 J0.464
X18.536 Y38.396 I14.243 J-37.11
X19.615 Y36.635 I-0.388 J-1.449
G1 X14.653 Y13.288
G2 X17.785 Y11.254 I-6.403 J-13.288
G1 X37.095 Y25.284
G2 X39.143 Y25.014 I0.882 J-1.214
X47.945 Y2.082 I-30.893 J-25.014
G1 X47.947 Y1.987
Z-1.5 F333.3
G2 X46.604 Y0.512 I-1.5 J0.017 F1000
G1 X22.866 Y-1.983
G2 X21.899 Y-5.591 I-14.616 J1.983
G1 X41.21 Y-19.62
G2 X41.586 Y-21.651 I-0.882 J-1.214
X22.497 Y-37.109 I-33.336 J21.651
X20.589 Y-36.319 I-0.538 J1.4
G1 X10.881 Y-14.514
G2 X7.151 Y-14.709 I-2.63 J14.514
G1 X-0.225 Y-37.41
G2 X-2.04 Y-38.395 I-1.427 J0.464
X-22.64 Y-25.017 I10.29 J38.395
X-22.478 Y-22.958 I1.166 J0.944
G1 X-4.74 Y-6.987
G2 X-6.079 Y-3.5 I12.99 J6.987
G1 X-29.948
G2 X-31.446 Y-2.078 I0 J1.5
X-25.088 Y21.648 I39.696 J2.078
X-23.08 Y22.13 I1.258 J-0.817
G1 X-2.409 Y10.195
G2 X0.493 Y12.546 I10.659 J-10.195
G1 X-6.882 Y35.247
G2 X-5.993 Y37.11 I1.427 J0.464
X18.536 Y38.396 I14.243 J-37.11
X19.615 Y36.635 I-0.388 J-1.449
G1 X14.653 Y13.288
G2 X17.785 Y11.254 I-6.403 J-13.288
G1 X37.095 Y25.284
G2 X39.143 Y25.014 I0.882 J-1.214
X47.945 Y2.082 I-30.893 J-25.014
G1 X47.947 Y1.987
Z-2 F333.3
G2 X46.604 Y0.512 I-1.5 J0.017 F1000
G1 X22.866 Y-1.983
G2 X21.899 Y-5.591 I-14.616 J1.983
G1 X41.21 Y-19.62
G2 X41.586 Y-21.651 I-0.882 J-1.214
X22.497 Y-37.109 I-33.336 J21.651
X20.589 Y-36.319 I-0.538 J1.4
G1 X10.881 Y-14.514
G2 X7.151 Y-14.709 I-2.63 J14.514
G1 X-0.225 Y-37.41
G2 X-2.04 Y-38.395 I-1.427 J0.464
X-22.64 Y-25.017 I10.29 J38.395
X-22.478 Y-22.958 I1.166 J0.944
G1 X-4.74 Y-6.987
G2 X-6.079 Y-3.5 I12.99 J6.987
G1 X-29.948
G2 X-31.446 Y-2.078 I0 J1.5
X-25.088 Y21.648 I39.696 J2.078
X-23.08 Y22.13 I1.258 J-0.817
G1 X-2.409 Y10.195
G2 X0.493 Y12.546 I10.659 J-10.195
G1 X-6.882 Y35.247
G2 X-5.993 Y37.11 I1.427 J0.464
X18.536 Y38.396 I14.243 J-37.11
X19.615 Y36.635 I-0.388 J-1.449
G1 X14.653 Y13.288
G2 X17.785 Y11.254 I-6.403 J-13.288
G1 X37.095 Y25.284
G2 X39.143 Y25.014 I0.882 J-1.214
X47.945 Y2.082 I-30.893 J-25.014
G1 X47.947 Y1.987
Z-2.5 F333.3
G2 X46.604 Y0.512 I-1.5 J0.017 F1000
G1 X22.866 Y-1.983
G2 X21.899 Y-5.591 I-14.616 J1.983
G1 X41.21 Y-19.62
G2 X41.586 Y-21.651 I-0.882 J-1.214
X22.497 Y-37.109 I-33.336 J21.651
X20.589 Y-36.319 I-0.538 J1.4
G1 X10.881 Y-14.514
G2 X7.151 Y-14.709 I-2.63 J14.514
G1 X-0.225 Y-37.41
G2 X-2.04 Y-38.395 I-1.427 J0.464
X-22.64 Y-25.017 I10.29 J38.395
X-22.478 Y-22.958 I1.166 J0.944
G1 X-4.74 Y-6.987
G2 X-6.079 Y-3.5 I12.99 J6.987
G1 X-29.948
G2 X-31.446 Y-2.078 I0 J1.5
X-25.088 Y21.648 I39.696 J2.078
X-23.08 Y22.13 I1.258 J-0.817
G1 X-2.409 Y10.195
G2 X0.493 Y12.546 I10.659 J-10.195
G1 X-6.882 Y35.247
G2 X-5.993 Y37.11 I1.427 J0.464
X18.536 Y38.396 I14.243 J-37.11
X19.615 Y36.635 I-0.388 J-1.449
G1 X14.653 Y13.288
G2 X17.785 Y11.254 I-6.403 J-13.288
G1 X37.095 Y25.284
G2 X39.143 Y25.014 I0.882 J-1.214
X47.945 Y2.082 I-30.893 J-25.014
G1 X47.947 Y1.987
Z-3 F333.3
G2 X46.604 Y0.512 I-1.5 J0.017 F1000
G1 X22.866 Y-1.983
G2 X21.899 Y-5.591 I-14.616 J1.983
G1 X41.21 Y-19.62
G2 X41.586 Y-21.651 I-0.882 J-1.214
X22.497 Y-37.109 I-33.336 J21.651
X20.589 Y-36.319 I-0.538 J1.4
G1 X10.881 Y-14.514
G2 X7.151 Y-14.709 I-2.63 J14.514
G1 X-0.225 Y-37.41
G2 X-2.04 Y-38.395 I-1.427 J0.464
X-22.64 Y-25.017 I10.29 J38.395
X-22.478 Y-22.958 I1.166 J0.944
G1 X-4.74 Y-6.987
G2 X-6.079 Y-3.5 I12.99 J6.987
G1 X-29.948
G2 X-31.446 Y-2.078 I0 J1.5
X-25.088 Y21.648 I39.696 J2.078
X-23.08 Y22.13 I1.258 J-0.817
G1 X-2.409 Y10.195
G2 X0.493 Y12.546 I10.659 J-10.195
G1 X-6.882 Y35.247
G2 X-5.993 Y37.11 I1.427 J0.464
X18.536 Y38.396 I14.243 J-37.11
X19.615 Y36.635 I-0.388 J-1.449
G1 X14.653 Y13.288
G2 X17.785 Y11.254 I-6.403 J-13.288
G1 X37.095 Y25.284
G2 X39.143 Y25.014 I0.882 J-1.214
X47.945 Y2.082 I-30.893 J-25.014
G1 X47.947 Y1.987
Z-3.5 F333.3
G2 X46.604 Y0.512 I-1.5 J0.017 F1000
G1 X22.866 Y-1.983
G2 X21.899 Y-5.591 I-14.616 J1.983
G1 X41.21 Y-19.62
G2 X41.586 Y-21.651 I-0.882 J-1.214
X22.497 Y-37.109 I-33.336 J21.651
X20.589 Y-36.319 I-0.538 J1.4
G1 X10.881 Y-14.514
G2 X7.151 Y-14.709 I-2.63 J14.514
G1 X-0.225 Y-37.41
G2 X-2.04 Y-38.395 I-1.427 J0.464
X-22.64 Y-25.017 I10.29 J38.395
X-22.478 Y-22.958 I1.166 J0.944
G1 X-4.74 Y-6.987
G2 X-6.079 Y-3.5 I12.99 J6.987
G1 X-29.948
G2 X-31.446 Y-2.078 I0 J1.5
X-25.088 Y21.648 I39.696 J2.078
X-23.08 Y22.13 I1.258 J-0.817
G1 X-2.409 Y10.195
G2 X0.493 Y12.546 I10.659 J-10.195
G1 X-6.882 Y35.247
G2 X-5.993 Y37.11 I1.427 J0.464
X18.536 Y38.396 I14.243 J-37.11
X19.615 Y36.635 I-0.388 J-1.449
G1 X14.653 Y13.288
G2 X17.785 Y11.254 I-6.403 J-13.288
G1 X37.095 Y25.284
G2 X39.143 Y25.014 I0.882 J-1.214
X47.945 Y2.082 I-30.893 J-25.014
G1 X47.947 Y1.987
Z-4 F333.3
G2 X46.604 Y0.512 I-1.5 J0.017 F1000
G1 X22.866 Y-1.983
G2 X21.899 Y-5.591 I-14.616 J1.983
G1 X41.21 Y-19.62
G2 X41.586 Y-21.651 I-0.882 J-1.214
X22.497 Y-37.109 I-33.336 J21.651
X20.589 Y-36.319 I-0.538 J1.4
G1 X10.881 Y-14.514
G2 X7.151 Y-14.709 I-2.63 J14.514
G1 X-0.225 Y-37.41
G2 X-2.04 Y-38.395 I-1.427 J0.464
X-22.64 Y-25.017 I10.29 J38.395
X-22.478 Y-22.958 I1.166 J0.944
G1 X-4.74 Y-6.987
G2 X-6.079 Y-3.5 I12.99 J6.987
G1 X-29.948
G2 X-31.446 Y-2.078 I0 J1.5
X-25.088 Y21.648 I39.696 J2.078
X-23.08 Y22.13 I1.258 J-0.817
G1 X-2.409 Y10.195
G2 X0.493 Y12.546 I10.659 J-10.195
G1 X-6.882 Y35.247
G2 X-5.993 Y37.11 I1.427 J0.464
X18.536 Y38.396 I14.243 J-37.11
X19.615 Y36.635 I-0.388 J-1.449
G1 X14.653 Y13.288
G2 X17.785 Y11.254 I-6.403 J-13.288
G1 X37.095 Y25.284
G2 X39.143 Y25.014 I0.882 J-1.214
X47.945 Y2.082 I-30.893 J-25.014
G1 X47.947 Y1.987
Z-4.5 F333.3
G2 X46.604 Y0.512 I-1.5 J0.017 F1000
G1 X22.866 Y-1.983
G2 X21.899 Y-5.591 I-14.616 J1.983
G1 X41.21 Y-19.62
G2 X41.586 Y-21.651 I-0.882 J-1.214
X22.497 Y-37.109 I-33.336 J21.651
X20.589 Y-36.319 I-0.538 J1.4
G1 X10.881 Y-14.514
G2 X7.151 Y-14.709 I-2.63 J14.514
G1 X-0.225 Y-37.41
G2 X-2.04 Y-38.395 I-1.427 J0.464
X-22.64 Y-25.017 I10.29 J38.395
X-22.478 Y-22.958 I1.166 J0.944
G1 X-4.74 Y-6.987
G2 X-6.079 Y-3.5 I12.99 J6.987
G1 X-29.948
G2 X-31.446 Y-2.078 I0 J1.5
X-25.088 Y21.648 I39.696 J2.078
X-23.08 Y22.13 I1.258 J-0.817
G1 X-2.409 Y10.195
G2 X0.493 Y12.546 I10.659 J-10.195
G1 X-6.882 Y35.247
G2 X-5.993 Y37.11 I1.427 J0.464
X18.536 Y38.396 I14.243 J-37.11
X19.615 Y36.635 I-0.388 J-1.449
G1 X14.653 Y13.288
G2 X17.785 Y11.254 I-6.403 J-13.288
G1 X37.095 Y25.284
G2 X39.143 Y25.014 I0.882 J-1.214
X47.945 Y2.082 I-30.893 J-25.014
G1 X47.947 Y1.987
Z-5 F333.3
G2 X46.604 Y0.512 I-1.5 J0.017 F1000
G1 X22.866 Y-1.983
G2 X21.899 Y-5.591 I-14.616 J1.983
G1 X41.21 Y-19.62
G2 X41.586 Y-21.651 I-0.882 J-1.214
X22.497 Y-37.109 I-33.336 J21.651
X20.589 Y-36.319 I-0.538 J1.4
G1 X10.881 Y-14.514
G2 X7.151 Y-14.709 I-2.63 J14.514
G1 X-0.225 Y-37.41
G2 X-2.04 Y-38.395 I-1.427 J0.464
X-22.64 Y-25.017 I10.29 J38.395
X-22.478 Y-22.958 I1.166 J0.944
G1 X-4.74 Y-6.987
G2 X-6.079 Y-3.5 I12.99 J6.987
G1 X-29.948
G2 X-31.446 Y-2.078 I0 J1.5
X-25.088 Y21.648 I39.696 J2.078
X-23.08 Y22.13 I1.258 J-0.817
G1 X-2.409 Y10.195
G2 X0.493 Y12.546 I10.659 J-10.195
G1 X-6.882 Y35.247
G2 X-5.993 Y37.11 I1.427 J0.464
X18.536 Y38.396 I14.243 J-37.11
X19.615 Y36.635 I-0.388 J-1.449
G1 X14.653 Y13.288
G2 X17.785 Y11.254 I-6.403 J-13.288
G1 X37.095 Y25.284
G2 X39.143 Y25.014 I0.882 J-1.214
X47.945 Y2.082 I-30.893 J-25.014
G1 X47.947 Y1.987
Z-5.5 F333.3
G2 X46.604 Y0.512 I-1.5 J0.017 F1000
G1 X22.866 Y-1.983
G2 X21.899 Y-5.591 I-14.616 J1.983
G1 X41.21 Y-19.62
G2 X41.586 Y-21.651 I-0.882 J-1.214
X22.497 Y-37.109 I-33.336 J21.651
X20.589 Y-36.319 I-0.538 J1.4
G1 X10.881 Y-14.514
G2 X7.151 Y-14.709 I-2.63 J14.514
G1 X-0.225 Y-37.41
G2 X-2.04 Y-38.395 I-1.427 J0.464
X-22.64 Y-25.017 I10.29 J38.395
X-22.478 Y-22.958 I1.166 J0.944
G1 X-4.74 Y-6.987
G2 X-6.079 Y-3.5 I12.99 J6.987
G1 X-29.948
G2 X-31.446 Y-2.078 I0 J1.5
X-25.088 Y21.648 I39.696 J2.078
X-23.08 Y22.13 I1.258 J-0.817
G1 X-2.409 Y10.195
G2 X0.493 Y12.546 I10.659 J-10.195
G1 X-6.882 Y35.247
G2 X-5.993 Y37.11 I1.427 J0.464
X18.536 Y38.396 I14.243 J-37.11
X19.615 Y36.635 I-0.388 J-1.449
G1 X14.653 Y13.288
G2 X17.785 Y11.254 I-6.403 J-13.288
G1 X37.095 Y25.284
G2 X39.143 Y25.014 I0.882 J-1.214
X47.945 Y2.082 I-30.893 J-25.014
G1 X47.947 Y1.987
Z-6 F333.3
G2 X46.604 Y0.512 I-1.5 J0.017 F1000
G1 X22.866 Y-1.983
G2 X21.899 Y-5.591 I-14.616 J1.983
G1 X41.21 Y-19.62
G2 X41.586 Y-21.651 I-0.882 J-1.214
X22.497 Y-37.109 I-33.336 J21.651
X20.589 Y-36.319 I-0.538 J1.4
G1 X10.881 Y-14.514
G2 X7.151 Y-14.709 I-2.63 J14.514
G1 X-0.225 Y-37.41
G2 X-2.04 Y-38.395 I-1.427 J0.464
X-22.64 Y-25.017 I10.29 J38.395
X-22.478 Y-22.958 I1.166 J0.944
G1 X-4.74 Y-6.987
G2 X-6.079 Y-3.5 I12.99 J6.987
G1 X-29.948
G2 X-31.446 Y-2.078 I0 J1.5
X-25.088 Y21.648 I39.696 J2.078
X-23.08 Y22.13 I1.258 J-0.817
G1 X-2.409 Y10.195
G2 X0.493 Y12.546 I10.659 J-10.195
G1 X-6.882 Y35.247
G2 X-5.993 Y37.11 I1.427 J0.464
X18.536 Y38.396 I14.243 J-37.11
X19.615 Y36.635 I-0.388 J-1.449
G1 X14.653 Y13.288
G2 X17.785 Y11.254 I-6.403 J-13.288
G1 X37.095 Y25.284
G2 X39.143 Y25.014 I0.882 J-1.214
X47.945 Y2.082 I-30.893 J-25.014
G1 X47.947 Y1.987
Z-6.5 F333.3
G2 X46.604 Y0.512 I-1.5 J0.017 F1000
G1 X22.866 Y-1.983
G2 X21.899 Y-5.591 I-14.616 J1.983
G1 X41.21 Y-19.62
G2 X41.586 Y-21.651 I-0.882 J-1.214
X22.497 Y-37.109 I-33.336 J21.651
X20.589 Y-36.319 I-0.538 J1.4
G1 X10.881 Y-14.514
G2 X7.151 Y-14.709 I-2.63 J14.514
G1 X-0.225 Y-37.41
G2 X-2.04 Y-38.395 I-1.427 J0.464
X-22.64 Y-25.017 I10.29 J38.395
X-22.478 Y-22.958 I1.166 J0.944
G1 X-4.74 Y-6.987
G2 X-6.079 Y-3.5 I12.99 J6.987
G1 X-29.948
G2 X-31.446 Y-2.078 I0 J1.5
X-25.088 Y21.648 I39.696 J2.078
X-23.08 Y22.13 I1.258 J-0.817
G1 X-2.409 Y10.195
G2 X0.493 Y12.546 I10.659 J-10.195
G1 X-6.882 Y35.247
G2 X-5.993 Y37.11 I1.427 J0.464
X18.536 Y38.396 I14.243 J-37.11
X19.615 Y36.635 I-0.388 J-1.449
G1 X14.653 Y13.288
G2 X17.785 Y11.254 I-6.403 J-13.288
G1 X37.095 Y25.284
G2 X39.143 Y25.014 I0.882 J-1.214
X47.945 Y2.082 I-30.893 J-25.014
G1 X47.947 Y1.987
Z-7 F333.3
G2 X46.604 Y0.512 I-1.5 J0.017 F1000
G1 X22.866 Y-1.983
G2 X21.899 Y-5.591 I-14.616 J1.983
G1 X41.21 Y-19.62
G2 X41.586 Y-21.651 I-0.882 J-1.214
X22.497 Y-37.109 I-33.336 J21.651
X20.589 Y-36.319 I-0.538 J1.4
G1 X10.881 Y-14.514
G2 X7.151 Y-14.709 I-2.63 J14.514
G1 X-0.225 Y-37.41
G2 X-2.04 Y-38.395 I-1.427 J0.464
X-22.64 Y-25.017 I10.29 J38.395
X-22.478 Y-22.958 I1.166 J0.944
G1 X-4.74 Y-6.987
G2 X-6.079 Y-3.5 I12.99 J6.987
G1 X-29.948
G2 X-31.446 Y-2.078 I0 J1.5
X-25.088 Y21.648 I39.696 J2.078
X-23.08 Y22.13 I1.258 J-0.817
G1 X-2.409 Y10.195
G2 X0.493 Y12.546 I10.659 J-10.195
G1 X-6.882 Y35.247
G2 X-5.993 Y37.11 I1.427 J0.464
X18.536 Y38.396 I14.243 J-37.11
X19.615 Y36.635 I-0.388 J-1.449
G1 X14.653 Y13.288
G2 X17.785 Y11.254 I-6.403 J-13.288
G1 X37.095 Y25.284
G2 X39.143 Y25.014 I0.882 J-1.214
X47.945 Y2.082 I-30.893 J-25.014
G1 X47.947 Y1.987
Z-7.5 F333.3
G2 X46.604 Y0.512 I-1.5 J0.017 F1000
G1 X22.866 Y-1.983
G2 X21.899 Y-5.591 I-14.616 J1.983
G1 X41.21 Y-19.62
G2 X41.586 Y-21.651 I-0.882 J-1.214
X22.497 Y-37.109 I-33.336 J21.651
X20.589 Y-36.319 I-0.538 J1.4
G1 X10.881 Y-14.514
G2 X7.151 Y-14.709 I-2.63 J14.514
G1 X-0.225 Y-37.41
G2 X-2.04 Y-38.395 I-1.427 J0.464
X-22.64 Y-25.017 I10.29 J38.395
X-22.478 Y-22.958 I1.166 J0.944
G1 X-4.74 Y-6.987
G2 X-6.079 Y-3.5 I12.99 J6.987
G1 X-29.948
G2 X-31.446 Y-2.078 I0 J1.5
X-25.088 Y21.648 I39.696 J2.078
X-23.08 Y22.13 I1.258 J-0.817
G1 X-2.409 Y10.195
G2 X0.493 Y12.546 I10.659 J-10.195
G1 X-6.882 Y35.247
G2 X-5.993 Y37.11 I1.427 J0.464
X18.536 Y38.396 I14.243 J-37.11
X19.615 Y36.635 I-0.388 J-1.449
G1 X14.653 Y13.288
G2 X17.785 Y11.254 I-6.403 J-13.288
G1 X37.095 Y25.284
G2 X39.143 Y25.014 I0.882 J-1.214
X47.945 Y2.082 I-30.893 J-25.014
G1 X47.947 Y1.987
Z-8 F333.3
G2 X46.604 Y0.512 I-1.5 J0.017 F1000
G1 X22.866 Y-1.983
G2 X21.899 Y-5.591 I-14.616 J1.983
G1 X41.21 Y-19.62
G2 X41.586 Y-21.651 I-0.882 J-1.214
X22.497 Y-37.109 I-33.336 J21.651
X20.589 Y-36.319 I-0.538 J1.4
G1 X10.881 Y-14.514
G2 X7.151 Y-14.709 I-2.63 J14.514
G1 X-0.225 Y-37.41
G2 X-2.04 Y-38.395 I-1.427 J0.464
X-22.64 Y-25.017 I10.29 J38.395
X-22.478 Y-22.958 I1.166 J0.944
G1 X-4.74 Y-6.987
G2 X-6.079 Y-3.5 I12.99 J6.987
G1 X-29.948
G2 X-31.446 Y-2.078 I0 J1.5
X-25.088 Y21.648 I39.696 J2.078
X-23.08 Y22.13 I1.258 J-0.817
G1 X-2.409 Y10.195
G2 X0.493 Y12.546 I10.659 J-10.195
G1 X-6.882 Y35.247
G2 X-5.993 Y37.11 I1.427 J0.464
X18.536 Y38.396 I14.243 J-37.11
X19.615 Y36.635 I-0.388 J-1.449
G1 X14.653 Y13.288
G2 X17.785 Y11.254 I-6.403 J-13.288
G1 X37.095 Y25.284
G2 X39.143 Y25.014 I0.882 J-1.214
X47.945 Y2.082 I-30.893 J-25.014
G1 X47.947 Y1.987
Z-8.5 F333.3
G2 X46.604 Y0.512 I-1.5 J0.017 F1000
G1 X22.866 Y-1.983
G2 X21.899 Y-5.591 I-14.616 J1.983
G1 X41.21 Y-19.62
G2 X41.586 Y-21.651 I-0.882 J-1.214
X22.497 Y-37.109 I-33.336 J21.651
X20.589 Y-36.319 I-0.538 J1.4
G1 X10.881 Y-14.514
G2 X7.151 Y-14.709 I-2.63 J14.514
G1 X-0.225 Y-37.41
G2 X-2.04 Y-38.395 I-1.427 J0.464
X-22.64 Y-25.017 I10.29 J38.395
X-22.478 Y-22.958 I1.166 J0.944
G1 X-4.74 Y-6.987
G2 X-6.079 Y-3.5 I12.99 J6.987
G1 X-29.948
G2 X-31.446 Y-2.078 I0 J1.5
X-25.088 Y21.648 I39.696 J2.078
X-23.08 Y22.13 I1.258 J-0.817
G1 X-2.409 Y10.195
G2 X0.493 Y12.546 I10.659 J-10.195
G1 X-6.882 Y35.247
G2 X-5.993 Y37.11 I1.427 J0.464
X18.536 Y38.396 I14.243 J-37.11
X19.615 Y36.635 I-0.388 J-1.449
G1 X14.653 Y13.288
G2 X17.785 Y11.254 I-6.403 J-13.288
G1 X37.095 Y25.284
G2 X39.143 Y25.014 I0.882 J-1.214
X47.945 Y2.082 I-30.893 J-25.014
G1 X47.947 Y1.987
Z-9 F333.3
G2 X46.604 Y0.512 I-1.5 J0.017 F1000
G1 X22.866 Y-1.983
G2 X21.899 Y-5.591 I-14.616 J1.983
G1 X41.21 Y-19.62
G2 X41.586 Y-21.651 I-0.882 J-1.214
X22.497 Y-37.109 I-33.336 J21.651
X20.589 Y-36.319 I-0.538 J1.4
G1 X10.881 Y-14.514
G2 X7.151 Y-14.709 I-2.63 J14.514
G1 X-0.225 Y-37.41
G2 X-2.04 Y-38.395 I-1.427 J0.464
X-22.64 Y-25.017 I10.29 J38.395
X-22.478 Y-22.958 I1.166 J0.944
G1 X-4.74 Y-6.987
G2 X-6.079 Y-3.5 I12.99 J6.987
G1 X-29.948
G2 X-31.446 Y-2.078 I0 J1.5
X-25.088 Y21.648 I39.696 J2.078
X-23.08 Y22.13 I1.258 J-0.817
G1 X-2.409 Y10.195
G2 X0.493 Y12.546 I10.659 J-10.195
G1 X-6.882 Y35.247
G2 X-5.993 Y37.11 I1.427 J0.464
X18.536 Y38.396 I14.243 J-37.11
X19.615 Y36.635 I-0.388 J-1.449
G1 X14.653 Y13.288
G2 X17.785 Y11.254 I-6.403 J-13.288
G1 X37.095 Y25.284
G2 X39.143 Y25.014 I0.882 J-1.214
X47.945 Y2.082 I-30.893 J-25.014
G1 X47.947 Y1.987
Z-9.5 F333.3
G2 X46.604 Y0.512 I-1.5 J0.017 F1000
G1 X22.866 Y-1.983
G2 X21.899 Y-5.591 I-14.616 J1.983
G1 X41.21 Y-19.62
G2 X41.586 Y-21.651 I-0.882 J-1.214
X22.497 Y-37.109 I-33.336 J21.651
X20.589 Y-36.319 I-0.538 J1.4
G1 X10.881 Y-14.514
G2 X7.151 Y-14.709 I-2.63 J14.514
G1 X-0.225 Y-37.41
G2 X-2.04 Y-38.395 I-1.427 J0.464
X-22.64 Y-25.017 I10.29 J38.395
X-22.478 Y-22.958 I1.166 J0.944
G1 X-4.74 Y-6.987
G2 X-6.079 Y-3.5 I12.99 J6.987
G1 X-29.948
G2 X-31.446 Y-2.078 I0 J1.5
X-25.088 Y21.648 I39.696 J2.078
X-23.08 Y22.13 I1.258 J-0.817
G1 X-2.409 Y10.195
G2 X0.493 Y12.546 I10.659 J-10.195
G1 X-6.882 Y35.247
G2 X-5.993 Y37.11 I1.427 J0.464
X18.536 Y38.396 I14.243 J-37.11
X19.615 Y36.635 I-0.388 J-1.449
G1 X14.653 Y13.288
G2 X17.785 Y11.254 I-6.403 J-13.288
G1 X37.095 Y25.284
G2 X39.143 Y25.014 I0.882 J-1.214
X47.945 Y2.082 I-30.893 J-25.014
G1 X47.947 Y1.987
Z-10 F333.3
G2 X46.604 Y0.512 I-1.5 J0.017 F1000
G1 X22.866 Y-1.983
G2 X21.899 Y-5.591 I-14.616 J1.983
G1 X41.21 Y-19.62
G2 X41.586 Y-21.651 I-0.882 J-1.214
X22.497 Y-37.109 I-33.336 J21.651
X20.589 Y-36.319 I-0.538 J1.4
G1 X10.881 Y-14.514
G2 X7.151 Y-14.709 I-2.63 J14.514
G1 X-0.225 Y-37.41
G2 X-2.04 Y-38.395 I-1.427 J0.464
X-22.64 Y-25.017 I10.29 J38.395
X-22.478 Y-22.958 I1.166 J0.944
G1 X-4.74 Y-6.987
G2 X-6.079 Y-3.5 I12.99 J6.987
G1 X-29.948
G2 X-31.446 Y-2.078 I0 J1.5
X-25.088 Y21.648 I39.696 J2.078
X-23.08 Y22.13 I1.258 J-0.817
G1 X-2.409 Y10.195
G2 X0.493 Y12.546 I10.659 J-10.195
G1 X-6.882 Y35.247
G2 X-5.993 Y37.11 I1.427 J0.464
X18.536 Y38.396 I14.243 J-37.11
X19.615 Y36.635 I-0.388 J-1.449
G1 X14.653 Y13.288
G2 X17.785 Y11.254 I-6.403 J-13.288
G1 X37.095 Y25.284
G2 X39.143 Y25.014 I0.882 J-1.214
X47.945 Y2.082 I-30.893 J-25.014
G1 X47.947 Y1.987
Z-10.5 F333.3
G2 X46.604 Y0.512 I-1.5 J0.017 F1000
G1 X22.866 Y-1.983
G2 X21.899 Y-5.591 I-14.616 J1.983
G1 X41.21 Y-19.62
G2 X41.586 Y-21.651 I-0.882 J-1.214
X22.497 Y-37.109 I-33.336 J21.651
X20.589 Y-36.319 I-0.538 J1.4
G1 X10.881 Y-14.514
G2 X7.151 Y-14.709 I-2.63 J14.514
G1 X-0.225 Y-37.41
G2 X-2.04 Y-38.395 I-1.427 J0.464
X-22.64 Y-25.017 I10.29 J38.395
X-22.478 Y-22.958 I1.166 J0.944
G1 X-4.74 Y-6.987
G2 X-6.079 Y-3.5 I12.99 J6.987
G1 X-29.948
G2 X-31.446 Y-2.078 I0 J1.5
X-25.088 Y21.648 I39.696 J2.078
X-23.08 Y22.13 I1.258 J-0.817
G1 X-2.409 Y10.195
G2 X0.493 Y12.546 I10.659 J-10.195
G1 X-6.882 Y35.247
G2 X-5.993 Y37.11 I1.427 J0.464
X18.536 Y38.396 I14.243 J-37.11
X19.615 Y36.635 I-0.388 J-1.449
G1 X14.653 Y13.288
G2 X17.785 Y11.254 I-6.403 J-13.288
G1 X37.095 Y25.284
G2 X39.143 Y25.014 I0.882 J-1.214
X47.945 Y2.082 I-30.893 J-25.014
G1 X47.947 Y1.987
Z-11 F333.3
G2 X46.604 Y0.512 I-1.5 J0.017 F1000
G1 X22.866 Y-1.983
G2 X21.899 Y-5.591 I-14.616 J1.983
G1 X41.21 Y-19.62
G2 X41.586 Y-21.651 I-0.882 J-1.214
X22.497 Y-37.109 I-33.336 J21.651
X20.589 Y-36.319 I-0.538 J1.4
G1 X10.881 Y-14.514
G2 X7.151 Y-14.709 I-2.63 J14.514
G1 X-0.225 Y-37.41
G2 X-2.04 Y-38.395 I-1.427 J0.464
X-22.64 Y-25.017 I10.29 J38.395
X-22.478 Y-22.958 I1.166 J0.944
G1 X-4.74 Y-6.987
G2 X-6.079 Y-3.5 I12.99 J6.987
G1 X-29.948
G2 X-31.446 Y-2.078 I0 J1.5
X-25.088 Y21.648 I39.696 J2.078
X-23.08 Y22.13 I1.258 J-0.817
G1 X-2.409 Y10.195
G2 X0.493 Y12.546 I10.659 J-10.195
G1 X-6.882 Y35.247
G2 X-5.993 Y37.11 I1.427 J0.464
X18.536 Y38.396 I14.243 J-37.11
X19.615 Y36.635 I-0.388 J-1.449
G1 X14.653 Y13.288
G2 X17.785 Y11.254 I-6.403 J-13.288
G1 X37.095 Y25.284
G2 X39.143 Y25.014 I0.882 J-1.214
X47.945 Y2.082 I-30.893 J-25.014
G1 X47.947 Y1.987
Z-11.5 F333.3
G2 X46.604 Y0.512 I-1.5 J0.017 F1000
G1 X22.866 Y-1.983
G2 X21.899 Y-5.591 I-14.616 J1.983
G1 X41.21 Y-19.62
G2 X41.586 Y-21.651 I-0.882 J-1.214
X22.497 Y-37.109 I-33.336 J21.651
X20.589 Y-36.319 I-0.538 J1.4
G1 X10.881 Y-14.514
G2 X7.151 Y-14.709 I-2.63 J14.514
G1 X-0.225 Y-37.41
G2 X-2.04 Y-38.395 I-1.427 J0.464
X-22.64 Y-25.017 I10.29 J38.395
X-22.478 Y-22.958 I1.166 J0.944
G1 X-4.74 Y-6.987
G2 X-6.079 Y-3.5 I12.99 J6.987
G1 X-29.948
G2 X-31.446 Y-2.078 I0 J1.5
X-25.088 Y21.648 I39.696 J2.078
X-23.08 Y22.13 I1.258 J-0.817
G1 X-2.409 Y10.195
G2 X0.493 Y12.546 I10.659 J-10.195
G1 X-6.882 Y35.247
G2 X-5.993 Y37.11 I1.427 J0.464
X18.536 Y38.396 I14.243 J-37.11
X19.615 Y36.635 I-0.388 J-1.449
G1 X14.653 Y13.288
G2 X17.785 Y11.254 I-6.403 J-13.288
G1 X37.095 Y25.284
G2 X39.143 Y25.014 I0.882 J-1.214
X47.945 Y2.082 I-30.893 J-25.014
G1 X47.947 Y1.987
Z-12 F333.3
G2 X46.604 Y0.512 I-1.5 J0.017 F1000
G1 X22.866 Y-1.983
G2 X21.899 Y-5.591 I-14.616 J1.983
G1 X41.21 Y-19.62
G2 X41.586 Y-21.651 I-0.882 J-1.214
X22.497 Y-37.109 I-33.336 J21.651
X20.589 Y-36.319 I-0.538 J1.4
G1 X10.881 Y-14.514
G2 X7.151 Y-14.709 I-2.63 J14.514
G1 X-0.225 Y-37.41
G2 X-2.04 Y-38.395 I-1.427 J0.464
X-22.64 Y-25.017 I10.29 J38.395
X-22.478 Y-22.958 I1.166 J0.944
G1 X-4.74 Y-6.987
G2 X-6.079 Y-3.5 I12.99 J6.987
G1 X-29.948
G2 X-31.446 Y-2.078 I0 J1.5
X-25.088 Y21.648 I39.696 J2.078
X-23.08 Y22.13 I1.258 J-0.817
G1 X-2.409 Y10.195
G2 X0.493 Y12.546 I10.659 J-10.195
G1 X-6.882 Y35.247
G2 X-5.993 Y37.11 I1.427 J0.464
X18.536 Y38.396 I14.243 J-37.11
X19.615 Y36.635 I-0.388 J-1.449
G1 X14.653 Y13.288
G2 X17.785 Y11.254 I-6.403 J-13.288
G1 X37.095 Y25.284
G2 X39.143 Y25.014 I0.882 J-1.214
X47.945 Y2.082 I-30.893 J-25.014
G1 X47.947 Y1.987
Z-12.5 F333.3
G2 X46.604 Y0.512 I-1.5 J0.017 F1000
G1 X22.866 Y-1.983
G2 X21.899 Y-5.591 I-14.616 J1.983
G1 X41.21 Y-19.62
G2 X41.586 Y-21.651 I-0.882 J-1.214
X22.497 Y-37.109 I-33.336 J21.651
X20.589 Y-36.319 I-0.538 J1.4
G1 X10.881 Y-14.514
G2 X7.151 Y-14.709 I-2.63 J14.514
G1 X-0.225 Y-37.41
G2 X-2.04 Y-38.395 I-1.427 J0.464
X-22.64 Y-25.017 I10.29 J38.395
X-22.478 Y-22.958 I1.166 J0.944
G1 X-4.74 Y-6.987
G2 X-6.079 Y-3.5 I12.99 J6.987
G1 X-29.948
G2 X-31.446 Y-2.078 I0 J1.5
X-25.088 Y21.648 I39.696 J2.078
X-23.08 Y22.13 I1.258 J-0.817
G1 X-2.409 Y10.195
G2 X0.493 Y12.546 I10.659 J-10.195
G1 X-6.882 Y35.247
G2 X-5.993 Y37.11 I1.427 J0.464
X18.536 Y38.396 I14.243 J-37.11
X19.615 Y36.635 I-0.388 J-1.449
G1 X14.653 Y13.288
G2 X17.785 Y11.254 I-6.403 J-13.288
G1 X37.095 Y25.284
G2 X39.143 Y25.014 I0.882 J-1.214
X47.945 Y2.082 I-30.893 J-25.014
G1 X47.947 Y1.987
Z-13 F333.3
G2 X46.604 Y0.512 I-1.5 J0.017 F1000
G1 X22.866 Y-1.983
G2 X21.899 Y-5.591 I-14.616 J1.983
G1 X41.21 Y-19.62
G2 X41.586 Y-21.651 I-0.882 J-1.214
X22.497 Y-37.109 I-33.336 J21.651
X20.589 Y-36.319 I-0.538 J1.4
G1 X10.881 Y-14.514
G2 X7.151 Y-14.709 I-2.63 J14.514
G1 X-0.225 Y-37.41
G2 X-2.04 Y-38.395 I-1.427 J0.464
X-22.64 Y-25.017 I10.29 J38.395
X-22.478 Y-22.958 I1.166 J0.944
G1 X-4.74 Y-6.987
G2 X-6.079 Y-3.5 I12.99 J6.987
G1 X-29.948
G2 X-31.446 Y-2.078 I0 J1.5
X-25.088 Y21.648 I39.696 J2.078
X-23.08 Y22.13 I1.258 J-0.817
G1 X-2.409 Y10.195
G2 X0.493 Y12.546 I10.659 J-10.195
G1 X-6.882 Y35.247
G2 X-5.993 Y37.11 I1.427 J0.464
X18.536 Y38.396 I14.243 J-37.11
X19.615 Y36.635 I-0.388 J-1.449
G1 X14.653 Y13.288
G2 X17.785 Y11.254 I-6.403 J-13.288
G1 X37.095 Y25.284
G2 X39.143 Y25.014 I0.882 J-1.214
X47.945 Y2.082 I-30.893 J-25.014
G1 X47.947 Y1.987
Z-13.5 F333.3
G2 X46.604 Y0.512 I-1.5 J0.017 F1000
G1 X22.866 Y-1.983
G2 X21.899 Y-5.591 I-14.616 J1.983
G1 X41.21 Y-19.62
G2 X41.586 Y-21.651 I-0.882 J-1.214
X22.497 Y-37.109 I-33.336 J21.651
X20.589 Y-36.319 I-0.538 J1.4
G1 X10.881 Y-14.514
G2 X7.151 Y-14.709 I-2.63 J14.514
G1 X-0.225 Y-37.41
G2 X-2.04 Y-38.395 I-1.427 J0.464
X-22.64 Y-25.017 I10.29 J38.395
X-22.478 Y-22.958 I1.166 J0.944
G1 X-4.74 Y-6.987
G2 X-6.079 Y-3.5 I12.99 J6.987
G1 X-29.948
G2 X-31.446 Y-2.078 I0 J1.5
X-25.088 Y21.648 I39.696 J2.078
X-23.08 Y22.13 I1.258 J-0.817
G1 X-2.409 Y10.195
G2 X0.493 Y12.546 I10.659 J-10.195
G1 X-6.882 Y35.247
G2 X-5.993 Y37.11 I1.427 J0.464
X18.536 Y38.396 I14.243 J-37.11
X19.615 Y36.635 I-0.388 J-1.449
G1 X14.653 Y13.288
G2 X17.785 Y11.254 I-6.403 J-13.288
G1 X37.095 Y25.284
G2 X39.143 Y25.014 I0.882 J-1.214
X47.945 Y2.082 I-30.893 J-25.014
G1 X47.947 Y1.987
Z-14 F333.3
G2 X46.604 Y0.512 I-1.5 J0.017 F1000
G1 X22.866 Y-1.983
G2 X21.899 Y-5.591 I-14.616 J1.983
G1 X41.21 Y-19.62
G2 X41.586 Y-21.651 I-0.882 J-1.214
X22.497 Y-37.109 I-33.336 J21.651
X20.589 Y-36.319 I-0.538 J1.4
G1 X10.881 Y-14.514
G2 X7.151 Y-14.709 I-2.63 J14.514
G1 X-0.225 Y-37.41
G2 X-2.04 Y-38.395 I-1.427 J0.464
X-22.64 Y-25.017 I10.29 J38.395
X-22.478 Y-22.958 I1.166 J0.944
G1 X-4.74 Y-6.987
G2 X-6.079 Y-3.5 I12.99 J6.987
G1 X-29.948
G2 X-31.446 Y-2.078 I0 J1.5
X-25.088 Y21.648 I39.696 J2.078
X-23.08 Y22.13 I1.258 J-0.817
G1 X-2.409 Y10.195
G2 X0.493 Y12.546 I10.659 J-10.195
G1 X-6.882 Y35.247
G2 X-5.993 Y37.11 I1.427 J0.464
X18.536 Y38.396 I14.243 J-37.11
X19.615 Y36.635 I-0.388 J-1.449
G1 X14.653 Y13.288
G2 X17.785 Y11.254 I-6.403 J-13.288
G1 X37.095 Y25.284
G2 X39.143 Y25.014 I0.882 J-1.214
X47.945 Y2.082 I-30.893 J-25.014
G1 X47.947 Y1.987
Z-14.5 F333.3
G2 X46.604 Y0.512 I-1.5 J0.017 F1000
G1 X22.866 Y-1.983
G2 X21.899 Y-5.591 I-14.616 J1.983
G1 X41.21 Y-19.62
G2 X41.586 Y-21.651 I-0.882 J-1.214
X22.497 Y-37.109 I-33.336 J21.651
X20.589 Y-36.319 I-0.538 J1.4
G1 X10.881 Y-14.514
G2 X7.151 Y-14.709 I-2.63 J14.514
G1 X-0.225 Y-37.41
G2 X-2.04 Y-38.395 I-1.427 J0.464
X-22.64 Y-25.017 I10.29 J38.395
X-22.478 Y-22.958 I1.166 J0.944
G1 X-4.74 Y-6.987
G2 X-6.079 Y-3.5 I12.99 J6.987
G1 X-29.948
G2 X-31.446 Y-2.078 I0 J1.5
X-25.088 Y21.648 I39.696 J2.078
X-23.08 Y22.13 I1.258 J-0.817
G1 X-2.409 Y10.195
G2 X0.493 Y12.546 I10.659 J-10.195
G1 X-6.882 Y35.247
G2 X-5.993 Y37.11 I1.427 J0.464
X18.536 Y38.396 I14.243 J-37.11
X19.615 Y36.635 I-0.388 J-1.449
G1 X14.653 Y13.288
G2 X17.785 Y11.254 I-6.403 J-13.288
G1 X37.095 Y25.284
G2 X39.143 Y25.014 I0.882 J-1.214
X47.945 Y2.082 I-30.893 J-25.014
G1 X47.947 Y1.987
Z-15 F333.3
G2 X46.604 Y0.512 I-1.5 J0.017 F1000
G1 X22.866 Y-1.983
G2 X21.899 Y-5.591 I-14.616 J1.983
G1 X41.21 Y-19.62
G2 X41.586 Y-21.651 I-0.882 J-1.214
X22.497 Y-37.109 I-33.336 J21.651
X20.589 Y-36.319 I-0.538 J1.4
G1 X10.881 Y-14.514
G2 X7.151 Y-14.709 I-2.63 J14.514
G1 X-0.225 Y-37.41
G2 X-2.04 Y-38.395 I-1.427 J0.464
X-22.64 Y-25.017 I10.29 J38.395
X-22.478 Y-22.958 I1.166 J0.944
G1 X-4.74 Y-6.987
G2 X-6.079 Y-3.5 I12.99 J6.987
G1 X-29.948
G2 X-31.446 Y-2.078 I0 J1.5
X-25.088 Y21.648 I39.696 J2.078
X-23.08 Y22.13 I1.258 J-0.817
G1 X-2.409 Y10.195
G2 X0.493 Y12.546 I10.659 J-10.195
G1 X-6.882 Y35.247
G2 X-5.993 Y37.11 I1.427 J0.464
X18.536 Y38.396 I14.243 J-37.11
X19.615 Y36.635 I-0.388 J-1.449
G1 X14.653 Y13.288
G2 X17.785 Y11.254 I-6.403 J-13.288
G1 X37.095 Y25.284
G2 X39.143 Y25.014 I0.882 J-1.214
X47.945 Y2.082 I-30.893 J-25.014
G1 X47.947 Y1.987
Z-15.5 F333.3
G2 X46.604 Y0.512 I-1.5 J0.017 F1000
G1 X22.866 Y-1.983
G2 X21.899 Y-5.591 I-14.616 J1.983
G1 X41.21 Y-19.62
G2 X41.586 Y-21.651 I-0.882 J-1.214
X22.497 Y-37.109 I-33.336 J21.651
X20.589 Y-36.319 I-0.538 J1.4
G1 X10.881 Y-14.514
G2 X7.151 Y-14.709 I-2.63 J14.514
G1 X-0.225 Y-37.41
G2 X-2.04 Y-38.395 I-1.427 J0.464
X-22.64 Y-25.017 I10.29 J38.395
X-22.478 Y-22.958 I1.166 J0.944
G1 X-4.74 Y-6.987
G2 X-6.079 Y-3.5 I12.99 J6.987
G1 X-29.948
G2 X-31.446 Y-2.078 I0 J1.5
X-25.088 Y21.648 I39.696 J2.078
X-23.08 Y22.13 I1.258 J-0.817
G1 X-2.409 Y10.195
G2 X0.493 Y12.546 I10.659 J-10.195
G1 X-6.882 Y35.247
G2 X-5.993 Y37.11 I1.427 J0.464
X18.536 Y38.396 I14.243 J-37.11
X19.615 Y36.635 I-0.388 J-1.449
G1 X14.653 Y13.288
G2 X17.785 Y11.254 I-6.403 J-13.288
G1 X37.095 Y25.284
G2 X39.143 Y25.014 I0.882 J-1.214
X47.945 Y2.082 I-30.893 J-25.014
G1 X47.947 Y1.987
Z-16 F333.3
G2 X46.604 Y0.512 I-1.5 J0.017 F1000
G1 X22.866 Y-1.983
G2 X21.899 Y-5.591 I-14.616 J1.983
G1 X41.21 Y-19.62
G2 X41.586 Y-21.651 I-0.882 J-1.214
X22.497 Y-37.109 I-33.336 J21.651
X20.589 Y-36.319 I-0.538 J1.4
G1 X10.881 Y-14.514
G2 X7.151 Y-14.709 I-2.63 J14.514
G1 X-0.225 Y-37.41
G2 X-2.04 Y-38.395 I-1.427 J0.464
X-22.64 Y-25.017 I10.29 J38.395
X-22.478 Y-22.958 I1.166 J0.944
G1 X-4.74 Y-6.987
G2 X-6.079 Y-3.5 I12.99 J6.987
G1 X-29.948
G2 X-31.446 Y-2.078 I0 J1.5
X-25.088 Y21.648 I39.696 J2.078
X-23.08 Y22.13 I1.258 J-0.817
G1 X-2.409 Y10.195
G2 X0.493 Y12.546 I10.659 J-10.195
G1 X-6.882 Y35.247
G2 X-5.993 Y37.11 I1.427 J0.464
X18.536 Y38.396 I14.243 J-37.11
X19.615 Y36.635 I-0.388 J-1.449
G1 X14.653 Y13.288
G2 X17.785 Y11.254 I-6.403 J-13.288
G1 X37.095 Y25.284
G2 X39.143 Y25.014 I0.882 J-1.214
X47.945 Y2.082 I-30.893 J-25.014
G1 X47.947 Y1.987
Z-16.5 F333.3
G2 X46.604 Y0.512 I-1.5 J0.017 F1000
G1 X22.866 Y-1.983
G2 X21.899 Y-5.591 I-14.616 J1.983
G1 X41.21 Y-19.62
G2 X41.586 Y-21.651 I-0.882 J-1.214
X22.497 Y-37.109 I-33.336 J21.651
X20.589 Y-36.319 I-0.538 J1.4
G1 X10.881 Y-14.514
G2 X7.151 Y-14.709 I-2.63 J14.514
G1 X-0.225 Y-37.41
G2 X-2.04 Y-38.395 I-1.427 J0.464
X-22.64 Y-25.017 I10.29 J38.395
X-22.478 Y-22.958 I1.166 J0.944
G1 X-4.74 Y-6.987
G2 X-6.079 Y-3.5 I12.99 J6.987
G1 X-29.948
G2 X-31.446 Y-2.078 I0 J1.5
X-25.088 Y21.648 I39.696 J2.078
X-23.08 Y22.13 I1.258 J-0.817
G1 X-2.409 Y10.195
G2 X0.493 Y12.546 I10.659 J-10.195
G1 X-6.882 Y35.247
G2 X-5.993 Y37.11 I1.427 J0.464
X18.536 Y38.396 I14.243 J-37.11
X19.615 Y36.635 I-0.388 J-1.449
G1 X14.653 Y13.288
G2 X17.785 Y11.254 I-6.403 J-13.288
G1 X37.095 Y25.284
G2 X39.143 Y25.014 I0.882 J-1.214
X47.945 Y2.082 I-30.893 J-25.014
G1 X47.947 Y1.987
Z-17 F333.3
G2 X46.604 Y0.512 I-1.5 J0.017 F1000
G1 X22.866 Y-1.983
G2 X21.899 Y-5.591 I-14.616 J1.983
G1 X41.21 Y-19.62
G2 X41.586 Y-21.651 I-0.882 J-1.214
X22.497 Y-37.109 I-33.336 J21.651
X20.589 Y-36.319 I-0.538 J1.4
G1 X10.881 Y-14.514
G2 X7.151 Y-14.709 I-2.63 J14.514
G1 X-0.225 Y-37.41
G2 X-2.04 Y-38.395 I-1.427 J0.464
X-22.64 Y-25.017 I10.29 J38.395
X-22.478 Y-22.958 I1.166 J0.944
G1 X-4.74 Y-6.987
G2 X-6.079 Y-3.5 I12.99 J6.987
G1 X-29.948
G2 X-31.446 Y-2.078 I0 J1.5
X-25.088 Y21.648 I39.696 J2.078
X-23.08 Y22.13 I1.258 J-0.817
G1 X-2.409 Y10.195
G2 X0.493 Y12.546 I10.659 J-10.195
G1 X-6.882 Y35.247
G2 X-5.993 Y37.11 I1.427 J0.464
X18.536 Y38.396 I14.243 J-37.11
X19.615 Y36.635 I-0.388 J-1.449
G1 X14.653 Y13.288
G2 X17.785 Y11.254 I-6.403 J-13.288
G1 X37.095 Y25.284
G2 X39.143 Y25.014 I0.882 J-1.214
X47.945 Y2.082 I-30.893 J-25.014
G1 X47.947 Y1.987
Z-17.5 F333.3
G2 X46.604 Y0.512 I-1.5 J0.017 F1000
G1 X22.866 Y-1.983
G2 X21.899 Y-5.591 I-14.616 J1.983
G1 X41.21 Y-19.62
G2 X41.586 Y-21.651 I-0.882 J-1.214
X22.497 Y-37.109 I-33.336 J21.651
X20.589 Y-36.319 I-0.538 J1.4
G1 X10.881 Y-14.514
G2 X7.151 Y-14.709 I-2.63 J14.514
G1 X-0.225 Y-37.41
G2 X-2.04 Y-38.395 I-1.427 J0.464
X-22.64 Y-25.017 I10.29 J38.395
X-22.478 Y-22.958 I1.166 J0.944
G1 X-4.74 Y-6.987
G2 X-6.079 Y-3.5 I12.99 J6.987
G1 X-29.948
G2 X-31.446 Y-2.078 I0 J1.5
X-25.088 Y21.648 I39.696 J2.078
X-23.08 Y22.13 I1.258 J-0.817
G1 X-2.409 Y10.195
G2 X0.493 Y12.546 I10.659 J-10.195
G1 X-6.882 Y35.247
G2 X-5.993 Y37.11 I1.427 J0.464
X18.536 Y38.396 I14.243 J-37.11
X19.615 Y36.635 I-0.388 J-1.449
G1 X14.653 Y13.288
G2 X17.785 Y11.254 I-6.403 J-13.288
G1 X37.095 Y25.284
G2 X39.143 Y25.014 I0.882 J-1.214
X47.945 Y2.082 I-30.893 J-25.014
G1 X47.947 Y1.987
Z-18 F333.3
G2 X46.604 Y0.512 I-1.5 J0.017 F1000
G1 X22.866 Y-1.983
G2 X21.899 Y-5.591 I-14.616 J1.983
G1 X41.21 Y-19.62
G2 X41.586 Y-21.651 I-0.882 J-1.214
X22.497 Y-37.109 I-33.336 J21.651
X20.589 Y-36.319 I-0.538 J1.4
G1 X10.881 Y-14.514
G2 X7.151 Y-14.709 I-2.63 J14.514
G1 X-0.225 Y-37.41
G2 X-2.04 Y-38.395 I-1.427 J0.464
X-22.64 Y-25.017 I10.29 J38.395
X-22.478 Y-22.958 I1.166 J0.944
G1 X-4.74 Y-6.987
G2 X-6.079 Y-3.5 I12.99 J6.987
G1 X-29.948
G2 X-31.446 Y-2.078 I0 J1.5
X-25.088 Y21.648 I39.696 J2.078
X-23.08 Y22.13 I1.258 J-0.817
G1 X-2.409 Y10.195
G2 X0.493 Y12.546 I10.659 J-10.195
G1 X-6.882 Y35.247
G2 X-5.993 Y37.11 I1.427 J0.464
X18.536 Y38.396 I14.243 J-37.11
X19.615 Y36.635 I-0.388 J-1.449
G1 X14.653 Y13.288
G2 X17.785 Y11.254 I-6.403 J-13.288
G1 X37.095 Y25.284
G2 X39.143 Y25.014 I0.882 J-1.214
X47.945 Y2.082 I-30.893 J-25.014
G1 X47.947 Y1.987
G0 Z7
M9
M5
M30
