(1001)
(T4  D=3 CR=0 - ZMIN=-18 - flat end mill)
G90 G94
G17
G21

(2D Pocket10 3)
T4
S15000 M3
G54
M8
G0 X-40.697 Y39.75
Z7
Z2
G1 Z1.8 F300
X-40.873 Z1.736 F333.3
X-36.227 Z0.045
X-38.55 Z-0.8
G3 X-38.1 Y39.75 I0.225 J0 F600
X-41.4 Y39.75 I-1.65 J0
X-35.25 Y39.75 I3.075 J0
X-44.25 Y39.75 I-4.5 J0
X-32.4 Y39.75 I5.925 J0
X-47.1 Y39.75 I-7.35 J0
X-29.55 Y39.75 I8.775 J0
X-49.95 Y39.75 I-10.2 J0
X-26.7 Y39.75 I11.625 J0
X-52.8 Y39.75 I-13.05 J0
X-23.85 Y39.75 I14.475 J0
X-55.65 Y39.75 I-15.9 J0
X-21 Y39.75 I17.325 J0
X-58.5 Y39.75 I-18.75 J0
X-18.15 Y39.75 I20.175 J0
X-61.35 Y39.75 I-21.6 J0
X-15.3 Y39.75 I23.025 J0
X-64.2 Y39.75 I-24.45 J0
X-15.3 Y39.75 I24.45 J0
G2 X-13.981 Y41.794 I2.243 J0
G3 X-12.823 Y43.933 I-0.828 J1.831
X-31.329 Y65.666 I-26.927 J-4.183
X-61.796 Y55.767 I-8.421 J-25.916
X-61.796 Y23.733 I22.046 J-16.017
X-31.329 Y13.834 I22.046 J16.017
X-12.5 Y39.75 I-8.421 J25.916
X-12.823 Y43.933 I-27.25 J0
X-15.019 Y44.964 I-1.445 J-0.225
G1 X-29.018 Y36.582
X-29.118 Y36.517
X-29.212 Y36.443
G2 X-30.99 Y36.356 I-0.946 J1.116
G1 X-35.52 Y39.49
G3 X-36.352 Y39.75 I-0.832 J-1.203
G1 X-38.55 Z-1.6 F333.3
G3 X-38.1 Y39.75 I0.225 J0 F600
X-41.4 Y39.75 I-1.65 J0
X-35.25 Y39.75 I3.075 J0
X-44.25 Y39.75 I-4.5 J0
X-32.4 Y39.75 I5.925 J0
X-47.1 Y39.75 I-7.35 J0
X-29.55 Y39.75 I8.775 J0
X-49.95 Y39.75 I-10.2 J0
X-26.7 Y39.75 I11.625 J0
X-52.8 Y39.75 I-13.05 J0
X-23.85 Y39.75 I14.475 J0
X-55.65 Y39.75 I-15.9 J0
X-21 Y39.75 I17.325 J0
X-58.5 Y39.75 I-18.75 J0
X-18.15 Y39.75 I20.175 J0
X-61.35 Y39.75 I-21.6 J0
X-15.3 Y39.75 I23.025 J0
X-64.2 Y39.75 I-24.45 J0
X-15.3 Y39.75 I24.45 J0
G2 X-13.981 Y41.794 I2.243 J0
G3 X-12.823 Y43.933 I-0.828 J1.831
X-31.329 Y65.666 I-26.927 J-4.183
X-61.796 Y55.767 I-8.421 J-25.916
X-61.796 Y23.733 I22.046 J-16.017
X-31.329 Y13.834 I22.046 J16.017
X-12.5 Y39.75 I-8.421 J25.916
X-12.823 Y43.933 I-27.25 J0
X-15.019 Y44.964 I-1.445 J-0.225
G1 X-29.018 Y36.582
X-29.118 Y36.517
X-29.212 Y36.443
G2 X-30.99 Y36.356 I-0.946 J1.116
G1 X-35.52 Y39.49
G3 X-36.352 Y39.75 I-0.832 J-1.203
G1 X-38.55 Z-2.4 F333.3
G3 X-38.1 Y39.75 I0.225 J0 F600
X-41.4 Y39.75 I-1.65 J0
X-35.25 Y39.75 I3.075 J0
X-44.25 Y39.75 I-4.5 J0
X-32.4 Y39.75 I5.925 J0
X-47.1 Y39.75 I-7.35 J0
X-29.55 Y39.75 I8.775 J0
X-49.95 Y39.75 I-10.2 J0
X-26.7 Y39.75 I11.625 J0
X-52.8 Y39.75 I-13.05 J0
X-23.85 Y39.75 I14.475 J0
X-55.65 Y39.75 I-15.9 J0
X-21 Y39.75 I17.325 J0
X-58.5 Y39.75 I-18.75 J0
X-18.15 Y39.75 I20.175 J0
X-61.35 Y39.75 I-21.6 J0
X-15.3 Y39.75 I23.025 J0
X-64.2 Y39.75 I-24.45 J0
X-15.3 Y39.75 I24.45 J0
G2 X-13.981 Y41.794 I2.243 J0
G3 X-12.823 Y43.933 I-0.828 J1.831
X-31.329 Y65.666 I-26.927 J-4.183
X-61.796 Y55.767 I-8.421 J-25.916
X-61.796 Y23.733 I22.046 J-16.017
X-31.329 Y13.834 I22.046 J16.017
X-12.5 Y39.75 I-8.421 J25.916
X-12.823 Y43.933 I-27.25 J0
X-15.019 Y44.964 I-1.445 J-0.225
G1 X-29.018 Y36.582
X-29.118 Y36.517
X-29.212 Y36.443
G2 X-30.99 Y36.356 I-0.946 J1.116
G1 X-35.52 Y39.49
G3 X-36.352 Y39.75 I-0.832 J-1.203
G1 X-38.55 Z-3.2 F333.3
G3 X-38.1 Y39.75 I0.225 J0 F600
X-41.4 Y39.75 I-1.65 J0
X-35.25 Y39.75 I3.075 J0
X-44.25 Y39.75 I-4.5 J0
X-32.4 Y39.75 I5.925 J0
X-47.1 Y39.75 I-7.35 J0
X-29.55 Y39.75 I8.775 J0
X-49.95 Y39.75 I-10.2 J0
X-26.7 Y39.75 I11.625 J0
X-52.8 Y39.75 I-13.05 J0
X-23.85 Y39.75 I14.475 J0
X-55.65 Y39.75 I-15.9 J0
X-21 Y39.75 I17.325 J0
X-58.5 Y39.75 I-18.75 J0
X-18.15 Y39.75 I20.175 J0
X-61.35 Y39.75 I-21.6 J0
X-15.3 Y39.75 I23.025 J0
X-64.2 Y39.75 I-24.45 J0
X-15.3 Y39.75 I24.45 J0
G2 X-13.981 Y41.794 I2.243 J0
G3 X-12.823 Y43.933 I-0.828 J1.831
X-31.329 Y65.666 I-26.927 J-4.183
X-61.796 Y55.767 I-8.421 J-25.916
X-61.796 Y23.733 I22.046 J-16.017
X-31.329 Y13.834 I22.046 J16.017
X-12.5 Y39.75 I-8.421 J25.916
X-12.823 Y43.933 I-27.25 J0
X-15.019 Y44.964 I-1.445 J-0.225
G1 X-29.018 Y36.582
X-29.118 Y36.517
X-29.212 Y36.443
G2 X-30.99 Y36.356 I-0.946 J1.116
G1 X-35.52 Y39.49
G3 X-36.352 Y39.75 I-0.832 J-1.203
G1 X-38.55 Z-4 F333.3
G3 X-38.1 Y39.75 I0.225 J0 F600
X-41.4 Y39.75 I-1.65 J0
X-35.25 Y39.75 I3.075 J0
X-44.25 Y39.75 I-4.5 J0
X-32.4 Y39.75 I5.925 J0
X-47.1 Y39.75 I-7.35 J0
X-29.55 Y39.75 I8.775 J0
X-49.95 Y39.75 I-10.2 J0
X-26.7 Y39.75 I11.625 J0
X-52.8 Y39.75 I-13.05 J0
X-23.85 Y39.75 I14.475 J0
X-55.65 Y39.75 I-15.9 J0
X-21 Y39.75 I17.325 J0
X-58.5 Y39.75 I-18.75 J0
X-18.15 Y39.75 I20.175 J0
X-61.35 Y39.75 I-21.6 J0
X-15.3 Y39.75 I23.025 J0
X-64.2 Y39.75 I-24.45 J0
X-15.3 Y39.75 I24.45 J0
G2 X-13.981 Y41.794 I2.243 J0
G3 X-12.823 Y43.933 I-0.828 J1.831
X-31.329 Y65.666 I-26.927 J-4.183
X-61.796 Y55.767 I-8.421 J-25.916
X-61.796 Y23.733 I22.046 J-16.017
X-31.329 Y13.834 I22.046 J16.017
X-12.5 Y39.75 I-8.421 J25.916
X-12.823 Y43.933 I-27.25 J0
X-15.019 Y44.964 I-1.445 J-0.225
G1 X-29.018 Y36.582
X-29.118 Y36.517
X-29.212 Y36.443
G2 X-30.99 Y36.356 I-0.946 J1.116
G1 X-35.52 Y39.49
G3 X-36.352 Y39.75 I-0.832 J-1.203
G1 X-38.55 Z-4.8 F333.3
G3 X-38.1 Y39.75 I0.225 J0 F600
X-41.4 Y39.75 I-1.65 J0
X-35.25 Y39.75 I3.075 J0
X-44.25 Y39.75 I-4.5 J0
X-32.4 Y39.75 I5.925 J0
X-47.1 Y39.75 I-7.35 J0
X-29.55 Y39.75 I8.775 J0
X-49.95 Y39.75 I-10.2 J0
X-26.7 Y39.75 I11.625 J0
X-52.8 Y39.75 I-13.05 J0
X-23.85 Y39.75 I14.475 J0
X-55.65 Y39.75 I-15.9 J0
X-21 Y39.75 I17.325 J0
X-58.5 Y39.75 I-18.75 J0
X-18.15 Y39.75 I20.175 J0
X-61.35 Y39.75 I-21.6 J0
X-15.3 Y39.75 I23.025 J0
X-64.2 Y39.75 I-24.45 J0
X-15.3 Y39.75 I24.45 J0
G2 X-13.981 Y41.794 I2.243 J0
G3 X-12.823 Y43.933 I-0.828 J1.831
X-31.329 Y65.666 I-26.927 J-4.183
X-61.796 Y55.767 I-8.421 J-25.916
X-61.796 Y23.733 I22.046 J-16.017
X-31.329 Y13.834 I22.046 J16.017
X-12.5 Y39.75 I-8.421 J25.916
X-12.823 Y43.933 I-27.25 J0
X-15.019 Y44.964 I-1.445 J-0.225
G1 X-29.018 Y36.582
X-29.118 Y36.517
X-29.212 Y36.443
G2 X-30.99 Y36.356 I-0.946 J1.116
G1 X-35.52 Y39.49
G3 X-36.352 Y39.75 I-0.832 J-1.203
G1 X-38.55 Z-5.6 F333.3
G3 X-38.1 Y39.75 I0.225 J0 F600
X-41.4 Y39.75 I-1.65 J0
X-35.25 Y39.75 I3.075 J0
X-44.25 Y39.75 I-4.5 J0
X-32.4 Y39.75 I5.925 J0
X-47.1 Y39.75 I-7.35 J0
X-29.55 Y39.75 I8.775 J0
X-49.95 Y39.75 I-10.2 J0
X-26.7 Y39.75 I11.625 J0
X-52.8 Y39.75 I-13.05 J0
X-23.85 Y39.75 I14.475 J0
X-55.65 Y39.75 I-15.9 J0
X-21 Y39.75 I17.325 J0
X-58.5 Y39.75 I-18.75 J0
X-18.15 Y39.75 I20.175 J0
X-61.35 Y39.75 I-21.6 J0
X-15.3 Y39.75 I23.025 J0
X-64.2 Y39.75 I-24.45 J0
X-15.3 Y39.75 I24.45 J0
G2 X-13.981 Y41.794 I2.243 J0
G3 X-12.823 Y43.933 I-0.828 J1.831
X-31.329 Y65.666 I-26.927 J-4.183
X-61.796 Y55.767 I-8.421 J-25.916
X-61.796 Y23.733 I22.046 J-16.017
X-31.329 Y13.834 I22.046 J16.017
X-12.5 Y39.75 I-8.421 J25.916
X-12.823 Y43.933 I-27.25 J0
X-15.019 Y44.964 I-1.445 J-0.225
G1 X-29.018 Y36.582
X-29.118 Y36.517
X-29.212 Y36.443
G2 X-30.99 Y36.356 I-0.946 J1.116
G1 X-35.52 Y39.49
G3 X-36.352 Y39.75 I-0.832 J-1.203
G1 X-38.55 Z-6.4 F333.3
G3 X-38.1 Y39.75 I0.225 J0 F600
X-41.4 Y39.75 I-1.65 J0
X-35.25 Y39.75 I3.075 J0
X-44.25 Y39.75 I-4.5 J0
X-32.4 Y39.75 I5.925 J0
X-47.1 Y39.75 I-7.35 J0
X-29.55 Y39.75 I8.775 J0
X-49.95 Y39.75 I-10.2 J0
X-26.7 Y39.75 I11.625 J0
X-52.8 Y39.75 I-13.05 J0
X-23.85 Y39.75 I14.475 J0
X-55.65 Y39.75 I-15.9 J0
X-21 Y39.75 I17.325 J0
X-58.5 Y39.75 I-18.75 J0
X-18.15 Y39.75 I20.175 J0
X-61.35 Y39.75 I-21.6 J0
X-15.3 Y39.75 I23.025 J0
X-64.2 Y39.75 I-24.45 J0
X-15.3 Y39.75 I24.45 J0
G2 X-13.981 Y41.794 I2.243 J0
G3 X-12.823 Y43.933 I-0.828 J1.831
X-31.329 Y65.666 I-26.927 J-4.183
X-61.796 Y55.767 I-8.421 J-25.916
X-61.796 Y23.733 I22.046 J-16.017
X-31.329 Y13.834 I22.046 J16.017
X-12.5 Y39.75 I-8.421 J25.916
X-12.823 Y43.933 I-27.25 J0
X-15.019 Y44.964 I-1.445 J-0.225
G1 X-29.018 Y36.582
X-29.118 Y36.517
X-29.212 Y36.443
G2 X-30.99 Y36.356 I-0.946 J1.116
G1 X-35.52 Y39.49
G3 X-36.352 Y39.75 I-0.832 J-1.203
G1 X-38.55 Z-7.2 F333.3
G3 X-38.1 Y39.75 I0.225 J0 F600
X-41.4 Y39.75 I-1.65 J0
X-35.25 Y39.75 I3.075 J0
X-44.25 Y39.75 I-4.5 J0
X-32.4 Y39.75 I5.925 J0
X-47.1 Y39.75 I-7.35 J0
X-29.55 Y39.75 I8.775 J0
X-49.95 Y39.75 I-10.2 J0
X-26.7 Y39.75 I11.625 J0
X-52.8 Y39.75 I-13.05 J0
X-23.85 Y39.75 I14.475 J0
X-55.65 Y39.75 I-15.9 J0
X-21 Y39.75 I17.325 J0
X-58.5 Y39.75 I-18.75 J0
X-18.15 Y39.75 I20.175 J0
X-61.35 Y39.75 I-21.6 J0
X-15.3 Y39.75 I23.025 J0
X-64.2 Y39.75 I-24.45 J0
X-15.3 Y39.75 I24.45 J0
G2 X-13.981 Y41.794 I2.243 J0
G3 X-12.823 Y43.933 I-0.828 J1.831
X-31.329 Y65.666 I-26.927 J-4.183
X-61.796 Y55.767 I-8.421 J-25.916
X-61.796 Y23.733 I22.046 J-16.017
X-31.329 Y13.834 I22.046 J16.017
X-12.5 Y39.75 I-8.421 J25.916
X-12.823 Y43.933 I-27.25 J0
X-15.019 Y44.964 I-1.445 J-0.225
G1 X-29.018 Y36.582
X-29.118 Y36.517
X-29.212 Y36.443
G2 X-30.99 Y36.356 I-0.946 J1.116
G1 X-35.52 Y39.49
G3 X-36.352 Y39.75 I-0.832 J-1.203
G1 X-38.55 Z-8 F333.3
G3 X-38.1 Y39.75 I0.225 J0 F600
X-41.4 Y39.75 I-1.65 J0
X-35.25 Y39.75 I3.075 J0
X-44.25 Y39.75 I-4.5 J0
X-32.4 Y39.75 I5.925 J0
X-47.1 Y39.75 I-7.35 J0
X-29.55 Y39.75 I8.775 J0
X-49.95 Y39.75 I-10.2 J0
X-26.7 Y39.75 I11.625 J0
X-52.8 Y39.75 I-13.05 J0
X-23.85 Y39.75 I14.475 J0
X-55.65 Y39.75 I-15.9 J0
X-21 Y39.75 I17.325 J0
X-58.5 Y39.75 I-18.75 J0
X-18.15 Y39.75 I20.175 J0
X-61.35 Y39.75 I-21.6 J0
X-15.3 Y39.75 I23.025 J0
X-64.2 Y39.75 I-24.45 J0
X-15.3 Y39.75 I24.45 J0
G2 X-13.981 Y41.794 I2.243 J0
G3 X-12.823 Y43.933 I-0.828 J1.831
X-31.329 Y65.666 I-26.927 J-4.183
X-61.796 Y55.767 I-8.421 J-25.916
X-61.796 Y23.733 I22.046 J-16.017
X-31.329 Y13.834 I22.046 J16.017
X-12.5 Y39.75 I-8.421 J25.916
X-12.823 Y43.933 I-27.25 J0
X-15.019 Y44.964 I-1.445 J-0.225
G1 X-29.018 Y36.582
X-29.118 Y36.517
X-29.212 Y36.443
G2 X-30.99 Y36.356 I-0.946 J1.116
G1 X-35.52 Y39.49
G3 X-36.352 Y39.75 I-0.832 J-1.203
G1 X-38.55 Z-8.8 F333.3
G3 X-38.1 Y39.75 I0.225 J0 F600
X-41.4 Y39.75 I-1.65 J0
X-35.25 Y39.75 I3.075 J0
X-44.25 Y39.75 I-4.5 J0
X-32.4 Y39.75 I5.925 J0
X-47.1 Y39.75 I-7.35 J0
X-29.55 Y39.75 I8.775 J0
X-49.95 Y39.75 I-10.2 J0
X-26.7 Y39.75 I11.625 J0
X-52.8 Y39.75 I-13.05 J0
X-23.85 Y39.75 I14.475 J0
X-55.65 Y39.75 I-15.9 J0
X-21 Y39.75 I17.325 J0
X-58.5 Y39.75 I-18.75 J0
X-18.15 Y39.75 I20.175 J0
X-61.35 Y39.75 I-21.6 J0
X-15.3 Y39.75 I23.025 J0
X-64.2 Y39.75 I-24.45 J0
X-15.3 Y39.75 I24.45 J0
G2 X-13.981 Y41.794 I2.243 J0
G3 X-12.823 Y43.933 I-0.828 J1.831
X-31.329 Y65.666 I-26.927 J-4.183
X-61.796 Y55.767 I-8.421 J-25.916
X-61.796 Y23.733 I22.046 J-16.017
X-31.329 Y13.834 I22.046 J16.017
X-12.5 Y39.75 I-8.421 J25.916
X-12.823 Y43.933 I-27.25 J0
X-15.016 Y44.966 I-1.445 J-0.225
G1 X-29.202 Y36.527
X-29.302 Y36.461
X-29.397 Y36.388
G2 X-31.169 Y36.302 I-0.943 J1.118
G1 X-35.797 Y39.492
G3 X-36.627 Y39.75 I-0.83 J-1.204
G1 X-38.55 Z-9.5 F333.3
G3 X-38.1 Y39.75 I0.225 J0 F600
X-41.4 Y39.75 I-1.65 J0
X-35.25 Y39.75 I3.075 J0
X-44.25 Y39.75 I-4.5 J0
X-32.4 Y39.75 I5.925 J0
X-47.1 Y39.75 I-7.35 J0
X-29.55 Y39.75 I8.775 J0
X-49.95 Y39.75 I-10.2 J0
X-26.7 Y39.75 I11.625 J0
X-52.8 Y39.75 I-13.05 J0
X-23.85 Y39.75 I14.475 J0
X-55.65 Y39.75 I-15.9 J0
X-21 Y39.75 I17.325 J0
X-58.5 Y39.75 I-18.75 J0
X-18.15 Y39.75 I20.175 J0
X-61.35 Y39.75 I-21.6 J0
X-15.3 Y39.75 I23.025 J0
X-64.2 Y39.75 I-24.45 J0
X-15.3 Y39.75 I24.45 J0
G2 X-13.981 Y41.794 I2.243 J0
G3 X-12.823 Y43.933 I-0.828 J1.831
X-31.329 Y65.666 I-26.927 J-4.183
X-61.796 Y55.767 I-8.421 J-25.916
X-61.796 Y23.733 I22.046 J-16.017
X-31.329 Y13.834 I22.046 J16.017
X-12.5 Y39.75 I-8.421 J25.916
X-12.823 Y43.933 I-27.25 J0
G0 Z7
X-53.619 Y2.073
Z2
G1 Z1.8 F300
Z-0.8
G3 X-54.886 Y2.711 I-4.685 J-7.727
G2 X-67.935 Y11.295 I15.327 J37.507 F600
X-79.8 Y39.559 I27.73 J28.264
X-68.205 Y67.935 I40.517 J0
X-39.941 Y79.8 I28.264 J-27.73
X-11.565 Y68.205 I0 J-40.517
X0.3 Y39.941 I-27.73 J-28.264
X-11.295 Y11.565 I-40.517 J0
X-39.559 Y-0.3 I-28.264 J27.73
X-54.886 Y2.711 I0 J40.517
X-56.294 Y4.84 I0.857 J2.097
G3 X-57.581 Y7.045 I-2.47 J0.036
G2 X-77 Y39.75 I17.831 J32.705
X-39.941 Y77 I37.25 J0
G1 X-39.75
G2 X-39.75 Y2.5 I0 J-37.25
X-57.581 Y7.045 I0 J37.25
G1 X-57.615 Y7.056
X-57.651 Y7.052
X-57.682 Y7.035
X-57.703 Y7.007
X-57.712 Y6.972
X-57.735 Y6.548
X-57.995 Y3.992
X-58.002 Y3.874
X-57.997 Y3.838
X-57.978 Y3.807
X-57.948 Y3.787
X-57.913 Y3.78
X-57.877 Y3.788
X-57.848 Y3.809
X-57.83 Y3.84
X-57.826 Y3.876
X-57.837 Y3.911
X-57.86 Y3.938
Z-1.6 F300
G3 X-58.902 Y4.615 I-4.821 J-6.279
G2 X-67.935 Y11.295 I19.343 J35.602 F600
X-79.8 Y39.559 I27.73 J28.264
X-68.205 Y67.935 I40.517 J0
X-39.941 Y79.8 I28.264 J-27.73
X-11.565 Y68.205 I0 J-40.517
X0.3 Y39.941 I-27.73 J-28.264
X-11.295 Y11.565 I-40.517 J0
X-39.559 Y-0.3 I-28.264 J27.73
X-58.902 Y4.615 I0 J40.517
X-60.069 Y6.891 I1.082 J1.992
G3 X-61.106 Y9.23 I-2.456 J0.31
G2 X-77 Y39.75 I21.356 J30.52
X-39.941 Y77 I37.25 J0
G1 X-39.75
G2 X-39.75 Y2.5 I0 J-37.25
X-61.106 Y9.23 I0 J37.25
G1 X-61.131 Y9.241
X-61.158
X-61.183 Y9.231
X-61.203 Y9.212
X-61.214 Y9.187
X-61.286 Y8.857
X-62.023 Y6.385
X-62.052 Y6.309
X-62.056 Y6.28
X-62.048 Y6.251
X-62.028 Y6.228
X-62.001 Y6.215
X-61.971
X-61.943 Y6.228
X-61.924 Y6.251
X-61.916 Y6.28
X-61.92 Y6.31
X-61.937 Y6.335
Z-2.4 F300
G3 X-62.69 Y6.951 I-4.291 J-4.473
G2 X-67.935 Y11.295 I23.131 J33.266 F600
X-79.8 Y39.559 I27.73 J28.264
X-68.205 Y67.935 I40.517 J0
X-39.941 Y79.8 I28.264 J-27.73
X-11.565 Y68.205 I0 J-40.517
X0.3 Y39.941 I-27.73 J-28.264
X-11.295 Y11.565 I-40.517 J0
X-39.559 Y-0.3 I-28.264 J27.73
X-62.69 Y6.951 I0 J40.517
X-63.602 Y9.352 I1.298 J1.867
G3 X-64.376 Y11.801 I-2.417 J0.583
G2 X-77 Y39.75 I24.626 J27.949
X-39.941 Y77 I37.25 J0
G1 X-39.75
G2 X-39.75 Y2.5 I0 J-37.25
X-64.376 Y11.801 I0 J37.25
G1 X-64.402 Y11.816
X-64.432 Y11.819
X-64.46 Y11.81
X-64.483 Y11.791
X-64.496 Y11.764
X-64.585 Y11.421
X-65.335 Y8.839
X-65.362 Y8.752
X-65.364 Y8.719
X-65.35 Y8.688
X-65.325 Y8.666
X-65.292 Y8.658
X-65.259 Y8.666
X-65.233 Y8.688
X-65.22 Y8.719
X-65.223 Y8.753
X-65.24 Y8.782
Z-3.2 F300
G3 X-66.211 Y9.7 I-12.163 J-11.897
G2 X-67.935 Y11.295 I26.652 J30.518 F600
X-79.8 Y39.559 I27.73 J28.264
X-68.205 Y67.935 I40.517 J0
X-39.941 Y79.8 I28.264 J-27.73
X-11.565 Y68.205 I0 J-40.517
X0.3 Y39.941 I-27.73 J-28.264
X-11.295 Y11.565 I-40.517 J0
X-39.559 Y-0.3 I-28.264 J27.73
X-66.211 Y9.7 I0 J40.517
X-66.856 Y12.202 I1.504 J1.722
G3 X-67.354 Y14.738 I-2.353 J0.855
G2 X-77 Y39.75 I27.604 J25.012
X-39.941 Y77 I37.25 J0
G1 X-39.75
G2 X-39.75 Y2.5 I0 J-37.25
X-67.354 Y14.738 I0 J37.25
G3 X-68.155 Y14.631 I-0.363 J-0.329
G1 X-69.233 Y12.508
X-69.28 Y12.445
X-69.337 Y12.391
X-69.402 Y12.346
X-69.492 Y12.294
G3 X-69.003 Y11.444 I0.245 J-0.425
X-68.861 Y12.171 I-0.245 J0.425
G1 Z-4 F300
G3 X-69.428 Y12.842 I-8.828 J-6.881
G2 X-79.8 Y39.559 I29.223 J26.717 F600
X-68.205 Y67.935 I40.517 J0
X-39.941 Y79.8 I28.264 J-27.73
X-11.565 Y68.205 I0 J-40.517
X0.3 Y39.941 I-27.73 J-28.264
X-11.295 Y11.565 I-40.517 J0
X-39.559 Y-0.3 I-28.264 J27.73
X-67.935 Y11.295 I0 J40.517
X-69.428 Y12.842 I27.73 J28.264
X-69.791 Y15.42 I1.7 J1.554
G3 X-70.002 Y18.015 I-2.26 J1.122
G2 X-77 Y39.75 I30.252 J21.735
X-39.941 Y77 I37.25 J0
G1 X-39.75
G2 X-39.75 Y2.5 I0 J-37.25
X-70.002 Y18.015 I0 J37.25
G3 X-70.789 Y18.014 I-0.394 J-0.283
G1 X-72.129 Y16.143
X-72.166 Y16.097
X-72.526 Y15.971
G3 X-72.119 Y15.092 I0.204 J-0.44
X-71.909 Y15.784 I-0.204 J0.44
G1 Z-4.8 F300
G3 X-72.291 Y16.359 I-7.519 J-4.584
G2 X-79.8 Y39.559 I32.087 J23.2 F600
X-68.205 Y67.935 I40.517 J0
X-39.941 Y79.8 I28.264 J-27.73
X-11.565 Y68.205 I0 J-40.517
X0.3 Y39.941 I-27.73 J-28.264
X-11.295 Y11.565 I-40.517 J0
X-39.559 Y-0.3 I-28.264 J27.73
X-67.935 Y11.295 I0 J40.517
X-72.291 Y16.359 I27.73 J28.264
X-72.359 Y18.975 I1.877 J1.357
G3 X-72.274 Y21.591 I-2.13 J1.378
G2 X-77 Y39.75 I32.524 J18.159
X-39.941 Y77 I37.25 J0
G1 X-39.75
G2 X-39.75 Y2.5 I0 J-37.25
X-72.274 Y21.591 I0 J37.25
G3 X-73.161 Y21.628 I-0.455 J-0.254
G1 X-74.554 Y19.562
X-74.605 Y19.502
X-74.931 Y19.171
G3 X-74.189 Y18.439 I0.371 J-0.366
X-74.106 Y19.06 I-0.371 J0.366
G1 Z-5.6 F300
X-74.747 Y20.205
G2 X-79.8 Y39.559 I34.542 J19.354 F600
X-68.205 Y67.935 I40.517 J0
X-39.941 Y79.8 I28.264 J-27.73
X-11.565 Y68.205 I0 J-40.517
X0.3 Y39.941 I-27.73 J-28.264
X-11.295 Y11.565 I-40.517 J0
X-39.559 Y-0.3 I-28.264 J27.73
X-67.935 Y11.295 I0 J40.517
X-74.747 Y20.205 I27.73 J28.264
X-74.514 Y22.818 I2.028 J1.136
G3 X-74.131 Y25.414 I-1.965 J1.617
G2 X-77 Y39.75 I34.381 J14.336
X-39.941 Y77 I37.25 J0
G1 X-39.75
G2 X-39.75 Y2.5 I0 J-37.25
X-74.131 Y25.414 I0 J37.25
G3 X-75.027 Y25.547 I-0.488 J-0.204
G1 X-76.632 Y23.603
X-76.667 Y23.567
X-77.059 Y23.192
G3 X-76.328 Y22.428 I0.366 J-0.382
X-76.205 Y23.013 I-0.366 J0.382
G1 Z-6.4 F300
X-76.751 Y24.322
G2 X-79.8 Y39.559 I36.546 J15.237 F600
X-68.205 Y67.935 I40.517 J0
X-39.941 Y79.8 I28.264 J-27.73
X-11.565 Y68.205 I0 J-40.517
X0.3 Y39.941 I-27.73 J-28.264
X-11.295 Y11.565 I-40.517 J0
X-39.559 Y-0.3 I-28.264 J27.73
X-67.935 Y11.295 I0 J40.517
X-76.751 Y24.322 I27.73 J28.264
X-76.219 Y26.893 I2.149 J0.896
G3 X-75.542 Y29.429 I-1.768 J1.831
G2 X-77 Y39.75 I35.792 J10.321
X-39.941 Y77 I37.25 J0
G1 X-39.75
G2 X-39.75 Y2.5 I0 J-37.25
X-75.542 Y29.429 I0 J37.25
G3 X-76.347 Y29.682 I-0.486 J-0.14
G1 X-78.246 Y28.142
X-78.293 Y28.113
X-78.343 Y28.089
X-78.694 Y27.945
G3 X-78.308 Y27.009 I0.193 J-0.468
X-78.005 Y27.578 I-0.193 J0.468
G1 Z-7.2 F300
G3 X-78.267 Y28.648 I-13.748 J-2.796
G2 X-79.8 Y39.559 I38.062 J10.911 F600
X-68.205 Y67.935 I40.517 J0
X-39.941 Y79.8 I28.264 J-27.73
X-11.565 Y68.205 I0 J-40.517
X0.3 Y39.941 I-27.73 J-28.264
X-11.295 Y11.565 I-40.517 J0
X-39.559 Y-0.3 I-28.264 J27.73
X-67.935 Y11.295 I0 J40.517
X-78.267 Y28.648 I27.73 J28.264
X-77.445 Y31.136 I2.236 J0.641
G3 X-76.484 Y33.573 I-1.544 J2.017
G2 X-77 Y39.75 I36.734 J6.177
X-39.941 Y77 I37.25 J0
G1 X-39.75
G2 X-39.75 Y2.5 I0 J-37.25
X-76.484 Y33.573 I0 J37.25
G1 X-76.496 Y33.603
X-76.518 Y33.626
X-76.547 Y33.639
X-76.579
X-76.608 Y33.628
X-76.935 Y33.414
X-79.17 Y32.16
X-79.243 Y32.133
X-79.272 Y32.114
X-79.29 Y32.086
X-79.294 Y32.052
X-79.283 Y32.02
X-79.259 Y31.996
X-79.227 Y31.984
X-79.193 Y31.988
X-79.164 Y32.005
X-79.146 Y32.033
X-79.141 Y32.067
Z-8 F300
G3 X-79.272 Y33.113 I-13.384 J-1.14
G2 X-79.8 Y39.559 I39.067 J6.446 F600
X-68.205 Y67.935 I40.517 J0
X-39.941 Y79.8 I28.264 J-27.73
X-11.565 Y68.205 I0 J-40.517
X0.3 Y39.941 I-27.73 J-28.264
X-11.295 Y11.565 I-40.517 J0
X-39.559 Y-0.3 I-28.264 J27.73
X-67.935 Y11.295 I0 J40.517
X-79.272 Y33.113 I27.73 J28.264
X-78.175 Y35.481 I2.288 J0.377
G3 X-76.948 Y37.783 I-1.298 J2.169
G2 X-77 Y39.75 I37.198 J1.967
X-39.941 Y77 I37.25 J0
G1 X-39.75
G2 X-39.75 Y2.5 I0 J-37.25
X-76.948 Y37.783 I0 J37.25
G1 X-76.956 Y37.814
X-76.975 Y37.839
X-77.002 Y37.855
X-77.033 Y37.859
X-77.063 Y37.851
X-77.411 Y37.682
X-79.761 Y36.743
X-79.834 Y36.729
X-79.865 Y36.716
X-79.888 Y36.69
X-79.897 Y36.658
X-79.891 Y36.624
X-79.871 Y36.597
X-79.841 Y36.581
X-79.807 Y36.579
X-79.776 Y36.593
X-79.753 Y36.619
X-79.745 Y36.652
Z-8.8 F300
G3 X-79.754 Y37.648 I-12.68 J0.384
G2 X-79.8 Y39.559 I39.549 J1.911 F600
X-68.205 Y67.935 I40.517 J0
X-39.941 Y79.8 I28.264 J-27.73
X-11.565 Y68.205 I0 J-40.517
X0.3 Y39.941 I-27.73 J-28.264
X-11.295 Y11.565 I-40.517 J0
X-39.559 Y-0.3 I-28.264 J27.73
X-67.935 Y11.295 I0 J40.517
X-79.754 Y37.648 I27.73 J28.264
X-78.402 Y39.86 I2.303 J0.111
G3 X-76.932 Y41.995 I-1.036 J2.286
G2 X-39.941 Y77 I37.183 J-2.244
G1 X-39.75
G2 X-39.75 Y2.5 I0 J-37.25
X-77 Y39.75 I0 J37.25
X-76.932 Y41.995 I37.25 J0
G1 X-76.937 Y42.026
X-76.953 Y42.054
X-76.979 Y42.073
X-77.01 Y42.08
X-77.042 Y42.074
X-77.399 Y41.931
X-79.849 Y41.093
X-79.934 Y41.071
X-79.963 Y41.056
X-79.984 Y41.03
X-79.991 Y40.999
X-79.985 Y40.966
X-79.966 Y40.94
X-79.938 Y40.924
X-79.905 Y40.921
X-79.874 Y40.932
X-79.851 Y40.955
X-79.839 Y40.986
Z-9.6 F300
G3 X-79.715 Y42.175 I-15.067 J2.172
G2 X-68.205 Y67.935 I40.433 J-2.616 F600
X-39.941 Y79.8 I28.264 J-27.73
X-11.565 Y68.205 I0 J-40.517
X0.3 Y39.941 I-27.73 J-28.264
X-11.295 Y11.565 I-40.517 J0
X-39.559 Y-0.3 I-28.264 J27.73
X-67.935 Y11.295 I0 J40.517
X-79.8 Y39.559 I27.73 J28.264
X-79.715 Y42.175 I40.517 J0
X-78.135 Y44.205 I2.284 J-0.148
G3 X-76.447 Y46.148 I-0.765 J2.37
G2 X-39.941 Y77 I36.697 J-6.397
G1 X-39.75
G2 X-39.75 Y2.5 I0 J-37.25
X-77 Y39.75 I0 J37.25
X-76.447 Y46.148 I37.25 J0
G1 X-76.448 Y46.18
X-76.462 Y46.21
X-76.486 Y46.232
X-76.517 Y46.242
X-76.55 Y46.239
X-76.92 Y46.125
X-79.468 Y45.424
X-79.563 Y45.398
X-79.592 Y45.383
X-79.612 Y45.358
X-79.62 Y45.327
X-79.615 Y45.295
X-79.597 Y45.268
X-79.57 Y45.251
X-79.538 Y45.246
X-79.507 Y45.254
X-79.482 Y45.275
X-79.468 Y45.304
Z-10.4 F300
G3 X-79.178 Y46.632 I-16.757 J4.35
G2 X-68.205 Y67.935 I39.895 J-7.073 F600
X-39.941 Y79.8 I28.264 J-27.73
X-11.565 Y68.205 I0 J-40.517
X0.3 Y39.941 I-27.73 J-28.264
X-11.295 Y11.565 I-40.517 J0
X-39.559 Y-0.3 I-28.264 J27.73
X-67.935 Y11.295 I0 J40.517
X-79.8 Y39.559 I27.73 J28.264
X-79.178 Y46.632 I40.517 J0
X-77.39 Y48.465 I2.241 J-0.397
G3 X-75.505 Y50.198 I-0.493 J2.428
G2 X-39.941 Y77 I35.755 J-10.448
G1 X-39.75
G2 X-39.75 Y2.5 I0 J-37.25
X-77 Y39.75 I0 J37.25
X-75.505 Y50.198 I37.25 J0
G1 X-75.502 Y50.232
X-75.513 Y50.264
X-75.536 Y50.289
X-75.567 Y50.302
X-75.601
X-75.986 Y50.221
X-78.614 Y49.719
X-78.718 Y49.695
X-78.747 Y49.682
X-78.769 Y49.657
X-78.779 Y49.626
X-78.776 Y49.594
X-78.76 Y49.566
X-78.734 Y49.546
X-78.702 Y49.538
X-78.67 Y49.544
X-78.643 Y49.562
X-78.625 Y49.589
Z-11.2 F300
G3 X-78.158 Y50.978 I-17.432 J6.646
G2 X-68.205 Y67.935 I38.875 J-11.419 F600
X-39.941 Y79.8 I28.264 J-27.73
X-11.565 Y68.205 I0 J-40.517
X0.3 Y39.941 I-27.73 J-28.264
X-11.295 Y11.565 I-40.517 J0
X-39.559 Y-0.3 I-28.264 J27.73
X-67.935 Y11.295 I0 J40.517
X-79.8 Y39.559 I27.73 J28.264
X-78.158 Y50.978 I40.517 J0
X-76.183 Y52.598 I2.176 J-0.639
G3 X-74.122 Y54.107 I-0.22 J2.461
G2 X-39.941 Y77 I34.373 J-14.356
G1 X-39.75
G2 X-39.75 Y2.5 I0 J-37.25
X-77 Y39.75 I0 J37.25
X-74.122 Y54.107 I37.25 J0
G1 X-74.116 Y54.139
X-74.122 Y54.172
X-74.141 Y54.2
X-74.169 Y54.218
X-74.202 Y54.225
X-74.614 Y54.222
X-77.1 Y54.381
X-77.199 Y54.392
X-77.235 Y54.389
X-77.266 Y54.371
X-77.286 Y54.341
X-77.293 Y54.306
X-77.285 Y54.271
X-77.263 Y54.243
X-77.231 Y54.227
X-77.195 Y54.225
X-77.162 Y54.238
X-77.137 Y54.264
Z-12 F300
G3 X-76.671 Y55.171 I-5.53 J3.411
G2 X-68.205 Y67.935 I37.389 J-15.612 F600
X-39.941 Y79.8 I28.264 J-27.73
X-11.565 Y68.205 I0 J-40.517
X0.3 Y39.941 I-27.73 J-28.264
X-11.295 Y11.565 I-40.517 J0
X-39.559 Y-0.3 I-28.264 J27.73
X-67.935 Y11.295 I0 J40.517
X-79.8 Y39.559 I27.73 J28.264
X-76.671 Y55.171 I40.517 J0
X-74.531 Y56.563 I2.09 J-0.873
G3 X-72.316 Y57.833 I0.055 J2.47
G2 X-39.941 Y77 I32.567 J-18.083
G1 X-39.75
G2 X-39.75 Y2.5 I0 J-37.25
X-77 Y39.75 I0 J37.25
X-72.316 Y57.833 I37.25 J0
G1 X-72.306 Y57.867
X-72.309 Y57.902
X-72.325 Y57.933
X-72.352 Y57.955
X-72.386 Y57.965
X-72.812 Y58.005
X-75.271 Y58.404
X-75.377 Y58.424
X-75.415
X-75.449 Y58.407
X-75.473 Y58.379
X-75.483 Y58.343
X-75.477 Y58.306
X-75.457 Y58.275
X-75.426 Y58.254
X-75.389 Y58.249
X-75.353 Y58.259
X-75.324 Y58.283
Z-12.8 F300
G3 X-74.736 Y59.172 I-5.359 J4.179
G2 X-68.205 Y67.935 I35.454 J-19.613 F600
X-39.941 Y79.8 I28.264 J-27.73
X-11.565 Y68.205 I0 J-40.517
X0.3 Y39.941 I-27.73 J-28.264
X-11.295 Y11.565 I-40.517 J0
X-39.559 Y-0.3 I-28.264 J27.73
X-67.935 Y11.295 I0 J40.517
X-79.8 Y39.559 I27.73 J28.264
X-74.736 Y59.172 I40.517 J0
X-72.451 Y60.322 I1.984 J-1.098
G3 X-70.105 Y61.341 I0.329 J2.454
G2 X-39.941 Y77 I30.355 J-21.591
G1 X-39.75
G2 X-39.75 Y2.5 I0 J-37.25
X-77 Y39.75 I0 J37.25
X-70.105 Y61.341 I37.25 J0
G1 X-70.093 Y61.366
Y61.394
X-70.103 Y61.42
X-70.122 Y61.44
X-70.148 Y61.45
X-70.479 Y61.517
X-73.022 Y62.19
X-73.107 Y62.213
X-73.14 Y62.215
X-73.17 Y62.201
X-73.19 Y62.175
X-73.197 Y62.143
X-73.188 Y62.112
X-73.167 Y62.087
X-73.136 Y62.075
X-73.103 Y62.078
X-73.076 Y62.096
Z-13.6 F300
G3 X-72.371 Y62.943 I-5.029 J4.898
G2 X-68.205 Y67.935 I33.089 J-23.384 F600
X-39.941 Y79.8 I28.264 J-27.73
X-11.565 Y68.205 I0 J-40.517
X0.3 Y39.941 I-27.73 J-28.264
X-11.295 Y11.565 I-40.517 J0
X-39.559 Y-0.3 I-28.264 J27.73
X-67.935 Y11.295 I0 J40.517
X-79.8 Y39.559 I27.73 J28.264
X-72.371 Y62.943 I40.517 J0
X-69.963 Y63.837 I1.858 J-1.313
G3 X-67.507 Y64.592 I0.602 J2.414
G2 X-39.941 Y77 I27.757 J-24.842
G1 X-39.75
G2 X-39.75 Y2.5 I0 J-37.25
X-77 Y39.75 I0 J37.25
X-67.507 Y64.592 I37.25 J0
G1 X-67.492 Y64.617
X-67.488 Y64.646
X-67.496 Y64.675
X-67.514 Y64.698
X-67.54 Y64.712
X-67.882 Y64.821
X-70.332 Y65.762
X-70.417 Y65.796
X-70.45 Y65.8
X-70.482 Y65.79
X-70.506 Y65.766
X-70.516 Y65.734
X-70.511 Y65.7
X-70.491 Y65.673
X-70.461 Y65.657
X-70.428
X-70.397 Y65.671
Z-14 F300
G3 X-69.595 Y66.444 I-4.506 J5.48
G2 X-68.205 Y67.935 I30.313 J-26.885 F600
X-39.941 Y79.8 I28.264 J-27.73
X-11.565 Y68.205 I0 J-40.517
X0.3 Y39.941 I-27.73 J-28.264
X-11.295 Y11.565 I-40.517 J0
X-39.559 Y-0.3 I-28.264 J27.73
X-67.935 Y11.295 I0 J40.517
X-79.8 Y39.559 I27.73 J28.264
X-69.595 Y66.444 I40.517 J0
X-67.087 Y67.07 I1.711 J-1.518
G3 X-64.546 Y67.548 I0.873 J2.348
G2 X-39.941 Y77 I24.796 J-27.798
G1 X-39.75
G2 X-39.75 Y2.5 I0 J-37.25
X-77 Y39.75 I0 J37.25
X-64.546 Y67.548 I37.25 J0
G0 Z7
X-22.097 Y39.75
Z2
G1 Z1.8 F300
X-22.273 Z1.736 F333.3
X-17.627 Z0.045
X-19.95 Z-0.8
G3 X-18.2 Y39.75 I0.875 J0 F600
X-22.8 Y39.75 I-2.3 J0
X-15.35 Y39.75 I3.725 J0
X-25.65 Y39.75 I-5.15 J0
X-12.5 Y39.75 I6.575 J0
X-28.5 Y39.75 I-8 J0
X-12.5 Y39.75 I8 J0
X-13.461 Y40.305 I-0.641 J0
G1 X-16.087 Y38.789
G2 X-16.963 Y39.023 I-0.32 J0.555
G1 X-17.197 Y39.43
G3 X-17.752 Y39.75 I-0.555 J-0.32
G1 X-19.95 Z-1.6 F333.3
G3 X-18.2 Y39.75 I0.875 J0 F600
X-22.8 Y39.75 I-2.3 J0
X-15.35 Y39.75 I3.725 J0
X-25.65 Y39.75 I-5.15 J0
X-12.5 Y39.75 I6.575 J0
X-28.5 Y39.75 I-8 J0
X-12.5 Y39.75 I8 J0
X-13.461 Y40.305 I-0.641 J0
G1 X-16.087 Y38.789
G2 X-16.963 Y39.023 I-0.32 J0.555
G1 X-17.197 Y39.43
G3 X-17.752 Y39.75 I-0.555 J-0.32
G1 X-19.95 Z-2.4 F333.3
G3 X-18.2 Y39.75 I0.875 J0 F600
X-22.8 Y39.75 I-2.3 J0
X-15.35 Y39.75 I3.725 J0
X-25.65 Y39.75 I-5.15 J0
X-12.5 Y39.75 I6.575 J0
X-28.5 Y39.75 I-8 J0
X-12.5 Y39.75 I8 J0
X-13.461 Y40.305 I-0.641 J0
G1 X-16.087 Y38.789
G2 X-16.963 Y39.023 I-0.32 J0.555
G1 X-17.197 Y39.43
G3 X-17.752 Y39.75 I-0.555 J-0.32
G1 X-19.95 Z-3.2 F333.3
G3 X-18.2 Y39.75 I0.875 J0 F600
X-22.8 Y39.75 I-2.3 J0
X-15.35 Y39.75 I3.725 J0
X-25.65 Y39.75 I-5.15 J0
X-12.5 Y39.75 I6.575 J0
X-28.5 Y39.75 I-8 J0
X-12.5 Y39.75 I8 J0
X-13.461 Y40.305 I-0.641 J0
G1 X-16.087 Y38.789
G2 X-16.963 Y39.023 I-0.32 J0.555
G1 X-17.197 Y39.43
G3 X-17.752 Y39.75 I-0.555 J-0.32
G1 X-19.95 Z-4 F333.3
G3 X-18.2 Y39.75 I0.875 J0 F600
X-22.8 Y39.75 I-2.3 J0
X-15.35 Y39.75 I3.725 J0
X-25.65 Y39.75 I-5.15 J0
X-12.5 Y39.75 I6.575 J0
X-28.5 Y39.75 I-8 J0
X-12.5 Y39.75 I8 J0
X-13.461 Y40.305 I-0.641 J0
G1 X-16.087 Y38.789
G2 X-16.963 Y39.023 I-0.32 J0.555
G1 X-17.197 Y39.43
G3 X-17.752 Y39.75 I-0.555 J-0.32
G1 X-19.95 Z-4.8 F333.3
G3 X-18.2 Y39.75 I0.875 J0 F600
X-22.8 Y39.75 I-2.3 J0
X-15.35 Y39.75 I3.725 J0
X-25.65 Y39.75 I-5.15 J0
X-12.5 Y39.75 I6.575 J0
X-28.5 Y39.75 I-8 J0
X-12.5 Y39.75 I8 J0
X-13.461 Y40.305 I-0.641 J0
G1 X-16.087 Y38.789
G2 X-16.963 Y39.023 I-0.32 J0.555
G1 X-17.197 Y39.43
G3 X-17.752 Y39.75 I-0.555 J-0.32
G1 X-19.95 Z-5.6 F333.3
G3 X-18.2 Y39.75 I0.875 J0 F600
X-22.8 Y39.75 I-2.3 J0
X-15.35 Y39.75 I3.725 J0
X-25.65 Y39.75 I-5.15 J0
X-12.5 Y39.75 I6.575 J0
X-28.5 Y39.75 I-8 J0
X-12.5 Y39.75 I8 J0
X-13.461 Y40.305 I-0.641 J0
G1 X-16.087 Y38.789
G2 X-16.963 Y39.023 I-0.32 J0.555
G1 X-17.197 Y39.43
G3 X-17.752 Y39.75 I-0.555 J-0.32
G1 X-19.95 Z-6.4 F333.3
G3 X-18.2 Y39.75 I0.875 J0 F600
X-22.8 Y39.75 I-2.3 J0
X-15.35 Y39.75 I3.725 J0
X-25.65 Y39.75 I-5.15 J0
X-12.5 Y39.75 I6.575 J0
X-28.5 Y39.75 I-8 J0
X-12.5 Y39.75 I8 J0
X-13.461 Y40.305 I-0.641 J0
G1 X-16.087 Y38.789
G2 X-16.963 Y39.023 I-0.32 J0.555
G1 X-17.197 Y39.43
G3 X-17.752 Y39.75 I-0.555 J-0.32
G1 X-19.95 Z-7.2 F333.3
G3 X-18.2 Y39.75 I0.875 J0 F600
X-22.8 Y39.75 I-2.3 J0
X-15.35 Y39.75 I3.725 J0
X-25.65 Y39.75 I-5.15 J0
X-12.5 Y39.75 I6.575 J0
X-28.5 Y39.75 I-8 J0
X-12.5 Y39.75 I8 J0
X-13.461 Y40.305 I-0.641 J0
G1 X-16.087 Y38.789
G2 X-16.963 Y39.023 I-0.32 J0.555
G1 X-17.197 Y39.43
G3 X-17.752 Y39.75 I-0.555 J-0.32
G1 X-19.95 Z-8 F333.3
G3 X-18.2 Y39.75 I0.875 J0 F600
X-22.8 Y39.75 I-2.3 J0
X-15.35 Y39.75 I3.725 J0
X-25.65 Y39.75 I-5.15 J0
X-12.5 Y39.75 I6.575 J0
X-28.5 Y39.75 I-8 J0
X-12.5 Y39.75 I8 J0
X-13.461 Y40.305 I-0.641 J0
G1 X-16.087 Y38.789
G2 X-16.963 Y39.023 I-0.32 J0.555
G1 X-17.197 Y39.43
G3 X-17.752 Y39.75 I-0.555 J-0.32
G1 X-19.95 Z-8.8 F333.3
G3 X-18.2 Y39.75 I0.875 J0 F600
X-22.8 Y39.75 I-2.3 J0
X-15.35 Y39.75 I3.725 J0
X-25.65 Y39.75 I-5.15 J0
X-12.5 Y39.75 I6.575 J0
X-28.5 Y39.75 I-8 J0
X-12.5 Y39.75 I8 J0
X-13.461 Y40.305 I-0.641 J0
G1 X-16.087 Y38.789
G2 X-16.963 Y39.023 I-0.32 J0.555
G1 X-17.197 Y39.43
G3 X-17.752 Y39.75 I-0.555 J-0.32
G1 X-19.95 Z-9.6 F333.3
G3 X-18.2 Y39.75 I0.875 J0 F600
X-22.8 Y39.75 I-2.3 J0
X-15.35 Y39.75 I3.725 J0
X-25.65 Y39.75 I-5.15 J0
X-12.5 Y39.75 I6.575 J0
X-28.5 Y39.75 I-8 J0
X-12.5 Y39.75 I8 J0
X-13.461 Y40.305 I-0.641 J0
G1 X-16.087 Y38.789
G2 X-16.963 Y39.023 I-0.32 J0.555
G1 X-17.197 Y39.43
G3 X-17.752 Y39.75 I-0.555 J-0.32
G1 X-19.95 Z-10.4 F333.3
G3 X-18.2 Y39.75 I0.875 J0 F600
X-22.8 Y39.75 I-2.3 J0
X-15.35 Y39.75 I3.725 J0
X-25.65 Y39.75 I-5.15 J0
X-12.5 Y39.75 I6.575 J0
X-28.5 Y39.75 I-8 J0
X-12.5 Y39.75 I8 J0
X-13.461 Y40.305 I-0.641 J0
G1 X-16.087 Y38.789
G2 X-16.963 Y39.023 I-0.32 J0.555
G1 X-17.197 Y39.43
G3 X-17.752 Y39.75 I-0.555 J-0.32
G1 X-19.95 Z-11.2 F333.3
G3 X-18.2 Y39.75 I0.875 J0 F600
X-22.8 Y39.75 I-2.3 J0
X-15.35 Y39.75 I3.725 J0
X-25.65 Y39.75 I-5.15 J0
X-12.5 Y39.75 I6.575 J0
X-28.5 Y39.75 I-8 J0
X-12.5 Y39.75 I8 J0
X-13.461 Y40.305 I-0.641 J0
G1 X-16.087 Y38.789
G2 X-16.963 Y39.023 I-0.32 J0.555
G1 X-17.197 Y39.43
G3 X-17.752 Y39.75 I-0.555 J-0.32
G1 X-19.95 Z-12 F333.3
G3 X-18.2 Y39.75 I0.875 J0 F600
X-22.8 Y39.75 I-2.3 J0
X-15.35 Y39.75 I3.725 J0
X-25.65 Y39.75 I-5.15 J0
X-12.5 Y39.75 I6.575 J0
X-28.5 Y39.75 I-8 J0
X-12.5 Y39.75 I8 J0
X-13.461 Y40.305 I-0.641 J0
G1 X-16.087 Y38.789
G2 X-16.963 Y39.023 I-0.32 J0.555
G1 X-17.197 Y39.43
G3 X-17.752 Y39.75 I-0.555 J-0.32
G1 X-19.95 Z-12.8 F333.3
G3 X-18.2 Y39.75 I0.875 J0 F600
X-22.8 Y39.75 I-2.3 J0
X-15.35 Y39.75 I3.725 J0
X-25.65 Y39.75 I-5.15 J0
X-12.5 Y39.75 I6.575 J0
X-28.5 Y39.75 I-8 J0
X-12.5 Y39.75 I8 J0
X-13.461 Y40.305 I-0.641 J0
G1 X-16.087 Y38.789
G2 X-16.963 Y39.023 I-0.32 J0.555
G1 X-17.197 Y39.43
G3 X-17.752 Y39.75 I-0.555 J-0.32
G1 X-19.95 Z-13.6 F333.3
G3 X-18.2 Y39.75 I0.875 J0 F600
X-22.8 Y39.75 I-2.3 J0
X-15.35 Y39.75 I3.725 J0
X-25.65 Y39.75 I-5.15 J0
X-12.5 Y39.75 I6.575 J0
X-28.5 Y39.75 I-8 J0
X-12.5 Y39.75 I8 J0
X-13.461 Y40.305 I-0.641 J0
G1 X-16.087 Y38.789
G2 X-16.963 Y39.023 I-0.32 J0.555
G1 X-17.197 Y39.43
G3 X-17.752 Y39.75 I-0.555 J-0.32
G1 X-19.95 Z-14.4 F333.3
G3 X-18.2 Y39.75 I0.875 J0 F600
X-22.8 Y39.75 I-2.3 J0
X-15.35 Y39.75 I3.725 J0
X-25.65 Y39.75 I-5.15 J0
X-12.5 Y39.75 I6.575 J0
X-28.5 Y39.75 I-8 J0
X-12.5 Y39.75 I8 J0
X-13.461 Y40.305 I-0.641 J0
G1 X-16.087 Y38.789
G2 X-16.963 Y39.023 I-0.32 J0.555
G1 X-17.197 Y39.43
G3 X-17.752 Y39.75 I-0.555 J-0.32
G1 X-19.95 Z-15.2 F333.3
G3 X-18.2 Y39.75 I0.875 J0 F600
X-22.8 Y39.75 I-2.3 J0
X-15.35 Y39.75 I3.725 J0
X-25.65 Y39.75 I-5.15 J0
X-12.5 Y39.75 I6.575 J0
X-28.5 Y39.75 I-8 J0
X-12.5 Y39.75 I8 J0
X-13.461 Y40.305 I-0.641 J0
G1 X-16.087 Y38.789
G2 X-16.963 Y39.023 I-0.32 J0.555
G1 X-17.197 Y39.43
G3 X-17.752 Y39.75 I-0.555 J-0.32
G1 X-19.95 Z-16 F333.3
G3 X-18.2 Y39.75 I0.875 J0 F600
X-22.8 Y39.75 I-2.3 J0
X-15.35 Y39.75 I3.725 J0
X-25.65 Y39.75 I-5.15 J0
X-12.5 Y39.75 I6.575 J0
X-28.5 Y39.75 I-8 J0
X-12.5 Y39.75 I8 J0
X-13.461 Y40.305 I-0.641 J0
G1 X-16.087 Y38.789
G2 X-16.963 Y39.023 I-0.32 J0.555
G1 X-17.197 Y39.43
G3 X-17.752 Y39.75 I-0.555 J-0.32
G1 X-19.95 Z-16.8 F333.3
G3 X-18.2 Y39.75 I0.875 J0 F600
X-22.8 Y39.75 I-2.3 J0
X-15.35 Y39.75 I3.725 J0
X-25.65 Y39.75 I-5.15 J0
X-12.5 Y39.75 I6.575 J0
X-28.5 Y39.75 I-8 J0
X-12.5 Y39.75 I8 J0
X-13.461 Y40.305 I-0.641 J0
G1 X-16.087 Y38.789
G2 X-16.963 Y39.023 I-0.32 J0.555
G1 X-17.197 Y39.43
G3 X-17.752 Y39.75 I-0.555 J-0.32
G1 X-19.95 Z-17.6 F333.3
G3 X-18.2 Y39.75 I0.875 J0 F600
X-22.8 Y39.75 I-2.3 J0
X-15.35 Y39.75 I3.725 J0
X-25.65 Y39.75 I-5.15 J0
X-12.5 Y39.75 I6.575 J0
X-28.5 Y39.75 I-8 J0
X-12.5 Y39.75 I8 J0
X-13.662 Y40.421 I-0.775 J0
G1 X-16.838 Y38.588
G2 X-17.896 Y38.871 I-0.387 J0.671
G1 X-18.18 Y39.363
G3 X-18.851 Y39.75 I-0.671 J-0.387
G1 X-19.95 Z-18 F333.3
G3 X-18.2 Y39.75 I0.875 J0 F600
X-22.8 Y39.75 I-2.3 J0
X-15.35 Y39.75 I3.725 J0
X-25.65 Y39.75 I-5.15 J0
X-12.5 Y39.75 I6.575 J0
X-28.5 Y39.75 I-8 J0
X-12.5 Y39.75 I8 J0
G0 Z4
X-35.399 Y21.442
Z2
G1 Z1.8 F300
X-35.574 Z1.736 F333.3
X-30.929 Z0.045
X-33.251 Z-0.8
G3 X-31.501 Y21.442 I0.875 J0 F600
X-36.101 Y21.442 I-2.3 J0
X-28.651 Y21.442 I3.725 J0
X-38.951 Y21.442 I-5.15 J0
X-25.801 Y21.442 I6.575 J0
X-41.801 Y21.442 I-8 J0
X-25.801 Y21.442 I8 J0
X-28.22 Y22.549 I-1.462 J0
G1 X-32.124 Y19.174
G3 X-30.211 Y16.962 I0.956 J-1.106
X-29.707 Y17.981 I-0.956 J1.106
G1 X-29.594 Y19.893
G3 X-31.053 Y21.442 I-1.46 J0.087
G1 X-33.251 Z-1.6 F333.3
G3 X-31.501 Y21.442 I0.875 J0 F600
X-36.101 Y21.442 I-2.3 J0
X-28.651 Y21.442 I3.725 J0
X-38.951 Y21.442 I-5.15 J0
X-25.801 Y21.442 I6.575 J0
X-41.801 Y21.442 I-8 J0
X-25.801 Y21.442 I8 J0
X-28.22 Y22.549 I-1.462 J0
G1 X-32.124 Y19.174
G3 X-30.211 Y16.962 I0.956 J-1.106
X-29.707 Y17.981 I-0.956 J1.106
G1 X-29.594 Y19.893
G3 X-31.053 Y21.442 I-1.46 J0.087
G1 X-33.251 Z-2.4 F333.3
G3 X-31.501 Y21.442 I0.875 J0 F600
X-36.101 Y21.442 I-2.3 J0
X-28.651 Y21.442 I3.725 J0
X-38.951 Y21.442 I-5.15 J0
X-25.801 Y21.442 I6.575 J0
X-41.801 Y21.442 I-8 J0
X-25.801 Y21.442 I8 J0
X-28.22 Y22.549 I-1.462 J0
G1 X-32.124 Y19.174
G3 X-30.211 Y16.962 I0.956 J-1.106
X-29.707 Y17.981 I-0.956 J1.106
G1 X-29.594 Y19.893
G3 X-31.053 Y21.442 I-1.46 J0.087
G1 X-33.251 Z-3.2 F333.3
G3 X-31.501 Y21.442 I0.875 J0 F600
X-36.101 Y21.442 I-2.3 J0
X-28.651 Y21.442 I3.725 J0
X-38.951 Y21.442 I-5.15 J0
X-25.801 Y21.442 I6.575 J0
X-41.801 Y21.442 I-8 J0
X-25.801 Y21.442 I8 J0
X-28.22 Y22.549 I-1.462 J0
G1 X-32.124 Y19.174
G3 X-30.211 Y16.962 I0.956 J-1.106
X-29.707 Y17.981 I-0.956 J1.106
G1 X-29.594 Y19.893
G3 X-31.053 Y21.442 I-1.46 J0.087
G1 X-33.251 Z-4 F333.3
G3 X-31.501 Y21.442 I0.875 J0 F600
X-36.101 Y21.442 I-2.3 J0
X-28.651 Y21.442 I3.725 J0
X-38.951 Y21.442 I-5.15 J0
X-25.801 Y21.442 I6.575 J0
X-41.801 Y21.442 I-8 J0
X-25.801 Y21.442 I8 J0
X-28.22 Y22.549 I-1.462 J0
G1 X-32.124 Y19.174
G3 X-30.211 Y16.962 I0.956 J-1.106
X-29.707 Y17.981 I-0.956 J1.106
G1 X-29.594 Y19.893
G3 X-31.053 Y21.442 I-1.46 J0.087
G1 X-33.251 Z-4.8 F333.3
G3 X-31.501 Y21.442 I0.875 J0 F600
X-36.101 Y21.442 I-2.3 J0
X-28.651 Y21.442 I3.725 J0
X-38.951 Y21.442 I-5.15 J0
X-25.801 Y21.442 I6.575 J0
X-41.801 Y21.442 I-8 J0
X-25.801 Y21.442 I8 J0
X-28.22 Y22.549 I-1.462 J0
G1 X-32.124 Y19.174
G3 X-30.211 Y16.962 I0.956 J-1.106
X-29.707 Y17.981 I-0.956 J1.106
G1 X-29.594 Y19.893
G3 X-31.053 Y21.442 I-1.46 J0.087
G1 X-33.251 Z-5.6 F333.3
G3 X-31.501 Y21.442 I0.875 J0 F600
X-36.101 Y21.442 I-2.3 J0
X-28.651 Y21.442 I3.725 J0
X-38.951 Y21.442 I-5.15 J0
X-25.801 Y21.442 I6.575 J0
X-41.801 Y21.442 I-8 J0
X-25.801 Y21.442 I8 J0
X-28.22 Y22.549 I-1.462 J0
G1 X-32.124 Y19.174
G3 X-30.211 Y16.962 I0.956 J-1.106
X-29.707 Y17.981 I-0.956 J1.106
G1 X-29.594 Y19.893
G3 X-31.053 Y21.442 I-1.46 J0.087
G1 X-33.251 Z-6.4 F333.3
G3 X-31.501 Y21.442 I0.875 J0 F600
X-36.101 Y21.442 I-2.3 J0
X-28.651 Y21.442 I3.725 J0
X-38.951 Y21.442 I-5.15 J0
X-25.801 Y21.442 I6.575 J0
X-41.801 Y21.442 I-8 J0
X-25.801 Y21.442 I8 J0
X-28.22 Y22.549 I-1.462 J0
G1 X-32.124 Y19.174
G3 X-30.211 Y16.962 I0.956 J-1.106
X-29.707 Y17.981 I-0.956 J1.106
G1 X-29.594 Y19.893
G3 X-31.053 Y21.442 I-1.46 J0.087
G1 X-33.251 Z-7.2 F333.3
G3 X-31.501 Y21.442 I0.875 J0 F600
X-36.101 Y21.442 I-2.3 J0
X-28.651 Y21.442 I3.725 J0
X-38.951 Y21.442 I-5.15 J0
X-25.801 Y21.442 I6.575 J0
X-41.801 Y21.442 I-8 J0
X-25.801 Y21.442 I8 J0
X-28.22 Y22.549 I-1.462 J0
G1 X-32.124 Y19.174
G3 X-30.211 Y16.962 I0.956 J-1.106
X-29.707 Y17.981 I-0.956 J1.106
G1 X-29.594 Y19.893
G3 X-31.053 Y21.442 I-1.46 J0.087
G1 X-33.251 Z-8 F333.3
G3 X-31.501 Y21.442 I0.875 J0 F600
X-36.101 Y21.442 I-2.3 J0
X-28.651 Y21.442 I3.725 J0
X-38.951 Y21.442 I-5.15 J0
X-25.801 Y21.442 I6.575 J0
X-41.801 Y21.442 I-8 J0
X-25.801 Y21.442 I8 J0
X-28.22 Y22.549 I-1.462 J0
G1 X-32.124 Y19.174
G3 X-30.211 Y16.962 I0.956 J-1.106
X-29.707 Y17.981 I-0.956 J1.106
G1 X-29.594 Y19.893
G3 X-31.053 Y21.442 I-1.46 J0.087
G1 X-33.251 Z-8.8 F333.3
G3 X-31.501 Y21.442 I0.875 J0 F600
X-36.101 Y21.442 I-2.3 J0
X-28.651 Y21.442 I3.725 J0
X-38.951 Y21.442 I-5.15 J0
X-25.801 Y21.442 I6.575 J0
X-41.801 Y21.442 I-8 J0
X-25.801 Y21.442 I8 J0
X-28.22 Y22.549 I-1.462 J0
G1 X-32.124 Y19.174
G3 X-30.211 Y16.962 I0.956 J-1.106
X-29.707 Y17.981 I-0.956 J1.106
G1 X-29.594 Y19.893
G3 X-31.053 Y21.442 I-1.46 J0.087
G1 X-33.251 Z-9.6 F333.3
G3 X-31.501 Y21.442 I0.875 J0 F600
X-36.101 Y21.442 I-2.3 J0
X-28.651 Y21.442 I3.725 J0
X-38.951 Y21.442 I-5.15 J0
X-25.801 Y21.442 I6.575 J0
X-41.801 Y21.442 I-8 J0
X-25.801 Y21.442 I8 J0
X-28.22 Y22.549 I-1.462 J0
G1 X-32.124 Y19.174
G3 X-30.211 Y16.962 I0.956 J-1.106
X-29.707 Y17.981 I-0.956 J1.106
G1 X-29.594 Y19.893
G3 X-31.053 Y21.442 I-1.46 J0.087
G1 X-33.251 Z-10.4 F333.3
G3 X-31.501 Y21.442 I0.875 J0 F600
X-36.101 Y21.442 I-2.3 J0
X-28.651 Y21.442 I3.725 J0
X-38.951 Y21.442 I-5.15 J0
X-25.801 Y21.442 I6.575 J0
X-41.801 Y21.442 I-8 J0
X-25.801 Y21.442 I8 J0
X-28.22 Y22.549 I-1.462 J0
G1 X-32.124 Y19.174
G3 X-30.211 Y16.962 I0.956 J-1.106
X-29.707 Y17.981 I-0.956 J1.106
G1 X-29.594 Y19.893
G3 X-31.053 Y21.442 I-1.46 J0.087
G1 X-33.251 Z-11.2 F333.3
G3 X-31.501 Y21.442 I0.875 J0 F600
X-36.101 Y21.442 I-2.3 J0
X-28.651 Y21.442 I3.725 J0
X-38.951 Y21.442 I-5.15 J0
X-25.801 Y21.442 I6.575 J0
X-41.801 Y21.442 I-8 J0
X-25.801 Y21.442 I8 J0
X-28.22 Y22.549 I-1.462 J0
G1 X-32.124 Y19.174
G3 X-30.211 Y16.962 I0.956 J-1.106
X-29.707 Y17.981 I-0.956 J1.106
G1 X-29.594 Y19.893
G3 X-31.053 Y21.442 I-1.46 J0.087
G1 X-33.251 Z-12 F333.3
G3 X-31.501 Y21.442 I0.875 J0 F600
X-36.101 Y21.442 I-2.3 J0
X-28.651 Y21.442 I3.725 J0
X-38.951 Y21.442 I-5.15 J0
X-25.801 Y21.442 I6.575 J0
X-41.801 Y21.442 I-8 J0
X-25.801 Y21.442 I8 J0
X-28.22 Y22.549 I-1.462 J0
G1 X-32.124 Y19.174
G3 X-30.211 Y16.962 I0.956 J-1.106
X-29.707 Y17.981 I-0.956 J1.106
G1 X-29.594 Y19.893
G3 X-31.053 Y21.442 I-1.46 J0.087
G1 X-33.251 Z-12.8 F333.3
G3 X-31.501 Y21.442 I0.875 J0 F600
X-36.101 Y21.442 I-2.3 J0
X-28.651 Y21.442 I3.725 J0
X-38.951 Y21.442 I-5.15 J0
X-25.801 Y21.442 I6.575 J0
X-41.801 Y21.442 I-8 J0
X-25.801 Y21.442 I8 J0
X-28.22 Y22.549 I-1.462 J0
G1 X-32.124 Y19.174
G3 X-30.211 Y16.962 I0.956 J-1.106
X-29.707 Y17.981 I-0.956 J1.106
G1 X-29.594 Y19.893
G3 X-31.053 Y21.442 I-1.46 J0.087
G1 X-33.251 Z-13.6 F333.3
G3 X-31.501 Y21.442 I0.875 J0 F600
X-36.101 Y21.442 I-2.3 J0
X-28.651 Y21.442 I3.725 J0
X-38.951 Y21.442 I-5.15 J0
X-25.801 Y21.442 I6.575 J0
X-41.801 Y21.442 I-8 J0
X-25.801 Y21.442 I8 J0
X-28.22 Y22.549 I-1.462 J0
G1 X-32.124 Y19.174
G3 X-30.211 Y16.962 I0.956 J-1.106
X-29.707 Y17.981 I-0.956 J1.106
G1 X-29.594 Y19.893
G3 X-31.053 Y21.442 I-1.46 J0.087
G1 X-33.251 Z-14.4 F333.3
G3 X-31.501 Y21.442 I0.875 J0 F600
X-36.101 Y21.442 I-2.3 J0
X-28.651 Y21.442 I3.725 J0
X-38.951 Y21.442 I-5.15 J0
X-25.801 Y21.442 I6.575 J0
X-41.801 Y21.442 I-8 J0
X-25.801 Y21.442 I8 J0
X-28.22 Y22.549 I-1.462 J0
G1 X-32.124 Y19.174
G3 X-30.211 Y16.962 I0.956 J-1.106
X-29.707 Y17.981 I-0.956 J1.106
G1 X-29.594 Y19.893
G3 X-31.053 Y21.442 I-1.46 J0.087
G1 X-33.251 Z-15.2 F333.3
G3 X-31.501 Y21.442 I0.875 J0 F600
X-36.101 Y21.442 I-2.3 J0
X-28.651 Y21.442 I3.725 J0
X-38.951 Y21.442 I-5.15 J0
X-25.801 Y21.442 I6.575 J0
X-41.801 Y21.442 I-8 J0
X-25.801 Y21.442 I8 J0
X-28.22 Y22.549 I-1.462 J0
G1 X-32.124 Y19.174
G3 X-30.211 Y16.962 I0.956 J-1.106
X-29.707 Y17.981 I-0.956 J1.106
G1 X-29.594 Y19.893
G3 X-31.053 Y21.442 I-1.46 J0.087
G1 X-33.251 Z-16 F333.3
G3 X-31.501 Y21.442 I0.875 J0 F600
X-36.101 Y21.442 I-2.3 J0
X-28.651 Y21.442 I3.725 J0
X-38.951 Y21.442 I-5.15 J0
X-25.801 Y21.442 I6.575 J0
X-41.801 Y21.442 I-8 J0
X-25.801 Y21.442 I8 J0
X-28.22 Y22.549 I-1.462 J0
G1 X-32.124 Y19.174
G3 X-30.211 Y16.962 I0.956 J-1.106
X-29.707 Y17.981 I-0.956 J1.106
G1 X-29.594 Y19.893
G3 X-31.053 Y21.442 I-1.46 J0.087
G1 X-33.251 Z-16.8 F333.3
G3 X-31.501 Y21.442 I0.875 J0 F600
X-36.101 Y21.442 I-2.3 J0
X-28.651 Y21.442 I3.725 J0
X-38.951 Y21.442 I-5.15 J0
X-25.801 Y21.442 I6.575 J0
X-41.801 Y21.442 I-8 J0
X-25.801 Y21.442 I8 J0
X-28.22 Y22.549 I-1.462 J0
G1 X-32.124 Y19.174
G3 X-30.211 Y16.962 I0.956 J-1.106
X-29.707 Y17.981 I-0.956 J1.106
G1 X-29.594 Y19.893
G3 X-31.053 Y21.442 I-1.46 J0.087
G1 X-33.251 Z-17.6 F333.3
G3 X-31.501 Y21.442 I0.875 J0 F600
X-36.101 Y21.442 I-2.3 J0
X-28.651 Y21.442 I3.725 J0
X-38.951 Y21.442 I-5.15 J0
X-25.801 Y21.442 I6.575 J0
X-41.801 Y21.442 I-8 J0
X-25.801 Y21.442 I8 J0
X-28.526 Y22.181 I-1.462 J0
G1 X-31.741 Y16.687
G3 X-29.216 Y15.21 I1.262 J-0.739
X-29.128 Y16.509 I-1.262 J0.739
G1 X-30.802 Y20.54
G3 X-32.152 Y21.442 I-1.351 J-0.561
G1 X-33.251 Z-18 F333.3
G3 X-31.501 Y21.442 I0.875 J0 F600
X-36.101 Y21.442 I-2.3 J0
X-28.651 Y21.442 I3.725 J0
X-38.951 Y21.442 I-5.15 J0
X-25.801 Y21.442 I6.575 J0
X-41.801 Y21.442 I-8 J0
X-25.801 Y21.442 I8 J0
G0 Z4
X-56.921 Y28.435
Z2
G1 Z1.8 F300
X-57.096 Z1.736 F333.3
X-52.451 Z0.045
X-54.773 Z-0.8
G3 X-53.024 Y28.435 I0.875 J0 F600
X-57.623 Y28.435 I-2.3 J0
X-50.174 Y28.435 I3.725 J0
X-60.473 Y28.435 I-5.15 J0
X-47.324 Y28.435 I6.575 J0
X-63.323 Y28.435 I-8 J0
X-47.324 Y28.435 I8 J0
X-50.23 Y28.667 I-1.462 J0
G1 X-51.087 Y23.336
G3 X-50.826 Y22.244 I1.444 J-0.232
X-50.301 Y22.519 I0.242 J0.176
G1 X-52.293 Y28.234
G3 X-52.576 Y28.435 I-0.283 J-0.098
G1 X-54.773 Z-1.6 F333.3
G3 X-53.024 Y28.435 I0.875 J0 F600
X-57.623 Y28.435 I-2.3 J0
X-50.174 Y28.435 I3.725 J0
X-60.473 Y28.435 I-5.15 J0
X-47.324 Y28.435 I6.575 J0
X-63.323 Y28.435 I-8 J0
X-47.324 Y28.435 I8 J0
X-50.23 Y28.667 I-1.462 J0
G1 X-51.087 Y23.336
G3 X-50.826 Y22.244 I1.444 J-0.232
X-50.301 Y22.519 I0.242 J0.176
G1 X-52.293 Y28.234
G3 X-52.576 Y28.435 I-0.283 J-0.098
G1 X-54.773 Z-2.4 F333.3
G3 X-53.024 Y28.435 I0.875 J0 F600
X-57.623 Y28.435 I-2.3 J0
X-50.174 Y28.435 I3.725 J0
X-60.473 Y28.435 I-5.15 J0
X-47.324 Y28.435 I6.575 J0
X-63.323 Y28.435 I-8 J0
X-47.324 Y28.435 I8 J0
X-50.23 Y28.667 I-1.462 J0
G1 X-51.087 Y23.336
G3 X-50.826 Y22.244 I1.444 J-0.232
X-50.301 Y22.519 I0.242 J0.176
G1 X-52.293 Y28.234
G3 X-52.576 Y28.435 I-0.283 J-0.098
G1 X-54.773 Z-3.2 F333.3
G3 X-53.024 Y28.435 I0.875 J0 F600
X-57.623 Y28.435 I-2.3 J0
X-50.174 Y28.435 I3.725 J0
X-60.473 Y28.435 I-5.15 J0
X-47.324 Y28.435 I6.575 J0
X-63.323 Y28.435 I-8 J0
X-47.324 Y28.435 I8 J0
X-50.23 Y28.667 I-1.462 J0
G1 X-51.087 Y23.336
G3 X-50.826 Y22.244 I1.444 J-0.232
X-50.301 Y22.519 I0.242 J0.176
G1 X-52.293 Y28.234
G3 X-52.576 Y28.435 I-0.283 J-0.098
G1 X-54.773 Z-4 F333.3
G3 X-53.024 Y28.435 I0.875 J0 F600
X-57.623 Y28.435 I-2.3 J0
X-50.174 Y28.435 I3.725 J0
X-60.473 Y28.435 I-5.15 J0
X-47.324 Y28.435 I6.575 J0
X-63.323 Y28.435 I-8 J0
X-47.324 Y28.435 I8 J0
X-50.23 Y28.667 I-1.462 J0
G1 X-51.087 Y23.336
G3 X-50.826 Y22.244 I1.444 J-0.232
X-50.301 Y22.519 I0.242 J0.176
G1 X-52.293 Y28.234
G3 X-52.576 Y28.435 I-0.283 J-0.098
G1 X-54.773 Z-4.8 F333.3
G3 X-53.024 Y28.435 I0.875 J0 F600
X-57.623 Y28.435 I-2.3 J0
X-50.174 Y28.435 I3.725 J0
X-60.473 Y28.435 I-5.15 J0
X-47.324 Y28.435 I6.575 J0
X-63.323 Y28.435 I-8 J0
X-47.324 Y28.435 I8 J0
X-50.23 Y28.667 I-1.462 J0
G1 X-51.087 Y23.336
G3 X-50.826 Y22.244 I1.444 J-0.232
X-50.301 Y22.519 I0.242 J0.176
G1 X-52.293 Y28.234
G3 X-52.576 Y28.435 I-0.283 J-0.098
G1 X-54.773 Z-5.6 F333.3
G3 X-53.024 Y28.435 I0.875 J0 F600
X-57.623 Y28.435 I-2.3 J0
X-50.174 Y28.435 I3.725 J0
X-60.473 Y28.435 I-5.15 J0
X-47.324 Y28.435 I6.575 J0
X-63.323 Y28.435 I-8 J0
X-47.324 Y28.435 I8 J0
X-50.23 Y28.667 I-1.462 J0
G1 X-51.087 Y23.336
G3 X-50.826 Y22.244 I1.444 J-0.232
X-50.301 Y22.519 I0.242 J0.176
G1 X-52.293 Y28.234
G3 X-52.576 Y28.435 I-0.283 J-0.098
G1 X-54.773 Z-6.4 F333.3
G3 X-53.024 Y28.435 I0.875 J0 F600
X-57.623 Y28.435 I-2.3 J0
X-50.174 Y28.435 I3.725 J0
X-60.473 Y28.435 I-5.15 J0
X-47.324 Y28.435 I6.575 J0
X-63.323 Y28.435 I-8 J0
X-47.324 Y28.435 I8 J0
X-50.23 Y28.667 I-1.462 J0
G1 X-51.087 Y23.336
G3 X-50.826 Y22.244 I1.444 J-0.232
X-50.301 Y22.519 I0.242 J0.176
G1 X-52.293 Y28.234
G3 X-52.576 Y28.435 I-0.283 J-0.098
G1 X-54.773 Z-7.2 F333.3
G3 X-53.024 Y28.435 I0.875 J0 F600
X-57.623 Y28.435 I-2.3 J0
X-50.174 Y28.435 I3.725 J0
X-60.473 Y28.435 I-5.15 J0
X-47.324 Y28.435 I6.575 J0
X-63.323 Y28.435 I-8 J0
X-47.324 Y28.435 I8 J0
X-50.23 Y28.667 I-1.462 J0
G1 X-51.087 Y23.336
G3 X-50.826 Y22.244 I1.444 J-0.232
X-50.301 Y22.519 I0.242 J0.176
G1 X-52.293 Y28.234
G3 X-52.576 Y28.435 I-0.283 J-0.098
G1 X-54.773 Z-8 F333.3
G3 X-53.024 Y28.435 I0.875 J0 F600
X-57.623 Y28.435 I-2.3 J0
X-50.174 Y28.435 I3.725 J0
X-60.473 Y28.435 I-5.15 J0
X-47.324 Y28.435 I6.575 J0
X-63.323 Y28.435 I-8 J0
X-47.324 Y28.435 I8 J0
X-50.23 Y28.667 I-1.462 J0
G1 X-51.087 Y23.336
G3 X-50.826 Y22.244 I1.444 J-0.232
X-50.301 Y22.519 I0.242 J0.176
G1 X-52.293 Y28.234
G3 X-52.576 Y28.435 I-0.283 J-0.098
G1 X-54.773 Z-8.8 F333.3
G3 X-53.024 Y28.435 I0.875 J0 F600
X-57.623 Y28.435 I-2.3 J0
X-50.174 Y28.435 I3.725 J0
X-60.473 Y28.435 I-5.15 J0
X-47.324 Y28.435 I6.575 J0
X-63.323 Y28.435 I-8 J0
X-47.324 Y28.435 I8 J0
X-50.23 Y28.667 I-1.462 J0
G1 X-51.087 Y23.336
G3 X-50.826 Y22.244 I1.444 J-0.232
X-50.301 Y22.519 I0.242 J0.176
G1 X-52.293 Y28.234
G3 X-52.576 Y28.435 I-0.283 J-0.098
G1 X-54.773 Z-9.6 F333.3
G3 X-53.024 Y28.435 I0.875 J0 F600
X-57.623 Y28.435 I-2.3 J0
X-50.174 Y28.435 I3.725 J0
X-60.473 Y28.435 I-5.15 J0
X-47.324 Y28.435 I6.575 J0
X-63.323 Y28.435 I-8 J0
X-47.324 Y28.435 I8 J0
X-50.23 Y28.667 I-1.462 J0
G1 X-51.087 Y23.336
G3 X-50.826 Y22.244 I1.444 J-0.232
X-50.301 Y22.519 I0.242 J0.176
G1 X-52.293 Y28.234
G3 X-52.576 Y28.435 I-0.283 J-0.098
G1 X-54.773 Z-10.4 F333.3
G3 X-53.024 Y28.435 I0.875 J0 F600
X-57.623 Y28.435 I-2.3 J0
X-50.174 Y28.435 I3.725 J0
X-60.473 Y28.435 I-5.15 J0
X-47.324 Y28.435 I6.575 J0
X-63.323 Y28.435 I-8 J0
X-47.324 Y28.435 I8 J0
X-50.23 Y28.667 I-1.462 J0
G1 X-51.087 Y23.336
G3 X-50.826 Y22.244 I1.444 J-0.232
X-50.301 Y22.519 I0.242 J0.176
G1 X-52.293 Y28.234
G3 X-52.576 Y28.435 I-0.283 J-0.098
G1 X-54.773 Z-11.2 F333.3
G3 X-53.024 Y28.435 I0.875 J0 F600
X-57.623 Y28.435 I-2.3 J0
X-50.174 Y28.435 I3.725 J0
X-60.473 Y28.435 I-5.15 J0
X-47.324 Y28.435 I6.575 J0
X-63.323 Y28.435 I-8 J0
X-47.324 Y28.435 I8 J0
X-50.23 Y28.667 I-1.462 J0
G1 X-51.087 Y23.336
G3 X-50.826 Y22.244 I1.444 J-0.232
X-50.301 Y22.519 I0.242 J0.176
G1 X-52.293 Y28.234
G3 X-52.576 Y28.435 I-0.283 J-0.098
G1 X-54.773 Z-12 F333.3
G3 X-53.024 Y28.435 I0.875 J0 F600
X-57.623 Y28.435 I-2.3 J0
X-50.174 Y28.435 I3.725 J0
X-60.473 Y28.435 I-5.15 J0
X-47.324 Y28.435 I6.575 J0
X-63.323 Y28.435 I-8 J0
X-47.324 Y28.435 I8 J0
X-50.23 Y28.667 I-1.462 J0
G1 X-51.087 Y23.336
G3 X-50.826 Y22.244 I1.444 J-0.232
X-50.301 Y22.519 I0.242 J0.176
G1 X-52.293 Y28.234
G3 X-52.576 Y28.435 I-0.283 J-0.098
G1 X-54.773 Z-12.8 F333.3
G3 X-53.024 Y28.435 I0.875 J0 F600
X-57.623 Y28.435 I-2.3 J0
X-50.174 Y28.435 I3.725 J0
X-60.473 Y28.435 I-5.15 J0
X-47.324 Y28.435 I6.575 J0
X-63.323 Y28.435 I-8 J0
X-47.324 Y28.435 I8 J0
X-50.23 Y28.667 I-1.462 J0
G1 X-51.087 Y23.336
G3 X-50.826 Y22.244 I1.444 J-0.232
X-50.301 Y22.519 I0.242 J0.176
G1 X-52.293 Y28.234
G3 X-52.576 Y28.435 I-0.283 J-0.098
G1 X-54.773 Z-13.6 F333.3
G3 X-53.024 Y28.435 I0.875 J0 F600
X-57.623 Y28.435 I-2.3 J0
X-50.174 Y28.435 I3.725 J0
X-60.473 Y28.435 I-5.15 J0
X-47.324 Y28.435 I6.575 J0
X-63.323 Y28.435 I-8 J0
X-47.324 Y28.435 I8 J0
X-50.23 Y28.667 I-1.462 J0
G1 X-51.087 Y23.336
G3 X-50.826 Y22.244 I1.444 J-0.232
X-50.301 Y22.519 I0.242 J0.176
G1 X-52.293 Y28.234
G3 X-52.576 Y28.435 I-0.283 J-0.098
G1 X-54.773 Z-14.4 F333.3
G3 X-53.024 Y28.435 I0.875 J0 F600
X-57.623 Y28.435 I-2.3 J0
X-50.174 Y28.435 I3.725 J0
X-60.473 Y28.435 I-5.15 J0
X-47.324 Y28.435 I6.575 J0
X-63.323 Y28.435 I-8 J0
X-47.324 Y28.435 I8 J0
X-50.23 Y28.667 I-1.462 J0
G1 X-51.087 Y23.336
G3 X-50.826 Y22.244 I1.444 J-0.232
X-50.301 Y22.519 I0.242 J0.176
G1 X-52.293 Y28.234
G3 X-52.576 Y28.435 I-0.283 J-0.098
G1 X-54.773 Z-15.2 F333.3
G3 X-53.024 Y28.435 I0.875 J0 F600
X-57.623 Y28.435 I-2.3 J0
X-50.174 Y28.435 I3.725 J0
X-60.473 Y28.435 I-5.15 J0
X-47.324 Y28.435 I6.575 J0
X-63.323 Y28.435 I-8 J0
X-47.324 Y28.435 I8 J0
X-50.23 Y28.667 I-1.462 J0
G1 X-51.087 Y23.336
G3 X-50.826 Y22.244 I1.444 J-0.232
X-50.301 Y22.519 I0.242 J0.176
G1 X-52.293 Y28.234
G3 X-52.576 Y28.435 I-0.283 J-0.098
G1 X-54.773 Z-16 F333.3
G3 X-53.024 Y28.435 I0.875 J0 F600
X-57.623 Y28.435 I-2.3 J0
X-50.174 Y28.435 I3.725 J0
X-60.473 Y28.435 I-5.15 J0
X-47.324 Y28.435 I6.575 J0
X-63.323 Y28.435 I-8 J0
X-47.324 Y28.435 I8 J0
X-50.23 Y28.667 I-1.462 J0
G1 X-51.087 Y23.336
G3 X-50.826 Y22.244 I1.444 J-0.232
X-50.301 Y22.519 I0.242 J0.176
G1 X-52.293 Y28.234
G3 X-52.576 Y28.435 I-0.283 J-0.098
G1 X-54.773 Z-16.8 F333.3
G3 X-53.024 Y28.435 I0.875 J0 F600
X-57.623 Y28.435 I-2.3 J0
X-50.174 Y28.435 I3.725 J0
X-60.473 Y28.435 I-5.15 J0
X-47.324 Y28.435 I6.575 J0
X-63.323 Y28.435 I-8 J0
X-47.324 Y28.435 I8 J0
X-50.23 Y28.667 I-1.462 J0
G1 X-51.087 Y23.336
G3 X-50.826 Y22.244 I1.444 J-0.232
X-50.301 Y22.519 I0.242 J0.176
G1 X-52.293 Y28.234
G3 X-52.576 Y28.435 I-0.283 J-0.098
G1 X-54.773 Z-17.6 F333.3
G3 X-53.024 Y28.435 I0.875 J0 F600
X-57.623 Y28.435 I-2.3 J0
X-50.174 Y28.435 I3.725 J0
X-60.473 Y28.435 I-5.15 J0
X-47.324 Y28.435 I6.575 J0
X-63.323 Y28.435 I-8 J0
X-47.324 Y28.435 I8 J0
X-48.486 Y29.106 I-0.775 J0
G1 X-51.661 Y27.273
G2 X-52.72 Y27.556 I-0.387 J0.671
G1 X-53.003 Y28.048
G3 X-53.675 Y28.435 I-0.671 J-0.387
G1 X-54.773 Z-18 F333.3
G3 X-53.024 Y28.435 I0.875 J0 F600
X-57.623 Y28.435 I-2.3 J0
X-50.174 Y28.435 I3.725 J0
X-60.473 Y28.435 I-5.15 J0
X-47.324 Y28.435 I6.575 J0
X-63.323 Y28.435 I-8 J0
X-47.324 Y28.435 I8 J0
G0 Z4
X-56.921 Y51.065
Z2
G1 Z1.8 F300
X-57.096 Z1.736 F333.3
X-52.451 Z0.045
X-54.773 Z-0.8
G3 X-53.024 Y51.065 I0.875 J0 F600
X-57.623 Y51.065 I-2.3 J0
X-50.174 Y51.065 I3.725 J0
X-60.473 Y51.065 I-5.15 J0
X-47.324 Y51.065 I6.575 J0
X-63.323 Y51.065 I-8 J0
X-47.324 Y51.065 I8 J0
X-48.285 Y51.62 I-0.641 J0
G1 X-50.911 Y50.104
G2 X-51.786 Y50.338 I-0.32 J0.555
G1 X-52.021 Y50.745
G3 X-52.576 Y51.065 I-0.555 J-0.32
G1 X-54.773 Z-1.6 F333.3
G3 X-53.024 Y51.065 I0.875 J0 F600
X-57.623 Y51.065 I-2.3 J0
X-50.174 Y51.065 I3.725 J0
X-60.473 Y51.065 I-5.15 J0
X-47.324 Y51.065 I6.575 J0
X-63.323 Y51.065 I-8 J0
X-47.324 Y51.065 I8 J0
X-48.285 Y51.62 I-0.641 J0
G1 X-50.911 Y50.104
G2 X-51.786 Y50.338 I-0.32 J0.555
G1 X-52.021 Y50.745
G3 X-52.576 Y51.065 I-0.555 J-0.32
G1 X-54.773 Z-2.4 F333.3
G3 X-53.024 Y51.065 I0.875 J0 F600
X-57.623 Y51.065 I-2.3 J0
X-50.174 Y51.065 I3.725 J0
X-60.473 Y51.065 I-5.15 J0
X-47.324 Y51.065 I6.575 J0
X-63.323 Y51.065 I-8 J0
X-47.324 Y51.065 I8 J0
X-48.285 Y51.62 I-0.641 J0
G1 X-50.911 Y50.104
G2 X-51.786 Y50.338 I-0.32 J0.555
G1 X-52.021 Y50.745
G3 X-52.576 Y51.065 I-0.555 J-0.32
G1 X-54.773 Z-3.2 F333.3
G3 X-53.024 Y51.065 I0.875 J0 F600
X-57.623 Y51.065 I-2.3 J0
X-50.174 Y51.065 I3.725 J0
X-60.473 Y51.065 I-5.15 J0
X-47.324 Y51.065 I6.575 J0
X-63.323 Y51.065 I-8 J0
X-47.324 Y51.065 I8 J0
X-48.285 Y51.62 I-0.641 J0
G1 X-50.911 Y50.104
G2 X-51.786 Y50.338 I-0.32 J0.555
G1 X-52.021 Y50.745
G3 X-52.576 Y51.065 I-0.555 J-0.32
G1 X-54.773 Z-4 F333.3
G3 X-53.024 Y51.065 I0.875 J0 F600
X-57.623 Y51.065 I-2.3 J0
X-50.174 Y51.065 I3.725 J0
X-60.473 Y51.065 I-5.15 J0
X-47.324 Y51.065 I6.575 J0
X-63.323 Y51.065 I-8 J0
X-47.324 Y51.065 I8 J0
X-48.285 Y51.62 I-0.641 J0
G1 X-50.911 Y50.104
G2 X-51.786 Y50.338 I-0.32 J0.555
G1 X-52.021 Y50.745
G3 X-52.576 Y51.065 I-0.555 J-0.32
G1 X-54.773 Z-4.8 F333.3
G3 X-53.024 Y51.065 I0.875 J0 F600
X-57.623 Y51.065 I-2.3 J0
X-50.174 Y51.065 I3.725 J0
X-60.473 Y51.065 I-5.15 J0
X-47.324 Y51.065 I6.575 J0
X-63.323 Y51.065 I-8 J0
X-47.324 Y51.065 I8 J0
X-48.285 Y51.62 I-0.641 J0
G1 X-50.911 Y50.104
G2 X-51.786 Y50.338 I-0.32 J0.555
G1 X-52.021 Y50.745
G3 X-52.576 Y51.065 I-0.555 J-0.32
G1 X-54.773 Z-5.6 F333.3
G3 X-53.024 Y51.065 I0.875 J0 F600
X-57.623 Y51.065 I-2.3 J0
X-50.174 Y51.065 I3.725 J0
X-60.473 Y51.065 I-5.15 J0
X-47.324 Y51.065 I6.575 J0
X-63.323 Y51.065 I-8 J0
X-47.324 Y51.065 I8 J0
X-48.285 Y51.62 I-0.641 J0
G1 X-50.911 Y50.104
G2 X-51.786 Y50.338 I-0.32 J0.555
G1 X-52.021 Y50.745
G3 X-52.576 Y51.065 I-0.555 J-0.32
G1 X-54.773 Z-6.4 F333.3
G3 X-53.024 Y51.065 I0.875 J0 F600
X-57.623 Y51.065 I-2.3 J0
X-50.174 Y51.065 I3.725 J0
X-60.473 Y51.065 I-5.15 J0
X-47.324 Y51.065 I6.575 J0
X-63.323 Y51.065 I-8 J0
X-47.324 Y51.065 I8 J0
X-48.285 Y51.62 I-0.641 J0
G1 X-50.911 Y50.104
G2 X-51.786 Y50.338 I-0.32 J0.555
G1 X-52.021 Y50.745
G3 X-52.576 Y51.065 I-0.555 J-0.32
G1 X-54.773 Z-7.2 F333.3
G3 X-53.024 Y51.065 I0.875 J0 F600
X-57.623 Y51.065 I-2.3 J0
X-50.174 Y51.065 I3.725 J0
X-60.473 Y51.065 I-5.15 J0
X-47.324 Y51.065 I6.575 J0
X-63.323 Y51.065 I-8 J0
X-47.324 Y51.065 I8 J0
X-48.285 Y51.62 I-0.641 J0
G1 X-50.911 Y50.104
G2 X-51.786 Y50.338 I-0.32 J0.555
G1 X-52.021 Y50.745
G3 X-52.576 Y51.065 I-0.555 J-0.32
G1 X-54.773 Z-8 F333.3
G3 X-53.024 Y51.065 I0.875 J0 F600
X-57.623 Y51.065 I-2.3 J0
X-50.174 Y51.065 I3.725 J0
X-60.473 Y51.065 I-5.15 J0
X-47.324 Y51.065 I6.575 J0
X-63.323 Y51.065 I-8 J0
X-47.324 Y51.065 I8 J0
X-48.285 Y51.62 I-0.641 J0
G1 X-50.911 Y50.104
G2 X-51.786 Y50.338 I-0.32 J0.555
G1 X-52.021 Y50.745
G3 X-52.576 Y51.065 I-0.555 J-0.32
G1 X-54.773 Z-8.8 F333.3
G3 X-53.024 Y51.065 I0.875 J0 F600
X-57.623 Y51.065 I-2.3 J0
X-50.174 Y51.065 I3.725 J0
X-60.473 Y51.065 I-5.15 J0
X-47.324 Y51.065 I6.575 J0
X-63.323 Y51.065 I-8 J0
X-47.324 Y51.065 I8 J0
X-48.285 Y51.62 I-0.641 J0
G1 X-50.911 Y50.104
G2 X-51.786 Y50.338 I-0.32 J0.555
G1 X-52.021 Y50.745
G3 X-52.576 Y51.065 I-0.555 J-0.32
G1 X-54.773 Z-9.6 F333.3
G3 X-53.024 Y51.065 I0.875 J0 F600
X-57.623 Y51.065 I-2.3 J0
X-50.174 Y51.065 I3.725 J0
X-60.473 Y51.065 I-5.15 J0
X-47.324 Y51.065 I6.575 J0
X-63.323 Y51.065 I-8 J0
X-47.324 Y51.065 I8 J0
X-48.285 Y51.62 I-0.641 J0
G1 X-50.911 Y50.104
G2 X-51.786 Y50.338 I-0.32 J0.555
G1 X-52.021 Y50.745
G3 X-52.576 Y51.065 I-0.555 J-0.32
G1 X-54.773 Z-10.4 F333.3
G3 X-53.024 Y51.065 I0.875 J0 F600
X-57.623 Y51.065 I-2.3 J0
X-50.174 Y51.065 I3.725 J0
X-60.473 Y51.065 I-5.15 J0
X-47.324 Y51.065 I6.575 J0
X-63.323 Y51.065 I-8 J0
X-47.324 Y51.065 I8 J0
X-48.285 Y51.62 I-0.641 J0
G1 X-50.911 Y50.104
G2 X-51.786 Y50.338 I-0.32 J0.555
G1 X-52.021 Y50.745
G3 X-52.576 Y51.065 I-0.555 J-0.32
G1 X-54.773 Z-11.2 F333.3
G3 X-53.024 Y51.065 I0.875 J0 F600
X-57.623 Y51.065 I-2.3 J0
X-50.174 Y51.065 I3.725 J0
X-60.473 Y51.065 I-5.15 J0
X-47.324 Y51.065 I6.575 J0
X-63.323 Y51.065 I-8 J0
X-47.324 Y51.065 I8 J0
X-48.285 Y51.62 I-0.641 J0
G1 X-50.911 Y50.104
G2 X-51.786 Y50.338 I-0.32 J0.555
G1 X-52.021 Y50.745
G3 X-52.576 Y51.065 I-0.555 J-0.32
G1 X-54.773 Z-12 F333.3
G3 X-53.024 Y51.065 I0.875 J0 F600
X-57.623 Y51.065 I-2.3 J0
X-50.174 Y51.065 I3.725 J0
X-60.473 Y51.065 I-5.15 J0
X-47.324 Y51.065 I6.575 J0
X-63.323 Y51.065 I-8 J0
X-47.324 Y51.065 I8 J0
X-48.285 Y51.62 I-0.641 J0
G1 X-50.911 Y50.104
G2 X-51.786 Y50.338 I-0.32 J0.555
G1 X-52.021 Y50.745
G3 X-52.576 Y51.065 I-0.555 J-0.32
G1 X-54.773 Z-12.8 F333.3
G3 X-53.024 Y51.065 I0.875 J0 F600
X-57.623 Y51.065 I-2.3 J0
X-50.174 Y51.065 I3.725 J0
X-60.473 Y51.065 I-5.15 J0
X-47.324 Y51.065 I6.575 J0
X-63.323 Y51.065 I-8 J0
X-47.324 Y51.065 I8 J0
X-48.285 Y51.62 I-0.641 J0
G1 X-50.911 Y50.104
G2 X-51.786 Y50.338 I-0.32 J0.555
G1 X-52.021 Y50.745
G3 X-52.576 Y51.065 I-0.555 J-0.32
G1 X-54.773 Z-13.6 F333.3
G3 X-53.024 Y51.065 I0.875 J0 F600
X-57.623 Y51.065 I-2.3 J0
X-50.174 Y51.065 I3.725 J0
X-60.473 Y51.065 I-5.15 J0
X-47.324 Y51.065 I6.575 J0
X-63.323 Y51.065 I-8 J0
X-47.324 Y51.065 I8 J0
X-48.285 Y51.62 I-0.641 J0
G1 X-50.911 Y50.104
G2 X-51.786 Y50.338 I-0.32 J0.555
G1 X-52.021 Y50.745
G3 X-52.576 Y51.065 I-0.555 J-0.32
G1 X-54.773 Z-14.4 F333.3
G3 X-53.024 Y51.065 I0.875 J0 F600
X-57.623 Y51.065 I-2.3 J0
X-50.174 Y51.065 I3.725 J0
X-60.473 Y51.065 I-5.15 J0
X-47.324 Y51.065 I6.575 J0
X-63.323 Y51.065 I-8 J0
X-47.324 Y51.065 I8 J0
X-48.285 Y51.62 I-0.641 J0
G1 X-50.911 Y50.104
G2 X-51.786 Y50.338 I-0.32 J0.555
G1 X-52.021 Y50.745
G3 X-52.576 Y51.065 I-0.555 J-0.32
G1 X-54.773 Z-15.2 F333.3
G3 X-53.024 Y51.065 I0.875 J0 F600
X-57.623 Y51.065 I-2.3 J0
X-50.174 Y51.065 I3.725 J0
X-60.473 Y51.065 I-5.15 J0
X-47.324 Y51.065 I6.575 J0
X-63.323 Y51.065 I-8 J0
X-47.324 Y51.065 I8 J0
X-48.285 Y51.62 I-0.641 J0
G1 X-50.911 Y50.104
G2 X-51.786 Y50.338 I-0.32 J0.555
G1 X-52.021 Y50.745
G3 X-52.576 Y51.065 I-0.555 J-0.32
G1 X-54.773 Z-16 F333.3
G3 X-53.024 Y51.065 I0.875 J0 F600
X-57.623 Y51.065 I-2.3 J0
X-50.174 Y51.065 I3.725 J0
X-60.473 Y51.065 I-5.15 J0
X-47.324 Y51.065 I6.575 J0
X-63.323 Y51.065 I-8 J0
X-47.324 Y51.065 I8 J0
X-48.285 Y51.62 I-0.641 J0
G1 X-50.911 Y50.104
G2 X-51.786 Y50.338 I-0.32 J0.555
G1 X-52.021 Y50.745
G3 X-52.576 Y51.065 I-0.555 J-0.32
G1 X-54.773 Z-16.8 F333.3
G3 X-53.024 Y51.065 I0.875 J0 F600
X-57.623 Y51.065 I-2.3 J0
X-50.174 Y51.065 I3.725 J0
X-60.473 Y51.065 I-5.15 J0
X-47.324 Y51.065 I6.575 J0
X-63.323 Y51.065 I-8 J0
X-47.324 Y51.065 I8 J0
X-48.285 Y51.62 I-0.641 J0
G1 X-50.911 Y50.104
G2 X-51.786 Y50.338 I-0.32 J0.555
G1 X-52.021 Y50.745
G3 X-52.576 Y51.065 I-0.555 J-0.32
G1 X-54.773 Z-17.6 F333.3
G3 X-53.024 Y51.065 I0.875 J0 F600
X-57.623 Y51.065 I-2.3 J0
X-50.174 Y51.065 I3.725 J0
X-60.473 Y51.065 I-5.15 J0
X-47.324 Y51.065 I6.575 J0
X-63.323 Y51.065 I-8 J0
X-47.324 Y51.065 I8 J0
X-48.486 Y51.736 I-0.775 J0
G1 X-51.661 Y49.903
G2 X-52.72 Y50.186 I-0.387 J0.671
G1 X-53.003 Y50.677
G3 X-53.675 Y51.065 I-0.671 J-0.387
G1 X-54.773 Z-18 F333.3
G3 X-53.024 Y51.065 I0.875 J0 F600
X-57.623 Y51.065 I-2.3 J0
X-50.174 Y51.065 I3.725 J0
X-60.473 Y51.065 I-5.15 J0
X-47.324 Y51.065 I6.575 J0
X-63.323 Y51.065 I-8 J0
X-47.324 Y51.065 I8 J0
G0 Z4
X-35.399 Y58.058
Z2
G1 Z1.8 F300
X-35.574 Z1.736 F333.3
X-30.929 Z0.045
X-33.251 Z-0.8
G3 X-31.501 Y58.058 I0.875 J0 F600
X-36.101 Y58.058 I-2.3 J0
X-28.651 Y58.058 I3.725 J0
X-38.951 Y58.058 I-5.15 J0
X-25.801 Y58.058 I6.575 J0
X-41.801 Y58.058 I-8 J0
X-25.801 Y58.058 I8 J0
X-26.763 Y58.613 I-0.641 J0
G1 X-29.389 Y57.097
G2 X-30.264 Y57.331 I-0.32 J0.555
G1 X-30.498 Y57.737
G3 X-31.053 Y58.058 I-0.555 J-0.32
G1 X-33.251 Z-1.6 F333.3
G3 X-31.501 Y58.058 I0.875 J0 F600
X-36.101 Y58.058 I-2.3 J0
X-28.651 Y58.058 I3.725 J0
X-38.951 Y58.058 I-5.15 J0
X-25.801 Y58.058 I6.575 J0
X-41.801 Y58.058 I-8 J0
X-25.801 Y58.058 I8 J0
X-26.763 Y58.613 I-0.641 J0
G1 X-29.389 Y57.097
G2 X-30.264 Y57.331 I-0.32 J0.555
G1 X-30.498 Y57.737
G3 X-31.053 Y58.058 I-0.555 J-0.32
G1 X-33.251 Z-2.4 F333.3
G3 X-31.501 Y58.058 I0.875 J0 F600
X-36.101 Y58.058 I-2.3 J0
X-28.651 Y58.058 I3.725 J0
X-38.951 Y58.058 I-5.15 J0
X-25.801 Y58.058 I6.575 J0
X-41.801 Y58.058 I-8 J0
X-25.801 Y58.058 I8 J0
X-26.763 Y58.613 I-0.641 J0
G1 X-29.389 Y57.097
G2 X-30.264 Y57.331 I-0.32 J0.555
G1 X-30.498 Y57.737
G3 X-31.053 Y58.058 I-0.555 J-0.32
G1 X-33.251 Z-3.2 F333.3
G3 X-31.501 Y58.058 I0.875 J0 F600
X-36.101 Y58.058 I-2.3 J0
X-28.651 Y58.058 I3.725 J0
X-38.951 Y58.058 I-5.15 J0
X-25.801 Y58.058 I6.575 J0
X-41.801 Y58.058 I-8 J0
X-25.801 Y58.058 I8 J0
X-26.763 Y58.613 I-0.641 J0
G1 X-29.389 Y57.097
G2 X-30.264 Y57.331 I-0.32 J0.555
G1 X-30.498 Y57.737
G3 X-31.053 Y58.058 I-0.555 J-0.32
G1 X-33.251 Z-4 F333.3
G3 X-31.501 Y58.058 I0.875 J0 F600
X-36.101 Y58.058 I-2.3 J0
X-28.651 Y58.058 I3.725 J0
X-38.951 Y58.058 I-5.15 J0
X-25.801 Y58.058 I6.575 J0
X-41.801 Y58.058 I-8 J0
X-25.801 Y58.058 I8 J0
X-26.763 Y58.613 I-0.641 J0
G1 X-29.389 Y57.097
G2 X-30.264 Y57.331 I-0.32 J0.555
G1 X-30.498 Y57.737
G3 X-31.053 Y58.058 I-0.555 J-0.32
G1 X-33.251 Z-4.8 F333.3
G3 X-31.501 Y58.058 I0.875 J0 F600
X-36.101 Y58.058 I-2.3 J0
X-28.651 Y58.058 I3.725 J0
X-38.951 Y58.058 I-5.15 J0
X-25.801 Y58.058 I6.575 J0
X-41.801 Y58.058 I-8 J0
X-25.801 Y58.058 I8 J0
X-26.763 Y58.613 I-0.641 J0
G1 X-29.389 Y57.097
G2 X-30.264 Y57.331 I-0.32 J0.555
G1 X-30.498 Y57.737
G3 X-31.053 Y58.058 I-0.555 J-0.32
G1 X-33.251 Z-5.6 F333.3
G3 X-31.501 Y58.058 I0.875 J0 F600
X-36.101 Y58.058 I-2.3 J0
X-28.651 Y58.058 I3.725 J0
X-38.951 Y58.058 I-5.15 J0
X-25.801 Y58.058 I6.575 J0
X-41.801 Y58.058 I-8 J0
X-25.801 Y58.058 I8 J0
X-26.763 Y58.613 I-0.641 J0
G1 X-29.389 Y57.097
G2 X-30.264 Y57.331 I-0.32 J0.555
G1 X-30.498 Y57.737
G3 X-31.053 Y58.058 I-0.555 J-0.32
G1 X-33.251 Z-6.4 F333.3
G3 X-31.501 Y58.058 I0.875 J0 F600
X-36.101 Y58.058 I-2.3 J0
X-28.651 Y58.058 I3.725 J0
X-38.951 Y58.058 I-5.15 J0
X-25.801 Y58.058 I6.575 J0
X-41.801 Y58.058 I-8 J0
X-25.801 Y58.058 I8 J0
X-26.763 Y58.613 I-0.641 J0
G1 X-29.389 Y57.097
G2 X-30.264 Y57.331 I-0.32 J0.555
G1 X-30.498 Y57.737
G3 X-31.053 Y58.058 I-0.555 J-0.32
G1 X-33.251 Z-7.2 F333.3
G3 X-31.501 Y58.058 I0.875 J0 F600
X-36.101 Y58.058 I-2.3 J0
X-28.651 Y58.058 I3.725 J0
X-38.951 Y58.058 I-5.15 J0
X-25.801 Y58.058 I6.575 J0
X-41.801 Y58.058 I-8 J0
X-25.801 Y58.058 I8 J0
X-26.763 Y58.613 I-0.641 J0
G1 X-29.389 Y57.097
G2 X-30.264 Y57.331 I-0.32 J0.555
G1 X-30.498 Y57.737
G3 X-31.053 Y58.058 I-0.555 J-0.32
G1 X-33.251 Z-8 F333.3
G3 X-31.501 Y58.058 I0.875 J0 F600
X-36.101 Y58.058 I-2.3 J0
X-28.651 Y58.058 I3.725 J0
X-38.951 Y58.058 I-5.15 J0
X-25.801 Y58.058 I6.575 J0
X-41.801 Y58.058 I-8 J0
X-25.801 Y58.058 I8 J0
X-26.763 Y58.613 I-0.641 J0
G1 X-29.389 Y57.097
G2 X-30.264 Y57.331 I-0.32 J0.555
G1 X-30.498 Y57.737
G3 X-31.053 Y58.058 I-0.555 J-0.32
G1 X-33.251 Z-8.8 F333.3
G3 X-31.501 Y58.058 I0.875 J0 F600
X-36.101 Y58.058 I-2.3 J0
X-28.651 Y58.058 I3.725 J0
X-38.951 Y58.058 I-5.15 J0
X-25.801 Y58.058 I6.575 J0
X-41.801 Y58.058 I-8 J0
X-25.801 Y58.058 I8 J0
X-26.763 Y58.613 I-0.641 J0
G1 X-29.389 Y57.097
G2 X-30.264 Y57.331 I-0.32 J0.555
G1 X-30.498 Y57.737
G3 X-31.053 Y58.058 I-0.555 J-0.32
G1 X-33.251 Z-9.6 F333.3
G3 X-31.501 Y58.058 I0.875 J0 F600
X-36.101 Y58.058 I-2.3 J0
X-28.651 Y58.058 I3.725 J0
X-38.951 Y58.058 I-5.15 J0
X-25.801 Y58.058 I6.575 J0
X-41.801 Y58.058 I-8 J0
X-25.801 Y58.058 I8 J0
X-26.763 Y58.613 I-0.641 J0
G1 X-29.389 Y57.097
G2 X-30.264 Y57.331 I-0.32 J0.555
G1 X-30.498 Y57.737
G3 X-31.053 Y58.058 I-0.555 J-0.32
G1 X-33.251 Z-10.4 F333.3
G3 X-31.501 Y58.058 I0.875 J0 F600
X-36.101 Y58.058 I-2.3 J0
X-28.651 Y58.058 I3.725 J0
X-38.951 Y58.058 I-5.15 J0
X-25.801 Y58.058 I6.575 J0
X-41.801 Y58.058 I-8 J0
X-25.801 Y58.058 I8 J0
X-26.763 Y58.613 I-0.641 J0
G1 X-29.389 Y57.097
G2 X-30.264 Y57.331 I-0.32 J0.555
G1 X-30.498 Y57.737
G3 X-31.053 Y58.058 I-0.555 J-0.32
G1 X-33.251 Z-11.2 F333.3
G3 X-31.501 Y58.058 I0.875 J0 F600
X-36.101 Y58.058 I-2.3 J0
X-28.651 Y58.058 I3.725 J0
X-38.951 Y58.058 I-5.15 J0
X-25.801 Y58.058 I6.575 J0
X-41.801 Y58.058 I-8 J0
X-25.801 Y58.058 I8 J0
X-26.763 Y58.613 I-0.641 J0
G1 X-29.389 Y57.097
G2 X-30.264 Y57.331 I-0.32 J0.555
G1 X-30.498 Y57.737
G3 X-31.053 Y58.058 I-0.555 J-0.32
G1 X-33.251 Z-12 F333.3
G3 X-31.501 Y58.058 I0.875 J0 F600
X-36.101 Y58.058 I-2.3 J0
X-28.651 Y58.058 I3.725 J0
X-38.951 Y58.058 I-5.15 J0
X-25.801 Y58.058 I6.575 J0
X-41.801 Y58.058 I-8 J0
X-25.801 Y58.058 I8 J0
X-26.763 Y58.613 I-0.641 J0
G1 X-29.389 Y57.097
G2 X-30.264 Y57.331 I-0.32 J0.555
G1 X-30.498 Y57.737
G3 X-31.053 Y58.058 I-0.555 J-0.32
G1 X-33.251 Z-12.8 F333.3
G3 X-31.501 Y58.058 I0.875 J0 F600
X-36.101 Y58.058 I-2.3 J0
X-28.651 Y58.058 I3.725 J0
X-38.951 Y58.058 I-5.15 J0
X-25.801 Y58.058 I6.575 J0
X-41.801 Y58.058 I-8 J0
X-25.801 Y58.058 I8 J0
X-26.763 Y58.613 I-0.641 J0
G1 X-29.389 Y57.097
G2 X-30.264 Y57.331 I-0.32 J0.555
G1 X-30.498 Y57.737
G3 X-31.053 Y58.058 I-0.555 J-0.32
G1 X-33.251 Z-13.6 F333.3
G3 X-31.501 Y58.058 I0.875 J0 F600
X-36.101 Y58.058 I-2.3 J0
X-28.651 Y58.058 I3.725 J0
X-38.951 Y58.058 I-5.15 J0
X-25.801 Y58.058 I6.575 J0
X-41.801 Y58.058 I-8 J0
X-25.801 Y58.058 I8 J0
X-26.763 Y58.613 I-0.641 J0
G1 X-29.389 Y57.097
G2 X-30.264 Y57.331 I-0.32 J0.555
G1 X-30.498 Y57.737
G3 X-31.053 Y58.058 I-0.555 J-0.32
G1 X-33.251 Z-14.4 F333.3
G3 X-31.501 Y58.058 I0.875 J0 F600
X-36.101 Y58.058 I-2.3 J0
X-28.651 Y58.058 I3.725 J0
X-38.951 Y58.058 I-5.15 J0
X-25.801 Y58.058 I6.575 J0
X-41.801 Y58.058 I-8 J0
X-25.801 Y58.058 I8 J0
X-26.763 Y58.613 I-0.641 J0
G1 X-29.389 Y57.097
G2 X-30.264 Y57.331 I-0.32 J0.555
G1 X-30.498 Y57.737
G3 X-31.053 Y58.058 I-0.555 J-0.32
G1 X-33.251 Z-15.2 F333.3
G3 X-31.501 Y58.058 I0.875 J0 F600
X-36.101 Y58.058 I-2.3 J0
X-28.651 Y58.058 I3.725 J0
X-38.951 Y58.058 I-5.15 J0
X-25.801 Y58.058 I6.575 J0
X-41.801 Y58.058 I-8 J0
X-25.801 Y58.058 I8 J0
X-26.763 Y58.613 I-0.641 J0
G1 X-29.389 Y57.097
G2 X-30.264 Y57.331 I-0.32 J0.555
G1 X-30.498 Y57.737
G3 X-31.053 Y58.058 I-0.555 J-0.32
G1 X-33.251 Z-16 F333.3
G3 X-31.501 Y58.058 I0.875 J0 F600
X-36.101 Y58.058 I-2.3 J0
X-28.651 Y58.058 I3.725 J0
X-38.951 Y58.058 I-5.15 J0
X-25.801 Y58.058 I6.575 J0
X-41.801 Y58.058 I-8 J0
X-25.801 Y58.058 I8 J0
X-26.763 Y58.613 I-0.641 J0
G1 X-29.389 Y57.097
G2 X-30.264 Y57.331 I-0.32 J0.555
G1 X-30.498 Y57.737
G3 X-31.053 Y58.058 I-0.555 J-0.32
G1 X-33.251 Z-16.8 F333.3
G3 X-31.501 Y58.058 I0.875 J0 F600
X-36.101 Y58.058 I-2.3 J0
X-28.651 Y58.058 I3.725 J0
X-38.951 Y58.058 I-5.15 J0
X-25.801 Y58.058 I6.575 J0
X-41.801 Y58.058 I-8 J0
X-25.801 Y58.058 I8 J0
X-26.763 Y58.613 I-0.641 J0
G1 X-29.389 Y57.097
G2 X-30.264 Y57.331 I-0.32 J0.555
G1 X-30.498 Y57.737
G3 X-31.053 Y58.058 I-0.555 J-0.32
G1 X-33.251 Z-17.6 F333.3
G3 X-31.501 Y58.058 I0.875 J0 F600
X-36.101 Y58.058 I-2.3 J0
X-28.651 Y58.058 I3.725 J0
X-38.951 Y58.058 I-5.15 J0
X-25.801 Y58.058 I6.575 J0
X-41.801 Y58.058 I-8 J0
X-25.801 Y58.058 I8 J0
X-26.964 Y58.729 I-0.775 J0
G1 X-30.139 Y56.896
G2 X-31.198 Y57.179 I-0.387 J0.671
G1 X-31.481 Y57.67
G3 X-32.152 Y58.058 I-0.671 J-0.387
G1 X-33.251 Z-18 F333.3
G3 X-31.501 Y58.058 I0.875 J0 F600
X-36.101 Y58.058 I-2.3 J0
X-28.651 Y58.058 I3.725 J0
X-38.951 Y58.058 I-5.15 J0
X-25.801 Y58.058 I6.575 J0
X-41.801 Y58.058 I-8 J0
X-25.801 Y58.058 I8 J0
G0 Z7

(2D Contour28 3)
X-39.75 Y80
Z6
Z2
G1 Z1.6 F333.3
Z-0.6
G2 X-39.75 Y-0.5 I0 J-40.25 F600
X-39.75 Y80 I0 J40.25
G1 Z-1.2 F333.3
G2 X-39.75 Y-0.5 I0 J-40.25 F600
X-39.75 Y80 I0 J40.25
G1 Z-1.8 F333.3
G2 X-39.75 Y-0.5 I0 J-40.25 F600
X-39.75 Y80 I0 J40.25
G1 Z-2.4 F333.3
G2 X-39.75 Y-0.5 I0 J-40.25 F600
X-39.75 Y80 I0 J40.25
G1 Z-3 F333.3
G2 X-39.75 Y-0.5 I0 J-40.25 F600
X-39.75 Y80 I0 J40.25
G1 Z-3.6 F333.3
G2 X-39.75 Y-0.5 I0 J-40.25 F600
X-39.75 Y80 I0 J40.25
G1 Z-4.2 F333.3
G2 X-39.75 Y-0.5 I0 J-40.25 F600
X-39.75 Y80 I0 J40.25
G1 Z-4.8 F333.3
G2 X-39.75 Y-0.5 I0 J-40.25 F600
X-39.75 Y80 I0 J40.25
G1 Z-5.4 F333.3
G2 X-39.75 Y-0.5 I0 J-40.25 F600
X-39.75 Y80 I0 J40.25
G1 Z-6 F333.3
G2 X-39.75 Y-0.5 I0 J-40.25 F600
X-39.75 Y80 I0 J40.25
G1 Z-6.6 F333.3
G2 X-39.75 Y-0.5 I0 J-40.25 F600
X-39.75 Y80 I0 J40.25
G1 Z-7.2 F333.3
G2 X-39.75 Y-0.5 I0 J-40.25 F600
X-39.75 Y80 I0 J40.25
G1 Z-7.8 F333.3
G2 X-39.75 Y-0.5 I0 J-40.25 F600
X-39.75 Y80 I0 J40.25
G1 Z-8.4 F333.3
G2 X-39.75 Y-0.5 I0 J-40.25 F600
X-39.75 Y80 I0 J40.25
G1 Z-9 F333.3
G2 X-39.75 Y-0.5 I0 J-40.25 F600
X-39.75 Y80 I0 J40.25
G1 Z-9.6 F333.3
G2 X-39.75 Y-0.5 I0 J-40.25 F600
X-39.75 Y80 I0 J40.25
G1 Z-10.2 F333.3
G2 X-39.75 Y-0.5 I0 J-40.25 F600
X-39.75 Y80 I0 J40.25
G1 Z-10.8 F333.3
G2 X-39.75 Y-0.5 I0 J-40.25 F600
X-39.75 Y80 I0 J40.25
G1 Z-11.4 F333.3
G2 X-39.75 Y-0.5 I0 J-40.25 F600
X-39.75 Y80 I0 J40.25
G1 Z-12 F333.3
G2 X-39.75 Y-0.5 I0 J-40.25 F600
X-39.75 Y80 I0 J40.25
G1 Z-12.6 F333.3
G2 X-39.75 Y-0.5 I0 J-40.25 F600
X-39.75 Y80 I0 J40.25
G1 Z-13.2 F333.3
G2 X-39.75 Y-0.5 I0 J-40.25 F600
X-39.75 Y80 I0 J40.25
G1 Z-13.8 F333.3
G2 X-39.75 Y-0.5 I0 J-40.25 F600
X-39.75 Y80 I0 J40.25
G1 Z-14.4 F333.3
G2 X-39.75 Y-0.5 I0 J-40.25 F600
X-39.75 Y80 I0 J40.25
G1 Z-15 F333.3
G2 X-39.75 Y-0.5 I0 J-40.25 F600
X-39.75 Y80 I0 J40.25
G1 Z-15.6 F333.3
G2 X-39.75 Y-0.5 I0 J-40.25 F600
X-39.75 Y80 I0 J40.25
G1 Z-16.2 F333.3
G2 X-39.75 Y-0.5 I0 J-40.25 F600
X-39.75 Y80 I0 J40.25
G1 Z-16.8 F333.3
G2 X-39.75 Y-0.5 I0 J-40.25 F600
X-39.75 Y80 I0 J40.25
G1 Z-17.25 F333.3
G2 X-36.75 Y79.888 I0 J-40.25 F600
G1 Z-17.4 F333.3
G2 X-18.584 Y73.986 I-3 J-40.138 F600
G1 Z-17.25
G2 X-13.73 Y70.459 I-21.166 J-34.236
G1 Z-17.4 F333.3
G2 X-2.504 Y55.007 I-26.02 J-30.709 F600
G1 Z-17.25
G2 X-0.649 Y49.3 I-37.246 J-15.257
G1 Z-17.4 F333.3
G2 X-0.649 Y30.2 I-39.101 J-9.55 F600
G1 Z-17.25
G2 X-2.504 Y24.494 I-39.101 J9.55
G1 Z-17.4 F333.3
G2 X-13.73 Y9.041 I-37.246 J15.256 F600
G1 Z-17.25
G2 X-18.584 Y5.514 I-26.02 J30.709
G1 Z-17.4 F333.3
G2 X-36.75 Y-0.388 I-21.166 J34.236 F600
G1 Z-17.25
G2 X-42.75 Y-0.388 I-3 J40.138
G1 Z-17.4 F333.3
G2 X-60.916 Y5.514 I3 J40.138 F600
G1 Z-17.25
G2 X-65.77 Y9.041 I21.166 J34.236
G1 Z-17.4 F333.3
G2 X-76.996 Y24.493 I26.02 J30.709 F600
G1 Z-17.25
G2 X-78.851 Y30.2 I37.246 J15.257
G1 Z-17.4 F333.3
G2 X-78.851 Y49.3 I39.101 J9.55 F600
G1 Z-17.25
G2 X-76.996 Y55.007 I39.101 J-9.55
G1 Z-17.4 F333.3
G2 X-65.77 Y70.459 I37.246 J-15.257 F600
G1 Z-17.25
G2 X-60.916 Y73.986 I26.02 J-30.709
G1 Z-17.4 F333.3
G2 X-42.75 Y79.888 I21.166 J-34.236 F600
G1 Z-17.25
G2 X-36.75 Y79.888 I3 J-40.138
G1 Z-18 F333.3
G2 X-18.584 Y73.986 I-3 J-40.138 F600
G1 Z-17.25
G2 X-13.73 Y70.459 I-21.166 J-34.236
G1 Z-18 F333.3
G2 X-2.504 Y55.007 I-26.02 J-30.709 F600
G1 Z-17.25
G2 X-0.649 Y49.3 I-37.246 J-15.257
G1 Z-18 F333.3
G2 X-0.649 Y30.2 I-39.101 J-9.55 F600
G1 Z-17.25
G2 X-2.504 Y24.494 I-39.101 J9.55
G1 Z-18 F333.3
G2 X-13.73 Y9.041 I-37.246 J15.256 F600
G1 Z-17.25
G2 X-18.584 Y5.514 I-26.02 J30.709
G1 Z-18 F333.3
G2 X-36.75 Y-0.388 I-21.166 J34.236 F600
G1 Z-17.25
G2 X-42.75 Y-0.388 I-3 J40.138
G1 Z-18 F333.3
G2 X-60.916 Y5.514 I3 J40.138 F600
G1 Z-17.25
G2 X-65.77 Y9.041 I21.166 J34.236
G1 Z-18 F333.3
G2 X-76.996 Y24.493 I26.02 J30.709 F600
G1 Z-17.25
G2 X-78.851 Y30.2 I37.246 J15.257
G1 Z-18 F333.3
G2 X-78.851 Y49.3 I39.101 J9.55 F600
G1 Z-17.25
G2 X-76.996 Y55.007 I39.101 J-9.55
G1 Z-18 F333.3
G2 X-65.77 Y70.459 I37.246 J-15.257 F600
G1 Z-17.25
G2 X-60.916 Y73.986 I26.02 J-30.709
G1 Z-18 F333.3
G2 X-42.75 Y79.888 I21.166 J-34.236 F600
G1 Z-17.25
G2 X-39.75 Y80 I3 J-40.138
G0 Z6
M9
M5
M30
