(1001)
(T4  D=3 CR=0 - ZMIN=-18 - flat end mill)
G90 G94
G17
G21

(2D Pocket10 2)
T4
S15000 M3
G54
M8
G0 X-237.015 Y110.764
Z7
Z2
G1 Z1.8 F700
G3 X-238.735 Y113.036 Z1.011 I-0.86 J1.136 F333.3
X-237.015 Y110.764 Z0.221 I0.86 J-1.136
X-238.735 Y113.036 Z-0.568 I-0.86 J1.136
X-239.3 Y111.9 Z-0.8 I0.86 J-1.136
X-238.95 Y111.9 I0.175 J0 F700
X-242.15 Y111.9 I-1.6 J0
X-236.1 Y111.9 I3.025 J0
X-245 Y111.9 I-4.45 J0
X-233.25 Y111.9 I5.875 J0
X-247.85 Y111.9 I-7.3 J0
X-230.4 Y111.9 I8.725 J0
X-250.7 Y111.9 I-10.15 J0
X-227.55 Y111.9 I11.575 J0
X-253.55 Y111.9 I-13 J0
X-224.7 Y111.9 I14.425 J0
X-256.4 Y111.9 I-15.85 J0
X-221.85 Y111.9 I17.275 J0
X-259.25 Y111.9 I-18.7 J0
X-219 Y111.9 I20.125 J0
X-262.1 Y111.9 I-21.55 J0
X-216.15 Y111.9 I22.975 J0
X-264.95 Y111.9 I-24.4 J0
X-213.3 Y111.9 I25.825 J0
X-267.8 Y111.9 I-27.25 J0
X-213.3 Y111.9 I27.25 J0
X-214.847 Y113.36 I-1.462 J0
G1 X-236.331 Y112.117
X-236.443 Y112.114
G3 X-236.497 Y109.19 I-0.027 J-1.462
X-235.513 Y111.758 I0.027 J1.462
G1 X-236.955 Y113.007
G3 X-238.87 Y110.796 I-0.957 J-1.105
X-236.451 Y111.84 I0.957 J1.105
X-237.845 Y113.325 Z-1.2 I-1.424 J0.06 F333.3
X-239.3 Y111.9 Z-1.6 I-0.03 J-1.425
X-238.95 Y111.9 I0.175 J0 F700
X-242.15 Y111.9 I-1.6 J0
X-236.1 Y111.9 I3.025 J0
X-245 Y111.9 I-4.45 J0
X-233.25 Y111.9 I5.875 J0
X-247.85 Y111.9 I-7.3 J0
X-230.4 Y111.9 I8.725 J0
X-250.7 Y111.9 I-10.15 J0
X-227.55 Y111.9 I11.575 J0
X-253.55 Y111.9 I-13 J0
X-224.7 Y111.9 I14.425 J0
X-256.4 Y111.9 I-15.85 J0
X-221.85 Y111.9 I17.275 J0
X-259.25 Y111.9 I-18.7 J0
X-219 Y111.9 I20.125 J0
X-262.1 Y111.9 I-21.55 J0
X-216.15 Y111.9 I22.975 J0
X-264.95 Y111.9 I-24.4 J0
X-213.3 Y111.9 I25.825 J0
X-267.8 Y111.9 I-27.25 J0
X-213.3 Y111.9 I27.25 J0
X-214.847 Y113.36 I-1.462 J0
G1 X-236.331 Y112.117
X-236.443 Y112.114
G3 X-236.497 Y109.19 I-0.027 J-1.462
X-235.513 Y111.758 I0.027 J1.462
G1 X-236.955 Y113.007
G3 X-238.87 Y110.796 I-0.957 J-1.105
X-236.451 Y111.84 I0.957 J1.105
X-237.845 Y113.325 Z-2 I-1.424 J0.06 F333.3
X-239.3 Y111.9 Z-2.4 I-0.03 J-1.425
X-238.95 Y111.9 I0.175 J0 F700
X-242.15 Y111.9 I-1.6 J0
X-236.1 Y111.9 I3.025 J0
X-245 Y111.9 I-4.45 J0
X-233.25 Y111.9 I5.875 J0
X-247.85 Y111.9 I-7.3 J0
X-230.4 Y111.9 I8.725 J0
X-250.7 Y111.9 I-10.15 J0
X-227.55 Y111.9 I11.575 J0
X-253.55 Y111.9 I-13 J0
X-224.7 Y111.9 I14.425 J0
X-256.4 Y111.9 I-15.85 J0
X-221.85 Y111.9 I17.275 J0
X-259.25 Y111.9 I-18.7 J0
X-219 Y111.9 I20.125 J0
X-262.1 Y111.9 I-21.55 J0
X-216.15 Y111.9 I22.975 J0
X-264.95 Y111.9 I-24.4 J0
X-213.3 Y111.9 I25.825 J0
X-267.8 Y111.9 I-27.25 J0
X-213.3 Y111.9 I27.25 J0
X-214.847 Y113.36 I-1.462 J0
G1 X-236.331 Y112.117
X-236.443 Y112.114
G3 X-236.497 Y109.19 I-0.027 J-1.462
X-235.513 Y111.758 I0.027 J1.462
G1 X-236.955 Y113.007
G3 X-238.87 Y110.796 I-0.957 J-1.105
X-236.451 Y111.84 I0.957 J1.105
X-237.845 Y113.325 Z-2.8 I-1.424 J0.06 F333.3
X-239.3 Y111.9 Z-3.2 I-0.03 J-1.425
X-238.95 Y111.9 I0.175 J0 F700
X-242.15 Y111.9 I-1.6 J0
X-236.1 Y111.9 I3.025 J0
X-245 Y111.9 I-4.45 J0
X-233.25 Y111.9 I5.875 J0
X-247.85 Y111.9 I-7.3 J0
X-230.4 Y111.9 I8.725 J0
X-250.7 Y111.9 I-10.15 J0
X-227.55 Y111.9 I11.575 J0
X-253.55 Y111.9 I-13 J0
X-224.7 Y111.9 I14.425 J0
X-256.4 Y111.9 I-15.85 J0
X-221.85 Y111.9 I17.275 J0
X-259.25 Y111.9 I-18.7 J0
X-219 Y111.9 I20.125 J0
X-262.1 Y111.9 I-21.55 J0
X-216.15 Y111.9 I22.975 J0
X-264.95 Y111.9 I-24.4 J0
X-213.3 Y111.9 I25.825 J0
X-267.8 Y111.9 I-27.25 J0
X-213.3 Y111.9 I27.25 J0
X-214.847 Y113.36 I-1.462 J0
G1 X-236.331 Y112.117
X-236.443 Y112.114
G3 X-236.497 Y109.19 I-0.027 J-1.462
X-235.513 Y111.758 I0.027 J1.462
G1 X-236.955 Y113.007
G3 X-238.87 Y110.796 I-0.957 J-1.105
X-236.451 Y111.84 I0.957 J1.105
X-237.845 Y113.325 Z-3.6 I-1.424 J0.06 F333.3
X-239.3 Y111.9 Z-4 I-0.03 J-1.425
X-238.95 Y111.9 I0.175 J0 F700
X-242.15 Y111.9 I-1.6 J0
X-236.1 Y111.9 I3.025 J0
X-245 Y111.9 I-4.45 J0
X-233.25 Y111.9 I5.875 J0
X-247.85 Y111.9 I-7.3 J0
X-230.4 Y111.9 I8.725 J0
X-250.7 Y111.9 I-10.15 J0
X-227.55 Y111.9 I11.575 J0
X-253.55 Y111.9 I-13 J0
X-224.7 Y111.9 I14.425 J0
X-256.4 Y111.9 I-15.85 J0
X-221.85 Y111.9 I17.275 J0
X-259.25 Y111.9 I-18.7 J0
X-219 Y111.9 I20.125 J0
X-262.1 Y111.9 I-21.55 J0
X-216.15 Y111.9 I22.975 J0
X-264.95 Y111.9 I-24.4 J0
X-213.3 Y111.9 I25.825 J0
X-267.8 Y111.9 I-27.25 J0
X-213.3 Y111.9 I27.25 J0
X-214.847 Y113.36 I-1.462 J0
G1 X-236.331 Y112.117
X-236.443 Y112.114
G3 X-236.497 Y109.19 I-0.027 J-1.462
X-235.513 Y111.758 I0.027 J1.462
G1 X-236.955 Y113.007
G3 X-238.87 Y110.796 I-0.957 J-1.105
X-236.451 Y111.84 I0.957 J1.105
X-237.845 Y113.325 Z-4.4 I-1.424 J0.06 F333.3
X-239.3 Y111.9 Z-4.8 I-0.03 J-1.425
X-238.95 Y111.9 I0.175 J0 F700
X-242.15 Y111.9 I-1.6 J0
X-236.1 Y111.9 I3.025 J0
X-245 Y111.9 I-4.45 J0
X-233.25 Y111.9 I5.875 J0
X-247.85 Y111.9 I-7.3 J0
X-230.4 Y111.9 I8.725 J0
X-250.7 Y111.9 I-10.15 J0
X-227.55 Y111.9 I11.575 J0
X-253.55 Y111.9 I-13 J0
X-224.7 Y111.9 I14.425 J0
X-256.4 Y111.9 I-15.85 J0
X-221.85 Y111.9 I17.275 J0
X-259.25 Y111.9 I-18.7 J0
X-219 Y111.9 I20.125 J0
X-262.1 Y111.9 I-21.55 J0
X-216.15 Y111.9 I22.975 J0
X-264.95 Y111.9 I-24.4 J0
X-213.3 Y111.9 I25.825 J0
X-267.8 Y111.9 I-27.25 J0
X-213.3 Y111.9 I27.25 J0
X-214.847 Y113.36 I-1.462 J0
G1 X-236.331 Y112.117
X-236.443 Y112.114
G3 X-236.497 Y109.19 I-0.027 J-1.462
X-235.513 Y111.758 I0.027 J1.462
G1 X-236.955 Y113.007
G3 X-238.87 Y110.796 I-0.957 J-1.105
X-236.451 Y111.84 I0.957 J1.105
X-237.845 Y113.325 Z-5.2 I-1.424 J0.06 F333.3
X-239.3 Y111.9 Z-5.6 I-0.03 J-1.425
X-238.95 Y111.9 I0.175 J0 F700
X-242.15 Y111.9 I-1.6 J0
X-236.1 Y111.9 I3.025 J0
X-245 Y111.9 I-4.45 J0
X-233.25 Y111.9 I5.875 J0
X-247.85 Y111.9 I-7.3 J0
X-230.4 Y111.9 I8.725 J0
X-250.7 Y111.9 I-10.15 J0
X-227.55 Y111.9 I11.575 J0
X-253.55 Y111.9 I-13 J0
X-224.7 Y111.9 I14.425 J0
X-256.4 Y111.9 I-15.85 J0
X-221.85 Y111.9 I17.275 J0
X-259.25 Y111.9 I-18.7 J0
X-219 Y111.9 I20.125 J0
X-262.1 Y111.9 I-21.55 J0
X-216.15 Y111.9 I22.975 J0
X-264.95 Y111.9 I-24.4 J0
X-213.3 Y111.9 I25.825 J0
X-267.8 Y111.9 I-27.25 J0
X-213.3 Y111.9 I27.25 J0
X-214.847 Y113.36 I-1.462 J0
G1 X-236.331 Y112.117
X-236.443 Y112.114
G3 X-236.497 Y109.19 I-0.027 J-1.462
X-235.513 Y111.758 I0.027 J1.462
G1 X-236.955 Y113.007
G3 X-238.87 Y110.796 I-0.957 J-1.105
X-236.451 Y111.84 I0.957 J1.105
X-237.845 Y113.325 Z-6 I-1.424 J0.06 F333.3
X-239.3 Y111.9 Z-6.4 I-0.03 J-1.425
X-238.95 Y111.9 I0.175 J0 F700
X-242.15 Y111.9 I-1.6 J0
X-236.1 Y111.9 I3.025 J0
X-245 Y111.9 I-4.45 J0
X-233.25 Y111.9 I5.875 J0
X-247.85 Y111.9 I-7.3 J0
X-230.4 Y111.9 I8.725 J0
X-250.7 Y111.9 I-10.15 J0
X-227.55 Y111.9 I11.575 J0
X-253.55 Y111.9 I-13 J0
X-224.7 Y111.9 I14.425 J0
X-256.4 Y111.9 I-15.85 J0
X-221.85 Y111.9 I17.275 J0
X-259.25 Y111.9 I-18.7 J0
X-219 Y111.9 I20.125 J0
X-262.1 Y111.9 I-21.55 J0
X-216.15 Y111.9 I22.975 J0
X-264.95 Y111.9 I-24.4 J0
X-213.3 Y111.9 I25.825 J0
X-267.8 Y111.9 I-27.25 J0
X-213.3 Y111.9 I27.25 J0
X-214.847 Y113.36 I-1.462 J0
G1 X-236.331 Y112.117
X-236.443 Y112.114
G3 X-236.497 Y109.19 I-0.027 J-1.462
X-235.513 Y111.758 I0.027 J1.462
G1 X-236.955 Y113.007
G3 X-238.87 Y110.796 I-0.957 J-1.105
X-236.451 Y111.84 I0.957 J1.105
X-237.845 Y113.325 Z-6.8 I-1.424 J0.06 F333.3
X-239.3 Y111.9 Z-7.2 I-0.03 J-1.425
X-238.95 Y111.9 I0.175 J0 F700
X-242.15 Y111.9 I-1.6 J0
X-236.1 Y111.9 I3.025 J0
X-245 Y111.9 I-4.45 J0
X-233.25 Y111.9 I5.875 J0
X-247.85 Y111.9 I-7.3 J0
X-230.4 Y111.9 I8.725 J0
X-250.7 Y111.9 I-10.15 J0
X-227.55 Y111.9 I11.575 J0
X-253.55 Y111.9 I-13 J0
X-224.7 Y111.9 I14.425 J0
X-256.4 Y111.9 I-15.85 J0
X-221.85 Y111.9 I17.275 J0
X-259.25 Y111.9 I-18.7 J0
X-219 Y111.9 I20.125 J0
X-262.1 Y111.9 I-21.55 J0
X-216.15 Y111.9 I22.975 J0
X-264.95 Y111.9 I-24.4 J0
X-213.3 Y111.9 I25.825 J0
X-267.8 Y111.9 I-27.25 J0
X-213.3 Y111.9 I27.25 J0
X-214.847 Y113.36 I-1.462 J0
G1 X-236.331 Y112.117
X-236.443 Y112.114
G3 X-236.497 Y109.19 I-0.027 J-1.462
X-235.513 Y111.758 I0.027 J1.462
G1 X-236.955 Y113.007
G3 X-238.87 Y110.796 I-0.957 J-1.105
X-236.451 Y111.84 I0.957 J1.105
X-237.845 Y113.325 Z-7.6 I-1.424 J0.06 F333.3
X-239.3 Y111.9 Z-8 I-0.03 J-1.425
X-238.95 Y111.9 I0.175 J0 F700
X-242.15 Y111.9 I-1.6 J0
X-236.1 Y111.9 I3.025 J0
X-245 Y111.9 I-4.45 J0
X-233.25 Y111.9 I5.875 J0
X-247.85 Y111.9 I-7.3 J0
X-230.4 Y111.9 I8.725 J0
X-250.7 Y111.9 I-10.15 J0
X-227.55 Y111.9 I11.575 J0
X-253.55 Y111.9 I-13 J0
X-224.7 Y111.9 I14.425 J0
X-256.4 Y111.9 I-15.85 J0
X-221.85 Y111.9 I17.275 J0
X-259.25 Y111.9 I-18.7 J0
X-219 Y111.9 I20.125 J0
X-262.1 Y111.9 I-21.55 J0
X-216.15 Y111.9 I22.975 J0
X-264.95 Y111.9 I-24.4 J0
X-213.3 Y111.9 I25.825 J0
X-267.8 Y111.9 I-27.25 J0
X-213.3 Y111.9 I27.25 J0
X-214.847 Y113.36 I-1.462 J0
G1 X-236.331 Y112.117
X-236.443 Y112.114
G3 X-236.497 Y109.19 I-0.027 J-1.462
X-235.513 Y111.758 I0.027 J1.462
G1 X-236.955 Y113.007
G3 X-238.87 Y110.796 I-0.957 J-1.105
X-236.451 Y111.84 I0.957 J1.105
X-237.845 Y113.325 Z-8.4 I-1.424 J0.06 F333.3
X-239.3 Y111.9 Z-8.8 I-0.03 J-1.425
X-238.95 Y111.9 I0.175 J0 F700
X-242.15 Y111.9 I-1.6 J0
X-236.1 Y111.9 I3.025 J0
X-245 Y111.9 I-4.45 J0
X-233.25 Y111.9 I5.875 J0
X-247.85 Y111.9 I-7.3 J0
X-230.4 Y111.9 I8.725 J0
X-250.7 Y111.9 I-10.15 J0
X-227.55 Y111.9 I11.575 J0
X-253.55 Y111.9 I-13 J0
X-224.7 Y111.9 I14.425 J0
X-256.4 Y111.9 I-15.85 J0
X-221.85 Y111.9 I17.275 J0
X-259.25 Y111.9 I-18.7 J0
X-219 Y111.9 I20.125 J0
X-262.1 Y111.9 I-21.55 J0
X-216.15 Y111.9 I22.975 J0
X-264.95 Y111.9 I-24.4 J0
X-213.3 Y111.9 I25.825 J0
X-267.8 Y111.9 I-27.25 J0
X-213.3 Y111.9 I27.25 J0
X-214.982 Y113.346 I-1.462 J0
G1 X-235.959 Y110.164
G3 X-235.513 Y107.273 I0.223 J-1.445
X-234.53 Y109.546 I-0.223 J1.445
G1 X-236.539 Y112.396
G3 X-239.3 Y111.9 Z-9.5 I-1.336 J-0.496 F333.3
X-238.95 Y111.9 I0.175 J0 F700
X-242.15 Y111.9 I-1.6 J0
X-236.1 Y111.9 I3.025 J0
X-245 Y111.9 I-4.45 J0
X-233.25 Y111.9 I5.875 J0
X-247.85 Y111.9 I-7.3 J0
X-230.4 Y111.9 I8.725 J0
X-250.7 Y111.9 I-10.15 J0
X-227.55 Y111.9 I11.575 J0
X-253.55 Y111.9 I-13 J0
X-224.7 Y111.9 I14.425 J0
X-256.4 Y111.9 I-15.85 J0
X-221.85 Y111.9 I17.275 J0
X-259.25 Y111.9 I-18.7 J0
X-219 Y111.9 I20.125 J0
X-262.1 Y111.9 I-21.55 J0
X-216.15 Y111.9 I22.975 J0
X-264.95 Y111.9 I-24.4 J0
X-213.3 Y111.9 I25.825 J0
X-267.8 Y111.9 I-27.25 J0
X-213.3 Y111.9 I27.25 J0
G0 Z7
X-278.036 Y126.15
Z2
G1 Z1.8 F700
Z-0.8
G3 X-277.588 Y127.04 I-5.428 J3.291
G2 X-269.005 Y140.085 I37.505 J-15.331
X-240.741 Y151.95 I28.264 J-27.73
X-212.365 Y140.355 I0 J-40.517
X-200.5 Y112.091 I-27.73 J-28.264
X-212.095 Y83.715 I-40.517 J0
X-240.359 Y71.85 I-28.264 J27.73
X-268.735 Y83.445 I0 J40.517
X-280.6 Y111.709 I27.73 J28.264
X-277.588 Y127.04 I40.517 J0
X-275.458 Y128.448 I2.097 J-0.857
G3 X-273.253 Y129.735 I0.036 J2.47
G2 X-240.741 Y149.15 I32.703 J-17.835
G1 X-240.55
G2 X-240.55 Y74.65 I0 J-37.25
X-277.8 Y111.9 I0 J37.25
X-273.253 Y129.735 I37.25 J0
G3 X-273.896 Y131.706 Z-0.862 I-1.251 J0.682 F333.3
X-275.826 Y130.949 Z-0.925 I-0.608 J-1.289
G1 X-283.347 Y112.241 Z-1.465
G3 X-280.703 Y111.177 Z-1.585 I1.322 J-0.532
X-280.6 Y111.709 Z-1.6 I-1.322 J0.532
G2 X-269.005 Y140.085 I40.517 J0 F700
X-240.741 Y151.95 I28.264 J-27.73
X-212.365 Y140.355 I0 J-40.517
X-200.5 Y112.091 I-27.73 J-28.264
X-212.095 Y83.715 I-40.517 J0
X-240.359 Y71.85 I-28.264 J27.73
X-268.735 Y83.445 I0 J40.517
X-280.6 Y111.709 I27.73 J28.264
X-279.149 Y113.846 I2.299 J0
G3 X-277.584 Y115.902 I-0.922 J2.325
G2 X-240.741 Y149.15 I37.035 J-4.002
G1 X-240.55
G2 X-240.55 Y74.65 I0 J-37.25
X-277.8 Y111.9 I0 J37.25
X-277.584 Y115.902 I37.25 J0
G3 X-280.171 Y116.869 Z-1.809 I-1.417 J0.153 F333.3
G1 X-283.195 Y112.523 Z-2.103
G3 X-280.855 Y110.895 Z-2.352 I1.17 J-0.814
X-280.6 Y111.709 Z-2.4 I-1.17 J0.814
G2 X-269.005 Y140.085 I40.517 J0 F700
X-240.741 Y151.95 I28.264 J-27.73
X-212.365 Y140.355 I0 J-40.517
X-200.5 Y112.091 I-27.73 J-28.264
X-212.095 Y83.715 I-40.517 J0
X-240.359 Y71.85 I-28.264 J27.73
X-268.735 Y83.445 I0 J40.517
X-280.6 Y111.709 I27.73 J28.264
X-279.149 Y113.846 I2.299 J0
G3 X-277.584 Y115.902 I-0.922 J2.325
G2 X-240.741 Y149.15 I37.035 J-4.002
G1 X-240.55
G2 X-240.55 Y74.65 I0 J-37.25
X-277.8 Y111.9 I0 J37.25
X-277.584 Y115.902 I37.25 J0
G3 X-280.171 Y116.869 Z-2.609 I-1.417 J0.153 F333.3
G1 X-283.195 Y112.523 Z-2.903
G3 X-280.855 Y110.895 Z-3.152 I1.17 J-0.814
X-280.6 Y111.709 Z-3.2 I-1.17 J0.814
G2 X-269.005 Y140.085 I40.517 J0 F700
X-240.741 Y151.95 I28.264 J-27.73
X-212.365 Y140.355 I0 J-40.517
X-200.5 Y112.091 I-27.73 J-28.264
X-212.095 Y83.715 I-40.517 J0
X-240.359 Y71.85 I-28.264 J27.73
X-268.735 Y83.445 I0 J40.517
X-280.6 Y111.709 I27.73 J28.264
X-279.149 Y113.846 I2.299 J0
G3 X-277.584 Y115.902 I-0.922 J2.325
G2 X-240.741 Y149.15 I37.035 J-4.002
G1 X-240.55
G2 X-240.55 Y74.65 I0 J-37.25
X-277.8 Y111.9 I0 J37.25
X-277.584 Y115.902 I37.25 J0
G3 X-280.171 Y116.869 Z-3.409 I-1.417 J0.153 F333.3
G1 X-283.195 Y112.523 Z-3.703
G3 X-280.855 Y110.895 Z-3.952 I1.17 J-0.814
X-280.6 Y111.709 Z-4 I-1.17 J0.814
G2 X-269.005 Y140.085 I40.517 J0 F700
X-240.741 Y151.95 I28.264 J-27.73
X-212.365 Y140.355 I0 J-40.517
X-200.5 Y112.091 I-27.73 J-28.264
X-212.095 Y83.715 I-40.517 J0
X-240.359 Y71.85 I-28.264 J27.73
X-268.735 Y83.445 I0 J40.517
X-280.6 Y111.709 I27.73 J28.264
X-279.149 Y113.846 I2.299 J0
G3 X-277.584 Y115.902 I-0.922 J2.325
G2 X-240.741 Y149.15 I37.035 J-4.002
G1 X-240.55
G2 X-240.55 Y74.65 I0 J-37.25
X-277.8 Y111.9 I0 J37.25
X-277.584 Y115.902 I37.25 J0
G3 X-280.171 Y116.869 Z-4.209 I-1.417 J0.153 F333.3
G1 X-283.195 Y112.523 Z-4.503
G3 X-280.855 Y110.895 Z-4.752 I1.17 J-0.814
X-280.6 Y111.709 Z-4.8 I-1.17 J0.814
G2 X-269.005 Y140.085 I40.517 J0 F700
X-240.741 Y151.95 I28.264 J-27.73
X-212.365 Y140.355 I0 J-40.517
X-200.5 Y112.091 I-27.73 J-28.264
X-212.095 Y83.715 I-40.517 J0
X-240.359 Y71.85 I-28.264 J27.73
X-268.735 Y83.445 I0 J40.517
X-280.6 Y111.709 I27.73 J28.264
X-279.149 Y113.846 I2.299 J0
G3 X-277.584 Y115.902 I-0.922 J2.325
G2 X-240.741 Y149.15 I37.035 J-4.002
G1 X-240.55
G2 X-240.55 Y74.65 I0 J-37.25
X-277.8 Y111.9 I0 J37.25
X-277.584 Y115.902 I37.25 J0
G3 X-280.171 Y116.869 Z-5.009 I-1.417 J0.153 F333.3
G1 X-283.195 Y112.523 Z-5.303
G3 X-280.855 Y110.895 Z-5.552 I1.17 J-0.814
X-280.6 Y111.709 Z-5.6 I-1.17 J0.814
G2 X-269.005 Y140.085 I40.517 J0 F700
X-240.741 Y151.95 I28.264 J-27.73
X-212.365 Y140.355 I0 J-40.517
X-200.5 Y112.091 I-27.73 J-28.264
X-212.095 Y83.715 I-40.517 J0
X-240.359 Y71.85 I-28.264 J27.73
X-268.735 Y83.445 I0 J40.517
X-280.6 Y111.709 I27.73 J28.264
X-279.149 Y113.846 I2.299 J0
G3 X-277.584 Y115.902 I-0.922 J2.325
G2 X-240.741 Y149.15 I37.035 J-4.002
G1 X-240.55
G2 X-240.55 Y74.65 I0 J-37.25
X-277.8 Y111.9 I0 J37.25
X-277.584 Y115.902 I37.25 J0
G3 X-280.171 Y116.869 Z-5.809 I-1.417 J0.153 F333.3
G1 X-283.195 Y112.523 Z-6.103
G3 X-280.855 Y110.895 Z-6.352 I1.17 J-0.814
X-280.6 Y111.709 Z-6.4 I-1.17 J0.814
G2 X-269.005 Y140.085 I40.517 J0 F700
X-240.741 Y151.95 I28.264 J-27.73
X-212.365 Y140.355 I0 J-40.517
X-200.5 Y112.091 I-27.73 J-28.264
X-212.095 Y83.715 I-40.517 J0
X-240.359 Y71.85 I-28.264 J27.73
X-268.735 Y83.445 I0 J40.517
X-280.6 Y111.709 I27.73 J28.264
X-279.149 Y113.846 I2.299 J0
G3 X-277.584 Y115.902 I-0.922 J2.325
G2 X-240.741 Y149.15 I37.035 J-4.002
G1 X-240.55
G2 X-240.55 Y74.65 I0 J-37.25
X-277.8 Y111.9 I0 J37.25
X-277.584 Y115.902 I37.25 J0
G3 X-280.171 Y116.869 Z-6.609 I-1.417 J0.153 F333.3
G1 X-283.195 Y112.523 Z-6.903
G3 X-280.855 Y110.895 Z-7.152 I1.17 J-0.814
X-280.6 Y111.709 Z-7.2 I-1.17 J0.814
G2 X-269.005 Y140.085 I40.517 J0 F700
X-240.741 Y151.95 I28.264 J-27.73
X-212.365 Y140.355 I0 J-40.517
X-200.5 Y112.091 I-27.73 J-28.264
X-212.095 Y83.715 I-40.517 J0
X-240.359 Y71.85 I-28.264 J27.73
X-268.735 Y83.445 I0 J40.517
X-280.6 Y111.709 I27.73 J28.264
X-279.149 Y113.846 I2.299 J0
G3 X-277.584 Y115.902 I-0.922 J2.325
G2 X-240.741 Y149.15 I37.035 J-4.002
G1 X-240.55
G2 X-240.55 Y74.65 I0 J-37.25
X-277.8 Y111.9 I0 J37.25
X-277.584 Y115.902 I37.25 J0
G3 X-280.171 Y116.869 Z-7.409 I-1.417 J0.153 F333.3
G1 X-283.195 Y112.523 Z-7.703
G3 X-280.855 Y110.895 Z-7.952 I1.17 J-0.814
X-280.6 Y111.709 Z-8 I-1.17 J0.814
G2 X-269.005 Y140.085 I40.517 J0 F700
X-240.741 Y151.95 I28.264 J-27.73
X-212.365 Y140.355 I0 J-40.517
X-200.5 Y112.091 I-27.73 J-28.264
X-212.095 Y83.715 I-40.517 J0
X-240.359 Y71.85 I-28.264 J27.73
X-268.735 Y83.445 I0 J40.517
X-280.6 Y111.709 I27.73 J28.264
X-279.149 Y113.846 I2.299 J0
G3 X-277.584 Y115.902 I-0.922 J2.325
G2 X-240.741 Y149.15 I37.035 J-4.002
G1 X-240.55
G2 X-240.55 Y74.65 I0 J-37.25
X-277.8 Y111.9 I0 J37.25
X-277.584 Y115.902 I37.25 J0
G3 X-280.171 Y116.869 Z-8.209 I-1.417 J0.153 F333.3
G1 X-283.195 Y112.523 Z-8.503
G3 X-280.855 Y110.895 Z-8.752 I1.17 J-0.814
X-280.6 Y111.709 Z-8.8 I-1.17 J0.814
G2 X-269.005 Y140.085 I40.517 J0 F700
X-240.741 Y151.95 I28.264 J-27.73
X-212.365 Y140.355 I0 J-40.517
X-200.5 Y112.091 I-27.73 J-28.264
X-212.095 Y83.715 I-40.517 J0
X-240.359 Y71.85 I-28.264 J27.73
X-268.735 Y83.445 I0 J40.517
X-280.6 Y111.709 I27.73 J28.264
X-279.149 Y113.846 I2.299 J0
G3 X-277.584 Y115.902 I-0.922 J2.325
G2 X-240.741 Y149.15 I37.035 J-4.002
G1 X-240.55
G2 X-240.55 Y74.65 I0 J-37.25
X-277.8 Y111.9 I0 J37.25
X-277.584 Y115.902 I37.25 J0
G3 X-280.171 Y116.869 Z-9.009 I-1.417 J0.153 F333.3
G1 X-283.195 Y112.523 Z-9.303
G3 X-280.855 Y110.895 Z-9.552 I1.17 J-0.814
X-280.6 Y111.709 Z-9.6 I-1.17 J0.814
G2 X-269.005 Y140.085 I40.517 J0 F700
X-240.741 Y151.95 I28.264 J-27.73
X-212.365 Y140.355 I0 J-40.517
X-200.5 Y112.091 I-27.73 J-28.264
X-212.095 Y83.715 I-40.517 J0
X-240.359 Y71.85 I-28.264 J27.73
X-268.735 Y83.445 I0 J40.517
X-280.6 Y111.709 I27.73 J28.264
X-279.149 Y113.846 I2.299 J0
G3 X-277.584 Y115.902 I-0.922 J2.325
G2 X-240.741 Y149.15 I37.035 J-4.002
G1 X-240.55
G2 X-240.55 Y74.65 I0 J-37.25
X-277.8 Y111.9 I0 J37.25
X-277.584 Y115.902 I37.25 J0
G3 X-280.171 Y116.869 Z-9.809 I-1.417 J0.153 F333.3
G1 X-283.195 Y112.523 Z-10.103
G3 X-280.855 Y110.895 Z-10.352 I1.17 J-0.814
X-280.6 Y111.709 Z-10.4 I-1.17 J0.814
G2 X-269.005 Y140.085 I40.517 J0 F700
X-240.741 Y151.95 I28.264 J-27.73
X-212.365 Y140.355 I0 J-40.517
X-200.5 Y112.091 I-27.73 J-28.264
X-212.095 Y83.715 I-40.517 J0
X-240.359 Y71.85 I-28.264 J27.73
X-268.735 Y83.445 I0 J40.517
X-280.6 Y111.709 I27.73 J28.264
X-279.149 Y113.846 I2.299 J0
G3 X-277.584 Y115.902 I-0.922 J2.325
G2 X-240.741 Y149.15 I37.035 J-4.002
G1 X-240.55
G2 X-240.55 Y74.65 I0 J-37.25
X-277.8 Y111.9 I0 J37.25
X-277.584 Y115.902 I37.25 J0
G3 X-280.171 Y116.869 Z-10.609 I-1.417 J0.153 F333.3
G1 X-283.195 Y112.523 Z-10.903
G3 X-280.855 Y110.895 Z-11.152 I1.17 J-0.814
X-280.6 Y111.709 Z-11.2 I-1.17 J0.814
G2 X-269.005 Y140.085 I40.517 J0 F700
X-240.741 Y151.95 I28.264 J-27.73
X-212.365 Y140.355 I0 J-40.517
X-200.5 Y112.091 I-27.73 J-28.264
X-212.095 Y83.715 I-40.517 J0
X-240.359 Y71.85 I-28.264 J27.73
X-268.735 Y83.445 I0 J40.517
X-280.6 Y111.709 I27.73 J28.264
X-279.149 Y113.846 I2.299 J0
G3 X-277.584 Y115.902 I-0.922 J2.325
G2 X-240.741 Y149.15 I37.035 J-4.002
G1 X-240.55
G2 X-240.55 Y74.65 I0 J-37.25
X-277.8 Y111.9 I0 J37.25
X-277.584 Y115.902 I37.25 J0
G3 X-280.171 Y116.869 Z-11.409 I-1.417 J0.153 F333.3
G1 X-283.195 Y112.523 Z-11.703
G3 X-280.855 Y110.895 Z-11.952 I1.17 J-0.814
X-280.6 Y111.709 Z-12 I-1.17 J0.814
G2 X-269.005 Y140.085 I40.517 J0 F700
X-240.741 Y151.95 I28.264 J-27.73
X-212.365 Y140.355 I0 J-40.517
X-200.5 Y112.091 I-27.73 J-28.264
X-212.095 Y83.715 I-40.517 J0
X-240.359 Y71.85 I-28.264 J27.73
X-268.735 Y83.445 I0 J40.517
X-280.6 Y111.709 I27.73 J28.264
X-279.149 Y113.846 I2.299 J0
G3 X-277.584 Y115.902 I-0.922 J2.325
G2 X-240.741 Y149.15 I37.035 J-4.002
G1 X-240.55
G2 X-240.55 Y74.65 I0 J-37.25
X-277.8 Y111.9 I0 J37.25
X-277.584 Y115.902 I37.25 J0
G3 X-280.171 Y116.869 Z-12.209 I-1.417 J0.153 F333.3
G1 X-283.195 Y112.523 Z-12.503
G3 X-280.855 Y110.895 Z-12.752 I1.17 J-0.814
X-280.6 Y111.709 Z-12.8 I-1.17 J0.814
G2 X-269.005 Y140.085 I40.517 J0 F700
X-240.741 Y151.95 I28.264 J-27.73
X-212.365 Y140.355 I0 J-40.517
X-200.5 Y112.091 I-27.73 J-28.264
X-212.095 Y83.715 I-40.517 J0
X-240.359 Y71.85 I-28.264 J27.73
X-268.735 Y83.445 I0 J40.517
X-280.6 Y111.709 I27.73 J28.264
X-279.149 Y113.846 I2.299 J0
G3 X-277.584 Y115.902 I-0.922 J2.325
G2 X-240.741 Y149.15 I37.035 J-4.002
G1 X-240.55
G2 X-240.55 Y74.65 I0 J-37.25
X-277.8 Y111.9 I0 J37.25
X-277.584 Y115.902 I37.25 J0
G3 X-280.171 Y116.869 Z-13.009 I-1.417 J0.153 F333.3
G1 X-283.195 Y112.523 Z-13.303
G3 X-280.855 Y110.895 Z-13.552 I1.17 J-0.814
X-280.6 Y111.709 Z-13.6 I-1.17 J0.814
G2 X-269.005 Y140.085 I40.517 J0 F700
X-240.741 Y151.95 I28.264 J-27.73
X-212.365 Y140.355 I0 J-40.517
X-200.5 Y112.091 I-27.73 J-28.264
X-212.095 Y83.715 I-40.517 J0
X-240.359 Y71.85 I-28.264 J27.73
X-268.735 Y83.445 I0 J40.517
X-280.6 Y111.709 I27.73 J28.264
X-279.149 Y113.846 I2.299 J0
G3 X-277.584 Y115.902 I-0.922 J2.325
G2 X-240.741 Y149.15 I37.035 J-4.002
G1 X-240.55
G2 X-240.55 Y74.65 I0 J-37.25
X-277.8 Y111.9 I0 J37.25
X-277.584 Y115.902 I37.25 J0
G3 X-280.171 Y116.869 Z-13.705 I-1.417 J0.153 F333.3
G1 X-283.195 Y112.523 Z-13.852
G3 X-280.855 Y110.895 Z-13.976 I1.17 J-0.814
X-280.6 Y111.709 Z-14 I-1.17 J0.814
G2 X-269.005 Y140.085 I40.517 J0 F700
X-240.741 Y151.95 I28.264 J-27.73
X-212.365 Y140.355 I0 J-40.517
X-200.5 Y112.091 I-27.73 J-28.264
X-212.095 Y83.715 I-40.517 J0
X-240.359 Y71.85 I-28.264 J27.73
X-268.735 Y83.445 I0 J40.517
X-280.6 Y111.709 I27.73 J28.264
X-279.149 Y113.846 I2.299 J0
G3 X-277.584 Y115.902 I-0.922 J2.325
G2 X-240.741 Y149.15 I37.035 J-4.002
G1 X-240.55
G2 X-240.55 Y74.65 I0 J-37.25
X-277.8 Y111.9 I0 J37.25
X-277.584 Y115.902 I37.25 J0
G0 Z7
X-254.115 Y110.764
Z2
G1 Z1.8 F700
G3 X-255.835 Y113.036 Z1.011 I-0.86 J1.136 F333.3
X-254.115 Y110.764 Z0.221 I0.86 J-1.136
X-255.835 Y113.036 Z-0.568 I-0.86 J1.136
X-256.4 Y111.9 Z-0.8 I0.86 J-1.136
G1 X-256.393 Y111.882 F700
X-256.375 Y111.875
X-256.357 Y111.882
X-256.35 Y111.9
G3 X-259.25 Y111.9 I-1.45 J0
X-253.5 Y111.9 I2.875 J0
X-262.1 Y111.9 I-4.3 J0
X-250.65 Y111.9 I5.725 J0
X-264.95 Y111.9 I-7.15 J0
X-247.8 Y111.9 I8.575 J0
X-267.8 Y111.9 I-10 J0
X-247.8 Y111.9 I10 J0
X-248.948 Y112.839 I-0.958 J0
G1 X-253.349 Y111.95
X-253.448 Y111.935
X-253.549 Y111.931
G3 X-253.569 Y110.014 I-0.01 J-0.958
X-252.897 Y111.665 I0.01 J0.958
G1 X-253.846 Y112.573
G3 X-255.171 Y111.188 I-0.662 J-0.693
X-253.551 Y111.84 I0.662 J0.693
X-254.945 Y113.325 Z-1.2 I-1.424 J0.06 F333.3
X-256.4 Y111.9 Z-1.6 I-0.03 J-1.425
G1 X-256.393 Y111.882 F700
X-256.375 Y111.875
X-256.357 Y111.882
X-256.35 Y111.9
G3 X-259.25 Y111.9 I-1.45 J0
X-253.5 Y111.9 I2.875 J0
X-262.1 Y111.9 I-4.3 J0
X-250.65 Y111.9 I5.725 J0
X-264.95 Y111.9 I-7.15 J0
X-247.8 Y111.9 I8.575 J0
X-267.8 Y111.9 I-10 J0
X-247.8 Y111.9 I10 J0
X-248.948 Y112.839 I-0.958 J0
G1 X-253.349 Y111.95
X-253.448 Y111.935
X-253.549 Y111.931
G3 X-253.569 Y110.014 I-0.01 J-0.958
X-252.897 Y111.665 I0.01 J0.958
G1 X-253.846 Y112.573
G3 X-255.171 Y111.188 I-0.662 J-0.693
X-253.551 Y111.84 I0.662 J0.693
X-254.945 Y113.325 Z-2 I-1.424 J0.06 F333.3
X-256.4 Y111.9 Z-2.4 I-0.03 J-1.425
G1 X-256.393 Y111.882 F700
X-256.375 Y111.875
X-256.357 Y111.882
X-256.35 Y111.9
G3 X-259.25 Y111.9 I-1.45 J0
X-253.5 Y111.9 I2.875 J0
X-262.1 Y111.9 I-4.3 J0
X-250.65 Y111.9 I5.725 J0
X-264.95 Y111.9 I-7.15 J0
X-247.8 Y111.9 I8.575 J0
X-267.8 Y111.9 I-10 J0
X-247.8 Y111.9 I10 J0
X-248.948 Y112.839 I-0.958 J0
G1 X-253.349 Y111.95
X-253.448 Y111.935
X-253.549 Y111.931
G3 X-253.569 Y110.014 I-0.01 J-0.958
X-252.897 Y111.665 I0.01 J0.958
G1 X-253.846 Y112.573
G3 X-255.171 Y111.188 I-0.662 J-0.693
X-253.551 Y111.84 I0.662 J0.693
X-254.945 Y113.325 Z-2.8 I-1.424 J0.06 F333.3
X-256.4 Y111.9 Z-3.2 I-0.03 J-1.425
G1 X-256.393 Y111.882 F700
X-256.375 Y111.875
X-256.357 Y111.882
X-256.35 Y111.9
G3 X-259.25 Y111.9 I-1.45 J0
X-253.5 Y111.9 I2.875 J0
X-262.1 Y111.9 I-4.3 J0
X-250.65 Y111.9 I5.725 J0
X-264.95 Y111.9 I-7.15 J0
X-247.8 Y111.9 I8.575 J0
X-267.8 Y111.9 I-10 J0
X-247.8 Y111.9 I10 J0
X-248.948 Y112.839 I-0.958 J0
G1 X-253.349 Y111.95
X-253.448 Y111.935
X-253.549 Y111.931
G3 X-253.569 Y110.014 I-0.01 J-0.958
X-252.897 Y111.665 I0.01 J0.958
G1 X-253.846 Y112.573
G3 X-255.171 Y111.188 I-0.662 J-0.693
X-253.551 Y111.84 I0.662 J0.693
X-254.945 Y113.325 Z-3.6 I-1.424 J0.06 F333.3
X-256.4 Y111.9 Z-4 I-0.03 J-1.425
G1 X-256.393 Y111.882 F700
X-256.375 Y111.875
X-256.357 Y111.882
X-256.35 Y111.9
G3 X-259.25 Y111.9 I-1.45 J0
X-253.5 Y111.9 I2.875 J0
X-262.1 Y111.9 I-4.3 J0
X-250.65 Y111.9 I5.725 J0
X-264.95 Y111.9 I-7.15 J0
X-247.8 Y111.9 I8.575 J0
X-267.8 Y111.9 I-10 J0
X-247.8 Y111.9 I10 J0
X-248.948 Y112.839 I-0.958 J0
G1 X-253.349 Y111.95
X-253.448 Y111.935
X-253.549 Y111.931
G3 X-253.569 Y110.014 I-0.01 J-0.958
X-252.897 Y111.665 I0.01 J0.958
G1 X-253.846 Y112.573
G3 X-255.171 Y111.188 I-0.662 J-0.693
X-253.551 Y111.84 I0.662 J0.693
X-254.945 Y113.325 Z-4.4 I-1.424 J0.06 F333.3
X-256.4 Y111.9 Z-4.8 I-0.03 J-1.425
G1 X-256.393 Y111.882 F700
X-256.375 Y111.875
X-256.357 Y111.882
X-256.35 Y111.9
G3 X-259.25 Y111.9 I-1.45 J0
X-253.5 Y111.9 I2.875 J0
X-262.1 Y111.9 I-4.3 J0
X-250.65 Y111.9 I5.725 J0
X-264.95 Y111.9 I-7.15 J0
X-247.8 Y111.9 I8.575 J0
X-267.8 Y111.9 I-10 J0
X-247.8 Y111.9 I10 J0
X-248.948 Y112.839 I-0.958 J0
G1 X-253.349 Y111.95
X-253.448 Y111.935
X-253.549 Y111.931
G3 X-253.569 Y110.014 I-0.01 J-0.958
X-252.897 Y111.665 I0.01 J0.958
G1 X-253.846 Y112.573
G3 X-255.171 Y111.188 I-0.662 J-0.693
X-253.551 Y111.84 I0.662 J0.693
X-254.945 Y113.325 Z-5.2 I-1.424 J0.06 F333.3
X-256.4 Y111.9 Z-5.6 I-0.03 J-1.425
G1 X-256.393 Y111.882 F700
X-256.375 Y111.875
X-256.357 Y111.882
X-256.35 Y111.9
G3 X-259.25 Y111.9 I-1.45 J0
X-253.5 Y111.9 I2.875 J0
X-262.1 Y111.9 I-4.3 J0
X-250.65 Y111.9 I5.725 J0
X-264.95 Y111.9 I-7.15 J0
X-247.8 Y111.9 I8.575 J0
X-267.8 Y111.9 I-10 J0
X-247.8 Y111.9 I10 J0
X-248.948 Y112.839 I-0.958 J0
G1 X-253.349 Y111.95
X-253.448 Y111.935
X-253.549 Y111.931
G3 X-253.569 Y110.014 I-0.01 J-0.958
X-252.897 Y111.665 I0.01 J0.958
G1 X-253.846 Y112.573
G3 X-255.171 Y111.188 I-0.662 J-0.693
X-253.551 Y111.84 I0.662 J0.693
X-254.945 Y113.325 Z-6 I-1.424 J0.06 F333.3
X-256.4 Y111.9 Z-6.4 I-0.03 J-1.425
G1 X-256.393 Y111.882 F700
X-256.375 Y111.875
X-256.357 Y111.882
X-256.35 Y111.9
G3 X-259.25 Y111.9 I-1.45 J0
X-253.5 Y111.9 I2.875 J0
X-262.1 Y111.9 I-4.3 J0
X-250.65 Y111.9 I5.725 J0
X-264.95 Y111.9 I-7.15 J0
X-247.8 Y111.9 I8.575 J0
X-267.8 Y111.9 I-10 J0
X-247.8 Y111.9 I10 J0
X-248.948 Y112.839 I-0.958 J0
G1 X-253.349 Y111.95
X-253.448 Y111.935
X-253.549 Y111.931
G3 X-253.569 Y110.014 I-0.01 J-0.958
X-252.897 Y111.665 I0.01 J0.958
G1 X-253.846 Y112.573
G3 X-255.171 Y111.188 I-0.662 J-0.693
X-253.551 Y111.84 I0.662 J0.693
X-254.945 Y113.325 Z-6.8 I-1.424 J0.06 F333.3
X-256.4 Y111.9 Z-7.2 I-0.03 J-1.425
G1 X-256.393 Y111.882 F700
X-256.375 Y111.875
X-256.357 Y111.882
X-256.35 Y111.9
G3 X-259.25 Y111.9 I-1.45 J0
X-253.5 Y111.9 I2.875 J0
X-262.1 Y111.9 I-4.3 J0
X-250.65 Y111.9 I5.725 J0
X-264.95 Y111.9 I-7.15 J0
X-247.8 Y111.9 I8.575 J0
X-267.8 Y111.9 I-10 J0
X-247.8 Y111.9 I10 J0
X-248.948 Y112.839 I-0.958 J0
G1 X-253.349 Y111.95
X-253.448 Y111.935
X-253.549 Y111.931
G3 X-253.569 Y110.014 I-0.01 J-0.958
X-252.897 Y111.665 I0.01 J0.958
G1 X-253.846 Y112.573
G3 X-255.171 Y111.188 I-0.662 J-0.693
X-253.551 Y111.84 I0.662 J0.693
X-254.945 Y113.325 Z-7.6 I-1.424 J0.06 F333.3
X-256.4 Y111.9 Z-8 I-0.03 J-1.425
G1 X-256.393 Y111.882 F700
X-256.375 Y111.875
X-256.357 Y111.882
X-256.35 Y111.9
G3 X-259.25 Y111.9 I-1.45 J0
X-253.5 Y111.9 I2.875 J0
X-262.1 Y111.9 I-4.3 J0
X-250.65 Y111.9 I5.725 J0
X-264.95 Y111.9 I-7.15 J0
X-247.8 Y111.9 I8.575 J0
X-267.8 Y111.9 I-10 J0
X-247.8 Y111.9 I10 J0
X-248.948 Y112.839 I-0.958 J0
G1 X-253.349 Y111.95
X-253.448 Y111.935
X-253.549 Y111.931
G3 X-253.569 Y110.014 I-0.01 J-0.958
X-252.897 Y111.665 I0.01 J0.958
G1 X-253.846 Y112.573
G3 X-255.171 Y111.188 I-0.662 J-0.693
X-253.551 Y111.84 I0.662 J0.693
X-254.945 Y113.325 Z-8.4 I-1.424 J0.06 F333.3
X-256.4 Y111.9 Z-8.8 I-0.03 J-1.425
G1 X-256.393 Y111.882 F700
X-256.375 Y111.875
X-256.357 Y111.882
X-256.35 Y111.9
G3 X-259.25 Y111.9 I-1.45 J0
X-253.5 Y111.9 I2.875 J0
X-262.1 Y111.9 I-4.3 J0
X-250.65 Y111.9 I5.725 J0
X-264.95 Y111.9 I-7.15 J0
X-247.8 Y111.9 I8.575 J0
X-267.8 Y111.9 I-10 J0
X-247.8 Y111.9 I10 J0
X-248.948 Y112.839 I-0.958 J0
G1 X-253.349 Y111.95
X-253.448 Y111.935
X-253.549 Y111.931
G3 X-253.569 Y110.014 I-0.01 J-0.958
X-252.897 Y111.665 I0.01 J0.958
G1 X-253.846 Y112.573
G3 X-255.171 Y111.188 I-0.662 J-0.693
X-253.551 Y111.84 I0.662 J0.693
X-254.945 Y113.325 Z-9.2 I-1.424 J0.06 F333.3
X-256.4 Y111.9 Z-9.6 I-0.03 J-1.425
G1 X-256.393 Y111.882 F700
X-256.375 Y111.875
X-256.357 Y111.882
X-256.35 Y111.9
G3 X-259.25 Y111.9 I-1.45 J0
X-253.5 Y111.9 I2.875 J0
X-262.1 Y111.9 I-4.3 J0
X-250.65 Y111.9 I5.725 J0
X-264.95 Y111.9 I-7.15 J0
X-247.8 Y111.9 I8.575 J0
X-267.8 Y111.9 I-10 J0
X-247.8 Y111.9 I10 J0
X-248.948 Y112.839 I-0.958 J0
G1 X-253.349 Y111.95
X-253.448 Y111.935
X-253.549 Y111.931
G3 X-253.569 Y110.014 I-0.01 J-0.958
X-252.897 Y111.665 I0.01 J0.958
G1 X-253.846 Y112.573
G3 X-255.171 Y111.188 I-0.662 J-0.693
X-253.551 Y111.84 I0.662 J0.693
X-254.945 Y113.325 Z-10 I-1.424 J0.06 F333.3
X-256.4 Y111.9 Z-10.4 I-0.03 J-1.425
G1 X-256.393 Y111.882 F700
X-256.375 Y111.875
X-256.357 Y111.882
X-256.35 Y111.9
G3 X-259.25 Y111.9 I-1.45 J0
X-253.5 Y111.9 I2.875 J0
X-262.1 Y111.9 I-4.3 J0
X-250.65 Y111.9 I5.725 J0
X-264.95 Y111.9 I-7.15 J0
X-247.8 Y111.9 I8.575 J0
X-267.8 Y111.9 I-10 J0
X-247.8 Y111.9 I10 J0
X-248.948 Y112.839 I-0.958 J0
G1 X-253.349 Y111.95
X-253.448 Y111.935
X-253.549 Y111.931
G3 X-253.569 Y110.014 I-0.01 J-0.958
X-252.897 Y111.665 I0.01 J0.958
G1 X-253.846 Y112.573
G3 X-255.171 Y111.188 I-0.662 J-0.693
X-253.551 Y111.84 I0.662 J0.693
X-254.945 Y113.325 Z-10.8 I-1.424 J0.06 F333.3
X-256.4 Y111.9 Z-11.2 I-0.03 J-1.425
G1 X-256.393 Y111.882 F700
X-256.375 Y111.875
X-256.357 Y111.882
X-256.35 Y111.9
G3 X-259.25 Y111.9 I-1.45 J0
X-253.5 Y111.9 I2.875 J0
X-262.1 Y111.9 I-4.3 J0
X-250.65 Y111.9 I5.725 J0
X-264.95 Y111.9 I-7.15 J0
X-247.8 Y111.9 I8.575 J0
X-267.8 Y111.9 I-10 J0
X-247.8 Y111.9 I10 J0
X-248.948 Y112.839 I-0.958 J0
G1 X-253.349 Y111.95
X-253.448 Y111.935
X-253.549 Y111.931
G3 X-253.569 Y110.014 I-0.01 J-0.958
X-252.897 Y111.665 I0.01 J0.958
G1 X-253.846 Y112.573
G3 X-255.171 Y111.188 I-0.662 J-0.693
X-253.551 Y111.84 I0.662 J0.693
X-254.945 Y113.325 Z-11.6 I-1.424 J0.06 F333.3
X-256.4 Y111.9 Z-12 I-0.03 J-1.425
G1 X-256.393 Y111.882 F700
X-256.375 Y111.875
X-256.357 Y111.882
X-256.35 Y111.9
G3 X-259.25 Y111.9 I-1.45 J0
X-253.5 Y111.9 I2.875 J0
X-262.1 Y111.9 I-4.3 J0
X-250.65 Y111.9 I5.725 J0
X-264.95 Y111.9 I-7.15 J0
X-247.8 Y111.9 I8.575 J0
X-267.8 Y111.9 I-10 J0
X-247.8 Y111.9 I10 J0
X-248.948 Y112.839 I-0.958 J0
G1 X-253.349 Y111.95
X-253.448 Y111.935
X-253.549 Y111.931
G3 X-253.569 Y110.014 I-0.01 J-0.958
X-252.897 Y111.665 I0.01 J0.958
G1 X-253.846 Y112.573
G3 X-255.171 Y111.188 I-0.662 J-0.693
X-253.551 Y111.84 I0.662 J0.693
X-254.945 Y113.325 Z-12.4 I-1.424 J0.06 F333.3
X-256.4 Y111.9 Z-12.8 I-0.03 J-1.425
G1 X-256.393 Y111.882 F700
X-256.375 Y111.875
X-256.357 Y111.882
X-256.35 Y111.9
G3 X-259.25 Y111.9 I-1.45 J0
X-253.5 Y111.9 I2.875 J0
X-262.1 Y111.9 I-4.3 J0
X-250.65 Y111.9 I5.725 J0
X-264.95 Y111.9 I-7.15 J0
X-247.8 Y111.9 I8.575 J0
X-267.8 Y111.9 I-10 J0
X-247.8 Y111.9 I10 J0
X-248.948 Y112.839 I-0.958 J0
G1 X-253.349 Y111.95
X-253.448 Y111.935
X-253.549 Y111.931
G3 X-253.569 Y110.014 I-0.01 J-0.958
X-252.897 Y111.665 I0.01 J0.958
G1 X-253.846 Y112.573
G3 X-255.171 Y111.188 I-0.662 J-0.693
X-253.551 Y111.84 I0.662 J0.693
X-254.945 Y113.325 Z-13.2 I-1.424 J0.06 F333.3
X-256.4 Y111.9 Z-13.6 I-0.03 J-1.425
G1 X-256.393 Y111.882 F700
X-256.375 Y111.875
X-256.357 Y111.882
X-256.35 Y111.9
G3 X-259.25 Y111.9 I-1.45 J0
X-253.5 Y111.9 I2.875 J0
X-262.1 Y111.9 I-4.3 J0
X-250.65 Y111.9 I5.725 J0
X-264.95 Y111.9 I-7.15 J0
X-247.8 Y111.9 I8.575 J0
X-267.8 Y111.9 I-10 J0
X-247.8 Y111.9 I10 J0
X-248.948 Y112.839 I-0.958 J0
G1 X-253.349 Y111.95
X-253.448 Y111.935
X-253.549 Y111.931
G3 X-253.569 Y110.014 I-0.01 J-0.958
X-252.897 Y111.665 I0.01 J0.958
G1 X-253.846 Y112.573
G3 X-255.171 Y111.188 I-0.662 J-0.693
X-253.551 Y111.84 I0.662 J0.693
X-254.945 Y113.325 Z-14 I-1.424 J0.06 F333.3
X-256.4 Y111.9 Z-14.4 I-0.03 J-1.425
G1 X-256.393 Y111.882 F700
X-256.375 Y111.875
X-256.357 Y111.882
X-256.35 Y111.9
G3 X-259.25 Y111.9 I-1.45 J0
X-253.5 Y111.9 I2.875 J0
X-262.1 Y111.9 I-4.3 J0
X-250.65 Y111.9 I5.725 J0
X-264.95 Y111.9 I-7.15 J0
X-247.8 Y111.9 I8.575 J0
X-267.8 Y111.9 I-10 J0
X-247.8 Y111.9 I10 J0
X-248.948 Y112.839 I-0.958 J0
G1 X-253.349 Y111.95
X-253.448 Y111.935
X-253.549 Y111.931
G3 X-253.569 Y110.014 I-0.01 J-0.958
X-252.897 Y111.665 I0.01 J0.958
G1 X-253.846 Y112.573
G3 X-255.171 Y111.188 I-0.662 J-0.693
X-253.551 Y111.84 I0.662 J0.693
X-254.945 Y113.325 Z-14.8 I-1.424 J0.06 F333.3
X-256.4 Y111.9 Z-15.2 I-0.03 J-1.425
G1 X-256.393 Y111.882 F700
X-256.375 Y111.875
X-256.357 Y111.882
X-256.35 Y111.9
G3 X-259.25 Y111.9 I-1.45 J0
X-253.5 Y111.9 I2.875 J0
X-262.1 Y111.9 I-4.3 J0
X-250.65 Y111.9 I5.725 J0
X-264.95 Y111.9 I-7.15 J0
X-247.8 Y111.9 I8.575 J0
X-267.8 Y111.9 I-10 J0
X-247.8 Y111.9 I10 J0
X-248.948 Y112.839 I-0.958 J0
G1 X-253.349 Y111.95
X-253.448 Y111.935
X-253.549 Y111.931
G3 X-253.569 Y110.014 I-0.01 J-0.958
X-252.897 Y111.665 I0.01 J0.958
G1 X-253.846 Y112.573
G3 X-255.171 Y111.188 I-0.662 J-0.693
X-253.551 Y111.84 I0.662 J0.693
X-254.945 Y113.325 Z-15.6 I-1.424 J0.06 F333.3
X-256.4 Y111.9 Z-16 I-0.03 J-1.425
G1 X-256.393 Y111.882 F700
X-256.375 Y111.875
X-256.357 Y111.882
X-256.35 Y111.9
G3 X-259.25 Y111.9 I-1.45 J0
X-253.5 Y111.9 I2.875 J0
X-262.1 Y111.9 I-4.3 J0
X-250.65 Y111.9 I5.725 J0
X-264.95 Y111.9 I-7.15 J0
X-247.8 Y111.9 I8.575 J0
X-267.8 Y111.9 I-10 J0
X-247.8 Y111.9 I10 J0
X-248.948 Y112.839 I-0.958 J0
G1 X-253.349 Y111.95
X-253.448 Y111.935
X-253.549 Y111.931
G3 X-253.569 Y110.014 I-0.01 J-0.958
X-252.897 Y111.665 I0.01 J0.958
G1 X-253.846 Y112.573
G3 X-255.171 Y111.188 I-0.662 J-0.693
X-253.551 Y111.84 I0.662 J0.693
X-254.945 Y113.325 Z-16.4 I-1.424 J0.06 F333.3
X-256.4 Y111.9 Z-16.8 I-0.03 J-1.425
G1 X-256.393 Y111.882 F700
X-256.375 Y111.875
X-256.357 Y111.882
X-256.35 Y111.9
G3 X-259.25 Y111.9 I-1.45 J0
X-253.5 Y111.9 I2.875 J0
X-262.1 Y111.9 I-4.3 J0
X-250.65 Y111.9 I5.725 J0
X-264.95 Y111.9 I-7.15 J0
X-247.8 Y111.9 I8.575 J0
X-267.8 Y111.9 I-10 J0
X-247.8 Y111.9 I10 J0
X-248.948 Y112.839 I-0.958 J0
G1 X-253.349 Y111.95
X-253.448 Y111.935
X-253.549 Y111.931
G3 X-253.569 Y110.014 I-0.01 J-0.958
X-252.897 Y111.665 I0.01 J0.958
G1 X-253.846 Y112.573
G3 X-255.171 Y111.188 I-0.662 J-0.693
X-253.551 Y111.84 I0.662 J0.693
X-254.945 Y113.325 Z-17.2 I-1.424 J0.06 F333.3
X-256.4 Y111.9 Z-17.6 I-0.03 J-1.425
G1 X-256.393 Y111.882 F700
X-256.375 Y111.875
X-256.357 Y111.882
X-256.35 Y111.9
G3 X-259.25 Y111.9 I-1.45 J0
X-253.5 Y111.9 I2.875 J0
X-262.1 Y111.9 I-4.3 J0
X-250.65 Y111.9 I5.725 J0
X-264.95 Y111.9 I-7.15 J0
X-247.8 Y111.9 I8.575 J0
X-267.8 Y111.9 I-10 J0
X-247.8 Y111.9 I10 J0
X-248.874 Y112.668 I-0.811 J0
G1 X-252.521 Y111.422
G2 X-253.455 Y111.735 I-0.262 J0.768
G1 X-254.29 Y112.968
G3 X-254.945 Y113.325 I-0.672 J-0.455
X-256.4 Y111.9 Z-18 I-0.03 J-1.425 F333.3
G1 X-256.393 Y111.882 F700
X-256.375 Y111.875
X-256.357 Y111.882
X-256.35 Y111.9
G3 X-259.25 Y111.9 I-1.45 J0
X-253.5 Y111.9 I2.875 J0
X-262.1 Y111.9 I-4.3 J0
X-250.65 Y111.9 I5.725 J0
X-264.95 Y111.9 I-7.15 J0
X-247.8 Y111.9 I8.575 J0
X-267.8 Y111.9 I-10 J0
X-247.8 Y111.9 I10 J0
G0 Z4
X-236.865 Y128.014
Z2
G1 Z1.8 F700
G3 X-238.585 Y130.286 Z1.011 I-0.86 J1.136 F333.3
X-236.865 Y128.014 Z0.221 I0.86 J-1.136
X-238.585 Y130.286 Z-0.568 I-0.86 J1.136
X-239.15 Y129.15 Z-0.8 I0.86 J-1.136
G1 X-239.143 Y129.132 F700
X-239.125 Y129.125
X-239.107 Y129.132
X-239.1 Y129.15
G3 X-242 Y129.15 I-1.45 J0
X-236.25 Y129.15 I2.875 J0
X-244.85 Y129.15 I-4.3 J0
X-233.4 Y129.15 I5.725 J0
X-247.7 Y129.15 I-7.15 J0
X-230.55 Y129.15 I8.575 J0
X-250.55 Y129.15 I-10 J0
X-230.55 Y129.15 I10 J0
X-231.698 Y130.089 I-0.958 J0
G1 X-236.099 Y129.2
X-236.198 Y129.185
X-236.299 Y129.181
G3 X-236.319 Y127.264 I-0.01 J-0.958
X-235.647 Y128.915 I0.01 J0.958
G1 X-236.596 Y129.823
G3 X-237.921 Y128.438 I-0.662 J-0.693
X-236.301 Y129.09 I0.662 J0.693
X-236.87 Y130.29 Z-1.044 I-1.424 J0.06 F333.3
X-239.15 Y129.15 Z-1.6 I-0.855 J-1.14
G1 X-239.143 Y129.132 F700
X-239.125 Y129.125
X-239.107 Y129.132
X-239.1 Y129.15
G3 X-242 Y129.15 I-1.45 J0
X-236.25 Y129.15 I2.875 J0
X-244.85 Y129.15 I-4.3 J0
X-233.4 Y129.15 I5.725 J0
X-247.7 Y129.15 I-7.15 J0
X-230.55 Y129.15 I8.575 J0
X-250.55 Y129.15 I-10 J0
X-230.55 Y129.15 I10 J0
X-231.698 Y130.089 I-0.958 J0
G1 X-236.099 Y129.2
X-236.198 Y129.185
X-236.299 Y129.181
G3 X-236.319 Y127.264 I-0.01 J-0.958
X-235.647 Y128.915 I0.01 J0.958
G1 X-236.596 Y129.823
G3 X-237.921 Y128.438 I-0.662 J-0.693
X-236.301 Y129.09 I0.662 J0.693
X-237.695 Y130.575 Z-2 I-1.424 J0.06 F333.3
X-239.15 Y129.15 Z-2.4 I-0.03 J-1.425
G1 X-239.143 Y129.132 F700
X-239.125 Y129.125
X-239.107 Y129.132
X-239.1 Y129.15
G3 X-242 Y129.15 I-1.45 J0
X-236.25 Y129.15 I2.875 J0
X-244.85 Y129.15 I-4.3 J0
X-233.4 Y129.15 I5.725 J0
X-247.7 Y129.15 I-7.15 J0
X-230.55 Y129.15 I8.575 J0
X-250.55 Y129.15 I-10 J0
X-230.55 Y129.15 I10 J0
X-231.698 Y130.089 I-0.958 J0
G1 X-236.099 Y129.2
X-236.198 Y129.185
X-236.299 Y129.181
G3 X-236.319 Y127.264 I-0.01 J-0.958
X-235.647 Y128.915 I0.01 J0.958
G1 X-236.596 Y129.823
G3 X-237.921 Y128.438 I-0.662 J-0.693
X-236.301 Y129.09 I0.662 J0.693
X-237.695 Y130.575 Z-2.8 I-1.424 J0.06 F333.3
X-239.15 Y129.15 Z-3.2 I-0.03 J-1.425
G1 X-239.143 Y129.132 F700
X-239.125 Y129.125
X-239.107 Y129.132
X-239.1 Y129.15
G3 X-242 Y129.15 I-1.45 J0
X-236.25 Y129.15 I2.875 J0
X-244.85 Y129.15 I-4.3 J0
X-233.4 Y129.15 I5.725 J0
X-247.7 Y129.15 I-7.15 J0
X-230.55 Y129.15 I8.575 J0
X-250.55 Y129.15 I-10 J0
X-230.55 Y129.15 I10 J0
X-231.698 Y130.089 I-0.958 J0
G1 X-236.099 Y129.2
X-236.198 Y129.185
X-236.299 Y129.181
G3 X-236.319 Y127.264 I-0.01 J-0.958
X-235.647 Y128.915 I0.01 J0.958
G1 X-236.596 Y129.823
G3 X-237.921 Y128.438 I-0.662 J-0.693
X-236.301 Y129.09 I0.662 J0.693
X-237.695 Y130.575 Z-3.6 I-1.424 J0.06 F333.3
X-239.15 Y129.15 Z-4 I-0.03 J-1.425
G1 X-239.143 Y129.132 F700
X-239.125 Y129.125
X-239.107 Y129.132
X-239.1 Y129.15
G3 X-242 Y129.15 I-1.45 J0
X-236.25 Y129.15 I2.875 J0
X-244.85 Y129.15 I-4.3 J0
X-233.4 Y129.15 I5.725 J0
X-247.7 Y129.15 I-7.15 J0
X-230.55 Y129.15 I8.575 J0
X-250.55 Y129.15 I-10 J0
X-230.55 Y129.15 I10 J0
X-231.698 Y130.089 I-0.958 J0
G1 X-236.099 Y129.2
X-236.198 Y129.185
X-236.299 Y129.181
G3 X-236.319 Y127.264 I-0.01 J-0.958
X-235.647 Y128.915 I0.01 J0.958
G1 X-236.596 Y129.823
G3 X-237.921 Y128.438 I-0.662 J-0.693
X-236.301 Y129.09 I0.662 J0.693
X-237.695 Y130.575 Z-4.4 I-1.424 J0.06 F333.3
X-239.15 Y129.15 Z-4.8 I-0.03 J-1.425
G1 X-239.143 Y129.132 F700
X-239.125 Y129.125
X-239.107 Y129.132
X-239.1 Y129.15
G3 X-242 Y129.15 I-1.45 J0
X-236.25 Y129.15 I2.875 J0
X-244.85 Y129.15 I-4.3 J0
X-233.4 Y129.15 I5.725 J0
X-247.7 Y129.15 I-7.15 J0
X-230.55 Y129.15 I8.575 J0
X-250.55 Y129.15 I-10 J0
X-230.55 Y129.15 I10 J0
X-231.698 Y130.089 I-0.958 J0
G1 X-236.099 Y129.2
X-236.198 Y129.185
X-236.299 Y129.181
G3 X-236.319 Y127.264 I-0.01 J-0.958
X-235.647 Y128.915 I0.01 J0.958
G1 X-236.596 Y129.823
G3 X-237.921 Y128.438 I-0.662 J-0.693
X-236.301 Y129.09 I0.662 J0.693
X-237.695 Y130.575 Z-5.2 I-1.424 J0.06 F333.3
X-239.15 Y129.15 Z-5.6 I-0.03 J-1.425
G1 X-239.143 Y129.132 F700
X-239.125 Y129.125
X-239.107 Y129.132
X-239.1 Y129.15
G3 X-242 Y129.15 I-1.45 J0
X-236.25 Y129.15 I2.875 J0
X-244.85 Y129.15 I-4.3 J0
X-233.4 Y129.15 I5.725 J0
X-247.7 Y129.15 I-7.15 J0
X-230.55 Y129.15 I8.575 J0
X-250.55 Y129.15 I-10 J0
X-230.55 Y129.15 I10 J0
X-231.698 Y130.089 I-0.958 J0
G1 X-236.099 Y129.2
X-236.198 Y129.185
X-236.299 Y129.181
G3 X-236.319 Y127.264 I-0.01 J-0.958
X-235.647 Y128.915 I0.01 J0.958
G1 X-236.596 Y129.823
G3 X-237.921 Y128.438 I-0.662 J-0.693
X-236.301 Y129.09 I0.662 J0.693
X-236.87 Y130.29 Z-5.844 I-1.424 J0.06 F333.3
X-239.15 Y129.15 Z-6.4 I-0.855 J-1.14
G1 X-239.143 Y129.132 F700
X-239.125 Y129.125
X-239.107 Y129.132
X-239.1 Y129.15
G3 X-242 Y129.15 I-1.45 J0
X-236.25 Y129.15 I2.875 J0
X-244.85 Y129.15 I-4.3 J0
X-233.4 Y129.15 I5.725 J0
X-247.7 Y129.15 I-7.15 J0
X-230.55 Y129.15 I8.575 J0
X-250.55 Y129.15 I-10 J0
X-230.55 Y129.15 I10 J0
X-231.698 Y130.089 I-0.958 J0
G1 X-236.099 Y129.2
X-236.198 Y129.185
X-236.299 Y129.181
G3 X-236.319 Y127.264 I-0.01 J-0.958
X-235.647 Y128.915 I0.01 J0.958
G1 X-236.596 Y129.823
G3 X-237.921 Y128.438 I-0.662 J-0.693
X-236.301 Y129.09 I0.662 J0.693
X-237.695 Y130.575 Z-6.8 I-1.424 J0.06 F333.3
X-239.15 Y129.15 Z-7.2 I-0.03 J-1.425
G1 X-239.143 Y129.132 F700
X-239.125 Y129.125
X-239.107 Y129.132
X-239.1 Y129.15
G3 X-242 Y129.15 I-1.45 J0
X-236.25 Y129.15 I2.875 J0
X-244.85 Y129.15 I-4.3 J0
X-233.4 Y129.15 I5.725 J0
X-247.7 Y129.15 I-7.15 J0
X-230.55 Y129.15 I8.575 J0
X-250.55 Y129.15 I-10 J0
X-230.55 Y129.15 I10 J0
X-231.698 Y130.089 I-0.958 J0
G1 X-236.099 Y129.2
X-236.198 Y129.185
X-236.299 Y129.181
G3 X-236.319 Y127.264 I-0.01 J-0.958
X-235.647 Y128.915 I0.01 J0.958
G1 X-236.596 Y129.823
G3 X-237.921 Y128.438 I-0.662 J-0.693
X-236.301 Y129.09 I0.662 J0.693
X-236.87 Y130.29 Z-7.444 I-1.424 J0.06 F333.3
X-239.15 Y129.15 Z-8 I-0.855 J-1.14
G1 X-239.143 Y129.132 F700
X-239.125 Y129.125
X-239.107 Y129.132
X-239.1 Y129.15
G3 X-242 Y129.15 I-1.45 J0
X-236.25 Y129.15 I2.875 J0
X-244.85 Y129.15 I-4.3 J0
X-233.4 Y129.15 I5.725 J0
X-247.7 Y129.15 I-7.15 J0
X-230.55 Y129.15 I8.575 J0
X-250.55 Y129.15 I-10 J0
X-230.55 Y129.15 I10 J0
X-231.698 Y130.089 I-0.958 J0
G1 X-236.099 Y129.2
X-236.198 Y129.185
X-236.299 Y129.181
G3 X-236.319 Y127.264 I-0.01 J-0.958
X-235.647 Y128.915 I0.01 J0.958
G1 X-236.596 Y129.823
G3 X-237.921 Y128.438 I-0.662 J-0.693
X-236.301 Y129.09 I0.662 J0.693
X-236.87 Y130.29 Z-8.244 I-1.424 J0.06 F333.3
X-239.15 Y129.15 Z-8.8 I-0.855 J-1.14
G1 X-239.143 Y129.132 F700
X-239.125 Y129.125
X-239.107 Y129.132
X-239.1 Y129.15
G3 X-242 Y129.15 I-1.45 J0
X-236.25 Y129.15 I2.875 J0
X-244.85 Y129.15 I-4.3 J0
X-233.4 Y129.15 I5.725 J0
X-247.7 Y129.15 I-7.15 J0
X-230.55 Y129.15 I8.575 J0
X-250.55 Y129.15 I-10 J0
X-230.55 Y129.15 I10 J0
X-231.698 Y130.089 I-0.958 J0
G1 X-236.099 Y129.2
X-236.198 Y129.185
X-236.299 Y129.181
G3 X-236.319 Y127.264 I-0.01 J-0.958
X-235.647 Y128.915 I0.01 J0.958
G1 X-236.596 Y129.823
G3 X-237.921 Y128.438 I-0.662 J-0.693
X-236.301 Y129.09 I0.662 J0.693
X-237.695 Y130.575 Z-9.2 I-1.424 J0.06 F333.3
X-239.15 Y129.15 Z-9.6 I-0.03 J-1.425
G1 X-239.143 Y129.132 F700
X-239.125 Y129.125
X-239.107 Y129.132
X-239.1 Y129.15
G3 X-242 Y129.15 I-1.45 J0
X-236.25 Y129.15 I2.875 J0
X-244.85 Y129.15 I-4.3 J0
X-233.4 Y129.15 I5.725 J0
X-247.7 Y129.15 I-7.15 J0
X-230.55 Y129.15 I8.575 J0
X-250.55 Y129.15 I-10 J0
X-230.55 Y129.15 I10 J0
X-231.698 Y130.089 I-0.958 J0
G1 X-236.099 Y129.2
X-236.198 Y129.185
X-236.299 Y129.181
G3 X-236.319 Y127.264 I-0.01 J-0.958
X-235.647 Y128.915 I0.01 J0.958
G1 X-236.596 Y129.823
G3 X-237.921 Y128.438 I-0.662 J-0.693
X-236.301 Y129.09 I0.662 J0.693
X-237.695 Y130.575 Z-10 I-1.424 J0.06 F333.3
X-239.15 Y129.15 Z-10.4 I-0.03 J-1.425
G1 X-239.143 Y129.132 F700
X-239.125 Y129.125
X-239.107 Y129.132
X-239.1 Y129.15
G3 X-242 Y129.15 I-1.45 J0
X-236.25 Y129.15 I2.875 J0
X-244.85 Y129.15 I-4.3 J0
X-233.4 Y129.15 I5.725 J0
X-247.7 Y129.15 I-7.15 J0
X-230.55 Y129.15 I8.575 J0
X-250.55 Y129.15 I-10 J0
X-230.55 Y129.15 I10 J0
X-231.698 Y130.089 I-0.958 J0
G1 X-236.099 Y129.2
X-236.198 Y129.185
X-236.299 Y129.181
G3 X-236.319 Y127.264 I-0.01 J-0.958
X-235.647 Y128.915 I0.01 J0.958
G1 X-236.596 Y129.823
G3 X-237.921 Y128.438 I-0.662 J-0.693
X-236.301 Y129.09 I0.662 J0.693
X-236.87 Y130.29 Z-10.644 I-1.424 J0.06 F333.3
X-239.15 Y129.15 Z-11.2 I-0.855 J-1.14
G1 X-239.143 Y129.132 F700
X-239.125 Y129.125
X-239.107 Y129.132
X-239.1 Y129.15
G3 X-242 Y129.15 I-1.45 J0
X-236.25 Y129.15 I2.875 J0
X-244.85 Y129.15 I-4.3 J0
X-233.4 Y129.15 I5.725 J0
X-247.7 Y129.15 I-7.15 J0
X-230.55 Y129.15 I8.575 J0
X-250.55 Y129.15 I-10 J0
X-230.55 Y129.15 I10 J0
X-231.698 Y130.089 I-0.958 J0
G1 X-236.099 Y129.2
X-236.198 Y129.185
X-236.299 Y129.181
G3 X-236.319 Y127.264 I-0.01 J-0.958
X-235.647 Y128.915 I0.01 J0.958
G1 X-236.596 Y129.823
G3 X-237.921 Y128.438 I-0.662 J-0.693
X-236.301 Y129.09 I0.662 J0.693
X-236.87 Y130.29 Z-11.444 I-1.424 J0.06 F333.3
X-239.15 Y129.15 Z-12 I-0.855 J-1.14
G1 X-239.143 Y129.132 F700
X-239.125 Y129.125
X-239.107 Y129.132
X-239.1 Y129.15
G3 X-242 Y129.15 I-1.45 J0
X-236.25 Y129.15 I2.875 J0
X-244.85 Y129.15 I-4.3 J0
X-233.4 Y129.15 I5.725 J0
X-247.7 Y129.15 I-7.15 J0
X-230.55 Y129.15 I8.575 J0
X-250.55 Y129.15 I-10 J0
X-230.55 Y129.15 I10 J0
X-231.698 Y130.089 I-0.958 J0
G1 X-236.099 Y129.2
X-236.198 Y129.185
X-236.299 Y129.181
G3 X-236.319 Y127.264 I-0.01 J-0.958
X-235.647 Y128.915 I0.01 J0.958
G1 X-236.596 Y129.823
G3 X-237.921 Y128.438 I-0.662 J-0.693
X-236.301 Y129.09 I0.662 J0.693
X-236.87 Y130.29 Z-12.244 I-1.424 J0.06 F333.3
X-239.15 Y129.15 Z-12.8 I-0.855 J-1.14
G1 X-239.143 Y129.132 F700
X-239.125 Y129.125
X-239.107 Y129.132
X-239.1 Y129.15
G3 X-242 Y129.15 I-1.45 J0
X-236.25 Y129.15 I2.875 J0
X-244.85 Y129.15 I-4.3 J0
X-233.4 Y129.15 I5.725 J0
X-247.7 Y129.15 I-7.15 J0
X-230.55 Y129.15 I8.575 J0
X-250.55 Y129.15 I-10 J0
X-230.55 Y129.15 I10 J0
X-231.698 Y130.089 I-0.958 J0
G1 X-236.099 Y129.2
X-236.198 Y129.185
X-236.299 Y129.181
G3 X-236.319 Y127.264 I-0.01 J-0.958
X-235.647 Y128.915 I0.01 J0.958
G1 X-236.596 Y129.823
G3 X-237.921 Y128.438 I-0.662 J-0.693
X-236.301 Y129.09 I0.662 J0.693
X-237.695 Y130.575 Z-13.2 I-1.424 J0.06 F333.3
X-239.15 Y129.15 Z-13.6 I-0.03 J-1.425
G1 X-239.143 Y129.132 F700
X-239.125 Y129.125
X-239.107 Y129.132
X-239.1 Y129.15
G3 X-242 Y129.15 I-1.45 J0
X-236.25 Y129.15 I2.875 J0
X-244.85 Y129.15 I-4.3 J0
X-233.4 Y129.15 I5.725 J0
X-247.7 Y129.15 I-7.15 J0
X-230.55 Y129.15 I8.575 J0
X-250.55 Y129.15 I-10 J0
X-230.55 Y129.15 I10 J0
X-231.698 Y130.089 I-0.958 J0
G1 X-236.099 Y129.2
X-236.198 Y129.185
X-236.299 Y129.181
G3 X-236.319 Y127.264 I-0.01 J-0.958
X-235.647 Y128.915 I0.01 J0.958
G1 X-236.596 Y129.823
G3 X-237.921 Y128.438 I-0.662 J-0.693
X-236.301 Y129.09 I0.662 J0.693
X-237.695 Y130.575 Z-14 I-1.424 J0.06 F333.3
X-239.15 Y129.15 Z-14.4 I-0.03 J-1.425
G1 X-239.143 Y129.132 F700
X-239.125 Y129.125
X-239.107 Y129.132
X-239.1 Y129.15
G3 X-242 Y129.15 I-1.45 J0
X-236.25 Y129.15 I2.875 J0
X-244.85 Y129.15 I-4.3 J0
X-233.4 Y129.15 I5.725 J0
X-247.7 Y129.15 I-7.15 J0
X-230.55 Y129.15 I8.575 J0
X-250.55 Y129.15 I-10 J0
X-230.55 Y129.15 I10 J0
X-231.698 Y130.089 I-0.958 J0
G1 X-236.099 Y129.2
X-236.198 Y129.185
X-236.299 Y129.181
G3 X-236.319 Y127.264 I-0.01 J-0.958
X-235.647 Y128.915 I0.01 J0.958
G1 X-236.596 Y129.823
G3 X-237.921 Y128.438 I-0.662 J-0.693
X-236.301 Y129.09 I0.662 J0.693
X-236.87 Y130.29 Z-14.644 I-1.424 J0.06 F333.3
X-239.15 Y129.15 Z-15.2 I-0.855 J-1.14
G1 X-239.143 Y129.132 F700
X-239.125 Y129.125
X-239.107 Y129.132
X-239.1 Y129.15
G3 X-242 Y129.15 I-1.45 J0
X-236.25 Y129.15 I2.875 J0
X-244.85 Y129.15 I-4.3 J0
X-233.4 Y129.15 I5.725 J0
X-247.7 Y129.15 I-7.15 J0
X-230.55 Y129.15 I8.575 J0
X-250.55 Y129.15 I-10 J0
X-230.55 Y129.15 I10 J0
X-231.698 Y130.089 I-0.958 J0
G1 X-236.099 Y129.2
X-236.198 Y129.185
X-236.299 Y129.181
G3 X-236.319 Y127.264 I-0.01 J-0.958
X-235.647 Y128.915 I0.01 J0.958
G1 X-236.596 Y129.823
G3 X-237.921 Y128.438 I-0.662 J-0.693
X-236.301 Y129.09 I0.662 J0.693
X-236.87 Y130.29 Z-15.444 I-1.424 J0.06 F333.3
X-239.15 Y129.15 Z-16 I-0.855 J-1.14
G1 X-239.143 Y129.132 F700
X-239.125 Y129.125
X-239.107 Y129.132
X-239.1 Y129.15
G3 X-242 Y129.15 I-1.45 J0
X-236.25 Y129.15 I2.875 J0
X-244.85 Y129.15 I-4.3 J0
X-233.4 Y129.15 I5.725 J0
X-247.7 Y129.15 I-7.15 J0
X-230.55 Y129.15 I8.575 J0
X-250.55 Y129.15 I-10 J0
X-230.55 Y129.15 I10 J0
X-231.698 Y130.089 I-0.958 J0
G1 X-236.099 Y129.2
X-236.198 Y129.185
X-236.299 Y129.181
G3 X-236.319 Y127.264 I-0.01 J-0.958
X-235.647 Y128.915 I0.01 J0.958
G1 X-236.596 Y129.823
G3 X-237.921 Y128.438 I-0.662 J-0.693
X-236.301 Y129.09 I0.662 J0.693
X-237.695 Y130.575 Z-16.4 I-1.424 J0.06 F333.3
X-239.15 Y129.15 Z-16.8 I-0.03 J-1.425
G1 X-239.143 Y129.132 F700
X-239.125 Y129.125
X-239.107 Y129.132
X-239.1 Y129.15
G3 X-242 Y129.15 I-1.45 J0
X-236.25 Y129.15 I2.875 J0
X-244.85 Y129.15 I-4.3 J0
X-233.4 Y129.15 I5.725 J0
X-247.7 Y129.15 I-7.15 J0
X-230.55 Y129.15 I8.575 J0
X-250.55 Y129.15 I-10 J0
X-230.55 Y129.15 I10 J0
X-231.698 Y130.089 I-0.958 J0
G1 X-236.099 Y129.2
X-236.198 Y129.185
X-236.299 Y129.181
G3 X-236.319 Y127.264 I-0.01 J-0.958
X-235.647 Y128.915 I0.01 J0.958
G1 X-236.596 Y129.823
G3 X-237.921 Y128.438 I-0.662 J-0.693
X-236.301 Y129.09 I0.662 J0.693
X-236.87 Y130.29 Z-17.044 I-1.424 J0.06 F333.3
X-239.15 Y129.15 Z-17.6 I-0.855 J-1.14
G1 X-239.143 Y129.132 F700
X-239.125 Y129.125
X-239.107 Y129.132
X-239.1 Y129.15
G3 X-242 Y129.15 I-1.45 J0
X-236.25 Y129.15 I2.875 J0
X-244.85 Y129.15 I-4.3 J0
X-233.4 Y129.15 I5.725 J0
X-247.7 Y129.15 I-7.15 J0
X-230.55 Y129.15 I8.575 J0
X-250.55 Y129.15 I-10 J0
X-230.55 Y129.15 I10 J0
X-231.624 Y129.918 I-0.811 J0
G1 X-235.271 Y128.672
G2 X-236.205 Y128.985 I-0.262 J0.768
G1 X-237.04 Y130.218
G3 X-237.695 Y130.575 I-0.672 J-0.455
X-239.15 Y129.15 Z-18 I-0.03 J-1.425 F333.3
G1 X-239.143 Y129.132 F700
X-239.125 Y129.125
X-239.107 Y129.132
X-239.1 Y129.15
G3 X-242 Y129.15 I-1.45 J0
X-236.25 Y129.15 I2.875 J0
X-244.85 Y129.15 I-4.3 J0
X-233.4 Y129.15 I5.725 J0
X-247.7 Y129.15 I-7.15 J0
X-230.55 Y129.15 I8.575 J0
X-250.55 Y129.15 I-10 J0
X-230.55 Y129.15 I10 J0
G0 Z4
X-219.615 Y110.764
Z2
G1 Z1.8 F700
G3 X-221.335 Y113.036 Z1.011 I-0.86 J1.136 F333.3
X-219.615 Y110.764 Z0.221 I0.86 J-1.136
X-221.335 Y113.036 Z-0.568 I-0.86 J1.136
X-221.9 Y111.9 Z-0.8 I0.86 J-1.136
G1 X-221.893 Y111.882 F700
X-221.875 Y111.875
X-221.857 Y111.882
X-221.85 Y111.9
G3 X-224.75 Y111.9 I-1.45 J0
X-219 Y111.9 I2.875 J0
X-227.6 Y111.9 I-4.3 J0
X-216.15 Y111.9 I5.725 J0
X-230.45 Y111.9 I-7.15 J0
X-213.3 Y111.9 I8.575 J0
X-233.3 Y111.9 I-10 J0
X-213.3 Y111.9 I10 J0
X-214.448 Y112.839 I-0.958 J0
G1 X-218.849 Y111.95
X-218.948 Y111.935
X-219.049 Y111.931
G3 X-219.069 Y110.014 I-0.01 J-0.958
X-218.397 Y111.665 I0.01 J0.958
G1 X-219.346 Y112.573
G3 X-220.671 Y111.188 I-0.662 J-0.693
X-219.051 Y111.84 I0.662 J0.693
X-220.445 Y113.325 Z-1.2 I-1.424 J0.06 F333.3
X-221.9 Y111.9 Z-1.6 I-0.03 J-1.425
G1 X-221.893 Y111.882 F700
X-221.875 Y111.875
X-221.857 Y111.882
X-221.85 Y111.9
G3 X-224.75 Y111.9 I-1.45 J0
X-219 Y111.9 I2.875 J0
X-227.6 Y111.9 I-4.3 J0
X-216.15 Y111.9 I5.725 J0
X-230.45 Y111.9 I-7.15 J0
X-213.3 Y111.9 I8.575 J0
X-233.3 Y111.9 I-10 J0
X-213.3 Y111.9 I10 J0
X-214.448 Y112.839 I-0.958 J0
G1 X-218.849 Y111.95
X-218.948 Y111.935
X-219.049 Y111.931
G3 X-219.069 Y110.014 I-0.01 J-0.958
X-218.397 Y111.665 I0.01 J0.958
G1 X-219.346 Y112.573
G3 X-220.671 Y111.188 I-0.662 J-0.693
X-219.051 Y111.84 I0.662 J0.693
X-220.445 Y113.325 Z-2 I-1.424 J0.06 F333.3
X-221.9 Y111.9 Z-2.4 I-0.03 J-1.425
G1 X-221.893 Y111.882 F700
X-221.875 Y111.875
X-221.857 Y111.882
X-221.85 Y111.9
G3 X-224.75 Y111.9 I-1.45 J0
X-219 Y111.9 I2.875 J0
X-227.6 Y111.9 I-4.3 J0
X-216.15 Y111.9 I5.725 J0
X-230.45 Y111.9 I-7.15 J0
X-213.3 Y111.9 I8.575 J0
X-233.3 Y111.9 I-10 J0
X-213.3 Y111.9 I10 J0
X-214.448 Y112.839 I-0.958 J0
G1 X-218.849 Y111.95
X-218.948 Y111.935
X-219.049 Y111.931
G3 X-219.069 Y110.014 I-0.01 J-0.958
X-218.397 Y111.665 I0.01 J0.958
G1 X-219.346 Y112.573
G3 X-220.671 Y111.188 I-0.662 J-0.693
X-219.051 Y111.84 I0.662 J0.693
X-220.445 Y113.325 Z-2.8 I-1.424 J0.06 F333.3
X-221.9 Y111.9 Z-3.2 I-0.03 J-1.425
G1 X-221.893 Y111.882 F700
X-221.875 Y111.875
X-221.857 Y111.882
X-221.85 Y111.9
G3 X-224.75 Y111.9 I-1.45 J0
X-219 Y111.9 I2.875 J0
X-227.6 Y111.9 I-4.3 J0
X-216.15 Y111.9 I5.725 J0
X-230.45 Y111.9 I-7.15 J0
X-213.3 Y111.9 I8.575 J0
X-233.3 Y111.9 I-10 J0
X-213.3 Y111.9 I10 J0
X-214.448 Y112.839 I-0.958 J0
G1 X-218.849 Y111.95
X-218.948 Y111.935
X-219.049 Y111.931
G3 X-219.069 Y110.014 I-0.01 J-0.958
X-218.397 Y111.665 I0.01 J0.958
G1 X-219.346 Y112.573
G3 X-220.671 Y111.188 I-0.662 J-0.693
X-219.051 Y111.84 I0.662 J0.693
X-220.445 Y113.325 Z-3.6 I-1.424 J0.06 F333.3
X-221.9 Y111.9 Z-4 I-0.03 J-1.425
G1 X-221.893 Y111.882 F700
X-221.875 Y111.875
X-221.857 Y111.882
X-221.85 Y111.9
G3 X-224.75 Y111.9 I-1.45 J0
X-219 Y111.9 I2.875 J0
X-227.6 Y111.9 I-4.3 J0
X-216.15 Y111.9 I5.725 J0
X-230.45 Y111.9 I-7.15 J0
X-213.3 Y111.9 I8.575 J0
X-233.3 Y111.9 I-10 J0
X-213.3 Y111.9 I10 J0
X-214.448 Y112.839 I-0.958 J0
G1 X-218.849 Y111.95
X-218.948 Y111.935
X-219.049 Y111.931
G3 X-219.069 Y110.014 I-0.01 J-0.958
X-218.397 Y111.665 I0.01 J0.958
G1 X-219.346 Y112.573
G3 X-220.671 Y111.188 I-0.662 J-0.693
X-219.051 Y111.84 I0.662 J0.693
X-220.445 Y113.325 Z-4.4 I-1.424 J0.06 F333.3
X-221.9 Y111.9 Z-4.8 I-0.03 J-1.425
G1 X-221.893 Y111.882 F700
X-221.875 Y111.875
X-221.857 Y111.882
X-221.85 Y111.9
G3 X-224.75 Y111.9 I-1.45 J0
X-219 Y111.9 I2.875 J0
X-227.6 Y111.9 I-4.3 J0
X-216.15 Y111.9 I5.725 J0
X-230.45 Y111.9 I-7.15 J0
X-213.3 Y111.9 I8.575 J0
X-233.3 Y111.9 I-10 J0
X-213.3 Y111.9 I10 J0
X-214.448 Y112.839 I-0.958 J0
G1 X-218.849 Y111.95
X-218.948 Y111.935
X-219.049 Y111.931
G3 X-219.069 Y110.014 I-0.01 J-0.958
X-218.397 Y111.665 I0.01 J0.958
G1 X-219.346 Y112.573
G3 X-220.671 Y111.188 I-0.662 J-0.693
X-219.051 Y111.84 I0.662 J0.693
X-220.445 Y113.325 Z-5.2 I-1.424 J0.06 F333.3
X-221.9 Y111.9 Z-5.6 I-0.03 J-1.425
G1 X-221.893 Y111.882 F700
X-221.875 Y111.875
X-221.857 Y111.882
X-221.85 Y111.9
G3 X-224.75 Y111.9 I-1.45 J0
X-219 Y111.9 I2.875 J0
X-227.6 Y111.9 I-4.3 J0
X-216.15 Y111.9 I5.725 J0
X-230.45 Y111.9 I-7.15 J0
X-213.3 Y111.9 I8.575 J0
X-233.3 Y111.9 I-10 J0
X-213.3 Y111.9 I10 J0
X-214.448 Y112.839 I-0.958 J0
G1 X-218.849 Y111.95
X-218.948 Y111.935
X-219.049 Y111.931
G3 X-219.069 Y110.014 I-0.01 J-0.958
X-218.397 Y111.665 I0.01 J0.958
G1 X-219.346 Y112.573
G3 X-220.671 Y111.188 I-0.662 J-0.693
X-219.051 Y111.84 I0.662 J0.693
X-220.445 Y113.325 Z-6 I-1.424 J0.06 F333.3
X-221.9 Y111.9 Z-6.4 I-0.03 J-1.425
G1 X-221.893 Y111.882 F700
X-221.875 Y111.875
X-221.857 Y111.882
X-221.85 Y111.9
G3 X-224.75 Y111.9 I-1.45 J0
X-219 Y111.9 I2.875 J0
X-227.6 Y111.9 I-4.3 J0
X-216.15 Y111.9 I5.725 J0
X-230.45 Y111.9 I-7.15 J0
X-213.3 Y111.9 I8.575 J0
X-233.3 Y111.9 I-10 J0
X-213.3 Y111.9 I10 J0
X-214.448 Y112.839 I-0.958 J0
G1 X-218.849 Y111.95
X-218.948 Y111.935
X-219.049 Y111.931
G3 X-219.069 Y110.014 I-0.01 J-0.958
X-218.397 Y111.665 I0.01 J0.958
G1 X-219.346 Y112.573
G3 X-220.671 Y111.188 I-0.662 J-0.693
X-219.051 Y111.84 I0.662 J0.693
X-220.445 Y113.325 Z-6.8 I-1.424 J0.06 F333.3
X-221.9 Y111.9 Z-7.2 I-0.03 J-1.425
G1 X-221.893 Y111.882 F700
X-221.875 Y111.875
X-221.857 Y111.882
X-221.85 Y111.9
G3 X-224.75 Y111.9 I-1.45 J0
X-219 Y111.9 I2.875 J0
X-227.6 Y111.9 I-4.3 J0
X-216.15 Y111.9 I5.725 J0
X-230.45 Y111.9 I-7.15 J0
X-213.3 Y111.9 I8.575 J0
X-233.3 Y111.9 I-10 J0
X-213.3 Y111.9 I10 J0
X-214.448 Y112.839 I-0.958 J0
G1 X-218.849 Y111.95
X-218.948 Y111.935
X-219.049 Y111.931
G3 X-219.069 Y110.014 I-0.01 J-0.958
X-218.397 Y111.665 I0.01 J0.958
G1 X-219.346 Y112.573
G3 X-220.671 Y111.188 I-0.662 J-0.693
X-219.051 Y111.84 I0.662 J0.693
X-220.445 Y113.325 Z-7.6 I-1.424 J0.06 F333.3
X-221.9 Y111.9 Z-8 I-0.03 J-1.425
G1 X-221.893 Y111.882 F700
X-221.875 Y111.875
X-221.857 Y111.882
X-221.85 Y111.9
G3 X-224.75 Y111.9 I-1.45 J0
X-219 Y111.9 I2.875 J0
X-227.6 Y111.9 I-4.3 J0
X-216.15 Y111.9 I5.725 J0
X-230.45 Y111.9 I-7.15 J0
X-213.3 Y111.9 I8.575 J0
X-233.3 Y111.9 I-10 J0
X-213.3 Y111.9 I10 J0
X-214.448 Y112.839 I-0.958 J0
G1 X-218.849 Y111.95
X-218.948 Y111.935
X-219.049 Y111.931
G3 X-219.069 Y110.014 I-0.01 J-0.958
X-218.397 Y111.665 I0.01 J0.958
G1 X-219.346 Y112.573
G3 X-220.671 Y111.188 I-0.662 J-0.693
X-219.051 Y111.84 I0.662 J0.693
X-220.445 Y113.325 Z-8.4 I-1.424 J0.06 F333.3
X-221.9 Y111.9 Z-8.8 I-0.03 J-1.425
G1 X-221.893 Y111.882 F700
X-221.875 Y111.875
X-221.857 Y111.882
X-221.85 Y111.9
G3 X-224.75 Y111.9 I-1.45 J0
X-219 Y111.9 I2.875 J0
X-227.6 Y111.9 I-4.3 J0
X-216.15 Y111.9 I5.725 J0
X-230.45 Y111.9 I-7.15 J0
X-213.3 Y111.9 I8.575 J0
X-233.3 Y111.9 I-10 J0
X-213.3 Y111.9 I10 J0
X-214.448 Y112.839 I-0.958 J0
G1 X-218.849 Y111.95
X-218.948 Y111.935
X-219.049 Y111.931
G3 X-219.069 Y110.014 I-0.01 J-0.958
X-218.397 Y111.665 I0.01 J0.958
G1 X-219.346 Y112.573
G3 X-220.671 Y111.188 I-0.662 J-0.693
X-219.051 Y111.84 I0.662 J0.693
X-220.445 Y113.325 Z-9.2 I-1.424 J0.06 F333.3
X-221.9 Y111.9 Z-9.6 I-0.03 J-1.425
G1 X-221.893 Y111.882 F700
X-221.875 Y111.875
X-221.857 Y111.882
X-221.85 Y111.9
G3 X-224.75 Y111.9 I-1.45 J0
X-219 Y111.9 I2.875 J0
X-227.6 Y111.9 I-4.3 J0
X-216.15 Y111.9 I5.725 J0
X-230.45 Y111.9 I-7.15 J0
X-213.3 Y111.9 I8.575 J0
X-233.3 Y111.9 I-10 J0
X-213.3 Y111.9 I10 J0
X-214.448 Y112.839 I-0.958 J0
G1 X-218.849 Y111.95
X-218.948 Y111.935
X-219.049 Y111.931
G3 X-219.069 Y110.014 I-0.01 J-0.958
X-218.397 Y111.665 I0.01 J0.958
G1 X-219.346 Y112.573
G3 X-220.671 Y111.188 I-0.662 J-0.693
X-219.051 Y111.84 I0.662 J0.693
X-220.445 Y113.325 Z-10 I-1.424 J0.06 F333.3
X-221.9 Y111.9 Z-10.4 I-0.03 J-1.425
G1 X-221.893 Y111.882 F700
X-221.875 Y111.875
X-221.857 Y111.882
X-221.85 Y111.9
G3 X-224.75 Y111.9 I-1.45 J0
X-219 Y111.9 I2.875 J0
X-227.6 Y111.9 I-4.3 J0
X-216.15 Y111.9 I5.725 J0
X-230.45 Y111.9 I-7.15 J0
X-213.3 Y111.9 I8.575 J0
X-233.3 Y111.9 I-10 J0
X-213.3 Y111.9 I10 J0
X-214.448 Y112.839 I-0.958 J0
G1 X-218.849 Y111.95
X-218.948 Y111.935
X-219.049 Y111.931
G3 X-219.069 Y110.014 I-0.01 J-0.958
X-218.397 Y111.665 I0.01 J0.958
G1 X-219.346 Y112.573
G3 X-220.671 Y111.188 I-0.662 J-0.693
X-219.051 Y111.84 I0.662 J0.693
X-220.445 Y113.325 Z-10.8 I-1.424 J0.06 F333.3
X-221.9 Y111.9 Z-11.2 I-0.03 J-1.425
G1 X-221.893 Y111.882 F700
X-221.875 Y111.875
X-221.857 Y111.882
X-221.85 Y111.9
G3 X-224.75 Y111.9 I-1.45 J0
X-219 Y111.9 I2.875 J0
X-227.6 Y111.9 I-4.3 J0
X-216.15 Y111.9 I5.725 J0
X-230.45 Y111.9 I-7.15 J0
X-213.3 Y111.9 I8.575 J0
X-233.3 Y111.9 I-10 J0
X-213.3 Y111.9 I10 J0
X-214.448 Y112.839 I-0.958 J0
G1 X-218.849 Y111.95
X-218.948 Y111.935
X-219.049 Y111.931
G3 X-219.069 Y110.014 I-0.01 J-0.958
X-218.397 Y111.665 I0.01 J0.958
G1 X-219.346 Y112.573
G3 X-220.671 Y111.188 I-0.662 J-0.693
X-219.051 Y111.84 I0.662 J0.693
X-220.445 Y113.325 Z-11.6 I-1.424 J0.06 F333.3
X-221.9 Y111.9 Z-12 I-0.03 J-1.425
G1 X-221.893 Y111.882 F700
X-221.875 Y111.875
X-221.857 Y111.882
X-221.85 Y111.9
G3 X-224.75 Y111.9 I-1.45 J0
X-219 Y111.9 I2.875 J0
X-227.6 Y111.9 I-4.3 J0
X-216.15 Y111.9 I5.725 J0
X-230.45 Y111.9 I-7.15 J0
X-213.3 Y111.9 I8.575 J0
X-233.3 Y111.9 I-10 J0
X-213.3 Y111.9 I10 J0
X-214.448 Y112.839 I-0.958 J0
G1 X-218.849 Y111.95
X-218.948 Y111.935
X-219.049 Y111.931
G3 X-219.069 Y110.014 I-0.01 J-0.958
X-218.397 Y111.665 I0.01 J0.958
G1 X-219.346 Y112.573
G3 X-220.671 Y111.188 I-0.662 J-0.693
X-219.051 Y111.84 I0.662 J0.693
X-220.445 Y113.325 Z-12.4 I-1.424 J0.06 F333.3
X-221.9 Y111.9 Z-12.8 I-0.03 J-1.425
G1 X-221.893 Y111.882 F700
X-221.875 Y111.875
X-221.857 Y111.882
X-221.85 Y111.9
G3 X-224.75 Y111.9 I-1.45 J0
X-219 Y111.9 I2.875 J0
X-227.6 Y111.9 I-4.3 J0
X-216.15 Y111.9 I5.725 J0
X-230.45 Y111.9 I-7.15 J0
X-213.3 Y111.9 I8.575 J0
X-233.3 Y111.9 I-10 J0
X-213.3 Y111.9 I10 J0
X-214.448 Y112.839 I-0.958 J0
G1 X-218.849 Y111.95
X-218.948 Y111.935
X-219.049 Y111.931
G3 X-219.069 Y110.014 I-0.01 J-0.958
X-218.397 Y111.665 I0.01 J0.958
G1 X-219.346 Y112.573
G3 X-220.671 Y111.188 I-0.662 J-0.693
X-219.051 Y111.84 I0.662 J0.693
X-220.445 Y113.325 Z-13.2 I-1.424 J0.06 F333.3
X-221.9 Y111.9 Z-13.6 I-0.03 J-1.425
G1 X-221.893 Y111.882 F700
X-221.875 Y111.875
X-221.857 Y111.882
X-221.85 Y111.9
G3 X-224.75 Y111.9 I-1.45 J0
X-219 Y111.9 I2.875 J0
X-227.6 Y111.9 I-4.3 J0
X-216.15 Y111.9 I5.725 J0
X-230.45 Y111.9 I-7.15 J0
X-213.3 Y111.9 I8.575 J0
X-233.3 Y111.9 I-10 J0
X-213.3 Y111.9 I10 J0
X-214.448 Y112.839 I-0.958 J0
G1 X-218.849 Y111.95
X-218.948 Y111.935
X-219.049 Y111.931
G3 X-219.069 Y110.014 I-0.01 J-0.958
X-218.397 Y111.665 I0.01 J0.958
G1 X-219.346 Y112.573
G3 X-220.671 Y111.188 I-0.662 J-0.693
X-219.051 Y111.84 I0.662 J0.693
X-220.445 Y113.325 Z-14 I-1.424 J0.06 F333.3
X-221.9 Y111.9 Z-14.4 I-0.03 J-1.425
G1 X-221.893 Y111.882 F700
X-221.875 Y111.875
X-221.857 Y111.882
X-221.85 Y111.9
G3 X-224.75 Y111.9 I-1.45 J0
X-219 Y111.9 I2.875 J0
X-227.6 Y111.9 I-4.3 J0
X-216.15 Y111.9 I5.725 J0
X-230.45 Y111.9 I-7.15 J0
X-213.3 Y111.9 I8.575 J0
X-233.3 Y111.9 I-10 J0
X-213.3 Y111.9 I10 J0
X-214.448 Y112.839 I-0.958 J0
G1 X-218.849 Y111.95
X-218.948 Y111.935
X-219.049 Y111.931
G3 X-219.069 Y110.014 I-0.01 J-0.958
X-218.397 Y111.665 I0.01 J0.958
G1 X-219.346 Y112.573
G3 X-220.671 Y111.188 I-0.662 J-0.693
X-219.051 Y111.84 I0.662 J0.693
X-220.445 Y113.325 Z-14.8 I-1.424 J0.06 F333.3
X-221.9 Y111.9 Z-15.2 I-0.03 J-1.425
G1 X-221.893 Y111.882 F700
X-221.875 Y111.875
X-221.857 Y111.882
X-221.85 Y111.9
G3 X-224.75 Y111.9 I-1.45 J0
X-219 Y111.9 I2.875 J0
X-227.6 Y111.9 I-4.3 J0
X-216.15 Y111.9 I5.725 J0
X-230.45 Y111.9 I-7.15 J0
X-213.3 Y111.9 I8.575 J0
X-233.3 Y111.9 I-10 J0
X-213.3 Y111.9 I10 J0
X-214.448 Y112.839 I-0.958 J0
G1 X-218.849 Y111.95
X-218.948 Y111.935
X-219.049 Y111.931
G3 X-219.069 Y110.014 I-0.01 J-0.958
X-218.397 Y111.665 I0.01 J0.958
G1 X-219.346 Y112.573
G3 X-220.671 Y111.188 I-0.662 J-0.693
X-219.051 Y111.84 I0.662 J0.693
X-220.445 Y113.325 Z-15.6 I-1.424 J0.06 F333.3
X-221.9 Y111.9 Z-16 I-0.03 J-1.425
G1 X-221.893 Y111.882 F700
X-221.875 Y111.875
X-221.857 Y111.882
X-221.85 Y111.9
G3 X-224.75 Y111.9 I-1.45 J0
X-219 Y111.9 I2.875 J0
X-227.6 Y111.9 I-4.3 J0
X-216.15 Y111.9 I5.725 J0
X-230.45 Y111.9 I-7.15 J0
X-213.3 Y111.9 I8.575 J0
X-233.3 Y111.9 I-10 J0
X-213.3 Y111.9 I10 J0
X-214.448 Y112.839 I-0.958 J0
G1 X-218.849 Y111.95
X-218.948 Y111.935
X-219.049 Y111.931
G3 X-219.069 Y110.014 I-0.01 J-0.958
X-218.397 Y111.665 I0.01 J0.958
G1 X-219.346 Y112.573
G3 X-220.671 Y111.188 I-0.662 J-0.693
X-219.051 Y111.84 I0.662 J0.693
X-220.445 Y113.325 Z-16.4 I-1.424 J0.06 F333.3
X-221.9 Y111.9 Z-16.8 I-0.03 J-1.425
G1 X-221.893 Y111.882 F700
X-221.875 Y111.875
X-221.857 Y111.882
X-221.85 Y111.9
G3 X-224.75 Y111.9 I-1.45 J0
X-219 Y111.9 I2.875 J0
X-227.6 Y111.9 I-4.3 J0
X-216.15 Y111.9 I5.725 J0
X-230.45 Y111.9 I-7.15 J0
X-213.3 Y111.9 I8.575 J0
X-233.3 Y111.9 I-10 J0
X-213.3 Y111.9 I10 J0
X-214.448 Y112.839 I-0.958 J0
G1 X-218.849 Y111.95
X-218.948 Y111.935
X-219.049 Y111.931
G3 X-219.069 Y110.014 I-0.01 J-0.958
X-218.397 Y111.665 I0.01 J0.958
G1 X-219.346 Y112.573
G3 X-220.671 Y111.188 I-0.662 J-0.693
X-219.051 Y111.84 I0.662 J0.693
X-220.445 Y113.325 Z-17.2 I-1.424 J0.06 F333.3
X-221.9 Y111.9 Z-17.6 I-0.03 J-1.425
G1 X-221.893 Y111.882 F700
X-221.875 Y111.875
X-221.857 Y111.882
X-221.85 Y111.9
G3 X-224.75 Y111.9 I-1.45 J0
X-219 Y111.9 I2.875 J0
X-227.6 Y111.9 I-4.3 J0
X-216.15 Y111.9 I5.725 J0
X-230.45 Y111.9 I-7.15 J0
X-213.3 Y111.9 I8.575 J0
X-233.3 Y111.9 I-10 J0
X-213.3 Y111.9 I10 J0
X-214.374 Y112.668 I-0.811 J0
G1 X-218.021 Y111.422
G2 X-218.955 Y111.735 I-0.262 J0.768
G1 X-219.79 Y112.968
G3 X-220.445 Y113.325 I-0.672 J-0.455
X-221.9 Y111.9 Z-18 I-0.03 J-1.425 F333.3
G1 X-221.893 Y111.882 F700
X-221.875 Y111.875
X-221.857 Y111.882
X-221.85 Y111.9
G3 X-224.75 Y111.9 I-1.45 J0
X-219 Y111.9 I2.875 J0
X-227.6 Y111.9 I-4.3 J0
X-216.15 Y111.9 I5.725 J0
X-230.45 Y111.9 I-7.15 J0
X-213.3 Y111.9 I8.575 J0
X-233.3 Y111.9 I-10 J0
X-213.3 Y111.9 I10 J0
G0 Z4
X-236.865 Y93.514
Z2
G1 Z1.8 F700
G3 X-238.585 Y95.786 Z1.011 I-0.86 J1.136 F333.3
X-236.865 Y93.514 Z0.221 I0.86 J-1.136
X-238.585 Y95.786 Z-0.568 I-0.86 J1.136
X-239.15 Y94.65 Z-0.8 I0.86 J-1.136
G1 X-239.143 Y94.632 F700
X-239.125 Y94.625
X-239.107 Y94.632
X-239.1 Y94.65
G3 X-242 Y94.65 I-1.45 J0
X-236.25 Y94.65 I2.875 J0
X-244.85 Y94.65 I-4.3 J0
X-233.4 Y94.65 I5.725 J0
X-247.7 Y94.65 I-7.15 J0
X-230.55 Y94.65 I8.575 J0
X-250.55 Y94.65 I-10 J0
X-230.55 Y94.65 I10 J0
X-231.698 Y95.589 I-0.958 J0
G1 X-236.099 Y94.7
X-236.198 Y94.685
X-236.299 Y94.681
G3 X-236.319 Y92.764 I-0.01 J-0.958
X-235.647 Y94.415 I0.01 J0.958
G1 X-236.596 Y95.323
G3 X-237.921 Y93.938 I-0.662 J-0.693
X-236.301 Y94.59 I0.662 J0.693
X-237.695 Y96.075 Z-1.2 I-1.424 J0.06 F333.3
X-239.15 Y94.65 Z-1.6 I-0.03 J-1.425
G1 X-239.143 Y94.632 F700
X-239.125 Y94.625
X-239.107 Y94.632
X-239.1 Y94.65
G3 X-242 Y94.65 I-1.45 J0
X-236.25 Y94.65 I2.875 J0
X-244.85 Y94.65 I-4.3 J0
X-233.4 Y94.65 I5.725 J0
X-247.7 Y94.65 I-7.15 J0
X-230.55 Y94.65 I8.575 J0
X-250.55 Y94.65 I-10 J0
X-230.55 Y94.65 I10 J0
X-231.698 Y95.589 I-0.958 J0
G1 X-236.099 Y94.7
X-236.198 Y94.685
X-236.299 Y94.681
G3 X-236.319 Y92.764 I-0.01 J-0.958
X-235.647 Y94.415 I0.01 J0.958
G1 X-236.596 Y95.323
G3 X-237.921 Y93.938 I-0.662 J-0.693
X-236.301 Y94.59 I0.662 J0.693
X-237.695 Y96.075 Z-2 I-1.424 J0.06 F333.3
X-239.15 Y94.65 Z-2.4 I-0.03 J-1.425
G1 X-239.143 Y94.632 F700
X-239.125 Y94.625
X-239.107 Y94.632
X-239.1 Y94.65
G3 X-242 Y94.65 I-1.45 J0
X-236.25 Y94.65 I2.875 J0
X-244.85 Y94.65 I-4.3 J0
X-233.4 Y94.65 I5.725 J0
X-247.7 Y94.65 I-7.15 J0
X-230.55 Y94.65 I8.575 J0
X-250.55 Y94.65 I-10 J0
X-230.55 Y94.65 I10 J0
X-231.698 Y95.589 I-0.958 J0
G1 X-236.099 Y94.7
X-236.198 Y94.685
X-236.299 Y94.681
G3 X-236.319 Y92.764 I-0.01 J-0.958
X-235.647 Y94.415 I0.01 J0.958
G1 X-236.596 Y95.323
G3 X-237.921 Y93.938 I-0.662 J-0.693
X-236.301 Y94.59 I0.662 J0.693
X-237.695 Y96.075 Z-2.8 I-1.424 J0.06 F333.3
X-239.15 Y94.65 Z-3.2 I-0.03 J-1.425
G1 X-239.143 Y94.632 F700
X-239.125 Y94.625
X-239.107 Y94.632
X-239.1 Y94.65
G3 X-242 Y94.65 I-1.45 J0
X-236.25 Y94.65 I2.875 J0
X-244.85 Y94.65 I-4.3 J0
X-233.4 Y94.65 I5.725 J0
X-247.7 Y94.65 I-7.15 J0
X-230.55 Y94.65 I8.575 J0
X-250.55 Y94.65 I-10 J0
X-230.55 Y94.65 I10 J0
X-231.698 Y95.589 I-0.958 J0
G1 X-236.099 Y94.7
X-236.198 Y94.685
X-236.299 Y94.681
G3 X-236.319 Y92.764 I-0.01 J-0.958
X-235.647 Y94.415 I0.01 J0.958
G1 X-236.596 Y95.323
G3 X-237.921 Y93.938 I-0.662 J-0.693
X-236.301 Y94.59 I0.662 J0.693
X-237.695 Y96.075 Z-3.6 I-1.424 J0.06 F333.3
X-239.15 Y94.65 Z-4 I-0.03 J-1.425
G1 X-239.143 Y94.632 F700
X-239.125 Y94.625
X-239.107 Y94.632
X-239.1 Y94.65
G3 X-242 Y94.65 I-1.45 J0
X-236.25 Y94.65 I2.875 J0
X-244.85 Y94.65 I-4.3 J0
X-233.4 Y94.65 I5.725 J0
X-247.7 Y94.65 I-7.15 J0
X-230.55 Y94.65 I8.575 J0
X-250.55 Y94.65 I-10 J0
X-230.55 Y94.65 I10 J0
X-231.698 Y95.589 I-0.958 J0
G1 X-236.099 Y94.7
X-236.198 Y94.685
X-236.299 Y94.681
G3 X-236.319 Y92.764 I-0.01 J-0.958
X-235.647 Y94.415 I0.01 J0.958
G1 X-236.596 Y95.323
G3 X-237.921 Y93.938 I-0.662 J-0.693
X-236.301 Y94.59 I0.662 J0.693
X-237.695 Y96.075 Z-4.4 I-1.424 J0.06 F333.3
X-239.15 Y94.65 Z-4.8 I-0.03 J-1.425
G1 X-239.143 Y94.632 F700
X-239.125 Y94.625
X-239.107 Y94.632
X-239.1 Y94.65
G3 X-242 Y94.65 I-1.45 J0
X-236.25 Y94.65 I2.875 J0
X-244.85 Y94.65 I-4.3 J0
X-233.4 Y94.65 I5.725 J0
X-247.7 Y94.65 I-7.15 J0
X-230.55 Y94.65 I8.575 J0
X-250.55 Y94.65 I-10 J0
X-230.55 Y94.65 I10 J0
X-231.698 Y95.589 I-0.958 J0
G1 X-236.099 Y94.7
X-236.198 Y94.685
X-236.299 Y94.681
G3 X-236.319 Y92.764 I-0.01 J-0.958
X-235.647 Y94.415 I0.01 J0.958
G1 X-236.596 Y95.323
G3 X-237.921 Y93.938 I-0.662 J-0.693
X-236.301 Y94.59 I0.662 J0.693
X-237.695 Y96.075 Z-5.2 I-1.424 J0.06 F333.3
X-239.15 Y94.65 Z-5.6 I-0.03 J-1.425
G1 X-239.143 Y94.632 F700
X-239.125 Y94.625
X-239.107 Y94.632
X-239.1 Y94.65
G3 X-242 Y94.65 I-1.45 J0
X-236.25 Y94.65 I2.875 J0
X-244.85 Y94.65 I-4.3 J0
X-233.4 Y94.65 I5.725 J0
X-247.7 Y94.65 I-7.15 J0
X-230.55 Y94.65 I8.575 J0
X-250.55 Y94.65 I-10 J0
X-230.55 Y94.65 I10 J0
X-231.698 Y95.589 I-0.958 J0
G1 X-236.099 Y94.7
X-236.198 Y94.685
X-236.299 Y94.681
G3 X-236.319 Y92.764 I-0.01 J-0.958
X-235.647 Y94.415 I0.01 J0.958
G1 X-236.596 Y95.323
G3 X-237.921 Y93.938 I-0.662 J-0.693
X-236.301 Y94.59 I0.662 J0.693
X-237.695 Y96.075 Z-6 I-1.424 J0.06 F333.3
X-239.15 Y94.65 Z-6.4 I-0.03 J-1.425
G1 X-239.143 Y94.632 F700
X-239.125 Y94.625
X-239.107 Y94.632
X-239.1 Y94.65
G3 X-242 Y94.65 I-1.45 J0
X-236.25 Y94.65 I2.875 J0
X-244.85 Y94.65 I-4.3 J0
X-233.4 Y94.65 I5.725 J0
X-247.7 Y94.65 I-7.15 J0
X-230.55 Y94.65 I8.575 J0
X-250.55 Y94.65 I-10 J0
X-230.55 Y94.65 I10 J0
X-231.698 Y95.589 I-0.958 J0
G1 X-236.099 Y94.7
X-236.198 Y94.685
X-236.299 Y94.681
G3 X-236.319 Y92.764 I-0.01 J-0.958
X-235.647 Y94.415 I0.01 J0.958
G1 X-236.596 Y95.323
G3 X-237.921 Y93.938 I-0.662 J-0.693
X-236.301 Y94.59 I0.662 J0.693
X-237.695 Y96.075 Z-6.8 I-1.424 J0.06 F333.3
X-239.15 Y94.65 Z-7.2 I-0.03 J-1.425
G1 X-239.143 Y94.632 F700
X-239.125 Y94.625
X-239.107 Y94.632
X-239.1 Y94.65
G3 X-242 Y94.65 I-1.45 J0
X-236.25 Y94.65 I2.875 J0
X-244.85 Y94.65 I-4.3 J0
X-233.4 Y94.65 I5.725 J0
X-247.7 Y94.65 I-7.15 J0
X-230.55 Y94.65 I8.575 J0
X-250.55 Y94.65 I-10 J0
X-230.55 Y94.65 I10 J0
X-231.698 Y95.589 I-0.958 J0
G1 X-236.099 Y94.7
X-236.198 Y94.685
X-236.299 Y94.681
G3 X-236.319 Y92.764 I-0.01 J-0.958
X-235.647 Y94.415 I0.01 J0.958
G1 X-236.596 Y95.323
G3 X-237.921 Y93.938 I-0.662 J-0.693
X-236.301 Y94.59 I0.662 J0.693
X-237.695 Y96.075 Z-7.6 I-1.424 J0.06 F333.3
X-239.15 Y94.65 Z-8 I-0.03 J-1.425
G1 X-239.143 Y94.632 F700
X-239.125 Y94.625
X-239.107 Y94.632
X-239.1 Y94.65
G3 X-242 Y94.65 I-1.45 J0
X-236.25 Y94.65 I2.875 J0
X-244.85 Y94.65 I-4.3 J0
X-233.4 Y94.65 I5.725 J0
X-247.7 Y94.65 I-7.15 J0
X-230.55 Y94.65 I8.575 J0
X-250.55 Y94.65 I-10 J0
X-230.55 Y94.65 I10 J0
X-231.698 Y95.589 I-0.958 J0
G1 X-236.099 Y94.7
X-236.198 Y94.685
X-236.299 Y94.681
G3 X-236.319 Y92.764 I-0.01 J-0.958
X-235.647 Y94.415 I0.01 J0.958
G1 X-236.596 Y95.323
G3 X-237.921 Y93.938 I-0.662 J-0.693
X-236.301 Y94.59 I0.662 J0.693
X-237.695 Y96.075 Z-8.4 I-1.424 J0.06 F333.3
X-239.15 Y94.65 Z-8.8 I-0.03 J-1.425
G1 X-239.143 Y94.632 F700
X-239.125 Y94.625
X-239.107 Y94.632
X-239.1 Y94.65
G3 X-242 Y94.65 I-1.45 J0
X-236.25 Y94.65 I2.875 J0
X-244.85 Y94.65 I-4.3 J0
X-233.4 Y94.65 I5.725 J0
X-247.7 Y94.65 I-7.15 J0
X-230.55 Y94.65 I8.575 J0
X-250.55 Y94.65 I-10 J0
X-230.55 Y94.65 I10 J0
X-231.698 Y95.589 I-0.958 J0
G1 X-236.099 Y94.7
X-236.198 Y94.685
X-236.299 Y94.681
G3 X-236.319 Y92.764 I-0.01 J-0.958
X-235.647 Y94.415 I0.01 J0.958
G1 X-236.596 Y95.323
G3 X-237.921 Y93.938 I-0.662 J-0.693
X-236.301 Y94.59 I0.662 J0.693
X-237.695 Y96.075 Z-9.2 I-1.424 J0.06 F333.3
X-239.15 Y94.65 Z-9.6 I-0.03 J-1.425
G1 X-239.143 Y94.632 F700
X-239.125 Y94.625
X-239.107 Y94.632
X-239.1 Y94.65
G3 X-242 Y94.65 I-1.45 J0
X-236.25 Y94.65 I2.875 J0
X-244.85 Y94.65 I-4.3 J0
X-233.4 Y94.65 I5.725 J0
X-247.7 Y94.65 I-7.15 J0
X-230.55 Y94.65 I8.575 J0
X-250.55 Y94.65 I-10 J0
X-230.55 Y94.65 I10 J0
X-231.698 Y95.589 I-0.958 J0
G1 X-236.099 Y94.7
X-236.198 Y94.685
X-236.299 Y94.681
G3 X-236.319 Y92.764 I-0.01 J-0.958
X-235.647 Y94.415 I0.01 J0.958
G1 X-236.596 Y95.323
G3 X-237.921 Y93.938 I-0.662 J-0.693
X-236.301 Y94.59 I0.662 J0.693
X-237.695 Y96.075 Z-10 I-1.424 J0.06 F333.3
X-239.15 Y94.65 Z-10.4 I-0.03 J-1.425
G1 X-239.143 Y94.632 F700
X-239.125 Y94.625
X-239.107 Y94.632
X-239.1 Y94.65
G3 X-242 Y94.65 I-1.45 J0
X-236.25 Y94.65 I2.875 J0
X-244.85 Y94.65 I-4.3 J0
X-233.4 Y94.65 I5.725 J0
X-247.7 Y94.65 I-7.15 J0
X-230.55 Y94.65 I8.575 J0
X-250.55 Y94.65 I-10 J0
X-230.55 Y94.65 I10 J0
X-231.698 Y95.589 I-0.958 J0
G1 X-236.099 Y94.7
X-236.198 Y94.685
X-236.299 Y94.681
G3 X-236.319 Y92.764 I-0.01 J-0.958
X-235.647 Y94.415 I0.01 J0.958
G1 X-236.596 Y95.323
G3 X-237.921 Y93.938 I-0.662 J-0.693
X-236.301 Y94.59 I0.662 J0.693
X-237.695 Y96.075 Z-10.8 I-1.424 J0.06 F333.3
X-239.15 Y94.65 Z-11.2 I-0.03 J-1.425
G1 X-239.143 Y94.632 F700
X-239.125 Y94.625
X-239.107 Y94.632
X-239.1 Y94.65
G3 X-242 Y94.65 I-1.45 J0
X-236.25 Y94.65 I2.875 J0
X-244.85 Y94.65 I-4.3 J0
X-233.4 Y94.65 I5.725 J0
X-247.7 Y94.65 I-7.15 J0
X-230.55 Y94.65 I8.575 J0
X-250.55 Y94.65 I-10 J0
X-230.55 Y94.65 I10 J0
X-231.698 Y95.589 I-0.958 J0
G1 X-236.099 Y94.7
X-236.198 Y94.685
X-236.299 Y94.681
G3 X-236.319 Y92.764 I-0.01 J-0.958
X-235.647 Y94.415 I0.01 J0.958
G1 X-236.596 Y95.323
G3 X-237.921 Y93.938 I-0.662 J-0.693
X-236.301 Y94.59 I0.662 J0.693
X-237.695 Y96.075 Z-11.6 I-1.424 J0.06 F333.3
X-239.15 Y94.65 Z-12 I-0.03 J-1.425
G1 X-239.143 Y94.632 F700
X-239.125 Y94.625
X-239.107 Y94.632
X-239.1 Y94.65
G3 X-242 Y94.65 I-1.45 J0
X-236.25 Y94.65 I2.875 J0
X-244.85 Y94.65 I-4.3 J0
X-233.4 Y94.65 I5.725 J0
X-247.7 Y94.65 I-7.15 J0
X-230.55 Y94.65 I8.575 J0
X-250.55 Y94.65 I-10 J0
X-230.55 Y94.65 I10 J0
X-231.698 Y95.589 I-0.958 J0
G1 X-236.099 Y94.7
X-236.198 Y94.685
X-236.299 Y94.681
G3 X-236.319 Y92.764 I-0.01 J-0.958
X-235.647 Y94.415 I0.01 J0.958
G1 X-236.596 Y95.323
G3 X-237.921 Y93.938 I-0.662 J-0.693
X-236.301 Y94.59 I0.662 J0.693
X-237.695 Y96.075 Z-12.4 I-1.424 J0.06 F333.3
X-239.15 Y94.65 Z-12.8 I-0.03 J-1.425
G1 X-239.143 Y94.632 F700
X-239.125 Y94.625
X-239.107 Y94.632
X-239.1 Y94.65
G3 X-242 Y94.65 I-1.45 J0
X-236.25 Y94.65 I2.875 J0
X-244.85 Y94.65 I-4.3 J0
X-233.4 Y94.65 I5.725 J0
X-247.7 Y94.65 I-7.15 J0
X-230.55 Y94.65 I8.575 J0
X-250.55 Y94.65 I-10 J0
X-230.55 Y94.65 I10 J0
X-231.698 Y95.589 I-0.958 J0
G1 X-236.099 Y94.7
X-236.198 Y94.685
X-236.299 Y94.681
G3 X-236.319 Y92.764 I-0.01 J-0.958
X-235.647 Y94.415 I0.01 J0.958
G1 X-236.596 Y95.323
G3 X-237.921 Y93.938 I-0.662 J-0.693
X-236.301 Y94.59 I0.662 J0.693
X-237.695 Y96.075 Z-13.2 I-1.424 J0.06 F333.3
X-239.15 Y94.65 Z-13.6 I-0.03 J-1.425
G1 X-239.143 Y94.632 F700
X-239.125 Y94.625
X-239.107 Y94.632
X-239.1 Y94.65
G3 X-242 Y94.65 I-1.45 J0
X-236.25 Y94.65 I2.875 J0
X-244.85 Y94.65 I-4.3 J0
X-233.4 Y94.65 I5.725 J0
X-247.7 Y94.65 I-7.15 J0
X-230.55 Y94.65 I8.575 J0
X-250.55 Y94.65 I-10 J0
X-230.55 Y94.65 I10 J0
X-231.698 Y95.589 I-0.958 J0
G1 X-236.099 Y94.7
X-236.198 Y94.685
X-236.299 Y94.681
G3 X-236.319 Y92.764 I-0.01 J-0.958
X-235.647 Y94.415 I0.01 J0.958
G1 X-236.596 Y95.323
G3 X-237.921 Y93.938 I-0.662 J-0.693
X-236.301 Y94.59 I0.662 J0.693
X-237.695 Y96.075 Z-14 I-1.424 J0.06 F333.3
X-239.15 Y94.65 Z-14.4 I-0.03 J-1.425
G1 X-239.143 Y94.632 F700
X-239.125 Y94.625
X-239.107 Y94.632
X-239.1 Y94.65
G3 X-242 Y94.65 I-1.45 J0
X-236.25 Y94.65 I2.875 J0
X-244.85 Y94.65 I-4.3 J0
X-233.4 Y94.65 I5.725 J0
X-247.7 Y94.65 I-7.15 J0
X-230.55 Y94.65 I8.575 J0
X-250.55 Y94.65 I-10 J0
X-230.55 Y94.65 I10 J0
X-231.698 Y95.589 I-0.958 J0
G1 X-236.099 Y94.7
X-236.198 Y94.685
X-236.299 Y94.681
G3 X-236.319 Y92.764 I-0.01 J-0.958
X-235.647 Y94.415 I0.01 J0.958
G1 X-236.596 Y95.323
G3 X-237.921 Y93.938 I-0.662 J-0.693
X-236.301 Y94.59 I0.662 J0.693
X-237.695 Y96.075 Z-14.8 I-1.424 J0.06 F333.3
X-239.15 Y94.65 Z-15.2 I-0.03 J-1.425
G1 X-239.143 Y94.632 F700
X-239.125 Y94.625
X-239.107 Y94.632
X-239.1 Y94.65
G3 X-242 Y94.65 I-1.45 J0
X-236.25 Y94.65 I2.875 J0
X-244.85 Y94.65 I-4.3 J0
X-233.4 Y94.65 I5.725 J0
X-247.7 Y94.65 I-7.15 J0
X-230.55 Y94.65 I8.575 J0
X-250.55 Y94.65 I-10 J0
X-230.55 Y94.65 I10 J0
X-231.698 Y95.589 I-0.958 J0
G1 X-236.099 Y94.7
X-236.198 Y94.685
X-236.299 Y94.681
G3 X-236.319 Y92.764 I-0.01 J-0.958
X-235.647 Y94.415 I0.01 J0.958
G1 X-236.596 Y95.323
G3 X-237.921 Y93.938 I-0.662 J-0.693
X-236.301 Y94.59 I0.662 J0.693
X-237.695 Y96.075 Z-15.6 I-1.424 J0.06 F333.3
X-239.15 Y94.65 Z-16 I-0.03 J-1.425
G1 X-239.143 Y94.632 F700
X-239.125 Y94.625
X-239.107 Y94.632
X-239.1 Y94.65
G3 X-242 Y94.65 I-1.45 J0
X-236.25 Y94.65 I2.875 J0
X-244.85 Y94.65 I-4.3 J0
X-233.4 Y94.65 I5.725 J0
X-247.7 Y94.65 I-7.15 J0
X-230.55 Y94.65 I8.575 J0
X-250.55 Y94.65 I-10 J0
X-230.55 Y94.65 I10 J0
X-231.698 Y95.589 I-0.958 J0
G1 X-236.099 Y94.7
X-236.198 Y94.685
X-236.299 Y94.681
G3 X-236.319 Y92.764 I-0.01 J-0.958
X-235.647 Y94.415 I0.01 J0.958
G1 X-236.596 Y95.323
G3 X-237.921 Y93.938 I-0.662 J-0.693
X-236.301 Y94.59 I0.662 J0.693
X-237.695 Y96.075 Z-16.4 I-1.424 J0.06 F333.3
X-239.15 Y94.65 Z-16.8 I-0.03 J-1.425
G1 X-239.143 Y94.632 F700
X-239.125 Y94.625
X-239.107 Y94.632
X-239.1 Y94.65
G3 X-242 Y94.65 I-1.45 J0
X-236.25 Y94.65 I2.875 J0
X-244.85 Y94.65 I-4.3 J0
X-233.4 Y94.65 I5.725 J0
X-247.7 Y94.65 I-7.15 J0
X-230.55 Y94.65 I8.575 J0
X-250.55 Y94.65 I-10 J0
X-230.55 Y94.65 I10 J0
X-231.698 Y95.589 I-0.958 J0
G1 X-236.099 Y94.7
X-236.198 Y94.685
X-236.299 Y94.681
G3 X-236.319 Y92.764 I-0.01 J-0.958
X-235.647 Y94.415 I0.01 J0.958
G1 X-236.596 Y95.323
G3 X-237.921 Y93.938 I-0.662 J-0.693
X-236.301 Y94.59 I0.662 J0.693
X-237.695 Y96.075 Z-17.2 I-1.424 J0.06 F333.3
X-239.15 Y94.65 Z-17.6 I-0.03 J-1.425
G1 X-239.143 Y94.632 F700
X-239.125 Y94.625
X-239.107 Y94.632
X-239.1 Y94.65
G3 X-242 Y94.65 I-1.45 J0
X-236.25 Y94.65 I2.875 J0
X-244.85 Y94.65 I-4.3 J0
X-233.4 Y94.65 I5.725 J0
X-247.7 Y94.65 I-7.15 J0
X-230.55 Y94.65 I8.575 J0
X-250.55 Y94.65 I-10 J0
X-230.55 Y94.65 I10 J0
X-231.624 Y95.418 I-0.811 J0
G1 X-235.271 Y94.172
G2 X-236.205 Y94.485 I-0.262 J0.768
G1 X-237.04 Y95.718
G3 X-237.695 Y96.075 I-0.672 J-0.455
X-239.15 Y94.65 Z-18 I-0.03 J-1.425 F333.3
G1 X-239.143 Y94.632 F700
X-239.125 Y94.625
X-239.107 Y94.632
X-239.1 Y94.65
G3 X-242 Y94.65 I-1.45 J0
X-236.25 Y94.65 I2.875 J0
X-244.85 Y94.65 I-4.3 J0
X-233.4 Y94.65 I5.725 J0
X-247.7 Y94.65 I-7.15 J0
X-230.55 Y94.65 I8.575 J0
X-250.55 Y94.65 I-10 J0
X-230.55 Y94.65 I10 J0
G0 Z7

(2D Contour28 2)
X-240.55 Y152.15
Z6
Z2
G1 Z1.6 F333.3
Z-0.6
G2 X-240.55 Y71.65 I0 J-40.25 F1000
X-240.55 Y152.15 I0 J40.25
G1 Z-1.2 F333.3
G2 X-240.55 Y71.65 I0 J-40.25 F1000
X-240.55 Y152.15 I0 J40.25
G1 Z-1.8 F333.3
G2 X-240.55 Y71.65 I0 J-40.25 F1000
X-240.55 Y152.15 I0 J40.25
G1 Z-2.4 F333.3
G2 X-240.55 Y71.65 I0 J-40.25 F1000
X-240.55 Y152.15 I0 J40.25
G1 Z-3 F333.3
G2 X-240.55 Y71.65 I0 J-40.25 F1000
X-240.55 Y152.15 I0 J40.25
G1 Z-3.6 F333.3
G2 X-240.55 Y71.65 I0 J-40.25 F1000
X-240.55 Y152.15 I0 J40.25
G1 Z-4.2 F333.3
G2 X-240.55 Y71.65 I0 J-40.25 F1000
X-240.55 Y152.15 I0 J40.25
G1 Z-4.8 F333.3
G2 X-240.55 Y71.65 I0 J-40.25 F1000
X-240.55 Y152.15 I0 J40.25
G1 Z-5.4 F333.3
G2 X-240.55 Y71.65 I0 J-40.25 F1000
X-240.55 Y152.15 I0 J40.25
G1 Z-6 F333.3
G2 X-240.55 Y71.65 I0 J-40.25 F1000
X-240.55 Y152.15 I0 J40.25
G1 Z-6.6 F333.3
G2 X-240.55 Y71.65 I0 J-40.25 F1000
X-240.55 Y152.15 I0 J40.25
G1 Z-7.2 F333.3
G2 X-240.55 Y71.65 I0 J-40.25 F1000
X-240.55 Y152.15 I0 J40.25
G1 Z-7.8 F333.3
G2 X-240.55 Y71.65 I0 J-40.25 F1000
X-240.55 Y152.15 I0 J40.25
G1 Z-8.4 F333.3
G2 X-240.55 Y71.65 I0 J-40.25 F1000
X-240.55 Y152.15 I0 J40.25
G1 Z-9 F333.3
G2 X-240.55 Y71.65 I0 J-40.25 F1000
X-240.55 Y152.15 I0 J40.25
G1 Z-9.6 F333.3
G2 X-240.55 Y71.65 I0 J-40.25 F1000
X-240.55 Y152.15 I0 J40.25
G1 Z-10.2 F333.3
G2 X-240.55 Y71.65 I0 J-40.25 F1000
X-240.55 Y152.15 I0 J40.25
G1 Z-10.8 F333.3
G2 X-240.55 Y71.65 I0 J-40.25 F1000
X-240.55 Y152.15 I0 J40.25
G1 Z-11.4 F333.3
G2 X-240.55 Y71.65 I0 J-40.25 F1000
X-240.55 Y152.15 I0 J40.25
G1 Z-12 F333.3
G2 X-240.55 Y71.65 I0 J-40.25 F1000
X-240.55 Y152.15 I0 J40.25
G1 Z-12.6 F333.3
G2 X-240.55 Y71.65 I0 J-40.25 F1000
X-240.55 Y152.15 I0 J40.25
G1 Z-13.2 F333.3
G2 X-240.55 Y71.65 I0 J-40.25 F1000
X-240.55 Y152.15 I0 J40.25
G1 Z-13.8 F333.3
G2 X-240.55 Y71.65 I0 J-40.25 F1000
X-240.55 Y152.15 I0 J40.25
G1 Z-14.4 F333.3
G2 X-240.55 Y71.65 I0 J-40.25 F1000
X-240.55 Y152.15 I0 J40.25
G1 Z-15 F333.3
G2 X-240.55 Y71.65 I0 J-40.25 F1000
X-240.55 Y152.15 I0 J40.25
G1 Z-15.6 F333.3
G2 X-240.55 Y71.65 I0 J-40.25 F1000
X-240.55 Y152.15 I0 J40.25
G1 Z-16.2 F333.3
G2 X-240.55 Y71.65 I0 J-40.25 F1000
X-240.55 Y152.15 I0 J40.25
G1 Z-16.8 F333.3
G2 X-240.55 Y71.65 I0 J-40.25 F1000
X-240.55 Y152.15 I0 J40.25
G1 Z-17.25 F333.3
G2 X-237.55 Y152.038 I0 J-40.25 F1000
G1 Z-17.4 F333.3
G2 X-219.384 Y146.135 I-3 J-40.138 F1000
G1 Z-17.25
G2 X-214.53 Y142.609 I-21.166 J-34.235
G1 Z-17.4 F333.3
G2 X-203.303 Y127.156 I-26.02 J-30.709 F1000
G1 Z-17.25
G2 X-201.449 Y121.45 I-37.247 J-15.256
G1 Z-17.4 F333.3
G2 X-201.449 Y102.35 I-39.101 J-9.55 F1000
G1 Z-17.25
G2 X-203.304 Y96.643 I-39.101 J9.55
G1 Z-17.4 F333.3
G2 X-214.53 Y81.191 I-37.246 J15.257 F1000
G1 Z-17.25
G2 X-219.384 Y77.664 I-26.02 J30.709
G1 Z-17.4 F333.3
G2 X-237.55 Y71.762 I-21.166 J34.236 F1000
G1 Z-17.25
G2 X-243.55 Y71.762 I-3 J40.138
G1 Z-17.4 F333.3
G2 X-261.716 Y77.664 I3 J40.138 F1000
G1 Z-17.25
G2 X-266.57 Y81.191 I21.166 J34.236
G1 Z-17.4 F333.3
G2 X-277.796 Y96.643 I26.02 J30.709 F1000
G1 Z-17.25
G2 X-279.651 Y102.35 I37.246 J15.257
G1 Z-17.4 F333.3
G2 X-279.651 Y121.45 I39.101 J9.55 F1000
G1 Z-17.25
G2 X-277.797 Y127.156 I39.101 J-9.55
G1 Z-17.4 F333.3
G2 X-266.57 Y142.609 I37.247 J-15.256 F1000
G1 Z-17.25
G2 X-261.716 Y146.135 I26.02 J-30.709
G1 Z-17.4 F333.3
G2 X-243.55 Y152.038 I21.166 J-34.235 F1000
G1 Z-17.25
G2 X-237.55 Y152.038 I3 J-40.138
G1 Z-18 F333.3
G2 X-219.384 Y146.135 I-3 J-40.138 F1000
G1 Z-17.25
G2 X-214.53 Y142.609 I-21.166 J-34.235
G1 Z-18 F333.3
G2 X-203.303 Y127.156 I-26.02 J-30.709 F1000
G1 Z-17.25
G2 X-201.449 Y121.45 I-37.247 J-15.256
G1 Z-18 F333.3
G2 X-201.449 Y102.35 I-39.101 J-9.55 F1000
G1 Z-17.25
G2 X-203.304 Y96.643 I-39.101 J9.55
G1 Z-18 F333.3
G2 X-214.53 Y81.191 I-37.246 J15.257 F1000
G1 Z-17.25
G2 X-219.384 Y77.664 I-26.02 J30.709
G1 Z-18 F333.3
G2 X-237.55 Y71.762 I-21.166 J34.236 F1000
G1 Z-17.25
G2 X-243.55 Y71.762 I-3 J40.138
G1 Z-18 F333.3
G2 X-261.716 Y77.664 I3 J40.138 F1000
G1 Z-17.25
G2 X-266.57 Y81.191 I21.166 J34.236
G1 Z-18 F333.3
G2 X-277.796 Y96.643 I26.02 J30.709 F1000
G1 Z-17.25
G2 X-279.651 Y102.35 I37.246 J15.257
G1 Z-18 F333.3
G2 X-279.651 Y121.45 I39.101 J9.55 F1000
G1 Z-17.25
G2 X-277.797 Y127.156 I39.101 J-9.55
G1 Z-18 F333.3
G2 X-266.57 Y142.609 I37.247 J-15.256 F1000
G1 Z-17.25
G2 X-261.716 Y146.135 I26.02 J-30.709
G1 Z-18 F333.3
G2 X-243.55 Y152.038 I21.166 J-34.235 F1000
G1 Z-17.25
G2 X-240.55 Y152.15 I3 J-40.138
G0 Z6
M9
M5
M30
