(1001)
(T4  D=3 CR=0 - ZMIN=-17 - flat end mill)
G90 G94
G17
G21

(2D Pocket10)
T4
S15000 M3
G54
M8
G0 X-236.015 Y109.764
Z7
Z2
G1 Z1.8 F700
G3 X-237.735 Y112.036 Z1.011 I-0.86 J1.136 F333.3
X-236.015 Y109.764 Z0.221 I0.86 J-1.136
X-237.735 Y112.036 Z-0.568 I-0.86 J1.136
X-238.3 Y110.9 Z-0.8 I0.86 J-1.136
X-237.95 Y110.9 I0.175 J0 F700
X-241.15 Y110.9 I-1.6 J0
X-235.1 Y110.9 I3.025 J0
X-244 Y110.9 I-4.45 J0
X-232.25 Y110.9 I5.875 J0
X-246.85 Y110.9 I-7.3 J0
X-229.4 Y110.9 I8.725 J0
X-249.7 Y110.9 I-10.15 J0
X-226.55 Y110.9 I11.575 J0
X-252.55 Y110.9 I-13 J0
X-223.7 Y110.9 I14.425 J0
X-255.4 Y110.9 I-15.85 J0
X-220.85 Y110.9 I17.275 J0
X-258.25 Y110.9 I-18.7 J0
X-218 Y110.9 I20.125 J0
X-261.1 Y110.9 I-21.55 J0
X-215.15 Y110.9 I22.975 J0
X-263.95 Y110.9 I-24.4 J0
X-212.3 Y110.9 I25.825 J0
X-266.8 Y110.9 I-27.25 J0
X-212.3 Y110.9 I27.25 J0
X-213.847 Y112.36 I-1.462 J0
G1 X-235.331 Y111.117
X-235.443 Y111.114
G3 X-235.497 Y108.19 I-0.027 J-1.462
X-234.513 Y110.758 I0.027 J1.462
G1 X-235.955 Y112.007
G3 X-237.87 Y109.796 I-0.957 J-1.105
X-235.451 Y110.84 I0.957 J1.105
X-236.845 Y112.325 Z-1.2 I-1.424 J0.06 F333.3
X-238.3 Y110.9 Z-1.6 I-0.03 J-1.425
X-237.95 Y110.9 I0.175 J0 F700
X-241.15 Y110.9 I-1.6 J0
X-235.1 Y110.9 I3.025 J0
X-244 Y110.9 I-4.45 J0
X-232.25 Y110.9 I5.875 J0
X-246.85 Y110.9 I-7.3 J0
X-229.4 Y110.9 I8.725 J0
X-249.7 Y110.9 I-10.15 J0
X-226.55 Y110.9 I11.575 J0
X-252.55 Y110.9 I-13 J0
X-223.7 Y110.9 I14.425 J0
X-255.4 Y110.9 I-15.85 J0
X-220.85 Y110.9 I17.275 J0
X-258.25 Y110.9 I-18.7 J0
X-218 Y110.9 I20.125 J0
X-261.1 Y110.9 I-21.55 J0
X-215.15 Y110.9 I22.975 J0
X-263.95 Y110.9 I-24.4 J0
X-212.3 Y110.9 I25.825 J0
X-266.8 Y110.9 I-27.25 J0
X-212.3 Y110.9 I27.25 J0
X-213.847 Y112.36 I-1.462 J0
G1 X-235.331 Y111.117
X-235.443 Y111.114
G3 X-235.497 Y108.19 I-0.027 J-1.462
X-234.513 Y110.758 I0.027 J1.462
G1 X-235.955 Y112.007
G3 X-237.87 Y109.796 I-0.957 J-1.105
X-235.451 Y110.84 I0.957 J1.105
X-236.845 Y112.325 Z-2 I-1.424 J0.06 F333.3
X-238.3 Y110.9 Z-2.4 I-0.03 J-1.425
X-237.95 Y110.9 I0.175 J0 F700
X-241.15 Y110.9 I-1.6 J0
X-235.1 Y110.9 I3.025 J0
X-244 Y110.9 I-4.45 J0
X-232.25 Y110.9 I5.875 J0
X-246.85 Y110.9 I-7.3 J0
X-229.4 Y110.9 I8.725 J0
X-249.7 Y110.9 I-10.15 J0
X-226.55 Y110.9 I11.575 J0
X-252.55 Y110.9 I-13 J0
X-223.7 Y110.9 I14.425 J0
X-255.4 Y110.9 I-15.85 J0
X-220.85 Y110.9 I17.275 J0
X-258.25 Y110.9 I-18.7 J0
X-218 Y110.9 I20.125 J0
X-261.1 Y110.9 I-21.55 J0
X-215.15 Y110.9 I22.975 J0
X-263.95 Y110.9 I-24.4 J0
X-212.3 Y110.9 I25.825 J0
X-266.8 Y110.9 I-27.25 J0
X-212.3 Y110.9 I27.25 J0
X-213.847 Y112.36 I-1.462 J0
G1 X-235.331 Y111.117
X-235.443 Y111.114
G3 X-235.497 Y108.19 I-0.027 J-1.462
X-234.513 Y110.758 I0.027 J1.462
G1 X-235.955 Y112.007
G3 X-237.87 Y109.796 I-0.957 J-1.105
X-235.451 Y110.84 I0.957 J1.105
X-236.845 Y112.325 Z-2.8 I-1.424 J0.06 F333.3
X-238.3 Y110.9 Z-3.2 I-0.03 J-1.425
X-237.95 Y110.9 I0.175 J0 F700
X-241.15 Y110.9 I-1.6 J0
X-235.1 Y110.9 I3.025 J0
X-244 Y110.9 I-4.45 J0
X-232.25 Y110.9 I5.875 J0
X-246.85 Y110.9 I-7.3 J0
X-229.4 Y110.9 I8.725 J0
X-249.7 Y110.9 I-10.15 J0
X-226.55 Y110.9 I11.575 J0
X-252.55 Y110.9 I-13 J0
X-223.7 Y110.9 I14.425 J0
X-255.4 Y110.9 I-15.85 J0
X-220.85 Y110.9 I17.275 J0
X-258.25 Y110.9 I-18.7 J0
X-218 Y110.9 I20.125 J0
X-261.1 Y110.9 I-21.55 J0
X-215.15 Y110.9 I22.975 J0
X-263.95 Y110.9 I-24.4 J0
X-212.3 Y110.9 I25.825 J0
X-266.8 Y110.9 I-27.25 J0
X-212.3 Y110.9 I27.25 J0
X-213.847 Y112.36 I-1.462 J0
G1 X-235.331 Y111.117
X-235.443 Y111.114
G3 X-235.497 Y108.19 I-0.027 J-1.462
X-234.513 Y110.758 I0.027 J1.462
G1 X-235.955 Y112.007
G3 X-237.87 Y109.796 I-0.957 J-1.105
X-235.451 Y110.84 I0.957 J1.105
X-236.845 Y112.325 Z-3.6 I-1.424 J0.06 F333.3
X-238.3 Y110.9 Z-4 I-0.03 J-1.425
X-237.95 Y110.9 I0.175 J0 F700
X-241.15 Y110.9 I-1.6 J0
X-235.1 Y110.9 I3.025 J0
X-244 Y110.9 I-4.45 J0
X-232.25 Y110.9 I5.875 J0
X-246.85 Y110.9 I-7.3 J0
X-229.4 Y110.9 I8.725 J0
X-249.7 Y110.9 I-10.15 J0
X-226.55 Y110.9 I11.575 J0
X-252.55 Y110.9 I-13 J0
X-223.7 Y110.9 I14.425 J0
X-255.4 Y110.9 I-15.85 J0
X-220.85 Y110.9 I17.275 J0
X-258.25 Y110.9 I-18.7 J0
X-218 Y110.9 I20.125 J0
X-261.1 Y110.9 I-21.55 J0
X-215.15 Y110.9 I22.975 J0
X-263.95 Y110.9 I-24.4 J0
X-212.3 Y110.9 I25.825 J0
X-266.8 Y110.9 I-27.25 J0
X-212.3 Y110.9 I27.25 J0
X-213.847 Y112.36 I-1.462 J0
G1 X-235.331 Y111.117
X-235.443 Y111.114
G3 X-235.497 Y108.19 I-0.027 J-1.462
X-234.513 Y110.758 I0.027 J1.462
G1 X-235.955 Y112.007
G3 X-237.87 Y109.796 I-0.957 J-1.105
X-235.451 Y110.84 I0.957 J1.105
X-236.845 Y112.325 Z-4.4 I-1.424 J0.06 F333.3
X-238.3 Y110.9 Z-4.8 I-0.03 J-1.425
X-237.95 Y110.9 I0.175 J0 F700
X-241.15 Y110.9 I-1.6 J0
X-235.1 Y110.9 I3.025 J0
X-244 Y110.9 I-4.45 J0
X-232.25 Y110.9 I5.875 J0
X-246.85 Y110.9 I-7.3 J0
X-229.4 Y110.9 I8.725 J0
X-249.7 Y110.9 I-10.15 J0
X-226.55 Y110.9 I11.575 J0
X-252.55 Y110.9 I-13 J0
X-223.7 Y110.9 I14.425 J0
X-255.4 Y110.9 I-15.85 J0
X-220.85 Y110.9 I17.275 J0
X-258.25 Y110.9 I-18.7 J0
X-218 Y110.9 I20.125 J0
X-261.1 Y110.9 I-21.55 J0
X-215.15 Y110.9 I22.975 J0
X-263.95 Y110.9 I-24.4 J0
X-212.3 Y110.9 I25.825 J0
X-266.8 Y110.9 I-27.25 J0
X-212.3 Y110.9 I27.25 J0
X-213.847 Y112.36 I-1.462 J0
G1 X-235.331 Y111.117
X-235.443 Y111.114
G3 X-235.497 Y108.19 I-0.027 J-1.462
X-234.513 Y110.758 I0.027 J1.462
G1 X-235.955 Y112.007
G3 X-237.87 Y109.796 I-0.957 J-1.105
X-235.451 Y110.84 I0.957 J1.105
X-236.845 Y112.325 Z-5.2 I-1.424 J0.06 F333.3
X-238.3 Y110.9 Z-5.6 I-0.03 J-1.425
X-237.95 Y110.9 I0.175 J0 F700
X-241.15 Y110.9 I-1.6 J0
X-235.1 Y110.9 I3.025 J0
X-244 Y110.9 I-4.45 J0
X-232.25 Y110.9 I5.875 J0
X-246.85 Y110.9 I-7.3 J0
X-229.4 Y110.9 I8.725 J0
X-249.7 Y110.9 I-10.15 J0
X-226.55 Y110.9 I11.575 J0
X-252.55 Y110.9 I-13 J0
X-223.7 Y110.9 I14.425 J0
X-255.4 Y110.9 I-15.85 J0
X-220.85 Y110.9 I17.275 J0
X-258.25 Y110.9 I-18.7 J0
X-218 Y110.9 I20.125 J0
X-261.1 Y110.9 I-21.55 J0
X-215.15 Y110.9 I22.975 J0
X-263.95 Y110.9 I-24.4 J0
X-212.3 Y110.9 I25.825 J0
X-266.8 Y110.9 I-27.25 J0
X-212.3 Y110.9 I27.25 J0
X-213.847 Y112.36 I-1.462 J0
G1 X-235.331 Y111.117
X-235.443 Y111.114
G3 X-235.497 Y108.19 I-0.027 J-1.462
X-234.513 Y110.758 I0.027 J1.462
G1 X-235.955 Y112.007
G3 X-237.87 Y109.796 I-0.957 J-1.105
X-235.451 Y110.84 I0.957 J1.105
X-236.845 Y112.325 Z-6 I-1.424 J0.06 F333.3
X-238.3 Y110.9 Z-6.4 I-0.03 J-1.425
X-237.95 Y110.9 I0.175 J0 F700
X-241.15 Y110.9 I-1.6 J0
X-235.1 Y110.9 I3.025 J0
X-244 Y110.9 I-4.45 J0
X-232.25 Y110.9 I5.875 J0
X-246.85 Y110.9 I-7.3 J0
X-229.4 Y110.9 I8.725 J0
X-249.7 Y110.9 I-10.15 J0
X-226.55 Y110.9 I11.575 J0
X-252.55 Y110.9 I-13 J0
X-223.7 Y110.9 I14.425 J0
X-255.4 Y110.9 I-15.85 J0
X-220.85 Y110.9 I17.275 J0
X-258.25 Y110.9 I-18.7 J0
X-218 Y110.9 I20.125 J0
X-261.1 Y110.9 I-21.55 J0
X-215.15 Y110.9 I22.975 J0
X-263.95 Y110.9 I-24.4 J0
X-212.3 Y110.9 I25.825 J0
X-266.8 Y110.9 I-27.25 J0
X-212.3 Y110.9 I27.25 J0
X-213.847 Y112.36 I-1.462 J0
G1 X-235.331 Y111.117
X-235.443 Y111.114
G3 X-235.497 Y108.19 I-0.027 J-1.462
X-234.513 Y110.758 I0.027 J1.462
G1 X-235.955 Y112.007
G3 X-237.87 Y109.796 I-0.957 J-1.105
X-235.451 Y110.84 I0.957 J1.105
X-236.845 Y112.325 Z-6.8 I-1.424 J0.06 F333.3
X-238.3 Y110.9 Z-7.2 I-0.03 J-1.425
X-237.95 Y110.9 I0.175 J0 F700
X-241.15 Y110.9 I-1.6 J0
X-235.1 Y110.9 I3.025 J0
X-244 Y110.9 I-4.45 J0
X-232.25 Y110.9 I5.875 J0
X-246.85 Y110.9 I-7.3 J0
X-229.4 Y110.9 I8.725 J0
X-249.7 Y110.9 I-10.15 J0
X-226.55 Y110.9 I11.575 J0
X-252.55 Y110.9 I-13 J0
X-223.7 Y110.9 I14.425 J0
X-255.4 Y110.9 I-15.85 J0
X-220.85 Y110.9 I17.275 J0
X-258.25 Y110.9 I-18.7 J0
X-218 Y110.9 I20.125 J0
X-261.1 Y110.9 I-21.55 J0
X-215.15 Y110.9 I22.975 J0
X-263.95 Y110.9 I-24.4 J0
X-212.3 Y110.9 I25.825 J0
X-266.8 Y110.9 I-27.25 J0
X-212.3 Y110.9 I27.25 J0
X-213.847 Y112.36 I-1.462 J0
G1 X-235.331 Y111.117
X-235.443 Y111.114
G3 X-235.497 Y108.19 I-0.027 J-1.462
X-234.513 Y110.758 I0.027 J1.462
G1 X-235.955 Y112.007
G3 X-237.87 Y109.796 I-0.957 J-1.105
X-235.451 Y110.84 I0.957 J1.105
X-236.845 Y112.325 Z-7.6 I-1.424 J0.06 F333.3
X-238.3 Y110.9 Z-8 I-0.03 J-1.425
X-237.95 Y110.9 I0.175 J0 F700
X-241.15 Y110.9 I-1.6 J0
X-235.1 Y110.9 I3.025 J0
X-244 Y110.9 I-4.45 J0
X-232.25 Y110.9 I5.875 J0
X-246.85 Y110.9 I-7.3 J0
X-229.4 Y110.9 I8.725 J0
X-249.7 Y110.9 I-10.15 J0
X-226.55 Y110.9 I11.575 J0
X-252.55 Y110.9 I-13 J0
X-223.7 Y110.9 I14.425 J0
X-255.4 Y110.9 I-15.85 J0
X-220.85 Y110.9 I17.275 J0
X-258.25 Y110.9 I-18.7 J0
X-218 Y110.9 I20.125 J0
X-261.1 Y110.9 I-21.55 J0
X-215.15 Y110.9 I22.975 J0
X-263.95 Y110.9 I-24.4 J0
X-212.3 Y110.9 I25.825 J0
X-266.8 Y110.9 I-27.25 J0
X-212.3 Y110.9 I27.25 J0
X-214.192 Y112.298 I-1.462 J0
G1 X-231.091 Y107.1
X-231.232 Y107.048
G2 X-233.031 Y107.599 I-0.571 J1.346
G1 X-235.663 Y111.661
G3 X-236.295 Y112.202 I-1.227 J-0.795
X-238.3 Y110.9 Z-8.5 I-0.58 J-1.302 F333.3
X-237.95 Y110.9 I0.175 J0 F700
X-241.15 Y110.9 I-1.6 J0
X-235.1 Y110.9 I3.025 J0
X-244 Y110.9 I-4.45 J0
X-232.25 Y110.9 I5.875 J0
X-246.85 Y110.9 I-7.3 J0
X-229.4 Y110.9 I8.725 J0
X-249.7 Y110.9 I-10.15 J0
X-226.55 Y110.9 I11.575 J0
X-252.55 Y110.9 I-13 J0
X-223.7 Y110.9 I14.425 J0
X-255.4 Y110.9 I-15.85 J0
X-220.85 Y110.9 I17.275 J0
X-258.25 Y110.9 I-18.7 J0
X-218 Y110.9 I20.125 J0
X-261.1 Y110.9 I-21.55 J0
X-215.15 Y110.9 I22.975 J0
X-263.95 Y110.9 I-24.4 J0
X-212.3 Y110.9 I25.825 J0
X-266.8 Y110.9 I-27.25 J0
X-212.3 Y110.9 I27.25 J0
G0 Z7
X-155.365 Y109.764
Z2
G1 Z1.8 F700
G3 X-157.085 Y112.036 Z1.011 I-0.86 J1.136 F333.3
X-155.365 Y109.764 Z0.221 I0.86 J-1.136
X-157.085 Y112.036 Z-0.568 I-0.86 J1.136
X-157.65 Y110.9 Z-0.8 I0.86 J-1.136
X-157.3 Y110.9 I0.175 J0 F700
X-160.5 Y110.9 I-1.6 J0
X-154.45 Y110.9 I3.025 J0
X-163.35 Y110.9 I-4.45 J0
X-151.6 Y110.9 I5.875 J0
X-166.2 Y110.9 I-7.3 J0
X-148.75 Y110.9 I8.725 J0
X-169.05 Y110.9 I-10.15 J0
X-145.9 Y110.9 I11.575 J0
X-171.9 Y110.9 I-13 J0
X-143.05 Y110.9 I14.425 J0
X-174.75 Y110.9 I-15.85 J0
X-140.2 Y110.9 I17.275 J0
X-177.6 Y110.9 I-18.7 J0
X-137.35 Y110.9 I20.125 J0
X-180.45 Y110.9 I-21.55 J0
X-134.5 Y110.9 I22.975 J0
X-183.3 Y110.9 I-24.4 J0
X-131.65 Y110.9 I25.825 J0
X-186.15 Y110.9 I-27.25 J0
X-131.65 Y110.9 I27.25 J0
X-133.197 Y112.36 I-1.463 J0
G1 X-154.681 Y111.117
X-154.793 Y111.114
G3 X-154.847 Y108.19 I-0.027 J-1.462
X-153.863 Y110.758 I0.027 J1.462
G1 X-155.305 Y112.007
G3 X-157.22 Y109.796 I-0.958 J-1.105
X-154.801 Y110.84 I0.958 J1.105
X-156.195 Y112.325 Z-1.2 I-1.424 J0.06 F333.3
X-157.65 Y110.9 Z-1.6 I-0.03 J-1.425
X-157.3 Y110.9 I0.175 J0 F700
X-160.5 Y110.9 I-1.6 J0
X-154.45 Y110.9 I3.025 J0
X-163.35 Y110.9 I-4.45 J0
X-151.6 Y110.9 I5.875 J0
X-166.2 Y110.9 I-7.3 J0
X-148.75 Y110.9 I8.725 J0
X-169.05 Y110.9 I-10.15 J0
X-145.9 Y110.9 I11.575 J0
X-171.9 Y110.9 I-13 J0
X-143.05 Y110.9 I14.425 J0
X-174.75 Y110.9 I-15.85 J0
X-140.2 Y110.9 I17.275 J0
X-177.6 Y110.9 I-18.7 J0
X-137.35 Y110.9 I20.125 J0
X-180.45 Y110.9 I-21.55 J0
X-134.5 Y110.9 I22.975 J0
X-183.3 Y110.9 I-24.4 J0
X-131.65 Y110.9 I25.825 J0
X-186.15 Y110.9 I-27.25 J0
X-131.65 Y110.9 I27.25 J0
X-133.197 Y112.36 I-1.463 J0
G1 X-154.681 Y111.117
X-154.793 Y111.114
G3 X-154.847 Y108.19 I-0.027 J-1.462
X-153.863 Y110.758 I0.027 J1.462
G1 X-155.305 Y112.007
G3 X-157.22 Y109.796 I-0.958 J-1.105
X-154.801 Y110.84 I0.958 J1.105
X-156.195 Y112.325 Z-2 I-1.424 J0.06 F333.3
X-157.65 Y110.9 Z-2.4 I-0.03 J-1.425
X-157.3 Y110.9 I0.175 J0 F700
X-160.5 Y110.9 I-1.6 J0
X-154.45 Y110.9 I3.025 J0
X-163.35 Y110.9 I-4.45 J0
X-151.6 Y110.9 I5.875 J0
X-166.2 Y110.9 I-7.3 J0
X-148.75 Y110.9 I8.725 J0
X-169.05 Y110.9 I-10.15 J0
X-145.9 Y110.9 I11.575 J0
X-171.9 Y110.9 I-13 J0
X-143.05 Y110.9 I14.425 J0
X-174.75 Y110.9 I-15.85 J0
X-140.2 Y110.9 I17.275 J0
X-177.6 Y110.9 I-18.7 J0
X-137.35 Y110.9 I20.125 J0
X-180.45 Y110.9 I-21.55 J0
X-134.5 Y110.9 I22.975 J0
X-183.3 Y110.9 I-24.4 J0
X-131.65 Y110.9 I25.825 J0
X-186.15 Y110.9 I-27.25 J0
X-131.65 Y110.9 I27.25 J0
X-133.197 Y112.36 I-1.463 J0
G1 X-154.681 Y111.117
X-154.793 Y111.114
G3 X-154.847 Y108.19 I-0.027 J-1.462
X-153.863 Y110.758 I0.027 J1.462
G1 X-155.305 Y112.007
G3 X-157.22 Y109.796 I-0.958 J-1.105
X-154.801 Y110.84 I0.958 J1.105
X-156.195 Y112.325 Z-2.8 I-1.424 J0.06 F333.3
X-157.65 Y110.9 Z-3.2 I-0.03 J-1.425
X-157.3 Y110.9 I0.175 J0 F700
X-160.5 Y110.9 I-1.6 J0
X-154.45 Y110.9 I3.025 J0
X-163.35 Y110.9 I-4.45 J0
X-151.6 Y110.9 I5.875 J0
X-166.2 Y110.9 I-7.3 J0
X-148.75 Y110.9 I8.725 J0
X-169.05 Y110.9 I-10.15 J0
X-145.9 Y110.9 I11.575 J0
X-171.9 Y110.9 I-13 J0
X-143.05 Y110.9 I14.425 J0
X-174.75 Y110.9 I-15.85 J0
X-140.2 Y110.9 I17.275 J0
X-177.6 Y110.9 I-18.7 J0
X-137.35 Y110.9 I20.125 J0
X-180.45 Y110.9 I-21.55 J0
X-134.5 Y110.9 I22.975 J0
X-183.3 Y110.9 I-24.4 J0
X-131.65 Y110.9 I25.825 J0
X-186.15 Y110.9 I-27.25 J0
X-131.65 Y110.9 I27.25 J0
X-133.197 Y112.36 I-1.463 J0
G1 X-154.681 Y111.117
X-154.793 Y111.114
G3 X-154.847 Y108.19 I-0.027 J-1.462
X-153.863 Y110.758 I0.027 J1.462
G1 X-155.305 Y112.007
G3 X-157.22 Y109.796 I-0.958 J-1.105
X-154.801 Y110.84 I0.958 J1.105
X-156.195 Y112.325 Z-3.6 I-1.424 J0.06 F333.3
X-157.65 Y110.9 Z-4 I-0.03 J-1.425
X-157.3 Y110.9 I0.175 J0 F700
X-160.5 Y110.9 I-1.6 J0
X-154.45 Y110.9 I3.025 J0
X-163.35 Y110.9 I-4.45 J0
X-151.6 Y110.9 I5.875 J0
X-166.2 Y110.9 I-7.3 J0
X-148.75 Y110.9 I8.725 J0
X-169.05 Y110.9 I-10.15 J0
X-145.9 Y110.9 I11.575 J0
X-171.9 Y110.9 I-13 J0
X-143.05 Y110.9 I14.425 J0
X-174.75 Y110.9 I-15.85 J0
X-140.2 Y110.9 I17.275 J0
X-177.6 Y110.9 I-18.7 J0
X-137.35 Y110.9 I20.125 J0
X-180.45 Y110.9 I-21.55 J0
X-134.5 Y110.9 I22.975 J0
X-183.3 Y110.9 I-24.4 J0
X-131.65 Y110.9 I25.825 J0
X-186.15 Y110.9 I-27.25 J0
X-131.65 Y110.9 I27.25 J0
X-133.197 Y112.36 I-1.463 J0
G1 X-154.681 Y111.117
X-154.793 Y111.114
G3 X-154.847 Y108.19 I-0.027 J-1.462
X-153.863 Y110.758 I0.027 J1.462
G1 X-155.305 Y112.007
G3 X-157.22 Y109.796 I-0.958 J-1.105
X-154.801 Y110.84 I0.958 J1.105
X-156.195 Y112.325 Z-4.4 I-1.424 J0.06 F333.3
X-157.65 Y110.9 Z-4.8 I-0.03 J-1.425
X-157.3 Y110.9 I0.175 J0 F700
X-160.5 Y110.9 I-1.6 J0
X-154.45 Y110.9 I3.025 J0
X-163.35 Y110.9 I-4.45 J0
X-151.6 Y110.9 I5.875 J0
X-166.2 Y110.9 I-7.3 J0
X-148.75 Y110.9 I8.725 J0
X-169.05 Y110.9 I-10.15 J0
X-145.9 Y110.9 I11.575 J0
X-171.9 Y110.9 I-13 J0
X-143.05 Y110.9 I14.425 J0
X-174.75 Y110.9 I-15.85 J0
X-140.2 Y110.9 I17.275 J0
X-177.6 Y110.9 I-18.7 J0
X-137.35 Y110.9 I20.125 J0
X-180.45 Y110.9 I-21.55 J0
X-134.5 Y110.9 I22.975 J0
X-183.3 Y110.9 I-24.4 J0
X-131.65 Y110.9 I25.825 J0
X-186.15 Y110.9 I-27.25 J0
X-131.65 Y110.9 I27.25 J0
X-133.197 Y112.36 I-1.463 J0
G1 X-154.681 Y111.117
X-154.793 Y111.114
G3 X-154.847 Y108.19 I-0.027 J-1.462
X-153.863 Y110.758 I0.027 J1.462
G1 X-155.305 Y112.007
G3 X-157.22 Y109.796 I-0.958 J-1.105
X-154.801 Y110.84 I0.958 J1.105
X-156.195 Y112.325 Z-5.2 I-1.424 J0.06 F333.3
X-157.65 Y110.9 Z-5.6 I-0.03 J-1.425
X-157.3 Y110.9 I0.175 J0 F700
X-160.5 Y110.9 I-1.6 J0
X-154.45 Y110.9 I3.025 J0
X-163.35 Y110.9 I-4.45 J0
X-151.6 Y110.9 I5.875 J0
X-166.2 Y110.9 I-7.3 J0
X-148.75 Y110.9 I8.725 J0
X-169.05 Y110.9 I-10.15 J0
X-145.9 Y110.9 I11.575 J0
X-171.9 Y110.9 I-13 J0
X-143.05 Y110.9 I14.425 J0
X-174.75 Y110.9 I-15.85 J0
X-140.2 Y110.9 I17.275 J0
X-177.6 Y110.9 I-18.7 J0
X-137.35 Y110.9 I20.125 J0
X-180.45 Y110.9 I-21.55 J0
X-134.5 Y110.9 I22.975 J0
X-183.3 Y110.9 I-24.4 J0
X-131.65 Y110.9 I25.825 J0
X-186.15 Y110.9 I-27.25 J0
X-131.65 Y110.9 I27.25 J0
X-133.197 Y112.36 I-1.463 J0
G1 X-154.681 Y111.117
X-154.793 Y111.114
G3 X-154.847 Y108.19 I-0.027 J-1.462
X-153.863 Y110.758 I0.027 J1.462
G1 X-155.305 Y112.007
G3 X-157.22 Y109.796 I-0.958 J-1.105
X-154.801 Y110.84 I0.958 J1.105
X-156.195 Y112.325 Z-6 I-1.424 J0.06 F333.3
X-157.65 Y110.9 Z-6.4 I-0.03 J-1.425
X-157.3 Y110.9 I0.175 J0 F700
X-160.5 Y110.9 I-1.6 J0
X-154.45 Y110.9 I3.025 J0
X-163.35 Y110.9 I-4.45 J0
X-151.6 Y110.9 I5.875 J0
X-166.2 Y110.9 I-7.3 J0
X-148.75 Y110.9 I8.725 J0
X-169.05 Y110.9 I-10.15 J0
X-145.9 Y110.9 I11.575 J0
X-171.9 Y110.9 I-13 J0
X-143.05 Y110.9 I14.425 J0
X-174.75 Y110.9 I-15.85 J0
X-140.2 Y110.9 I17.275 J0
X-177.6 Y110.9 I-18.7 J0
X-137.35 Y110.9 I20.125 J0
X-180.45 Y110.9 I-21.55 J0
X-134.5 Y110.9 I22.975 J0
X-183.3 Y110.9 I-24.4 J0
X-131.65 Y110.9 I25.825 J0
X-186.15 Y110.9 I-27.25 J0
X-131.65 Y110.9 I27.25 J0
X-133.197 Y112.36 I-1.463 J0
G1 X-154.681 Y111.117
X-154.793 Y111.114
G3 X-154.847 Y108.19 I-0.027 J-1.462
X-153.863 Y110.758 I0.027 J1.462
G1 X-155.305 Y112.007
G3 X-157.22 Y109.796 I-0.958 J-1.105
X-154.801 Y110.84 I0.958 J1.105
X-156.195 Y112.325 Z-6.8 I-1.424 J0.06 F333.3
X-157.65 Y110.9 Z-7.2 I-0.03 J-1.425
X-157.3 Y110.9 I0.175 J0 F700
X-160.5 Y110.9 I-1.6 J0
X-154.45 Y110.9 I3.025 J0
X-163.35 Y110.9 I-4.45 J0
X-151.6 Y110.9 I5.875 J0
X-166.2 Y110.9 I-7.3 J0
X-148.75 Y110.9 I8.725 J0
X-169.05 Y110.9 I-10.15 J0
X-145.9 Y110.9 I11.575 J0
X-171.9 Y110.9 I-13 J0
X-143.05 Y110.9 I14.425 J0
X-174.75 Y110.9 I-15.85 J0
X-140.2 Y110.9 I17.275 J0
X-177.6 Y110.9 I-18.7 J0
X-137.35 Y110.9 I20.125 J0
X-180.45 Y110.9 I-21.55 J0
X-134.5 Y110.9 I22.975 J0
X-183.3 Y110.9 I-24.4 J0
X-131.65 Y110.9 I25.825 J0
X-186.15 Y110.9 I-27.25 J0
X-131.65 Y110.9 I27.25 J0
X-133.197 Y112.36 I-1.463 J0
G1 X-154.681 Y111.117
X-154.793 Y111.114
G3 X-154.847 Y108.19 I-0.027 J-1.462
X-153.863 Y110.758 I0.027 J1.462
G1 X-155.305 Y112.007
G3 X-157.22 Y109.796 I-0.958 J-1.105
X-154.801 Y110.84 I0.958 J1.105
X-156.195 Y112.325 Z-7.6 I-1.424 J0.06 F333.3
X-157.65 Y110.9 Z-8 I-0.03 J-1.425
X-157.3 Y110.9 I0.175 J0 F700
X-160.5 Y110.9 I-1.6 J0
X-154.45 Y110.9 I3.025 J0
X-163.35 Y110.9 I-4.45 J0
X-151.6 Y110.9 I5.875 J0
X-166.2 Y110.9 I-7.3 J0
X-148.75 Y110.9 I8.725 J0
X-169.05 Y110.9 I-10.15 J0
X-145.9 Y110.9 I11.575 J0
X-171.9 Y110.9 I-13 J0
X-143.05 Y110.9 I14.425 J0
X-174.75 Y110.9 I-15.85 J0
X-140.2 Y110.9 I17.275 J0
X-177.6 Y110.9 I-18.7 J0
X-137.35 Y110.9 I20.125 J0
X-180.45 Y110.9 I-21.55 J0
X-134.5 Y110.9 I22.975 J0
X-183.3 Y110.9 I-24.4 J0
X-131.65 Y110.9 I25.825 J0
X-186.15 Y110.9 I-27.25 J0
X-131.65 Y110.9 I27.25 J0
X-133.542 Y112.298 I-1.463 J0
G1 X-150.441 Y107.1
X-150.582 Y107.048
G2 X-152.381 Y107.599 I-0.571 J1.346
G1 X-155.013 Y111.661
G3 X-155.645 Y112.202 I-1.227 J-0.795
X-157.65 Y110.9 Z-8.5 I-0.58 J-1.302 F333.3
X-157.3 Y110.9 I0.175 J0 F700
X-160.5 Y110.9 I-1.6 J0
X-154.45 Y110.9 I3.025 J0
X-163.35 Y110.9 I-4.45 J0
X-151.6 Y110.9 I5.875 J0
X-166.2 Y110.9 I-7.3 J0
X-148.75 Y110.9 I8.725 J0
X-169.05 Y110.9 I-10.15 J0
X-145.9 Y110.9 I11.575 J0
X-171.9 Y110.9 I-13 J0
X-143.05 Y110.9 I14.425 J0
X-174.75 Y110.9 I-15.85 J0
X-140.2 Y110.9 I17.275 J0
X-177.6 Y110.9 I-18.7 J0
X-137.35 Y110.9 I20.125 J0
X-180.45 Y110.9 I-21.55 J0
X-134.5 Y110.9 I22.975 J0
X-183.3 Y110.9 I-24.4 J0
X-131.65 Y110.9 I25.825 J0
X-186.15 Y110.9 I-27.25 J0
X-131.65 Y110.9 I27.25 J0
G0 Z7
X-196.565 Y37.614
Z2
G1 Z1.8 F700
G3 X-198.285 Y39.886 Z1.011 I-0.86 J1.136 F333.3
X-196.565 Y37.614 Z0.221 I0.86 J-1.136
X-198.285 Y39.886 Z-0.568 I-0.86 J1.136
X-198.85 Y38.75 Z-0.8 I0.86 J-1.136
X-198.4 Y38.75 I0.225 J0 F700
X-201.7 Y38.75 I-1.65 J0
X-195.55 Y38.75 I3.075 J0
X-204.55 Y38.75 I-4.5 J0
X-192.7 Y38.75 I5.925 J0
X-207.4 Y38.75 I-7.35 J0
X-189.85 Y38.75 I8.775 J0
X-210.25 Y38.75 I-10.2 J0
X-187 Y38.75 I11.625 J0
X-213.1 Y38.75 I-13.05 J0
X-184.15 Y38.75 I14.475 J0
X-215.95 Y38.75 I-15.9 J0
X-181.3 Y38.75 I17.325 J0
X-218.8 Y38.75 I-18.75 J0
X-178.45 Y38.75 I20.175 J0
X-221.65 Y38.75 I-21.6 J0
X-175.6 Y38.75 I23.025 J0
X-224.5 Y38.75 I-24.45 J0
X-175.6 Y38.75 I24.45 J0
G2 X-174.281 Y40.794 I2.243 J0
G3 X-173.123 Y42.933 I-0.828 J1.831
X-213.675 Y62.349 I-26.927 J-4.183
X-213.675 Y15.151 I13.625 J-23.599
X-172.8 Y38.75 I13.625 J23.599
X-173.123 Y42.933 I-27.25 J0
X-174.774 Y44.119 Z-0.866 I-1.408 J-0.219 F333.3
G1 X-197.668 Y40.154 Z-1.542
G3 X-198.85 Y38.75 Z-1.6 I0.243 J-1.404
X-198.4 Y38.75 I0.225 J0 F700
X-201.7 Y38.75 I-1.65 J0
X-195.55 Y38.75 I3.075 J0
X-204.55 Y38.75 I-4.5 J0
X-192.7 Y38.75 I5.925 J0
X-207.4 Y38.75 I-7.35 J0
X-189.85 Y38.75 I8.775 J0
X-210.25 Y38.75 I-10.2 J0
X-187 Y38.75 I11.625 J0
X-213.1 Y38.75 I-13.05 J0
X-184.15 Y38.75 I14.475 J0
X-215.95 Y38.75 I-15.9 J0
X-181.3 Y38.75 I17.325 J0
X-218.8 Y38.75 I-18.75 J0
X-178.45 Y38.75 I20.175 J0
X-221.65 Y38.75 I-21.6 J0
X-175.6 Y38.75 I23.025 J0
X-224.5 Y38.75 I-24.45 J0
X-175.6 Y38.75 I24.45 J0
G2 X-174.281 Y40.794 I2.243 J0
G3 X-173.123 Y42.933 I-0.828 J1.831
X-213.675 Y62.349 I-26.927 J-4.183
X-213.675 Y15.151 I13.625 J-23.599
X-172.8 Y38.75 I13.625 J23.599
X-173.123 Y42.933 I-27.25 J0
X-174.774 Y44.119 Z-1.666 I-1.408 J-0.219 F333.3
G1 X-197.668 Y40.154 Z-2.342
G3 X-198.85 Y38.75 Z-2.4 I0.243 J-1.404
X-198.4 Y38.75 I0.225 J0 F700
X-201.7 Y38.75 I-1.65 J0
X-195.55 Y38.75 I3.075 J0
X-204.55 Y38.75 I-4.5 J0
X-192.7 Y38.75 I5.925 J0
X-207.4 Y38.75 I-7.35 J0
X-189.85 Y38.75 I8.775 J0
X-210.25 Y38.75 I-10.2 J0
X-187 Y38.75 I11.625 J0
X-213.1 Y38.75 I-13.05 J0
X-184.15 Y38.75 I14.475 J0
X-215.95 Y38.75 I-15.9 J0
X-181.3 Y38.75 I17.325 J0
X-218.8 Y38.75 I-18.75 J0
X-178.45 Y38.75 I20.175 J0
X-221.65 Y38.75 I-21.6 J0
X-175.6 Y38.75 I23.025 J0
X-224.5 Y38.75 I-24.45 J0
X-175.6 Y38.75 I24.45 J0
G2 X-174.281 Y40.794 I2.243 J0
G3 X-173.123 Y42.933 I-0.828 J1.831
X-213.675 Y62.349 I-26.927 J-4.183
X-213.675 Y15.151 I13.625 J-23.599
X-172.8 Y38.75 I13.625 J23.599
X-173.123 Y42.933 I-27.25 J0
X-174.774 Y44.119 Z-2.466 I-1.408 J-0.219 F333.3
G1 X-197.668 Y40.154 Z-3.142
G3 X-198.85 Y38.75 Z-3.2 I0.243 J-1.404
X-198.4 Y38.75 I0.225 J0 F700
X-201.7 Y38.75 I-1.65 J0
X-195.55 Y38.75 I3.075 J0
X-204.55 Y38.75 I-4.5 J0
X-192.7 Y38.75 I5.925 J0
X-207.4 Y38.75 I-7.35 J0
X-189.85 Y38.75 I8.775 J0
X-210.25 Y38.75 I-10.2 J0
X-187 Y38.75 I11.625 J0
X-213.1 Y38.75 I-13.05 J0
X-184.15 Y38.75 I14.475 J0
X-215.95 Y38.75 I-15.9 J0
X-181.3 Y38.75 I17.325 J0
X-218.8 Y38.75 I-18.75 J0
X-178.45 Y38.75 I20.175 J0
X-221.65 Y38.75 I-21.6 J0
X-175.6 Y38.75 I23.025 J0
X-224.5 Y38.75 I-24.45 J0
X-175.6 Y38.75 I24.45 J0
G2 X-174.281 Y40.794 I2.243 J0
G3 X-173.123 Y42.933 I-0.828 J1.831
X-213.675 Y62.349 I-26.927 J-4.183
X-213.675 Y15.151 I13.625 J-23.599
X-172.8 Y38.75 I13.625 J23.599
X-173.123 Y42.933 I-27.25 J0
X-174.774 Y44.119 Z-3.266 I-1.408 J-0.219 F333.3
G1 X-197.668 Y40.154 Z-3.942
G3 X-198.85 Y38.75 Z-4 I0.243 J-1.404
X-198.4 Y38.75 I0.225 J0 F700
X-201.7 Y38.75 I-1.65 J0
X-195.55 Y38.75 I3.075 J0
X-204.55 Y38.75 I-4.5 J0
X-192.7 Y38.75 I5.925 J0
X-207.4 Y38.75 I-7.35 J0
X-189.85 Y38.75 I8.775 J0
X-210.25 Y38.75 I-10.2 J0
X-187 Y38.75 I11.625 J0
X-213.1 Y38.75 I-13.05 J0
X-184.15 Y38.75 I14.475 J0
X-215.95 Y38.75 I-15.9 J0
X-181.3 Y38.75 I17.325 J0
X-218.8 Y38.75 I-18.75 J0
X-178.45 Y38.75 I20.175 J0
X-221.65 Y38.75 I-21.6 J0
X-175.6 Y38.75 I23.025 J0
X-224.5 Y38.75 I-24.45 J0
X-175.6 Y38.75 I24.45 J0
G2 X-174.281 Y40.794 I2.243 J0
G3 X-173.123 Y42.933 I-0.828 J1.831
X-213.675 Y62.349 I-26.927 J-4.183
X-213.675 Y15.151 I13.625 J-23.599
X-172.8 Y38.75 I13.625 J23.599
X-173.123 Y42.933 I-27.25 J0
X-174.774 Y44.119 Z-4.066 I-1.408 J-0.219 F333.3
G1 X-197.668 Y40.154 Z-4.742
G3 X-198.85 Y38.75 Z-4.8 I0.243 J-1.404
X-198.4 Y38.75 I0.225 J0 F700
X-201.7 Y38.75 I-1.65 J0
X-195.55 Y38.75 I3.075 J0
X-204.55 Y38.75 I-4.5 J0
X-192.7 Y38.75 I5.925 J0
X-207.4 Y38.75 I-7.35 J0
X-189.85 Y38.75 I8.775 J0
X-210.25 Y38.75 I-10.2 J0
X-187 Y38.75 I11.625 J0
X-213.1 Y38.75 I-13.05 J0
X-184.15 Y38.75 I14.475 J0
X-215.95 Y38.75 I-15.9 J0
X-181.3 Y38.75 I17.325 J0
X-218.8 Y38.75 I-18.75 J0
X-178.45 Y38.75 I20.175 J0
X-221.65 Y38.75 I-21.6 J0
X-175.6 Y38.75 I23.025 J0
X-224.5 Y38.75 I-24.45 J0
X-175.6 Y38.75 I24.45 J0
G2 X-174.281 Y40.794 I2.243 J0
G3 X-173.123 Y42.933 I-0.828 J1.831
X-213.675 Y62.349 I-26.927 J-4.183
X-213.675 Y15.151 I13.625 J-23.599
X-172.8 Y38.75 I13.625 J23.599
X-173.123 Y42.933 I-27.25 J0
X-174.774 Y44.119 Z-4.866 I-1.408 J-0.219 F333.3
G1 X-197.668 Y40.154 Z-5.542
G3 X-198.85 Y38.75 Z-5.6 I0.243 J-1.404
X-198.4 Y38.75 I0.225 J0 F700
X-201.7 Y38.75 I-1.65 J0
X-195.55 Y38.75 I3.075 J0
X-204.55 Y38.75 I-4.5 J0
X-192.7 Y38.75 I5.925 J0
X-207.4 Y38.75 I-7.35 J0
X-189.85 Y38.75 I8.775 J0
X-210.25 Y38.75 I-10.2 J0
X-187 Y38.75 I11.625 J0
X-213.1 Y38.75 I-13.05 J0
X-184.15 Y38.75 I14.475 J0
X-215.95 Y38.75 I-15.9 J0
X-181.3 Y38.75 I17.325 J0
X-218.8 Y38.75 I-18.75 J0
X-178.45 Y38.75 I20.175 J0
X-221.65 Y38.75 I-21.6 J0
X-175.6 Y38.75 I23.025 J0
X-224.5 Y38.75 I-24.45 J0
X-175.6 Y38.75 I24.45 J0
G2 X-174.281 Y40.794 I2.243 J0
G3 X-173.123 Y42.933 I-0.828 J1.831
X-213.675 Y62.349 I-26.927 J-4.183
X-213.675 Y15.151 I13.625 J-23.599
X-172.8 Y38.75 I13.625 J23.599
X-173.123 Y42.933 I-27.25 J0
X-174.774 Y44.119 Z-5.666 I-1.408 J-0.219 F333.3
G1 X-197.668 Y40.154 Z-6.342
G3 X-198.85 Y38.75 Z-6.4 I0.243 J-1.404
X-198.4 Y38.75 I0.225 J0 F700
X-201.7 Y38.75 I-1.65 J0
X-195.55 Y38.75 I3.075 J0
X-204.55 Y38.75 I-4.5 J0
X-192.7 Y38.75 I5.925 J0
X-207.4 Y38.75 I-7.35 J0
X-189.85 Y38.75 I8.775 J0
X-210.25 Y38.75 I-10.2 J0
X-187 Y38.75 I11.625 J0
X-213.1 Y38.75 I-13.05 J0
X-184.15 Y38.75 I14.475 J0
X-215.95 Y38.75 I-15.9 J0
X-181.3 Y38.75 I17.325 J0
X-218.8 Y38.75 I-18.75 J0
X-178.45 Y38.75 I20.175 J0
X-221.65 Y38.75 I-21.6 J0
X-175.6 Y38.75 I23.025 J0
X-224.5 Y38.75 I-24.45 J0
X-175.6 Y38.75 I24.45 J0
G2 X-174.281 Y40.794 I2.243 J0
G3 X-173.123 Y42.933 I-0.828 J1.831
X-213.675 Y62.349 I-26.927 J-4.183
X-213.675 Y15.151 I13.625 J-23.599
X-172.8 Y38.75 I13.625 J23.599
X-173.123 Y42.933 I-27.25 J0
X-174.774 Y44.119 Z-6.466 I-1.408 J-0.219 F333.3
G1 X-197.668 Y40.154 Z-7.142
G3 X-198.85 Y38.75 Z-7.2 I0.243 J-1.404
X-198.4 Y38.75 I0.225 J0 F700
X-201.7 Y38.75 I-1.65 J0
X-195.55 Y38.75 I3.075 J0
X-204.55 Y38.75 I-4.5 J0
X-192.7 Y38.75 I5.925 J0
X-207.4 Y38.75 I-7.35 J0
X-189.85 Y38.75 I8.775 J0
X-210.25 Y38.75 I-10.2 J0
X-187 Y38.75 I11.625 J0
X-213.1 Y38.75 I-13.05 J0
X-184.15 Y38.75 I14.475 J0
X-215.95 Y38.75 I-15.9 J0
X-181.3 Y38.75 I17.325 J0
X-218.8 Y38.75 I-18.75 J0
X-178.45 Y38.75 I20.175 J0
X-221.65 Y38.75 I-21.6 J0
X-175.6 Y38.75 I23.025 J0
X-224.5 Y38.75 I-24.45 J0
X-175.6 Y38.75 I24.45 J0
G2 X-174.281 Y40.794 I2.243 J0
G3 X-173.123 Y42.933 I-0.828 J1.831
X-213.675 Y62.349 I-26.927 J-4.183
X-213.675 Y15.151 I13.625 J-23.599
X-172.8 Y38.75 I13.625 J23.599
X-173.123 Y42.933 I-27.25 J0
X-174.774 Y44.119 Z-7.266 I-1.408 J-0.219 F333.3
G1 X-197.668 Y40.154 Z-7.942
G3 X-198.85 Y38.75 Z-8 I0.243 J-1.404
X-198.4 Y38.75 I0.225 J0 F700
X-201.7 Y38.75 I-1.65 J0
X-195.55 Y38.75 I3.075 J0
X-204.55 Y38.75 I-4.5 J0
X-192.7 Y38.75 I5.925 J0
X-207.4 Y38.75 I-7.35 J0
X-189.85 Y38.75 I8.775 J0
X-210.25 Y38.75 I-10.2 J0
X-187 Y38.75 I11.625 J0
X-213.1 Y38.75 I-13.05 J0
X-184.15 Y38.75 I14.475 J0
X-215.95 Y38.75 I-15.9 J0
X-181.3 Y38.75 I17.325 J0
X-218.8 Y38.75 I-18.75 J0
X-178.45 Y38.75 I20.175 J0
X-221.65 Y38.75 I-21.6 J0
X-175.6 Y38.75 I23.025 J0
X-224.5 Y38.75 I-24.45 J0
X-175.6 Y38.75 I24.45 J0
G2 X-174.281 Y40.794 I2.243 J0
G3 X-173.123 Y42.933 I-0.828 J1.831
X-213.675 Y62.349 I-26.927 J-4.183
X-213.675 Y15.151 I13.625 J-23.599
X-172.8 Y38.75 I13.625 J23.599
X-173.123 Y42.933 I-27.25 J0
X-174.774 Y44.119 Z-8.041 I-1.408 J-0.219 F333.3
G1 X-197.668 Y40.154 Z-8.464
G3 X-198.85 Y38.75 Z-8.5 I0.243 J-1.404
X-198.4 Y38.75 I0.225 J0 F700
X-201.7 Y38.75 I-1.65 J0
X-195.55 Y38.75 I3.075 J0
X-204.55 Y38.75 I-4.5 J0
X-192.7 Y38.75 I5.925 J0
X-207.4 Y38.75 I-7.35 J0
X-189.85 Y38.75 I8.775 J0
X-210.25 Y38.75 I-10.2 J0
X-187 Y38.75 I11.625 J0
X-213.1 Y38.75 I-13.05 J0
X-184.15 Y38.75 I14.475 J0
X-215.95 Y38.75 I-15.9 J0
X-181.3 Y38.75 I17.325 J0
X-218.8 Y38.75 I-18.75 J0
X-178.45 Y38.75 I20.175 J0
X-221.65 Y38.75 I-21.6 J0
X-175.6 Y38.75 I23.025 J0
X-224.5 Y38.75 I-24.45 J0
X-175.6 Y38.75 I24.45 J0
G2 X-174.281 Y40.794 I2.243 J0
G3 X-173.123 Y42.933 I-0.828 J1.831
X-213.675 Y62.349 I-26.927 J-4.183
X-213.675 Y15.151 I13.625 J-23.599
X-172.8 Y38.75 I13.625 J23.599
X-173.123 Y42.933 I-27.25 J0
G0 Z7
X-115.865 Y37.614
Z2
G1 Z1.8 F700
G3 X-117.585 Y39.886 Z1.011 I-0.86 J1.136 F333.3
X-115.865 Y37.614 Z0.221 I0.86 J-1.136
X-117.585 Y39.886 Z-0.568 I-0.86 J1.136
X-118.15 Y38.75 Z-0.8 I0.86 J-1.136
X-117.8 Y38.75 I0.175 J0 F700
X-121 Y38.75 I-1.6 J0
X-114.95 Y38.75 I3.025 J0
X-123.85 Y38.75 I-4.45 J0
X-112.1 Y38.75 I5.875 J0
X-126.7 Y38.75 I-7.3 J0
X-109.25 Y38.75 I8.725 J0
X-129.55 Y38.75 I-10.15 J0
X-106.4 Y38.75 I11.575 J0
X-132.4 Y38.75 I-13 J0
X-103.55 Y38.75 I14.425 J0
X-135.25 Y38.75 I-15.85 J0
X-100.7 Y38.75 I17.275 J0
X-138.1 Y38.75 I-18.7 J0
X-97.85 Y38.75 I20.125 J0
X-140.95 Y38.75 I-21.55 J0
X-95 Y38.75 I22.975 J0
X-143.8 Y38.75 I-24.4 J0
X-92.15 Y38.75 I25.825 J0
X-146.65 Y38.75 I-27.25 J0
X-92.15 Y38.75 I27.25 J0
X-93.697 Y40.21 I-1.463 J0
G1 X-115.181 Y38.967
X-115.293 Y38.964
G3 X-115.347 Y36.04 I-0.027 J-1.462
X-114.363 Y38.608 I0.027 J1.462
G1 X-115.805 Y39.857
G3 X-117.72 Y37.646 I-0.958 J-1.105
X-115.301 Y38.69 I0.958 J1.105
X-116.695 Y40.175 Z-1.2 I-1.424 J0.06 F333.3
X-118.15 Y38.75 Z-1.6 I-0.03 J-1.425
X-117.8 Y38.75 I0.175 J0 F700
X-121 Y38.75 I-1.6 J0
X-114.95 Y38.75 I3.025 J0
X-123.85 Y38.75 I-4.45 J0
X-112.1 Y38.75 I5.875 J0
X-126.7 Y38.75 I-7.3 J0
X-109.25 Y38.75 I8.725 J0
X-129.55 Y38.75 I-10.15 J0
X-106.4 Y38.75 I11.575 J0
X-132.4 Y38.75 I-13 J0
X-103.55 Y38.75 I14.425 J0
X-135.25 Y38.75 I-15.85 J0
X-100.7 Y38.75 I17.275 J0
X-138.1 Y38.75 I-18.7 J0
X-97.85 Y38.75 I20.125 J0
X-140.95 Y38.75 I-21.55 J0
X-95 Y38.75 I22.975 J0
X-143.8 Y38.75 I-24.4 J0
X-92.15 Y38.75 I25.825 J0
X-146.65 Y38.75 I-27.25 J0
X-92.15 Y38.75 I27.25 J0
X-93.697 Y40.21 I-1.463 J0
G1 X-115.181 Y38.967
X-115.293 Y38.964
G3 X-115.347 Y36.04 I-0.027 J-1.462
X-114.363 Y38.608 I0.027 J1.462
G1 X-115.805 Y39.857
G3 X-117.72 Y37.646 I-0.958 J-1.105
X-115.301 Y38.69 I0.958 J1.105
X-116.695 Y40.175 Z-2 I-1.424 J0.06 F333.3
X-118.15 Y38.75 Z-2.4 I-0.03 J-1.425
X-117.8 Y38.75 I0.175 J0 F700
X-121 Y38.75 I-1.6 J0
X-114.95 Y38.75 I3.025 J0
X-123.85 Y38.75 I-4.45 J0
X-112.1 Y38.75 I5.875 J0
X-126.7 Y38.75 I-7.3 J0
X-109.25 Y38.75 I8.725 J0
X-129.55 Y38.75 I-10.15 J0
X-106.4 Y38.75 I11.575 J0
X-132.4 Y38.75 I-13 J0
X-103.55 Y38.75 I14.425 J0
X-135.25 Y38.75 I-15.85 J0
X-100.7 Y38.75 I17.275 J0
X-138.1 Y38.75 I-18.7 J0
X-97.85 Y38.75 I20.125 J0
X-140.95 Y38.75 I-21.55 J0
X-95 Y38.75 I22.975 J0
X-143.8 Y38.75 I-24.4 J0
X-92.15 Y38.75 I25.825 J0
X-146.65 Y38.75 I-27.25 J0
X-92.15 Y38.75 I27.25 J0
X-93.697 Y40.21 I-1.463 J0
G1 X-115.181 Y38.967
X-115.293 Y38.964
G3 X-115.347 Y36.04 I-0.027 J-1.462
X-114.363 Y38.608 I0.027 J1.462
G1 X-115.805 Y39.857
G3 X-117.72 Y37.646 I-0.958 J-1.105
X-115.301 Y38.69 I0.958 J1.105
X-116.695 Y40.175 Z-2.8 I-1.424 J0.06 F333.3
X-118.15 Y38.75 Z-3.2 I-0.03 J-1.425
X-117.8 Y38.75 I0.175 J0 F700
X-121 Y38.75 I-1.6 J0
X-114.95 Y38.75 I3.025 J0
X-123.85 Y38.75 I-4.45 J0
X-112.1 Y38.75 I5.875 J0
X-126.7 Y38.75 I-7.3 J0
X-109.25 Y38.75 I8.725 J0
X-129.55 Y38.75 I-10.15 J0
X-106.4 Y38.75 I11.575 J0
X-132.4 Y38.75 I-13 J0
X-103.55 Y38.75 I14.425 J0
X-135.25 Y38.75 I-15.85 J0
X-100.7 Y38.75 I17.275 J0
X-138.1 Y38.75 I-18.7 J0
X-97.85 Y38.75 I20.125 J0
X-140.95 Y38.75 I-21.55 J0
X-95 Y38.75 I22.975 J0
X-143.8 Y38.75 I-24.4 J0
X-92.15 Y38.75 I25.825 J0
X-146.65 Y38.75 I-27.25 J0
X-92.15 Y38.75 I27.25 J0
X-93.697 Y40.21 I-1.463 J0
G1 X-115.181 Y38.967
X-115.293 Y38.964
G3 X-115.347 Y36.04 I-0.027 J-1.462
X-114.363 Y38.608 I0.027 J1.462
G1 X-115.805 Y39.857
G3 X-117.72 Y37.646 I-0.958 J-1.105
X-115.301 Y38.69 I0.958 J1.105
X-116.695 Y40.175 Z-3.6 I-1.424 J0.06 F333.3
X-118.15 Y38.75 Z-4 I-0.03 J-1.425
X-117.8 Y38.75 I0.175 J0 F700
X-121 Y38.75 I-1.6 J0
X-114.95 Y38.75 I3.025 J0
X-123.85 Y38.75 I-4.45 J0
X-112.1 Y38.75 I5.875 J0
X-126.7 Y38.75 I-7.3 J0
X-109.25 Y38.75 I8.725 J0
X-129.55 Y38.75 I-10.15 J0
X-106.4 Y38.75 I11.575 J0
X-132.4 Y38.75 I-13 J0
X-103.55 Y38.75 I14.425 J0
X-135.25 Y38.75 I-15.85 J0
X-100.7 Y38.75 I17.275 J0
X-138.1 Y38.75 I-18.7 J0
X-97.85 Y38.75 I20.125 J0
X-140.95 Y38.75 I-21.55 J0
X-95 Y38.75 I22.975 J0
X-143.8 Y38.75 I-24.4 J0
X-92.15 Y38.75 I25.825 J0
X-146.65 Y38.75 I-27.25 J0
X-92.15 Y38.75 I27.25 J0
X-93.697 Y40.21 I-1.463 J0
G1 X-115.181 Y38.967
X-115.293 Y38.964
G3 X-115.347 Y36.04 I-0.027 J-1.462
X-114.363 Y38.608 I0.027 J1.462
G1 X-115.805 Y39.857
G3 X-117.72 Y37.646 I-0.958 J-1.105
X-115.301 Y38.69 I0.958 J1.105
X-116.695 Y40.175 Z-4.4 I-1.424 J0.06 F333.3
X-118.15 Y38.75 Z-4.8 I-0.03 J-1.425
X-117.8 Y38.75 I0.175 J0 F700
X-121 Y38.75 I-1.6 J0
X-114.95 Y38.75 I3.025 J0
X-123.85 Y38.75 I-4.45 J0
X-112.1 Y38.75 I5.875 J0
X-126.7 Y38.75 I-7.3 J0
X-109.25 Y38.75 I8.725 J0
X-129.55 Y38.75 I-10.15 J0
X-106.4 Y38.75 I11.575 J0
X-132.4 Y38.75 I-13 J0
X-103.55 Y38.75 I14.425 J0
X-135.25 Y38.75 I-15.85 J0
X-100.7 Y38.75 I17.275 J0
X-138.1 Y38.75 I-18.7 J0
X-97.85 Y38.75 I20.125 J0
X-140.95 Y38.75 I-21.55 J0
X-95 Y38.75 I22.975 J0
X-143.8 Y38.75 I-24.4 J0
X-92.15 Y38.75 I25.825 J0
X-146.65 Y38.75 I-27.25 J0
X-92.15 Y38.75 I27.25 J0
X-93.697 Y40.21 I-1.463 J0
G1 X-115.181 Y38.967
X-115.293 Y38.964
G3 X-115.347 Y36.04 I-0.027 J-1.462
X-114.363 Y38.608 I0.027 J1.462
G1 X-115.805 Y39.857
G3 X-117.72 Y37.646 I-0.958 J-1.105
X-115.301 Y38.69 I0.958 J1.105
X-116.695 Y40.175 Z-5.2 I-1.424 J0.06 F333.3
X-118.15 Y38.75 Z-5.6 I-0.03 J-1.425
X-117.8 Y38.75 I0.175 J0 F700
X-121 Y38.75 I-1.6 J0
X-114.95 Y38.75 I3.025 J0
X-123.85 Y38.75 I-4.45 J0
X-112.1 Y38.75 I5.875 J0
X-126.7 Y38.75 I-7.3 J0
X-109.25 Y38.75 I8.725 J0
X-129.55 Y38.75 I-10.15 J0
X-106.4 Y38.75 I11.575 J0
X-132.4 Y38.75 I-13 J0
X-103.55 Y38.75 I14.425 J0
X-135.25 Y38.75 I-15.85 J0
X-100.7 Y38.75 I17.275 J0
X-138.1 Y38.75 I-18.7 J0
X-97.85 Y38.75 I20.125 J0
X-140.95 Y38.75 I-21.55 J0
X-95 Y38.75 I22.975 J0
X-143.8 Y38.75 I-24.4 J0
X-92.15 Y38.75 I25.825 J0
X-146.65 Y38.75 I-27.25 J0
X-92.15 Y38.75 I27.25 J0
X-93.697 Y40.21 I-1.463 J0
G1 X-115.181 Y38.967
X-115.293 Y38.964
G3 X-115.347 Y36.04 I-0.027 J-1.462
X-114.363 Y38.608 I0.027 J1.462
G1 X-115.805 Y39.857
G3 X-117.72 Y37.646 I-0.958 J-1.105
X-115.301 Y38.69 I0.958 J1.105
X-116.695 Y40.175 Z-6 I-1.424 J0.06 F333.3
X-118.15 Y38.75 Z-6.4 I-0.03 J-1.425
X-117.8 Y38.75 I0.175 J0 F700
X-121 Y38.75 I-1.6 J0
X-114.95 Y38.75 I3.025 J0
X-123.85 Y38.75 I-4.45 J0
X-112.1 Y38.75 I5.875 J0
X-126.7 Y38.75 I-7.3 J0
X-109.25 Y38.75 I8.725 J0
X-129.55 Y38.75 I-10.15 J0
X-106.4 Y38.75 I11.575 J0
X-132.4 Y38.75 I-13 J0
X-103.55 Y38.75 I14.425 J0
X-135.25 Y38.75 I-15.85 J0
X-100.7 Y38.75 I17.275 J0
X-138.1 Y38.75 I-18.7 J0
X-97.85 Y38.75 I20.125 J0
X-140.95 Y38.75 I-21.55 J0
X-95 Y38.75 I22.975 J0
X-143.8 Y38.75 I-24.4 J0
X-92.15 Y38.75 I25.825 J0
X-146.65 Y38.75 I-27.25 J0
X-92.15 Y38.75 I27.25 J0
X-93.697 Y40.21 I-1.463 J0
G1 X-115.181 Y38.967
X-115.293 Y38.964
G3 X-115.347 Y36.04 I-0.027 J-1.462
X-114.363 Y38.608 I0.027 J1.462
G1 X-115.805 Y39.857
G3 X-117.72 Y37.646 I-0.958 J-1.105
X-115.301 Y38.69 I0.958 J1.105
X-116.695 Y40.175 Z-6.8 I-1.424 J0.06 F333.3
X-118.15 Y38.75 Z-7.2 I-0.03 J-1.425
X-117.8 Y38.75 I0.175 J0 F700
X-121 Y38.75 I-1.6 J0
X-114.95 Y38.75 I3.025 J0
X-123.85 Y38.75 I-4.45 J0
X-112.1 Y38.75 I5.875 J0
X-126.7 Y38.75 I-7.3 J0
X-109.25 Y38.75 I8.725 J0
X-129.55 Y38.75 I-10.15 J0
X-106.4 Y38.75 I11.575 J0
X-132.4 Y38.75 I-13 J0
X-103.55 Y38.75 I14.425 J0
X-135.25 Y38.75 I-15.85 J0
X-100.7 Y38.75 I17.275 J0
X-138.1 Y38.75 I-18.7 J0
X-97.85 Y38.75 I20.125 J0
X-140.95 Y38.75 I-21.55 J0
X-95 Y38.75 I22.975 J0
X-143.8 Y38.75 I-24.4 J0
X-92.15 Y38.75 I25.825 J0
X-146.65 Y38.75 I-27.25 J0
X-92.15 Y38.75 I27.25 J0
X-93.697 Y40.21 I-1.463 J0
G1 X-115.181 Y38.967
X-115.293 Y38.964
G3 X-115.347 Y36.04 I-0.027 J-1.462
X-114.363 Y38.608 I0.027 J1.462
G1 X-115.805 Y39.857
G3 X-117.72 Y37.646 I-0.958 J-1.105
X-115.301 Y38.69 I0.958 J1.105
X-116.695 Y40.175 Z-7.6 I-1.424 J0.06 F333.3
X-118.15 Y38.75 Z-8 I-0.03 J-1.425
X-117.8 Y38.75 I0.175 J0 F700
X-121 Y38.75 I-1.6 J0
X-114.95 Y38.75 I3.025 J0
X-123.85 Y38.75 I-4.45 J0
X-112.1 Y38.75 I5.875 J0
X-126.7 Y38.75 I-7.3 J0
X-109.25 Y38.75 I8.725 J0
X-129.55 Y38.75 I-10.15 J0
X-106.4 Y38.75 I11.575 J0
X-132.4 Y38.75 I-13 J0
X-103.55 Y38.75 I14.425 J0
X-135.25 Y38.75 I-15.85 J0
X-100.7 Y38.75 I17.275 J0
X-138.1 Y38.75 I-18.7 J0
X-97.85 Y38.75 I20.125 J0
X-140.95 Y38.75 I-21.55 J0
X-95 Y38.75 I22.975 J0
X-143.8 Y38.75 I-24.4 J0
X-92.15 Y38.75 I25.825 J0
X-146.65 Y38.75 I-27.25 J0
X-92.15 Y38.75 I27.25 J0
X-94.042 Y40.148 I-1.463 J0
G1 X-110.941 Y34.95
X-111.082 Y34.898
G2 X-112.881 Y35.449 I-0.571 J1.346
G1 X-115.513 Y39.511
G3 X-116.145 Y40.052 I-1.227 J-0.795
X-118.15 Y38.75 Z-8.5 I-0.58 J-1.302 F333.3
X-117.8 Y38.75 I0.175 J0 F700
X-121 Y38.75 I-1.6 J0
X-114.95 Y38.75 I3.025 J0
X-123.85 Y38.75 I-4.45 J0
X-112.1 Y38.75 I5.875 J0
X-126.7 Y38.75 I-7.3 J0
X-109.25 Y38.75 I8.725 J0
X-129.55 Y38.75 I-10.15 J0
X-106.4 Y38.75 I11.575 J0
X-132.4 Y38.75 I-13 J0
X-103.55 Y38.75 I14.425 J0
X-135.25 Y38.75 I-15.85 J0
X-100.7 Y38.75 I17.275 J0
X-138.1 Y38.75 I-18.7 J0
X-97.85 Y38.75 I20.125 J0
X-140.95 Y38.75 I-21.55 J0
X-95 Y38.75 I22.975 J0
X-143.8 Y38.75 I-24.4 J0
X-92.15 Y38.75 I25.825 J0
X-146.65 Y38.75 I-27.25 J0
X-92.15 Y38.75 I27.25 J0
G0 Z7
X-33.085 Y39.886
Z2
G1 Z1.8 F700
G3 X-31.365 Y37.614 Z1.011 I0.86 J-1.136 F333.3
X-33.085 Y39.886 Z0.221 I-0.86 J1.136
X-31.365 Y37.614 Z-0.568 I0.86 J-1.136
X-30.8 Y38.75 Z-0.8 I-0.86 J1.136
X-46.7 Y38.75 I-7.95 J0 F700
X-30.8 Y38.75 I7.95 J0
G2 X-29.623 Y40.667 I2.149 J0
G3 X-28.835 Y42.774 I-0.752 J1.482
X-48.665 Y34.726 I-9.915 J-4.024
X-28.835 Y42.774 I9.915 J4.024
G2 X-28.44 Y45.037 I2.01 J0.816
G3 X-28.396 Y47.334 I-1.31 J1.175
X-49.104 Y30.166 I-10.354 J-8.584
X-28.396 Y47.334 I10.354 J8.584
G2 X-28.695 Y49.644 I1.679 J1.392
G3 X-29.285 Y51.897 I-1.658 J0.77
X-48.215 Y25.603 I-9.465 J-13.147
X-29.285 Y51.897 I9.465 J13.147
G2 X-30.157 Y54.081 I1.279 J1.777
G3 X-31.261 Y56.157 I-1.847 J0.35
X-46.239 Y21.343 I-7.489 J-17.407
X-31.261 Y56.157 I7.489 J17.407
G2 X-32.588 Y58.119 I0.868 J2.017
G3 X-34.095 Y59.945 I-1.919 J-0.048
X-43.405 Y17.555 I-4.655 J-21.195
X-34.095 Y59.945 I4.655 J21.195
G2 X-35.774 Y61.632 I0.472 J2.149
G3 X-37.59 Y63.172 I-1.908 J-0.409
X-39.91 Y14.328 I-1.16 J-24.422
X-37.59 Y63.172 I1.16 J24.422
G2 X-39.569 Y64.587 I0.106 J2.241
G3 X-41.651 Y65.845 I-1.868 J-0.74
X-60.796 Y54.767 I2.901 J-27.095
X-60.796 Y22.733 I22.046 J-16.017
X-30.329 Y12.834 I22.046 J16.017
X-11.5 Y38.75 I-8.421 J25.916
X-30.329 Y64.666 I-27.25 J0
X-41.651 Y65.845 I-8.421 J-25.916
X-42.839 Y63.944 Z-0.861 I0.152 J-1.417 F333.3
G1 X-33.565 Y38.266 Z-1.506
G3 X-30.8 Y38.75 Z-1.6 I1.34 J0.484
X-46.7 Y38.75 I-7.95 J0 F700
X-30.8 Y38.75 I7.95 J0
G2 X-29.623 Y40.667 I2.149 J0
G3 X-28.835 Y42.774 I-0.752 J1.482
X-48.665 Y34.726 I-9.915 J-4.024
X-28.835 Y42.774 I9.915 J4.024
G2 X-28.44 Y45.037 I2.01 J0.816
G3 X-28.396 Y47.334 I-1.31 J1.175
X-49.104 Y30.166 I-10.354 J-8.584
X-28.396 Y47.334 I10.354 J8.584
G2 X-28.695 Y49.644 I1.679 J1.392
G3 X-29.285 Y51.897 I-1.658 J0.77
X-48.215 Y25.603 I-9.465 J-13.147
X-29.285 Y51.897 I9.465 J13.147
G2 X-30.157 Y54.081 I1.279 J1.777
G3 X-31.261 Y56.157 I-1.847 J0.35
X-46.239 Y21.343 I-7.489 J-17.407
X-31.261 Y56.157 I7.489 J17.407
G2 X-32.588 Y58.119 I0.868 J2.017
G3 X-34.095 Y59.945 I-1.919 J-0.048
X-43.405 Y17.555 I-4.655 J-21.195
X-34.095 Y59.945 I4.655 J21.195
G2 X-35.774 Y61.632 I0.472 J2.149
G3 X-37.59 Y63.172 I-1.908 J-0.409
X-39.91 Y14.328 I-1.16 J-24.422
X-37.59 Y63.172 I1.16 J24.422
G2 X-39.569 Y64.587 I0.106 J2.241
G3 X-41.651 Y65.845 I-1.868 J-0.74
X-60.796 Y54.767 I2.901 J-27.095
X-60.796 Y22.733 I22.046 J-16.017
X-30.329 Y12.834 I22.046 J16.017
X-11.5 Y38.75 I-8.421 J25.916
X-30.329 Y64.666 I-27.25 J0
X-41.651 Y65.845 I-8.421 J-25.916
X-42.839 Y63.944 Z-1.661 I0.152 J-1.417 F333.3
G1 X-33.565 Y38.266 Z-2.306
G3 X-30.8 Y38.75 Z-2.4 I1.34 J0.484
X-46.7 Y38.75 I-7.95 J0 F700
X-30.8 Y38.75 I7.95 J0
G2 X-29.623 Y40.667 I2.149 J0
G3 X-28.835 Y42.774 I-0.752 J1.482
X-48.665 Y34.726 I-9.915 J-4.024
X-28.835 Y42.774 I9.915 J4.024
G2 X-28.44 Y45.037 I2.01 J0.816
G3 X-28.396 Y47.334 I-1.31 J1.175
X-49.104 Y30.166 I-10.354 J-8.584
X-28.396 Y47.334 I10.354 J8.584
G2 X-28.695 Y49.644 I1.679 J1.392
G3 X-29.285 Y51.897 I-1.658 J0.77
X-48.215 Y25.603 I-9.465 J-13.147
X-29.285 Y51.897 I9.465 J13.147
G2 X-30.157 Y54.081 I1.279 J1.777
G3 X-31.261 Y56.157 I-1.847 J0.35
X-46.239 Y21.343 I-7.489 J-17.407
X-31.261 Y56.157 I7.489 J17.407
G2 X-32.588 Y58.119 I0.868 J2.017
G3 X-34.095 Y59.945 I-1.919 J-0.048
X-43.405 Y17.555 I-4.655 J-21.195
X-34.095 Y59.945 I4.655 J21.195
G2 X-35.774 Y61.632 I0.472 J2.149
G3 X-37.59 Y63.172 I-1.908 J-0.409
X-39.91 Y14.328 I-1.16 J-24.422
X-37.59 Y63.172 I1.16 J24.422
G2 X-39.569 Y64.587 I0.106 J2.241
G3 X-41.651 Y65.845 I-1.868 J-0.74
X-60.796 Y54.767 I2.901 J-27.095
X-60.796 Y22.733 I22.046 J-16.017
X-30.329 Y12.834 I22.046 J16.017
X-11.5 Y38.75 I-8.421 J25.916
X-30.329 Y64.666 I-27.25 J0
X-41.651 Y65.845 I-8.421 J-25.916
X-42.839 Y63.944 Z-2.461 I0.152 J-1.417 F333.3
G1 X-33.565 Y38.266 Z-3.106
G3 X-30.8 Y38.75 Z-3.2 I1.34 J0.484
X-46.7 Y38.75 I-7.95 J0 F700
X-30.8 Y38.75 I7.95 J0
G2 X-29.623 Y40.667 I2.149 J0
G3 X-28.835 Y42.774 I-0.752 J1.482
X-48.665 Y34.726 I-9.915 J-4.024
X-28.835 Y42.774 I9.915 J4.024
G2 X-28.44 Y45.037 I2.01 J0.816
G3 X-28.396 Y47.334 I-1.31 J1.175
X-49.104 Y30.166 I-10.354 J-8.584
X-28.396 Y47.334 I10.354 J8.584
G2 X-28.695 Y49.644 I1.679 J1.392
G3 X-29.285 Y51.897 I-1.658 J0.77
X-48.215 Y25.603 I-9.465 J-13.147
X-29.285 Y51.897 I9.465 J13.147
G2 X-30.157 Y54.081 I1.279 J1.777
G3 X-31.261 Y56.157 I-1.847 J0.35
X-46.239 Y21.343 I-7.489 J-17.407
X-31.261 Y56.157 I7.489 J17.407
G2 X-32.588 Y58.119 I0.868 J2.017
G3 X-34.095 Y59.945 I-1.919 J-0.048
X-43.405 Y17.555 I-4.655 J-21.195
X-34.095 Y59.945 I4.655 J21.195
G2 X-35.774 Y61.632 I0.472 J2.149
G3 X-37.59 Y63.172 I-1.908 J-0.409
X-39.91 Y14.328 I-1.16 J-24.422
X-37.59 Y63.172 I1.16 J24.422
G2 X-39.569 Y64.587 I0.106 J2.241
G3 X-41.651 Y65.845 I-1.868 J-0.74
X-60.796 Y54.767 I2.901 J-27.095
X-60.796 Y22.733 I22.046 J-16.017
X-30.329 Y12.834 I22.046 J16.017
X-11.5 Y38.75 I-8.421 J25.916
X-30.329 Y64.666 I-27.25 J0
X-41.651 Y65.845 I-8.421 J-25.916
X-42.839 Y63.944 Z-3.261 I0.152 J-1.417 F333.3
G1 X-33.565 Y38.266 Z-3.906
G3 X-30.8 Y38.75 Z-4 I1.34 J0.484
X-46.7 Y38.75 I-7.95 J0 F700
X-30.8 Y38.75 I7.95 J0
G2 X-29.623 Y40.667 I2.149 J0
G3 X-28.835 Y42.774 I-0.752 J1.482
X-48.665 Y34.726 I-9.915 J-4.024
X-28.835 Y42.774 I9.915 J4.024
G2 X-28.44 Y45.037 I2.01 J0.816
G3 X-28.396 Y47.334 I-1.31 J1.175
X-49.104 Y30.166 I-10.354 J-8.584
X-28.396 Y47.334 I10.354 J8.584
G2 X-28.695 Y49.644 I1.679 J1.392
G3 X-29.285 Y51.897 I-1.658 J0.77
X-48.215 Y25.603 I-9.465 J-13.147
X-29.285 Y51.897 I9.465 J13.147
G2 X-30.157 Y54.081 I1.279 J1.777
G3 X-31.261 Y56.157 I-1.847 J0.35
X-46.239 Y21.343 I-7.489 J-17.407
X-31.261 Y56.157 I7.489 J17.407
G2 X-32.588 Y58.119 I0.868 J2.017
G3 X-34.095 Y59.945 I-1.919 J-0.048
X-43.405 Y17.555 I-4.655 J-21.195
X-34.095 Y59.945 I4.655 J21.195
G2 X-35.774 Y61.632 I0.472 J2.149
G3 X-37.59 Y63.172 I-1.908 J-0.409
X-39.91 Y14.328 I-1.16 J-24.422
X-37.59 Y63.172 I1.16 J24.422
G2 X-39.569 Y64.587 I0.106 J2.241
G3 X-41.651 Y65.845 I-1.868 J-0.74
X-60.796 Y54.767 I2.901 J-27.095
X-60.796 Y22.733 I22.046 J-16.017
X-30.329 Y12.834 I22.046 J16.017
X-11.5 Y38.75 I-8.421 J25.916
X-30.329 Y64.666 I-27.25 J0
X-41.651 Y65.845 I-8.421 J-25.916
X-42.839 Y63.944 Z-4.061 I0.152 J-1.417 F333.3
G1 X-33.565 Y38.266 Z-4.706
G3 X-30.8 Y38.75 Z-4.8 I1.34 J0.484
X-46.7 Y38.75 I-7.95 J0 F700
X-30.8 Y38.75 I7.95 J0
G2 X-29.623 Y40.667 I2.149 J0
G3 X-28.835 Y42.774 I-0.752 J1.482
X-48.665 Y34.726 I-9.915 J-4.024
X-28.835 Y42.774 I9.915 J4.024
G2 X-28.44 Y45.037 I2.01 J0.816
G3 X-28.396 Y47.334 I-1.31 J1.175
X-49.104 Y30.166 I-10.354 J-8.584
X-28.396 Y47.334 I10.354 J8.584
G2 X-28.695 Y49.644 I1.679 J1.392
G3 X-29.285 Y51.897 I-1.658 J0.77
X-48.215 Y25.603 I-9.465 J-13.147
X-29.285 Y51.897 I9.465 J13.147
G2 X-30.157 Y54.081 I1.279 J1.777
G3 X-31.261 Y56.157 I-1.847 J0.35
X-46.239 Y21.343 I-7.489 J-17.407
X-31.261 Y56.157 I7.489 J17.407
G2 X-32.588 Y58.119 I0.868 J2.017
G3 X-34.095 Y59.945 I-1.919 J-0.048
X-43.405 Y17.555 I-4.655 J-21.195
X-34.095 Y59.945 I4.655 J21.195
G2 X-35.774 Y61.632 I0.472 J2.149
G3 X-37.59 Y63.172 I-1.908 J-0.409
X-39.91 Y14.328 I-1.16 J-24.422
X-37.59 Y63.172 I1.16 J24.422
G2 X-39.569 Y64.587 I0.106 J2.241
G3 X-41.651 Y65.845 I-1.868 J-0.74
X-60.796 Y54.767 I2.901 J-27.095
X-60.796 Y22.733 I22.046 J-16.017
X-30.329 Y12.834 I22.046 J16.017
X-11.5 Y38.75 I-8.421 J25.916
X-30.329 Y64.666 I-27.25 J0
X-41.651 Y65.845 I-8.421 J-25.916
X-42.839 Y63.944 Z-4.861 I0.152 J-1.417 F333.3
G1 X-33.565 Y38.266 Z-5.506
G3 X-30.8 Y38.75 Z-5.6 I1.34 J0.484
X-46.7 Y38.75 I-7.95 J0 F700
X-30.8 Y38.75 I7.95 J0
G2 X-29.623 Y40.667 I2.149 J0
G3 X-28.835 Y42.774 I-0.752 J1.482
X-48.665 Y34.726 I-9.915 J-4.024
X-28.835 Y42.774 I9.915 J4.024
G2 X-28.44 Y45.037 I2.01 J0.816
G3 X-28.396 Y47.334 I-1.31 J1.175
X-49.104 Y30.166 I-10.354 J-8.584
X-28.396 Y47.334 I10.354 J8.584
G2 X-28.695 Y49.644 I1.679 J1.392
G3 X-29.285 Y51.897 I-1.658 J0.77
X-48.215 Y25.603 I-9.465 J-13.147
X-29.285 Y51.897 I9.465 J13.147
G2 X-30.157 Y54.081 I1.279 J1.777
G3 X-31.261 Y56.157 I-1.847 J0.35
X-46.239 Y21.343 I-7.489 J-17.407
X-31.261 Y56.157 I7.489 J17.407
G2 X-32.588 Y58.119 I0.868 J2.017
G3 X-34.095 Y59.945 I-1.919 J-0.048
X-43.405 Y17.555 I-4.655 J-21.195
X-34.095 Y59.945 I4.655 J21.195
G2 X-35.774 Y61.632 I0.472 J2.149
G3 X-37.59 Y63.172 I-1.908 J-0.409
X-39.91 Y14.328 I-1.16 J-24.422
X-37.59 Y63.172 I1.16 J24.422
G2 X-39.569 Y64.587 I0.106 J2.241
G3 X-41.651 Y65.845 I-1.868 J-0.74
X-60.796 Y54.767 I2.901 J-27.095
X-60.796 Y22.733 I22.046 J-16.017
X-30.329 Y12.834 I22.046 J16.017
X-11.5 Y38.75 I-8.421 J25.916
X-30.329 Y64.666 I-27.25 J0
X-41.651 Y65.845 I-8.421 J-25.916
X-42.839 Y63.944 Z-5.661 I0.152 J-1.417 F333.3
G1 X-33.565 Y38.266 Z-6.306
G3 X-30.8 Y38.75 Z-6.4 I1.34 J0.484
X-46.7 Y38.75 I-7.95 J0 F700
X-30.8 Y38.75 I7.95 J0
G2 X-29.623 Y40.667 I2.149 J0
G3 X-28.835 Y42.774 I-0.752 J1.482
X-48.665 Y34.726 I-9.915 J-4.024
X-28.835 Y42.774 I9.915 J4.024
G2 X-28.44 Y45.037 I2.01 J0.816
G3 X-28.396 Y47.334 I-1.31 J1.175
X-49.104 Y30.166 I-10.354 J-8.584
X-28.396 Y47.334 I10.354 J8.584
G2 X-28.695 Y49.644 I1.679 J1.392
G3 X-29.285 Y51.897 I-1.658 J0.77
X-48.215 Y25.603 I-9.465 J-13.147
X-29.285 Y51.897 I9.465 J13.147
G2 X-30.157 Y54.081 I1.279 J1.777
G3 X-31.261 Y56.157 I-1.847 J0.35
X-46.239 Y21.343 I-7.489 J-17.407
X-31.261 Y56.157 I7.489 J17.407
G2 X-32.588 Y58.119 I0.868 J2.017
G3 X-34.095 Y59.945 I-1.919 J-0.048
X-43.405 Y17.555 I-4.655 J-21.195
X-34.095 Y59.945 I4.655 J21.195
G2 X-35.774 Y61.632 I0.472 J2.149
G3 X-37.59 Y63.172 I-1.908 J-0.409
X-39.91 Y14.328 I-1.16 J-24.422
X-37.59 Y63.172 I1.16 J24.422
G2 X-39.569 Y64.587 I0.106 J2.241
G3 X-41.651 Y65.845 I-1.868 J-0.74
X-60.796 Y54.767 I2.901 J-27.095
X-60.796 Y22.733 I22.046 J-16.017
X-30.329 Y12.834 I22.046 J16.017
X-11.5 Y38.75 I-8.421 J25.916
X-30.329 Y64.666 I-27.25 J0
X-41.651 Y65.845 I-8.421 J-25.916
X-42.839 Y63.944 Z-6.461 I0.152 J-1.417 F333.3
G1 X-33.565 Y38.266 Z-7.106
G3 X-30.8 Y38.75 Z-7.2 I1.34 J0.484
X-46.7 Y38.75 I-7.95 J0 F700
X-30.8 Y38.75 I7.95 J0
G2 X-29.623 Y40.667 I2.149 J0
G3 X-28.835 Y42.774 I-0.752 J1.482
X-48.665 Y34.726 I-9.915 J-4.024
X-28.835 Y42.774 I9.915 J4.024
G2 X-28.44 Y45.037 I2.01 J0.816
G3 X-28.396 Y47.334 I-1.31 J1.175
X-49.104 Y30.166 I-10.354 J-8.584
X-28.396 Y47.334 I10.354 J8.584
G2 X-28.695 Y49.644 I1.679 J1.392
G3 X-29.285 Y51.897 I-1.658 J0.77
X-48.215 Y25.603 I-9.465 J-13.147
X-29.285 Y51.897 I9.465 J13.147
G2 X-30.157 Y54.081 I1.279 J1.777
G3 X-31.261 Y56.157 I-1.847 J0.35
X-46.239 Y21.343 I-7.489 J-17.407
X-31.261 Y56.157 I7.489 J17.407
G2 X-32.588 Y58.119 I0.868 J2.017
G3 X-34.095 Y59.945 I-1.919 J-0.048
X-43.405 Y17.555 I-4.655 J-21.195
X-34.095 Y59.945 I4.655 J21.195
G2 X-35.774 Y61.632 I0.472 J2.149
G3 X-37.59 Y63.172 I-1.908 J-0.409
X-39.91 Y14.328 I-1.16 J-24.422
X-37.59 Y63.172 I1.16 J24.422
G2 X-39.569 Y64.587 I0.106 J2.241
G3 X-41.651 Y65.845 I-1.868 J-0.74
X-60.796 Y54.767 I2.901 J-27.095
X-60.796 Y22.733 I22.046 J-16.017
X-30.329 Y12.834 I22.046 J16.017
X-11.5 Y38.75 I-8.421 J25.916
X-30.329 Y64.666 I-27.25 J0
X-41.651 Y65.845 I-8.421 J-25.916
X-42.839 Y63.944 Z-7.261 I0.152 J-1.417 F333.3
G1 X-33.565 Y38.266 Z-7.906
G3 X-30.8 Y38.75 Z-8 I1.34 J0.484
X-46.7 Y38.75 I-7.95 J0 F700
X-30.8 Y38.75 I7.95 J0
G2 X-29.623 Y40.667 I2.149 J0
G3 X-28.835 Y42.774 I-0.752 J1.482
X-48.665 Y34.726 I-9.915 J-4.024
X-28.835 Y42.774 I9.915 J4.024
G2 X-28.44 Y45.037 I2.01 J0.816
G3 X-28.396 Y47.334 I-1.31 J1.175
X-49.104 Y30.166 I-10.354 J-8.584
X-28.396 Y47.334 I10.354 J8.584
G2 X-28.695 Y49.644 I1.679 J1.392
G3 X-29.285 Y51.897 I-1.658 J0.77
X-48.215 Y25.603 I-9.465 J-13.147
X-29.285 Y51.897 I9.465 J13.147
G2 X-30.157 Y54.081 I1.279 J1.777
G3 X-31.261 Y56.157 I-1.847 J0.35
X-46.239 Y21.343 I-7.489 J-17.407
X-31.261 Y56.157 I7.489 J17.407
G2 X-32.588 Y58.119 I0.868 J2.017
G3 X-34.095 Y59.945 I-1.919 J-0.048
X-43.405 Y17.555 I-4.655 J-21.195
X-34.095 Y59.945 I4.655 J21.195
G2 X-35.774 Y61.632 I0.472 J2.149
G3 X-37.59 Y63.172 I-1.908 J-0.409
X-39.91 Y14.328 I-1.16 J-24.422
X-37.59 Y63.172 I1.16 J24.422
G2 X-39.569 Y64.587 I0.106 J2.241
G3 X-41.651 Y65.845 I-1.868 J-0.74
X-60.796 Y54.767 I2.901 J-27.095
X-60.796 Y22.733 I22.046 J-16.017
X-30.329 Y12.834 I22.046 J16.017
X-11.5 Y38.75 I-8.421 J25.916
X-30.329 Y64.666 I-27.25 J0
X-41.651 Y65.845 I-8.421 J-25.916
X-42.839 Y63.944 Z-8.038 I0.152 J-1.417 F333.3
G1 X-33.565 Y38.266 Z-8.441
G3 X-30.8 Y38.75 Z-8.5 I1.34 J0.484
X-46.7 Y38.75 I-7.95 J0 F700
X-30.8 Y38.75 I7.95 J0
G2 X-29.623 Y40.667 I2.149 J0
G3 X-28.835 Y42.774 I-0.752 J1.482
X-48.665 Y34.726 I-9.915 J-4.024
X-28.835 Y42.774 I9.915 J4.024
G2 X-28.44 Y45.037 I2.01 J0.816
G3 X-28.396 Y47.334 I-1.31 J1.175
X-49.104 Y30.166 I-10.354 J-8.584
X-28.396 Y47.334 I10.354 J8.584
G2 X-28.695 Y49.644 I1.679 J1.392
G3 X-29.285 Y51.897 I-1.658 J0.77
X-48.215 Y25.603 I-9.465 J-13.147
X-29.285 Y51.897 I9.465 J13.147
G2 X-30.157 Y54.081 I1.279 J1.777
G3 X-31.261 Y56.157 I-1.847 J0.35
X-46.239 Y21.343 I-7.489 J-17.407
X-31.261 Y56.157 I7.489 J17.407
G2 X-32.588 Y58.119 I0.868 J2.017
G3 X-34.095 Y59.945 I-1.919 J-0.048
X-43.405 Y17.555 I-4.655 J-21.195
X-34.095 Y59.945 I4.655 J21.195
G2 X-35.774 Y61.632 I0.472 J2.149
G3 X-37.59 Y63.172 I-1.908 J-0.409
X-39.91 Y14.328 I-1.16 J-24.422
X-37.59 Y63.172 I1.16 J24.422
G2 X-39.569 Y64.587 I0.106 J2.241
G3 X-41.651 Y65.845 I-1.868 J-0.74
X-60.796 Y54.767 I2.901 J-27.095
X-60.796 Y22.733 I22.046 J-16.017
X-30.329 Y12.834 I22.046 J16.017
X-11.5 Y38.75 I-8.421 J25.916
X-30.329 Y64.666 I-27.25 J0
X-41.651 Y65.845 I-8.421 J-25.916
G0 Z7
X-277.036 Y125.15
Z2
G1 Z1.8 F700
Z-0.8
G3 X-276.588 Y126.04 I-5.428 J3.291
G2 X-268.005 Y139.085 I37.505 J-15.331
X-239.741 Y150.95 I28.264 J-27.73
X-211.365 Y139.355 I0 J-40.517
X-199.5 Y111.091 I-27.73 J-28.264
X-211.095 Y82.715 I-40.517 J0
X-239.359 Y70.85 I-28.264 J27.73
X-267.735 Y82.445 I0 J40.517
X-279.6 Y110.709 I27.73 J28.264
X-276.588 Y126.04 I40.517 J0
X-274.458 Y127.448 I2.097 J-0.857
G3 X-272.253 Y128.735 I0.036 J2.47
G2 X-239.741 Y148.15 I32.703 J-17.835
G1 X-239.55
G2 X-239.55 Y73.65 I0 J-37.25
X-276.8 Y110.9 I0 J37.25
X-272.253 Y128.735 I37.25 J0
G3 X-272.896 Y130.706 Z-0.862 I-1.251 J0.682 F333.3
X-274.826 Y129.949 Z-0.925 I-0.608 J-1.289
G1 X-282.347 Y111.241 Z-1.465
G3 X-279.703 Y110.177 Z-1.585 I1.322 J-0.532
X-279.6 Y110.709 Z-1.6 I-1.322 J0.532
G2 X-268.005 Y139.085 I40.517 J0 F700
X-239.741 Y150.95 I28.264 J-27.73
X-211.365 Y139.355 I0 J-40.517
X-199.5 Y111.091 I-27.73 J-28.264
X-211.095 Y82.715 I-40.517 J0
X-239.359 Y70.85 I-28.264 J27.73
X-267.735 Y82.445 I0 J40.517
X-279.6 Y110.709 I27.73 J28.264
X-278.149 Y112.846 I2.299 J0
G3 X-276.584 Y114.902 I-0.922 J2.325
G2 X-239.741 Y148.15 I37.035 J-4.002
G1 X-239.55
G2 X-239.55 Y73.65 I0 J-37.25
X-276.8 Y110.9 I0 J37.25
X-276.584 Y114.902 I37.25 J0
G3 X-279.171 Y115.869 Z-1.809 I-1.417 J0.153 F333.3
G1 X-282.195 Y111.523 Z-2.103
G3 X-279.855 Y109.895 Z-2.352 I1.17 J-0.814
X-279.6 Y110.709 Z-2.4 I-1.17 J0.814
G2 X-268.005 Y139.085 I40.517 J0 F700
X-239.741 Y150.95 I28.264 J-27.73
X-211.365 Y139.355 I0 J-40.517
X-199.5 Y111.091 I-27.73 J-28.264
X-211.095 Y82.715 I-40.517 J0
X-239.359 Y70.85 I-28.264 J27.73
X-267.735 Y82.445 I0 J40.517
X-279.6 Y110.709 I27.73 J28.264
X-278.149 Y112.846 I2.299 J0
G3 X-276.584 Y114.902 I-0.922 J2.325
G2 X-239.741 Y148.15 I37.035 J-4.002
G1 X-239.55
G2 X-239.55 Y73.65 I0 J-37.25
X-276.8 Y110.9 I0 J37.25
X-276.584 Y114.902 I37.25 J0
G3 X-279.171 Y115.869 Z-2.609 I-1.417 J0.153 F333.3
G1 X-282.195 Y111.523 Z-2.903
G3 X-279.855 Y109.895 Z-3.152 I1.17 J-0.814
X-279.6 Y110.709 Z-3.2 I-1.17 J0.814
G2 X-268.005 Y139.085 I40.517 J0 F700
X-239.741 Y150.95 I28.264 J-27.73
X-211.365 Y139.355 I0 J-40.517
X-199.5 Y111.091 I-27.73 J-28.264
X-211.095 Y82.715 I-40.517 J0
X-239.359 Y70.85 I-28.264 J27.73
X-267.735 Y82.445 I0 J40.517
X-279.6 Y110.709 I27.73 J28.264
X-278.149 Y112.846 I2.299 J0
G3 X-276.584 Y114.902 I-0.922 J2.325
G2 X-239.741 Y148.15 I37.035 J-4.002
G1 X-239.55
G2 X-239.55 Y73.65 I0 J-37.25
X-276.8 Y110.9 I0 J37.25
X-276.584 Y114.902 I37.25 J0
G3 X-279.171 Y115.869 Z-3.409 I-1.417 J0.153 F333.3
G1 X-282.195 Y111.523 Z-3.703
G3 X-279.855 Y109.895 Z-3.952 I1.17 J-0.814
X-279.6 Y110.709 Z-4 I-1.17 J0.814
G2 X-268.005 Y139.085 I40.517 J0 F700
X-239.741 Y150.95 I28.264 J-27.73
X-211.365 Y139.355 I0 J-40.517
X-199.5 Y111.091 I-27.73 J-28.264
X-211.095 Y82.715 I-40.517 J0
X-239.359 Y70.85 I-28.264 J27.73
X-267.735 Y82.445 I0 J40.517
X-279.6 Y110.709 I27.73 J28.264
X-278.149 Y112.846 I2.299 J0
G3 X-276.584 Y114.902 I-0.922 J2.325
G2 X-239.741 Y148.15 I37.035 J-4.002
G1 X-239.55
G2 X-239.55 Y73.65 I0 J-37.25
X-276.8 Y110.9 I0 J37.25
X-276.584 Y114.902 I37.25 J0
G3 X-279.171 Y115.869 Z-4.209 I-1.417 J0.153 F333.3
G1 X-282.195 Y111.523 Z-4.503
G3 X-279.855 Y109.895 Z-4.752 I1.17 J-0.814
X-279.6 Y110.709 Z-4.8 I-1.17 J0.814
G2 X-268.005 Y139.085 I40.517 J0 F700
X-239.741 Y150.95 I28.264 J-27.73
X-211.365 Y139.355 I0 J-40.517
X-199.5 Y111.091 I-27.73 J-28.264
X-211.095 Y82.715 I-40.517 J0
X-239.359 Y70.85 I-28.264 J27.73
X-267.735 Y82.445 I0 J40.517
X-279.6 Y110.709 I27.73 J28.264
X-278.149 Y112.846 I2.299 J0
G3 X-276.584 Y114.902 I-0.922 J2.325
G2 X-239.741 Y148.15 I37.035 J-4.002
G1 X-239.55
G2 X-239.55 Y73.65 I0 J-37.25
X-276.8 Y110.9 I0 J37.25
X-276.584 Y114.902 I37.25 J0
G3 X-279.171 Y115.869 Z-5.009 I-1.417 J0.153 F333.3
G1 X-282.195 Y111.523 Z-5.303
G3 X-279.855 Y109.895 Z-5.552 I1.17 J-0.814
X-279.6 Y110.709 Z-5.6 I-1.17 J0.814
G2 X-268.005 Y139.085 I40.517 J0 F700
X-239.741 Y150.95 I28.264 J-27.73
X-211.365 Y139.355 I0 J-40.517
X-199.5 Y111.091 I-27.73 J-28.264
X-211.095 Y82.715 I-40.517 J0
X-239.359 Y70.85 I-28.264 J27.73
X-267.735 Y82.445 I0 J40.517
X-279.6 Y110.709 I27.73 J28.264
X-278.149 Y112.846 I2.299 J0
G3 X-276.584 Y114.902 I-0.922 J2.325
G2 X-239.741 Y148.15 I37.035 J-4.002
G1 X-239.55
G2 X-239.55 Y73.65 I0 J-37.25
X-276.8 Y110.9 I0 J37.25
X-276.584 Y114.902 I37.25 J0
G3 X-279.171 Y115.869 Z-5.809 I-1.417 J0.153 F333.3
G1 X-282.195 Y111.523 Z-6.103
G3 X-279.855 Y109.895 Z-6.352 I1.17 J-0.814
X-279.6 Y110.709 Z-6.4 I-1.17 J0.814
G2 X-268.005 Y139.085 I40.517 J0 F700
X-239.741 Y150.95 I28.264 J-27.73
X-211.365 Y139.355 I0 J-40.517
X-199.5 Y111.091 I-27.73 J-28.264
X-211.095 Y82.715 I-40.517 J0
X-239.359 Y70.85 I-28.264 J27.73
X-267.735 Y82.445 I0 J40.517
X-279.6 Y110.709 I27.73 J28.264
X-278.149 Y112.846 I2.299 J0
G3 X-276.584 Y114.902 I-0.922 J2.325
G2 X-239.741 Y148.15 I37.035 J-4.002
G1 X-239.55
G2 X-239.55 Y73.65 I0 J-37.25
X-276.8 Y110.9 I0 J37.25
X-276.584 Y114.902 I37.25 J0
G3 X-279.171 Y115.869 Z-6.609 I-1.417 J0.153 F333.3
G1 X-282.195 Y111.523 Z-6.903
G3 X-279.855 Y109.895 Z-7.152 I1.17 J-0.814
X-279.6 Y110.709 Z-7.2 I-1.17 J0.814
G2 X-268.005 Y139.085 I40.517 J0 F700
X-239.741 Y150.95 I28.264 J-27.73
X-211.365 Y139.355 I0 J-40.517
X-199.5 Y111.091 I-27.73 J-28.264
X-211.095 Y82.715 I-40.517 J0
X-239.359 Y70.85 I-28.264 J27.73
X-267.735 Y82.445 I0 J40.517
X-279.6 Y110.709 I27.73 J28.264
X-278.149 Y112.846 I2.299 J0
G3 X-276.584 Y114.902 I-0.922 J2.325
G2 X-239.741 Y148.15 I37.035 J-4.002
G1 X-239.55
G2 X-239.55 Y73.65 I0 J-37.25
X-276.8 Y110.9 I0 J37.25
X-276.584 Y114.902 I37.25 J0
G3 X-279.171 Y115.869 Z-7.409 I-1.417 J0.153 F333.3
G1 X-282.195 Y111.523 Z-7.703
G3 X-279.855 Y109.895 Z-7.952 I1.17 J-0.814
X-279.6 Y110.709 Z-8 I-1.17 J0.814
G2 X-268.005 Y139.085 I40.517 J0 F700
X-239.741 Y150.95 I28.264 J-27.73
X-211.365 Y139.355 I0 J-40.517
X-199.5 Y111.091 I-27.73 J-28.264
X-211.095 Y82.715 I-40.517 J0
X-239.359 Y70.85 I-28.264 J27.73
X-267.735 Y82.445 I0 J40.517
X-279.6 Y110.709 I27.73 J28.264
X-278.149 Y112.846 I2.299 J0
G3 X-276.584 Y114.902 I-0.922 J2.325
G2 X-239.741 Y148.15 I37.035 J-4.002
G1 X-239.55
G2 X-239.55 Y73.65 I0 J-37.25
X-276.8 Y110.9 I0 J37.25
X-276.584 Y114.902 I37.25 J0
G3 X-279.171 Y115.869 Z-8.209 I-1.417 J0.153 F333.3
G1 X-282.195 Y111.523 Z-8.503
G3 X-279.855 Y109.895 Z-8.752 I1.17 J-0.814
X-279.6 Y110.709 Z-8.8 I-1.17 J0.814
G2 X-268.005 Y139.085 I40.517 J0 F700
X-239.741 Y150.95 I28.264 J-27.73
X-211.365 Y139.355 I0 J-40.517
X-199.5 Y111.091 I-27.73 J-28.264
X-211.095 Y82.715 I-40.517 J0
X-239.359 Y70.85 I-28.264 J27.73
X-267.735 Y82.445 I0 J40.517
X-279.6 Y110.709 I27.73 J28.264
X-278.149 Y112.846 I2.299 J0
G3 X-276.584 Y114.902 I-0.922 J2.325
G2 X-239.741 Y148.15 I37.035 J-4.002
G1 X-239.55
G2 X-239.55 Y73.65 I0 J-37.25
X-276.8 Y110.9 I0 J37.25
X-276.584 Y114.902 I37.25 J0
G3 X-279.171 Y115.869 Z-9.009 I-1.417 J0.153 F333.3
G1 X-282.195 Y111.523 Z-9.303
G3 X-279.855 Y109.895 Z-9.552 I1.17 J-0.814
X-279.6 Y110.709 Z-9.6 I-1.17 J0.814
G2 X-268.005 Y139.085 I40.517 J0 F700
X-239.741 Y150.95 I28.264 J-27.73
X-211.365 Y139.355 I0 J-40.517
X-199.5 Y111.091 I-27.73 J-28.264
X-211.095 Y82.715 I-40.517 J0
X-239.359 Y70.85 I-28.264 J27.73
X-267.735 Y82.445 I0 J40.517
X-279.6 Y110.709 I27.73 J28.264
X-278.149 Y112.846 I2.299 J0
G3 X-276.584 Y114.902 I-0.922 J2.325
G2 X-239.741 Y148.15 I37.035 J-4.002
G1 X-239.55
G2 X-239.55 Y73.65 I0 J-37.25
X-276.8 Y110.9 I0 J37.25
X-276.584 Y114.902 I37.25 J0
G3 X-279.171 Y115.869 Z-9.809 I-1.417 J0.153 F333.3
G1 X-282.195 Y111.523 Z-10.103
G3 X-279.855 Y109.895 Z-10.352 I1.17 J-0.814
X-279.6 Y110.709 Z-10.4 I-1.17 J0.814
G2 X-268.005 Y139.085 I40.517 J0 F700
X-239.741 Y150.95 I28.264 J-27.73
X-211.365 Y139.355 I0 J-40.517
X-199.5 Y111.091 I-27.73 J-28.264
X-211.095 Y82.715 I-40.517 J0
X-239.359 Y70.85 I-28.264 J27.73
X-267.735 Y82.445 I0 J40.517
X-279.6 Y110.709 I27.73 J28.264
X-278.149 Y112.846 I2.299 J0
G3 X-276.584 Y114.902 I-0.922 J2.325
G2 X-239.741 Y148.15 I37.035 J-4.002
G1 X-239.55
G2 X-239.55 Y73.65 I0 J-37.25
X-276.8 Y110.9 I0 J37.25
X-276.584 Y114.902 I37.25 J0
G3 X-279.171 Y115.869 Z-10.609 I-1.417 J0.153 F333.3
G1 X-282.195 Y111.523 Z-10.903
G3 X-279.855 Y109.895 Z-11.152 I1.17 J-0.814
X-279.6 Y110.709 Z-11.2 I-1.17 J0.814
G2 X-268.005 Y139.085 I40.517 J0 F700
X-239.741 Y150.95 I28.264 J-27.73
X-211.365 Y139.355 I0 J-40.517
X-199.5 Y111.091 I-27.73 J-28.264
X-211.095 Y82.715 I-40.517 J0
X-239.359 Y70.85 I-28.264 J27.73
X-267.735 Y82.445 I0 J40.517
X-279.6 Y110.709 I27.73 J28.264
X-278.149 Y112.846 I2.299 J0
G3 X-276.584 Y114.902 I-0.922 J2.325
G2 X-239.741 Y148.15 I37.035 J-4.002
G1 X-239.55
G2 X-239.55 Y73.65 I0 J-37.25
X-276.8 Y110.9 I0 J37.25
X-276.584 Y114.902 I37.25 J0
G3 X-279.171 Y115.869 Z-11.409 I-1.417 J0.153 F333.3
G1 X-282.195 Y111.523 Z-11.703
G3 X-279.855 Y109.895 Z-11.952 I1.17 J-0.814
X-279.6 Y110.709 Z-12 I-1.17 J0.814
G2 X-268.005 Y139.085 I40.517 J0 F700
X-239.741 Y150.95 I28.264 J-27.73
X-211.365 Y139.355 I0 J-40.517
X-199.5 Y111.091 I-27.73 J-28.264
X-211.095 Y82.715 I-40.517 J0
X-239.359 Y70.85 I-28.264 J27.73
X-267.735 Y82.445 I0 J40.517
X-279.6 Y110.709 I27.73 J28.264
X-278.149 Y112.846 I2.299 J0
G3 X-276.584 Y114.902 I-0.922 J2.325
G2 X-239.741 Y148.15 I37.035 J-4.002
G1 X-239.55
G2 X-239.55 Y73.65 I0 J-37.25
X-276.8 Y110.9 I0 J37.25
X-276.584 Y114.902 I37.25 J0
G3 X-279.171 Y115.869 Z-12.131 I-1.417 J0.153 F333.3
G1 X-282.195 Y111.523 Z-12.314
G3 X-279.855 Y109.895 Z-12.47 I1.17 J-0.814
X-279.6 Y110.709 Z-12.5 I-1.17 J0.814
G2 X-268.005 Y139.085 I40.517 J0 F700
X-239.741 Y150.95 I28.264 J-27.73
X-211.365 Y139.355 I0 J-40.517
X-199.5 Y111.091 I-27.73 J-28.264
X-211.095 Y82.715 I-40.517 J0
X-239.359 Y70.85 I-28.264 J27.73
X-267.735 Y82.445 I0 J40.517
X-279.6 Y110.709 I27.73 J28.264
X-278.149 Y112.846 I2.299 J0
G3 X-276.584 Y114.902 I-0.922 J2.325
G2 X-239.741 Y148.15 I37.035 J-4.002
G1 X-239.55
G2 X-239.55 Y73.65 I0 J-37.25
X-276.8 Y110.9 I0 J37.25
X-276.584 Y114.902 I37.25 J0
G3 X-279.171 Y115.869 Z-12.631 I-1.417 J0.153 F333.3
G1 X-282.195 Y111.523 Z-12.814
G3 X-279.855 Y109.895 Z-12.97 I1.17 J-0.814
X-279.6 Y110.709 Z-13 I-1.17 J0.814
G2 X-268.005 Y139.085 I40.517 J0 F700
X-239.741 Y150.95 I28.264 J-27.73
X-211.365 Y139.355 I0 J-40.517
X-199.5 Y111.091 I-27.73 J-28.264
X-211.095 Y82.715 I-40.517 J0
X-239.359 Y70.85 I-28.264 J27.73
X-267.735 Y82.445 I0 J40.517
X-279.6 Y110.709 I27.73 J28.264
X-278.149 Y112.846 I2.299 J0
G3 X-276.584 Y114.902 I-0.922 J2.325
G2 X-239.741 Y148.15 I37.035 J-4.002
G1 X-239.55
G2 X-239.55 Y73.65 I0 J-37.25
X-276.8 Y110.9 I0 J37.25
X-276.584 Y114.902 I37.25 J0
G0 Z7
X-196.386 Y125.15
Z2
G1 Z1.8 F700
Z-0.8
G3 X-195.938 Y126.039 I-5.428 J3.291
G2 X-187.355 Y139.085 I37.505 J-15.33
X-159.091 Y150.95 I28.264 J-27.73
X-130.715 Y139.355 I0 J-40.517
X-118.85 Y111.091 I-27.73 J-28.264
X-130.445 Y82.715 I-40.517 J0
X-158.709 Y70.85 I-28.264 J27.73
X-187.085 Y82.445 I0 J40.517
X-198.95 Y110.709 I27.73 J28.264
X-195.938 Y126.039 I40.517 J0
X-193.808 Y127.447 I2.097 J-0.857
G3 X-191.603 Y128.735 I0.036 J2.47
G2 X-159.091 Y148.15 I32.703 J-17.834
G1 X-158.9
G2 X-158.9 Y73.65 I0 J-37.25
X-196.15 Y110.9 I0 J37.25
X-191.603 Y128.735 I37.25 J0
G3 X-192.246 Y130.706 Z-0.862 I-1.251 J0.682 F333.3
X-194.176 Y129.948 Z-0.925 I-0.608 J-1.289
G1 X-201.697 Y111.241 Z-1.465
G3 X-199.053 Y110.177 Z-1.585 I1.322 J-0.532
X-198.95 Y110.709 Z-1.6 I-1.322 J0.532
G2 X-187.355 Y139.085 I40.517 J0 F700
X-159.091 Y150.95 I28.264 J-27.73
X-130.715 Y139.355 I0 J-40.517
X-118.85 Y111.091 I-27.73 J-28.264
X-130.445 Y82.715 I-40.517 J0
X-158.709 Y70.85 I-28.264 J27.73
X-187.085 Y82.445 I0 J40.517
X-198.95 Y110.709 I27.73 J28.264
X-197.499 Y112.846 I2.299 J0
G3 X-195.934 Y114.902 I-0.922 J2.325
G2 X-159.091 Y148.15 I37.035 J-4.002
G1 X-158.9
G2 X-158.9 Y73.65 I0 J-37.25
X-196.15 Y110.9 I0 J37.25
X-195.934 Y114.902 I37.25 J0
G3 X-198.521 Y115.869 Z-1.809 I-1.417 J0.153 F333.3
G1 X-201.545 Y111.523 Z-2.103
G3 X-199.205 Y109.895 Z-2.352 I1.17 J-0.814
X-198.95 Y110.709 Z-2.4 I-1.17 J0.814
G2 X-187.355 Y139.085 I40.517 J0 F700
X-159.091 Y150.95 I28.264 J-27.73
X-130.715 Y139.355 I0 J-40.517
X-118.85 Y111.091 I-27.73 J-28.264
X-130.445 Y82.715 I-40.517 J0
X-158.709 Y70.85 I-28.264 J27.73
X-187.085 Y82.445 I0 J40.517
X-198.95 Y110.709 I27.73 J28.264
X-197.499 Y112.846 I2.299 J0
G3 X-195.934 Y114.902 I-0.922 J2.325
G2 X-159.091 Y148.15 I37.035 J-4.002
G1 X-158.9
G2 X-158.9 Y73.65 I0 J-37.25
X-196.15 Y110.9 I0 J37.25
X-195.934 Y114.902 I37.25 J0
G3 X-198.521 Y115.869 Z-2.609 I-1.417 J0.153 F333.3
G1 X-201.545 Y111.523 Z-2.903
G3 X-199.205 Y109.895 Z-3.152 I1.17 J-0.814
X-198.95 Y110.709 Z-3.2 I-1.17 J0.814
G2 X-187.355 Y139.085 I40.517 J0 F700
X-159.091 Y150.95 I28.264 J-27.73
X-130.715 Y139.355 I0 J-40.517
X-118.85 Y111.091 I-27.73 J-28.264
X-130.445 Y82.715 I-40.517 J0
X-158.709 Y70.85 I-28.264 J27.73
X-187.085 Y82.445 I0 J40.517
X-198.95 Y110.709 I27.73 J28.264
X-197.499 Y112.846 I2.299 J0
G3 X-195.934 Y114.902 I-0.922 J2.325
G2 X-159.091 Y148.15 I37.035 J-4.002
G1 X-158.9
G2 X-158.9 Y73.65 I0 J-37.25
X-196.15 Y110.9 I0 J37.25
X-195.934 Y114.902 I37.25 J0
G3 X-198.521 Y115.869 Z-3.409 I-1.417 J0.153 F333.3
G1 X-201.545 Y111.523 Z-3.703
G3 X-199.205 Y109.895 Z-3.952 I1.17 J-0.814
X-198.95 Y110.709 Z-4 I-1.17 J0.814
G2 X-187.355 Y139.085 I40.517 J0 F700
X-159.091 Y150.95 I28.264 J-27.73
X-130.715 Y139.355 I0 J-40.517
X-118.85 Y111.091 I-27.73 J-28.264
X-130.445 Y82.715 I-40.517 J0
X-158.709 Y70.85 I-28.264 J27.73
X-187.085 Y82.445 I0 J40.517
X-198.95 Y110.709 I27.73 J28.264
X-197.499 Y112.846 I2.299 J0
G3 X-195.934 Y114.902 I-0.922 J2.325
G2 X-159.091 Y148.15 I37.035 J-4.002
G1 X-158.9
G2 X-158.9 Y73.65 I0 J-37.25
X-196.15 Y110.9 I0 J37.25
X-195.934 Y114.902 I37.25 J0
G3 X-198.521 Y115.869 Z-4.209 I-1.417 J0.153 F333.3
G1 X-201.545 Y111.523 Z-4.503
G3 X-199.205 Y109.895 Z-4.752 I1.17 J-0.814
X-198.95 Y110.709 Z-4.8 I-1.17 J0.814
G2 X-187.355 Y139.085 I40.517 J0 F700
X-159.091 Y150.95 I28.264 J-27.73
X-130.715 Y139.355 I0 J-40.517
X-118.85 Y111.091 I-27.73 J-28.264
X-130.445 Y82.715 I-40.517 J0
X-158.709 Y70.85 I-28.264 J27.73
X-187.085 Y82.445 I0 J40.517
X-198.95 Y110.709 I27.73 J28.264
X-197.499 Y112.846 I2.299 J0
G3 X-195.934 Y114.902 I-0.922 J2.325
G2 X-159.091 Y148.15 I37.035 J-4.002
G1 X-158.9
G2 X-158.9 Y73.65 I0 J-37.25
X-196.15 Y110.9 I0 J37.25
X-195.934 Y114.902 I37.25 J0
G3 X-198.521 Y115.869 Z-5.009 I-1.417 J0.153 F333.3
G1 X-201.545 Y111.523 Z-5.303
G3 X-199.205 Y109.895 Z-5.552 I1.17 J-0.814
X-198.95 Y110.709 Z-5.6 I-1.17 J0.814
G2 X-187.355 Y139.085 I40.517 J0 F700
X-159.091 Y150.95 I28.264 J-27.73
X-130.715 Y139.355 I0 J-40.517
X-118.85 Y111.091 I-27.73 J-28.264
X-130.445 Y82.715 I-40.517 J0
X-158.709 Y70.85 I-28.264 J27.73
X-187.085 Y82.445 I0 J40.517
X-198.95 Y110.709 I27.73 J28.264
X-197.499 Y112.846 I2.299 J0
G3 X-195.934 Y114.902 I-0.922 J2.325
G2 X-159.091 Y148.15 I37.035 J-4.002
G1 X-158.9
G2 X-158.9 Y73.65 I0 J-37.25
X-196.15 Y110.9 I0 J37.25
X-195.934 Y114.902 I37.25 J0
G3 X-198.521 Y115.869 Z-5.809 I-1.417 J0.153 F333.3
G1 X-201.545 Y111.523 Z-6.103
G3 X-199.205 Y109.895 Z-6.352 I1.17 J-0.814
X-198.95 Y110.709 Z-6.4 I-1.17 J0.814
G2 X-187.355 Y139.085 I40.517 J0 F700
X-159.091 Y150.95 I28.264 J-27.73
X-130.715 Y139.355 I0 J-40.517
X-118.85 Y111.091 I-27.73 J-28.264
X-130.445 Y82.715 I-40.517 J0
X-158.709 Y70.85 I-28.264 J27.73
X-187.085 Y82.445 I0 J40.517
X-198.95 Y110.709 I27.73 J28.264
X-197.499 Y112.846 I2.299 J0
G3 X-195.934 Y114.902 I-0.922 J2.325
G2 X-159.091 Y148.15 I37.035 J-4.002
G1 X-158.9
G2 X-158.9 Y73.65 I0 J-37.25
X-196.15 Y110.9 I0 J37.25
X-195.934 Y114.902 I37.25 J0
G3 X-198.521 Y115.869 Z-6.609 I-1.417 J0.153 F333.3
G1 X-201.545 Y111.523 Z-6.903
G3 X-199.205 Y109.895 Z-7.152 I1.17 J-0.814
X-198.95 Y110.709 Z-7.2 I-1.17 J0.814
G2 X-187.355 Y139.085 I40.517 J0 F700
X-159.091 Y150.95 I28.264 J-27.73
X-130.715 Y139.355 I0 J-40.517
X-118.85 Y111.091 I-27.73 J-28.264
X-130.445 Y82.715 I-40.517 J0
X-158.709 Y70.85 I-28.264 J27.73
X-187.085 Y82.445 I0 J40.517
X-198.95 Y110.709 I27.73 J28.264
X-197.499 Y112.846 I2.299 J0
G3 X-195.934 Y114.902 I-0.922 J2.325
G2 X-159.091 Y148.15 I37.035 J-4.002
G1 X-158.9
G2 X-158.9 Y73.65 I0 J-37.25
X-196.15 Y110.9 I0 J37.25
X-195.934 Y114.902 I37.25 J0
G3 X-198.521 Y115.869 Z-7.409 I-1.417 J0.153 F333.3
G1 X-201.545 Y111.523 Z-7.703
G3 X-199.205 Y109.895 Z-7.952 I1.17 J-0.814
X-198.95 Y110.709 Z-8 I-1.17 J0.814
G2 X-187.355 Y139.085 I40.517 J0 F700
X-159.091 Y150.95 I28.264 J-27.73
X-130.715 Y139.355 I0 J-40.517
X-118.85 Y111.091 I-27.73 J-28.264
X-130.445 Y82.715 I-40.517 J0
X-158.709 Y70.85 I-28.264 J27.73
X-187.085 Y82.445 I0 J40.517
X-198.95 Y110.709 I27.73 J28.264
X-197.499 Y112.846 I2.299 J0
G3 X-195.934 Y114.902 I-0.922 J2.325
G2 X-159.091 Y148.15 I37.035 J-4.002
G1 X-158.9
G2 X-158.9 Y73.65 I0 J-37.25
X-196.15 Y110.9 I0 J37.25
X-195.934 Y114.902 I37.25 J0
G3 X-198.521 Y115.869 Z-8.209 I-1.417 J0.153 F333.3
G1 X-201.545 Y111.523 Z-8.503
G3 X-199.205 Y109.895 Z-8.752 I1.17 J-0.814
X-198.95 Y110.709 Z-8.8 I-1.17 J0.814
G2 X-187.355 Y139.085 I40.517 J0 F700
X-159.091 Y150.95 I28.264 J-27.73
X-130.715 Y139.355 I0 J-40.517
X-118.85 Y111.091 I-27.73 J-28.264
X-130.445 Y82.715 I-40.517 J0
X-158.709 Y70.85 I-28.264 J27.73
X-187.085 Y82.445 I0 J40.517
X-198.95 Y110.709 I27.73 J28.264
X-197.499 Y112.846 I2.299 J0
G3 X-195.934 Y114.902 I-0.922 J2.325
G2 X-159.091 Y148.15 I37.035 J-4.002
G1 X-158.9
G2 X-158.9 Y73.65 I0 J-37.25
X-196.15 Y110.9 I0 J37.25
X-195.934 Y114.902 I37.25 J0
G3 X-198.521 Y115.869 Z-9.009 I-1.417 J0.153 F333.3
G1 X-201.545 Y111.523 Z-9.303
G3 X-199.205 Y109.895 Z-9.552 I1.17 J-0.814
X-198.95 Y110.709 Z-9.6 I-1.17 J0.814
G2 X-187.355 Y139.085 I40.517 J0 F700
X-159.091 Y150.95 I28.264 J-27.73
X-130.715 Y139.355 I0 J-40.517
X-118.85 Y111.091 I-27.73 J-28.264
X-130.445 Y82.715 I-40.517 J0
X-158.709 Y70.85 I-28.264 J27.73
X-187.085 Y82.445 I0 J40.517
X-198.95 Y110.709 I27.73 J28.264
X-197.499 Y112.846 I2.299 J0
G3 X-195.934 Y114.902 I-0.922 J2.325
G2 X-159.091 Y148.15 I37.035 J-4.002
G1 X-158.9
G2 X-158.9 Y73.65 I0 J-37.25
X-196.15 Y110.9 I0 J37.25
X-195.934 Y114.902 I37.25 J0
G3 X-198.521 Y115.869 Z-9.809 I-1.417 J0.153 F333.3
G1 X-201.545 Y111.523 Z-10.103
G3 X-199.205 Y109.895 Z-10.352 I1.17 J-0.814
X-198.95 Y110.709 Z-10.4 I-1.17 J0.814
G2 X-187.355 Y139.085 I40.517 J0 F700
X-159.091 Y150.95 I28.264 J-27.73
X-130.715 Y139.355 I0 J-40.517
X-118.85 Y111.091 I-27.73 J-28.264
X-130.445 Y82.715 I-40.517 J0
X-158.709 Y70.85 I-28.264 J27.73
X-187.085 Y82.445 I0 J40.517
X-198.95 Y110.709 I27.73 J28.264
X-197.499 Y112.846 I2.299 J0
G3 X-195.934 Y114.902 I-0.922 J2.325
G2 X-159.091 Y148.15 I37.035 J-4.002
G1 X-158.9
G2 X-158.9 Y73.65 I0 J-37.25
X-196.15 Y110.9 I0 J37.25
X-195.934 Y114.902 I37.25 J0
G3 X-198.521 Y115.869 Z-10.609 I-1.417 J0.153 F333.3
G1 X-201.545 Y111.523 Z-10.903
G3 X-199.205 Y109.895 Z-11.152 I1.17 J-0.814
X-198.95 Y110.709 Z-11.2 I-1.17 J0.814
G2 X-187.355 Y139.085 I40.517 J0 F700
X-159.091 Y150.95 I28.264 J-27.73
X-130.715 Y139.355 I0 J-40.517
X-118.85 Y111.091 I-27.73 J-28.264
X-130.445 Y82.715 I-40.517 J0
X-158.709 Y70.85 I-28.264 J27.73
X-187.085 Y82.445 I0 J40.517
X-198.95 Y110.709 I27.73 J28.264
X-197.499 Y112.846 I2.299 J0
G3 X-195.934 Y114.902 I-0.922 J2.325
G2 X-159.091 Y148.15 I37.035 J-4.002
G1 X-158.9
G2 X-158.9 Y73.65 I0 J-37.25
X-196.15 Y110.9 I0 J37.25
X-195.934 Y114.902 I37.25 J0
G3 X-198.521 Y115.869 Z-11.409 I-1.417 J0.153 F333.3
G1 X-201.545 Y111.523 Z-11.703
G3 X-199.205 Y109.895 Z-11.952 I1.17 J-0.814
X-198.95 Y110.709 Z-12 I-1.17 J0.814
G2 X-187.355 Y139.085 I40.517 J0 F700
X-159.091 Y150.95 I28.264 J-27.73
X-130.715 Y139.355 I0 J-40.517
X-118.85 Y111.091 I-27.73 J-28.264
X-130.445 Y82.715 I-40.517 J0
X-158.709 Y70.85 I-28.264 J27.73
X-187.085 Y82.445 I0 J40.517
X-198.95 Y110.709 I27.73 J28.264
X-197.499 Y112.846 I2.299 J0
G3 X-195.934 Y114.902 I-0.922 J2.325
G2 X-159.091 Y148.15 I37.035 J-4.002
G1 X-158.9
G2 X-158.9 Y73.65 I0 J-37.25
X-196.15 Y110.9 I0 J37.25
X-195.934 Y114.902 I37.25 J0
G3 X-198.521 Y115.869 Z-12.131 I-1.417 J0.153 F333.3
G1 X-201.545 Y111.523 Z-12.314
G3 X-199.205 Y109.895 Z-12.47 I1.17 J-0.814
X-198.95 Y110.709 Z-12.5 I-1.17 J0.814
G2 X-187.355 Y139.085 I40.517 J0 F700
X-159.091 Y150.95 I28.264 J-27.73
X-130.715 Y139.355 I0 J-40.517
X-118.85 Y111.091 I-27.73 J-28.264
X-130.445 Y82.715 I-40.517 J0
X-158.709 Y70.85 I-28.264 J27.73
X-187.085 Y82.445 I0 J40.517
X-198.95 Y110.709 I27.73 J28.264
X-197.499 Y112.846 I2.299 J0
G3 X-195.934 Y114.902 I-0.922 J2.325
G2 X-159.091 Y148.15 I37.035 J-4.002
G1 X-158.9
G2 X-158.9 Y73.65 I0 J-37.25
X-196.15 Y110.9 I0 J37.25
X-195.934 Y114.902 I37.25 J0
G3 X-198.521 Y115.869 Z-12.631 I-1.417 J0.153 F333.3
G1 X-201.545 Y111.523 Z-12.814
G3 X-199.205 Y109.895 Z-12.97 I1.17 J-0.814
X-198.95 Y110.709 Z-13 I-1.17 J0.814
G2 X-187.355 Y139.085 I40.517 J0 F700
X-159.091 Y150.95 I28.264 J-27.73
X-130.715 Y139.355 I0 J-40.517
X-118.85 Y111.091 I-27.73 J-28.264
X-130.445 Y82.715 I-40.517 J0
X-158.709 Y70.85 I-28.264 J27.73
X-187.085 Y82.445 I0 J40.517
X-198.95 Y110.709 I27.73 J28.264
X-197.499 Y112.846 I2.299 J0
G3 X-195.934 Y114.902 I-0.922 J2.325
G2 X-159.091 Y148.15 I37.035 J-4.002
G1 X-158.9
G2 X-158.9 Y73.65 I0 J-37.25
X-196.15 Y110.9 I0 J37.25
X-195.934 Y114.902 I37.25 J0
G0 Z7
X-115.736 Y125.15
Z2
G1 Z1.8 F700
Z-0.8
G3 X-115.288 Y126.04 I-5.428 J3.291
G2 X-106.705 Y139.085 I37.505 J-15.331
X-78.441 Y150.95 I28.264 J-27.73
G1 X-78.25
G2 X-38.2 Y110.709 I0 J-40.05
X-49.93 Y82.58 I-39.592 J0
X-118.3 Y110.709 I-28.32 J28.32
X-115.288 Y126.04 I40.517 J0
X-113.158 Y127.448 I2.097 J-0.857
G3 X-110.953 Y128.735 I0.036 J2.47
G2 X-78.441 Y148.15 I32.703 J-17.835
G1 X-78.25
G2 X-78.25 Y73.65 I0 J-37.25
X-115.5 Y110.9 I0 J37.25
X-110.953 Y128.735 I37.25 J0
G3 X-111.596 Y130.706 Z-0.862 I-1.251 J0.682 F333.3
X-113.526 Y129.949 Z-0.925 I-0.608 J-1.289
G1 X-121.047 Y111.241 Z-1.465
G3 X-118.403 Y110.177 Z-1.585 I1.322 J-0.532
X-118.3 Y110.709 Z-1.6 I-1.322 J0.532
G2 X-106.705 Y139.085 I40.517 J0 F700
X-78.441 Y150.95 I28.264 J-27.73
G1 X-78.25
G2 X-38.2 Y110.709 I0 J-40.05
X-49.93 Y82.58 I-39.592 J0
X-118.3 Y110.709 I-28.32 J28.32
X-116.851 Y112.855 I2.297 J0.011
G3 X-115.283 Y114.915 I-0.925 J2.331
G2 X-78.441 Y148.15 I37.033 J-4.015
G1 X-78.25
G2 X-78.25 Y73.65 I0 J-37.25
X-115.5 Y110.9 I0 J37.25
X-115.283 Y114.915 I37.25 J0
G3 X-117.87 Y115.881 Z-1.809 I-1.417 J0.154 F333.3
G1 X-120.896 Y111.521 Z-2.104
G3 X-118.554 Y109.897 Z-2.352 I1.171 J-0.812
X-118.3 Y110.709 Z-2.4 I-1.171 J0.812
G2 X-106.705 Y139.085 I40.517 J0 F700
X-78.441 Y150.95 I28.264 J-27.73
G1 X-78.25
G2 X-38.2 Y110.709 I0 J-40.05
X-49.93 Y82.58 I-39.592 J0
X-118.3 Y110.709 I-28.32 J28.32
X-116.851 Y112.855 I2.297 J0.011
G3 X-115.283 Y114.915 I-0.925 J2.331
G2 X-78.441 Y148.15 I37.033 J-4.015
G1 X-78.25
G2 X-78.25 Y73.65 I0 J-37.25
X-115.5 Y110.9 I0 J37.25
X-115.283 Y114.915 I37.25 J0
G3 X-117.87 Y115.881 Z-2.609 I-1.417 J0.154 F333.3
G1 X-120.896 Y111.521 Z-2.904
G3 X-118.554 Y109.897 Z-3.152 I1.171 J-0.812
X-118.3 Y110.709 Z-3.2 I-1.171 J0.812
G2 X-106.705 Y139.085 I40.517 J0 F700
X-78.441 Y150.95 I28.264 J-27.73
G1 X-78.25
G2 X-38.2 Y110.709 I0 J-40.05
X-49.93 Y82.58 I-39.592 J0
X-118.3 Y110.709 I-28.32 J28.32
X-116.851 Y112.855 I2.297 J0.011
G3 X-115.283 Y114.915 I-0.925 J2.331
G2 X-78.441 Y148.15 I37.033 J-4.015
G1 X-78.25
G2 X-78.25 Y73.65 I0 J-37.25
X-115.5 Y110.9 I0 J37.25
X-115.283 Y114.915 I37.25 J0
G3 X-117.87 Y115.881 Z-3.409 I-1.417 J0.154 F333.3
G1 X-120.896 Y111.521 Z-3.704
G3 X-118.554 Y109.897 Z-3.952 I1.171 J-0.812
X-118.3 Y110.709 Z-4 I-1.171 J0.812
G2 X-106.705 Y139.085 I40.517 J0 F700
X-78.441 Y150.95 I28.264 J-27.73
G1 X-78.25
G2 X-38.2 Y110.709 I0 J-40.05
X-49.93 Y82.58 I-39.592 J0
X-118.3 Y110.709 I-28.32 J28.32
X-116.851 Y112.855 I2.297 J0.011
G3 X-115.283 Y114.915 I-0.925 J2.331
G2 X-78.441 Y148.15 I37.033 J-4.015
G1 X-78.25
G2 X-78.25 Y73.65 I0 J-37.25
X-115.5 Y110.9 I0 J37.25
X-115.283 Y114.915 I37.25 J0
G3 X-117.87 Y115.881 Z-4.209 I-1.417 J0.154 F333.3
G1 X-120.896 Y111.521 Z-4.504
G3 X-118.554 Y109.897 Z-4.752 I1.171 J-0.812
X-118.3 Y110.709 Z-4.8 I-1.171 J0.812
G2 X-106.705 Y139.085 I40.517 J0 F700
X-78.441 Y150.95 I28.264 J-27.73
G1 X-78.25
G2 X-38.2 Y110.709 I0 J-40.05
X-49.93 Y82.58 I-39.592 J0
X-118.3 Y110.709 I-28.32 J28.32
X-116.851 Y112.855 I2.297 J0.011
G3 X-115.283 Y114.915 I-0.925 J2.331
G2 X-78.441 Y148.15 I37.033 J-4.015
G1 X-78.25
G2 X-78.25 Y73.65 I0 J-37.25
X-115.5 Y110.9 I0 J37.25
X-115.283 Y114.915 I37.25 J0
G3 X-117.87 Y115.881 Z-5.009 I-1.417 J0.154 F333.3
G1 X-120.896 Y111.521 Z-5.304
G3 X-118.554 Y109.897 Z-5.552 I1.171 J-0.812
X-118.3 Y110.709 Z-5.6 I-1.171 J0.812
G2 X-106.705 Y139.085 I40.517 J0 F700
X-78.441 Y150.95 I28.264 J-27.73
G1 X-78.25
G2 X-38.2 Y110.709 I0 J-40.05
X-49.93 Y82.58 I-39.592 J0
X-118.3 Y110.709 I-28.32 J28.32
X-116.851 Y112.855 I2.297 J0.011
G3 X-115.283 Y114.915 I-0.925 J2.331
G2 X-78.441 Y148.15 I37.033 J-4.015
G1 X-78.25
G2 X-78.25 Y73.65 I0 J-37.25
X-115.5 Y110.9 I0 J37.25
X-115.283 Y114.915 I37.25 J0
G3 X-117.87 Y115.881 Z-5.809 I-1.417 J0.154 F333.3
G1 X-120.896 Y111.521 Z-6.104
G3 X-118.554 Y109.897 Z-6.352 I1.171 J-0.812
X-118.3 Y110.709 Z-6.4 I-1.171 J0.812
G2 X-106.705 Y139.085 I40.517 J0 F700
X-78.441 Y150.95 I28.264 J-27.73
G1 X-78.25
G2 X-38.2 Y110.709 I0 J-40.05
X-49.93 Y82.58 I-39.592 J0
X-118.3 Y110.709 I-28.32 J28.32
X-116.851 Y112.855 I2.297 J0.011
G3 X-115.283 Y114.915 I-0.925 J2.331
G2 X-78.441 Y148.15 I37.033 J-4.015
G1 X-78.25
G2 X-78.25 Y73.65 I0 J-37.25
X-115.5 Y110.9 I0 J37.25
X-115.283 Y114.915 I37.25 J0
G3 X-117.87 Y115.881 Z-6.609 I-1.417 J0.154 F333.3
G1 X-120.896 Y111.521 Z-6.904
G3 X-118.554 Y109.897 Z-7.152 I1.171 J-0.812
X-118.3 Y110.709 Z-7.2 I-1.171 J0.812
G2 X-106.705 Y139.085 I40.517 J0 F700
X-78.441 Y150.95 I28.264 J-27.73
G1 X-78.25
G2 X-38.2 Y110.709 I0 J-40.05
X-49.93 Y82.58 I-39.592 J0
X-118.3 Y110.709 I-28.32 J28.32
X-116.851 Y112.855 I2.297 J0.011
G3 X-115.283 Y114.915 I-0.925 J2.331
G2 X-78.441 Y148.15 I37.033 J-4.015
G1 X-78.25
G2 X-78.25 Y73.65 I0 J-37.25
X-115.5 Y110.9 I0 J37.25
X-115.283 Y114.915 I37.25 J0
G3 X-117.87 Y115.881 Z-7.409 I-1.417 J0.154 F333.3
G1 X-120.896 Y111.521 Z-7.704
G3 X-118.554 Y109.897 Z-7.952 I1.171 J-0.812
X-118.3 Y110.709 Z-8 I-1.171 J0.812
G2 X-106.705 Y139.085 I40.517 J0 F700
X-78.441 Y150.95 I28.264 J-27.73
G1 X-78.25
G2 X-38.2 Y110.709 I0 J-40.05
X-49.93 Y82.58 I-39.592 J0
X-118.3 Y110.709 I-28.32 J28.32
X-116.851 Y112.855 I2.297 J0.011
G3 X-115.283 Y114.915 I-0.925 J2.331
G2 X-78.441 Y148.15 I37.033 J-4.015
G1 X-78.25
G2 X-78.25 Y73.65 I0 J-37.25
X-115.5 Y110.9 I0 J37.25
X-115.283 Y114.915 I37.25 J0
G3 X-117.87 Y115.881 Z-8.209 I-1.417 J0.154 F333.3
G1 X-120.896 Y111.521 Z-8.504
G3 X-118.554 Y109.897 Z-8.752 I1.171 J-0.812
X-118.3 Y110.709 Z-8.8 I-1.171 J0.812
G2 X-106.705 Y139.085 I40.517 J0 F700
X-78.441 Y150.95 I28.264 J-27.73
G1 X-78.25
G2 X-38.2 Y110.709 I0 J-40.05
X-49.93 Y82.58 I-39.592 J0
X-118.3 Y110.709 I-28.32 J28.32
X-116.851 Y112.855 I2.297 J0.011
G3 X-115.283 Y114.915 I-0.925 J2.331
G2 X-78.441 Y148.15 I37.033 J-4.015
G1 X-78.25
G2 X-78.25 Y73.65 I0 J-37.25
X-115.5 Y110.9 I0 J37.25
X-115.283 Y114.915 I37.25 J0
G3 X-117.87 Y115.881 Z-9.009 I-1.417 J0.154 F333.3
G1 X-120.896 Y111.521 Z-9.304
G3 X-118.554 Y109.897 Z-9.552 I1.171 J-0.812
X-118.3 Y110.709 Z-9.6 I-1.171 J0.812
G2 X-106.705 Y139.085 I40.517 J0 F700
X-78.441 Y150.95 I28.264 J-27.73
G1 X-78.25
G2 X-38.2 Y110.709 I0 J-40.05
X-49.93 Y82.58 I-39.592 J0
X-118.3 Y110.709 I-28.32 J28.32
X-116.851 Y112.855 I2.297 J0.011
G3 X-115.283 Y114.915 I-0.925 J2.331
G2 X-78.441 Y148.15 I37.033 J-4.015
G1 X-78.25
G2 X-78.25 Y73.65 I0 J-37.25
X-115.5 Y110.9 I0 J37.25
X-115.283 Y114.915 I37.25 J0
G3 X-117.87 Y115.881 Z-9.809 I-1.417 J0.154 F333.3
G1 X-120.896 Y111.521 Z-10.104
G3 X-118.554 Y109.897 Z-10.352 I1.171 J-0.812
X-118.3 Y110.709 Z-10.4 I-1.171 J0.812
G2 X-106.705 Y139.085 I40.517 J0 F700
X-78.441 Y150.95 I28.264 J-27.73
G1 X-78.25
G2 X-38.2 Y110.709 I0 J-40.05
X-49.93 Y82.58 I-39.592 J0
X-118.3 Y110.709 I-28.32 J28.32
X-116.851 Y112.855 I2.297 J0.011
G3 X-115.283 Y114.915 I-0.925 J2.331
G2 X-78.441 Y148.15 I37.033 J-4.015
G1 X-78.25
G2 X-78.25 Y73.65 I0 J-37.25
X-115.5 Y110.9 I0 J37.25
X-115.283 Y114.915 I37.25 J0
G3 X-117.87 Y115.881 Z-10.609 I-1.417 J0.154 F333.3
G1 X-120.896 Y111.521 Z-10.904
G3 X-118.554 Y109.897 Z-11.152 I1.171 J-0.812
X-118.3 Y110.709 Z-11.2 I-1.171 J0.812
G2 X-106.705 Y139.085 I40.517 J0 F700
X-78.441 Y150.95 I28.264 J-27.73
G1 X-78.25
G2 X-38.2 Y110.709 I0 J-40.05
X-49.93 Y82.58 I-39.592 J0
X-118.3 Y110.709 I-28.32 J28.32
X-116.851 Y112.855 I2.297 J0.011
G3 X-115.283 Y114.915 I-0.925 J2.331
G2 X-78.441 Y148.15 I37.033 J-4.015
G1 X-78.25
G2 X-78.25 Y73.65 I0 J-37.25
X-115.5 Y110.9 I0 J37.25
X-115.283 Y114.915 I37.25 J0
G3 X-117.87 Y115.881 Z-11.409 I-1.417 J0.154 F333.3
G1 X-120.896 Y111.521 Z-11.704
G3 X-118.554 Y109.897 Z-11.952 I1.171 J-0.812
X-118.3 Y110.709 Z-12 I-1.171 J0.812
G2 X-106.705 Y139.085 I40.517 J0 F700
X-78.441 Y150.95 I28.264 J-27.73
G1 X-78.25
G2 X-38.2 Y110.709 I0 J-40.05
X-49.93 Y82.58 I-39.592 J0
X-118.3 Y110.709 I-28.32 J28.32
X-116.851 Y112.855 I2.297 J0.011
G3 X-115.283 Y114.915 I-0.925 J2.331
G2 X-78.441 Y148.15 I37.033 J-4.015
G1 X-78.25
G2 X-78.25 Y73.65 I0 J-37.25
X-115.5 Y110.9 I0 J37.25
X-115.283 Y114.915 I37.25 J0
G3 X-117.87 Y115.881 Z-12.131 I-1.417 J0.154 F333.3
G1 X-120.896 Y111.521 Z-12.315
G3 X-118.554 Y109.897 Z-12.47 I1.171 J-0.812
X-118.3 Y110.709 Z-12.5 I-1.171 J0.812
G2 X-106.705 Y139.085 I40.517 J0 F700
X-78.441 Y150.95 I28.264 J-27.73
G1 X-78.25
G2 X-38.2 Y110.709 I0 J-40.05
X-49.93 Y82.58 I-39.592 J0
X-118.3 Y110.709 I-28.32 J28.32
X-116.851 Y112.855 I2.297 J0.011
G3 X-115.283 Y114.915 I-0.925 J2.331
G2 X-78.441 Y148.15 I37.033 J-4.015
G1 X-78.25
G2 X-78.25 Y73.65 I0 J-37.25
X-115.5 Y110.9 I0 J37.25
X-115.283 Y114.915 I37.25 J0
G3 X-117.87 Y115.881 Z-12.631 I-1.417 J0.154 F333.3
G1 X-120.896 Y111.521 Z-12.815
G3 X-118.554 Y109.897 Z-12.97 I1.171 J-0.812
X-118.3 Y110.709 Z-13 I-1.171 J0.812
G2 X-106.705 Y139.085 I40.517 J0 F700
X-78.441 Y150.95 I28.264 J-27.73
G1 X-78.25
G2 X-38.2 Y110.709 I0 J-40.05
X-49.93 Y82.58 I-39.592 J0
X-118.3 Y110.709 I-28.32 J28.32
X-116.851 Y112.855 I2.297 J0.011
G3 X-115.283 Y114.915 I-0.925 J2.331
G2 X-78.441 Y148.15 I37.033 J-4.015
G1 X-78.25
G2 X-78.25 Y73.65 I0 J-37.25
X-115.5 Y110.9 I0 J37.25
X-115.283 Y114.915 I37.25 J0
G0 Z7
X-237.538 Y52.993
Z2
G1 Z1.8 F700
Z-0.8
G3 X-237.09 Y53.883 I-5.428 J3.29
G2 X-228.505 Y66.935 I37.508 J-15.324
X-200.241 Y78.8 I28.264 J-27.73
X-171.865 Y67.205 I0 J-40.517
X-160 Y38.941 I-27.73 J-28.264
X-171.595 Y10.565 I-40.517 J0
X-199.859 Y-1.3 I-28.264 J27.73
X-228.235 Y10.295 I0 J40.517
X-240.1 Y38.559 I27.73 J28.264
X-237.09 Y53.883 I40.517 J0
X-234.961 Y55.291 I2.097 J-0.857
G3 X-232.756 Y56.579 I0.035 J2.47
G2 X-200.241 Y76 I32.707 J-17.829
G1 X-200.05
G2 X-200.05 Y1.5 I0 J-37.25
X-237.3 Y38.75 I0 J37.25
X-232.756 Y56.579 I37.25 J0
G3 X-233.4 Y58.55 Z-0.862 I-1.251 J0.682 F333.3
X-235.33 Y57.792 Z-0.925 I-0.608 J-1.289
G1 X-242.847 Y39.09 Z-1.465
G3 X-240.203 Y38.028 Z-1.585 I1.322 J-0.531
X-240.1 Y38.559 Z-1.6 I-1.322 J0.531
G2 X-228.505 Y66.935 I40.517 J0 F700
X-200.241 Y78.8 I28.264 J-27.73
X-171.865 Y67.205 I0 J-40.517
X-160 Y38.941 I-27.73 J-28.264
X-171.595 Y10.565 I-40.517 J0
X-199.859 Y-1.3 I-28.264 J27.73
X-228.235 Y10.295 I0 J40.517
X-240.1 Y38.559 I27.73 J28.264
X-238.649 Y40.696 I2.299 J0
G3 X-237.084 Y42.752 I-0.922 J2.325
G2 X-200.241 Y76 I37.035 J-4.002
G1 X-200.05
G2 X-200.05 Y1.5 I0 J-37.25
X-237.3 Y38.75 I0 J37.25
X-237.084 Y42.752 I37.25 J0
G3 X-239.671 Y43.719 Z-1.809 I-1.417 J0.153 F333.3
G1 X-242.695 Y39.373 Z-2.103
G3 X-240.355 Y37.745 Z-2.352 I1.17 J-0.814
X-240.1 Y38.559 Z-2.4 I-1.17 J0.814
G2 X-228.505 Y66.935 I40.517 J0 F700
X-200.241 Y78.8 I28.264 J-27.73
X-171.865 Y67.205 I0 J-40.517
X-160 Y38.941 I-27.73 J-28.264
X-171.595 Y10.565 I-40.517 J0
X-199.859 Y-1.3 I-28.264 J27.73
X-228.235 Y10.295 I0 J40.517
X-240.1 Y38.559 I27.73 J28.264
X-238.649 Y40.696 I2.299 J0
G3 X-237.084 Y42.752 I-0.922 J2.325
G2 X-200.241 Y76 I37.035 J-4.002
G1 X-200.05
G2 X-200.05 Y1.5 I0 J-37.25
X-237.3 Y38.75 I0 J37.25
X-237.084 Y42.752 I37.25 J0
G3 X-239.671 Y43.719 Z-2.609 I-1.417 J0.153 F333.3
G1 X-242.695 Y39.373 Z-2.903
G3 X-240.355 Y37.745 Z-3.152 I1.17 J-0.814
X-240.1 Y38.559 Z-3.2 I-1.17 J0.814
G2 X-228.505 Y66.935 I40.517 J0 F700
X-200.241 Y78.8 I28.264 J-27.73
X-171.865 Y67.205 I0 J-40.517
X-160 Y38.941 I-27.73 J-28.264
X-171.595 Y10.565 I-40.517 J0
X-199.859 Y-1.3 I-28.264 J27.73
X-228.235 Y10.295 I0 J40.517
X-240.1 Y38.559 I27.73 J28.264
X-238.649 Y40.696 I2.299 J0
G3 X-237.084 Y42.752 I-0.922 J2.325
G2 X-200.241 Y76 I37.035 J-4.002
G1 X-200.05
G2 X-200.05 Y1.5 I0 J-37.25
X-237.3 Y38.75 I0 J37.25
X-237.084 Y42.752 I37.25 J0
G3 X-239.671 Y43.719 Z-3.409 I-1.417 J0.153 F333.3
G1 X-242.695 Y39.373 Z-3.703
G3 X-240.355 Y37.745 Z-3.952 I1.17 J-0.814
X-240.1 Y38.559 Z-4 I-1.17 J0.814
G2 X-228.505 Y66.935 I40.517 J0 F700
X-200.241 Y78.8 I28.264 J-27.73
X-171.865 Y67.205 I0 J-40.517
X-160 Y38.941 I-27.73 J-28.264
X-171.595 Y10.565 I-40.517 J0
X-199.859 Y-1.3 I-28.264 J27.73
X-228.235 Y10.295 I0 J40.517
X-240.1 Y38.559 I27.73 J28.264
X-238.649 Y40.696 I2.299 J0
G3 X-237.084 Y42.752 I-0.922 J2.325
G2 X-200.241 Y76 I37.035 J-4.002
G1 X-200.05
G2 X-200.05 Y1.5 I0 J-37.25
X-237.3 Y38.75 I0 J37.25
X-237.084 Y42.752 I37.25 J0
G3 X-239.671 Y43.719 Z-4.209 I-1.417 J0.153 F333.3
G1 X-242.695 Y39.373 Z-4.503
G3 X-240.355 Y37.745 Z-4.752 I1.17 J-0.814
X-240.1 Y38.559 Z-4.8 I-1.17 J0.814
G2 X-228.505 Y66.935 I40.517 J0 F700
X-200.241 Y78.8 I28.264 J-27.73
X-171.865 Y67.205 I0 J-40.517
X-160 Y38.941 I-27.73 J-28.264
X-171.595 Y10.565 I-40.517 J0
X-199.859 Y-1.3 I-28.264 J27.73
X-228.235 Y10.295 I0 J40.517
X-240.1 Y38.559 I27.73 J28.264
X-238.649 Y40.696 I2.299 J0
G3 X-237.084 Y42.752 I-0.922 J2.325
G2 X-200.241 Y76 I37.035 J-4.002
G1 X-200.05
G2 X-200.05 Y1.5 I0 J-37.25
X-237.3 Y38.75 I0 J37.25
X-237.084 Y42.752 I37.25 J0
G3 X-239.671 Y43.719 Z-5.009 I-1.417 J0.153 F333.3
G1 X-242.695 Y39.373 Z-5.303
G3 X-240.355 Y37.745 Z-5.552 I1.17 J-0.814
X-240.1 Y38.559 Z-5.6 I-1.17 J0.814
G2 X-228.505 Y66.935 I40.517 J0 F700
X-200.241 Y78.8 I28.264 J-27.73
X-171.865 Y67.205 I0 J-40.517
X-160 Y38.941 I-27.73 J-28.264
X-171.595 Y10.565 I-40.517 J0
X-199.859 Y-1.3 I-28.264 J27.73
X-228.235 Y10.295 I0 J40.517
X-240.1 Y38.559 I27.73 J28.264
X-238.649 Y40.696 I2.299 J0
G3 X-237.084 Y42.752 I-0.922 J2.325
G2 X-200.241 Y76 I37.035 J-4.002
G1 X-200.05
G2 X-200.05 Y1.5 I0 J-37.25
X-237.3 Y38.75 I0 J37.25
X-237.084 Y42.752 I37.25 J0
G3 X-239.671 Y43.719 Z-5.809 I-1.417 J0.153 F333.3
G1 X-242.695 Y39.373 Z-6.103
G3 X-240.355 Y37.745 Z-6.352 I1.17 J-0.814
X-240.1 Y38.559 Z-6.4 I-1.17 J0.814
G2 X-228.505 Y66.935 I40.517 J0 F700
X-200.241 Y78.8 I28.264 J-27.73
X-171.865 Y67.205 I0 J-40.517
X-160 Y38.941 I-27.73 J-28.264
X-171.595 Y10.565 I-40.517 J0
X-199.859 Y-1.3 I-28.264 J27.73
X-228.235 Y10.295 I0 J40.517
X-240.1 Y38.559 I27.73 J28.264
X-238.649 Y40.696 I2.299 J0
G3 X-237.084 Y42.752 I-0.922 J2.325
G2 X-200.241 Y76 I37.035 J-4.002
G1 X-200.05
G2 X-200.05 Y1.5 I0 J-37.25
X-237.3 Y38.75 I0 J37.25
X-237.084 Y42.752 I37.25 J0
G3 X-239.671 Y43.719 Z-6.609 I-1.417 J0.153 F333.3
G1 X-242.695 Y39.373 Z-6.903
G3 X-240.355 Y37.745 Z-7.152 I1.17 J-0.814
X-240.1 Y38.559 Z-7.2 I-1.17 J0.814
G2 X-228.505 Y66.935 I40.517 J0 F700
X-200.241 Y78.8 I28.264 J-27.73
X-171.865 Y67.205 I0 J-40.517
X-160 Y38.941 I-27.73 J-28.264
X-171.595 Y10.565 I-40.517 J0
X-199.859 Y-1.3 I-28.264 J27.73
X-228.235 Y10.295 I0 J40.517
X-240.1 Y38.559 I27.73 J28.264
X-238.649 Y40.696 I2.299 J0
G3 X-237.084 Y42.752 I-0.922 J2.325
G2 X-200.241 Y76 I37.035 J-4.002
G1 X-200.05
G2 X-200.05 Y1.5 I0 J-37.25
X-237.3 Y38.75 I0 J37.25
X-237.084 Y42.752 I37.25 J0
G3 X-239.671 Y43.719 Z-7.409 I-1.417 J0.153 F333.3
G1 X-242.695 Y39.373 Z-7.703
G3 X-240.355 Y37.745 Z-7.952 I1.17 J-0.814
X-240.1 Y38.559 Z-8 I-1.17 J0.814
G2 X-228.505 Y66.935 I40.517 J0 F700
X-200.241 Y78.8 I28.264 J-27.73
X-171.865 Y67.205 I0 J-40.517
X-160 Y38.941 I-27.73 J-28.264
X-171.595 Y10.565 I-40.517 J0
X-199.859 Y-1.3 I-28.264 J27.73
X-228.235 Y10.295 I0 J40.517
X-240.1 Y38.559 I27.73 J28.264
X-238.649 Y40.696 I2.299 J0
G3 X-237.084 Y42.752 I-0.922 J2.325
G2 X-200.241 Y76 I37.035 J-4.002
G1 X-200.05
G2 X-200.05 Y1.5 I0 J-37.25
X-237.3 Y38.75 I0 J37.25
X-237.084 Y42.752 I37.25 J0
G3 X-239.671 Y43.719 Z-8.209 I-1.417 J0.153 F333.3
G1 X-242.695 Y39.373 Z-8.503
G3 X-240.355 Y37.745 Z-8.752 I1.17 J-0.814
X-240.1 Y38.559 Z-8.8 I-1.17 J0.814
G2 X-228.505 Y66.935 I40.517 J0 F700
X-200.241 Y78.8 I28.264 J-27.73
X-171.865 Y67.205 I0 J-40.517
X-160 Y38.941 I-27.73 J-28.264
X-171.595 Y10.565 I-40.517 J0
X-199.859 Y-1.3 I-28.264 J27.73
X-228.235 Y10.295 I0 J40.517
X-240.1 Y38.559 I27.73 J28.264
X-238.649 Y40.696 I2.299 J0
G3 X-237.084 Y42.752 I-0.922 J2.325
G2 X-200.241 Y76 I37.035 J-4.002
G1 X-200.05
G2 X-200.05 Y1.5 I0 J-37.25
X-237.3 Y38.75 I0 J37.25
X-237.084 Y42.752 I37.25 J0
G3 X-239.671 Y43.719 Z-9.009 I-1.417 J0.153 F333.3
G1 X-242.695 Y39.373 Z-9.303
G3 X-240.355 Y37.745 Z-9.552 I1.17 J-0.814
X-240.1 Y38.559 Z-9.6 I-1.17 J0.814
G2 X-228.505 Y66.935 I40.517 J0 F700
X-200.241 Y78.8 I28.264 J-27.73
X-171.865 Y67.205 I0 J-40.517
X-160 Y38.941 I-27.73 J-28.264
X-171.595 Y10.565 I-40.517 J0
X-199.859 Y-1.3 I-28.264 J27.73
X-228.235 Y10.295 I0 J40.517
X-240.1 Y38.559 I27.73 J28.264
X-238.649 Y40.696 I2.299 J0
G3 X-237.084 Y42.752 I-0.922 J2.325
G2 X-200.241 Y76 I37.035 J-4.002
G1 X-200.05
G2 X-200.05 Y1.5 I0 J-37.25
X-237.3 Y38.75 I0 J37.25
X-237.084 Y42.752 I37.25 J0
G3 X-239.671 Y43.719 Z-9.809 I-1.417 J0.153 F333.3
G1 X-242.695 Y39.373 Z-10.103
G3 X-240.355 Y37.745 Z-10.352 I1.17 J-0.814
X-240.1 Y38.559 Z-10.4 I-1.17 J0.814
G2 X-228.505 Y66.935 I40.517 J0 F700
X-200.241 Y78.8 I28.264 J-27.73
X-171.865 Y67.205 I0 J-40.517
X-160 Y38.941 I-27.73 J-28.264
X-171.595 Y10.565 I-40.517 J0
X-199.859 Y-1.3 I-28.264 J27.73
X-228.235 Y10.295 I0 J40.517
X-240.1 Y38.559 I27.73 J28.264
X-238.649 Y40.696 I2.299 J0
G3 X-237.084 Y42.752 I-0.922 J2.325
G2 X-200.241 Y76 I37.035 J-4.002
G1 X-200.05
G2 X-200.05 Y1.5 I0 J-37.25
X-237.3 Y38.75 I0 J37.25
X-237.084 Y42.752 I37.25 J0
G3 X-239.671 Y43.719 Z-10.609 I-1.417 J0.153 F333.3
G1 X-242.695 Y39.373 Z-10.903
G3 X-240.355 Y37.745 Z-11.152 I1.17 J-0.814
X-240.1 Y38.559 Z-11.2 I-1.17 J0.814
G2 X-228.505 Y66.935 I40.517 J0 F700
X-200.241 Y78.8 I28.264 J-27.73
X-171.865 Y67.205 I0 J-40.517
X-160 Y38.941 I-27.73 J-28.264
X-171.595 Y10.565 I-40.517 J0
X-199.859 Y-1.3 I-28.264 J27.73
X-228.235 Y10.295 I0 J40.517
X-240.1 Y38.559 I27.73 J28.264
X-238.649 Y40.696 I2.299 J0
G3 X-237.084 Y42.752 I-0.922 J2.325
G2 X-200.241 Y76 I37.035 J-4.002
G1 X-200.05
G2 X-200.05 Y1.5 I0 J-37.25
X-237.3 Y38.75 I0 J37.25
X-237.084 Y42.752 I37.25 J0
G3 X-239.671 Y43.719 Z-11.409 I-1.417 J0.153 F333.3
G1 X-242.695 Y39.373 Z-11.703
G3 X-240.355 Y37.745 Z-11.952 I1.17 J-0.814
X-240.1 Y38.559 Z-12 I-1.17 J0.814
G2 X-228.505 Y66.935 I40.517 J0 F700
X-200.241 Y78.8 I28.264 J-27.73
X-171.865 Y67.205 I0 J-40.517
X-160 Y38.941 I-27.73 J-28.264
X-171.595 Y10.565 I-40.517 J0
X-199.859 Y-1.3 I-28.264 J27.73
X-228.235 Y10.295 I0 J40.517
X-240.1 Y38.559 I27.73 J28.264
X-238.649 Y40.696 I2.299 J0
G3 X-237.084 Y42.752 I-0.922 J2.325
G2 X-200.241 Y76 I37.035 J-4.002
G1 X-200.05
G2 X-200.05 Y1.5 I0 J-37.25
X-237.3 Y38.75 I0 J37.25
X-237.084 Y42.752 I37.25 J0
G3 X-239.671 Y43.719 Z-12.131 I-1.417 J0.153 F333.3
G1 X-242.695 Y39.373 Z-12.314
G3 X-240.355 Y37.745 Z-12.47 I1.17 J-0.814
X-240.1 Y38.559 Z-12.5 I-1.17 J0.814
G2 X-228.505 Y66.935 I40.517 J0 F700
X-200.241 Y78.8 I28.264 J-27.73
X-171.865 Y67.205 I0 J-40.517
X-160 Y38.941 I-27.73 J-28.264
X-171.595 Y10.565 I-40.517 J0
X-199.859 Y-1.3 I-28.264 J27.73
X-228.235 Y10.295 I0 J40.517
X-240.1 Y38.559 I27.73 J28.264
X-238.649 Y40.696 I2.299 J0
G3 X-237.084 Y42.752 I-0.922 J2.325
G2 X-200.241 Y76 I37.035 J-4.002
G1 X-200.05
G2 X-200.05 Y1.5 I0 J-37.25
X-237.3 Y38.75 I0 J37.25
X-237.084 Y42.752 I37.25 J0
G3 X-239.671 Y43.719 Z-12.631 I-1.417 J0.153 F333.3
G1 X-242.695 Y39.373 Z-12.814
G3 X-240.355 Y37.745 Z-12.97 I1.17 J-0.814
X-240.1 Y38.559 Z-13 I-1.17 J0.814
G2 X-228.505 Y66.935 I40.517 J0 F700
X-200.241 Y78.8 I28.264 J-27.73
X-171.865 Y67.205 I0 J-40.517
X-160 Y38.941 I-27.73 J-28.264
X-171.595 Y10.565 I-40.517 J0
X-199.859 Y-1.3 I-28.264 J27.73
X-228.235 Y10.295 I0 J40.517
X-240.1 Y38.559 I27.73 J28.264
X-238.649 Y40.696 I2.299 J0
G3 X-237.084 Y42.752 I-0.922 J2.325
G2 X-200.241 Y76 I37.035 J-4.002
G1 X-200.05
G2 X-200.05 Y1.5 I0 J-37.25
X-237.3 Y38.75 I0 J37.25
X-237.084 Y42.752 I37.25 J0
G0 Z7
X-156.888 Y52.993
Z2
G1 Z1.8 F700
Z-0.8
G3 X-156.44 Y53.883 I-5.428 J3.29
G2 X-147.855 Y66.935 I37.508 J-15.324
X-119.591 Y78.8 I28.264 J-27.73
G1 X-119.4
G2 X-79.35 Y38.559 I0 J-40.05
X-91.08 Y10.43 I-39.592 J0
X-159.45 Y38.559 I-28.32 J28.32
X-156.44 Y53.883 I40.517 J0
X-154.311 Y55.291 I2.097 J-0.857
G3 X-152.106 Y56.579 I0.035 J2.47
G2 X-119.591 Y76 I32.707 J-17.829
G1 X-119.4
G2 X-119.4 Y1.5 I0 J-37.25
X-156.65 Y38.75 I0 J37.25
X-152.106 Y56.579 I37.25 J0
G3 X-152.75 Y58.55 Z-0.862 I-1.251 J0.682 F333.3
X-154.68 Y57.792 Z-0.925 I-0.608 J-1.289
G1 X-162.197 Y39.09 Z-1.465
G3 X-159.553 Y38.028 Z-1.585 I1.322 J-0.531
X-159.45 Y38.559 Z-1.6 I-1.322 J0.531
G2 X-147.855 Y66.935 I40.517 J0 F700
X-119.591 Y78.8 I28.264 J-27.73
G1 X-119.4
G2 X-79.35 Y38.559 I0 J-40.05
X-91.08 Y10.43 I-39.592 J0
X-159.45 Y38.559 I-28.32 J28.32
X-158.001 Y40.705 I2.297 J0.011
G3 X-156.433 Y42.765 I-0.925 J2.331
G2 X-119.591 Y76 I37.033 J-4.015
G1 X-119.4
G2 X-119.4 Y1.5 I0 J-37.25
X-156.65 Y38.75 I0 J37.25
X-156.433 Y42.765 I37.25 J0
G3 X-159.02 Y43.731 Z-1.809 I-1.417 J0.154 F333.3
G1 X-162.046 Y39.371 Z-2.104
G3 X-159.704 Y37.747 Z-2.352 I1.171 J-0.812
X-159.45 Y38.559 Z-2.4 I-1.171 J0.812
G2 X-147.855 Y66.935 I40.517 J0 F700
X-119.591 Y78.8 I28.264 J-27.73
G1 X-119.4
G2 X-79.35 Y38.559 I0 J-40.05
X-91.08 Y10.43 I-39.592 J0
X-159.45 Y38.559 I-28.32 J28.32
X-158.001 Y40.705 I2.297 J0.011
G3 X-156.433 Y42.765 I-0.925 J2.331
G2 X-119.591 Y76 I37.033 J-4.015
G1 X-119.4
G2 X-119.4 Y1.5 I0 J-37.25
X-156.65 Y38.75 I0 J37.25
X-156.433 Y42.765 I37.25 J0
G3 X-159.02 Y43.731 Z-2.609 I-1.417 J0.154 F333.3
G1 X-162.046 Y39.371 Z-2.904
G3 X-159.704 Y37.747 Z-3.152 I1.171 J-0.812
X-159.45 Y38.559 Z-3.2 I-1.171 J0.812
G2 X-147.855 Y66.935 I40.517 J0 F700
X-119.591 Y78.8 I28.264 J-27.73
G1 X-119.4
G2 X-79.35 Y38.559 I0 J-40.05
X-91.08 Y10.43 I-39.592 J0
X-159.45 Y38.559 I-28.32 J28.32
X-158.001 Y40.705 I2.297 J0.011
G3 X-156.433 Y42.765 I-0.925 J2.331
G2 X-119.591 Y76 I37.033 J-4.015
G1 X-119.4
G2 X-119.4 Y1.5 I0 J-37.25
X-156.65 Y38.75 I0 J37.25
X-156.433 Y42.765 I37.25 J0
G3 X-159.02 Y43.731 Z-3.409 I-1.417 J0.154 F333.3
G1 X-162.046 Y39.371 Z-3.704
G3 X-159.704 Y37.747 Z-3.952 I1.171 J-0.812
X-159.45 Y38.559 Z-4 I-1.171 J0.812
G2 X-147.855 Y66.935 I40.517 J0 F700
X-119.591 Y78.8 I28.264 J-27.73
G1 X-119.4
G2 X-79.35 Y38.559 I0 J-40.05
X-91.08 Y10.43 I-39.592 J0
X-159.45 Y38.559 I-28.32 J28.32
X-158.001 Y40.705 I2.297 J0.011
G3 X-156.433 Y42.765 I-0.925 J2.331
G2 X-119.591 Y76 I37.033 J-4.015
G1 X-119.4
G2 X-119.4 Y1.5 I0 J-37.25
X-156.65 Y38.75 I0 J37.25
X-156.433 Y42.765 I37.25 J0
G3 X-159.02 Y43.731 Z-4.209 I-1.417 J0.154 F333.3
G1 X-162.046 Y39.371 Z-4.504
G3 X-159.704 Y37.747 Z-4.752 I1.171 J-0.812
X-159.45 Y38.559 Z-4.8 I-1.171 J0.812
G2 X-147.855 Y66.935 I40.517 J0 F700
X-119.591 Y78.8 I28.264 J-27.73
G1 X-119.4
G2 X-79.35 Y38.559 I0 J-40.05
X-91.08 Y10.43 I-39.592 J0
X-159.45 Y38.559 I-28.32 J28.32
X-158.001 Y40.705 I2.297 J0.011
G3 X-156.433 Y42.765 I-0.925 J2.331
G2 X-119.591 Y76 I37.033 J-4.015
G1 X-119.4
G2 X-119.4 Y1.5 I0 J-37.25
X-156.65 Y38.75 I0 J37.25
X-156.433 Y42.765 I37.25 J0
G3 X-159.02 Y43.731 Z-5.009 I-1.417 J0.154 F333.3
G1 X-162.046 Y39.371 Z-5.304
G3 X-159.704 Y37.747 Z-5.552 I1.171 J-0.812
X-159.45 Y38.559 Z-5.6 I-1.171 J0.812
G2 X-147.855 Y66.935 I40.517 J0 F700
X-119.591 Y78.8 I28.264 J-27.73
G1 X-119.4
G2 X-79.35 Y38.559 I0 J-40.05
X-91.08 Y10.43 I-39.592 J0
X-159.45 Y38.559 I-28.32 J28.32
X-158.001 Y40.705 I2.297 J0.011
G3 X-156.433 Y42.765 I-0.925 J2.331
G2 X-119.591 Y76 I37.033 J-4.015
G1 X-119.4
G2 X-119.4 Y1.5 I0 J-37.25
X-156.65 Y38.75 I0 J37.25
X-156.433 Y42.765 I37.25 J0
G3 X-159.02 Y43.731 Z-5.809 I-1.417 J0.154 F333.3
G1 X-162.046 Y39.371 Z-6.104
G3 X-159.704 Y37.747 Z-6.352 I1.171 J-0.812
X-159.45 Y38.559 Z-6.4 I-1.171 J0.812
G2 X-147.855 Y66.935 I40.517 J0 F700
X-119.591 Y78.8 I28.264 J-27.73
G1 X-119.4
G2 X-79.35 Y38.559 I0 J-40.05
X-91.08 Y10.43 I-39.592 J0
X-159.45 Y38.559 I-28.32 J28.32
X-158.001 Y40.705 I2.297 J0.011
G3 X-156.433 Y42.765 I-0.925 J2.331
G2 X-119.591 Y76 I37.033 J-4.015
G1 X-119.4
G2 X-119.4 Y1.5 I0 J-37.25
X-156.65 Y38.75 I0 J37.25
X-156.433 Y42.765 I37.25 J0
G3 X-159.02 Y43.731 Z-6.609 I-1.417 J0.154 F333.3
G1 X-162.046 Y39.371 Z-6.904
G3 X-159.704 Y37.747 Z-7.152 I1.171 J-0.812
X-159.45 Y38.559 Z-7.2 I-1.171 J0.812
G2 X-147.855 Y66.935 I40.517 J0 F700
X-119.591 Y78.8 I28.264 J-27.73
G1 X-119.4
G2 X-79.35 Y38.559 I0 J-40.05
X-91.08 Y10.43 I-39.592 J0
X-159.45 Y38.559 I-28.32 J28.32
X-158.001 Y40.705 I2.297 J0.011
G3 X-156.433 Y42.765 I-0.925 J2.331
G2 X-119.591 Y76 I37.033 J-4.015
G1 X-119.4
G2 X-119.4 Y1.5 I0 J-37.25
X-156.65 Y38.75 I0 J37.25
X-156.433 Y42.765 I37.25 J0
G3 X-159.02 Y43.731 Z-7.409 I-1.417 J0.154 F333.3
G1 X-162.046 Y39.371 Z-7.704
G3 X-159.704 Y37.747 Z-7.952 I1.171 J-0.812
X-159.45 Y38.559 Z-8 I-1.171 J0.812
G2 X-147.855 Y66.935 I40.517 J0 F700
X-119.591 Y78.8 I28.264 J-27.73
G1 X-119.4
G2 X-79.35 Y38.559 I0 J-40.05
X-91.08 Y10.43 I-39.592 J0
X-159.45 Y38.559 I-28.32 J28.32
X-158.001 Y40.705 I2.297 J0.011
G3 X-156.433 Y42.765 I-0.925 J2.331
G2 X-119.591 Y76 I37.033 J-4.015
G1 X-119.4
G2 X-119.4 Y1.5 I0 J-37.25
X-156.65 Y38.75 I0 J37.25
X-156.433 Y42.765 I37.25 J0
G3 X-159.02 Y43.731 Z-8.209 I-1.417 J0.154 F333.3
G1 X-162.046 Y39.371 Z-8.504
G3 X-159.704 Y37.747 Z-8.752 I1.171 J-0.812
X-159.45 Y38.559 Z-8.8 I-1.171 J0.812
G2 X-147.855 Y66.935 I40.517 J0 F700
X-119.591 Y78.8 I28.264 J-27.73
G1 X-119.4
G2 X-79.35 Y38.559 I0 J-40.05
X-91.08 Y10.43 I-39.592 J0
X-159.45 Y38.559 I-28.32 J28.32
X-158.001 Y40.705 I2.297 J0.011
G3 X-156.433 Y42.765 I-0.925 J2.331
G2 X-119.591 Y76 I37.033 J-4.015
G1 X-119.4
G2 X-119.4 Y1.5 I0 J-37.25
X-156.65 Y38.75 I0 J37.25
X-156.433 Y42.765 I37.25 J0
G3 X-159.02 Y43.731 Z-9.009 I-1.417 J0.154 F333.3
G1 X-162.046 Y39.371 Z-9.304
G3 X-159.704 Y37.747 Z-9.552 I1.171 J-0.812
X-159.45 Y38.559 Z-9.6 I-1.171 J0.812
G2 X-147.855 Y66.935 I40.517 J0 F700
X-119.591 Y78.8 I28.264 J-27.73
G1 X-119.4
G2 X-79.35 Y38.559 I0 J-40.05
X-91.08 Y10.43 I-39.592 J0
X-159.45 Y38.559 I-28.32 J28.32
X-158.001 Y40.705 I2.297 J0.011
G3 X-156.433 Y42.765 I-0.925 J2.331
G2 X-119.591 Y76 I37.033 J-4.015
G1 X-119.4
G2 X-119.4 Y1.5 I0 J-37.25
X-156.65 Y38.75 I0 J37.25
X-156.433 Y42.765 I37.25 J0
G3 X-159.02 Y43.731 Z-9.809 I-1.417 J0.154 F333.3
G1 X-162.046 Y39.371 Z-10.104
G3 X-159.704 Y37.747 Z-10.352 I1.171 J-0.812
X-159.45 Y38.559 Z-10.4 I-1.171 J0.812
G2 X-147.855 Y66.935 I40.517 J0 F700
X-119.591 Y78.8 I28.264 J-27.73
G1 X-119.4
G2 X-79.35 Y38.559 I0 J-40.05
X-91.08 Y10.43 I-39.592 J0
X-159.45 Y38.559 I-28.32 J28.32
X-158.001 Y40.705 I2.297 J0.011
G3 X-156.433 Y42.765 I-0.925 J2.331
G2 X-119.591 Y76 I37.033 J-4.015
G1 X-119.4
G2 X-119.4 Y1.5 I0 J-37.25
X-156.65 Y38.75 I0 J37.25
X-156.433 Y42.765 I37.25 J0
G3 X-159.02 Y43.731 Z-10.609 I-1.417 J0.154 F333.3
G1 X-162.046 Y39.371 Z-10.904
G3 X-159.704 Y37.747 Z-11.152 I1.171 J-0.812
X-159.45 Y38.559 Z-11.2 I-1.171 J0.812
G2 X-147.855 Y66.935 I40.517 J0 F700
X-119.591 Y78.8 I28.264 J-27.73
G1 X-119.4
G2 X-79.35 Y38.559 I0 J-40.05
X-91.08 Y10.43 I-39.592 J0
X-159.45 Y38.559 I-28.32 J28.32
X-158.001 Y40.705 I2.297 J0.011
G3 X-156.433 Y42.765 I-0.925 J2.331
G2 X-119.591 Y76 I37.033 J-4.015
G1 X-119.4
G2 X-119.4 Y1.5 I0 J-37.25
X-156.65 Y38.75 I0 J37.25
X-156.433 Y42.765 I37.25 J0
G3 X-159.02 Y43.731 Z-11.409 I-1.417 J0.154 F333.3
G1 X-162.046 Y39.371 Z-11.704
G3 X-159.704 Y37.747 Z-11.952 I1.171 J-0.812
X-159.45 Y38.559 Z-12 I-1.171 J0.812
G2 X-147.855 Y66.935 I40.517 J0 F700
X-119.591 Y78.8 I28.264 J-27.73
G1 X-119.4
G2 X-79.35 Y38.559 I0 J-40.05
X-91.08 Y10.43 I-39.592 J0
X-159.45 Y38.559 I-28.32 J28.32
X-158.001 Y40.705 I2.297 J0.011
G3 X-156.433 Y42.765 I-0.925 J2.331
G2 X-119.591 Y76 I37.033 J-4.015
G1 X-119.4
G2 X-119.4 Y1.5 I0 J-37.25
X-156.65 Y38.75 I0 J37.25
X-156.433 Y42.765 I37.25 J0
G3 X-159.02 Y43.731 Z-12.131 I-1.417 J0.154 F333.3
G1 X-162.046 Y39.371 Z-12.315
G3 X-159.704 Y37.747 Z-12.47 I1.171 J-0.812
X-159.45 Y38.559 Z-12.5 I-1.171 J0.812
G2 X-147.855 Y66.935 I40.517 J0 F700
X-119.591 Y78.8 I28.264 J-27.73
G1 X-119.4
G2 X-79.35 Y38.559 I0 J-40.05
X-91.08 Y10.43 I-39.592 J0
X-159.45 Y38.559 I-28.32 J28.32
X-158.001 Y40.705 I2.297 J0.011
G3 X-156.433 Y42.765 I-0.925 J2.331
G2 X-119.591 Y76 I37.033 J-4.015
G1 X-119.4
G2 X-119.4 Y1.5 I0 J-37.25
X-156.65 Y38.75 I0 J37.25
X-156.433 Y42.765 I37.25 J0
G3 X-159.02 Y43.731 Z-12.631 I-1.417 J0.154 F333.3
G1 X-162.046 Y39.371 Z-12.815
G3 X-159.704 Y37.747 Z-12.97 I1.171 J-0.812
X-159.45 Y38.559 Z-13 I-1.171 J0.812
G2 X-147.855 Y66.935 I40.517 J0 F700
X-119.591 Y78.8 I28.264 J-27.73
G1 X-119.4
G2 X-79.35 Y38.559 I0 J-40.05
X-91.08 Y10.43 I-39.592 J0
X-159.45 Y38.559 I-28.32 J28.32
X-158.001 Y40.705 I2.297 J0.011
G3 X-156.433 Y42.765 I-0.925 J2.331
G2 X-119.591 Y76 I37.033 J-4.015
G1 X-119.4
G2 X-119.4 Y1.5 I0 J-37.25
X-156.65 Y38.75 I0 J37.25
X-156.433 Y42.765 I37.25 J0
G0 Z7
X-52.619 Y1.073
Z2
G1 Z1.8 F700
Z-0.8
G3 X-53.886 Y1.711 I-4.685 J-7.727
G2 X-66.935 Y10.295 I15.327 J37.507
X-78.8 Y38.559 I27.73 J28.264
X-67.205 Y66.935 I40.517 J0
X-38.941 Y78.8 I28.264 J-27.73
X-10.565 Y67.205 I0 J-40.517
X1.3 Y38.941 I-27.73 J-28.264
X-10.295 Y10.565 I-40.517 J0
X-38.559 Y-1.3 I-28.264 J27.73
X-53.886 Y1.711 I0 J40.517
X-55.294 Y3.84 I0.857 J2.097
G3 X-56.581 Y6.045 I-2.47 J0.036
G2 X-76 Y38.75 I17.831 J32.705
X-38.941 Y76 I37.25 J0
G1 X-38.75
